JNU-Tangyin/eata/results/Batch4_SP500/Batch4_SP500-JNPR.csv
Date,Action,Predicted_Q25,Predicted_Q75,Actual_Q25,Actual_Q75,RL_Reward
2010-12-14,0,0.0,0.0,-0.002158712845867063,0.009638118960585236,0.9910098212194183
2010-12-16,1,0.001372618123505329,0.0013957515010414485,-0.0022740496230169204,0.009638118960585236,0.9914031677423047
2010-12-20,1,0.0018798922367384149,0.0019281664974859778,-0.00363863628496767,0.008678530480501408,0.9898862340879896
2010-12-22,0,0.0,0.0,-0.009100913699114227,0.00724541957332423,0.9883081550215174
2010-12-27,0,0.0,0.0,-0.004253685852741224,0.00724541957332423,0.989450680544805
2010-12-29,0,0.0,0.0,-0.004253685852741224,0.008678530480501408,0.9863387939800373
2010-12-31,0,0.0,0.0,-0.006628745037047612,0.009638118960585236,0.9846689200801526
2011-01-04,0,0.0,0.0,-0.006628745037047612,0.012649041181978822,0.9843880802251391
2011-01-06,0,0.0,0.0,-0.006628745037047612,0.013209556491520148,0.9828118086170059
2011-01-10,0,0.0,0.0,-0.002814580064278798,0.013209556491520148,0.9833443915980276
2011-01-12,0,0.0,0.0,-0.002814580064278798,0.014088633723536852,0.9805329671549422
2011-01-14,0,0.0,0.0,-0.002147574512090341,0.013954435499085259,0.9810565306556084
2011-01-19,0,0.0,0.0,-0.0002572736532886267,0.016655569042127928,0.9819121791636023
2011-01-21,0,0.0,0.0,0.00027272456958344526,0.016655569042127928,0.9838972789382013
2011-01-25,0,0.0,0.0,-0.001127237987068226,0.016655569042127928,0.9811454174325174
2011-01-27,0,0.0,0.0,-0.001127237987068226,0.017095593187051998,0.9815997657942727
2011-01-31,1,0.00013251952860860263,0.0005484002624822535,-0.001127237987068226,0.01646994546120687,0.9831580832257729
2011-02-02,1,0.0009786836040753754,0.0012238327402845212,-0.001127237987068226,0.014101110214059949,0.9837809769797705
2011-02-04,1,0.0032378523455591276,0.0033203141130705677,-0.001127237987068226,0.009854108004800577,0.9859236542090697
2011-02-08,1,0.00334512567606437,0.0034598127713729916,-0.006997600343211168,0.009854108004800577,0.9847103245917253
2011-02-10,1,0.005686989967024582,0.006147059138128203,-0.014292626782221911,0.009854108004800577,0.9840272677346287
2011-02-14,1,0.004963045875931202,0.00525741798650084,-0.019111462043551984,0.009854108004800577,0.9832097644025669
2011-02-16,1,0.004709110874990796,0.004967556064450533,-0.020948205003200198,0.008222661204893175,0.9826834116627621
2011-02-18,1,0.005311164179797493,0.005724287016910637,-0.020948205003200198,0.0072157000350605415,0.9820998836908249
2011-02-23,1,0.00254775396784279,0.0025706960698539004,-0.019111462043551984,0.009180797761449682,0.9828899559765192
2011-02-25,1,0.0047671760048473896,0.005046203677700919,-0.019111462043551984,0.0072157000350605415,0.9843141550218524
2011-03-01,1,0.0038872158974422475,0.004042671267931379,-0.019184816610958402,0.009180797761449682,0.9839841092966735
2011-03-03,1,0.004253226532911039,0.004456422924628844,-0.019184816610958402,0.010303626116503605,0.9833114161217924
2011-03-07,0,0.0,0.0,-0.021574092686321447,0.009521101694454604,0.9806986170105468
2011-03-09,1,0.0031272981755519967,0.0031444986958620623,-0.019688441562576174,0.009521101694454604,0.9805351961408248
2011-03-11,1,0.0032616483228442,0.0033311245393528102,-0.018983149616826487,0.005680446917411107,0.9835770266137676
2011-03-15,1,0.0024145344349834038,0.0024534492188985142,-0.019063049052039857,0.006827483004713568,0.9836602579306696
2011-03-17,0,0.0,0.0,-0.016105257277549336,0.008518653961449746,0.9847855768341615
2011-03-21,0,0.0,0.0,-0.015532947133298072,0.008391278405119107,0.9855686680567255
2011-03-23,0,0.0,0.0,-0.014075677297411125,0.008391278405119107,0.9872254773334196
2011-03-25,0,0.0,0.0,-0.014075677297411125,0.008391278405119107,0.9868009964182491
2011-03-29,0,-0.0002802370341412675,8.271194764619292e-05,-0.014075677297411125,0.005812883964847072,0.9875672305705835
2011-03-31,1,0.001855676261813195,0.0019115932446792424,-0.014075677297411125,0.004110212082611016,0.9878055822378093
2011-04-04,0,0.0,0.0,-0.010659571715198803,0.004110212082611016,0.990061833101705
2011-04-06,-1,-0.0016119653692974634,-0.001241248989812065,-0.007361144074928543,0.005792680363221524,0.9910760370018259
2011-04-08,-1,-0.0031019452142084783,-0.0024979311330053195,-0.007361144074928543,0.005792680363221524,0.9914670138009904
2011-04-12,-1,-0.004231608990502407,-0.003439863483834657,-0.007186585394257546,0.008330667600242462,0.9908039798645968
2011-04-14,-1,-0.0022175977896581323,-0.0017576025871359764,-0.007186585394257546,0.0084464025103944,0.9898967410670768
2011-04-18,-1,-0.0037039670724688025,-0.0029805493133902967,-0.008467276802939204,0.0084464025103944,0.9891728181845861
2011-04-20,-1,-0.002076304979722524,-0.0015836722080277382,-0.008467276802939204,0.007427009470283071,0.989497419108606
2011-04-25,-1,-0.0020116810720233295,-0.0015250679214285359,-0.011208779090514393,0.004907067262215569,0.9893831598333428
2011-04-27,-1,-0.0027874899290763356,-0.002247758197365492,-0.011208779090514393,0.004907067262215569,0.9888965382344774
2011-04-29,-1,-0.00394711819183136,-0.0032182929741714156,-0.011208779090514393,0.006935506152737378,0.9884871905068324
2011-05-03,-1,-0.004031477847561346,-0.0033460816347775065,-0.012124128016251918,0.006935506152737378,0.9842256510786087
2011-05-05,-1,-0.003875350645618704,-0.0032265156424703,-0.013230535725499485,0.008120897690191716,0.9819946968682338
2011-05-09,-1,-0.004401513367406084,-0.0036785346995411635,-0.01754098291984074,0.010614800682940129,0.9796532809619568
2011-05-11,-1,-0.0022966458381596107,-0.0018824811888131846,-0.018530729915582377,0.004985355344393037,0.9803201305166036
2011-05-13,-1,-0.001251056437942823,-0.0009673921664251671,-0.028103013372861266,0.0033378234219507722,0.9790153709906575
2011-05-17,-1,-0.001990325644878216,-0.0016591803478037425,-0.029370093491617982,0.004985355344393037,0.9777845028584614
2011-05-19,0,0.0,0.0,-0.029370093491617982,0.004090326266137142,0.9774271228020961
2011-05-23,-1,-0.0034097478049805756,-0.002859974611965562,-0.028909015435827044,0.006510152181058108,0.9781066312496604
2011-05-25,-1,-0.004335939737452343,-0.0036818903879645504,-0.027401829513265353,0.010319164133433072,0.9776221152513705
2011-05-27,-1,-0.003935051063485219,-0.003340291098024994,-0.027401829513265353,0.016589112064399822,0.9771922741073178
2011-06-01,0,0.0,0.0,-0.024656055758941347,0.016589112064399822,0.9808484124794986
2011-06-03,0,0.0,0.0,-0.01767630435017796,0.016589112064399822,0.9818644668378093
2011-06-07,-1,-0.007847728876422879,-0.006742007235574318,-0.010750427812456678,0.015187791078590628,0.9845527105830332
2011-06-09,-1,-0.008448997941167859,-0.007299867844145704,-0.012482023296580366,0.016589112064399822,0.9817556200670847
2011-06-13,-1,-0.010318367907529427,-0.008997189788814088,-0.008719401008238516,0.016589112064399822,0.9825764148071271
2011-06-15,-1,-0.01269040902469264,-0.010990737078775363,-0.008719401008238516,0.015187791078590628,0.9832405243457837
2011-06-17,-1,-0.012590288646256862,-0.010906430253058201,-0.01159850627680603,0.015187791078590628,0.9830774035678481
2011-06-21,-1,-0.00988299004926562,-0.008640107136555705,-0.014968877598648669,0.015187791078590628,0.9834191278472537
2011-06-23,-1,-0.00935907830914076,-0.008186372324953886,-0.014968877598648669,0.015187791078590628,0.9831374505705486
2011-06-27,-1,-0.008336116848356936,-0.00732992267434379,-0.0190670651392476,0.01526610378337944,0.9827247707880978
2011-06-29,-1,-0.005265289599951015,-0.004714932874402252,-0.020089444411224462,0.01526610378337944,0.9776652536815318
2011-07-01,-1,-0.003968507427517442,-0.0035758997179163414,-0.020089444411224462,-0.0013847647160004982,0.9781448269483657
2011-07-06,-1,-0.0025812288726295854,-0.00248798745107217,-0.020089444411224462,0.010745568471918258,0.9756288150795276
2011-07-08,-1,-0.0017408787271638126,-0.0017337666266136315,-0.020089444411224462,0.00493210925184365,0.9752499496135192
2011-07-12,0,0.0,0.0,-0.022855322967669577,0.010745568471918258,0.9683124344252025
2011-07-14,0,0.0,0.0,-0.028803887607784573,0.02006005165085141,0.9644029408145272
2011-07-18,-1,-0.003135210431240685,-0.0029054739762318237,-0.028803887607784573,0.02006005165085141,0.9654076457386838
2011-07-20,-1,-0.0011061302979638115,-0.0010183385435362671,-0.028803887607784573,0.013881741919128308,0.9666634436246514
2011-07-22,-1,-0.0009989657776675043,-0.00090461048709434,-0.03633436123057712,0.005977500400913665,0.9651835835748385
2011-07-26,-1,-0.000707387117449504,-0.0005455859467897444,-0.03633436123057712,0.005977500400913665,0.9639594522609407
2011-07-28,-1,-0.003513259625914514,-0.0033589320829529885,-0.021096926920503523,0.007574949616163781,0.9687443468689496
2011-08-01,-1,-0.004249873782073118,-0.003992550913235868,-0.021096926920503523,0.02900877863323777,0.9661341029560272
2011-08-03,-1,-0.0030605699560267304,-0.0029465237677115314,-0.033423534531764096,0.01643673393025622,0.9666056782885577
2011-08-05,-1,-0.004812809766757445,-0.004491072095290278,-0.033423534531764096,0.01643673393025622,0.9670448668518311
2011-08-09,0,0.0,0.0,-0.021096926920503523,0.01643673393025622,0.9702875868326872
2011-08-11,-1,-0.0048125576739358284,-0.004478642306847443,-0.017433090475012996,0.01079375002139893,0.9752226926799443
2011-08-15,-1,-0.0036522564900798487,-0.00344196970464269,-0.017433090475012996,0.010786941406076632,0.9751443376753085
2011-08-17,0,0.0,0.0,-0.016819314202977203,0.010786941406076632,0.9741495506766892
2011-08-19,-1,-0.00629147131088105,-0.005823318775542876,-0.01594773674811387,0.010786941406076632,0.9765864392405087
2011-08-23,-1,-0.0033995480233993927,-0.003322096709859114,-0.020048634662509397,0.010540123254839532,0.9784300394267659
2011-08-25,-1,-0.004785331527235187,-0.004480224307945945,-0.020048634662509397,0.010540123254839532,0.9787418390426974
2011-08-29,0,0.0,0.0,-0.020048634662509397,0.008445010356833864,0.9789411606312255
2011-08-31,0,0.0,0.0,-0.024547064931002446,0.008445010356833864,0.977331983105839
2011-09-02,0,0.0,0.0,-0.024547064931002446,0.005819690224241958,0.9764784926307605
2011-09-07,0,0.0,0.0,-0.024547064931002446,0.008951732684262557,0.9751129492445841
2011-09-09,0,0.0,0.0,-0.024547064931002446,0.01230710838836271,0.9738674318492537
2011-09-13,0,0.0,0.0,-0.024547064931002446,0.016793502022944554,0.9723068402983881
2011-09-15,0,0.0,0.0,-0.020636259872800683,0.022732864845126696,0.9730357377152506
2011-09-19,0,0.0,0.0,-0.020636259872800683,0.026941502359411965,0.9697267457102808
2011-09-21,0,-0.0029006253866512375,0.0,-0.02624629641190635,0.03446361200682083,0.9672181041061281
2011-09-23,-1,-0.004518134737084793,-0.004361549392085372,-0.020636259872800683,0.03446361200682083,0.9651414977429956
2011-09-27,-1,-0.0023883931400740066,-0.002262550553932626,-0.020636259872800683,0.03446361200682083,0.9643131981128867
2011-09-29,0,0.0,0.0,-0.009300308526135706,0.041358712082938315,0.9650167050219163
2011-10-03,0,0.0,0.0,0.00710646635284002,0.041358712082938315,0.9669900793185489
2011-10-05,0,0.0,0.0,-0.010119159398675977,0.028695797074375796,0.9697511349570944
2011-10-07,0,0.0,0.0,-0.001604982207876904,0.028695797074375796,0.9704556750597748
2011-10-11,1,0.006495002489774686,0.0077160545177597534,-0.00950797043025084,0.03012861566144715,0.9734743535924193
2011-10-13,0,0.0,0.0,-0.011870591091770303,0.03012861566144715,0.9688345466681733
2011-10-17,0,0.0,0.0,-0.006432181798897255,0.03012861566144715,0.9715450899361878
2011-10-19,1,0.001274811453056517,0.0018714982383904492,-0.007964287366129065,0.022619616680995817,0.9757991827407709
2011-10-21,1,0.0014513163754021124,0.0019085014392509073,-0.011870591091770303,0.020070634146206977,0.9748221422033367
2011-10-25,1,0.0031216230269293325,0.003777455281264335,-0.020631400771009892,0.018314935159529058,0.9754752489581905
2011-10-27,1,0.005143708208765117,0.00611355342863873,-0.026694676660414998,0.012472973593046017,0.9746685449031821
2011-10-31,1,0.004517063953520423,0.005348001962698028,-0.026694676660414998,0.012836768945070744,0.9731422297921475
2011-11-02,1,0.0030044002140512975,0.003544088736707589,-0.02139323012986947,0.018314935159529058,0.9713003134074603
2011-11-04,1,0.0033228244910438747,0.0038857186641951045,-0.02139323012986947,0.023207629087485054,0.970020677688401
2011-11-08,1,0.003994556727392017,0.004643314550234609,-0.028637520436059674,0.016731281351350012,0.967581465805419
2011-11-10,1,0.0037611934979722493,0.004442953492438688,-0.028637520436059674,0.00031525728777866135,0.9675765718461729
2011-11-14,1,0.004729140876376037,0.005551608997452177,-0.03431064600766254,-0.006028830003208268,0.9668813635840902
2011-11-16,1,0.0040793013162485365,0.004826975952677944,-0.03431064600766254,-0.005223809110939705,0.9677605908874379
2011-11-18,1,0.0027730588928995487,0.0033547987244174314,-0.028637520436059674,-0.005223809110939705,0.9700692574974699
2011-11-22,0,0.0,0.0,-0.02204084472175103,0.0012944090520931421,0.9691456153531706
2011-11-25,0,0.0,0.0,-0.01709782203961638,0.0202048477035105,0.9685808112671856
2011-11-29,0,0.0,0.0,-0.016968666086435293,0.006824152063287256,0.9708763597277891
2011-12-01,0,0.0,0.0,-0.015091109170396005,0.0020635864668503614,0.9758071964145426
2011-12-05,1,0.004534956359476472,0.005204637794876196,-0.015091109170396005,-0.001073617409408616,0.9734689505554348
2011-12-07,1,0.001959815630211724,0.0022689128589265493,-0.01401021783245099,-0.001073617409408616,0.9785923201622068
2011-12-09,1,0.001358278334708758,0.0015949151222336114,-0.01352647317351308,0.0020635864668503614,0.9792791150046326
2011-12-13,0,-5.411759429593046e-05,8.741173431759395e-05,-0.012760741038866355,0.0020635864668503614,0.981904976185104
2011-12-15,-1,-0.00013733083539762577,-2.2200378263017152e-05,-0.01158824100545984,0.00514810199846932,0.981942918879413
2011-12-19,-1,-0.0032623468484238123,-0.002896532944651283,-0.00916228365100922,0.03661105751327425,0.9773195465663365
2011-12-21,-1,-0.0018920907370153935,-0.0016782765552514618,-0.010449025018360933,0.01448643410149729,0.9799188606998459
2011-12-23,1,0.0003227635627608396,0.00045225891286939003,-0.011900560539755144,0.013535350590922998,0.9805295918306642
2011-12-28,-1,-0.0016751906980852628,-0.0014890167147278582,-0.011900560539755144,0.013535350590922998,0.979915661036035
2011-12-30,-1,-0.003073337535461244,-0.0026995494727857002,-0.015230904187905197,0.013535350590922998,0.9789726707930595
2012-01-04,-1,-0.0007372297115628297,-0.0007166164705400441,-0.013348151851788479,0.013535350590922998,0.9785690750192677
2012-01-06,-1,-0.0017108398698550851,-0.0015964254144027461,-0.013348151851788479,0.029255638094429187,0.9768643569772842
2012-01-10,1,0.0005729331641257843,0.0006590426093135328,-0.013348151851788479,0.01666894220882977,0.9787859443247249
2012-01-12,-1,-0.0010344657457547267,-0.0007755567848282377,-0.019641442650005198,0.01666894220882977,0.9779083096655072
2012-01-17,1,7.465092067236742e-05,9.016705432272223e-05,-0.019641442650005198,0.01666894220882977,0.9780174928189166
2012-01-19,1,0.0034080462869515203,0.0037398128554999703,-0.019641442650005198,0.00895517375467853,0.9799048788010276
2012-01-23,1,0.0028913662331090948,0.0033323089956187827,-0.01273127613382478,0.00895517375467853,0.9818722416296857
2012-01-25,1,0.0024243652396290383,0.0026579970647746982,-0.011127648855928826,0.007505027399474909,0.983413459422224
2012-01-27,1,0.003090423461374436,0.0032944521916747536,-0.008440775324091222,0.007887187268252936,0.9848575930622284
2012-01-31,1,0.0027177138014090655,0.0030370423322189934,-0.008126093725338514,0.008284055162146278,0.9845259892018532
2012-02-02,1,0.00388627947694504,0.004367577201738749,-0.011880323732819774,0.007671095597103893,0.9844341057180112
2012-02-06,1,0.005127341731652543,0.005800367517284072,-0.01453640251610061,0.005211238487810818,0.9835138958587649
2012-02-08,1,0.0044111699316658455,0.004889280243952349,-0.01453640251610061,0.005211238487810818,0.9836358901490428
2012-02-10,1,0.003249057272106858,0.0035004369572101063,-0.012818547754796343,0.005211238487810818,0.9842132153360023
2012-02-14,1,0.0028044017215350207,0.002955498980399796,-0.01453640251610061,0.00751157701024473,0.983131567870706
2012-02-16,1,0.004124006893485885,0.004385001153250969,-0.01453640251610061,0.00751157701024473,0.9848159358301587
2012-02-21,1,0.0041811776940448115,0.00452498861651525,-0.015256809054113423,0.007690744429413354,0.984388697217318
2012-02-23,1,0.0031847299397088596,0.0032395668291170126,-0.015256809054113423,0.007690744429413354,0.9846586496288684
2012-02-27,1,0.0012210006215806145,0.0015583347990499594,-0.015256809054113423,0.007744908829266004,0.9851618567732789
2012-02-29,1,0.0018130372119873088,0.0018620471914485614,-0.012818547754796343,0.00875603399299972,0.9852793878517303
2012-03-02,1,0.000565677253417487,0.0006877824944012498,-0.010957396442800728,0.011720686658018826,0.9860673027847494
2012-03-06,1,0.00022610734273335084,0.00032265380521719853,-0.007631765582362019,0.011720686658018826,0.9859229168439911
2012-03-08,1,0.000907398858587225,0.000951244674925473,-0.013103429050302448,0.00875603399299972,0.9851492801349112
2012-03-12,1,0.00029304278236298953,0.00040258953558900925,-0.014948896424842789,0.00875603399299972,0.9849619220218053
2012-03-14,1,0.00036158988803626307,0.0007042100008340254,-0.011794091136797625,0.012981600036739836,0.9845001303957136
2012-03-16,1,0.0032170922175614063,0.0035657569921278085,-0.01605093565499776,0.01115290077133287,0.983244794626518
2012-03-20,1,0.003379932642694341,0.003922863206646656,-0.01605093565499776,0.012981600036739836,0.9821099975095138
2012-03-22,1,0.003316536839684722,0.0039008743882897145,-0.01605093565499776,0.012981600036739836,0.981309774296162
2012-03-26,1,0.003660598279373991,0.004261311276849216,-0.016398080872260055,0.014442009373734062,0.9774529956177853
2012-03-28,1,0.003699784418742106,0.004374714094541696,-0.017954320399791338,0.014442009373734062,0.97647326199764
2012-03-30,1,0.004318602251636914,0.005096184827405389,-0.017954320399791338,0.009100633963092521,0.9767256904128712
2012-04-03,1,0.003221203096258896,0.00386643534260821,-0.017954320399791338,0.009100633963092521,0.9781951690556521
2012-04-05,1,0.0019946510137816556,0.0025153313955443074,-0.021046054704150132,0.009100633963092521,0.977103130777071
2012-04-10,1,0.001868152045396042,0.002426581253445653,-0.021792070979019397,0.009100633963092521,0.9760858664724259
2012-04-12,1,0.003188220740211442,0.003881442410549196,-0.025127982188053004,0.0021064102792636126,0.975265885134101
2012-04-16,1,0.00018878909067363323,0.0003454052032437652,-0.021792070979019397,0.0021064102792636126,0.9777801886098417
2012-04-18,-1,-7.52072337630069e-05,-5.10588538040688e-05,-0.022388044881201833,0.0021064102792636126,0.9793320495453068
2012-04-20,-1,-0.002078967188945496,-0.0017623292392463827,-0.022388044881201833,0.004592454395434656,0.9790010106969886
2012-04-24,1,0.002031278775334644,0.00223972957287198,-0.022388044881201833,0.004592454395434656,0.9809768102758626
2012-04-26,1,0.000773533429577677,0.0009147258123227595,-0.022388044881201833,0.0021064102792636126,0.9814324558576142
2012-04-30,1,0.0015352295772597937,0.0018627953381335385,-0.022388044881201833,0.004592454395434656,0.9806609164518282
2012-05-02,-1,-0.0010483012176602075,-0.0008435753592121788,-0.022388044881201833,0.004592454395434656,0.9818499283712542
2012-05-04,-1,-0.003933546286772623,-0.0032645901450794276,-0.02139529944570747,0.004592454395434656,0.9844885623428542
2012-05-08,-1,-0.005754809144873082,-0.004778643649591622,-0.017445300857132855,0.010407721113607027,0.9836943032489402
2012-05-10,-1,-0.007143465007784173,-0.005983090076430114,-0.017445300857132855,0.0157090059177463,0.9829140718581676
2012-05-14,-1,-0.009003748722443538,-0.00758120835924261,-0.017670625263072906,0.0157090059177463,0.9813872354441299
2012-05-16,-1,-0.008475184582959412,-0.007132445094792397,-0.015339315777939018,0.0157090059177463,0.9823616199303936
2012-05-18,-1,-0.007040734494387515,-0.005933743925804195,-0.01377438136079676,0.014438217338242005,0.9835647637347651
2012-05-22,-1,-0.006792738370875229,-0.00567687813639319,-0.01377438136079676,0.014438217338242005,0.9837552248618402
2012-05-24,-1,-0.008620288802320906,-0.007279745164167108,-0.011097749415993096,0.014438217338242005,0.9824878069217274
2012-05-29,-1,-0.007178305346374997,-0.006063315372110535,-0.01681165117276414,0.013153079602289027,0.9834630178122957
2012-05-31,-1,-0.008132687398664103,-0.006847184944857836,-0.01681165117276414,0.013153079602289027,0.9827182272383738
2012-06-04,-1,-0.0078037849269419176,-0.006635354176472757,-0.018302107280471627,0.014748984181455208,0.9796866429423454
2012-06-06,-1,-0.006107737057283937,-0.005158945456287383,-0.018302107280471627,0.013153079602289027,0.9812265757032007
2012-06-08,-1,-0.007681063475359467,-0.006528489616261648,-0.025306415727033446,0.010757947549084315,0.9823654690125588
2012-06-12,-1,-0.005994957087009726,-0.005182114151312622,-0.023860704019179817,0.00882958952600903,0.9832398550474732
2012-06-14,-1,-0.007940017839155801,-0.006801037050821751,-0.023860704019179817,0.00882958952600903,0.9833612954910339
2012-06-18,-1,-0.0075111195762244,-0.0064519549766816515,-0.023860704019179817,0.007149373694942381,0.9838579034011897
2012-06-20,-1,-0.004883750516976106,-0.004358423711353149,-0.023860704019179817,0.00882958952600903,0.9795317295251571
2012-06-22,-1,-0.0069974833910400585,-0.006199177958116758,-0.023860704019179817,0.0016388670800982124,0.981329139878085
2012-06-26,-1,-0.006761208384471686,-0.006047596001139847,-0.023860704019179817,0.010884801983099344,0.9763826602323339
2012-06-28,-1,-0.005326167599043214,-0.004903805721910034,-0.023860704019179817,0.025355027972936026,0.9728253844725248
2012-07-02,-1,-0.00423693350823915,-0.003958908429980751,-0.016783117997758994,0.018722349058502466,0.9758898677403942
2012-07-05,-1,-0.003363193854219703,-0.0031813769745741302,-0.016783117997758994,0.012701013851589258,0.976155702661574
2012-07-09,-1,-0.004801497031492304,-0.0044675527277825405,-0.012368942016642173,0.02893613609122302,0.9754605073469844
2012-07-11,0,0.0,0.0,-0.012368942016642173,0.02893613609122302,0.9752966797410954
2012-07-13,-1,-0.004746037261314383,-0.004525882340810484,-0.012368942016642173,0.03120627209917065,0.9733608840230188
2012-07-17,-1,-0.004818723152323988,-0.004582941950336885,-0.013792638895668025,0.03120627209917065,0.971512160806523
2012-07-19,-1,-0.0010748844336848236,-0.0008212839568756937,-0.013792638895668025,0.024018569097823003,0.9755884957324846
2012-07-23,-1,-0.0023885044792517907,-0.0023677515711262006,-0.009558265928194507,0.024018569097823003,0.9765653037683223
2012-07-25,0,0.0,0.0,-0.007710027029648161,0.020993052436172957,0.9822320204511291
2012-07-27,0,0.0,0.0,-0.009558265928194507,0.012820008442563242,0.9845781337874309
2012-07-31,-1,-0.0009722868704940753,-0.0007528373476547124,-0.007710027029648161,0.020993052436172957,0.9837614756384261
2012-08-02,-1,-0.0006778438989752032,-0.00042993211858645896,-0.009860086042772965,0.020993052436172957,0.9823492003186939
2012-08-06,1,0.0008634183353446734,0.0012657612511799091,-0.01518157467163911,0.009684567473545323,0.9835756818606379
2012-08-08,1,0.001819140184869406,0.002427261572004865,-0.012637399206252883,0.009684567473545323,0.982680261665777
2012-08-10,1,0.002595713828860337,0.003292028155772057,-0.016840190387420004,0.009684567473545323,0.9820224222557788
2012-08-14,1,0.0006448606761545648,0.001077251890287729,-0.008474639606729563,0.018710502810865306,0.9825104433375013
2012-08-16,1,0.002113902430129663,0.0027899971525693445,-0.008474639606729563,0.015281649585049822,0.9833771271114113
2012-08-20,1,0.0025462352914582937,0.003370561439167943,-0.012845588625326644,0.015281649585049822,0.9831082170484147
2012-08-22,1,0.003047211913104987,0.003986623518898065,-0.016283532764806784,0.015281649585049822,0.9823396205352752
2012-08-24,1,0.0017218833131377865,0.0024079183710460036,-0.012896162523191982,0.015281649585049822,0.9830652094206708
2012-08-28,0,0.0,0.0,-0.01864839199000386,0.00930888131879801,0.982126126584536
2012-08-30,1,0.0026908422783888204,0.003311274460204125,-0.01864839199000386,0.014922621280400429,0.9816842222066541
2012-09-04,1,0.0036351411820581656,0.004483025010222004,-0.020453394329988703,0.00727545531812097,0.9814908670400334
2012-09-06,0,0.0,0.0,-0.020453394329988703,0.004458588403575481,0.9845107898099555
2012-09-10,0,0.0,0.0,-0.016885200211468398,0.002586687416936039,0.9868258476901811
2012-09-12,0,0.0,0.0,-0.016885200211468398,-0.002240495199668645,0.9890244831149874
2012-09-14,0,0.0,0.0,-0.016885200211468398,-0.0013546366139269286,0.9894286431141298
2012-09-18,1,0.07950248474587573,0.08580768180348657,-0.014376528368948567,0.0,0.9203737170132574
2012-09-20,0,0.0,0.0,-0.012391741711220854,0.0013546079060918485,0.9852455698523652
2012-09-24,0,0.0,0.0,-0.015371937775555015,0.0013546079060918485,0.9847467684101321
2012-09-26,1,0.001548227062488862,0.001906826031103761,-0.010762080696991033,0.0013546079060918485,0.9817035814498838
2012-09-28,1,0.0009125262282772938,0.0011451441170731277,-0.008360179482932259,0.005106949597047688,0.9826638807657743
2012-10-02,-1,-8.586062093371746e-05,-5.213335439797506e-05,-0.007355786016004744,0.010791660473501127,0.9819918671395838
2012-10-04,-1,-0.0002983846286932215,-0.0002791641920204865,-0.008100218117480991,0.02074651428753993,0.9812933548435032
2012-10-08,-1,-0.0007115143084778538,-0.0006178447714524759,-0.008100218117480991,0.02074651428753993,0.980584466588316
2012-10-10,0,0.0,0.0,-0.008100218117480991,0.02074651428753993,0.9807660687895733
2012-10-12,0,0.0,0.0,-0.008905842079353792,0.02074651428753993,0.9791975494533017
2012-10-16,0,0.0,0.0,-0.00960636837313166,0.01192369799397375,0.9801305537015215
2012-10-18,0,0.0,0.0,-0.012806882903676986,0.008830891567346412,0.9813025264911885
2012-10-22,0,0.0,0.0,-0.010384078595121558,0.008830891567346412,0.9818070413264087
2012-10-24,-1,-0.003042796847531987,-0.0026407629264650198,-0.008905842079353792,0.01192369799397375,0.9838859832487201
2012-10-26,-1,-4.125127897988729e-05,-1.8224700707272906e-05,-0.008905842079353792,0.013998841866461564,0.9837474814582567
2012-11-01,1,0.0005165886469072129,0.0005567745469917004,-0.008905842079353792,0.012974653399995775,0.985262549941411
2012-11-05,1,0.0004018314013374797,0.00040991631951256395,-0.0065629898324644,0.011877629776656719,0.9858887358303384
2012-11-07,-1,-0.00012545051455818186,-1.526899802423593e-05,-0.0065629898324644,0.013860637214510474,0.9838424052190031
2012-11-09,1,0.0003709397446936311,0.0004057115539037328,-0.0030552940873204916,0.013860637214510474,0.9840346398035074
2012-11-13,1,7.344726877342739e-05,0.00011004793950733518,-0.00559767387573218,0.013860637214510474,0.9847420485875162
2012-11-15,-1,-0.0018594051023884642,-0.0015345214233402817,-0.0030552940873204916,0.017348316022718392,0.9850195759205571
2012-11-19,-1,-0.003211995508428416,-0.00266911326020554,-0.0009437630130271896,0.019706874653506304,0.9843562712539986
2012-11-21,-1,-0.0033280187762124444,-0.002781195778769034,-0.0009437630130271896,0.019706874653506304,0.9843973962008987
2012-11-26,-1,-0.0020311075803304355,-0.0016513214807359284,-0.005092328851527595,0.017348316022718392,0.9863957153777948
2012-11-28,1,0.00022989041567275979,0.00030807800075637894,-0.00559767387573218,0.012142252248094877,0.9890193680775473
2012-11-30,-1,-0.0009900060262137975,-0.0006711178141938892,-0.005778330076524492,0.012651087996872715,0.988107717226582
2012-12-04,-1,-0.0015629646051823684,-0.0011340456700786067,-0.006480923911843098,0.01607866717355672,0.9856861005365262
2012-12-06,1,1.3357769873369564e-05,0.00027852643179112203,-0.008160730068922383,0.0107786279183052,0.9874929645513335
2012-12-10,-1,-0.0005905437218116092,-0.00021600080782264585,-0.009242169740950709,0.01171755525637814,0.9865042340304604
2012-12-12,1,0.0005593800762154399,0.0006358538251385866,-0.008160730068922383,0.015608891756603849,0.9854418341355258
2012-12-14,1,0.00047425388484054654,0.0006512157251903274,-0.008160730068922383,0.0124885019833506,0.9862458829722689
2012-12-18,1,0.003023806531444548,0.003256892428164696,-0.008160730068922383,0.012322366828261034,0.9871085484921469
2012-12-20,1,0.004019230498610239,0.004520985875811585,-0.008160730068922383,0.012322366828261034,0.9874879996978083
2012-12-24,1,0.003044874968653675,0.003380335380884055,-0.007055914079148777,0.012322366828261034,0.9875292678204795
2012-12-27,1,0.0026768246645462864,0.002971424449164279,-0.010495782675791186,0.014465522712521398,0.9850592097856042
2012-12-31,1,0.0035655660765131353,0.004089758766653516,-0.010495782675791186,0.012322366828261034,0.9853794316496717
2013-01-03,1,0.004116600118061251,0.004711155480052339,-0.004568837589250197,0.012322366828261034,0.9866132844344871
2013-01-07,1,0.004599154216041847,0.005309077460442997,-0.002906762543991496,0.012322366828261034,0.9872781266782649
2013-01-09,1,0.003076998071793933,0.0034402871869515382,-0.0017411784561062408,0.011328581837280978,0.9881867977038029
2013-01-11,1,0.004784896225942939,0.005443579732578015,-0.004176276970416976,0.009311494169995448,0.9876016281593946
2013-01-15,1,0.004931097044209937,0.005581285492226284,-0.004942684089648354,0.007525534852983405,0.9872379999970861
2013-01-17,1,0.004966158219466282,0.005611254500613044,-0.004942684089648354,0.007134089671490381,0.9876075774293835
2013-01-22,1,0.004636010313928777,0.005164135137417526,-0.007022453913510199,0.007134089671490381,0.9861159272718789
2013-01-24,1,0.005157892935645738,0.005828815691255434,-0.008562671242890224,0.00590558561508841,0.9858042374680452
2013-01-28,1,0.0053937251231799275,0.006007323755293511,-0.013787059685592606,0.0034888302818188686,0.9860445302330474
2013-01-30,1,0.004508105545076203,0.005003485615772672,-0.007601390865507461,0.00590558561508841,0.9876340673471076
2013-02-01,1,0.005928762599186532,0.006664338160853619,-0.013787059685592606,0.0034888302818188686,0.9870101626533789
2013-02-05,1,0.005610729418361764,0.006277863069713244,-0.013787059685592606,0.0034888302818188686,0.9869978230300077
2013-02-07,1,0.007070815507811497,0.008061075177663246,-0.017519956559123688,0.005971206827281471,0.9834821097743581
2013-02-11,1,0.005283089510438466,0.006021518901041222,-0.013787059685592606,0.007330953308069564,0.9856948412651031
2013-02-13,1,0.005014998429803195,0.005667524760800916,-0.013787059685592606,0.007330953308069564,0.9852546951736573
2013-02-15,1,0.004735494309666313,0.005313077490267557,-0.016808819150651695,0.005971206827281471,0.9844766292007314
2013-02-20,1,0.003847314772149388,0.004272379219941682,-0.016808819150651695,0.005971206827281471,0.9838301848452492
2013-02-22,1,0.0023396072916319556,0.002452847156872595,-0.01682535899897567,0.003239088596709616,0.9837349266190182
2013-02-26,1,0.00018810160780234934,0.0003665625465523115,-0.01640695935193142,0.007475785797826097,0.985507027621882
2013-02-28,1,9.266228607273752e-05,0.0003259929848779848,-0.01640695935193142,0.003239088596709616,0.9858731403198674
2013-03-04,-1,-0.0012534828892119198,-0.0008535889270837199,-0.015009893973770288,0.003239088596709616,0.9868202469828945
2013-03-06,-1,-0.0014195252080701796,-0.0009875737232471905,-0.015009893973770288,0.0013000814947909181,0.9871696029183487
2013-03-08,0,0.0,0.0,-0.015009893973770288,0.0013000814947909181,0.9878264153072093
2013-03-12,0,0.0,0.0,-0.015009893973770288,0.0037078023122207307,0.9858402512242878
2013-03-14,1,5.6495346257707504e-05,0.00013001130282193772,-0.015234069957717086,0.008685992997514155,0.9853264626411133
2013-03-18,-1,-0.0009524256474528473,-0.0007757897773825258,-0.015234069957717086,0.008685992997514155,0.9845852931963138
2013-03-20,-1,-0.00045955544206211044,-0.0003765562020165175,-0.01762988418772289,0.0038125878515124054,0.9853586652949896
2013-03-22,-1,-0.005830713635057845,-0.004791022150538621,-0.015234069957717086,0.0038125878515124054,0.9866283983648398
2013-03-26,-1,-0.0043874032818777085,-0.0036480628769626623,-0.016513770553065535,0.0038125878515124054,0.9825468103519479
2013-03-28,-1,-0.003013136443518305,-0.002528337022018967,-0.016513770553065535,0.008849135448487807,0.9817650703697972
2013-04-02,-1,-0.0035496008069037174,-0.0029999620057702767,-0.016513770553065535,0.014019429961099096,0.9798904863298898
2013-04-04,0,0.0,0.0,-0.016513770553065535,0.014019429961099096,0.9795985461685064
2013-04-08,0,0.0,0.0,-0.014591631079478504,0.014019429961099096,0.9800335717328554
2013-04-10,-1,-0.003078991652506535,-0.002541011080963209,-0.014591631079478504,0.014019429961099096,0.9810223235480862
2013-04-12,-1,-0.003674012392570579,-0.0030355402861377417,-0.013151903679017456,0.014019429961099096,0.9816234240503696
2013-04-16,-1,-0.0046721111184773725,-0.003907849996851254,-0.010558257536760474,0.014019429961099096,0.9829092323012174
2013-04-18,-1,-0.006048824555329426,-0.005116497728440948,-0.007576499233941714,0.014791115099010608,0.9819658769438264
2013-04-22,-1,-0.00503527592577491,-0.004279900669089112,-0.007576499233941714,0.014791115099010608,0.9825135432081205
2013-04-24,-1,-0.005759681214408766,-0.005003666029675738,-0.007576499233941714,0.014791115099010608,0.9868301945156621
2013-04-26,-1,-0.005321652003876909,-0.004603780807568826,-0.00776823096928907,0.012557072681866663,0.987438771594078
2013-04-30,-1,-0.003921008536614857,-0.0033674464388785616,-0.00776823096928907,0.00794801460469545,0.9882853888281011
2013-05-02,-1,-0.003417880453300597,-0.0030123521406767305,-0.00776823096928907,0.00794801460469545,0.9882065899813545
2013-05-06,-1,-0.0024830908104063495,-0.002167010131600907,-0.008417855420227613,0.003572431215618396,0.9898274256281248
2013-05-08,-1,-0.002357419579116304,-0.002028515736582237,-0.008417855420227613,0.003572431215618396,0.9882299424957057
2013-05-10,-1,-0.002205703455924716,-0.0019505882443508155,-0.008417855420227613,0.004767272277756947,0.9869199207022474
2013-05-14,-1,-0.002017467026537537,-0.001825503180271795,-0.008417855420227613,0.005417622197059111,0.9853397373278897
2013-05-16,-1,-0.0010425523131530176,-0.0009604141336529634,-0.010025174815960469,0.005417622197059111,0.9844967574652133
2013-05-20,-1,-0.001487647246476487,-0.0013426054347794596,-0.00888172147754266,0.005417622197059111,0.984636816407472
2013-05-22,-1,-0.00206456853870981,-0.001828723241327903,-0.006723487949065241,0.005417622197059111,0.9850147751509383
2013-05-24,-1,-0.001772535908240446,-0.0015797685975368183,-0.011805664176555167,0.005417622197059111,0.9840426446148073
2013-05-29,-1,-0.00046282098973384064,-0.0004332303039356424,-0.011805664176555167,0.0032705293562200247,0.9855730357865097
2013-05-31,-1,-0.001252538784924063,-0.0011370119181834163,-0.007568505119186223,0.007100607628707137,0.9840964750735398
2013-06-04,-1,-0.0014364046310961186,-0.001305033561824196,-0.006099187488310164,0.010014876255541368,0.9835891495826695
2013-06-06,1,0.00010996162815247459,0.00021095143116980225,-0.006099187488310164,0.010077004117514306,0.9860513877055124
2013-06-10,1,0.0010351962837697906,0.0012784448835620123,-0.012554079605110562,0.010077004117514306,0.986085291555626
2013-06-12,1,0.0004587071745654014,0.0006266283516194703,-0.006099187488310164,0.014251791882422642,0.9869293474944499
2013-06-14,1,0.0013012368980491042,0.0016035331484182853,-0.001081664747111254,0.010480548933831085,0.989419231540222
2013-06-18,1,0.0015425240847817662,0.001889327805482437,-0.001081664747111254,0.010480548933831085,0.9891141490226162
2013-06-20,1,0.0020557750899860856,0.002499347250555035,-0.0007250232151811231,0.013731901527142324,0.9888171188977334
2013-06-24,1,0.0012453714539848166,0.0015466413310468866,0.0005001805427880678,0.014502576889886234,0.9883534240377723
2013-06-26,1,0.0015565922298669567,0.0019472608482891643,0.0037945255751548313,0.01677890953905335,0.987372180120865
2013-06-28,1,0.0028246186132217395,0.003393177275307075,0.00012429421155105044,0.015262036656321124,0.9885070691130404
2013-07-02,1,0.0023971667056165756,0.00291801899902675,0.00012429421155105044,0.016697844321798612,0.9882383876430051
2013-07-05,1,0.002684870815543157,0.0031975902925031807,-0.0026314989662247082,0.015897633022392547,0.9882080312181978
2013-07-09,1,0.0029062402547855616,0.0034632224793008076,-0.001037649204800244,0.014235839790084213,0.9895292868614374
2013-07-11,1,0.0035655309944461837,0.004224478989907956,-0.001037649204800244,0.01387866318894673,0.9905553109806939
2013-07-15,1,0.003938556003918128,0.004640241773657116,-0.008428936611639421,0.01387866318894673,0.987023604569699
2013-07-17,1,0.004306130884733628,0.005047893192947291,-0.008428936611639421,0.014235839790084213,0.9857882196149748
2013-07-19,1,0.003620304902049421,0.004207445064428391,-0.01132252500809902,0.014131816444425026,0.9842654059519318
2013-07-23,1,0.004399961480967178,0.005093045005650455,-0.011820290509285996,0.01280795655657473,0.9847792320814266
2013-07-25,1,0.004388450106790893,0.005040165753218178,-0.01647854361382273,0.007977490119687347,0.9845110065999223
2013-07-29,1,0.003598071445633998,0.004142602780632707,-0.012302230342698468,0.007977490119687347,0.9850057676182419
2013-07-31,1,0.004095328742466424,0.004741983173233853,-0.01647854361382273,0.006990641990340732,0.9845910118078046
2013-08-02,1,0.004173450600510961,0.004832729465298065,-0.01647854361382273,0.004098802920950848,0.9848631283066561
2013-08-06,1,0.0043373828621466395,0.005002252245203245,-0.01647854361382273,0.006990641990340732,0.9812586513002589
2013-08-08,1,0.004617517928467648,0.0053563330141949955,-0.01647854361382273,0.008288115029937655,0.9802111896956026
2013-08-12,1,0.0024656588872159846,0.002828768806835037,-0.010749508080286123,0.012701041403549239,0.9840863203538318
2013-08-14,1,0.0023562887734450517,0.0026390957315192577,-0.011277833280433955,0.01233551956252398,0.9843931892159155
2013-08-16,1,0.0016678969739235877,0.0018564250821831438,-0.010749508080286123,0.01233551956252398,0.986239002180614
2013-08-20,1,0.0014575164839258595,0.0016038147260912248,-0.00905825205792225,0.012573948470771468,0.9865173218132646
2013-08-22,1,0.0007191943689151254,0.0007433217719041606,-0.010733376353021927,0.012573948470771468,0.9858199009007856
2013-08-26,1,6.890602724942413e-05,0.00012624904271905428,-0.011229438098641362,0.012573948470771468,0.9848868211951849
2013-08-28,-1,-0.0008288785169341836,-0.0006388322095953517,-0.010733376353021927,0.012573948470771468,0.9860837533890314
2013-08-30,1,0.00016793044129312278,0.00018553215355630214,-0.010733376353021927,0.012573948470771468,0.9858013631240609
2013-09-04,1,0.0030200043804872977,0.003392501551665144,-0.010733376353021927,0.011476642113436306,0.9892811348638144
2013-09-06,1,0.0018444954432583166,0.0020002709336222153,-0.01021420675979506,0.011476642113436306,0.9890761022542447
2013-09-10,1,0.0013584492339546233,0.001369389342166183,-0.011229438098641362,0.00466676090533945,0.9884282092921332
2013-09-12,1,0.0008566061358398814,0.0009222765779742922,-0.011787470580097615,0.0020490578054759177,0.9887435098578226
2013-09-16,-1,-0.0009433382240011693,-0.0004778668492632129,-0.011787470580097615,0.009172934646508923,0.988240033059589
2013-09-18,0,-7.875733742606261e-05,0.00028395182770544645,-0.014210325429777486,0.003989582098381628,0.9858458977644372
2013-09-20,-1,-0.0003859826741261002,-8.736198988605029e-05,-0.014210325429777486,0.007201286188458602,0.9862576088832526
2013-09-24,-1,-0.0023178289997810198,-0.001748763833549127,-0.01092135541889143,0.007201286188458602,0.9870093664382183
2013-09-26,-1,-0.0018278994926130753,-0.0013744181166705878,-0.017020932105917378,0.007201286188458602,0.9831708133854578
2013-09-30,-1,-0.0019045081138951456,-0.0014772149384248584,-0.017020932105917378,0.008139966195601173,0.9828635843851771
2013-10-02,-1,-0.0016474168520419234,-0.0012374961165320542,-0.017170317478986504,0.007973496874558833,0.9825997015564686
2013-10-04,-1,-0.0007571880711507335,-0.00041606361212917205,-0.017170317478986504,0.007066732049455617,0.983950044747537
2013-10-08,-1,-0.00125106224669931,-0.0009039663198190858,-0.017170317478986504,0.007066732049455617,0.9846799040990734
2013-10-10,-1,-0.002435215823337775,-0.0019206792462025002,-0.016692703828205546,0.007973496874558833,0.9849882440241877
2013-10-14,-1,-0.00149853742835952,-0.0010730379776430843,-0.016692703828205546,0.007066732049455617,0.9846472868479093
2013-10-16,-1,-0.0010547596503205014,-0.0006709796496809368,-0.016022951407171866,0.007066732049455617,0.9861030391793987
2013-10-18,-1,-0.0008028550637411349,-0.0005214176039340212,-0.011738224647280313,0.007973496874558833,0.9857433199316106
2013-10-22,-1,-0.002354129155246538,-0.00183909680439693,-0.010934351492219059,0.007973496874558833,0.9860028989995752
2013-10-24,-1,-0.0059527029629734916,-0.004984773320752315,-0.008862475591058325,0.0089508487139833,0.9869345853271494
2013-10-28,-1,-0.00398504808298031,-0.0033584307222345655,-0.008862475591058325,0.014008616762184536,0.9872921932833797
2013-10-30,-1,-0.0037804527339485045,-0.0032257609565322773,-0.008862475591058325,0.014008616762184536,0.9874599786082441
2013-11-01,-1,-0.0049394829251441525,-0.00418867435679904,-0.005005822951245175,0.014008616762184536,0.9870368466457445
2013-11-05,-1,-0.003939288603633297,-0.003367365661489313,-0.005005822951245175,0.02169098650608977,0.986355324348168
2013-11-07,-1,-0.0037770259011123382,-0.003227654350605801,-0.005005822951245175,0.022778608290693888,0.9848181096161007
2013-11-11,-1,-0.002831084540176847,-0.002402026602493365,-0.0036189342949620625,0.02169098650608977,0.9868958289905374
2013-11-13,-1,-0.0032365619672759536,-0.002701359360365224,-0.00553818714894985,0.01658149901715827,0.987106729819129
2013-11-15,-1,-0.002270812526154086,-0.0018380847290065743,-0.00553818714894985,0.015716301674908503,0.9876747018730966
2013-11-19,-1,-0.002199151440369965,-0.0018572064465457868,-0.0035317017294654754,0.01628336693988789,0.9875627413581402
2013-11-21,-1,-0.0011864051357849182,-0.0009347842130446154,-0.003889600796176977,0.01628336693988789,0.9882171370721113
2013-11-25,-1,-0.00014654733758274704,-6.534913403827904e-05,-0.0041384269668311244,0.015177297591369956,0.9890348060628504
2013-11-27,-1,-0.0003071009698148023,-0.0002126592635301914,-0.003885310287565106,0.015177297591369956,0.989146598964399
2013-12-02,1,8.617797612133866e-05,9.682534925673133e-05,-0.003885310287565106,0.015177297591369956,0.9887147581426898
2013-12-04,1,0.0012226218493812818,0.0013826867900724558,-0.004024234839127582,0.014358643631663,0.9895005707809357
2013-12-06,1,0.0024358130302427465,0.0027818969197735744,-0.0041384269668311244,0.013163161989393175,0.9908404690881041
2013-12-10,1,0.002446979252929981,0.0028160839889267595,-0.004024234839127582,0.013163161989393175,0.9905367397233177
2013-12-12,1,0.0012737065081224782,0.001525320593715721,-0.003833453226765857,0.014547665386656129,0.9877252964109057
2013-12-16,1,0.002500152441723061,0.0029643856098973296,-0.003833453226765857,0.014547665386656129,0.9880471151849078
2013-12-18,1,0.0024460144796622446,0.0028514427638233466,-0.003589817939315158,0.014000784588713011,0.9883888262159237
2013-12-20,1,0.003202622421668686,0.0037161409511105767,-3.975872719959913e-06,0.013163161989393175,0.9898975402881071
2013-12-24,1,0.003218885393450669,0.0037445218489547457,-3.975872719959913e-06,0.014000784588713011,0.9868742523216588
2013-12-27,1,0.0034122025425007384,0.003965355344376292,-0.003589817939315158,0.013163161989393175,0.9864234101701731
2013-12-31,1,0.0037300700804401947,0.00433709985092541,-0.003589817939315158,0.011830579046397968,0.9868252817777617
2014-01-03,1,0.0028924598312797833,0.0032751339425753155,-0.004568408494271658,0.008975484659896296,0.9843867436150399
2014-01-07,1,0.00293398895341706,0.0033558020803756035,-0.003589817939315158,0.012495421401163002,0.9842265710007787
2014-01-09,1,0.002731433936173081,0.003084525737128978,-0.0003088293536898456,0.010554133603059311,0.9843193146639694
2014-01-13,1,0.005238798023268196,0.005911214498161467,-0.0027626284735069173,0.008662758518902814,0.9887388087980515
2014-01-15,1,0.005409164952197454,0.006059763775793899,-0.00423151821856456,0.008662758518902814,0.9877624446788734
2014-01-17,1,0.004778593543022093,0.005302465002178286,-0.003516625511325351,0.008662758518902814,0.9877527316234461
2014-01-22,1,0.004350224632201424,0.004779217355349122,-0.0072371961851187844,0.008662758518902814,0.9870926494712825
2014-01-24,1,0.005271140093641387,0.00580417831194673,-0.009543885370395721,0.008662758518902814,0.989013898426013
2014-01-28,1,0.006205208240794138,0.0070307774960280105,-0.009543885370395721,0.008662758518902814,0.9882389151133651
2014-01-30,1,0.005697712565254131,0.006421115498441364,-0.009827157068940991,0.008662758518902814,0.9875614622201003
2014-02-03,1,0.004573969402065801,0.00516289852491384,-0.009379031336624153,0.008662758518902814,0.9896533021981206
2014-02-05,1,0.0046396235634987995,0.005212742752741027,-0.009379031336624153,0.007937536161248685,0.9901865464316082
2014-02-07,1,0.004922972282188047,0.00552557882438031,-0.009379031336624153,0.004257341930097049,0.9895564111705043
2014-02-11,1,0.005410415960697985,0.006124995104454481,-0.009600271191000488,0.003705757458513449,0.9881648167840822
2014-02-13,1,0.004803307444797658,0.005360199559802465,-0.009600271191000488,0.003705757458513449,0.9885469557877138
2014-02-18,1,0.003842698299285802,0.00423619407309407,-0.010034318454321563,0.004257341930097049,0.9880813846177914
2014-02-20,1,0.0034840091688876007,0.003818600649490207,-0.010034318454321563,0.004257341930097049,0.9880697498047423
2014-02-24,1,0.003357539569025426,0.0036533954995532905,-0.010034318454321563,0.003705757458513449,0.988177007310201
2014-02-26,1,0.00297841078606072,0.003237751369343638,-0.010034318454321563,0.004257341930097049,0.9882359012814251
2014-02-28,1,0.0030631153415255404,0.0033891782051464325,-0.011210477515549558,0.00600390548207841,0.9876768093883839
2014-03-04,1,0.0018917272513099253,0.001990042389811254,-0.011210477515549558,0.012167798645706628,0.9876045012159259
2014-03-06,1,0.0017563081009993537,0.0018038198578527584,-0.011210477515549558,0.015012784914438129,0.9867585583211842
2014-03-10,1,0.0020987643078356167,0.0022559701699006347,-0.01566185580279645,0.015012784914438129,0.9843693165034323
2014-03-12,1,0.0017091593878660603,0.00182426904130568,-0.014427977398791078,0.015012784914438129,0.9859347186612902
2014-03-14,1,0.0016240265200911336,0.0016796879157928491,-0.01840194128454237,0.012167798645706628,0.9854688770348117
2014-03-18,1,0.0015309230298901982,0.001542634007986744,-0.01840194128454237,0.012167798645706628,0.9859722557575259
2014-03-20,0,-7.3369763860374904e-06,0.00029865691169355215,-0.01840194128454237,0.008937527006233152,0.9867038043403688
2014-03-24,-1,-0.0006638144279343819,-0.00031887917697859724,-0.015341339226039719,0.012167798645706628,0.9864192225991706
2014-03-26,-1,-0.0017722772163753773,-0.0012739134552797369,-0.015341339226039719,0.012408074578505813,0.9852414558237409
2014-03-28,-1,-0.0015122795436875427,-0.001037251236137368,-0.01928865753938538,0.011270735740789857,0.9843109301071375
2014-04-01,-1,-0.0005531692839476539,-0.00019850236081749592,-0.01928865753938538,0.011624137649514032,0.98453999288897
2014-04-03,-1,-0.0005881293134217965,-0.00021704031715203765,-0.01928865753938538,0.01005025988305162,0.9847769841387931
2014-04-07,-1,-0.002611318856241616,-0.0020164810895537217,-0.010592002359382121,0.01005025988305162,0.9866813703974686
2014-04-09,-1,-0.00237743937658586,-0.0018181793798183596,-0.010592002359382121,0.01005025988305162,0.9866774743544883
2014-04-11,-1,-0.00311818202944632,-0.00252820720413164,-0.0028232815976892015,0.01005025988305162,0.9875871789909606
2014-04-15,-1,-0.002897287274889383,-0.0022781096602421617,-0.006833455425989522,0.009165961366860275,0.9885062673223242
2014-04-17,-1,-0.0019972550053492426,-0.001540677162419818,-0.008661945557774275,0.009165961366860275,0.9887017883655582
2014-04-22,-1,-0.001289049965358629,-0.0009183262906657355,-0.010875979463404468,0.007638582154586539,0.989273538475606
2014-04-24,-1,-0.002214359836982549,-0.0017298667551296826,-0.008661945557774275,0.007638582154586539,0.9909235033848345
2014-04-28,-1,-0.0039818744467774655,-0.003284022619204186,-0.0028232815976892015,0.00867991969087711,0.9915101007856475
2014-04-30,-1,-0.002074533710700834,-0.0016495005335039833,-0.0028232815976892015,0.008445704527237235,0.992776582063429
2014-05-02,-1,-0.002123732084708967,-0.0017239462330195454,-0.0032336198662239147,0.007586126253669527,0.9914960033325331
2014-05-06,-1,-0.0025300879614495913,-0.002064273216497975,-0.0013178938885288574,0.007586126253669527,0.9912206820959765
2014-05-08,-1,-0.0034639854193227863,-0.002810649483763421,0.0002064248083576461,0.007586126253669527,0.9904509790520608
2014-05-12,-1,-0.0027091215117284176,-0.0021978787137709723,-0.0018097851041570573,0.0069922715088967455,0.9910801447989535
2014-05-14,-1,-0.002952485348511306,-0.002427784080581194,-0.001620069115596981,0.0069922715088967455,0.991565882119134
2014-05-16,-1,-0.002911613613883328,-0.002419716071717653,-0.0013184285269718901,0.008445704527237235,0.9914709901399277
2014-05-20,-1,-0.0031591237259883755,-0.0026288198953222713,-0.0006073029464767263,0.0084748931155462,0.9914104424736301
2014-05-22,-1,-0.0023604264720404793,-0.0019390065069281367,-0.0013184285269718901,0.0069922715088967455,0.9908413366136984
2014-05-27,-1,-0.0020868013607559972,-0.0016996786599169048,-0.0019256361039162889,0.00664581502719375,0.9908765842962984
2014-05-29,-1,-0.0016253696737253019,-0.0013069948059967029,-0.0019256361039162889,0.004322436806323592,0.9916759500697754
2014-06-02,-1,-0.002737992846511679,-0.0022736108995616428,-0.0013184285269718901,0.005277964751719278,0.9923356386708795
2014-06-04,-1,-0.002421930528014771,-0.0019974552647022614,-0.001625503910663667,0.005398500642490776,0.9923763843700063
2014-06-06,-1,-0.0008161251372639459,-0.0007050554470017629,-0.0019301612900336955,0.004858744158662748,0.9930468280559979
2014-06-10,-1,-0.0005631247179696617,-0.0005111617868753744,-0.0019301612900336955,0.007627674537090483,0.9914697653608016
2014-06-12,-1,-0.0007120527205214955,-0.0006377605874729134,-0.002452523205198579,0.007627674537090483,0.9913224640780983
2014-06-16,-1,-0.00019240713011797105,-0.0001831260993129295,-0.005001556453255441,0.004858744158662748,0.9918300357296339
2014-06-18,1,0.000705417738366771,0.0009113184802218763,-0.005376779849465864,0.0031811629274870246,0.9919657622548321
2014-06-20,-1,-0.0003006203933603987,-0.00023097206425442974,-0.005001556453255441,0.006468824735603441,0.9926289226628163
2014-06-24,-1,-0.0003459015358212601,-0.0002787197074055319,-0.005001556453255441,0.007089076573185682,0.9880955385770962
2014-06-26,-1,-0.0006945294636069448,-0.0006348582385888866,-0.005001556453255441,0.009973472401107577,0.9864323515534299
2014-06-30,-1,-0.00011575242744102496,-6.152148088021296e-05,-0.005001556453255441,0.011686059620373545,0.9862048355647041
2014-07-02,1,0.00037084186261836705,0.0005046968346715514,-0.005376779849465864,0.007831579089910912,0.9865905166283352
2014-07-07,1,0.0003902052808682602,0.000538793212461958,-0.006223485189164292,0.007831579089910912,0.9862213957301553
2014-07-09,1,0.0007339081869293819,0.0009537854794561205,-0.005132127081052829,0.005128315457276193,0.9878366425096954
2014-07-11,1,8.54257479963307e-05,0.0001910595917733096,-0.006223485189164292,0.0073256622250542506,0.9867439749664811
2014-07-15,1,5.105482841023069e-05,0.0001495949481799686,-0.004153230273723481,0.0073256622250542506,0.9868925617947834
2014-07-17,1,0.0002635648463230879,0.0004355060485055686,-0.004153230273723481,0.010320768021305212,0.9860277072780009
2014-07-21,1,0.0004792932216294944,0.0006204423411129687,-0.004153230273723481,0.010320768021305212,0.9866583831235953
2014-07-23,-1,-0.0011650535321050242,-0.0011021753822650319,-0.0010781323814607713,0.010320768021305212,0.9903587874369195
2014-07-25,-1,-0.0008820887244282404,-0.0008244088134518449,-0.0010781323814607713,0.008875825537470494,0.9917511877916203
2014-07-29,-1,-9.195096482523452e-05,-4.9894653672488974e-05,-0.008217662548753474,0.005657703743193415,0.9919756415686006
2014-07-31,-1,-0.00021985842499248442,-0.0001960139846356699,-0.010446404533762782,0.005657703743193415,0.9916627908129642
2014-08-04,-1,-0.0007052036991635667,-0.0006451718115362499,-0.004140580643831416,0.005657703743193415,0.9921652096773803
2014-08-06,-1,-0.00029760054974487275,-0.00029347811779331363,-0.004790210314607406,0.005267616093475489,0.9923688654318
2014-08-08,-1,-0.00012487324924462788,-8.52488689130875e-05,-0.002368899575112333,0.0071079562177085364,0.992944955660036
2014-08-12,0,-2.222155289748664e-05,4.978763306361431e-05,-0.003965298953285158,0.007888262070125062,0.9920495858643453
2014-08-14,-1,-0.0007824722477696934,-0.0007277325370417563,-0.003965298953285158,0.0071079562177085364,0.9924451066375001
2014-08-18,-1,-0.00043151566506100203,-0.0004068659950589016,-0.007600965096200835,0.00489227344166724,0.9923466747098171
2014-08-20,1,0.00020683649092183856,0.0002799305968305767,-0.007600965096200835,0.00224720247589564,0.9933550895571113
2014-08-22,1,0.0007357497073854173,0.0009174501359005706,-0.007762283886010265,0.0005428654622233498,0.993193218712399
2014-08-26,1,0.00032042217806196687,0.0004596593949048577,-0.005911219428943109,0.0008798200455184073,0.9943608379870407
2014-08-28,-1,-0.0003585361112262012,-0.00033522782124321764,-0.005911219428943109,0.0012063798559804049,0.9941642525855005
2014-09-02,-1,-0.0002906343292819462,-0.00028367058704255484,-0.005911219428943109,0.0012063798559804049,0.994071930267174
2014-09-04,-1,-0.0007335013288215292,-0.0006329640423630586,-0.006859381005412139,0.0013426199724386996,0.9928274516442914
2014-09-08,1,5.880610282655592e-06,2.6538712902198126e-05,-0.007762283886010265,0.0008798200455184073,0.9921609577513956
2014-09-10,1,0.00026457116824603506,0.00033433471278776044,-0.011760809603677138,-0.0007666338343497578,0.992146276629807
2014-09-12,0,-7.472810597194433e-05,6.449180768535373e-06,-0.013468653458657494,-0.0007666338343497578,0.9884635593309967
2014-09-16,-1,-0.0003979085717118863,-0.0003756687912260776,-0.01713531588975534,0.0008798200455184073,0.9876071161983994
2014-09-18,-1,-0.0014263687387738202,-0.0012562701713985747,-0.01713531588975534,0.0028147945704734777,0.9869375971993104
2014-09-22,-1,-0.0010210919357922115,-0.0009389565946756485,-0.01713531588975534,0.006451022818272138,0.9854760635845696
2014-09-24,-1,-0.0011591593474939025,-0.001051685778837577,-0.01750424266031181,0.011191049242126343,0.9835632340965184
2014-09-26,-1,-0.0015665438007502757,-0.0013707448723304103,-0.01890399481302891,0.013118417962174469,0.9798987475919709
2014-09-30,-1,-0.0014223474796826263,-0.001285276207051631,-0.01890399481302891,0.017115185145739578,0.9755496877502657
2014-10-02,-1,-0.0018276085909546549,-0.0016144268040438334,-0.017344684809784267,0.017115185145739578,0.976391410901513
2014-10-06,-1,-0.0024656091867068736,-0.0021684912084132847,-0.013468653458657494,0.017115185145739578,0.976966066458362
2014-10-08,-1,-0.003187028974362166,-0.0027928241593246647,-0.0030660403245875404,0.017115185145739578,0.9764202827448292
2014-10-10,-1,-0.005459259720109433,-0.004795486913410566,0.0024716576772582234,0.017115185145739578,0.9782965907282937
2014-10-14,-1,-0.005101811044857154,-0.004521794516268378,0.00035783263306201566,0.017115185145739578,0.9770722994497207
2014-10-16,-1,-0.0036881778933882375,-0.0033111442421935554,-0.004678227410628398,0.017118310551191646,0.9768295303861758
2014-10-20,-1,-0.0024847190790012576,-0.0022774489194205697,-0.004678227410628398,0.02099543502890918,0.9767713561387745
2014-10-22,-1,-0.0033663957280292388,-0.003002070971483907,-0.0013901858162377891,0.01875010241663925,0.9777214035459307
2014-10-24,-1,-0.003687033314409944,-0.0033021061519798675,-0.0008154671226764328,0.01752500362675988,0.9810239053846137
2014-10-28,-1,-0.0003165633676264922,-0.000288730455909114,-0.0008154671226764328,0.012524204227777239,0.9858320427785489
2014-10-30,-1,-0.0006639720162805489,-0.000660989527307551,-0.0028370124503536457,0.01226104256862025,0.986168021921149
2014-11-03,-1,-0.0005373271068767932,-0.0005258239404714487,-0.006813015396979557,0.01226104256862025,0.9851552722546892
2014-11-05,1,0.00014061891641046272,0.00026676806621761404,-0.006813015396979557,0.014461368859728208,0.9841821385899345
2014-11-07,1,0.000824714706048922,0.0010541465979790605,-0.012440004951348223,0.012839985302138831,0.9836168651247783
2014-11-11,-1,-0.0020721885171727478,-0.0018962768350278911,-0.006813015396979557,0.012839985302138831,0.9860551470505394
2014-11-13,-1,-0.0013169469683756113,-0.001218897749699189,-0.006813015396979557,0.010073036471111636,0.9878021706020489
2014-11-17,1,0.00010784300430233279,0.0002009591980130354,-0.006813015396979557,0.007975514650483044,0.9891187976428677
2014-11-19,1,0.0002624967944927938,0.00039339768019396135,-0.0050888593162954875,0.007975514650483044,0.988788665131313
2014-11-21,1,0.0009507246748366228,0.0011922966164231428,-0.004995652586316641,0.008293664767729504,0.9884738812822982
2014-11-25,1,0.0012978850755590498,0.001578429962883657,-0.004995652586316641,0.007080051185494447,0.9890226710014361
2014-11-28,1,0.0011073093747689436,0.0013557979806384838,-0.007261883568632813,0.007080051185494447,0.9887107516117264
2014-12-02,1,0.0003918219080134095,0.0005312697861845656,-0.004824972199908908,0.007080051185494447,0.9891276594408881
2014-12-04,1,0.0010928386969220683,0.001324316837041913,-0.007403389891012674,0.0066927890497419,0.9903881120205515
2014-12-08,1,0.00026152789382621503,0.0003702564533801044,-0.007403389891012674,0.007080051185494447,0.9900241048691754
2014-12-10,1,0.0004578426151242281,0.0006283589651755592,-0.004824972199908908,0.007688981058961504,0.9899629396034976
2014-12-12,-1,-0.0008844527737946221,-0.0007946567816293856,-0.004824972199908908,0.007688981058961504,0.9888913474245834
2014-12-16,1,0.00032738570928244254,0.00045522811840497816,-0.007806273012323124,0.006966465700285688,0.9876071155845749
2014-12-18,1,0.0013810623167996444,0.0016843925954608493,-0.007806273012323124,0.006966465700285688,0.9881359821465386
2014-12-22,1,0.0022739704821477095,0.0026830600529500117,-0.007806273012323124,0.0060232098226661555,0.9890429957580024
2014-12-24,1,0.002227950098415624,0.00260638518730239,-0.007806273012323124,0.0059584948503541,0.9889144400320792
2014-12-29,1,0.0018743099809864297,0.002213655147098541,-0.011842899147943852,0.007174373646411442,0.9871081549979578
2014-12-31,1,0.0011835291953676084,0.0014153720299610404,-0.007806273012323124,0.007174373646411442,0.9878922008865411
2015-01-05,1,0.0011824028087133957,0.001414922535765477,-0.00689208524539032,0.010016553464637888,0.9869285795594263
2015-01-07,1,0.001332681315410613,0.001555478173901162,-0.00689208524539032,0.010016553464637888,0.9866163473936131
2015-01-09,1,0.002096635950333667,0.0024473877287529864,-0.00859695950472163,0.008535522487864542,0.9870738819885756
2015-01-13,1,0.001805647849781506,0.002153340891442429,-0.00689208524539032,0.008535522487864542,0.9882199790175125
2015-01-15,1,0.0005345004154501591,0.0007303322527277588,-0.001425386224398898,0.010016553464637888,0.9891634852020416
2015-01-20,1,0.0009314129810124337,0.0011393050403209941,-0.0032302870330564526,0.008535522487864542,0.989422678331122
2015-01-22,1,0.0013973085350330895,0.0016568999037500972,-0.0032302870330564526,0.00888160278922633,0.9893624750657398
2015-01-26,1,0.0013752599403380828,0.0016305903563696264,-0.004039247577038188,0.011210128608603414,0.9889652636186389
2015-01-28,1,0.0015375094707710314,0.0018167485807595372,-0.004039247577038188,0.00888160278922633,0.990679087894332
2015-01-30,1,0.002183088371341017,0.002572965931264937,-0.007489817422550768,0.00888160278922633,0.990319478999856
2015-02-03,1,0.00295295150423014,0.003457756510435641,-0.007715299879778227,0.008215028111369933,0.9903076003328848
2015-02-05,1,0.002502170166989303,0.002896666296145629,-0.005941329234067241,0.008215028111369933,0.9913271513805542
2015-02-09,1,0.0018871450851321184,0.0021794904161431825,-0.005941329234067241,0.00888160278922633,0.9904224949391549
2015-02-11,1,0.002191812883625255,0.0025285659901262965,-0.005941329234067241,0.00888160278922633,0.9906841652870979
2015-02-13,1,0.0025703369401907,0.0029440109130621376,-0.006335283990996266,0.008704137576819326,0.9908102907944802
2015-02-18,1,0.0023111051478215665,0.002647637490982393,-0.0061454115534227164,0.009993920152252665,0.9904773020306095
2015-02-20,1,0.0026345369375897288,0.0029945652758087476,-0.0061454115534227164,0.0069355281979878326,0.9906290390516489
2015-02-24,1,0.0027195741308399836,0.003077343805742961,-0.007145682567057579,0.006276178758878096,0.9901181244715256
2015-02-26,1,0.0021186039289823517,0.002392744303548149,-0.010624850958165524,0.006276178758878096,0.9886414200018474
2015-03-02,1,0.0018066614346180102,0.0019992529211304948,-0.009475188943042553,0.007838406622516449,0.9887283849032793
2015-03-04,1,0.0005298476374655369,0.0005406099487177369,-0.0061454115534227164,0.007838406622516449,0.9902435679794547
2015-03-06,-1,-0.0005019874688936617,-0.000240524168060503,-0.0061454115534227164,0.006276178758878096,0.990917024761368
2015-03-10,-1,-0.0011352566922891885,-0.0008123090679347064,-0.005271243666907471,0.006276178758878096,0.9909891859263794
2015-03-12,-1,-0.0003893050998110898,-0.00018586797930863705,-0.005271243666907471,0.007838406622516449,0.9905049721409184
2015-03-16,1,0.00022234364880435378,0.00032231057091646837,-0.00547692711421654,0.008076080250279847,0.9901185924964772
2015-03-18,-1,-0.0003624899106476467,-0.00015863791235856,-0.004030712832257299,0.008076080250279847,0.9900362720925031
2015-03-20,-1,-0.0014300887598558036,-0.0010384091500467987,-0.004556577747041302,0.011610065618044221,0.9883334630718731
2015-03-24,0,-1.3556780344552963e-05,4.572239596847331e-05,-0.0035800859032465364,0.011610065618044221,0.9890935904759546
2015-03-26,-1,-0.001080328149785276,-0.0008907182482951898,-0.003447649194230666,0.014668297681828105,0.9860149636658925
2015-03-30,-1,-0.0005475959272348435,-0.00043466216509952367,-0.003447649194230666,0.015126953216582258,0.9853795800388302
2015-04-01,-1,-0.00042676988863196653,-0.00034456264246169026,-0.004556577747041302,0.015126953216582258,0.9850011164685039
2015-04-06,1,0.00011816344657008527,0.00012151801596584873,-0.004556577747041302,0.01632391067649206,0.9843728510181654
2015-04-08,-1,-0.0012211981308542612,-0.0009444964859308929,-0.007227499037621238,0.015126953216582258,0.9851731072178788
2015-04-10,-1,-0.00041040778957511634,-0.0002733967719214903,-0.007227499037621238,0.015126953216582258,0.9856522505363183
2015-04-14,1,0.0004567048063406821,0.0004777838465391812,-0.004632201605021115,0.012295119831323238,0.9866342055187287
2015-04-16,1,0.00034222816340359944,0.0003468846976205439,-0.0029710377055489033,0.010601154808517175,0.9869069586980229
2015-04-20,1,0.0006057134255175257,0.0006583065133479138,-0.002200747138098359,0.010477229851640131,0.9882315131966318
2015-04-22,1,0.0007524516606491536,0.0008381475630272841,-0.0035371874000640923,0.010477229851640131,0.9884412873859993
2015-04-24,1,0.0016953287718625885,0.001894200932214706,-0.00192207349086689,0.009591916390535075,0.9936848417177485
2015-04-28,1,0.0016909734586001992,0.001860251903521353,-0.0035371874000640923,0.006797501402376165,0.9921625986096145
2015-04-30,1,0.0013175808967031267,0.0014630243243788496,-0.00192207349086689,0.006797501402376165,0.9924728164015585
2015-05-04,1,0.0012017385132921856,0.00129020248961615,-0.0035371874000640923,0.005824069234218678,0.9918379786075299
2015-05-06,1,0.000793446388774569,0.0008256939576176162,-0.0035371874000640923,0.005824069234218678,0.9919676035610715
2015-05-08,1,0.0009311910241133063,0.0009772971668544136,-0.004718236447659315,0.005824069234218678,0.9916900271074125
2015-05-12,1,0.0009223198392372414,0.0009876374570663036,-0.004718236447659315,0.008188480695963448,0.991166413162998
2015-05-14,1,0.0013587089721232004,0.0014960174907708004,-0.006141130655477231,0.008188480695963448,0.9904584655057623
2015-05-18,1,0.0015567266416314377,0.001741568718054557,-0.007395169871532976,0.008188480695963448,0.9903908642424992
2015-05-20,1,0.0013845890461285843,0.0015399981812820743,-0.007395169871532976,0.008521206570778195,0.9897841601850819
2015-05-22,1,0.0011838804839166468,0.001294716789112024,-0.00850123182044447,0.008521206570778195,0.9882258943379255
2015-05-27,1,0.0013909589494872333,0.0015084938262897216,-0.00850123182044447,0.008188480695963448,0.9899675284022607
2015-05-29,1,0.0011946146553184107,0.0012902107498412915,-0.009453400271123263,0.008188480695963448,0.9896857083934032
2015-06-02,1,0.0011007418639170192,0.001208773903700198,-0.009453400271123263,0.008188480695963448,0.9900794341650989
2015-06-04,1,0.0007384856828427344,0.0008030400552931654,-0.009453400271123263,0.008521206570778195,0.9897636246976458
2015-06-08,1,0.0005230563114696815,0.0005462974273287105,-0.011981974671207202,0.008238249127959996,0.989596769062588
2015-06-10,1,0.00011282172700277909,0.00019816312062463464,-0.011981974671207202,0.005650561761266222,0.9898250550703761
2015-06-12,1,0.00014665098452143436,0.00018889024375817208,-0.01096152987571998,0.005650561761266222,0.9902991041056765
2015-06-16,1,0.0007228576685581687,0.0007792583258156422,-0.01096152987571998,0.004287716157086591,0.9907174874009069
2015-06-18,1,0.0005128199196459471,0.0005286012672090579,-0.01096152987571998,0.004287716157086591,0.9912213007039082
2015-06-22,1,0.0001883506008768235,0.00026392892902507846,-0.008121946842113585,0.004287716157086591,0.9927322401664247
2015-06-24,1,0.00012348762307939318,0.00017670921829840842,-0.0060771303768831445,0.004287716157086591,0.9927550342572526
2015-06-26,1,0.00016903760124359964,0.0001757428375856972,-0.005445171459061805,0.005989705336552837,0.9914036494770475
2015-06-30,-1,-0.00019732386624030457,-0.00014028197852462458,-0.0034468706367069392,0.005989705336552837,0.9921866853842746
2015-07-02,-1,-0.00043099011446751296,-0.00031888047705499914,-0.0031114365418992342,0.008599840722177505,0.9914886938497562
2015-07-07,-1,-0.00012518016970759782,-6.189608549250823e-05,-0.0034468706367069392,0.008599840722177505,0.9916829562315206
2015-07-09,-1,-0.0003601426828518158,-0.0002859364170535074,-0.0034468706367069392,0.010101005844239801,0.9915201871485592
2015-07-13,-1,-0.00016821103837062952,-0.00010209039893019107,-0.0034468706367069392,0.010101005844239801,0.991696611941934
2015-07-15,1,0.0002407753768193188,0.00024752223566488736,-0.004419345799845825,0.010126964784629894,0.9906653167102574
2015-07-17,1,0.0003013140480492897,0.00032572644015743283,-0.004419345799845825,0.010126964784629894,0.9910614059700006
2015-07-21,-1,-7.482928826115184e-05,-1.7910945433515624e-05,-0.00595725544674187,0.010126964784629894,0.9905573063608974
2015-07-23,1,0.000154574489048618,0.0001727951917322482,-0.006824113794739734,0.009658419319693447,0.9900761985810675
2015-07-27,-1,-0.0002355751953916005,-0.0001016706991731071,-0.0085708308577952,0.0062403504827451385,0.9889811825692179
2015-07-29,1,0.00047746015099333955,0.0005040506851499144,-0.011088486631263137,0.009658419319693447,0.9866832185076901
2015-07-31,1,0.0005167209751329203,0.0005309524085482048,-0.011088486631263137,0.005871092479812184,0.9874214358872848
2015-08-04,1,0.00010940943578214692,0.00015108183559458968,-0.019622780776332744,0.005871092479812184,0.9862660744920568
2015-08-06,1,0.0001895428774511577,0.0001993256186602176,-0.019622780776332744,0.005879745459942216,0.9863277831995931
2015-08-10,1,0.0004974422588094007,0.0005175582031144814,-0.019622780776332744,0.005879745459942216,0.9855570388809359
2015-08-12,1,0.0003555385810886464,0.00037502440192576655,-0.014955960646315207,0.0071220255407965635,0.9856452338340043
2015-08-14,-1,-0.00016663486979157224,-6.92483177942402e-05,-0.016688379756321002,0.0071220255407965635,0.9850385436463251
2015-08-18,-1,-0.0006413365403347431,-0.00048120492134100533,-0.016688379756321002,0.014699014514627708,0.9845119419807946
2015-08-20,-1,-0.0009787773681508515,-0.00079168684473072,-0.012319126501197661,0.014699014514627708,0.9851057095726486
2015-08-24,-1,-0.0012019433659941237,-0.0009869645698471984,-0.010781167608726768,0.014699014514627708,0.9869053185898548
2015-08-26,-1,-0.0011161146789447464,-0.0009251655289923999,-0.010409722041248952,0.010123808439969517,0.9892364946307171
2015-08-28,-1,-0.0007887370470477486,-0.0006439965827638193,-0.010781167608726768,0.006804636423908729,0.9893609916702516
2015-09-01,-1,-0.0012042657601018967,-0.001020734764274745,-0.008847967718624589,0.010123808439969517,0.989653253463462
2015-09-03,-1,-0.0007866581623938147,-0.0006623968966085943,-0.008847967718624589,0.013290032837414882,0.9876056084860944
2015-09-08,-1,-0.0013010511650386933,-0.0010833933889322417,-0.006948830684815093,0.013290032837414882,0.98643950070352
2015-09-10,-1,-0.0012197579016668915,-0.0010116051892137068,-0.0035497875736983093,0.01432602763585519,0.9852796086477955
2015-09-14,-1,-0.0015959466751388064,-0.001345935606514248,-0.0035497875736983093,0.01432602763585519,0.9848174649465574
2015-09-16,-1,-0.0006221373867761996,-0.0005374705746505157,-0.006347691985377717,0.012855746904839803,0.9857137049644219
2015-09-18,-1,-0.0006635568286976086,-0.0006010294909777896,-0.0035219284526089075,0.013494379291828042,0.985408899469686
2015-09-22,-1,-0.0013469773740012719,-0.001174660720749337,-0.002180494150644485,0.013494379291828042,0.9859145499135592
2015-09-24,-1,-0.0007297575781314252,-0.0006586074253692334,-0.0035219284526089075,0.013494379291828042,0.9856507270232312
2015-09-28,-1,-0.0015714556654162117,-0.0013797018151158658,-0.0035219284526089075,0.01811061805450922,0.9824045490384253
2015-09-30,-1,-0.0002677698026884968,-0.0002454412031035313,-0.0035219284526089075,0.01676461805599141,0.9829813458266261
2015-10-02,1,0.0011803050312735204,0.0013375961174940537,-0.006264114622109512,0.013494379291828042,0.9850142453391444
2015-10-06,1,0.001316715569297805,0.0015224433052061178,-0.006264114622109512,0.013494379291828042,0.9864247269446436
2015-10-08,1,0.002421716918512245,0.0027807145347731395,-0.00939803972793219,0.011168666953113873,0.9873765888301408
2015-10-12,1,0.0022640002996307876,0.0025941129738949976,-0.009679908724539586,0.010302525853188258,0.9842946573727299
2015-10-14,1,0.002002153020507498,0.0022953777079580753,-0.008855815714603055,0.011526027008835829,0.9840803019542802
2015-10-16,1,0.0024023340497979183,0.002773420316114745,-0.014857173649683919,0.010302525853188258,0.9834917065545796
2015-10-20,1,0.00276247661347176,0.0031686335671155105,-0.014857173649683919,0.011526027008835829,0.9828537337117546
2015-10-22,1,0.002018782609302168,0.002300826615532035,-0.009162707043258118,0.01321672125197514,0.9827800096960349
2015-10-26,1,0.002439991927293153,0.002757937941702334,-0.003005908038158378,0.011526027008835829,0.9862172478788426
2015-10-28,1,0.003144158945730927,0.003552477540729319,-0.006879732162663651,0.010747153424843522,0.9868038939378221
2015-10-30,1,0.0031284077240048523,0.0035645057721788364,-0.005182252093800216,0.010747153424843522,0.9871253500336759
2015-11-03,1,0.0034691271639602436,0.003921375329594775,-0.005182252093800216,0.009893668906019937,0.9873574270353305
2015-11-05,1,0.0027396701649446977,0.0031106949723049156,-0.004609067557569727,0.01012088171581667,0.9865351916242093
2015-11-09,1,0.0006940987290558712,0.0008014290194512546,-0.004601459330089862,0.01012088171581667,0.9903281276570871
2015-11-11,1,0.0013718124246342802,0.001534985357500176,-0.004932816432674963,0.008946134768978412,0.9894375465158468
2015-11-13,1,0.0005172851439995446,0.0005477136182305399,-0.004932816432674963,0.008946134768978412,0.9904520326367351
2015-11-17,1,0.001424568956275494,0.0015574048615412013,-0.004932816432674963,0.008160356814025991,0.9907627884621129
2015-11-19,1,0.0012877817072245454,0.001370351268051062,-0.007219317170224712,0.006316896405952062,0.9904043639615453
2015-11-23,1,0.0016460079661795531,0.0017776735487565036,-0.008702978149728868,0.005815654234450084,0.987946930842514
2015-11-25,1,0.0012464650730784374,0.0013189741766602473,-0.008702978149728868,0.005815654234450084,0.9882821091152663
2015-11-30,1,0.0007021572700593472,0.0007253366003225972,-0.008702978149728868,0.008039863409463744,0.9882476095287867
2015-12-02,1,0.0010128657514594048,0.001051245493202846,-0.01034017559971042,0.005815654234450084,0.9880937199798736
2015-12-04,1,0.0008338119365818597,0.0008505485126275868,-0.008702978149728868,0.005140971202584746,0.9899177927067754
2015-12-08,1,0.0007400975505979036,0.0007478042819119803,-0.012519616449854377,0.005140971202584746,0.9873723771562213
2015-12-10,1,0.00012203677562309679,0.0001882784944162276,-0.012372152586847264,0.005815654234450084,0.9877885511254441
2015-12-14,-1,-0.00018429450282574078,-9.31483588803165e-05,-0.014329174751065548,0.007961343063443982,0.9869453151147686
2015-12-16,1,0.0006953325776136824,0.0007296040704964877,-0.01509243697547563,0.006137504891244991,0.9860946647782661
2015-12-18,-1,-8.980880057730872e-05,-3.3402365749897575e-05,-0.014650045386454296,0.006137504891244991,0.9871665466289756
2015-12-22,-1,-0.00037929133284447895,-0.00033871788306620527,-0.012372152586847264,0.006137504891244991,0.9890432498955717
2015-12-24,-1,-0.000707107066773047,-0.0005965369574594608,-0.012372152586847264,0.009739235578865519,0.9883273133933888
2015-12-29,-1,-0.0002465762311551991,-0.0001891353554117737,-0.014650045386454296,0.006137504891244991,0.9840589720062307
2015-12-31,-1,-0.00034585410416185973,-0.00030439254190456566,-0.014650045386454296,0.01284746114226554,0.9808158195148649
2016-01-05,-1,-0.00047048349377118307,-0.00040923447262471797,-0.014650045386454296,0.01284746114226554,0.9806214259443659
2016-01-07,-1,-0.0018819525337418338,-0.0016514170052539033,-0.013718051789242229,0.01284746114226554,0.9812264947196061
2016-01-11,-1,-0.001960578217268664,-0.0017148717835342967,-0.01418638628763809,0.011311388662441692,0.9804614203086948
2016-01-13,-1,-0.002989668400557153,-0.0025871434203108374,-0.01418638628763809,0.0071661854844879205,0.9810783926242875
2016-01-15,-1,-0.0035476490325698044,-0.003006792037739719,-0.00934824927472392,0.009229668510446754,0.9792120881170178
2016-01-20,-1,-0.003933086438132482,-0.003337397908808248,-0.00934824927472392,0.017733826068433163,0.9774706169348155
2016-01-22,-1,-0.0032423113307659185,-0.002747932323096017,-0.00934824927472392,0.017733826068433163,0.9770328207660218
2016-01-26,-1,-0.003420212477143161,-0.0028399827338965607,-0.010049507092434377,0.016193822801431862,0.9773544363335377
2016-01-28,-1,-0.00631565697535709,-0.00541794117899049,-0.010049507092434377,0.016193822801431862,0.9804761178620766
2016-02-01,-1,-0.002849909513453781,-0.00237226802115654,-0.010049507092434377,0.0098339614704888,0.9844640050388274
2016-02-03,-1,-0.0037529048574545974,-0.003175280336029502,-0.008176918720100882,0.0098339614704888,0.9845178899599943
2016-02-05,-1,-0.005503437951867827,-0.004699489780931083,-0.0017969685530080351,0.012064569862441293,0.9844230938492425
2016-02-09,-1,-0.005716069773172047,-0.004926935308133163,-0.0017969685530080351,0.012064569862441293,0.9856087162371906
2016-02-11,-1,-0.00638527893072551,-0.0054945823146247035,-0.00010012223759910035,0.014419826002172372,0.9837363501532866
2016-02-16,-1,-0.00419123863111979,-0.0035387074734372697,-0.0033700925256246444,0.012064569862441293,0.9883780794728395
2016-02-18,-1,-0.003439940656739456,-0.002884704198437109,-0.0033700925256246444,0.0098339614704888,0.989154722818873
2016-02-22,-1,-0.0030953128072332063,-0.0025448010844420347,-0.006597772528686296,0.008320704691650058,0.9899972948582398
2016-02-24,-1,-0.0021431480314396006,-0.0017597377016161076,-0.006597772528686296,0.005776692320429308,0.9904365923520189
2016-02-26,-1,-0.0016212051289519309,-0.0013955408274679238,-0.006597772528686296,0.005776692320429308,0.9907240852872868
2016-03-01,-1,-0.0005017472871326367,-0.0004384062647955372,-0.006597772528686296,0.005776692320429308,0.9908591973134768
2016-03-03,1,0.0002696237431974263,0.0003820855058401321,-0.006597772528686296,0.005776692320429308,0.9908950902023262
2016-03-07,1,0.0005098448926380166,0.0006504119854248386,-0.008232043414980995,0.003921376682570362,0.9909277242370225
2016-03-09,1,0.00036333113942951643,0.00046514804520136107,-0.010986290096779625,0.003921376682570362,0.9900473127137261
2016-03-11,1,0.001682463053054071,0.001973427148049707,-0.010986290096779625,0.0025962873485202084,0.9915516371565856
2016-03-15,1,0.0011480364234600885,0.001389015712297003,-0.010986290096779625,0.003921376682570362,0.9875204320138502
2016-03-17,1,0.001631064503524287,0.0019031788807752678,-0.010986290096779625,0.003114623497421047,0.9880238952286343
2016-03-21,1,0.0013885501826091833,0.0016766860373195658,-0.010601633991803326,0.003114623497421047,0.9887721366803953
2016-03-23,1,0.0016249312103218515,0.0019948912721795675,-0.00933451098523698,0.003114623497421047,0.9888325723719608
2016-03-28,1,0.0015463095550958738,0.0018958295857333816,-0.008868438517193435,0.0035171543887174386,0.9883507056830998
2016-03-30,1,0.001902789057699041,0.0023444834482060145,-0.008868438517193435,0.0035171543887174386,0.9884140213653346
2016-04-01,1,0.0017364042780316127,0.0021045011274863456,-0.00933451098523698,0.0035171543887174386,0.9875251945950789
2016-04-05,1,0.0004236119818459782,0.0004948564902400134,-0.00933451098523698,0.0035171543887174386,0.9871550958717179
2016-04-07,1,0.0004551772393081546,0.0005826062259715202,-0.008868438517193435,0.0010610191508283147,0.9878564401227711
2016-04-11,1,0.00024852863395896966,0.00030991453185142233,-0.008868438517193435,0.0035171543887174386,0.987286196141736
2016-04-13,1,0.0003940753725182612,0.0005404084491215664,-0.008868438517193435,0.0035171543887174386,0.9909104339543274
2016-04-15,1,0.00012410583748051615,0.00024911620113689416,-0.008485240402852381,0.0026130583353858143,0.9913878160549728
2016-04-19,1,0.00018070404638641946,0.00033672325698749577,-0.008868438517193435,0.00662935649162502,0.9903283351488495
2016-04-21,1,0.00018958208187456284,0.00033343905243924776,-0.008485240402852381,0.0040833894313120015,0.990483848332355
2016-04-25,1,0.00012701210227035546,0.00025159330789541613,-0.00891440449796719,0.0040833894313120015,0.9903987269917531
2016-04-27,1,0.0007208621687892895,0.0009346755872905589,-0.00891440449796719,0.00809731513468797,0.989578981615807
2016-04-29,0,-3.9354495294981044e-05,6.695086195456044e-05,-0.00808625601956614,0.00809731513468797,0.9903820884212468
2016-05-03,-1,-0.0004966558417164038,-0.00045011851701047334,-0.007765003302134705,0.012264362722311285,0.9906188928801947
2016-05-05,-1,-0.0009212233670329432,-0.0008907820032539335,-0.005170197468123284,0.012264362722311285,0.990587420368907
2016-05-09,-1,-0.0005164960270840499,-0.0005114215557386028,-0.005170197468123284,0.01028287331363116,0.9911173480340352
2016-05-11,-1,-0.00018449299840221571,-0.0001087535456722659,-0.005097140345178457,0.007715412409461149,0.9922840174500961
2016-05-13,-1,-0.0004412376369772244,-0.00043523988177893776,-0.005170197468123284,0.007715412409461149,0.9912645096032637
2016-05-17,-1,-0.0010737838035039696,-0.0009721715981361423,-0.005097140345178457,0.00657089629742719,0.9925649883584825
2016-05-19,-1,-0.0011394263983399544,-0.0010331712211492368,-0.003879219754179101,0.007634610633927945,0.9923091298205269
2016-05-23,-1,-0.0006141996134689515,-0.0005880748702710432,-0.0031454685697410783,0.00657089629742719,0.9935803800277202
2016-05-25,-1,-0.0002255215357587139,-0.00022491315890093563,-0.003879219754179101,0.004803638775969411,0.9922923712737091
2016-05-27,-1,-0.00015294097439784172,-0.00014343102115086737,-0.005758541856306592,0.004803638775969411,0.9866839895756637
2016-06-01,-1,-0.0008921477979226462,-0.0007606008052353235,-0.005097140345178457,0.0072186139148750494,0.9858890440333703
2016-06-03,-1,-0.0006737708961745074,-0.0005729621206192297,-0.005374619751185885,0.0072186139148750494,0.9854164161142955
2016-06-07,-1,-0.0008162981749115601,-0.0006707352003858065,-0.007358376537551727,0.005590021966434902,0.9849053902270134
2016-06-09,-1,-0.0007195861345533673,-0.0006034507485008184,-0.007358376537551727,0.010361294138634848,0.9836524702311727
2016-06-13,-1,-0.0010678657962017188,-0.0009097017134171085,-0.006367856161592141,0.011051979552483816,0.9837541753908249
2016-06-15,-1,-0.0010286227277411112,-0.0008904954921878237,-0.006367856161592141,0.011051979552483816,0.9837328220625203
2016-06-17,-1,-0.0003145565312071594,-0.0002888653611978379,-0.006367856161592141,0.011051979552483816,0.9842608313430182
2016-06-21,-1,-0.0017171916907505812,-0.0014111676418149827,-0.006367856161592141,0.01127732370922959,0.9833487731898539
2016-06-23,1,0.0009426849674736897,0.001107114293960788,-0.005065404933643577,0.01127732370922959,0.9855130162317806
2016-06-27,-1,-0.00314091057496096,-0.0027653172367850956,-0.0008659612875057164,0.012328129367659577,0.988812346268622
2016-06-29,-1,-0.002135154898030068,-0.0018170528524006123,-0.0027931352465493534,0.010573792090318737,0.9880301394816786
2016-07-01,-1,-0.002336587589575668,-0.001976856423773718,-0.0026150416776719553,0.009244288637407838,0.9888504514316665
2016-07-06,-1,-0.0028433068282488856,-0.0024059719079205996,-0.0008659612875057164,0.010573792090318737,0.9877021780093813
2016-07-08,-1,-0.0007394281954864594,-0.0006455928764910394,-0.002176523747900299,0.010573792090318737,0.9891109054676055
2016-07-12,-1,-0.00028854120888704797,-0.00026292086350116406,-0.002650957910532754,0.007687310588063131,0.9896741503705302
2016-07-14,-1,-9.573402147222333e-05,-6.782979108258573e-05,-0.0032663147226960542,0.011149404799874509,0.9891388122820918
2016-07-18,1,0.00023165687552990862,0.0003201661805097733,-0.0032663147226960542,0.012300951034667853,0.9878753683317752
2016-07-20,1,0.00021562457917428772,0.0002688057717738616,-0.004695027006510337,0.012300951034667853,0.9867987266306465
2016-07-22,1,0.0007840013027450741,0.000940131243949113,-0.004160746299878142,0.011487965488279555,0.9873016441865748
2016-07-26,1,0.0010882750091069779,0.0012859763671892676,-0.004395117270776738,0.008614108455084929,0.9875394697737605
2016-07-28,1,6.605587667132289e-05,0.00014228271049536087,-0.004044635356813922,0.008614108455084929,0.9907950515452262
2016-08-01,0,-9.864005110148333e-06,5.735003765245118e-05,-0.004407524204122736,0.008614108455084929,0.9906790122464186
2016-08-03,1,0.0007784650662891325,0.0010115827984656565,-0.004407524204122736,0.006489180496214204,0.9917889513788906
2016-08-05,1,0.0008744644018795232,0.0010817194211550024,-0.004407524204122736,0.006489180496214204,0.9923577290685653
2016-08-09,1,0.0011153047165969807,0.0013981905675046515,-0.004283141972161184,0.00515133917519312,0.9927691322669934
2016-08-11,1,0.0011786885433363917,0.0014416547671095136,-0.004503701570594134,0.0033151267799831777,0.9926955124303799
2016-08-15,1,0.0017816840830207838,0.002115136695703986,-0.0054604074648144695,0.0033151267799831777,0.9919538512329779
2016-08-17,1,0.0008568669545845172,0.001067388316004799,-0.004283141972161184,0.00515133917519312,0.9932335550905138
2016-08-19,1,0.0012822544575451659,0.0015487517153723843,-0.004503701570594134,0.00515133917519312,0.9920649168431862
2016-08-23,1,0.0013693377121201966,0.001658503688130488,-0.0054604074648144695,0.005700239482892791,0.989429660590484
2016-08-25,1,0.0013239255280306605,0.0015985828112518076,-0.0054604074648144695,0.009782812505057664,0.9890561383679715
2016-08-29,1,0.0009197247479228139,0.0011213045763314622,-0.00571268196168148,0.0099395012921411,0.9884970602124767
2016-08-31,1,0.0008537460240642232,0.0010451555617040829,-0.006396777141353132,0.0099395012921411,0.9881366027561609
2016-09-02,1,0.0010361912774694351,0.0012224599259837469,-0.006396777141353132,0.0105634442859021,0.9880378184647354
2016-09-07,1,0.0008627325331510377,0.001006844075862171,-0.006396777141353132,0.013036247742202547,0.9866809815843568
2016-09-09,1,0.00044256119153289095,0.0005184644908072691,-0.006396777141353132,0.013036247742202547,0.9862085517281494
2016-09-13,-1,-0.0002767481764421642,-0.0002571440734488765,-0.009313526341606437,0.013036247742202547,0.986454246756459
2016-09-15,1,0.0004709224057737049,0.0005571644685006148,-0.011844984773561308,0.01198555198063595,0.9858182256082982
2016-09-19,1,0.00036732311337538565,0.000464240348900982,-0.012958521387949975,0.01025684840330228,0.9858990216346875
2016-09-21,1,0.00128437071524497,0.0014671073578663204,-0.011844984773561308,0.01025684840330228,0.9878740152950943
2016-09-23,1,0.0008052938601866534,0.0008740877238035621,-0.011844984773561308,0.012560709593694618,0.9873006244914664
2016-09-27,1,0.0009096739514005536,0.0009629000936786309,-0.011844984773561308,0.012560709593694618,0.987174955406924
2016-09-29,1,0.0005234771918872412,0.0005571444254386622,-0.011844984773561308,0.01524710538951305,0.9830500397931466
2016-10-03,1,0.000950295722400508,0.0010451585341190656,-0.011844984773561308,0.01304609440182912,0.9835787922204109
2016-10-05,1,0.0016602031938813982,0.0018409636383591708,-0.01520015962576053,0.0069643758153059634,0.9826618260704088
2016-10-07,1,0.0014584384617601428,0.001601895791957264,-0.01520015962576053,0.004618160176981468,0.9832480272742823
2016-10-11,1,0.0003184771710125979,0.0003376283288044346,-0.012140856111399239,0.008183430952668443,0.9840126228594757
2016-10-13,-1,-0.0003916112598554077,-0.0002935022147433845,-0.008921656073511306,0.008183430952668443,0.9849358234170472
2016-10-17,-1,-0.0009895464212150945,-0.0008556842683572292,-0.004729721658266597,0.017208676141974993,0.9848278952852701
2016-10-19,-1,-0.0002597659906541698,-0.0002117465006871482,-0.004729721658266597,0.010726012711227695,0.9856425072997056
2016-10-21,1,0.00021605523402653973,0.00023017154285304395,-0.0011911239255284788,0.006228120995682086,0.9867714795244248
2016-10-25,1,0.0008110940006297422,0.0009111088325956583,-0.0014590901476504137,0.0053712114891436725,0.9879471480083492
2016-10-27,1,0.0030370948751095987,0.003436906350847629,-0.0014590901476504137,0.005348606301892835,0.9923910853671226
2016-10-31,1,0.002999254340075489,0.003387315876273571,-0.0017387888749929548,0.0053712114891436725,0.9920247004904447
2016-11-02,1,0.001599157660372256,0.0017749005921837134,-0.000851975598817084,0.006228120995682086,0.9922153528261479
2016-11-04,1,0.0011894747933418152,0.0012998053059084234,-0.000851975598817084,0.006228120995682086,0.9923357932984708
2016-11-08,1,0.0019528215329749098,0.002182300028939759,-0.000851975598817084,0.006228120995682086,0.9921299513681832
2016-11-10,1,0.0017033368843193445,0.001902627910312317,-0.0001896856724257259,0.009382534895166833,0.9909030980243556
2016-11-14,1,0.0030930963251497067,0.0035416980586318483,-0.000851975598817084,0.00687705888051751,0.990532023282922
2016-11-16,1,0.001321960190987387,0.001322439881797427,-0.0022386706915738263,0.008385909421087648,0.9898506118354164
2016-11-18,1,0.001906423282414895,0.0020507476807996917,-0.005914343270766994,0.008391840995170693,0.9893471141536538
2016-11-22,1,0.0018153153155906466,0.0019506376517660516,-0.005914343270766994,0.008391840995170693,0.9892323753705949
2016-11-25,1,0.0017800609096234041,0.0018964892731374865,-0.006990637015158174,0.008391840995170693,0.9886677278224407
2016-11-29,1,0.0023106951515239334,0.0025373392508095706,-0.007370628201199214,0.00749205153677847,0.9884718357762187
2016-12-01,1,0.00225422163826332,0.002482663351657054,-0.006990637015158174,0.00740674023625351,0.9903340584748338
2016-12-05,1,0.0020803839462684662,0.0022778146218001413,-0.006990637015158174,0.0084200139554272,0.9899238170443985
2016-12-07,1,0.0028361317593575824,0.0031325493209810673,-0.006990637015158174,0.00749205153677847,0.9910238290982095
2016-12-09,1,0.00341331035810953,0.0038062714831769446,-0.007370628201199214,0.00740674023625351,0.9917553303755577
2016-12-13,1,0.0036583287506251707,0.004105544744293376,-0.007370628201199214,0.007159015972767631,0.9920930314013962
2016-12-15,1,0.003548531405195729,0.003994783254412,-0.007370628201199214,0.003657807555064282,0.9918501489225506
2016-12-19,1,0.0023054717442460983,0.002494407689323646,-0.004664859184843662,0.0026200606782177467,0.9929315857043401
2016-12-21,1,0.002017632775712264,0.0021620560218796165,-0.004664859184843662,0.0026454826425954424,0.993276339360186
2016-12-23,1,0.0020477748673398176,0.00220396074374981,-0.0028846901713901326,0.004127132260030955,0.9930393885745392
2016-12-28,1,0.002125645892594632,0.0023107500719369367,-0.006639361501720743,0.0026454826425954424,0.9910235069470982
2016-12-30,1,0.0013855995257442346,0.0014618608748092406,-0.009918051374299526,0.004816955499353939,0.9906246428077888
2017-01-04,1,0.00227041944195064,0.002484919124758808,-0.009918051374299526,0.0026454826425954424,0.9906400973353576
2017-01-06,1,0.0023071408233760124,0.002569838501605354,-0.009918051374299526,0.003204134978176647,0.9906350437405288
2017-01-10,1,0.0012243005966777413,0.0012716283686156717,-0.004261647114178188,0.003204134978176647,0.991451559103767
2017-01-12,1,0.001126812242253949,0.0011836538146675595,-0.0026526899600322123,0.006595061143465555,0.9920138579599684
2017-01-17,1,0.00031032419979398773,0.00037412170449583747,-0.0025552019675063598,0.00919235536112656,0.9921877190398443
2017-01-19,1,0.00030938533297374956,0.0003744481191234261,-0.0019825239853085946,0.00919235536112656,0.9921191633805663
2017-01-23,1,4.011890093691319e-05,0.00015690923511718375,-0.0019825239853085946,0.010595338737459943,0.9911446666078209
2017-01-25,1,0.0004445114609142354,0.000516980190767337,-0.003075685250828332,0.00919235536112656,0.9918766800354523
2017-01-27,1,0.0008882331849192229,0.0008957869318249903,-0.0026526899600322123,0.00919235536112656,0.994355921360012
2017-01-31,-1,-0.000605645411815808,-0.00041709112357292085,-0.0026526899600322123,0.008801479749282498,0.9941555127548807
2017-02-02,-1,-0.00028031647242677984,-0.00011388254507603058,-0.0026526899600322123,0.006595061143465555,0.9950059907697383
2017-02-06,-1,-0.0010415748374472344,-0.0007683041389753899,-0.0029911086657251344,0.006595061143465555,0.994974086498647
2017-02-08,-1,-0.0007822807086717868,-0.0005648443620930249,-0.0032513659005953626,0.006595061143465555,0.9942469731964488
2017-02-10,-1,-0.0008653933805003053,-0.0006092575267923715,-0.0032513659005953626,0.005285074541162826,0.9946232811684296
2017-02-14,1,0.00019017855224868436,0.00023708078820129107,-0.0032513659005953626,0.005783874231649441,0.9946421657908874
2017-02-16,-1,-0.00025404747082248894,-0.00010815236292227348,-0.0032513659005953626,0.006356378958009815,0.9943641050388171
2017-02-21,1,0.0007063280762102922,0.0007092592579839077,-0.0048406883696363295,0.005629032335598265,0.9937431393347699
2017-02-23,-1,-0.0004496918311810216,-0.00026820746369150047,-0.0049637916264741915,0.005783874231649441,0.9937296332044147
2017-02-27,-1,-0.000317318719540579,-0.00017127591964529463,-0.0049637916264741915,0.005783874231649441,0.9937300957899817
2017-03-01,1,0.00010789747085836564,0.00015803651445607574,-0.004705933183540831,0.005629032335598265,0.9943767448946703
2017-03-03,1,8.020867566631962e-05,0.00014705258531620468,-0.004705933183540831,0.005629032335598265,0.9941340552435065
2017-03-07,-1,-0.0008386046517282986,-0.0006194207468047452,-0.004223900804342327,0.005783874231649441,0.9937572538813713
2017-03-09,-1,-0.0014100073533545373,-0.0011015366331015158,-0.004216226186746544,0.005783874231649441,0.994454183888142
2017-03-13,-1,-0.0020192282409254047,-0.0015903718341466586,-0.004216226186746544,0.005629032335598265,0.994517904674667
2017-03-15,-1,-0.0013155810676466631,-0.0009993109012122335,-0.005014806027917787,0.002791437636248639,0.9950364449509035
2017-03-17,-1,-0.0008618958527496531,-0.0006321999337729426,-0.005014806027917787,0.0018956564400016342,0.99537540836004
2017-03-21,-1,-0.0013154265759041557,-0.0010823448500549403,-0.0034091910334808754,0.0018956564400016342,0.9966145945335322
2017-03-23,-1,-0.0007079519689019453,-0.0005893329806142252,-0.0027071147700058217,0.0018956564400016342,0.997159161567402
2017-03-27,-1,-0.00030294844814758126,-0.0002485655514394278,-0.0034091910334808754,0.0022492427704236748,0.995543823418749
2017-03-29,-1,-0.0013777867348936704,-0.0011328040877487,-0.0027071147700058217,0.004880496976058031,0.9917153034974932
2017-03-31,-1,-0.0008442234353199197,-0.0006803237322319218,-0.0027071147700058217,0.006246492754676647,0.9911960707373633
2017-04-04,-1,-0.0005682009526287586,-0.0004476893253377242,-0.0027071147700058217,0.0064512655138886715,0.990476953059999
2017-04-06,-1,-0.0011110022728583737,-0.0009081224952219922,-0.0011728960364661186,0.007319786971896863,0.9900477243772698
2017-04-10,-1,-0.0005099145789076324,-0.00042783968920779864,-0.0021063487995745863,0.007319786971896863,0.9900158139629098
2017-04-12,-1,-0.0009601266949429174,-0.0008095823924848549,-0.0010305232578662494,0.007319786971896863,0.9895186442141475
2017-04-17,-1,-0.0004944677988697729,-0.00041117405397065666,-0.00045045807510098304,0.007319786971896863,0.9899443288102315
2017-04-19,-1,-0.0007219404615273516,-0.0006048831515835071,-0.0010305232578662494,0.007319786971896863,0.9886642029576745
2017-04-21,-1,-0.0005123820228484576,-0.00043101102438435963,-0.002948862532160759,0.007319786971896863,0.9885373746175575
2017-04-25,-1,-0.0007896392202922629,-0.0006906255726241172,-0.002948862532160759,0.0063238480211162285,0.989730475881579
2017-04-27,1,0.0006615192503392409,0.0007029275384524843,-0.004229465733256556,0.00394151483980047,0.9934299301105625
2017-05-01,1,0.001140667683913957,0.0012710713496593411,-0.004485178569637328,0.00339183354977726,0.9939767921516941
2017-05-03,1,0.00048104245582794965,0.0005607215792947735,-0.003820402552767257,0.00339183354977726,0.9942503380523191
2017-05-05,1,0.0007116144816829021,0.0008090497216548984,-0.003820402552767257,0.00339183354977726,0.9942830111150283
2017-05-09,1,0.0013028561004270567,0.0015172368146354268,-0.004485178569637328,0.001614519428599165,0.9927824982804572
2017-05-11,1,0.0009053432619693532,0.0010562169960903912,-0.004485178569637328,0.001614519428599165,0.99172972782135
2017-05-15,1,0.0011026562103917115,0.0012750806440632355,-0.004485178569637328,0.0036384910276710163,0.9907952930729382
2017-05-17,1,0.00016247705101217906,0.00020276063001800892,-0.004485178569637328,0.004552910640560057,0.9912504667736155
2017-05-19,1,0.0006107523506959095,0.0007175923466346156,-0.004575804082574676,0.006103086093498196,0.9904694014051616
2017-05-23,1,0.00029342046059845995,0.00034208446269252236,-0.004702967779208119,0.006103086093498196,0.9900444090707885
2017-05-25,1,0.0004505005757444372,0.0005144482196616756,-0.00853476660181229,0.006103086093498196,0.9893851536057874
2017-05-30,1,0.0009536624964341122,0.0011313277873810654,-0.00853476660181229,0.006103086093498196,0.9890093883438251
2017-06-01,1,0.0012925348148094104,0.001492919001644717,-0.012915556875974578,0.005976512537158656,0.9891424008911519
2017-06-05,1,0.001031795993462284,0.0011865447508141594,-0.012915556875974578,0.005976512537158656,0.98911725909631
2017-06-07,-1,-0.0003309677543876174,-0.0002883160376440266,-0.012778329172727112,0.008358482569940628,0.9894349949395801
2017-06-09,-1,-0.0009270384718052808,-0.000793655630871654,-0.008043788374109151,0.00949890663397803,0.9889627027841227
2017-06-13,1,0.00039358969967642787,0.0004286291158589596,-0.008043788374109151,0.005976512537158656,0.9896240500427759
2017-06-15,1,0.0003764405758554651,0.0004169916303029516,-0.006417893415252045,0.004404175145889363,0.9903980008816977
2017-06-19,1,0.0007351383520881655,0.0008450634094418672,-0.007089198568169996,0.0033803148430061516,0.9909104492636821
2017-06-21,-1,-0.0002534712118445229,-0.00015898022815863974,-0.006126425064355068,0.005160328104951453,0.9908401139830966
2017-06-23,-1,-0.0012352106916294014,-0.001012791191168789,-0.00534239619228204,0.007448146574656433,0.9914368237088325
2017-06-27,-1,-0.0010121088117339364,-0.0008518113823957053,-0.005042950323374446,0.010139329540374277,0.9879832997566607
2017-06-29,-1,-0.0010094822908238937,-0.0008554953606602036,-0.005042950323374446,0.009355567101429622,0.9885753278533097
2017-07-03,-1,-0.0011103765681578833,-0.0009426256428559862,-0.0035884737209226567,0.012552151431944157,0.9879561975178757
2017-07-06,-1,-0.0008363119885948709,-0.0007158895966169843,-0.0028331117087811997,0.00825242053851306,0.9891135808852937
2017-07-10,1,0.00021859995552413986,0.00022264677774591214,-0.0035884737209226567,0.005618365006649207,0.9909790663380883
2017-07-12,1,5.255153210942277e-05,6.07279714818205e-05,-0.003339388503800961,0.005618365006649207,0.991025272486869
2017-07-14,1,0.0002054877703426753,0.00024192584128274316,-0.005594775555338678,0.005618365006649207,0.9897149467637396
2017-07-18,-1,-9.991554830164692e-05,-7.469094431340128e-05,-0.005594775555338678,0.006658092450134637,0.988771201003835
2017-07-20,1,2.4869244189896787e-05,3.648331538192214e-05,-0.007520262391546113,0.006658092450134637,0.9884478469590238
2017-07-24,1,0.00026075866461687465,0.00027803130681718633,-0.007520262391546113,0.005618365006649207,0.9887627722549713
2017-07-26,-1,-0.0005833176269040475,-0.0004990462627731879,-0.007469168939841351,0.005618365006649207,0.991640765242122
2017-07-28,-1,-0.000617592582234328,-0.000527246674591406,-0.003090822332578523,0.005618365006649207,0.9916660696641748
2017-08-01,-1,-0.00036513019450231716,-0.0002957364253292738,-0.004488608563090106,0.004081760863564308,0.9924299080868518
2017-08-03,-1,-0.0004272945905535886,-0.0003512116208260849,-0.004488608563090106,0.00435131375653724,0.9921574380154307
2017-08-07,-1,-0.0002824491180740404,-0.00023564969819180306,-0.00490058759952257,0.0037394723816139026,0.9917847457001305
2017-08-09,-1,-8.324409519719296e-05,-6.802174733526806e-05,-0.010020944405968749,0.004932632019142374,0.9905051938199245
2017-08-11,-1,-0.001093086275485493,-0.0009312083176884177,-0.010020944405968749,0.007739677620912757,0.9906846528876266
2017-08-15,-1,-0.0012756824333574265,-0.001094288076979475,-0.00490058759952257,0.007739677620912757,0.9910129143181582
2017-08-17,-1,-0.0013869314896003168,-0.001197596716255694,-0.002260409083933716,0.007918929527558731,0.9919235413729246
2017-08-21,-1,-0.0012476637471265642,-0.0010656778375047271,-0.0033439999844349913,0.007918929527558731,0.9918399861508589
2017-08-23,-1,-0.001042480226595643,-0.0008966284306254469,-0.0032400271667350263,0.004932632019142374,0.9927904469603798
2017-08-25,-1,-0.0008390438062471151,-0.0007227017594188627,-0.0033439999844349913,0.007918929527558731,0.9925428720657363
2017-08-29,-1,-0.0009311919769009954,-0.0007928821434670634,-0.0032400271667350263,0.008955771605225173,0.9921779004002331
2017-08-31,-1,-0.0007552961898197521,-0.0006382234784735341,-0.0035970177769852393,0.008955771605225173,0.9918924309398156
2017-09-05,-1,-0.0014830223365638379,-0.0012704213510152105,-0.0032400271667350263,0.009799889306838543,0.991341554686788
2017-09-07,-1,-0.0014776997150113963,-0.0012756664949757886,-0.0032400271667350263,0.008955771605225173,0.9921227794904293
2017-09-11,-1,-0.0012236666967442734,-0.0010478337418453158,-0.0032400271667350263,0.006405442488710654,0.9916891558220761
2017-09-13,-1,-0.0009613055690963351,-0.0008140487250904349,-0.0035970177769852393,0.005351284637876521,0.9921754311411212
2017-09-15,-1,-0.0010222052852904028,-0.0008540619158641624,-0.005574683449296302,0.005351284637876521,0.9894597682811442
2017-09-19,-1,-0.0001645720123093627,-0.00013262526533696804,-0.005574683449296302,0.00635851983333428,0.9891559604077536
2017-09-21,1,0.00017867153864541433,0.0002791762570877848,-0.008766290442893579,0.00635851983333428,0.9887985746003338
2017-09-25,-1,-4.4674698709418556e-05,-6.9010280403004355e-06,-0.010070166533565303,0.006261693448748375,0.9886079033303582
