JNU-Tangyin/eata/results/Batch4_SP500/Batch4_SP500-DXCM.csv
Date,Action,Predicted_Q25,Predicted_Q75,Actual_Q25,Actual_Q75,RL_Reward
2010-12-14,0,0.0,0.0,-0.003891032316150551,0.017665690442870766,0.984054888426416
2010-12-16,0,0.0,0.0,-0.002209522041792071,0.016128722011753326,0.9848189211359789
2010-12-20,0,0.0,0.0,-0.003817397138639122,0.016128722011753326,0.9831310598017023
2010-12-22,0,0.0,0.0,-0.014006556849466879,0.016128722011753326,0.9818706821151032
2010-12-27,0,0.0,0.0,-0.01461151166429019,0.018016862876910705,0.9809040796908352
2010-12-29,1,0.0030049210171340453,0.003115913226735697,-0.01461151166429019,0.018016862876910705,0.9811249657283158
2010-12-31,1,0.0029308236929020386,0.0031060259557394152,-0.01864618706313527,0.018016862876910705,0.9809799251846247
2011-01-04,1,0.0017990508031572538,0.001806459407686009,-0.017988471663276905,0.018016862876910705,0.9817724793026357
2011-01-06,1,0.002932022078443259,0.0031481427663195834,-0.017988471663276905,0.017410438395335896,0.9815099638504136
2011-01-10,1,0.0026292839377912106,0.0027880859070075316,-0.017988471663276905,0.018144093259024715,0.9809692296095175
2011-01-12,1,0.005076751088010273,0.005525508252187581,-0.017988471663276905,0.013667322292373111,0.985077265080798
2011-01-14,0,0.0,0.0,-0.017988471663276905,0.007815264649857996,0.9863119763908492
2011-01-19,0,0.0,0.0,-0.0074546666404454445,0.006148645171515869,0.9893510262401201
2011-01-21,1,0.004657636997293827,0.004888858665346257,-0.002548596861769159,0.007815264649857996,0.9901658089696028
2011-01-25,1,0.0026253293722176595,0.0027806839015113455,-0.004726478394578321,0.006148645171515869,0.9902573369168398
2011-01-27,0,0.0,0.0,-0.004726478394578321,0.007815264649857996,0.9887446392608977
2011-01-31,0,0.0,0.0,-0.006724035707553234,0.007815264649857996,0.9882598188325197
2011-02-02,0,0.0,0.0,-0.004726478394578321,0.012944084510358072,0.9878939962034832
2011-02-04,0,0.0,0.0,-0.006724035707553234,0.011859350989976074,0.9853446854121557
2011-02-08,0,0.0,0.0,-0.007000011728524662,0.007425245195180223,0.9859181334856991
2011-02-10,1,0.0042123449780689555,0.0043347255891740925,-0.008861066766365515,0.0065258661334127895,0.9839418489822407
2011-02-14,0,0.0,0.0,-0.015896063232108983,0.0065258661334127895,0.9836252827794643
2011-02-16,1,0.0017018526466801,0.0017898707179982423,-0.015896063232108983,0.0065258661334127895,0.982922897223605
2011-02-18,1,0.002144983873794735,0.002247434983726461,-0.015896063232108983,0.0065258661334127895,0.9804826110024704
2011-02-23,1,0.0005000066804480333,0.0006365294347301539,-0.014992246297685387,0.012646711544161943,0.9815497652276308
2011-02-25,0,0.0,0.0,-0.014992246297685387,0.012646711544161943,0.9822808846746219
2011-03-01,-1,-0.5334961033672647,-0.5325507021553385,-0.009401657541069362,0.016929039932980592,0.6501238932969516
2011-03-03,0,0.0,0.0,-0.014628843663845877,0.0141103356144806,0.9811446814075802
2011-03-07,0,0.0,0.0,-0.009643459915324244,0.0141103356144806,0.9825422898764158
2011-03-09,0,0.0,0.0,-0.009643459915324244,0.014599856219981396,0.9820425290289228
2011-03-11,0,0.0,0.0,-0.00887146950119058,0.014599856219981396,0.982447180487077
2011-03-15,0,0.0,0.0,-0.006595981421597723,0.014599856219981396,0.9829418608119181
2011-03-17,0,0.0,0.0,-0.00887146950119058,0.014599856219981396,0.9819917333938958
2011-03-21,0,0.0,0.0,-0.012227900913310687,0.013141286644976867,0.9846229014003467
2011-03-23,0,0.0,0.0,-0.00887146950119058,0.013141286644976867,0.9837887982649022
2011-03-25,0,0.0,0.0,-0.011473512568817106,0.010232087981313514,0.984152679267712
2011-03-29,0,0.0,0.0,-0.012123342815116947,0.00871970142425151,0.9863898546865187
2011-03-31,1,0.13632948422743732,0.1396152242040276,-0.011473512568817106,0.008806729978081428,0.8816090012970836
2011-04-04,1,0.0036260125929252424,0.0037933895242902482,-0.01192585146418107,0.008577245826137876,0.9886990901827666
2011-04-06,1,0.003956558597545028,0.004130046624400837,-0.013355345560820667,0.005676624685370634,0.9842154118520878
2011-04-08,1,0.002286056545605069,0.002301023335389784,-0.013355345560820667,0.006421626450054634,0.9852864893618474
2011-04-12,1,0.0015315306233545265,0.0017120344047877553,-0.011884180150718347,0.006421626450054634,0.9856682232233982
2011-04-14,1,0.0013914530126518858,0.001554438141003273,-0.011799856951593312,0.006421626450054634,0.9854538161986732
2011-04-18,1,0.00037232521019900616,0.0006511542454362082,-0.010170081940827453,0.006421626450054634,0.9853973121135265
2011-04-20,1,0.0022159216187859904,0.002316543456624427,-0.010170081940827453,0.00782302111111512,0.9867759229128507
2011-04-25,1,0.00031063236588191757,0.0007296107807135428,-0.010510316761424566,0.00782302111111512,0.986445689013299
2011-04-27,1,0.0005394954726979749,0.0008647556648283596,-0.010510316761424566,0.009665367103410564,0.984641973392865
2011-04-29,1,0.001370127058495224,0.0015655102469316396,-0.010510316761424566,0.009665367103410564,0.9845609797725139
2011-05-03,1,0.0009045740205679086,0.001150804857138007,-0.010510316761424566,0.0125659662078411,0.9821016362894738
2011-05-05,0,0.0,0.0,-0.011609890292649225,0.0125659662078411,0.9848236662195226
2011-05-09,0,0.0,0.0,-0.015459571475537032,0.0125659662078411,0.9837127785858127
2011-05-11,0,0.0,0.0,-0.015950561528117194,0.009665367103410564,0.9835466669537909
2011-05-13,0,0.0,0.0,-0.02436578203669745,0.007677902579759387,0.9822527471496583
2011-05-17,0,0.0,0.0,-0.027813815201378406,0.009665367103410564,0.9799833218542886
2011-05-19,0,0.0,0.0,-0.027813815201378406,0.010827835044827146,0.9796812206108877
2011-05-23,0,0.0,0.0,-0.027813815201378406,0.01964796018710848,0.9769518294632477
2011-05-25,1,0.00026692413242610576,0.00042706836638966124,-0.022944439782036676,0.01807731358539548,0.9791175016057823
2011-05-27,-1,-0.0016036431952357914,-0.001210515652915917,-0.022944439782036676,0.014319518383455791,0.9793323058847073
2011-06-01,1,0.00014219216164071792,0.00031811223795369246,-0.01809085832822506,0.011506504448790793,0.9815332686366454
2011-06-03,-1,-0.002710735483432645,-0.002228799004582941,-0.014346574000712022,0.011506504448790793,0.982816138881175
2011-06-07,-1,-0.0012752187459984603,-0.0011736723029907928,-0.007455993181878364,0.014319518383455791,0.983242012132099
2011-06-09,-1,-0.000491434889356382,-0.0004152433150721869,-0.004259988265289358,0.019153511464331176,0.9823833548056602
2011-06-13,-1,-0.0028424576700132745,-0.0024715910252212977,-0.003501370560340636,0.019153511464331176,0.9835551613722321
2011-06-15,-1,-0.0043729494587782785,-0.003730526749273977,-0.0018655517536404135,0.015315472129627574,0.9845432100727604
2011-06-17,-1,-0.0031456684518353963,-0.0026636570709831506,-0.0022819377131578266,0.01334565413130233,0.9862765579037024
2011-06-21,-1,-0.00014879352864372904,-6.724253704910418e-05,-0.003501370560340636,0.009161291057715818,0.9899760665858172
2011-06-23,-1,-0.0008862206872990711,-0.0006870164455238832,-0.003501370560340636,0.00850509940121794,0.9900406344241954
2011-06-27,-1,-0.0007692098884576424,-0.0004944510625645286,-0.006786132278981574,0.00833395609516163,0.9884965743187841
2011-06-29,-1,-0.0012194395383462978,-0.0009498585158354777,-0.006786132278981574,0.00833395609516163,0.9872394944646247
2011-07-01,-1,-0.0006299834192216333,-0.0005296540810433581,-0.006786132278981574,0.006942805499611723,0.9875595719167016
2011-07-06,1,3.599136669038421e-05,6.874687431483022e-05,-0.01619051941487671,0.006511755870582221,0.9855902216727536
2011-07-08,1,0.0010084389763982632,0.0010741446383571952,-0.01949279802059726,0.006511755870582221,0.9814979701973109
2011-07-12,1,0.00031270423687117114,0.0003280255846129308,-0.026817235998006277,0.0071979782979920155,0.9744415111322429
2011-07-14,1,0.0013275106609411417,0.0014617890045678103,-0.03656993606417286,0.006511755870582221,0.9688560982234458
2011-07-18,1,0.00046790441032645966,0.0005350102816184643,-0.03656993606417286,0.010706257200846494,0.9669169493882548
2011-07-20,1,0.0004605063363834255,0.0004632053799560717,-0.03656993606417286,0.010706257200846494,0.9671674978122289
2011-07-22,-1,-0.0001566237726777841,-1.3794664008289783e-05,-0.04074298454341704,0.01132117882326868,0.9649269713251032
2011-07-26,-1,-0.0015761835264670966,-0.0013135294247873673,-0.03978825236728732,0.019400590636761465,0.9651355719356768
2011-07-28,-1,-0.002886432145243158,-0.00245420251405764,-0.038836674366005484,0.02731034254300591,0.9639105321481602
2011-08-01,-1,-0.003347848315697062,-0.0028375652865107537,-0.038836674366005484,0.03342598266790403,0.9595257773303748
2011-08-03,-1,-0.005813849456848652,-0.004970821930345845,-0.02692021668089871,0.03342598266790403,0.9611580628123613
2011-08-05,0,0.0,0.0,-0.022891049277793545,0.03342598266790403,0.9654101020742377
2011-08-09,-1,-0.009365810172328102,-0.008038351013477218,-0.020917069941442,0.03342598266790403,0.9693305645707029
2011-08-11,-1,-0.008291296228142288,-0.0072196937752534215,-0.020917069941442,0.03202243233366974,0.974814097998782
2011-08-15,-1,-0.0061218798499695515,-0.005310274141955363,-0.020917069941442,0.03202243233366974,0.9758509598726645
2011-08-17,0,0.0,0.0,-0.020917069941442,0.03202243233366974,0.9731579114041556
2011-08-19,0,0.0,0.0,-0.015518754258149286,0.03202243233366974,0.9756193616399841
2011-08-23,0,0.0,0.0,-0.020917069941442,0.029195439612569023,0.9748725407932665
2011-08-25,0,0.0,0.0,-0.020917069941442,0.026373868201964176,0.9754066036672978
2011-08-29,0,0.0,0.0,-0.020917069941442,0.025225554042058645,0.9760056588820603
2011-08-31,0,0.0,0.0,-0.020917069941442,0.02604579805116179,0.9737408918726735
2011-09-02,0,0.0,0.0,-0.03185826283198256,0.02604579805116179,0.9711731074880168
2011-09-07,-1,-0.0013950298764609436,-0.0013748815595138622,-0.03185826283198256,0.02604579805116179,0.9711319046901427
2011-09-09,-1,-0.003253832288266177,-0.003002544199569743,-0.03903103180075611,0.02604579805116179,0.9683020291659492
2011-09-13,-1,-0.0004914153241344181,-0.00030635402253323364,-0.03903103180075611,0.02604579805116179,0.969092283527003
2011-09-15,1,0.0010997891892314123,0.0014886315996646977,-0.03903103180075611,0.0132032586636541,0.9706174453485997
2011-09-19,1,0.0011534132158559976,0.001534783351260413,-0.04512534799651455,0.0132032586636541,0.9682021545129188
2011-09-21,1,0.0007179133368271789,0.0010774153422065363,-0.04512534799651455,0.009763438105766666,0.9688848582015113
2011-09-23,-1,-0.0004421062319533253,-0.00024401822913582526,-0.04028579382317709,0.009763438105766666,0.9715134720120789
2011-09-27,1,0.0009233190122693292,0.0012054318220371027,-0.04512534799651455,0.004054392450660724,0.9689613341973429
2011-09-29,1,0.00022498252938981083,0.0004438991661627001,-0.045334543233499405,0.0004098454523844086,0.9677980343704016
2011-10-03,-1,-0.0026968196132311382,-0.002600023924634882,-0.031245950284087026,0.004054392450660724,0.9686948031317476
2011-10-05,1,0.0005829437866410143,0.0009237814693414184,-0.0392887656789846,0.0028248560935074983,0.9675236343398849
2011-10-07,-1,-0.005280770903670509,-0.004909705779465473,-0.0392887656789846,0.0028248560935074983,0.9672920764302354
2011-10-11,-1,-0.0035778522741773283,-0.0034611726805006808,-0.0392887656789846,-0.0013333638509114582,0.9676925552518681
2011-10-13,-1,-0.004650464106345327,-0.004364724741814407,-0.0392887656789846,-0.0013333638509114582,0.9670701051969891
2011-10-17,-1,-0.006752640654672636,-0.006223862745746898,-0.0392887656789846,0.0028248560935074983,0.966074792872681
2011-10-19,-1,-0.0071696374396010044,-0.006649371232730791,-0.037398172813986816,0.0075000013623918805,0.9659619234885558
2011-10-21,-1,-0.0071042601744957835,-0.006580424570656811,-0.037398172813986816,0.01821427685873849,0.9652852171896957
2011-10-25,-1,-0.007452934152220983,-0.006827321820293093,-0.03201798374484939,0.0005350148831662349,0.9703599539873181
2011-10-27,-1,-0.012449354324926356,-0.011188907664995737,-0.02924907077369237,0.00791295512959302,0.9737157419951185
2011-10-31,-1,-0.010816462053259182,-0.009744910949666398,-0.02924907077369237,0.013692921474046982,0.9732625032608162
2011-11-02,-1,-0.01265757693618336,-0.011266564171468214,-0.024892176964363886,0.013692921474046982,0.9727333149337172
2011-11-04,-1,-0.012041468053377209,-0.010713397245937173,-0.009895157115262915,0.018422312831572744,0.9746812385568392
2011-11-08,-1,-0.012204184574540759,-0.010928937914078517,-0.009895157115262915,0.018422312831572744,0.97388678977281
2011-11-10,-1,-0.01198199970969664,-0.010862602277410288,-0.009463320265832688,0.02999997990471976,0.9726090135348804
2011-11-14,-1,-0.011565461203159579,-0.010533806612390218,-0.009463320265832688,0.018422312831572744,0.9756147057417937
2011-11-16,-1,-0.01037125097055453,-0.00951679196437265,-0.005133320979817213,0.016208392033276134,0.9766253459525074
2011-11-18,-1,-0.009961902126232597,-0.009132284141198918,-0.008845720491957618,0.016208392033276134,0.9768255371544011
2011-11-22,-1,-0.009960653713465531,-0.009164709326127663,-0.003395893976008652,0.023358208994880676,0.9732356192807983
2011-11-25,-1,-0.008434771893029568,-0.007891008073183351,-0.0080083897284992,0.023358208994880676,0.9739696161556606
2011-11-29,-1,-0.005326388585697266,-0.005223956419175434,-0.013833064854259666,0.016208392033276134,0.9786365162009341
2011-12-01,-1,-0.0004383462133008961,-0.00017845400486533154,-0.013833064854259666,0.016208392033276134,0.978092284653217
2011-12-05,1,0.0019494035635788363,0.002597460298834999,-0.01801941855218797,0.012201682309221777,0.9785987260260794
2011-12-07,1,0.0014686240563154469,0.0020744987770988637,-0.01801941855218797,0.012201682309221777,0.978343239218825
2011-12-09,1,0.0021734454690887626,0.0028407562553518233,-0.013833064854259666,0.009298224430676117,0.9810365995504869
2011-12-13,1,0.002410609243057198,0.0030049445858820285,-0.010746458307992186,0.01385612436828558,0.9775953212138307
2011-12-15,1,0.002207880139536678,0.002659127662589863,-0.013833064854259666,0.01385612436828558,0.9766358050268988
2011-12-19,1,0.0017277676301874845,0.0020847323401769783,-0.010746458307992186,0.014289797375487101,0.9750684500184316
2011-12-21,1,0.004409077757168854,0.005113881193389993,-0.013035690492622173,0.013987059764608716,0.9767825005784505
2011-12-23,1,0.002680924634541615,0.003055142489102592,-0.010746458307992186,0.01525954794418003,0.9766381933876825
2011-12-28,1,0.0020968662169073018,0.0022309861506802356,-0.009703213218425016,0.01525954794418003,0.9771856760465792
2011-12-30,1,0.004284691127874083,0.004768277875033726,-0.009453994445265873,0.014289797375487101,0.982076465406229
2012-01-04,1,0.0031530379795476544,0.003366426333761408,-0.005704200934134513,0.016485177966087058,0.9817203051926482
2012-01-06,1,0.002734568807119086,0.0029937108284967076,0.000167584458499778,0.016485177966087058,0.9832442755520459
2012-01-10,1,0.002247448236901842,0.0023893491167318107,-0.0043200136275539916,0.016485177966087058,0.9812625745089164
2012-01-12,1,0.004716961947703584,0.0051264854994338225,-0.005704200934134513,0.01525954794418003,0.9856474807898686
2012-01-17,1,0.0050813156701657565,0.005623670572423549,-0.0043200136275539916,0.015078930043028441,0.9872616414697358
2012-01-19,1,0.006787954611044746,0.007532987838264465,-0.005704200934134513,0.015078930043028441,0.9845428871431853
2012-01-23,1,0.0077789340739593755,0.008798203783098773,-0.00662644889197217,0.015078930043028441,0.9839013463560806
2012-01-25,1,0.008104583859183261,0.009100982782461508,-0.013935596565232347,0.005915631567829175,0.9825402968235549
2012-01-27,1,0.007402684207212152,0.00821498728319207,-0.01807859443613734,0.0056447402617084705,0.9803322364702878
2012-01-31,1,0.008292670616569315,0.00931871424980375,-0.021597148852593288,0.009081716529370282,0.9780788115816413
2012-02-02,1,0.009187781027661678,0.010247775214395023,-0.022167626324668253,0.0012820602691203755,0.9762128605476381
2012-02-06,1,0.010409115630849345,0.011707352465547525,-0.023069230081974982,-0.0013392525287909598,0.9734512548104786
2012-02-08,1,0.009782607309699686,0.011100143078106806,-0.022167626324668253,0.0017985594543473442,0.9764489082391503
2012-02-10,1,0.00915528091181711,0.010391130052126427,-0.021777088060613247,0.0017985594543473442,0.9771254853793054
2012-02-14,1,0.00894752118466843,0.01010145423716081,-0.021777088060613247,0.0078427101214856,0.9776330646463006
2012-02-16,1,0.010495365304242587,0.011783549467672546,-0.01838871306550897,0.0078427101214856,0.9789343611193633
2012-02-21,1,0.011146923631634659,0.01267755272029823,-0.023069230081974982,0.0078427101214856,0.9786285642984138
2012-02-23,1,0.009681982014994907,0.010984433623265285,-0.022467185851595177,0.0078427101214856,0.9794103337459028
2012-02-27,1,0.006776942380038723,0.007507561740306026,-0.014896477377744452,0.011471328028631834,0.9820377078763676
2012-02-29,1,0.008288409735746006,0.009352680292420229,-0.014084472340877008,0.008527815010985795,0.98265124987323
2012-03-02,1,0.005569850322600373,0.006083769245279833,-0.008140077468626251,0.008527815010985795,0.9851186180056548
2012-03-06,1,0.004540687869070738,0.004935363562377473,-0.00648315233227483,0.011881238305616357,0.9861043224641074
2012-03-08,1,0.004700448195955868,0.005064768070833257,-0.008140077468626251,0.008664451769980637,0.9849467509327374
2012-03-12,1,0.002716350262129919,0.0027395883164157498,-0.01946870319761939,0.008664451769980637,0.9816638023483848
2012-03-14,1,0.002217896404355314,0.00238186681315876,-0.01946870319761939,0.011834474531142275,0.981380567406496
2012-03-16,1,0.0034899752020284124,0.0035367380292943003,-0.022497638356651,0.008664451769980637,0.9820304726342144
2012-03-20,1,0.0027374121606180443,0.0028188685913324253,-0.01946870319761939,0.011617853132948283,0.9830731033223569
2012-03-22,-1,-0.0015279125754356039,-0.0012786552969112847,-0.009664152741917897,0.011617853132948283,0.9849189414827313
2012-03-26,1,0.002569184584753054,0.0028791375542422536,-0.009664152741917897,0.009072192386366007,0.986121925175151
2012-03-28,1,0.002195629876933302,0.0025827999145038114,-0.006334741673384267,0.011617853132948283,0.9868230364329195
2012-03-30,0,0.0,0.0,-0.009432388415455304,0.012288304117328378,0.9857308315649635
2012-04-03,-1,-0.001065944302973192,-0.0004795124614768475,-0.009432388415455304,0.012288304117328378,0.985622387473079
2012-04-05,0,0.0,0.0,-0.007140867416013955,0.012288304117328378,0.986406298173231
2012-04-10,0,0.0,0.0,0.0,0.012821650787790368,0.9894948079128187
2012-04-12,0,0.0,0.0,0.0,0.009580059307896857,0.990177775957471
2012-04-16,0,0.0,0.0,-0.00155602742426921,0.009580059307896857,0.9904086167413226
2012-04-18,0,0.0,0.0,0.0,0.009580059307896857,0.9901411669725054
2012-04-20,0,0.0,0.0,-0.002624546230893936,0.009580059307896857,0.9898230857991288
2012-04-24,-1,-0.007878641162160891,-0.0065074059756671096,-0.008187065407924517,0.013003040974932148,0.9863245416468743
2012-04-26,-1,-0.006025060972538341,-0.004941675194847498,-0.010072787387209554,0.009580059307896857,0.9872051456315222
2012-04-30,-1,-0.005481567549185016,-0.004542410843221768,-0.008187065407924517,0.019595466081853325,0.9855301877282958
2012-05-02,-1,-0.004446236465489841,-0.003472296018829241,-0.010072787387209554,0.013806298362885237,0.9854007728440022
2012-05-04,0,0.0,0.0,-0.008368712222308772,0.013806298362885237,0.9861766424908953
2012-05-08,0,0.0,0.0,-0.008368712222308772,0.010767710711583658,0.9871733311517185
2012-05-10,-1,-0.004263470028205719,-0.00328936641021814,-0.008368712222308772,0.013806298362885237,0.9837767674800935
2012-05-14,-1,-0.006118991529173382,-0.004890822503822482,-0.005497497879842061,0.019092714601144707,0.9826325898069849
2012-05-16,-1,-0.003117292013687874,-0.002401337684335559,-0.005497497879842061,0.025472755866449266,0.9822717100009591
2012-05-18,0,0.0,0.0,-0.0012908663195631352,0.025472755866449266,0.9816941239811828
2012-05-22,0,0.0,0.0,-0.0007651102292846173,0.02327775743982906,0.9825211862329852
2012-05-24,0,0.0,0.0,-0.0007651102292846173,0.025472755866449266,0.9805150225346624
2012-05-29,0,0.0,0.0,-0.005497497879842061,0.02121152594064065,0.981142052131077
2012-05-31,0,0.0,0.0,-0.005497497879842061,0.02327775743982906,0.9815108282500882
2012-06-04,-1,-0.003113255612582698,-0.0023472323444663876,-0.003586197007416987,0.02352246890250334,0.9799652898055183
2012-06-06,0,0.0,0.0,-0.005404009272815549,0.02352246890250334,0.9805959324290043
2012-06-08,0,0.0,0.0,-0.007761290442820687,0.022643998885136088,0.9831253096826641
2012-06-12,1,0.005491243245618592,0.006100924604364943,-0.007761290442820687,0.022643998885136088,0.9851281105494126
2012-06-14,1,0.006736229442355437,0.007442003009023871,-0.01316064666550218,0.018348074450496556,0.9847218474071698
2012-06-18,1,0.008313146725588857,0.00928964829614392,-0.01316064666550218,0.012042193740773857,0.9842208903208146
2012-06-20,1,0.008532098818411316,0.009540671073292612,-0.01316064666550218,0.008385315122640445,0.9837495506226505
2012-06-22,1,0.008427775875813474,0.009423781629485687,-0.014672020072924934,0.007138945003598887,0.9820126084127335
2012-06-26,1,0.007651855713209897,0.008644708940702503,-0.01586346124182242,0.007138945003598887,0.9825643326512498
2012-06-28,1,0.008663813468754705,0.009808020220553399,-0.015761018993152492,0.008385315122640445,0.9835061291901206
2012-07-02,1,0.008491716028798044,0.009526019428468136,-0.021139205353263524,0.007138945003598887,0.9809088290754808
2012-07-05,1,0.007820949163467449,0.008713531392796148,-0.021139205353263524,0.008652136977695332,0.9814878182371513
2012-07-09,1,0.0075595357234634845,0.008411145233605564,-0.021139205353263524,0.0116111963059383,0.9813151493855775
2012-07-11,1,0.009563810741703083,0.010838666501613328,-0.021139205353263524,0.0116111963059383,0.9805069073202746
2012-07-13,1,0.00845400707874091,0.009491543447170982,-0.019551840072145242,0.012741768615251284,0.9821023134544233
2012-07-17,1,0.007485736292892791,0.008338685316409359,-0.019551840072145242,0.012741768615251284,0.9828877540609622
2012-07-19,1,0.006070836265222713,0.006632102771126508,-0.019551840072145242,0.013103663024077832,0.9832651218374661
2012-07-23,1,0.0035956922289483704,0.0038477983858714784,-0.0009562498309231329,0.013103663024077832,0.9862785196963662
2012-07-25,1,0.0013857020237007843,0.0015029045112855853,-0.0009562498309231329,0.013103663024077832,0.9857361244089115
2012-07-27,1,0.0019038293953198824,0.0020129826000481587,-0.003958233676792678,0.012266349194066179,0.9866173141100701
2012-07-31,0,-3.0518494322334796e-05,0.0002655809099591191,0.00038570897649606355,0.012266349194066179,0.9887604729820351
2012-08-02,1,0.0005462374123586951,0.0008170487864309601,-0.0014024164945264025,0.012266349194066179,0.9890369548528775
2012-08-06,1,0.0025985006512674303,0.0026091781868629467,-0.0014024164945264025,0.012266349194066179,0.9873908138469503
2012-08-08,1,0.0037000533533416667,0.003972632398857924,-0.0014024164945264025,0.014049198915391676,0.987152315644081
2012-08-10,1,0.004486399808549756,0.004797641883587811,-0.007163541840595871,0.012251679348115167,0.9860126096928893
2012-08-14,1,0.004219653762027726,0.004439152541533142,-0.007163541840595871,0.013180395790656657,0.9858013949790554
2012-08-16,1,0.005400153372722068,0.005877682972087782,-0.012172210131744224,0.01570565547868347,0.9836256143163427
2012-08-20,1,0.004738038452988418,0.005077368900222586,-0.012172210131744224,0.018410311877386704,0.9826643066661273
2012-08-22,1,0.0029627434945514166,0.003031485771915852,-0.0014024164945264025,0.019127127221916253,0.9826337983960789
2012-08-24,1,0.0036733012604714937,0.003884664094092555,0.0009122647156504995,0.019127127221916253,0.9832659029233319
2012-08-28,1,0.002926389043490106,0.0029638198140448137,-0.0020096933564297064,0.019127127221916253,0.9825341923745388
2012-08-30,1,0.0010183059507037572,0.0013688979136242568,0.0009429118546984061,0.019127127221916253,0.9830213171607428
2012-09-04,1,0.0051685132939923925,0.005356455467043461,-0.0018353448071515648,0.015401139475045535,0.9868182728093206
2012-09-06,1,0.0051950496368934436,0.005310422072594226,-0.005497031525150689,0.012365021722755436,0.9866354742189063
2012-09-10,1,0.00308190497436421,0.0032349218994512374,-0.003855932837425224,0.012365021722755436,0.987920990286446
2012-09-12,1,0.002982034651042966,0.0031546053581573514,-0.005497031525150689,0.011552257630476069,0.9863051117737054
2012-09-14,1,0.0021940954871992055,0.0024547763813757154,-0.006187289135110401,0.010461007659758732,0.9877280692163626
2012-09-18,1,0.003933290654006579,0.003980206627360486,-0.006187289135110401,0.010605823904400888,0.9875015321489193
2012-09-20,1,0.00521266205591265,0.0052955955020055675,-0.006187289135110401,0.005042034227007181,0.9885474747443561
2012-09-24,1,0.005859060514674786,0.006083687983925282,-0.013196924516974892,0.001031871875955573,0.9854708735482021
2012-09-26,1,0.004680482554987246,0.004713734552594245,-0.013196924516974892,0.0028079032073320635,0.9866812470125317
2012-09-28,1,0.005218718215433148,0.005371791762869669,-0.013196924516974892,0.0007088422040543006,0.9860004739997323
2012-10-02,1,0.004729114991594339,0.004834348714090369,-0.015249065044010916,0.0007088422040543006,0.9854667722465354
2012-10-04,1,0.0032029418695494333,0.0033544723900522685,-0.015249065044010916,0.0018397928852082097,0.986202928754149
2012-10-08,0,0.0,0.0,-0.015249065044010916,0.0018844093742550624,0.9882065013927542
2012-10-10,1,1.5296775538576213e-05,0.0005726775985913147,-0.013196924516974892,0.0017529716314962792,0.9902850398503588
2012-10-12,0,0.0,0.0,-0.014229929826965467,0.004837353006813624,0.9887615661048919
2012-10-16,0,0.0,0.0,-0.02033016163123691,0.0007240405982632391,0.989084159490054
2012-10-18,1,0.00045842610043531616,0.0007429855145594706,-0.02033016163123691,0.004837353006813624,0.9876162655121571
2012-10-22,0,0.0,0.0,-0.009546325825295177,0.004837353006813624,0.9895596743174496
2012-10-24,-1,-0.003213872173374334,-0.0022854234573242856,-0.012371112382572292,0.0017529716314962792,0.9901928051843722
2012-10-26,-1,-0.003679474101747766,-0.0027079232026456,-0.012371112382572292,0.0017529716314962792,0.9901968319048965
2012-11-01,0,0.0,0.0,-0.009546325825295177,0.008190422306902019,0.9872150905377189
2012-11-05,0,0.0,0.0,-0.006325306009369846,0.022066959410725673,0.9842868275963356
2012-11-07,0,0.0,0.0,-0.009675674539313728,0.022066959410725673,0.9835325416460736
2012-11-09,0,0.0,0.0,-0.009675674539313728,0.02276023545873434,0.9828124376926679
2012-11-13,0,0.0,0.0,-0.009675674539313728,0.021639132932720382,0.9834670568576335
2012-11-15,0,-0.0025256406000607455,0.0,-0.013717989887944152,0.021639132932720382,0.9834073534872384
2012-11-19,-1,-0.0024540245083238404,-0.002045059142560819,-0.013717989887944152,0.021639132932720382,0.9838543124705971
2012-11-21,-1,-0.002700365222417359,-0.0022953619737352752,-0.013717989887944152,0.02185190067542471,0.9830471785942752
2012-11-26,-1,-0.002625091591409174,-0.0022810073721624847,-0.015235085141498904,0.02185190067542471,0.9829593519492106
2012-11-28,-1,-0.002697341033566375,-0.0023107722927631453,-0.015235085141498904,0.02185190067542471,0.9828722143212607
2012-11-30,0,-4.997512607651111e-05,4.249281131402002e-05,-0.015235085141498904,0.021591740354599993,0.9843771793532244
2012-12-04,1,0.003606101879878994,0.004025798193860842,-0.015235085141498904,0.01128112135047578,0.9860323448336493
2012-12-06,1,0.0017180856145829432,0.0018695348384244062,-0.004437397526944016,0.016956514696680518,0.9871715657252543
2012-12-10,1,0.002390945904904511,0.002615261577733431,-0.004437397526944016,0.014795144395379585,0.9877462779859327
2012-12-12,1,0.002140983309218373,0.002302627081133217,-0.004437397526944016,0.014795144395379585,0.9881927907305237
2012-12-14,-1,-0.0025128452135784376,-0.0019451975126577557,-0.00336620170843475,0.014795144395379585,0.9899144950748912
2012-12-18,-1,-0.003890905163329853,-0.0030742968529116604,-0.004437397526944016,0.014795144395379585,0.9895676734140965
2012-12-20,-1,-0.002441660592873028,-0.0018609504838576047,-0.0031752944538856603,0.014795144395379585,0.989692046951954
2012-12-24,-1,-0.005128798049109021,-0.004105558853510776,-0.0031752944538856603,0.014795144395379585,0.9891457297480573
2012-12-27,0,0.0,0.0,-0.0032284184553551527,0.016956514696680518,0.9874592714638664
2012-12-31,0,0.0,0.0,-0.00678914047755069,0.014795144395379585,0.9882302977091448
2013-01-03,-1,-0.0011386728466508034,-0.0008120805483306743,-0.00678914047755069,0.014795144395379585,0.9882095810629549
2013-01-07,0,0.0,0.0,-0.007489166500993025,0.009037543787679719,0.9879606813031903
2013-01-09,0,0.0,0.0,-0.007944855679056728,0.007896474856930801,0.9874054000984176
2013-01-11,1,0.0023566052744502033,0.0025272499833758856,-0.00920085288179032,0.005691477634497993,0.9875597437468421
2013-01-15,1,0.0017670345764205003,0.0018633784494837746,-0.007944855679056728,0.005691477634497993,0.9880295465244612
2013-01-17,1,0.0003795122604101988,0.0005400218001704858,-0.008932648356975742,0.007320472544577876,0.9878961280991286
2013-01-22,1,0.0015944232646764099,0.0016011150300559533,-0.012381238262991694,0.006246024382294836,0.9867331124747081
2013-01-24,0,0.0,0.0,-0.013308692555742069,0.00956011510032133,0.9818585551304231
2013-01-28,0,0.0,0.0,-0.014277330732987006,0.006246024382294836,0.9827378261375321
2013-01-30,0,0.0,0.0,-0.014277330732987006,0.006246024382294836,0.9831137129023605
2013-02-01,0,0.0,0.0,-0.014277330732987006,0.006246024382294836,0.983100015427826
2013-02-05,0,0.0,0.0,-0.014277330732987006,0.009367930860056295,0.9828527108248467
2013-02-07,0,0.0,0.0,-0.012381238262991694,0.011955901882409676,0.9819039857648034
2013-02-11,0,0.0,0.0,-0.014277330732987006,0.017056822326413246,0.9770028772894958
2013-02-13,0,0.0,0.0,-0.01687727194780802,0.017056822326413246,0.9765321575814975
2013-02-15,0,0.0,0.0,-0.018656589859721802,0.017056822326413246,0.9758326497166787
2013-02-20,1,0.001942131999903262,0.002446942838812033,-0.01687727194780802,0.011955901882409676,0.9770751482986962
2013-02-22,1,0.004426894028135928,0.0052427299713248485,-0.013233030365887659,0.011955901882409676,0.9810370807978236
2013-02-26,1,0.0028898419377076053,0.0035366143942945415,-0.011304657177565717,0.011955901882409676,0.9833106470046123
2013-02-28,1,0.002572066791660846,0.0031661839266870313,-0.013233030365887659,0.01341905380719968,0.9822770588127474
2013-03-04,1,0.003661020909302302,0.004376139889559206,-0.013233030365887659,0.01341905380719968,0.9825096002903475
2013-03-06,1,0.0024533474868246173,0.002924276970895733,-0.013233030365887659,0.010479520091196645,0.9822857919874856
2013-03-08,1,0.004594593666990559,0.005288504571113245,-0.016992631404896236,0.009419912226289306,0.9831530078919813
2013-03-12,1,0.006107300117295584,0.006934805274439644,-0.013233030365887659,0.008156853277565906,0.9873100451119879
2013-03-14,1,0.004546966299368974,0.005220191523254214,-0.011304657177565717,0.008156853277565906,0.9882276246214258
2013-03-18,1,0.0029138432534587455,0.0033543566704883282,-0.010323617713376167,0.009368242152543829,0.9878747008265022
2013-03-20,1,0.0027865761247945903,0.003087310401888474,-0.018735875889329238,0.007640015647845243,0.9861443611324563
2013-03-22,1,0.0032285435173391823,0.0036049273795521605,-0.018735875889329238,0.007640015647845243,0.9858898101053905
2013-03-26,1,0.003300906859871301,0.003666273294546667,-0.018735875889329238,0.008097371844159075,0.9853157441521201
2013-03-28,1,0.002460557124500338,0.0026601153681385372,-0.015761399146233042,0.005791924063372444,0.9867722879954928
2013-04-02,1,0.0033565590444927847,0.0036731182727054315,-0.015761399146233042,0.006295887356482482,0.9856150860278297
2013-04-04,1,0.0022310712139562323,0.002340634040798305,-0.01099563789046927,0.014685077641768464,0.9827922650223118
2013-04-08,1,0.0017805302156404929,0.0018270359259187465,-0.01099563789046927,0.020752533120990797,0.9810997727838972
2013-04-10,1,0.0009572504925378456,0.001022869459302543,-0.00968755929220031,0.025488775188232563,0.9795925168635122
2013-04-12,1,0.00034552792575691697,0.0005423782428411131,-0.006656645370942511,0.027383646031672478,0.9779951442696925
2013-04-16,-1,-0.0002974815659999889,-6.286504876234264e-05,0.001276690916711,0.027383646031672478,0.9796848171643594
2013-04-18,-1,-0.0027121699694301073,-0.0021613591690319693,0.001276690916711,0.027383646031672478,0.9794110330103197
2013-04-22,-1,-0.002857048020586223,-0.002246176031837934,0.0029672250117850677,0.030012615621864018,0.9766231386568832
2013-04-24,-1,-0.002887232015344342,-0.0022477946670223462,0.000829892822090002,0.030012615621864018,0.9757338523852177
2013-04-26,-1,-0.0016676814477942315,-0.001231596800186905,-0.004610063814772334,0.030012615621864018,0.976498488944199
2013-04-30,1,0.0020329422151186176,0.0022088095319598685,-0.005670820411296775,0.027383646031672478,0.9781509215939572
2013-05-02,1,0.004281286428022152,0.004663042669645361,-0.005670820411296775,0.020062883371735268,0.9818623696128284
2013-05-06,1,0.004100029136849524,0.004478190344472946,-0.004610063814772334,0.020062883371735268,0.9831661714461705
2013-05-08,1,0.005990564942356343,0.006626876595963261,-0.004610063814772334,0.014127831243290603,0.9846389326806281
2013-05-10,1,0.006079898552209995,0.006615130322078392,-0.005670820411296775,0.010389709272095487,0.9845252992209533
2013-05-14,0,0.0,0.0,-0.005670820411296775,0.013633485336981763,0.9839942726606029
2013-05-16,0,0.0,0.0,-0.004610063814772334,0.013633485336981763,0.9846560528518027
2013-05-20,0,0.0,0.0,-0.004610063814772334,0.013633485336981763,0.9877016004932757
2013-05-22,0,0.0,0.0,-0.006001092549974166,0.013633485336981763,0.9839697331414768
2013-05-24,0,0.0,0.0,-0.005361942282523094,0.019240562816699072,0.9805943576979377
2013-05-29,0,0.0,0.0,-0.0012579218386162116,0.017072638753471085,0.9820588387330869
2013-05-31,1,0.00617445781173355,0.00675883337927779,-0.004005365656404557,0.019240562816699072,0.9830275027198085
2013-06-04,1,0.007382320276361432,0.008140314923308696,-0.006673321575489712,0.01732238689826745,0.9826923424661566
2013-06-06,1,0.0077360586228944015,0.008556698144848177,-0.006673321575489712,0.019239751422017858,0.9817834357260665
2013-06-10,1,0.007375879653235143,0.008098560162393477,-0.006673321575489712,0.01732238689826745,0.9812976968155714
2013-06-12,1,0.007126978404920102,0.00778658159956749,-0.006673321575489712,0.019239751422017858,0.9790395260300948
2013-06-14,1,0.0069340920869927925,0.007618528468599213,-0.00609105849208549,0.019239751422017858,0.9791607319280313
2013-06-18,1,0.007418222677685083,0.00813335239762511,-0.013379096320058313,0.018051986876801256,0.9768983990568998
2013-06-20,1,0.0030487347238055936,0.0032446700779321107,-0.009273629823327507,0.018051986876801256,0.9822183296805448
2013-06-24,1,0.005272875767496818,0.00571819461522027,-0.009273629823327507,0.014245005984540858,0.9842797368792728
2013-06-26,1,0.005613002999598674,0.006138828314242128,-0.012291513529657386,0.017525751736818234,0.98103775828681
2013-06-28,1,0.005313487667647025,0.005715112749935704,-0.013908437873805333,0.014245005984540858,0.9810543497776824
2013-07-02,1,0.004561274535161048,0.004814447477854309,-0.013908437873805333,0.012924539830848071,0.9808337718837836
2013-07-05,0,0.0,0.0,-0.013908437873805333,0.013714599936541706,0.9809268428111082
2013-07-09,0,0.0,0.0,-0.012291513529657386,0.013714599936541706,0.9819864543293626
2013-07-11,0,0.0,0.0,-0.013908437873805333,0.013714599936541706,0.979144535489083
2013-07-15,1,0.0037205219762906847,0.0037527686226493237,-0.013908437873805333,0.015135891842732046,0.9786854435226263
2013-07-17,1,0.003352584383429803,0.003411885319471778,-0.010365019428662362,0.01664730076896368,0.9799572210642215
2013-07-19,1,0.0018318319481013439,0.0020491136992545293,-0.015340302787930329,0.01664730076896368,0.9792483661509402
2013-07-23,1,0.002344800575670598,0.0025301680555684532,-0.015340302787930329,0.016472725318069315,0.9796185971651483
2013-07-25,1,0.002054163657528989,0.0022308660586282214,-0.010664968981712283,0.016472725318069315,0.9815647953749248
2013-07-29,1,0.000709008746745335,0.0010692727796054514,-0.010135489647584504,0.01732125724984385,0.9814126162708016
2013-07-31,1,0.00016760534905517466,0.0005247281249917137,-0.010135489647584504,0.01732125724984385,0.9801113604792061
2013-08-02,1,0.0026966028807465098,0.002755834454636308,-0.010135489647584504,0.016411887774590437,0.980906187512998
2013-08-06,1,0.0018401486175136268,0.0019229311699891986,-0.010658689102168956,0.016411887774590437,0.9806558226708341
2013-08-08,1,0.0036796790637038833,0.0037364409314145563,-0.010266957432446253,0.01496682327592477,0.9852911143812216
2013-08-12,1,0.003939468786068649,0.004045872756894961,-0.010266957432446253,0.01732125724984385,0.984391358451564
2013-08-14,1,0.003980744996516078,0.004096500081806196,-0.011515174187275865,0.015249667253182948,0.9844960424199322
2013-08-16,1,0.0023846479172776585,0.0024606506194324966,-0.010266957432446253,0.015249667253182948,0.9854808582825844
2013-08-20,1,0.0026826487684839884,0.0027533370300655636,-0.010266957432446253,0.015991382572182813,0.9845975387926825
2013-08-22,1,0.003926028382861644,0.004060691539014384,-0.010266957432446253,0.014826654875122228,0.9853904021592264
2013-08-26,1,0.0030340409535953242,0.0030922214051102926,-0.010047925566280506,0.0133002920457901,0.9861057441387949
2013-08-28,1,0.0008239298498298282,0.0011811354119556858,-0.010047925566280506,0.014826654875122228,0.9854028445609841
2013-08-30,1,0.00046941426859575374,0.0009049348764077376,-0.01046634691905592,0.01715273250904518,0.9813336290703032
2013-09-04,-1,-0.0006596619160432922,-6.411835548600538e-05,-0.01046634691905592,0.02038591877255142,0.9811190497678288
2013-09-06,-1,-0.001994434304339491,-0.0011550275440337919,-0.0118566047109824,0.02038591877255142,0.9812940165527364
2013-09-10,-1,-0.0015869665020916972,-0.0007025043768132447,-0.013146892441181854,0.011646127933962514,0.9825139494784251
2013-09-12,-1,-0.0026928362517417296,-0.0016797593429266626,-0.013146892441181854,0.016646098948624174,0.9814571814418426
2013-09-16,-1,-0.00397401390706895,-0.0028116431949945482,-0.0118566047109824,0.021066179078882447,0.9792473515971885
2013-09-18,-1,-0.0028204169491784174,-0.001774388205955383,-0.0118566047109824,0.016075151475316622,0.9801207441436866
2013-09-20,-1,-0.0020733832098585154,-0.0012037790002263908,-0.0118566047109824,0.020453986390052734,0.9789546910494265
2013-09-24,0,-0.00042176428622854784,7.384400376816047e-05,-0.016152396379107856,0.020453986390052734,0.9781082270983557
2013-09-26,1,0.000786816574062862,0.00114625555003301,-0.01335167594728017,0.01682252768261358,0.9809923126225908
2013-09-30,1,7.124037016929992e-05,0.00044598560921690813,-0.0118566047109824,0.01682252768261358,0.9846083437876124
2013-10-02,1,0.001451186867094206,0.0015893376659173934,-0.016152396379107856,0.01505623229881101,0.9830584427080112
2013-10-04,1,0.00037926556676236615,0.0006372645994218903,-0.01712007852488476,0.01505623229881101,0.9830985277755047
2013-10-08,-1,-0.001659150937547242,-0.0011063964095426222,-0.016138031430356324,0.01505623229881101,0.9843307418484831
2013-10-10,1,0.0005237321836172253,0.0006241846172047852,-0.016138031430356324,0.01505623229881101,0.9792224986287998
2013-10-14,1,0.0013680420376107156,0.0014157800495518008,-0.016138031430356324,0.01057318317271952,0.9815444820924032
2013-10-16,1,0.0007917906505778928,0.0008074837462999287,-0.016138031430356324,0.01001206184967829,0.9817810089783524
2013-10-18,1,0.0018168395929384108,0.001941041237945835,-0.01712007852488476,0.004130993074854435,0.981558743498583
2013-10-22,1,0.000892516141875189,0.000912938198376698,-0.018464702695161615,0.0066576390970693455,0.9808504942830334
2013-10-24,1,0.0013949151115808644,0.0015427624462812438,-0.018464702695161615,0.007965371712457736,0.9809183421787073
2013-10-28,1,0.0021233829483275285,0.002389232382755956,-0.018464702695161615,0.004130993074854435,0.9814678190030134
2013-10-30,1,0.0007957064045289818,0.0008977826491025051,-0.011110819272325203,0.007965371712457736,0.9827877305935268
2013-11-01,-1,-3.26018316151268e-05,-2.493827050621872e-05,-0.005489874375310556,0.014718974382551434,0.9823861243854278
2013-11-05,-1,-2.0044620974909616e-05,-7.813598423806691e-06,-0.005489874375310556,0.014718974382551434,0.9818523687947952
2013-11-07,1,0.0007286162988848269,0.0008631582267347045,-0.004390706913143497,0.009654897881018336,0.9886413988641874
2013-11-11,-1,-0.0019439990011459764,-0.0015341430397318736,-0.007023530497454548,0.009654897881018336,0.9865405774299969
2013-11-13,-1,-0.00017468626922449888,-9.030693588334856e-05,-0.007023530497454548,0.01043861256772631,0.9859242913880215
2013-11-15,-1,-0.00116461920776278,-0.0009780164505707634,-0.0044637799747195925,0.01043861256772631,0.987263471871011
2013-11-19,-1,-0.001297732482148721,-0.0011281278095244289,-0.003620841293847474,0.007959106790139772,0.9896160521648693
2013-11-21,-1,-0.000763140571297168,-0.0006522661699786527,-0.0044637799747195925,0.007959106790139772,0.9879830863273558
2013-11-25,-1,-0.0007849141471877937,-0.0007019884160664278,-0.0044637799747195925,0.007959106790139772,0.9875459928851833
2013-11-27,-1,-0.0004209626484394209,-0.0003385470491197595,-0.0044637799747195925,0.009348454815675662,0.9874650741141987
2013-12-02,1,0.0006267098768652434,0.000746287951230997,-0.003620841293847474,0.007959106790139772,0.988832381259512
2013-12-04,1,0.001136105491871164,0.001330620617805489,-0.005778216912135297,0.007727790492821841,0.9886641977649747
2013-12-06,1,0.00045091955486735924,0.00046695005378729145,-0.005350382759702929,0.009033275961938066,0.9881013385590712
2013-12-10,-1,-0.0009036860846485949,-0.0007566484715851575,-0.0029674851446966867,0.01281691221412657,0.9880503865334559
2013-12-12,1,0.0006712823481684528,0.0007568239371899214,-0.0029674851446966867,0.011569836123941218,0.9896744785217108
2013-12-16,-1,-3.870080752836911e-05,-2.3173088248579224e-05,-0.0005884772719030241,0.011569836123941218,0.9890672024391344
2013-12-18,-1,-0.0005363850152805723,-0.0004285805017013432,-0.0015823737527592878,0.01281691221412657,0.9880495682426734
2013-12-20,-1,-0.0012763181607430931,-0.001024893175521026,-0.0015823737527592878,0.011569836123941218,0.9894360937921115
2013-12-24,-1,-0.000810233718709885,-0.0006745460499366765,-0.0036295232911240267,0.011569836123941218,0.9899282377507367
2013-12-27,0,-3.425342938643346e-05,2.127582940435752e-05,-0.007596131032330027,0.00922146472648369,0.9896320526201705
2013-12-31,-1,-0.00021178525611955466,-0.0001669427839567602,-0.007596131032330027,0.0125840470039587,0.9872565316987788
2014-01-03,-1,-0.0004940264540824064,-0.0004645537890270781,-0.007596131032330027,0.013631037998854121,0.9848638395502526
2014-01-07,1,0.00037232026297305093,0.0005396552283195939,-0.007596131032330027,0.017899770726133312,0.9845037329253102
2014-01-09,1,0.00039660921851218916,0.0004737335027855419,-0.011854071126469547,0.01307589844972484,0.9831720414153137
2014-01-13,1,0.0013072407215461205,0.0015504055452903657,-0.011854071126469547,0.017899770726133312,0.9808422432789436
2014-01-15,1,0.0015645648649942202,0.001892949710366732,-0.011854071126469547,0.027043494937645553,0.978950696596408
2014-01-17,1,0.0019120471006070152,0.0022852868370483803,-0.011854071126469547,0.027043494937645553,0.9787406713058967
2014-01-22,1,0.0009694989691843384,0.0011336851258881456,-0.012281675255353513,0.027043494937645553,0.9776232180654133
2014-01-24,1,0.0006753895714346374,0.0007887434023005118,-0.009138443141493596,0.029709047084808857,0.9758743664771679
2014-01-28,1,0.0008377588183400336,0.0009234279147659994,-0.004150898722670795,0.029709047084808857,0.9773976458395074
2014-01-30,1,0.002166079766303464,0.002423920519091189,-0.011689640610278872,0.02317249639983267,0.9784182274004644
2014-02-03,1,0.0025630770348255404,0.0029526293126881757,-0.004150898722670795,0.02317249639983267,0.9798560776244715
2014-02-05,1,0.0034874209751379263,0.003949903085271666,-0.011689640610278872,0.02471927743761374,0.9777894811651162
2014-02-07,1,0.0010543071879012883,0.0011472490557660237,-0.003735228810809281,0.02471927743761374,0.9784765116141311
2014-02-11,1,0.0037010529483766045,0.004224094054382965,-0.007801801513511689,0.02043451185948336,0.9813525432335743
2014-02-13,1,0.0051180282871475715,0.005828078673791493,-0.011028243140500358,0.014533042806326415,0.9819232182022687
2014-02-18,1,0.005858680665960802,0.006652059752747929,-0.011028243140500358,0.018125761763417507,0.980461559071435
2014-02-20,1,0.005715501235100649,0.006539094049805572,-0.011028243140500358,0.018125761763417507,0.9807283797814355
2014-02-24,1,0.00649422868260025,0.007346425802414227,-0.019132718887833307,0.01195615102128916,0.9787164165826349
2014-02-26,1,0.0070446239718859206,0.008007174246189254,-0.019132718887833307,0.0059298944862986045,0.9773477144839188
2014-02-28,1,0.006216097487998373,0.007012622489752797,-0.019717408309701416,0.00021425986951639092,0.9764567533950229
2014-03-04,1,0.006284583451252121,0.007024964754910927,-0.019717408309701416,-0.00014943486149230517,0.976698588748353
2014-03-06,1,0.006341522908959526,0.007080813618719166,-0.019717408309701416,-0.00014943486149230517,0.9783983901388212
2014-03-10,1,0.005759273714245844,0.0065412406541481925,-0.028784738988851446,-0.00014943486149230517,0.9739821758805187
2014-03-12,1,0.005468164566100468,0.006204644867458829,-0.028784738988851446,0.017245634794904798,0.9722605847689504
2014-03-14,1,0.005564075191528966,0.00634122679257647,-0.034046658975906176,0.017245634794904798,0.9700828362843099
2014-03-18,1,0.006445764209710351,0.0072586947001099834,-0.0344611488351267,-0.0015014145246275918,0.9692715892589212
2014-03-20,1,0.005688042271808695,0.0063894547557771745,-0.0344611488351267,0.01544498054325256,0.9685944549729026
2014-03-24,1,0.00303063982567488,0.0034156571893245403,-0.028922902275258285,0.01544498054325256,0.9723817184925626
2014-03-26,1,0.0013031914032606458,0.0013543252948293068,-0.033248856758348044,0.01544498054325256,0.9719216428464421
2014-03-28,-1,-0.002060901749937811,-0.0016333575516521192,-0.033248856758348044,0.01544498054325256,0.9727564087137569
2014-04-01,-1,-0.0009899005912463793,-0.000691992316967374,-0.033248856758348044,0.004855914808201395,0.9737963830323058
2014-04-03,1,0.00015520913986880676,0.0005187698193833312,-0.033248856758348044,0.0034286658579400194,0.9737122268579327
2014-04-07,-1,-0.005498518199218125,-0.004440622953959188,-0.028470314507291632,0.0034286658579400194,0.9796191831632689
2014-04-09,-1,-0.0017374753728603908,-0.0011560307324196238,-0.028470314507291632,-0.00011557470552410877,0.9801305232541471
2014-04-11,-1,-0.006308737376904168,-0.005112172259037891,-0.02703415301755796,0.010704846190546338,0.9810049717952175
2014-04-15,-1,-0.00889440689753966,-0.007368697850561044,-0.022898687591345855,0.010704846190546338,0.9820295274254965
2014-04-17,-1,-0.005083755217917266,-0.004038086985417598,-0.022898687591345855,0.0034286658579400194,0.9845590826486448
2014-04-22,-1,-0.0063171529484768035,-0.005092601666746896,-0.02703415301755796,0.005627852407827096,0.9833099561720388
2014-04-24,-1,-0.007709985854575324,-0.006380434328288066,-0.022898687591345855,0.013403023761874702,0.982573909458448
2014-04-28,-1,-0.009522635698697619,-0.008036757212324455,-0.008201246103849561,0.018594767336146806,0.9799393397016882
2014-04-30,-1,-0.009498200199699124,-0.008054058645398071,-0.011072301069546292,0.018594767336146806,0.9796450872161184
2014-05-02,-1,-0.01045010313023032,-0.008896905643797432,-0.012327937552730435,0.018594767336146806,0.9804488347612754
2014-05-06,-1,-0.013216790084961273,-0.011254369474066248,-0.012097236862785063,0.020371448740573426,0.9761697746822238
2014-05-08,-1,-0.012748292589322054,-0.010956920026147773,-0.008124345873867771,0.022240962327671414,0.9745320503376775
2014-05-12,-1,-0.009704333504770186,-0.008255963740792651,-0.008768096367359333,0.020371448740573426,0.9785907150241745
2014-05-14,-1,-0.010143808838248575,-0.008641231408639549,-0.012097236862785063,0.020371448740573426,0.9781563752707997
2014-05-16,-1,-0.009197534220689745,-0.007808349621346463,-0.012097236862785063,0.02151010653453421,0.976951081654566
2014-05-20,-1,-0.011069158354653497,-0.009443830857761688,-0.008768096367359333,0.028201990498634574,0.9747984603121996
2014-05-22,-1,-0.00874482572156293,-0.007456834189639775,-0.008768096367359333,0.028201990498634574,0.9759789330765857
2014-05-27,-1,-0.005284777979552208,-0.004421294091453119,-0.008768096367359333,0.019794456353718282,0.9805435740551739
2014-05-29,-1,-0.0060283741822156085,-0.005037944623484909,-0.008530884442295831,0.019794456353718282,0.9807064491383544
2014-06-02,-1,-0.007136147275309493,-0.006056236068656156,-0.006560677533548917,0.019794456353718282,0.98042670721487
2014-06-04,-1,-0.00359756677719407,-0.0030062846113484277,-0.004634651234556188,0.017305768092731613,0.9854740678229197
2014-06-06,-1,-0.0007238617649904707,-0.0005022242712327433,-0.006560677533548917,0.006158553898560155,0.986374754983643
2014-06-10,-1,-0.0006352054054915604,-0.00041356243135239176,-0.007065900432553803,0.006158553898560155,0.983229467313791
2014-06-12,-1,-0.0015898889519090065,-0.0012634135862211085,-0.004775382458001541,0.01754372952175422,0.9831260372465866
2014-06-16,1,0.0005700562728925456,0.0006571585138007982,-0.007488094102889862,0.012260376094889197,0.9846661761961313
2014-06-18,1,0.0024602953695726576,0.0025709366770671504,-0.011521402371968616,0.002711727622943404,0.9858087817920068
2014-06-20,1,0.003626073140366642,0.003909441536155979,-0.011521402371968616,0.004037727372628057,0.9852506955942577
2014-06-24,1,0.004641856731471612,0.0051885400269335805,-0.011521402371968616,0.0124172982517828,0.9840876781851201
2014-06-26,1,0.004148425096196565,0.0046051644289464766,-0.008962943335547986,0.01652759156101588,0.9841719292054052
2014-06-30,1,0.0037999878920120167,0.004255858849099203,-0.003022449024674497,0.01652759156101588,0.9848913569265162
2014-07-02,1,0.002428703762415677,0.0025521746584672112,-0.008962943335547986,0.01652759156101588,0.9815843831078064
2014-07-07,1,0.002041576949544651,0.0022700464771367953,-0.007962129645655291,0.01801449599243503,0.9818403431924516
2014-07-09,1,0.0017536550420644388,0.002096855398742819,-0.007962129645655291,0.017702033439642665,0.984279118580018
2014-07-11,1,0.002071396770224206,0.0026098966537160635,-0.0043493042462468025,0.018120667619316702,0.9801720364529565
2014-07-15,1,0.0017199932716352024,0.0022134966535519427,-0.009765360706896669,0.018120667619316702,0.9796298777427628
2014-07-17,1,0.0019098704303850296,0.0025429868871452337,-0.003623526045088289,0.02034165237999358,0.9797057305925434
2014-07-21,1,0.0035462873012936736,0.004431392714224548,-0.00755242984799391,0.01842083070110704,0.9801850948465363
2014-07-23,1,0.005192674392956107,0.006281616760652279,-0.009765360706896669,0.017802087800239445,0.9806946288776776
2014-07-25,1,0.006812152418097264,0.008212402566637224,-0.012355291093209889,0.017802087800239445,0.9803846619158405
2014-07-29,1,0.008147525252868828,0.009771545587441772,-0.012355291093209889,0.01842083070110704,0.9783862008650361
2014-07-31,1,0.005508298180254632,0.006716282516810118,-0.014062748981193468,0.01842083070110704,0.979381926598835
2014-08-04,1,0.006331121785549951,0.007634997723256531,-0.014062748981193468,0.017802087800239445,0.9806944204654967
2014-08-06,1,0.005736854683462607,0.006907888778709181,-0.01594486458979525,0.015048088612282205,0.9796887700192912
2014-08-08,1,0.011764604344462873,0.013879757880575338,-0.01594486458979525,0.011713499044050075,0.9822096646117985
2014-08-12,1,0.010180088508415574,0.012038629948860936,-0.01559779271555544,0.012808588259403533,0.9840939263228876
2014-08-14,1,0.009592458940253207,0.01118213330515748,-0.016322960937646368,0.011713499044050075,0.9833601021080447
2014-08-18,1,0.009600027293426143,0.011148396938052594,-0.018003220511242056,0.009626151418761168,0.9818659376685024
2014-08-20,1,0.008146649136890711,0.009373635366921155,-0.01696200488852262,0.012048770387999879,0.9834399159167093
2014-08-22,1,0.008702120072570138,0.010074956514063177,-0.02010319157937686,0.009737908533411102,0.9814719618152742
2014-08-26,1,0.009990667874153713,0.011503609452002385,-0.02010319157937686,0.009737908533411102,0.981855918122862
2014-08-28,1,0.005696383001371801,0.006316926312170406,-0.019481454888679417,0.010558477409287314,0.9842762058933351
2014-09-02,1,0.007234977958775884,0.008217951409501285,-0.022240901067202664,0.009659386752443197,0.9827855123997472
2014-09-04,1,0.0035811452324168483,0.003926472719878341,-0.020007448620074187,0.010558477409287314,0.982681498829604
2014-09-08,1,0.003053426988650105,0.0032189990446885803,-0.02381888226138698,0.013098785247830164,0.9789953002683636
2014-09-10,1,0.004330292656502145,0.004814513538258031,-0.02381888226138698,0.013098785247830164,0.9779506543582128
2014-09-12,1,0.0032292962411719413,0.003530467351936901,-0.024579296663926872,0.013098785247830164,0.9776192355134087
2014-09-16,1,0.0009161634716849255,0.0010041231568897223,-0.02168894045814551,0.013098785247830164,0.9793862500339611
2014-09-18,1,0.000344545596043372,0.0006193383214927142,-0.02168894045814551,0.0117489543454182,0.980131957733189
2014-09-22,-1,-0.0019629047459160352,-0.0013970652226900629,-0.01965186738896466,0.015593793764293103,0.9799744894939939
2014-09-24,-1,-0.001803816402401962,-0.0012226134442480476,-0.02168894045814551,0.017387629000017966,0.9776276243014841
2014-09-26,-1,-0.003600324842851885,-0.002718202628396408,-0.02168894045814551,0.029947769332985874,0.9769035965936613
2014-09-30,-1,-0.005341541672923245,-0.004217766355191737,-0.018434526724494117,0.029947769332985874,0.9774365991761242
2014-10-02,-1,-0.0033158792607665627,-0.002553572261099364,-0.017416866597565864,0.025681737781920098,0.9795901401129031
2014-10-06,-1,-0.0032214426977681346,-0.0024423413062783124,-0.017416866597565864,0.015297072510774334,0.982174571841389
2014-10-08,-1,-0.002382847632194068,-0.0017304625474453851,-0.012443452308447768,0.011921233690856766,0.9840202052405805
2014-10-10,-1,-0.005209116441201127,-0.004151785369400173,-0.006334462810782254,0.016887154632898298,0.9789038270850341
2014-10-14,-1,-0.0041160651684989434,-0.0032359027534948352,-0.0077445767098139485,0.025681737781920098,0.9774703376751785
2014-10-16,-1,-0.0022876455507347343,-0.0017487086193428798,-0.007974601798079939,0.025681737781920098,0.9773336127940724
2014-10-20,-1,-0.0019369185583138493,-0.001424117507740584,-0.012288937589100333,0.01842737109037744,0.978261445035883
2014-10-22,-1,-0.0022260945149942543,-0.001598675826593071,-0.012288937589100333,0.014831611579354434,0.9810379448331642
2014-10-24,-1,-0.0009471141782523478,-0.0005592098962287331,-0.009777478659985388,0.012451261064898087,0.9823448837959609
2014-10-28,1,0.0009810740944471616,0.0010434894438404495,-0.009777478659985388,0.012451261064898087,0.9823811839451538
2014-10-30,1,0.0015977674816624477,0.0016248171361243563,-0.009777478659985388,0.01304513130848002,0.9823151526872685
2014-11-03,0,-0.00020705624495137738,4.865496487835709e-05,-0.009247353710981837,0.014758911620311812,0.981516465901944
2014-11-05,1,0.0009053478196076567,0.0009329587435923603,-0.007572587244834604,0.01615372815970571,0.98155301554122
2014-11-07,1,0.006068208169667841,0.006837170975416233,-0.007572587244834604,0.014190207981890555,0.9858172778213157
2014-11-11,1,0.008110732515268256,0.009204150024083304,-0.009247353710981837,0.014190207981890555,0.9841612694422126
2014-11-13,1,0.008084533829231057,0.009155358894273418,-0.0134444807991185,0.01328192198459252,0.9827785200989905
2014-11-17,1,0.006264298956528321,0.007063590657888387,-0.010162659729991445,0.01328192198459252,0.9844478492756354
2014-11-19,1,0.004720424105400134,0.005261528726968075,-0.009247353710981837,0.016971899410894754,0.9834098498019923
2014-11-21,1,0.004454329300444883,0.004955808726808792,-0.0062535983105006295,0.016971899410894754,0.983371400011755
2014-11-25,1,0.003544195862848908,0.0038050716420146512,-0.007040793933752019,0.018673841649221007,0.9814538609735232
2014-11-28,1,0.002707472008657417,0.00274575388695891,-0.007040793933752019,0.018673841649221007,0.9810683547697817
2014-12-02,1,0.0041293849030890825,0.004371872763099789,-0.013022827879042395,0.017914853746859374,0.9821066291136523
2014-12-04,1,0.00447930757151346,0.004740667476344277,-0.013022827879042395,0.01751343458630162,0.9816358632141347
2014-12-08,1,0.00481794173223863,0.005071962148876559,-0.015463472616384233,0.017914853746859374,0.9800894400320082
2014-12-10,1,0.004646337484559523,0.004936220270321033,-0.013022827879042395,0.017914853746859374,0.9817912449180921
2014-12-12,1,0.003766515325395309,0.00402819121817842,-0.00641009395021419,0.017914853746859374,0.9828724991988332
2014-12-16,1,0.0034422971123850335,0.0036867727841432296,-0.010899227286031625,0.017914853746859374,0.9815110365847446
2014-12-18,1,0.006182676948612473,0.0068340967800112565,-0.014768970689192387,0.01751343458630162,0.9815195353469565
2014-12-22,1,0.004322132838330455,0.004586947944380022,-0.017904767300885582,0.017914853746859374,0.97985380264176
2014-12-24,1,0.0033677230251673755,0.003541086916946645,-0.014768970689192387,0.019737536321012265,0.9787191684859533
2014-12-29,1,0.0037893763158132355,0.004016651443045603,-0.017904767300885582,0.01948126075097853,0.9773496149080124
2014-12-31,1,0.00499720319756692,0.005621809356897911,-0.020478268580528383,0.01948126075097853,0.9774319952909892
2015-01-05,1,0.004402687092869212,0.004859396449113351,-0.020478268580528383,0.0256056697112466,0.9774216161219422
2015-01-07,1,0.0048913585148262035,0.0054681140652121886,-0.01562680444907332,0.019064467464262845,0.9787460215211312
2015-01-09,1,0.006655720661226757,0.007485417574810005,-0.015683416448573143,0.01641922344518617,0.9801479236246843
2015-01-13,1,0.007449035840770514,0.008352804444388386,-0.015683416448573143,0.01713099981067108,0.9800353365556124
2015-01-15,1,0.005194565904720419,0.00578470569832687,-0.015683416448573143,0.01713099981067108,0.9812385584422574
2015-01-20,1,0.0059474256545868805,0.006726360364833272,-0.00905650701257638,0.013182303155567093,0.9831704508106394
2015-01-22,1,0.005342964320966681,0.0059417634548486285,-0.005062491013011894,0.013182303155567093,0.9849747812269305
2015-01-26,1,0.008307221159948985,0.009320826654549887,-0.013922819253641909,0.011361318927911347,0.9857842375410112
2015-01-28,1,0.005323805587013801,0.00579604983175379,-0.013922819253641909,0.013182303155567093,0.9862527330355283
2015-01-30,1,0.0047268780598491095,0.0051390183567535525,-0.015128595019984875,0.013182303155567093,0.9852205232274309
2015-02-03,1,0.005494540503326635,0.00600331867769042,-0.015128595019984875,0.012474283676687618,0.9853251915053731
2015-02-05,1,0.005294271641379101,0.005715600264380398,-0.016336171558217327,0.011378528706164154,0.9849941373076488
2015-02-09,1,0.00372874188854658,0.0038296783745746946,-0.01799081241968506,0.011378528706164154,0.9847952069471422
2015-02-11,1,0.005135758785630129,0.005475405739750303,-0.01799081241968506,0.011378528706164154,0.9841782508579169
2015-02-13,1,0.0032350411456969763,0.0032731920908496866,-0.016336171558217327,0.011905739491770118,0.9839896176227156
2015-02-18,1,0.0032591859606178617,0.0032605955668306933,-0.016336171558217327,0.011905739491770118,0.9836414416272821
2015-02-20,1,0.003774099090789391,0.0038032015541323754,-0.01799081241968506,0.011905739491770118,0.9827288964625341
2015-02-24,1,0.0004130852486120384,0.0008530126938230006,-0.016336171558217327,0.011905739491770118,0.9851573272769749
2015-02-26,1,0.0005147466094422963,0.0009203922139503623,-0.01799081241968506,0.00669039087210956,0.9851779841746618
2015-03-02,-1,-0.0014375881091312581,-0.0008125587710345094,-0.012177932026891136,0.01430193153196507,0.9843478449121523
2015-03-04,-1,-0.0013880865751650954,-0.0007944565892467059,-0.01418982329702233,0.012151754990229677,0.9845662342958468
2015-03-06,-1,-0.002988803014634114,-0.0021202653243865333,-0.011622989577487928,0.017215904176792057,0.9842833771765148
2015-03-10,-1,-0.004016871934941832,-0.0030419843093718595,-0.00794222441058883,0.01780113202889816,0.9841081154150417
2015-03-12,-1,-0.0032174779820259526,-0.0023441416931493852,-0.00794222441058883,0.01780113202889816,0.9825458054656715
2015-03-16,-1,-0.0009194783620488707,-0.00033189239173012563,-0.00794222441058883,0.015235053978045783,0.9848900641495364
2015-03-18,-1,-0.001258834666417206,-0.0006520165519440144,-0.007248219802599507,0.015235053978045783,0.9847289241042327
2015-03-20,-1,-0.0017446578634132534,-0.0010934531824162478,-0.0071546674386217405,0.015305181213931296,0.9854475587388389
2015-03-24,-1,-0.0022290128221366797,-0.0015505502211110107,-0.007895683630220272,0.01780113202889816,0.9837337233102212
2015-03-26,-1,-0.00448671497387164,-0.0035657928280379845,-0.007142769061905056,0.01979272061857777,0.9834733885236827
2015-03-30,-1,-0.0026402980085875466,-0.0018832658928671568,-0.007895683630220272,0.015305181213931296,0.9856221170496776
2015-04-01,-1,-0.0033548701216331313,-0.0025035447546506934,-0.007895683630220272,0.015305181213931296,0.9854764432156619
2015-04-06,1,5.256544041989128e-05,0.0002729726270266022,-0.007895683630220272,0.015305181213931296,0.9861884087279604
2015-04-08,1,0.0015253048987775321,0.0015636395794268658,-0.009439625606396062,0.013010915729371072,0.9856233107140876
2015-04-10,1,0.0036283302644999856,0.003958148977240107,-0.009439625606396062,0.010300266326858274,0.9874071431740642
2015-04-14,1,0.0025863047796472706,0.002676249216397883,-0.009439625606396062,0.010300266326858274,0.9874070768676614
2015-04-16,1,0.0016475968711658182,0.001744461617425051,-0.009158968514462764,0.015335508741492136,0.987164585957422
2015-04-20,1,0.0015593123742277523,0.0016808714870101946,-0.009182905896094341,0.016235387254577995,0.9866874797577039
2015-04-22,1,0.0019077857511774921,0.0019842483919406467,-0.008096494200881585,0.009310879136374472,0.9879333853437424
2015-04-24,1,0.00203582433523252,0.0020766135132378864,-0.008096494200881585,0.0069927584930779794,0.9886315988031157
2015-04-28,1,0.0017283780534471495,0.0017349632601594185,-0.006953298279510807,0.009310879136374472,0.9881446403476848
2015-04-30,1,0.0016833371507555346,0.0017072009484421734,-0.005538491903939443,0.009310879136374472,0.9885591626965807
2015-05-04,1,0.002428324165661899,0.002606958336253514,-0.004706344652311467,0.007521511696085956,0.9893295725694183
2015-05-06,1,0.0008458436008011061,0.0008944228593936571,-0.004706344652311467,0.007521511696085956,0.9901098844609516
2015-05-08,1,0.0006629629275610267,0.0008269934288385799,-0.005832075069130711,0.007521511696085956,0.9901591126556768
2015-05-12,1,0.00030685283083312196,0.0005397976741552217,-0.008014066177155117,0.00919733180152588,0.9893391363645632
2015-05-14,1,0.0020871676597190238,0.0022082305306530565,-0.008636549407093106,0.00919733180152588,0.9887134280475688
2015-05-18,1,0.0023796006158345387,0.0025159234067522263,-0.008636549407093106,0.0069315917784921206,0.98996759587681
2015-05-20,1,0.0009863213615257408,0.0010886296044491067,-0.0060120934712012165,0.012053857579213057,0.9878923154205885
2015-05-22,1,0.0009765503230513255,0.0010464765857415128,-0.002427635426865767,0.012053857579213057,0.9886698817286528
2015-05-27,1,0.0019654633268588835,0.001969096969614521,-0.0060120934712012165,0.00919733180152588,0.9903393974052627
2015-05-29,1,0.0019126156691510522,0.0019158840536348904,-0.0032749780642542404,0.012053857579213057,0.9895051483878938
2015-06-02,1,0.0021593640349098176,0.0021893133962042673,-0.006849585712531357,0.012570052056956752,0.9890972890606844
2015-06-04,1,0.002367591877712332,0.0025146534226269217,-0.005425147294430293,0.012570052056956752,0.9892958246673128
2015-06-08,1,0.0027440144614671955,0.0029856778924019197,-0.0032542370213439987,0.016943875497904624,0.9896706173424351
2015-06-10,1,0.0017970171820078295,0.0017975501711686229,-0.0032542370213439987,0.012570052056956752,0.989488185211398
2015-06-12,1,0.0017369219108846021,0.001750082657256069,-0.001381169591994375,0.012367097449086917,0.9899913700494943
2015-06-16,1,0.0019051236268140229,0.0019372472892102883,-0.0032542370213439987,0.012367097449086917,0.9894309708691849
2015-06-18,1,0.005632197275892347,0.0062808252529979024,-0.0032542370213439987,0.009201574206739439,0.9907089956721912
2015-06-22,1,0.004845629235647822,0.005291722243071338,-0.004059704080134864,0.011488366884097002,0.9902290392510075
2015-06-24,1,0.00393077368591386,0.004215861071992491,-0.0033837087381823148,0.011488366884097002,0.990386199040054
2015-06-26,1,0.005404969710274935,0.0059347210341382794,-0.005425147294430293,0.010589227288532215,0.9890103674478139
2015-06-30,1,0.005566804005839744,0.006123777608874273,-0.004059704080134864,0.010952374200590986,0.9889051252632536
2015-07-02,1,0.004839616875657784,0.005274105882447769,-0.0033837087381823148,0.010952374200590986,0.989665655063789
2015-07-07,1,0.006002518241245933,0.006654182824005135,-0.0033837087381823148,0.00912674145209248,0.9898039590801554
2015-07-09,1,0.005211146708633947,0.005705913300207445,-0.0018828206186957013,0.012151840101829991,0.9870071521717938
2015-07-13,1,0.005381114521532744,0.00615094654478844,-0.0067797885551154095,0.010810385027776544,0.9854934501980097
2015-07-15,1,0.005105866912699552,0.00589703649234353,-0.0033837087381823148,0.012151840101829991,0.9837189614111687
2015-07-17,1,0.005249303469734072,0.005929951758357885,-0.0033837087381823148,0.012151840101829991,0.9845965778108902
2015-07-21,1,0.005681133577700163,0.006434041702503326,-0.006153609188233237,0.01157875263006947,0.9840273376752254
2015-07-23,1,0.004699871598047814,0.005196574162655978,-0.015089489905268177,0.01157875263006947,0.9812205065478843
2015-07-27,1,0.002378794865830298,0.0025651187558064403,-0.012695473338041652,0.01157875263006947,0.9806446730948452
2015-07-29,1,0.0018686174434097503,0.001907171826210884,-0.012695473338041652,0.012268711521696717,0.9783867463708854
2015-07-31,1,0.0016712085565483965,0.001689339265484883,-0.012695473338041652,0.015254549106072953,0.9776142157673342
2015-08-04,1,0.001827543566901898,0.001847836564451899,-0.015089489905268177,0.015254549106072953,0.9745098609548214
2015-08-06,1,0.0035655987959703735,0.0038810799664841023,-0.015418246996253313,0.014196413202840093,0.9772016206237631
2015-08-10,1,0.00250328819700662,0.002656089683004123,-0.012695473338041652,0.018707908815372577,0.9777514549708399
2015-08-12,1,0.0033511229874400197,0.0035970262082181304,-0.012695473338041652,0.018707908815372577,0.9777592132572501
2015-08-14,1,0.00398396236406218,0.00425472310326388,-0.014888883823808008,0.018707908815372577,0.9771723406140179
2015-08-18,1,0.0027195941356681617,0.002746100275331597,-0.012805059035036698,0.018707908815372577,0.9776529814201812
2015-08-20,1,0.0016240288451554302,0.0016607860515319435,-0.00852399250377392,0.022448007234147055,0.9776732334700368
2015-08-24,0,-0.00016546614364346503,9.594732369823888e-05,-0.005534284255290643,0.022448007234147055,0.9789434843036983
2015-08-26,1,0.00160471928136201,0.0016353409600020664,-0.01572490362012758,0.019273599524448473,0.9791325275222927
2015-08-28,1,0.0017163662103353507,0.001732999138970188,-0.020163270441843982,0.01216861550203674,0.9739949001070816
2015-09-01,-1,-0.0002658110700684976,-8.911484918256411e-05,-0.019479168405721614,0.020994111387518527,0.9747795054961621
2015-09-03,-1,-0.0002827797472426109,-0.00010090185918016855,-0.019479168405721614,0.016772877428450645,0.9756737011503487
2015-09-08,1,0.0004954226583848005,0.0005929922602364923,-0.024518998739950247,0.010761537515680777,0.9734904730352524
2015-09-10,1,0.0014567032271562573,0.0014773479118818983,-0.024518998739950247,0.010207526145059653,0.9748993159969521
2015-09-14,1,0.001198720620454124,0.001199070114585513,-0.024518998739950247,0.008401147508421277,0.9757504721421244
2015-09-16,1,0.0015047239961748413,0.0015429954259544366,-0.032970176170088086,0.0004967104983807746,0.9716986661796214
2015-09-18,1,0.0024890289396952026,0.00260777651088103,-0.032970176170088086,0.0004967104983807746,0.9689681495353301
2015-09-22,1,0.0016133058041769908,0.0016255346619420525,-0.032970176170088086,0.001051553154758563,0.9690406155382237
2015-09-24,1,0.0013724021653222429,0.0014104762044230184,-0.03213509410199909,-0.0016623836723572401,0.9706686965233537
2015-09-28,-1,-0.0024274118034808816,-0.0019013091554368573,-0.022466692631583136,0.0015035027402575504,0.9757666679245175
2015-09-30,-1,-0.0020046823031028334,-0.0015511636247154497,-0.020989680561651267,0.0054007337492951776,0.9772558181428442
2015-10-02,-1,-0.0018954487733762846,-0.0014526673209052043,-0.020989680561651267,0.0054007337492951776,0.9764815390954649
2015-10-06,-1,-0.003790809158867593,-0.0031366871235742394,-0.01848441270676368,0.007994520452899632,0.9776265487118526
2015-10-08,-1,-0.004335916761773735,-0.0036350443469680737,-0.019382550878145444,0.007994520452899632,0.9774905545566943
2015-10-12,-1,-0.0040460569500490266,-0.0033607049426467627,-0.019382550878145444,0.007994520452899632,0.97752344044365
2015-10-14,-1,-0.006408028538271652,-0.005437035594181663,-0.012199615189472934,0.007994520452899632,0.9808502202789707
2015-10-16,-1,-0.0040905554389577825,-0.0034409165503742024,-0.013011072445983807,0.007994520452899632,0.9855935780224763
2015-10-20,-1,-0.0049124086558524505,-0.004165638914347164,-0.013011072445983807,0.007994520452899632,0.986144203946611
2015-10-22,-1,-0.005497330866129611,-0.0046946638806239,-0.004348226532138901,0.01100180907218196,0.9854207572020757
2015-10-26,-1,-0.0043820768087004,-0.0036980625948067596,-0.004348226532138901,0.01100180907218196,0.9878368397847819
2015-10-28,-1,-0.0040058800520280605,-0.003362844558905536,-0.004348226532138901,0.007994520452899632,0.9882437288729082
2015-10-30,-1,-0.004175451061626303,-0.003517285529009282,-0.004348226532138901,0.008444446216606038,0.9867520772694881
2015-11-03,-1,-0.0033354514514629162,-0.002779236874113487,-0.004348226532138901,0.00821717667292243,0.9887195607485019
2015-11-05,-1,-0.004092022085258434,-0.003451481479112589,-0.002678233688382054,0.012645251673456889,0.9860330497942394
2015-11-09,-1,-0.003263838194013188,-0.0027919981903298603,-0.004803590247703003,0.012645251673456889,0.9864511249752567
2015-11-11,-1,-0.0032790626613481465,-0.002811992006637125,-0.008597042148822285,0.012645251673456889,0.9856065993067916
2015-11-13,-1,-0.003556697997533486,-0.0030494305160356453,-0.008819435043332102,0.01378294695480757,0.9844175103150032
2015-11-17,-1,-0.0036469513921381334,-0.003166357110845546,-0.010400905493531957,0.015005173573128028,0.9812023533803865
2015-11-19,-1,-0.003107968260869959,-0.0026995222682490816,-0.010400905493531957,0.01378294695480757,0.9822953869681015
2015-11-23,-1,-0.002713580934099045,-0.0023431764855154436,-0.010400905493531957,0.012018115309969003,0.9827082257252273
2015-11-25,-1,-0.002054044760254217,-0.0017863337068995946,-0.012565719807957912,0.012018115309969003,0.982870807101019
2015-11-30,-1,-0.0028299519960836364,-0.0024592275391023314,-0.008617910474526641,0.008662249909388173,0.9848933811565053
2015-12-02,-1,-0.002099659028712001,-0.001841526413234533,-0.008617910474526641,0.007197117791325166,0.9854333953401642
2015-12-04,-1,-0.0017894242098616428,-0.0015541458421334882,-0.008617910474526641,0.007197117791325166,0.9854663559232547
2015-12-08,-1,-0.001365810484282721,-0.001221954213698185,-0.011020059297913618,0.008662249909388173,0.9834170417914587
2015-12-10,-1,-0.0018650905619348,-0.0016727478711507893,-0.01831335632011114,0.008662249909388173,0.9823961551033344
2015-12-14,-1,-0.0022507521016283576,-0.0020311858669905406,-0.01831335632011114,0.007197117791325166,0.9808485811434029
2015-12-16,-1,-0.003093606422861307,-0.0027673620670021198,-0.01831335632011114,0.007197117791325166,0.9827352070855256
2015-12-18,-1,-0.00253495294131349,-0.0022960750541123056,-0.01831335632011114,0.01242231419024142,0.9802321253050083
2015-12-22,-1,-0.0020799621196284377,-0.0019106434757377058,-0.021392692652351497,0.016669069094614138,0.9789995670888606
2015-12-24,-1,-0.0023436887134388375,-0.002153096988211699,-0.021392692652351497,0.016669069094614138,0.9783904132691603
2015-12-29,-1,-0.0008659230584756605,-0.0007889774779478268,-0.025172473620608045,0.016669069094614138,0.9769055986885434
2015-12-31,-1,-0.0015064326109682227,-0.0013205498409200641,-0.025172473620608045,0.0214924519395974,0.9754601815640901
2016-01-05,-1,-0.0005884076307290883,-0.0005770884880519811,-0.023010825367252997,0.016669069094614138,0.9773654752928025
2016-01-07,1,0.0002159841613669612,0.0003769621076374003,-0.025172473620608045,0.011726788148172396,0.9743375708974664
2016-01-11,-1,-0.0010513554242006981,-0.0009223911637145385,-0.025172473620608045,0.011726788148172396,0.9717970628454529
2016-01-13,-1,-0.0044283557245931755,-0.004063931428365527,-0.025172473620608045,0.016669069094614138,0.9703025578289479
2016-01-15,-1,-0.005964460377255117,-0.0054252138627932465,-0.022041723881183722,0.0214924519395974,0.9695190302103531
2016-01-20,-1,-0.002789200619937705,-0.002694919209529386,-0.022041723881183722,0.013252814117772831,0.9699349642715329
2016-01-22,-1,-0.0019420141073851582,-0.0018756244544205214,-0.020712609846787737,0.01397829578403911,0.9702721933744616
2016-01-26,-1,-0.003432313841783469,-0.0032300908394266295,-0.020712609846787737,0.02002489859660264,0.970366973184452
2016-01-28,-1,-0.004883376922156605,-0.004534157224295782,-0.012761307168179963,0.02436719006895327,0.9693249056312497
2016-02-01,-1,-0.002462615564383921,-0.0024608275320417866,-0.014582991161758766,0.02002489859660264,0.9704533946946241
2016-02-03,-1,-0.002092549196868767,-0.0019121341085144663,-0.00703600194279888,0.02002489859660264,0.9710472266924008
2016-02-05,-1,-0.004698116054990866,-0.004556426406362093,-0.00479755319946306,0.0234320991057566,0.9736928431646185
2016-02-09,-1,-0.00792727150050845,-0.007460486388325567,-0.006800927927266614,0.0234320991057566,0.9746365137838372
2016-02-11,-1,-0.005015928620444995,-0.004949482655122694,-0.006800927927266614,0.0234320991057566,0.9784294819226486
2016-02-16,-1,-0.003167040352942121,-0.003038004228961505,-0.01757660743840889,0.019785907075694654,0.9800059065354197
2016-02-18,-1,-0.001531640806375362,-0.001171472851841729,-0.020333161452691824,0.011961806267908711,0.980700379250446
2016-02-22,-1,-0.0023930504530443215,-0.0023735332030135553,-0.0210046755620956,0.011961806267908711,0.980165057985437
2016-02-24,-1,-0.0014736531914997881,-0.0013364706443454296,-0.02395523418287906,0.012896897479933753,0.9775128475985687
2016-02-26,-1,-0.0003968965306938917,-8.690750008018462e-05,-0.02395523418287906,0.00923454769360631,0.979143725385449
2016-03-01,-1,-0.0014145870789565825,-0.001394155533141975,-0.02395523418287906,0.022591180711769784,0.9754118876345806
2016-03-03,-1,-0.0013067548250818536,-0.0012933143207694638,-0.02395523418287906,0.02659331794859591,0.9741198994621466
2016-03-07,-1,-0.0002744816627623459,-0.0001461372301752812,-0.0253639076876258,0.03773761515300654,0.9715755198972159
2016-03-09,-1,-0.0048329387358660506,-0.004299522997515854,-0.021208022739426673,0.03773761515300654,0.9743665980108434
2016-03-11,-1,-0.0022978111257533,-0.0021774164116018465,-0.01961752174639949,0.025991391075517078,0.9762063601617985
2016-03-15,-1,-0.0047746454584495545,-0.0043122827497478035,-0.01961752174639949,0.025991391075517078,0.9773992090896807
2016-03-17,-1,-0.0068914924441262106,-0.006128839015063586,-0.018966139466522158,0.025991391075517078,0.9774459961511562
2016-03-21,-1,-0.00525758320179665,-0.0047981196084494115,-0.014233313079296794,0.022520160102223255,0.9785476556811923
2016-03-23,-1,-0.003508099076630765,-0.00329619513779094,-0.00943182459575279,0.014729689041464463,0.9813846203067801
2016-03-28,-1,-0.00447749649166706,-0.004145740989140422,-0.004443700759558945,0.014729689041464463,0.9807738478662874
2016-03-30,1,0.00024824908604302457,0.0006035348509581945,-0.007013675139013295,0.01149185470820804,0.985146486993837
2016-04-01,1,0.0007707553747367741,0.0011506179305299244,-0.0191497262174338,0.01044243022853553,0.9842056961039316
2016-04-05,1,0.0009588029464163315,0.00137632654975534,-0.0191497262174338,0.01044243022853553,0.9860873203811668
2016-04-07,1,0.0014224517802723653,0.0018998648775015677,-0.020797252737054503,0.010043269645622067,0.9855316273594263
2016-04-11,1,0.0006687099474048306,0.0010445612900465073,-0.020797252737054503,0.01044243022853553,0.9858387862567687
2016-04-13,1,6.629081642005427e-05,0.0003314122358928529,-0.014581647627069918,0.011107074382419018,0.9865453252276976
2016-04-15,1,0.0011325366505090383,0.001592613736946213,-0.021134532284077513,0.01044243022853553,0.985424723587785
2016-04-19,1,0.0017208920520507666,0.002307201020005442,-0.021134532284077513,0.01044243022853553,0.9842357878560792
2016-04-21,1,0.002651280368129282,0.0033971650306524348,-0.021134532284077513,0.01044243022853553,0.9841588838355809
2016-04-25,1,0.003046263217971799,0.003791664742715087,-0.021134532284077513,0.01028182712938251,0.9833013722909556
2016-04-27,1,0.0031358667832903963,0.003929925302784745,-0.016617458620130338,0.012228323353853255,0.9837164897288289
2016-04-29,1,0.001546810997148635,0.002180522874800131,-0.010042322268469942,0.016129552096710163,0.9837959882240102
2016-05-03,1,0.0010183810584191105,0.0015827066893525363,-0.00956259890842258,0.016129552096710163,0.9850718785317479
2016-05-05,0,-0.00010628633550673148,0.0002609504261606964,-0.006162058147762816,0.01969115626855111,0.9840626648678609
2016-05-09,1,0.0003117353182548789,0.0006936241048088611,-0.006162058147762816,0.01764400225553988,0.9840112241439891
2016-05-11,1,0.0010612712999944155,0.0015171068529738574,-0.008783208180312347,0.023826886876083864,0.9814284356027838
2016-05-13,-1,-0.0002982065246418102,-9.47344686412781e-06,-0.006279491628611996,0.023826886876083864,0.9827260743239769
2016-05-17,1,0.0007923276041906164,0.0012479652141300967,-0.005528327580123796,0.01960273222501783,0.9842689384597183
2016-05-19,1,0.0008944344362940432,0.001334490916879994,-0.006174558457102023,0.01960273222501783,0.9842922276280447
2016-05-23,1,0.0019964142051459373,0.0026360671517136757,-0.006174558457102023,0.01960273222501783,0.9829701265028595
2016-05-25,1,0.0031047241250026694,0.003887172386912607,-0.006174558457102023,0.016354250903054646,0.9839278713949994
2016-05-27,1,0.003035430698186651,0.0037941807214191274,-0.006174558457102023,0.009284798542624314,0.9857842906761789
2016-06-01,1,0.0031240409229831533,0.003929119689723981,-0.0029741374263168394,0.016354250903054646,0.9849674115714818
2016-06-03,1,0.003766395442464372,0.004552269536037754,-0.0027892918501730975,0.013151364250703368,0.9870297405046585
2016-06-07,1,0.002960405647878332,0.003440686058105551,-0.006174558457102023,0.006208271783301042,0.986986531773984
2016-06-09,1,0.004302822723793552,0.00495523309852545,-0.006107659180817861,0.005242645147896078,0.9892018513949661
2016-06-13,1,0.004938224991585056,0.005785727322885838,-0.004940547455778991,0.007149643728851135,0.9897966396304351
2016-06-15,1,0.005367929618304221,0.006271187644665072,-0.005942286561457682,0.005458327657685971,0.9891853327670472
2016-06-17,1,0.004969081932045082,0.005795753212649192,-0.005942286561457682,0.007103110349901865,0.9894143967177204
2016-06-21,1,0.006221988010050408,0.007066869508584464,-0.005942286561457682,0.008299265351393938,0.9885705452712297
2016-06-23,1,0.0068029684531264204,0.0077968466702240955,-0.005942286561457682,0.009404492123646711,0.9871970796855112
2016-06-27,1,0.005206223805829614,0.005938590191923136,-0.004888000276891068,0.009404492123646711,0.9887620546917772
2016-06-29,1,0.004619169440654252,0.005077379637245447,-0.004888000276891068,0.008299265351393938,0.9898668181662408
2016-07-01,1,0.0022915028261696613,0.0024460240888413147,-0.004888000276891068,0.00886691659675333,0.9882314222904809
2016-07-06,1,0.0028985971330937406,0.002918518952424398,-0.002240409062125578,0.00886691659675333,0.9878814279555901
2016-07-08,1,0.003532130863429744,0.003699784129461682,-0.0015056699625662154,0.008727316459905519,0.9883196848815895
2016-07-12,1,0.004324813574272494,0.004675031857598636,-0.0036855220838916715,0.008727316459905519,0.9881187241913865
2016-07-14,1,0.00384148521235297,0.004175414325212085,-0.0015056699625662154,0.008727316459905519,0.9887099424640531
2016-07-18,1,0.0037938876365210825,0.00410440539804903,-0.0015056699625662154,0.008189365895409704,0.9890409784128716
2016-07-20,1,0.006703947572998154,0.007440329033065256,-0.003123487318399086,0.006175122296582695,0.9908021284332306
2016-07-22,1,0.007581030455616043,0.008415299315714716,-0.003123487318399086,0.006130888387022988,0.9915863448201143
2016-07-26,1,0.007560795615160312,0.008398963962019288,-0.0037758584563356732,0.00680024901827863,0.9911744621591022
2016-07-28,1,0.00814799829949139,0.009107480328190126,-0.004206344306431722,0.00532893423911417,0.9893703839296044
2016-08-01,1,0.00789892082580389,0.008695876158412306,-0.004206344306431722,0.00532893423911417,0.9905092531027655
2016-08-03,1,0.00735249101341551,0.00810955331402292,-0.004206344306431722,0.005616955655638076,0.9916509611097012
2016-08-05,1,0.006269492498554084,0.006780066732338632,-0.004206344306431722,0.005616955655638076,0.99298420998962
2016-08-09,1,0.0050006397514074825,0.005237760616935289,-0.0037758584563356732,0.006815289859447083,0.9931305935245787
2016-08-11,1,0.004543101071362513,0.004706973863330032,-0.0037758584563356732,0.006815289859447083,0.9921576691033552
2016-08-15,1,0.004618618673906525,0.004838476154696251,-0.0037758584563356732,0.006815289859447083,0.991614978122751
2016-08-17,1,0.0034607348968803053,0.0034654026739452215,-0.00177928224108912,0.00706700932643816,0.9916866297691325
2016-08-19,1,0.005061089678392633,0.005468722154179827,-0.00177928224108912,0.00706700932643816,0.9918217516950514
2016-08-23,1,0.005723520171112218,0.006276846224180755,-0.001567413533924465,0.00706700932643816,0.992148451720265
2016-08-25,1,0.005050966926637355,0.005502509133708534,-0.001027096331319453,0.00706700932643816,0.993298114349084
2016-08-29,1,0.005301590146668844,0.005793324747699417,-0.0017102064270707819,0.007040596488950767,0.992679037289957
2016-08-31,1,0.004326147901905187,0.004622068065810598,-0.004494960930469126,0.007040596488950767,0.9899526038144275
2016-09-02,1,0.0040989261187359665,0.004319974708653607,-0.009106725973379668,0.006444085163711876,0.9881069079491873
2016-09-07,1,0.005038697983739169,0.005401037656164275,-0.014755333851578453,0.005673880354035782,0.9862865041958311
2016-09-09,1,0.0039039235734885827,0.004103001446040143,-0.009106725973379668,0.003897084158437524,0.987882865776202
2016-09-13,1,0.003383349019166728,0.0035277070899985326,-0.0113942647830966,0.005673880354035782,0.9872769475348169
2016-09-15,1,0.0037438996753748855,0.00396884266498674,-0.0113942647830966,0.003897084158437524,0.9873801783510415
2016-09-19,1,0.00332718794315126,0.0034650078625464444,-0.0113942647830966,0.004053204310651416,0.987394094117134
2016-09-21,1,0.0018784740731169589,0.00204871563526758,-0.0113942647830966,0.004053204310651416,0.9878892709610455
2016-09-23,1,0.0011535681411096242,0.0014596564184746917,-0.021728613300923356,0.004165623241517077,0.9871429624752964
2016-09-27,0,-6.888853374786407e-05,0.00044518852056882915,-0.022592874386684315,0.004187229198761326,0.9857934481642654
2016-09-29,-1,-0.0026522696126841916,-0.0018565809594326054,-0.023814430684047167,0.004187229198761326,0.9865582503878415
2016-10-03,-1,-0.004022487965277584,-0.0030844313488087517,-0.022467787793959963,0.008016725203489502,0.9858527913185261
2016-10-05,-1,-0.006098129486915945,-0.004821754871915289,-0.022467787793959963,0.0062505997123487415,0.9833979883284273
2016-10-07,-1,-0.005046229543069596,-0.003871495452496362,-0.023814430684047167,0.008016725203489502,0.9802027339397276
2016-10-11,-1,-0.0056963357340626165,-0.004437132457948434,-0.022467787793959963,0.009275189389460804,0.9807345677672349
2016-10-13,-1,-0.005730462427819822,-0.004482865519146809,-0.022467787793959963,0.010776179018865392,0.9803664367710339
2016-10-17,-1,-0.005715854524598477,-0.0044864081228225584,-0.022467787793959963,0.018347489385449903,0.9756770029163205
2016-10-19,-1,-0.0058001352591946324,-0.004579978443583169,-0.022467787793959963,0.020729235669557745,0.9740374167370791
2016-10-21,-1,-0.006823983257977351,-0.005460918795919999,-0.013704875744036256,0.020729235669557745,0.974305432723819
2016-10-25,-1,-0.006202778502815403,-0.004984496914222693,-0.013704875744036256,0.02129116828476233,0.9736935841158212
2016-10-27,-1,-0.00778072833330024,-0.0064019506951377885,-0.006403485029985953,0.025674537500909325,0.9730275871431799
2016-10-31,-1,-0.00525687122801876,-0.004288910929308576,-0.015026430888447344,0.025674537500909325,0.9735025519847589
2016-11-02,-1,-0.0076068890969771385,-0.0063439180746117044,-0.029198363406747654,0.025674537500909325,0.974964339441387
2016-11-04,-1,-0.007746931201918365,-0.006481698070154734,-0.015026430888447344,0.019560418076975363,0.9769982741719683
2016-11-08,-1,-0.0075127899840582955,-0.006265666068225057,-0.029198363406747654,0.018218599421444638,0.975779119665476
2016-11-10,-1,-0.006103839395144693,-0.005135152790880081,-0.029198363406747654,0.024911101439095196,0.9747570326889755
2016-11-14,-1,-0.0017424923606333526,-0.0012798307077903127,-0.029198363406747654,0.0115700779303453,0.9799557675334
2016-11-16,-1,-0.0009084441283252296,-0.0004987812242317035,-0.029198363406747654,0.009335588624989146,0.981201952884052
2016-11-18,0,-0.00017050945072083696,8.652052724766358e-05,-0.029198363406747654,0.008815427805927967,0.9817087177826741
2016-11-22,-1,-0.0007749936264150612,-0.0004514749831551326,-0.017166975132836743,0.00845737376310315,0.9846599719937394
2016-11-25,1,7.066509719410143e-07,0.00025943313231592286,-0.02654107301332908,0.006293824781929685,0.9848966920733798
2016-11-29,-1,-0.0022179764200540414,-0.0016969507740482333,-0.015492006923750808,0.006293824781929685,0.9870639388987389
2016-12-01,-1,-0.004148278082437407,-0.0034173355733875697,-0.008218805190067256,0.006293824781929685,0.9893920424968957
2016-12-05,-1,-0.004121324414774752,-0.0033544448473242726,-0.013798408158249245,0.00466262048511399,0.9873785301291093
2016-12-07,-1,-0.0050457696641734925,-0.004160924707933377,-0.008218805190067256,0.006293824781929685,0.9875361195326413
2016-12-09,-1,-0.001277130473407237,-0.0010102197299622201,-0.012085148424692986,0.004765429602282645,0.9850566922560035
2016-12-13,-1,-0.00033451890022025073,-0.0002690386928656985,-0.013798408158249245,0.007225865992082267,0.9828495220016723
2016-12-15,-1,-0.0015356021201693385,-0.0013628129317173787,-0.01265277796214896,0.01424346532918357,0.9786733091499812
2016-12-19,-1,-0.0012964999494854313,-0.0011777257283510701,-0.016810665814614514,0.01424346532918357,0.9768900553665164
2016-12-21,-1,-0.00046524903161487927,-0.00041535541484261166,-0.01782803847495957,0.01424346532918357,0.9761678502398077
2016-12-23,-1,-0.001359097064407316,-0.001271754663076088,-0.015896431915683518,0.018235996025068917,0.9770698873516027
2016-12-28,-1,-0.0020854298874370793,-0.001923269581143115,-0.015896431915683518,0.018235996025068917,0.977405777537789
2016-12-30,-1,-0.0026624544065033994,-0.002435477509102566,-0.015896431915683518,0.018235996025068917,0.9773540506184253
2017-01-04,-1,-0.0016473798638280092,-0.0015422214648848393,-0.012666780693386793,0.010427551133317238,0.9800856747349472
2017-01-06,1,3.8377967401291536e-05,0.00014506519555481062,-0.015896431915683518,0.00933384080240374,0.9800460290942135
2017-01-10,1,0.0027381241581933132,0.003191916767943957,-0.015896431915683518,0.0050812321367440455,0.9833119053105835
2017-01-12,1,0.0031037252262283966,0.0036186461542371757,-0.012665122085216664,0.0050812321367440455,0.9853669544256418
2017-01-17,1,0.0077411645581475915,0.008889197780457967,-0.012665122085216664,0.0046575623401653365,0.9872989827498879
2017-01-19,1,0.006070910033016759,0.00695963821724393,-0.008188471506521458,0.007681461967786412,0.9888406129834577
2017-01-23,1,0.005654715108881969,0.0065083980560236305,-0.008188471506521458,0.007681461967786412,0.9890745343268574
2017-01-25,1,0.005878873257770631,0.006748417532569016,-0.012874684907790883,0.006517052448394258,0.9879857718435636
2017-01-27,1,0.005444140471399862,0.006275348432271897,-0.00893745441731692,0.007681461967786412,0.9894783365801246
2017-01-31,1,0.005862443396286253,0.006814534347132694,-0.009326150462201869,0.008119068449173063,0.9876288986185762
2017-02-02,1,0.005647683253115314,0.006529177496436314,-0.009326150462201869,0.008119068449173063,0.9867989320821475
2017-02-06,1,0.0054486175570750035,0.006275079592451096,-0.009326150462201869,0.007147622271755338,0.9872600006708907
2017-02-08,1,0.005367942171957805,0.006199605748161652,-0.00992817535144961,0.007147622271755338,0.9869032891897533
2017-02-10,1,0.005642532046856025,0.0065124251797290915,-0.010398444424818725,0.007456124230195128,0.9861492997302232
2017-02-14,1,0.006057182310472772,0.006987125886394264,-0.010398444424818725,0.006339105883050566,0.9854433015880097
2017-02-16,1,0.006275192152541374,0.007238687549139226,-0.008975708694842792,0.006339105883050566,0.986887325706286
2017-02-21,1,0.00559542275193863,0.006462280030543157,-0.008975708694842792,0.007456124230195128,0.9863891841057041
2017-02-23,1,0.0038283705512301737,0.004341646204589333,-0.008975708694842792,0.007456124230195128,0.9878196122197889
2017-02-27,1,0.0032538939834994935,0.0036771829480631386,-0.008975708694842792,0.009300274634144531,0.9840975505838901
2017-03-01,1,0.004030794557363751,0.004521836289334626,-0.0077575373254664065,0.009300274634144531,0.9859818848006888
2017-03-03,1,0.003444274369462096,0.0038424206323713784,-0.005544843286231091,0.009300274634144531,0.98641315744611
2017-03-07,1,0.002536869880078538,0.002793344955890707,-0.008856637556577743,0.009300274634144531,0.9860135419545109
2017-03-09,1,0.002033626790911909,0.002223935603699329,-0.009088764353416757,0.009300274634144531,0.9857148648721943
2017-03-13,1,0.0019194577147427902,0.002089636540406946,-0.009393068606271046,0.0077989752544461,0.9851539238164899
2017-03-15,1,0.0016649140684526363,0.0017987222289818751,-0.011230437557075834,0.0077989752544461,0.9845775088767994
2017-03-17,1,0.001961169320576029,0.0020986009641886824,-0.0113187605212457,0.005848708337167956,0.984233149824158
2017-03-21,1,0.0008366715340692741,0.0008568788554569284,-0.0113187605212457,0.004797177471466737,0.9857010582192567
2017-03-23,-1,-0.0006489002448248127,-0.00035614919486069187,-0.0113187605212457,0.0052856599809441105,0.9853907753409088
2017-03-27,1,0.0035827557229860282,0.003867963114477838,-0.0113187605212457,0.0011253650413427401,0.9877240341043497
2017-03-29,1,0.002005398766941324,0.0021514928581840816,-0.0113187605212457,0.0011253650413427401,0.9877196515551131
2017-03-31,1,0.0012892391540697437,0.0012900876692403475,-0.0113187605212457,0.003026173864684669,0.9874307718060044
2017-04-04,1,3.749489269826194e-05,0.0001674965558008488,-0.0113187605212457,0.005925755387581815,0.983663441693846
2017-04-06,1,8.465431032993426e-05,0.00036146664989038517,-0.009631534285532102,0.01323041882199464,0.9834675954824846
2017-04-10,1,0.0011304040371865633,0.0011499928721108957,-0.0113187605212457,0.01323041882199464,0.9818113301526512
2017-04-12,1,0.001163323954693227,0.001252549541750273,-0.01407457973372778,0.01323041882199464,0.9805969699354645
2017-04-17,1,0.000564588943927696,0.00058071474921641,-0.01407457973372778,0.020175830259218652,0.9799582770751156
2017-04-19,-1,-0.00016284913632305344,-6.848601805377395e-05,-0.020325593382039455,0.020175830259218652,0.9786967063517588
2017-04-21,1,0.0008725472068358635,0.0009557227385295843,-0.020325593382039455,0.016794174037271407,0.9791750080911514
2017-04-25,-1,-0.00026768517149409907,-0.00010718025339092203,-0.020325593382039455,0.018163138191989957,0.9777058421667855
2017-04-27,0,-3.9567755375272866e-05,0.00019538050611727005,-0.020325593382039455,0.01621889791449582,0.9785578642861438
2017-05-01,1,0.0006392321990468999,0.000779345997675307,-0.020325593382039455,0.013719424111105296,0.9789264296117242
2017-05-03,-1,-0.0009348446389202431,-0.0005751130108229182,-0.020037698899125347,0.011517770508151424,0.9838912619769323
2017-05-05,1,0.00025168610845575424,0.0004430170351795348,-0.020037698899125347,0.012571506377842056,0.9820653883884394
2017-05-09,-1,-0.0011588433760413846,-0.0007907542425499862,-0.018926409601840822,0.012571506377842056,0.983703651848895
2017-05-11,-1,-0.0028384037746833944,-0.002245785997368949,-0.016487360504326108,0.012571506377842056,0.9844482811342058
2017-05-15,-1,-0.0021769601904676862,-0.0016530167491743753,-0.016487360504326108,0.012571506377842056,0.9835580786757182
2017-05-17,-1,-0.0035940220874395947,-0.0029037866086305294,-0.009064123385352583,0.01375478229732851,0.9835448667605221
2017-05-19,-1,-0.0042594945620795365,-0.003461435894466236,-0.006862165838781464,0.01632497247316546,0.9827087704431853
2017-05-23,-1,-0.004900856303278451,-0.00398721338266936,-0.004634625488484825,0.01375478229732851,0.9835727731270973
2017-05-25,-1,-0.004771586889408114,-0.003838124269537684,-0.006862165838781464,0.013417569860373856,0.984178578248457
2017-05-30,-1,-0.004742846552649258,-0.003841622907816879,-0.009013134171903577,0.013417569860373856,0.9823195039657142
2017-06-01,-1,-0.004768606503484488,-0.003931354734252898,-0.009013134171903577,0.013417569860373856,0.981856834101482
2017-06-05,-1,-0.0012867721113294386,-0.0009888508078159195,-0.01041801286251637,0.012133783715858219,0.9856881129046303
2017-06-07,-1,-0.002154483617880492,-0.001772883887466615,-0.01041801286251637,0.012133783715858219,0.9849246091633177
2017-06-09,1,0.00021568633001047775,0.0003106189405110563,-0.010748902405585738,0.013417569860373856,0.9849254694776264
2017-06-13,1,0.0011737157046970725,0.001321633558478334,-0.010748902405585738,0.008653887149844181,0.987244714802603
2017-06-15,1,0.001962680100051532,0.002176443468323766,-0.01767160576760574,0.007750926277019749,0.986733881845056
2017-06-19,1,0.0029303544601661587,0.0032893679201108864,-0.01767160576760574,0.005647192310300015,0.9866120442044077
2017-06-21,1,0.002706518447625476,0.003004959207281912,-0.01767160576760574,0.004760496612002056,0.9867326265133034
2017-06-23,1,0.0022117296855587395,0.002433911489883171,-0.015574079916935574,0.004760496612002056,0.9873783422554903
2017-06-27,1,0.0013915821467005377,0.0015090382554109284,-0.015235326864932851,0.0042815539098667345,0.9884512908343199
2017-06-29,1,0.0007415859416236409,0.0007818548716328997,-0.015235326864932851,0.0050145703155794665,0.9880565534723711
2017-07-03,1,0.0003102003832890369,0.0003339440133787082,-0.015235326864932851,0.0050145703155794665,0.9881672466892084
2017-07-06,-1,-0.0003924649302043581,-0.0003510472320072382,-0.01122934686458043,0.0050145703155794665,0.9862472102012101
2017-07-10,-1,-0.00024409797887616765,-0.00023724330266147102,-0.008436990676985778,0.004560958240784035,0.9875702030172716
2017-07-12,1,0.00013208391187455112,0.00018583896780405585,-0.008436990676985778,0.0036296793654869426,0.9880671240271808
2017-07-14,0,-1.253221591590398e-05,4.940982276597968e-08,-0.008436990676985778,0.003282268660488653,0.9890660116456343
2017-07-18,-1,-0.0009386945978492015,-0.000810010898755124,-0.006671496906456582,0.0036296793654869426,0.9884609889405991
2017-07-20,-1,-0.0006625769184941603,-0.0005849672884094881,-0.006671496906456582,0.004533711550773624,0.9871272565775172
2017-07-24,-1,-0.0002573408670396384,-0.0002330010475958131,-0.005829365673217797,0.005683596183305481,0.9872369331199145
2017-07-26,-1,-0.0006849828713606546,-0.0006421777432301507,-0.005829365673217797,0.006433692682968202,0.9859170345320322
2017-07-28,-1,-0.0015302013831135625,-0.0013637584939693492,-0.004270600715557788,0.005683596183305481,0.9875567841243507
2017-08-01,-1,-0.0017391847294219052,-0.001534556351468974,-0.003144927582838697,0.005683596183305481,0.987930093852358
2017-08-03,-1,-5.598829683469016e-05,-5.119755054122372e-05,-0.003144927582838697,0.005683596183305481,0.9906862473507629
2017-08-07,1,6.46531013038143e-05,6.835047799295925e-05,-0.003144927582838697,0.005912936944343603,0.9902730443476613
2017-08-09,1,0.00040035715270970117,0.00047975068270196265,-0.006560022896632163,0.005912936944343603,0.9874059295770863
2017-08-11,-1,-0.000653610650881977,-0.0005748582439077545,-0.004270600715557788,0.007722778600177293,0.9874324900413385
2017-08-15,-1,-0.00010695364672539802,-8.539166643992745e-05,-0.003144927582838697,0.007891022671922399,0.9879175832460536
2017-08-17,1,0.002068713014425937,0.0024610851432976216,-0.00948680786202177,0.006395455845680688,0.9863329175792684
2017-08-21,1,0.0024932808521763083,0.002980425782016874,-0.010741564848190464,0.006395455845680688,0.9858557643407901
2017-08-23,1,0.003391871609307091,0.003990529143842564,-0.011418087429873075,0.006395455845680688,0.9870463922666524
2017-08-25,1,0.0030461213488717875,0.0035472025473839634,-0.012623485128576115,0.006685357181844638,0.9863356030477758
2017-08-29,1,0.0026865087786802234,0.0031089528116863083,-0.0145301047141244,0.006685357181844638,0.985374911833628
2017-08-31,1,0.002120670449397938,0.002437651082526319,-0.015437037059314708,0.008059141356326193,0.9778742411730712
2017-09-05,1,0.002490380002827957,0.002811519105224611,-0.020458767355823252,0.008059141356326193,0.9752802511903454
2017-09-07,1,0.0005588521634492502,0.0005905336638182917,-0.015437037059314708,0.012043999620368501,0.9774902074153716
2017-09-11,1,0.0010788959265252036,0.0011525077442477824,-0.015437037059314708,0.008059141356326193,0.9778662779747936
2017-09-13,1,0.0019945532300438204,0.00221520711750062,-0.019580026584851827,0.008059141356326193,0.976400101640097
2017-09-15,1,0.00017437425250226512,0.00020050270266891543,-0.015260021096221908,0.008059141356326193,0.9787043575655826
2017-09-19,1,0.0005078817515755602,0.0005979752241867,-0.01725641891899453,0.008059141356326193,0.9783210189984035
2017-09-21,1,0.0008572373605348739,0.0010321286921463422,-0.01725641891899453,0.0022631180411229615,0.9791265660996752
2017-09-25,-1,-0.0004417462135354207,-0.00041465071181470963,-0.01725641891899453,0.0005004085950148767,0.9802542947041277
2017-09-27,-1,-0.0005755803208262475,-0.0005622443254225437,-0.011496540354553091,0.0012861665046764695,0.9810206326034755
2017-09-29,-1,-0.00212494980271123,-0.001863280105634444,-0.00812924512749606,0.0010628518729078492,0.9895386296107005
2017-10-03,-1,-0.004246488879446387,-0.0036632971484500095,-0.006382917606794561,0.0010628518729078492,0.9918555112947729
2017-10-05,-1,-0.0027365738669645023,-0.002395066969709446,-0.006382917606794561,0.0010628518729078492,0.989576865107793
2017-10-09,-1,-0.0049779497995116224,-0.004333292579274325,-0.005351961271236868,0.006171974506517974,0.9872595007901115
2017-10-11,-1,-0.005037802380913019,-0.004379733399593404,-0.005351961271236868,0.0032079233009883624,0.9883718514780758
2017-10-13,-1,-0.005826200379671213,-0.005077374123747692,-0.004563336261257894,0.009174360908536038,0.9863673479253922
2017-10-17,-1,-0.006011013686643756,-0.005282919101563582,-0.0029461759100250264,0.015436169166795499,0.9859746122392834
2017-10-19,-1,-0.006102908247617087,-0.005350192807511048,-0.0029461759100250264,0.01614621734586824,0.9845209798997613
2017-10-23,-1,-0.006536482328683898,-0.005700283430802156,-0.0006115221668090246,0.017188393598268195,0.9824770082195461
2017-10-25,-1,-0.005255644428023608,-0.004676767120846041,0.0016869482266805389,0.017188393598268195,0.9827134266622325
2017-10-27,-1,-0.005791334777103101,-0.005111570332587818,0.002553093537005887,0.017188393598268195,0.9820342534152899
2017-10-31,-1,-0.005371386240704169,-0.004735219418533143,0.0035610686919158607,0.02150102637132207,0.9795586306049225
2017-11-02,-1,-0.002182951884900806,-0.002015174236944242,0.002553093537005887,0.01890796739304442,0.9843553636913448
2017-11-06,1,0.00014093531373098977,0.0003326793177960113,0.0,0.01664080571907279,0.9879351295302655
