JNU-Tangyin/eata/results/Batch4_SP500/Batch4_SP500-WAT.csv
Date,Action,Predicted_Q25,Predicted_Q75,Actual_Q25,Actual_Q75,RL_Reward
2010-12-14,0,0.0,0.0,-0.006275185888649084,0.0024813511616669877,0.993098930628875
2010-12-16,1,0.0015748740232281037,0.001593987417056086,-0.005780938982357911,0.0010062084456694878,0.9928935738249841
2010-12-20,1,0.0017353945556899306,0.0018350219063233628,-0.006275185888649084,0.0010062084456694878,0.9913611769275418
2010-12-22,1,0.001565902494967842,0.001643677744105611,-0.006275185888649084,0.0040357392248079604,0.9916559652474548
2010-12-27,1,0.0015622042910790205,0.0016627757763466623,-0.006275185888649084,0.005238421421626983,0.9906753066390117
2010-12-29,0,0.0,0.0,-0.00770650360163788,0.005940646325753478,0.9896550340918024
2010-12-31,0,0.0,0.0,-0.008046543481139857,0.005940646325753478,0.989175042494812
2011-01-04,0,0.0,0.0,-0.012547411089631979,0.007724469313345663,0.9877384469995305
2011-01-06,0,0.0,0.0,-0.008046543481139857,0.007724469313345663,0.9885961154451869
2011-01-10,0,0.0,0.0,-0.0046315791214221295,0.010735062494499098,0.9885253280801987
2011-01-12,0,0.0,0.0,-0.0046315791214221295,0.012843645219189306,0.9882274974937575
2011-01-14,0,0.0,0.0,-0.003740549190167972,0.012843645219189306,0.9880348346557505
2011-01-19,0,0.0,0.0,-0.003522717485465952,0.01088900088843467,0.9894027868759157
2011-01-21,-1,-0.0018527116630297335,-0.0014251195931644421,-0.003522717485465952,0.013427388108277889,0.9877544809454586
2011-01-25,0,0.0,0.0,-0.004748217658626265,0.01088900088843467,0.9877844528605315
2011-01-27,0,0.0,0.0,-0.003958423148326215,0.011168917651214767,0.988084491854979
2011-01-31,0,0.0,0.0,-0.003958423148326215,0.011168917651214767,0.9883595379140561
2011-02-02,-1,-0.002081259255018609,-0.0016401224697397251,-0.002622977158810874,0.011168917651214767,0.9882507685962812
2011-02-04,0,0.0,0.0,0.0004651651778950366,0.013823988358200645,0.9872120659675342
2011-02-08,-1,-0.0011445768583433292,-0.0008967334511052701,-0.002226483270254316,0.013823988358200645,0.987160415060231
2011-02-10,0,-5.232247613765382e-05,7.38042944918181e-05,-0.004094722544520206,0.010946995564479374,0.9878509775889514
2011-02-14,1,0.00035308856820590484,0.00041604768181028023,-0.008467399950523927,0.010946995564479374,0.9867781650657401
2011-02-16,0,0.0,0.0,-0.011574807807972938,0.013158222097994464,0.9851885173076638
2011-02-18,0,0.0,0.0,-0.011574807807972938,0.014129778751572852,0.9851400611486165
2011-02-23,0,0.0,0.0,-0.008467399950523927,0.014129778751572852,0.9863270743655447
2011-02-25,1,0.0005084891403663778,0.0005545462477510066,-0.008467399950523927,0.01337156110713521,0.9867559160791533
2011-03-01,0,0.0,0.0,-0.006729378465394736,0.01337156110713521,0.9873545426792055
2011-03-03,0,0.0,0.0,-0.006729378465394736,0.010936427215098044,0.988384734277074
2011-03-07,1,0.0012926703537762176,0.0013318063960279021,-0.004639399408925775,0.011988563146390404,0.9893968359267424
2011-03-09,1,0.0014684308899346437,0.001531025729055974,-0.004639399408925775,0.010673228994909887,0.9895727591907072
2011-03-11,0,0.0,0.0,-0.006295227195001174,0.010673228994909887,0.9896171404298032
2011-03-15,0,0.0,0.0,-0.004579948193441148,0.010673228994909887,0.9906621870530218
2011-03-17,0,0.0,0.0,-0.004005340274295253,0.009722010765338912,0.9922375573049164
2011-03-21,0,0.0,0.0,-0.004579948193441148,0.007212428366703006,0.9927649119540901
2011-03-23,0,0.0,0.0,-0.0038416550744088934,0.008281587212732228,0.9911735417952519
2011-03-25,0,0.0,0.0,-0.0038416550744088934,0.008281587212732228,0.991343311688117
2011-03-29,1,0.0015610859933198524,0.0015976716563772626,-0.0038416550744088934,0.010115164434512046,0.9877977628987537
2011-03-31,0,0.0,0.0,-0.0038416550744088934,0.008860762402037975,0.9878460981372211
2011-04-04,0,0.0,0.0,-0.004557282869653718,0.005675139768726841,0.9884931244072377
2011-04-06,0,0.0,0.0,-0.00680969226326765,0.004664653389774353,0.9881315930159797
2011-04-08,0,0.0,0.0,-0.004613716447641132,0.007646689663127114,0.98798918022024
2011-04-12,0,0.0,0.0,-0.004613716447641132,0.007646689663127114,0.9880106146991872
2011-04-14,0,0.0,0.0,-0.006700250758501743,0.010129758565399013,0.9874905095500764
2011-04-18,0,0.0,0.0,-0.006700250758501743,0.010129758565399013,0.9879974675279618
2011-04-20,0,0.0,0.0,-0.006700250758501743,0.011308410401976741,0.9882823737041402
2011-04-25,0,0.0,0.0,-0.007594924644029855,0.009993382333129876,0.9878069431454127
2011-04-27,0,0.0,0.0,-0.007594924644029855,0.005952423851408709,0.9916065169511287
2011-04-29,0,0.0,0.0,-0.007594924644029855,0.005952423851408709,0.99150977924859
2011-05-03,1,0.0031123252465192616,0.0033580566080431648,-0.007669718117866195,0.008228303148442763,0.990070867388138
2011-05-05,0,0.0,0.0,-0.007669718117866195,0.008228303148442763,0.9901492266227148
2011-05-09,1,0.002209835485761278,0.0024718523085131517,-0.00931409877267508,0.0054950254383549745,0.989672222612737
2011-05-11,1,0.0020777653215096367,0.00230903254729956,-0.010968962302251365,0.008621187093968672,0.9889859451362081
2011-05-13,0,0.0,0.0,-0.012854729012188374,0.0054950254383549745,0.9886738806373838
2011-05-17,0,0.0,0.0,-0.014731781612105553,0.008621187093968672,0.9875401945267613
2011-05-19,0,0.0,0.0,-0.014731781612105553,0.005301887584211662,0.9887910160448875
2011-05-23,0,0.0,0.0,-0.011577166312527733,0.0071914911729590875,0.9887581497798082
2011-05-25,0,0.0,0.0,-0.011577166312527733,0.0071914911729590875,0.9884575660530913
2011-05-27,0,0.0,0.0,-0.015465153311769465,0.009189557220112395,0.9872215949456409
2011-06-01,1,0.0010571102254859624,0.0011158449176795445,-0.011577166312527733,0.013727070513137391,0.987653665098336
2011-06-03,0,-0.000226528178256754,2.020195863245474e-05,-0.009892584294620917,0.013865083869973281,0.9875990545648798
2011-06-07,1,8.636143904187943e-05,0.0002658322343779599,-0.008435178553995165,0.013865083869973281,0.9888193099709193
2011-06-09,0,0.0,0.0,-0.003993749301353407,0.013616650220818665,0.9895939507344891
2011-06-13,-1,-0.0008670697068257202,-0.0006183711276742925,-0.0036716579430235833,0.013616650220818665,0.9887638656886084
2011-06-15,-1,-0.0010497647140659558,-0.000782883459051072,-0.0036716579430235833,0.008610143657682454,0.9901407347256854
2011-06-17,-1,-0.0005130221062168346,-0.00033618419511954737,-0.006726589528430875,0.007492774074963719,0.9904402677745702
2011-06-21,0,-3.5439798959222306e-05,9.337145801322226e-05,-0.006726589528430875,0.007492774074963719,0.9899685601982633
2011-06-23,-1,-0.0005653343617844706,-0.0003541644763345272,-0.006726589528430875,0.013616650220818665,0.9884690873118542
2011-06-27,-1,-0.0009072366004472123,-0.0006323627252229499,-0.007497447580719423,0.007663909621499889,0.9855688190687465
2011-06-29,-1,-0.0005154407008114286,-0.0002899430714115483,-0.010068166353827651,0.004444772566862713,0.9851966793730536
2011-07-01,1,6.837227926531164e-05,0.0002157495518568475,-0.01095050028334006,0.0035050493099034277,0.9852599006068788
2011-07-06,1,0.00032474569854146624,0.0004089635526610178,-0.012871072074204922,0.004978350760779313,0.9823028352042703
2011-07-08,1,0.0003874538456698161,0.00046987057663394453,-0.020936326389379777,0.003207041541092538,0.9796866004735627
2011-07-12,-1,-0.0007785038098322578,-0.0005457722120014707,-0.020936326389379777,0.005967057621038026,0.9766137836364149
2011-07-14,-1,-0.0005669396502040033,-0.00039982883999948476,-0.03379222505757698,0.010182433992848263,0.9731598556839821
2011-07-18,-1,-0.0013359233373884697,-0.0010252433560488075,-0.03379222505757698,0.02836978125718085,0.9703379188493211
2011-07-20,0,0.0,0.0,-0.04301242254654797,0.016289870121355444,0.9695732439405282
2011-07-22,0,0.0,0.0,-0.04786886660586134,0.010182433992848263,0.9676781822209402
2011-07-26,0,0.0,0.0,-0.04301242254654797,0.016289870121355444,0.9697385170372257
2011-07-28,0,0.0,0.0,-0.04301242254654797,0.02207870574155061,0.9701967033883031
2011-08-01,0,0.0,0.0,-0.04301242254654797,0.025895225685568395,0.9690408237314384
2011-08-03,0,0.0,0.0,-0.018534328027485975,0.025895225685568395,0.9714589359436372
2011-08-05,1,0.1526139914738018,0.1534304072731554,-0.01924832554661528,0.025895225685568395,0.8667062362966083
2011-08-09,0,0.0,0.0,-0.009955816461499121,0.025895225685568395,0.9752829204840965
2011-08-11,0,0.0,0.0,-0.015289003262543796,0.023122975018851077,0.9767083168795045
2011-08-15,-1,-0.0033193202981550516,-0.002844763250018747,-0.015289003262543796,0.020655680245599273,0.977742121738512
2011-08-17,-1,-0.003917439035379488,-0.003388187287409733,-0.009955816461499121,0.02539416013858778,0.9770946609438456
2011-08-19,-1,-0.006601918877338542,-0.0057455945928225095,-0.009955816461499121,0.02539416013858778,0.9789665834297463
2011-08-23,-1,-0.004864759355060293,-0.004227148593612203,-0.015225064518526468,0.023122975018851077,0.9792442969460246
2011-08-25,-1,-0.004623109406057363,-0.0040468502392616255,-0.021900685621292184,0.023122975018851077,0.9783142343117261
2011-08-29,0,0.0,0.0,-0.021900685621292184,0.023214093303895525,0.9783081758677243
2011-08-31,1,0.001177237039683276,0.0013592881443492493,-0.02435954128577754,0.023214093303895525,0.9771364084639605
2011-09-02,-1,-0.0036831720094768856,-0.003381661775948162,-0.023836264287855295,0.023214093303895525,0.9763975212106895
2011-09-07,0,0.0,0.0,-0.023836264287855295,0.021502334332629252,0.9767556139604987
2011-09-09,0,0.0,0.0,-0.023644448055803305,0.023214093303895525,0.9741903221479967
2011-09-13,0,0.0,0.0,-0.023644448055803305,0.02622072347610569,0.9726258452154687
2011-09-15,0,0.0,0.0,-0.023644448055803305,0.021502334332629252,0.973733435136251
2011-09-19,0,0.0,0.0,-0.026975613910438186,0.021502334332629252,0.9730774863825605
2011-09-21,0,0.0,0.0,-0.022763746415261937,0.021502334332629252,0.9745191131074142
2011-09-23,0,0.0,0.0,-0.018685294005179456,0.02369094725358835,0.9740004385972376
2011-09-27,-1,-0.002988308479766414,-0.002829104985886851,-0.022763746415261937,0.02369094725358835,0.9726949201155379
2011-09-29,-1,-0.0021100958377591504,-0.0020564676063091203,-0.022151093911870784,0.028095156276784237,0.9711518923298778
2011-10-03,-1,-0.003529659145916397,-0.003340815781008864,-0.019244159813408115,0.028095156276784237,0.971208713965645
2011-10-05,-1,-0.0011704865288383083,-0.0010303135631668941,-0.02425607147901346,0.028095156276784237,0.9714168212506274
2011-10-07,-1,-0.0023648152094271355,-0.0023357366167375227,-0.019244159813408115,0.02903875804907815,0.9742999640767848
2011-10-11,1,0.0005971079033486849,0.0010248949491623997,-0.019244159813408115,0.02348485613818642,0.9765252102510871
2011-10-13,-1,-0.000693480098266009,-0.00047779554481964365,-0.02425607147901346,0.02348485613818642,0.974994453793306
2011-10-17,-1,-0.0009050559760336302,-0.0007080491108530982,-0.01650036901458668,0.026573067414936587,0.9753805069042607
2011-10-19,-1,-0.0006982729115830652,-0.00044328757992110387,-0.01650036901458668,0.026573067414936587,0.9763464240506865
2011-10-21,1,0.0008887979574031942,0.0012965398117444444,-0.02425607147901346,0.018378648321257646,0.9768202892017129
2011-10-25,1,0.0005376279607886852,0.0008905501208402488,-0.019741892896502505,0.012038022416931311,0.9803109204556334
2011-10-27,1,0.0015440487647095317,0.0020447785021665797,-0.020112810681068707,0.008658439870084833,0.9823339080872514
2011-10-31,0,0.0,0.0,-0.015138436201235263,0.008658439870084833,0.9826769025385268
2011-11-02,0,0.0,0.0,-0.00900407901840461,0.014727920641348893,0.9819056394730976
2011-11-04,0,0.0,0.0,-0.007171609719212489,0.007061211397200281,0.9838176250013158
2011-11-08,0,0.0,0.0,-0.008670327488262844,0.0026721896383027563,0.9849342729699052
2011-11-10,0,0.0,0.0,-0.010525865730637459,0.0016563177609790146,0.9849334262173518
2011-11-14,0,0.0,0.0,-0.015393366801035327,0.0005742912418695517,0.9850372341787592
2011-11-16,0,0.0,0.0,-0.015393366801035327,0.0013143799469472247,0.9850574031598422
2011-11-18,-1,-0.002418656206839869,-0.0023917561996694937,-0.010525865730637459,0.0015082782286617964,0.9873593029697773
2011-11-22,-1,-0.002362900164037495,-0.002352031104323307,-0.010525865730637459,0.0015082782286617964,0.9859623762106565
2011-11-25,1,4.135707866645129e-05,0.00031530827839541353,-0.00876308477749955,0.0016841463527891816,0.9867691978280806
2011-11-29,0,0.0,0.0,-0.010525865730637459,0.0015082782286617964,0.9874868391144139
2011-12-01,0,0.0,0.0,-0.010525865730637459,0.0015082782286617964,0.990004787969444
2011-12-05,0,0.0,0.0,-0.01324767144355525,0.0015082782286617964,0.9879439812293339
2011-12-07,1,0.0022463312780756717,0.0027434269508847236,-0.011160126201107585,0.0026444232400025065,0.9872392911481966
2011-12-09,0,0.0,0.0,-0.008799588493147706,0.002706049612020832,0.9903947600876282
2011-12-13,0,0.0,0.0,-0.004618443044948349,0.011039002462060812,0.9902751405106146
2011-12-15,0,0.0,0.0,-0.004618443044948349,0.013223979314049367,0.9892262376794891
2011-12-19,0,0.0,0.0,-0.005963979916944653,0.01702223344167299,0.9866069585704474
2011-12-21,0,0.0,0.0,-0.008840000747424654,0.013223979314049367,0.9871459135017709
2011-12-23,0,0.0,0.0,-0.008840000747424654,0.01878514784713417,0.9822092422221871
2011-12-28,0,0.0,0.0,-0.008840000747424654,0.01878514784713417,0.9825090070465519
2011-12-30,0,0.0,0.0,-0.008840000747424654,0.01878514784713417,0.9826737852290639
2012-01-04,0,0.0,0.0,-0.006869608655446387,0.018214310460901877,0.9836267996353947
2012-01-06,0,-3.663731491856091e-05,0.00015750871315878972,-0.003511299173510105,0.018214310460901877,0.9839919414960552
2012-01-10,-1,-0.0006218293173714915,-0.000549629482615498,-0.0051967882928444994,0.018214310460901877,0.983647801996179
2012-01-12,-1,-0.0007435593851012743,-0.0005604955801732841,-0.006168248105112646,0.012487435085033537,0.9850723199750812
2012-01-17,1,0.0003682143266602018,0.00039252448834506144,-0.005141210648656466,0.00846624378991665,0.9860466128793879
2012-01-19,0,0.0,0.0,-0.005141210648656466,0.00846624378991665,0.9879616832740079
2012-01-23,0,0.0,0.0,-0.005484406914491376,0.0058201945320329514,0.9883855901867522
2012-01-25,0,0.0,0.0,-0.005484406914491376,0.004422047968787999,0.9935704410112649
2012-01-27,0,0.0,0.0,-0.004931789466512053,0.0050976773172891655,0.9936970921590501
2012-01-31,1,0.0030118681835853613,0.0034198926017133162,-0.003707153962562387,0.005774604340502084,0.9937183722467977
2012-02-02,0,0.0,0.0,-0.004931789466512053,0.005774604340502084,0.9938510100824158
2012-02-06,0,0.0,0.0,-0.005484406914491376,0.004833764179123354,0.9932524326179604
2012-02-08,0,0.0,0.0,-0.005484406914491376,0.006754064807903509,0.992213352597223
2012-02-10,0,0.0,0.0,-0.0051932342603117874,0.007785711166185978,0.9917689094852068
2012-02-14,1,0.002806615959149605,0.0031176126349912003,-0.0051932342603117874,0.00844425870317917,0.9913227147158264
2012-02-16,1,0.0028788721141861833,0.003163990162355949,-0.004817336994803692,0.008435885930337995,0.9917003988051225
2012-02-21,1,0.0028539008918839247,0.0032156099031253227,-0.003524743830903987,0.008435885930337995,0.9925967088496347
2012-02-23,1,0.00277334496498778,0.0031078146093513653,-0.004817336994803692,0.008435885930337995,0.9917857124044162
2012-02-27,1,0.002387764986717633,0.0026026537057574186,-0.004817336994803692,0.010314262825966206,0.990092931804325
2012-02-29,1,0.002778302632262338,0.003108644241930527,-0.005220310433775566,0.008435885930337995,0.9898735298909506
2012-03-02,1,0.00166549832578579,0.0017408410527940585,-0.005220310433775566,0.00952021060923152,0.9898863927391731
2012-03-06,1,0.0021341258549366186,0.0023810375679751174,-0.004357308580858462,0.010845383317093641,0.9904445810528301
2012-03-08,1,0.0023766703646210877,0.002592132095254181,-0.005220310433775566,0.00952021060923152,0.9903077554558658
2012-03-12,1,0.0018353320798645384,0.0019528345988406132,-0.010164913375577707,0.004744872758300777,0.9886886760428457
2012-03-14,1,0.0021613640371735184,0.002337794061978315,-0.010164913375577707,0.008404461552949598,0.9887760741773285
2012-03-16,1,0.002795982774296456,0.0031305480874568785,-0.011646797778636905,0.004460254122194971,0.9876510201471004
2012-03-20,1,0.0027238026496070053,0.0030089787028245744,-0.011646797778636905,0.008404461552949598,0.9869186136993807
2012-03-22,1,0.00292609768441083,0.0032909413938662525,-0.010164913375577707,0.008404461552949598,0.9875782740931134
2012-03-26,1,0.0033779705720639206,0.0037601560656139923,-0.013296844612133506,0.008078339963843337,0.9851162526134348
2012-03-28,1,0.0017966764158849052,0.001976438807813905,-0.013296844612133506,0.010036107647454174,0.9851925617828599
2012-03-30,1,0.0019223300136614549,0.002134284464965623,-0.010041305680713944,0.009182251739136756,0.9857349529601015
2012-04-03,1,0.0027539272391794226,0.0031333149845648384,-0.010041305680713944,0.008078339963843337,0.9859249822332857
2012-04-05,1,0.0014532355395207855,0.001573378132192674,-0.0060121569957946215,0.008078339963843337,0.9870554684585247
2012-04-10,1,0.00045637525735469655,0.00048699195079663385,-0.0042883674626040865,0.00823836998661168,0.9892480168328304
2012-04-12,1,0.001013370075074308,0.0011006061522879623,-0.0042883674626040865,0.00461098071168007,0.9899124714370774
2012-04-16,-1,-0.0009161449059170906,-0.0006925347875452218,-0.003728826723035895,0.0067319774040125804,0.990790882040319
2012-04-18,-1,-0.00044662129910707593,-0.00027396689400031887,-0.0038392907598556593,0.004166804630958757,0.9913865334943982
2012-04-20,-1,-0.0008790382217430818,-0.0006113161011066466,-0.006254153259960033,0.0032897805211503017,0.9906143616982086
2012-04-24,-1,-0.0007490389792732789,-0.0005384082955151793,-0.004107848314860621,0.004166804630958757,0.9931223593024303
2012-04-26,1,0.0005796600272924872,0.0006095090362571014,-0.006254153259960033,0.0028070066761193765,0.9938943472935515
2012-04-30,1,0.0005244278839951911,0.0005461457328648946,-0.004668011781737428,0.0028070066761193765,0.9940414741114548
2012-05-02,1,0.0001390892762608795,0.00017809064320473125,-0.00830858333669622,0.0028070066761193765,0.992672763464779
2012-05-04,-1,-0.0007364573153247192,-0.0005253413860360673,-0.011649732874923298,0.0028070066761193765,0.9908379207987179
2012-05-08,-1,-0.001065383737697581,-0.0007657141823185948,-0.011649732874923298,0.0031254134848405163,0.9897891945133228
2012-05-10,0,0.0,0.0,-0.011649732874923298,0.004752099014733119,0.9890321173582465
2012-05-14,0,0.0,0.0,-0.009425076705588491,0.004752099014733119,0.9888819836835089
2012-05-16,0,0.0,0.0,-0.009145949847178227,0.006694763894923119,0.9887589473272267
2012-05-18,0,0.0,0.0,-0.007004348430231267,0.009281705411053191,0.9895774926456734
2012-05-22,-1,-0.001980846196430815,-0.0013777408305560926,-0.007004348430231267,0.009281705411053191,0.9900858221939146
2012-05-24,-1,-0.0022013593266999826,-0.0015783560838863767,-0.007934757226850027,0.010427900276054548,0.988516085697862
2012-05-29,-1,-0.002179677270600054,-0.001570129777809141,-0.014308161260299945,0.010427900276054548,0.9870546095727382
2012-05-31,-1,-0.003075326723895328,-0.002353237715201832,-0.01295211435644158,0.010427900276054548,0.9873826159720354
2012-06-04,-1,-0.0037438679703160854,-0.0029422852944708364,-0.008001932922855557,0.011355758154826283,0.9869599398363139
2012-06-06,-1,-0.001977291187140586,-0.0014356388117693518,-0.008001932922855557,0.010697630588974808,0.9882037710993472
2012-06-08,-1,-0.002352362015083104,-0.0017674694253783667,-0.01636323306669586,0.010697630588974808,0.9865167677028454
2012-06-12,-1,-0.0016127970949829395,-0.0011816647124196053,-0.017201194489148697,0.009281705411053191,0.9863378443924199
2012-06-14,-1,-0.002129377308702045,-0.001577016123985989,-0.017201194489148697,0.00966487442991204,0.986026064049678
2012-06-18,1,0.0010967259568337275,0.0011498358850448916,-0.017201194489148697,0.011936935710128771,0.9858141167468287
2012-06-20,1,0.0009653595403603058,0.0009741926452287019,-0.017201194489148697,0.011936935710128771,0.9854413497217233
2012-06-22,0,0.0,0.0,-0.017201194489148697,0.009390923424140557,0.9856153371360142
2012-06-26,0,0.0,0.0,-0.01315364144445817,0.009390923424140557,0.9871539562648832
2012-06-28,0,0.0,0.0,-0.011779310170842687,0.013199282410200752,0.9856003713501675
2012-07-02,0,0.0,0.0,-0.011731878417028364,0.011936935710128771,0.9868491748465266
2012-07-05,0,0.0,0.0,-0.013290666657166151,0.009480721488717973,0.9863556774513671
2012-07-09,0,0.0,0.0,-0.008958415158003549,0.013199282410200752,0.9875636623970588
2012-07-11,-1,-0.0006737877437746646,-0.00045857272491648673,-0.007763522734856857,0.01702855584505552,0.9874971013997323
2012-07-13,-1,-0.0005290851351813768,-0.00030030171418009375,-0.00828831476761591,0.014049698326036327,0.9879109682672657
2012-07-17,-1,-0.00019147391858277771,-1.3162458018686882e-05,-0.008872044799085429,0.010518962739798627,0.987915442680594
2012-07-19,1,0.0004495121932939943,0.0005383229471047086,-0.009626819382941786,0.008856909734848123,0.986809398786701
2012-07-23,-1,-0.0003504132254312539,-0.00017256314202346046,-0.008872044799085429,0.008856909734848123,0.9879056752922527
2012-07-25,-1,-0.0008448783760606435,-0.0005978944085012346,-0.008872044799085429,0.009647386635416106,0.9877766878328784
2012-07-27,0,0.0,0.0,-0.008872044799085429,0.007634396922243175,0.9895068861437507
2012-07-31,0,0.0,0.0,-0.008218630197432268,0.007634396922243175,0.9900126380796258
2012-08-02,0,0.0,0.0,-0.00652122146071109,0.00816931815583068,0.990238602263933
2012-08-06,0,0.0,0.0,-0.00652122146071109,0.00816931815583068,0.9905430052876745
2012-08-08,1,0.0002675905623626335,0.0006310578351836051,-0.00652122146071109,0.00816931815583068,0.9908034395019678
2012-08-10,1,0.0004312783272931972,0.0006126421772650593,-0.004499109958826593,0.009647386635416106,0.9903082449450966
2012-08-14,0,-1.4514384490595643e-05,9.15818774666418e-05,-0.0016663546973124139,0.009647386635416106,0.990757821244355
2012-08-16,-1,-0.0006627825240695965,-0.0005782961519828521,-0.001175486846679358,0.009891559656530262,0.9915288885697542
2012-08-20,0,0.0,0.0,-0.001175486846679358,0.009891559656530262,0.9923896542010505
2012-08-22,0,0.0,0.0,-0.0013216670436132832,0.009508226156059544,0.9927942804590231
2012-08-24,0,0.0,0.0,-0.0017329031233513656,0.0063032576346653355,0.9932076807351633
2012-08-28,0,0.0,0.0,-0.0028374893732356415,0.0063032576346653355,0.9929518946802649
2012-08-30,0,0.0,0.0,-0.0034391170057717605,0.005105463743711134,0.9931382059326466
2012-09-04,0,0.0,0.0,-0.0028374893732356415,0.005105463743711134,0.9934418913390517
2012-09-06,1,0.0019414236713370327,0.0020181545401698354,-0.0020113065012889965,0.003709568049348826,0.9945624845119523
2012-09-10,1,0.0027504562375806965,0.0029573829300931836,-0.0020113065012889965,0.0029004558940825317,0.994927637792523
2012-09-12,0,0.0,0.0,-0.005002817152505872,0.002078786808519858,0.9933810158637347
2012-09-14,0,0.0,0.0,-0.006007797542226377,0.002078786808519858,0.9937176736184055
2012-09-18,1,0.002996960028115892,0.003488102923154098,-0.006007797542226377,0.0029752628367008494,0.9923019088268651
2012-09-20,0,0.0,0.0,-0.006987348033745925,0.0040528472108478375,0.9924905742222949
2012-09-24,0,0.0,0.0,-0.009123892130232635,0.005410943982803769,0.9912957866133674
2012-09-26,1,0.0019398338577787174,0.0022692098081314466,-0.010118666787214578,0.006914724760271541,0.9904099434942695
2012-09-28,0,0.0,0.0,-0.00780381326183229,0.009240001321955665,0.9899811038959055
2012-10-02,0,0.0,0.0,-0.00780381326183229,0.009508044940050746,0.9889817477242971
2012-10-04,0,0.0,0.0,-0.009311085180121267,0.011634997852011865,0.988099583196392
2012-10-08,0,0.0,0.0,-0.012986241729011366,0.011634997852011865,0.9870124419212248
2012-10-10,0,0.0,0.0,-0.008587128799062928,0.011634997852011865,0.9887414247133757
2012-10-12,0,0.0,0.0,-0.008587128799062928,0.011634997852011865,0.9890117846138461
2012-10-16,0,0.0,0.0,-0.010128729184955288,0.009508044940050746,0.9885915374757509
2012-10-18,1,0.0006514419583542555,0.0007590579675556156,-0.008587128799062928,0.011634997852011865,0.9883400847048277
2012-10-22,0,0.0,0.0,-0.008378617623256484,0.009508044940050746,0.9890607594702534
2012-10-24,0,0.0,0.0,-0.00678257943069062,0.011634997852011865,0.9896951087497243
2012-10-26,0,0.0,0.0,-0.00678257943069062,0.008015213063637727,0.9902453308152664
2012-11-01,0,0.0,0.0,-0.00678257943069062,0.008015213063637727,0.9913430229736018
2012-11-05,0,0.0,0.0,-0.005204911672413685,0.005510860724080116,0.9920801766934867
2012-11-07,0,0.0,0.0,-0.004530126382097621,0.005973567229040334,0.9925755149539841
2012-11-09,0,0.0,0.0,-0.004081787603884054,0.006736798056910297,0.9926146928555422
2012-11-13,1,0.0,0.0014822229186526785,-0.003874137568717517,0.009500844298180242,0.992986044677491
2012-11-15,0,0.0,0.0,-0.003447985983733004,0.009500844298180242,0.9931193849658397
2012-11-19,0,0.0,0.0,-0.003447985983733004,0.00957486328633175,0.9933192372155081
2012-11-21,0,0.0,0.0,-0.002370008156845338,0.009929690271460265,0.9929652981489021
2012-11-26,0,0.0,0.0,-0.002370008156845338,0.00957486328633175,0.9934763132293388
2012-11-28,0,0.0,0.0,-0.002370008156845338,0.00957486328633175,0.9933547896999023
2012-11-30,0,0.0,0.0,-0.003699567904743067,0.009648265513582414,0.9926193567684296
2012-12-04,0,0.0,0.0,-0.004757429313667607,0.010149896953212258,0.9907496596159009
2012-12-06,0,0.0,0.0,-0.003811095195435276,0.009648265513582414,0.9909256987129578
2012-12-10,0,0.0,0.0,-0.003811095195435276,0.01086783883209326,0.9893010454934363
2012-12-12,0,0.0,0.0,-0.007612065364292033,0.010223919993647641,0.9897359679831025
2012-12-14,0,0.0,0.0,-0.007612065364292033,0.010223919993647641,0.9893885297008767
2012-12-18,0,0.0,0.0,-0.007612065364292033,0.007740940425104341,0.9902319923691695
2012-12-20,1,0.0016833677413562384,0.001900264087098672,-0.006841051672325684,0.007740940425104341,0.9904443853195056
2012-12-24,1,0.001256880914999113,0.0013291409735049753,-0.00497370768908958,0.007740940425104341,0.9906401761255796
2012-12-27,0,0.0,0.0,-0.0039009468047732287,0.011208831037439543,0.9903067877405544
2012-12-31,0,0.0,0.0,-0.0039009468047732287,0.008862783096375405,0.9911964655362937
2013-01-03,0,0.0,0.0,-0.0039009468047732287,0.008862783096375405,0.9923538928646067
2013-01-07,0,0.0,0.0,-0.004636209933909991,0.010002293619236076,0.9912327994894613
2013-01-09,0,0.0,0.0,-0.0055944862532749445,0.00667570791667648,0.992663742305835
2013-01-11,0,0.0,0.0,-0.004636209933909991,0.007196564114702802,0.9925035327027643
2013-01-15,0,0.0,0.0,-0.005242490875026466,0.009449505920299289,0.9920852426548984
2013-01-17,0,0.0,0.0,-0.0055944862532749445,0.009449505920299289,0.9916901427624724
2013-01-22,0,0.0,0.0,-0.0055944862532749445,0.008193426026785293,0.9917978697181032
2013-01-24,0,0.0,0.0,-0.005933006059017763,0.008701008578543458,0.9913084947031886
2013-01-28,0,0.0,0.0,-0.006835743877559298,0.008701008578543458,0.9905161331081039
2013-01-30,1,0.0008616613406544147,0.0009387044427901189,-0.006835743877559298,0.00998532966208242,0.9899430916352342
2013-02-01,1,0.0014715099372496687,0.0016730563755992254,-0.0065825148747147115,0.009858006186798465,0.9905535980197115
2013-02-05,1,0.0008538118477970378,0.0009871198576589168,-0.005355330810274072,0.01145169155703104,0.9913170559118573
2013-02-07,1,0.0009266755643075819,0.0010780642733546324,-0.004151251333080387,0.01145169155703104,0.9917892387530611
2013-02-11,1,0.0012540323305384469,0.0014677583235556896,-0.005019624808320753,0.009858006186798465,0.9920977538985108
2013-02-13,1,0.0015122938211895075,0.001764729853762637,-0.004094156619221372,0.008416162796764892,0.9928124789984115
2013-02-15,1,0.00121242187131461,0.0014228561825996573,-0.004094156619221372,0.008416162796764892,0.992851216056923
2013-02-20,1,0.0009127130183760248,0.0010573213382146854,-0.0036364869971498336,0.008646174283904125,0.9933564627454343
2013-02-22,1,0.0006422024201527398,0.0007122651500171287,-0.0036364869971498336,0.005443865786604064,0.9931198148069692
2013-02-26,1,0.0005399975811806232,0.0005935423904705604,-0.0036364869971498336,0.005260455622198273,0.9941290351395351
2013-02-28,1,0.0008471061784392779,0.000960409989712046,-0.0036364869971498336,0.005260455622198273,0.9946525344125154
2013-03-04,1,0.0014143665590023882,0.0016120601877114744,-0.0036364869971498336,0.005260455622198273,0.9942117871040642
2013-03-06,1,0.0015887531673308597,0.0018049832498279114,-0.004094156619221372,0.0033413537384414257,0.9942550103721569
2013-03-08,1,0.0007562624747257121,0.000781634297451525,-0.005625176222490409,0.005074363447224414,0.9929926067931945
2013-03-12,1,0.0006153180937473414,0.000616011354104452,-0.0035804698906849127,0.007113242233166675,0.9922994016588574
2013-03-14,1,0.0009437897236659061,0.00101839127083507,-0.007950920317031011,0.007113242233166675,0.9918341738514331
2013-03-18,1,0.0006571091233828999,0.0006841424496482511,-0.008669183493837192,0.007113242233166675,0.9905256119732307
2013-03-20,1,0.00087917140632625,0.0009416967707761329,-0.01390754358860504,0.004853063056434692,0.9890189679069235
2013-03-22,0,-7.539140071565603e-05,1.644870717768226e-05,-0.012045579487061892,0.007113242233166675,0.9894237113389521
2013-03-26,1,7.425242236787111e-06,5.967542686053867e-05,-0.012045579487061892,0.007208028844947702,0.9883850839375419
2013-03-28,1,0.0008222636396508173,0.0008667548006379878,-0.012045579487061892,0.0049756825348091305,0.98846903655157
2013-04-02,1,0.001296638717072951,0.001417329498469014,-0.012045579487061892,0.004202573881973463,0.9895452105120021
2013-04-04,1,0.0007489092292424004,0.0007817503870491533,-0.007642763388479628,0.004202573881973463,0.9900134213105968
2013-04-08,-1,-0.00033908008600176323,-0.00019857418954819227,-0.001966726155845919,0.004202573881973463,0.9908186169381263
2013-04-10,1,7.021133463490164e-06,0.0001274810220567466,-0.001966726155845919,0.004668622921596611,0.9908354260249841
2013-04-12,-1,-0.0006119156488254135,-0.0004016301254313821,-0.0002975681851627715,0.005892124981244188,0.9907937320849803
2013-04-16,-1,-0.0012976826966165222,-0.0010257048335280123,-0.0002975681851627715,0.007058477408884038,0.9913609446875536
2013-04-18,-1,-0.002681445252804726,-0.002221704808688274,0.0011646778225617976,0.00788238654727124,0.9911768276769733
2013-04-22,-1,-0.002117307952467382,-0.0017389454811069182,-0.0002975681851627715,0.008072912500590983,0.9915742452171321
2013-04-24,-1,-0.0009388401660846187,-0.0007203124792736551,-0.0014632793322625003,0.006746401488410926,0.9930807831068352
2013-04-26,-1,-0.0014729611212946684,-0.0011937866016736801,-0.0002975681851627715,0.006746401488410926,0.9926755945476027
2013-04-30,-1,-0.0016392779642498867,-0.0013365730184816383,-0.0012200641316639372,0.008072912500590983,0.9912220430869042
2013-05-02,-1,-0.001391667250444819,-0.0011395522847362158,-0.004372058084699817,0.008072912500590983,0.9909868095274518
2013-05-06,-1,-0.001024988309438872,-0.0008086755497367916,-0.004446115391353822,0.008072912500590983,0.9913173043809513
2013-05-08,0,0.0,0.0,-0.004446115391353822,0.006746401488410926,0.9919166843189147
2013-05-10,0,0.0,0.0,-0.004446115391353822,0.008072912500590983,0.9919293558697021
2013-05-14,0,0.0,0.0,-0.006180866771979411,0.00667802654729263,0.9921994578545531
2013-05-16,0,0.0,0.0,-0.004446115391353822,0.007180628421085486,0.992141011530955
2013-05-20,0,0.0,0.0,-0.004263539320944863,0.010975012434801514,0.9912157766464686
2013-05-22,0,0.0,0.0,-0.005831051339831958,0.010975012434801514,0.989973751010713
2013-05-24,0,0.0,0.0,-0.010675587714469165,0.012435659037981687,0.988765075948263
2013-05-29,0,0.0,0.0,-0.005831051339831958,0.012734203751236196,0.989138736631728
2013-05-31,0,0.0,0.0,-0.004263539320944863,0.012734203751236196,0.989086375800044
2013-06-04,0,0.0,0.0,-0.006104993510527494,0.01646260735886108,0.9873582405805408
2013-06-06,1,0.0,0.000647743551468113,-0.006104993510527494,0.01646260735886108,0.9875866375849647
2013-06-10,1,0.0008410842121990568,0.0009022358372740586,-0.006104993510527494,0.01646260735886108,0.987505731267368
2013-06-12,1,0.00036226947738746454,0.0003725995963691866,-0.0035259746012867767,0.017381931487556623,0.9870261764302444
2013-06-14,1,0.0008203493494734783,0.000880845411049819,-0.0031531958813326003,0.01646260735886108,0.9882427965077398
2013-06-18,0,0.0,0.0,-0.0051892097591271485,0.01107398872807145,0.9889808891770198
2013-06-20,0,0.0,0.0,-0.0030563375543463493,0.013856185004305556,0.9904799704777221
2013-06-24,0,0.0,0.0,-0.0030563375543463493,0.010583394555901049,0.9890273271125294
2013-06-26,1,0.0016631799510168515,0.0018118481544884138,-0.0025713363396899043,0.010115848342011544,0.989872562555206
2013-06-28,1,0.0015327367301313007,0.0016392551216720082,-0.003602125744721636,0.007671487153908929,0.9897731984481113
2013-07-02,1,0.0016621747136982942,0.0017802318681822541,-0.0025713363396899043,0.007005818202854947,0.9913930938670943
2013-07-05,1,0.002073229832106697,0.0022559513629153323,-0.003602125744721636,0.007005818202854947,0.9907407167615264
2013-07-09,1,0.002035726361901752,0.0022249317894577052,-0.004391864928483704,0.007005818202854947,0.9906677828427501
2013-07-11,1,0.0023076106538418638,0.002514287356187433,-0.004391864928483704,0.007005818202854947,0.9908754491955607
2013-07-15,1,0.0020655931095036307,0.002230488984369078,-0.004391864928483704,0.007005818202854947,0.9908398971548742
2013-07-17,0,0.0,0.0,-0.004391864928483704,0.007005818202854947,0.9909159665816686
2013-07-19,0,0.0,0.0,-0.00608543389862398,0.0056397869048602015,0.989497418711485
2013-07-23,0,0.0,0.0,-0.005482027866289778,0.006103527158590661,0.9921576506283236
2013-07-25,0,0.0,0.0,-0.005482027866289778,0.006103527158590661,0.9919614389334407
2013-07-29,0,0.0,0.0,-0.004466323549875743,0.006103527158590661,0.9921508179348599
2013-07-31,0,0.0,0.0,-0.005737518176101658,0.004551693020812125,0.9922661245511594
2013-08-02,0,0.0,0.0,-0.004466323549875743,0.004113047821424916,0.9934000552520589
2013-08-06,0,0.0,0.0,-0.0042770554256205805,0.005267786821706805,0.9927218421745865
2013-08-08,0,0.0,0.0,-0.0042770554256205805,0.004539337613832881,0.9931015736416348
2013-08-12,1,0.0023652282865356724,0.002628820270750175,-0.0042770554256205805,0.007883131693451796,0.9920222106366743
2013-08-14,1,0.0018322412134505902,0.0019937842173713034,-0.004118610653798963,0.008691505669289184,0.9918164530191793
2013-08-16,1,0.0007251763502432471,0.0007283158036962664,-0.002367352643222803,0.010365825590865945,0.9932091460525747
2013-08-20,1,0.0009672934037013259,0.0010116224880450636,-0.0019570254366238545,0.010365825590865945,0.9934982828691169
2013-08-22,1,0.0014969176760602414,0.0016403161083806046,-0.001672685980905305,0.00832282880146628,0.9944112423203912
2013-08-26,0,0.0,0.0,-0.0010051483028798347,0.00832282880146628,0.9939384241087341
2013-08-28,0,0.0,0.0,-0.0007920955307409381,0.009600677673260689,0.9939750706775579
2013-08-30,1,0.0005480348422078015,0.0006751536935543534,-0.0017227073299103505,0.009600677673260689,0.9937564420935155
2013-09-04,1,0.000221330155504566,0.00024041274770517378,-0.002624605063194057,0.006894792181770421,0.9944365248636691
2013-09-06,-1,-0.00027123819602491644,-0.0001624597293934423,-0.00433332082490602,0.006894792181770421,0.9940515248155323
2013-09-10,-1,-0.00042064079080837615,-0.0002617051452572703,-0.0050777350137179746,0.00442620092588862,0.9941614140390601
2013-09-12,-1,-0.000252022954461426,-0.00012902853273804953,-0.0049623663824987264,0.00442620092588862,0.9939364577295543
2013-09-16,0,0.0,0.0,-0.0049623663824987264,0.00440826080436065,0.9942661735367756
2013-09-18,0,0.0,0.0,-0.006576460721740647,0.00440826080436065,0.993680813320886
2013-09-20,0,0.0,0.0,-0.006576460721740647,0.00605612587590622,0.9926843382385881
2013-09-24,0,0.0,0.0,-0.009988717311092823,0.00440826080436065,0.9901996678431932
2013-09-26,-1,-0.0001615260865943837,-0.00013460288467706703,-0.009988717311092823,0.00440826080436065,0.9895154470610391
2013-09-30,-1,-0.000280938666024239,-0.0002468624594755344,-0.0064122334674049965,0.006132253393124456,0.9897370584664262
2013-10-02,1,0.00035105916783437224,0.0003512817179135338,-0.01009255350885941,0.006132253393124456,0.9893139590434412
2013-10-04,1,0.0002713951999016793,0.00027816492173415993,-0.0064716097620773,0.006132253393124456,0.989786887850534
2013-10-08,-1,-0.0004150747287919149,-0.00032129768858084524,-0.00422131646757414,0.006132253393124456,0.9902280961498631
2013-10-10,-1,-6.160735835982812e-05,-1.2165788651179236e-05,-0.0064716097620773,0.0033065983802178767,0.9903785649036482
2013-10-14,1,0.00010019296521469722,0.0001332338605018401,-0.0064716097620773,0.003566120530234504,0.9897271478611199
2013-10-16,1,0.00011711525323875136,0.00012737957342651707,-0.004747171063909969,0.003169822388595786,0.990363789302495
2013-10-18,1,0.0001936496120948208,0.00021379849369560272,-0.004747171063909969,0.005418507507534391,0.990465483466862
2013-10-22,-1,-0.0010510641087046182,-0.0008729622433531698,-0.005755791015710072,0.005418507507534391,0.9929121456197373
2013-10-24,-1,-0.0006073835268900178,-0.00048432776705173506,-0.005297709861142415,0.005418507507534391,0.9935966339455136
2013-10-28,-1,-0.00037776762568268415,-0.0002972000394951351,-0.005297709861142415,0.0029902075983086794,0.9937284727555227
2013-10-30,-1,-0.0006168681300330356,-0.0005101938805186874,-0.005297709861142415,0.0030621434587581376,0.993764350804036
2013-11-01,-1,-0.0010833751200841788,-0.000901654954420388,-0.005297709861142415,0.0030621434587581376,0.9937793484560399
2013-11-05,-1,-0.0011044560741252638,-0.0009344642155825035,-0.004338791643470423,0.0030621434587581376,0.9944453968055074
2013-11-07,-1,-0.0006849874700126785,-0.0006086119204285572,-0.004338791643470423,0.0030621434587581376,0.9946168522830746
2013-11-11,-1,-0.0010872950385252306,-0.0009141216598344021,-0.004979484570938611,0.002443491913778632,0.994959912488423
2013-11-13,-1,-0.0009132859831121273,-0.0007529079183896566,-0.007219788643546977,0.002443491913778632,0.9939353055376309
2013-11-15,-1,-0.00021652636948819498,-0.0001572992282842576,-0.007219788643546977,0.0009537060369557586,0.9943486765548576
2013-11-19,-1,-0.0007394437832399784,-0.0006298265383662014,-0.004792743488690816,0.002443491913778632,0.9935375030002886
2013-11-21,-1,-0.00044860699427365716,-0.00037206482632379093,-0.004792743488690816,0.002443491913778632,0.993569381071385
2013-11-25,-1,-0.0003837540924583878,-0.0003365286724136207,-0.004380369536985311,0.002443491913778632,0.993746183917283
2013-11-27,-1,-0.0004256517854733685,-0.0003696760110841066,-0.003058119697767565,0.0023827470594491003,0.9942315597024091
2013-12-02,-1,-0.0002682068243983414,-0.00025382726956972535,-0.002879951226289627,0.003552134755502559,0.9938025713138543
2013-12-04,-1,-0.00032874881225866275,-0.00030319485101695494,-0.006597025808850117,0.003552134755502559,0.9930251313693887
2013-12-06,-1,-0.0007198184713697014,-0.0006371480415469455,-0.003845864122551498,0.006037926829590019,0.9922396884280466
2013-12-10,-1,-0.0007428677309079138,-0.0006751292640565475,-0.002554977170910109,0.006037926829590019,0.992907590069263
2013-12-12,-1,-0.0020154678316960037,-0.0017438671222996583,-0.002554977170910109,0.006037926829590019,0.9929958814611012
2013-12-16,-1,-0.001584224279356312,-0.0013843929554180666,-0.002554977170910109,0.008566971047834963,0.9918103485290737
2013-12-18,-1,-0.0009188223444954089,-0.0007791697372739394,-0.002554977170910109,0.008566971047834963,0.9926997117548793
2013-12-20,-1,-0.0007086437048248126,-0.0006106332569964013,-0.002554977170910109,0.008566971047834963,0.9928429881540901
2013-12-24,-1,-0.0005146807216455788,-0.0004557134250123022,-0.004665297467958452,0.008566971047834963,0.9921124306696575
2013-12-27,-1,-0.0005301081598379869,-0.0004717937977957249,-0.004665297467958452,0.009282596510925445,0.9885925063747609
2013-12-31,-1,-0.00013306002299350462,-0.0001298666542206512,-0.007868989595608021,0.00919856681842693,0.9880520710024574
2014-01-03,-1,-0.00048074375320836265,-0.00044152219337188797,-0.008397812724195968,0.00919856681842693,0.9868916224823552
2014-01-07,1,0.00010935466471647205,0.00013403675777395044,-0.008397812724195968,0.008558736206591507,0.9880084464064712
2014-01-09,-1,-0.000561470787320653,-0.000461215096761844,-0.008397812724195968,0.010043964064393852,0.9865360306205789
2014-01-13,-1,-0.0004030915982631526,-0.0003327233877590971,-0.004734299270597722,0.010043964064393852,0.9868554257907508
2014-01-15,1,0.0004982149096802029,0.0005547277050911712,-0.004734299270597722,0.009735970676673745,0.9877085237915683
2014-01-17,1,0.000261361853036708,0.0002667023278356729,-0.004026653537311962,0.008715442264642373,0.9881932376244387
2014-01-22,1,0.00031970411044310787,0.0003242332833675017,-0.004026653537311962,0.009735970676673745,0.9872537714829833
2014-01-24,-1,-0.00019444581938544544,-0.00013631847002539975,-0.002184934271946108,0.009735970676673745,0.9872099392922213
2014-01-28,1,0.0018287749571334745,0.002064265082682634,-0.006997018572412784,0.008715442264642373,0.9906283787695603
2014-01-30,1,0.0014419745922780256,0.0016248504948589708,-0.006600767102242765,0.006672641249608581,0.9912199684961347
2014-02-03,1,0.0007934494021351773,0.000912993283659895,-0.0055327658978158185,0.009261080964132645,0.9920091542855891
2014-02-05,1,0.000884610569101544,0.0010192760455590853,-0.0055327658978158185,0.009261080964132645,0.9918803398933089
2014-02-07,1,0.001778453586030388,0.002052629736680371,-0.0055327658978158185,0.004753400390631883,0.9934529050422254
2014-02-11,1,0.0020113919141945763,0.0023294305791155363,-0.0055327658978158185,0.0032881628810210446,0.9936389971654005
2014-02-13,1,0.0023714994294971054,0.0027263298554913006,-0.0055327658978158185,0.003022472942830368,0.9939818991716906
2014-02-18,1,0.0022688969679023714,0.0026173889481301876,-0.005175187720034677,0.003055663241520701,0.994184707053182
2014-02-20,1,0.0031068345234109606,0.003573788290165654,-0.006600767102242765,0.003022472942830368,0.9938698208127604
2014-02-24,1,0.002370315531539906,0.0027165391297697935,-0.007343923091442563,0.003022472942830368,0.9930996772014031
2014-02-26,1,0.0020860616102305806,0.0023923967693281318,-0.007343923091442563,0.003022472942830368,0.9933884814470533
2014-02-28,1,0.0019073854267440558,0.002176271735128289,-0.005506464264978749,0.0030389270170750036,0.9936486602562892
2014-03-04,1,0.0019145438499400323,0.0021529089318487763,-0.0032533649432724943,0.0033766382898916068,0.9945883686488036
2014-03-06,1,0.0019334428550088943,0.002190015514642465,-0.0032533649432724943,0.004227441113133756,0.994060596279615
2014-03-10,1,0.0021630283844317234,0.002456708290898703,-0.006476504131243007,0.004227441113133756,0.993361876386167
2014-03-12,1,0.0020689351037619587,0.002341097291757059,-0.006476504131243007,0.0051766340378608285,0.9915983834207605
2014-03-14,1,0.0023652108758091175,0.002705650924743048,-0.013036605681519847,0.0051766340378608285,0.9889973307832428
2014-03-18,1,0.001921339162972186,0.002106502223155044,-0.013036605681519847,0.0051995319384920665,0.9887913917070101
2014-03-20,1,0.0016430407592504471,0.0018158538409615921,-0.01234772160830024,0.007723420501191458,0.9892362146444575
2014-03-24,1,0.000764789583480305,0.0008303218744889565,-0.0007063432041507703,0.007723420501191458,0.990561313547857
2014-03-26,1,0.00020087119426412205,0.0002277674198475604,-0.0010487366482226812,0.007723420501191458,0.9903516371164843
2014-03-28,1,0.00012675126336093065,0.00017232778407425702,-0.005862032060689198,0.007723420501191458,0.9896784863525435
2014-04-01,1,0.00029846748778019803,0.00034516994873851775,-0.011668639247458102,0.0061435750728123135,0.9858009067000756
2014-04-03,1,0.0005839060328490646,0.0006155825810951739,-0.011668639247458102,0.0061435750728123135,0.9853269611713814
2014-04-07,1,0.0002549403873686447,0.0003096902765313548,-0.007388234335212336,0.010944348265736151,0.9852884919708227
2014-04-09,1,0.0016093979254247046,0.0017320080005178327,-0.007388234335212336,0.004714439358161491,0.9872130136343564
2014-04-11,1,0.00016278862098631088,0.00019494019023353192,-0.004410860328885095,0.010944348265736151,0.988574442707073
2014-04-15,1,0.00035896744573644994,0.0003983899559299443,-0.0052776702320326985,0.006656941121783685,0.9878820201811127
2014-04-17,1,0.0007937644074987763,0.0008173949306224274,-0.00560528663562649,0.0070326601629876135,0.9874753067486458
2014-04-22,1,0.0006487424127368756,0.000659399997588421,-0.00956232588491974,0.0070326601629876135,0.9867195694312733
2014-04-24,1,3.682623838135226e-05,0.00013290808910945278,-0.007058083175009831,0.0070326601629876135,0.9871810459212372
2014-04-28,-1,-0.0006458227607885383,-0.00046105942779413756,-0.006284225996892389,0.0070326601629876135,0.9878923000818528
2014-04-30,-1,-0.003646017473470322,-0.0031049324530893763,-0.00560528663562649,0.0070326601629876135,0.9915743301448625
2014-05-02,-1,-0.0034534793176321968,-0.002918149761103804,-0.003882532509804658,0.00505197811259507,0.9924769856171516
2014-05-06,-1,-0.003096922069931708,-0.002583552173741739,-0.003882532509804658,0.003744222233355859,0.9926200048894086
2014-05-08,-1,-0.003264154194605834,-0.0027173160732117795,-0.003882532509804658,0.010451523854334779,0.9912467175626887
2014-05-12,-1,-0.0022255439254318414,-0.001806885507302199,-0.003905445024604118,0.003744222233355859,0.9930349465807723
2014-05-14,-1,-0.0027488429026641652,-0.0023073114641036603,-0.003905445024604118,0.003744222233355859,0.9938649105305527
2014-05-16,-1,-0.002250814645461439,-0.0018726938387433603,-0.0033894155454049237,0.003422713335613846,0.9945563112820173
2014-05-20,-1,-0.0030037421904617325,-0.0025356900972387285,-0.0023911039086614233,0.005796926767486535,0.9935852426708865
2014-05-22,-1,-0.0033677441244799886,-0.002852233990826158,-0.0023911039086614233,0.005796926767486535,0.9928036906717671
2014-05-27,-1,-0.003302600973117951,-0.002804138968429236,-0.0028678166870354464,0.005796926767486535,0.9928808202700945
2014-05-29,-1,-0.0035886104219947745,-0.0030267764790584926,-0.003092745252388682,0.005796926767486535,0.9926587371209611
2014-06-02,-1,-0.003000588068220857,-0.0025484539215640603,-0.004051441366321447,0.00552917641283716,0.9926914209095352
2014-06-04,-1,-0.002463216856185632,-0.002070347795953424,-0.004051441366321447,0.004924050948764802,0.9936007599910018
2014-06-06,-1,-0.0016236065285769206,-0.0013277432222889667,-0.0060230303738404,0.004500501204923415,0.994242777358527
2014-06-10,-1,-0.0012005926617568278,-0.0010054480246719042,-0.006482953359712813,0.004500501204923415,0.9937894817668718
2014-06-12,-1,-0.0013933293061748292,-0.001176354891997005,-0.007713847676395527,0.004924050948764802,0.993144619260947
2014-06-16,-1,-0.001237382664900224,-0.0010477074800155325,-0.008816961982448645,0.004924050948764802,0.9925574289179204
2014-06-18,-1,-0.0007407918178437596,-0.0005794577802974158,-0.009784164345704092,0.004336900044057074,0.9925589574124701
2014-06-20,1,0.00013221907163165264,0.00019706186135453265,-0.008816961982448645,0.0047717464451203975,0.9919354669648068
2014-06-24,-1,-0.00030888450648053117,-0.00030213858923928364,-0.009784164345704092,0.004924050948764802,0.9885962128061662
2014-06-26,-1,-0.0012557619444564505,-0.0010627931842445092,-0.009784164345704092,0.005082897926820033,0.988715574803921
2014-06-30,-1,-0.0013935856538999031,-0.0011876331032850498,-0.009784164345704092,0.005082897926820033,0.9891097261675768
2014-07-02,-1,-0.0005800502361918901,-0.0005266730550590836,-0.012176260297134272,0.005771502266438728,0.9879328942654985
2014-07-07,-1,-0.0002658010554327227,-0.00026329340763543463,-0.012176260297134272,0.005771502266438728,0.988334254497643
2014-07-09,-1,-0.0002717129078830048,-0.00022734820333493444,-0.00741184656989952,0.005771502266438728,0.9887087154103942
2014-07-11,-1,-0.0004411131836645762,-0.0004199761863225165,-0.005795996484951169,0.006144665243271754,0.9889311873764355
2014-07-15,-1,-0.00015868399174279743,-4.295065578690133e-05,-0.005795996484951169,0.006144665243271754,0.9892733312235096
2014-07-17,-1,-0.0011316189872971525,-0.001102295763233365,-0.004569954844549105,0.007689295636839039,0.9895159991173981
2014-07-21,-1,-0.0005980502378357874,-0.0005865339338308553,-0.005795996484951169,0.007689295636839039,0.9898008903289846
2014-07-23,1,0.0005263677819242307,0.0006796101682019034,-0.005795996484951169,0.006770356883976546,0.99318353044763
2014-07-25,1,0.001118312180159042,0.0013736754951420714,-0.005795996484951169,0.005914140651123689,0.9932045840402954
2014-07-29,1,0.000937495727170916,0.0011728407726744232,-0.004797846922286584,0.005914140651123689,0.9935367861011879
2014-07-31,1,0.0005315784198581719,0.0007214021802911879,-0.003818299452063193,0.0053449639685329816,0.9947787802419333
2014-08-04,1,0.0008171268201968322,0.0010505136614149969,-0.003818299452063193,0.004499722969921318,0.9950152780507933
2014-08-06,1,0.0006685348367604063,0.0008819541028254125,-0.003163637497271083,0.004499722969921318,0.9951481230049279
2014-08-08,1,0.0010045627948861437,0.0012875986468357887,-0.003163637497271083,0.004499722969921318,0.9950722406035488
2014-08-12,1,0.00046071548657112215,0.0006446615681373025,-0.003163637497271083,0.005062414140717007,0.9952506118877175
2014-08-14,1,0.0005342094493838183,0.0006581456136472122,-0.004044146968967682,0.004499722969921318,0.9949811216980209
2014-08-18,1,0.00033795584204653143,0.00041766327070310417,-0.004044146968967682,0.002399385433101035,0.9956144452006923
2014-08-20,1,0.00010023411298371875,0.00015513201638467838,-0.003163637497271083,0.004499722969921318,0.995740664636192
2014-08-22,1,0.0002028564303044441,0.0002943984401459499,-0.003529131304708145,0.004499722969921318,0.9956721791139719
2014-08-26,1,0.0007714106365822998,0.0009746411387981317,-0.005201783437673164,0.004547339471103456,0.995148657168874
2014-08-28,1,0.0005332996754510279,0.0006827258243702022,-0.005389878240855038,0.004547339471103456,0.9946538620656777
2014-09-02,1,0.0014797025923423174,0.0018391833024163416,-0.006244294449432092,0.003134857582357279,0.9939703962929565
2014-09-04,1,0.000509523061238868,0.0006378926215940807,-0.008898245847014406,0.003134857582357279,0.9934723890701657
2014-09-08,1,0.0006374097494306222,0.0008090147571391402,-0.007488113684598074,0.003134857582357279,0.9939314698740123
2014-09-10,1,0.0009387925729012444,0.0011799565057716082,-0.008898245847014406,0.003134857582357279,0.9926637515792257
2014-09-12,1,0.0006978260956275004,0.0009196877814140181,-0.008898245847014406,0.001283628708825768,0.992975631661522
2014-09-16,1,0.0004111844295446332,0.000576660271259522,-0.009731692750189334,0.002842628748765432,0.9923664282314132
2014-09-18,1,0.00038411153806524505,0.0005062441093763559,-0.011029348202540071,0.0005201601871196662,0.9921334255600389
2014-09-22,-1,-0.001506428312480859,-0.0012490125921704085,-0.011029348202540071,0.004416788256329773,0.9914990761119631
2014-09-24,-1,-0.0013468269873135091,-0.0011267087371221803,-0.011183107516051775,0.004416788256329773,0.9862385176907548
2014-09-26,-1,-0.0014040776717123712,-0.0012092147583047507,-0.011029348202540071,0.0063570489491210965,0.9850209313636297
2014-09-30,-1,-0.001717149647103264,-0.00148930205460974,-0.011029348202540071,0.010331784349909504,0.9844545753493344
2014-10-02,-1,-0.0017172325666829436,-0.0015440562999040684,-0.007046522198307949,0.010331784349909504,0.9847839731170829
2014-10-06,-1,-0.0019487042459314073,-0.0017027356763729459,-0.007046522198307949,0.010331784349909504,0.9845858564874629
2014-10-08,-1,-0.0012615788674515639,-0.001111417179197873,-0.0023163887790753953,0.007982938071009065,0.9863184917676591
2014-10-10,-1,-0.002249982469222289,-0.0019525299514096812,-0.0010996843589041808,0.00851643239487943,0.9852901492702005
2014-10-14,-1,-0.002782912925260059,-0.0024143697340473077,-0.0010996843589041808,0.010599599641732281,0.9851669351274758
2014-10-16,-1,-0.0030935657860102442,-0.002688034168275166,-0.0006145953388609201,0.011098597744606784,0.9846226895214228
2014-10-20,-1,-0.0021806139389652533,-0.0018862043662760805,-0.0010996843589041808,0.009916724766114802,0.9862016076616235
2014-10-22,1,0.0004154458252521415,0.00042842057752543367,-0.0006145953388609201,0.009916724766114802,0.9924425980973531
2014-10-24,1,0.0018120649872302333,0.00204206123013653,-0.0008503522579535843,0.009916724766114802,0.9938379355398202
2014-10-28,1,0.0027338007096351868,0.0031390213499960453,-0.0010996843589041808,0.008394257961101468,0.9940859280362174
2014-10-30,1,0.0027947351797338953,0.003198969210651324,-0.0008503522579535843,0.008394257961101468,0.9941919151985602
2014-11-03,1,0.0029197522949058786,0.0033248234902804154,-0.0008503522579535843,0.0082615940087176,0.9940745016283447
2014-11-05,1,0.002910318361057867,0.003315446721103837,-0.000982238690845097,0.0082615940087176,0.993897752367132
2014-11-07,1,0.0030082033314696166,0.003468901805547999,-0.0010495870979655576,0.006020265673640479,0.9943489021031621
2014-11-11,1,0.0030944805384664487,0.003543687368509887,-0.0016968212427605264,0.00306883562219849,0.9934478308825272
2014-11-13,1,0.003216343410350788,0.003659337632265995,-0.004558279456105923,0.00306883562219849,0.9926185086520033
2014-11-17,1,0.0027645966924382094,0.0031437236686953454,-0.0042825421650955495,0.00306883562219849,0.9932417359146262
2014-11-19,1,0.003142609214972882,0.0035598179260228516,-0.0042825421650955495,0.006020265673640479,0.9926864754870959
2014-11-21,1,0.0034301982860257046,0.0038855442267428184,-0.0042825421650955495,0.005894954563050349,0.9931147802665025
2014-11-25,1,0.0033648052235788423,0.0038107258504799274,-0.0042825421650955495,0.004422686574218225,0.992906595381445
2014-11-28,1,0.003098775696470323,0.003481622591406392,-0.0042825421650955495,0.004422686574218225,0.9929427511330329
2014-12-02,1,0.0031534621238946906,0.0035251938626562297,-0.006557765928729547,0.002246473717976905,0.9922081994368118
2014-12-04,1,0.002785218685001598,0.0030865999061000207,-0.007895814093757763,0.004422686574218225,0.9919424142046525
2014-12-08,1,0.0018942762101669928,0.0020237090685875673,-0.006213766298382623,0.007455128550290931,0.9912321475664788
2014-12-10,1,0.0012422303386627506,0.0013234308376036618,-0.006213766298382623,0.008066728949958392,0.9911114595399942
2014-12-12,1,0.001622225070030073,0.0018133484466129218,-0.0048647706899069484,0.007455128550290931,0.9919657891778242
2014-12-16,1,0.001623411715065376,0.0018336118800354052,-0.007971137487587968,0.007455128550290931,0.9907360418411373
2014-12-18,1,0.002297449550559165,0.0025774803647515927,-0.007971137487587968,0.004790186249480124,0.9913828339666427
2014-12-22,1,0.0022781523046859226,0.002521379705136144,-0.007971137487587968,0.004790186249480124,0.9910655287299054
2014-12-24,1,0.0019924764678277496,0.002208532702249951,-0.007971137487587968,0.007027907787165978,0.9904254007878672
2014-12-29,1,0.0017812600089501976,0.0019504307232015143,-0.007971137487587968,0.01130622221667182,0.9891495216045599
2014-12-31,1,0.001232137231540479,0.0013299075458451277,-0.008812870138687255,0.014117679940552259,0.9887064547735646
2015-01-05,1,0.0010129583630468773,0.0010530942889960013,-0.006400632090126031,0.014117679940552259,0.989381044132059
2015-01-07,1,0.002196587543781866,0.002432868083875841,-0.005982615968519919,0.00961667231481756,0.9906327746844662
2015-01-09,1,0.0020623252938153456,0.0022714433698448303,-0.009266304801271674,0.006490763964601713,0.9910028259705332
2015-01-13,1,0.001645795034283889,0.0017751666830227314,-0.009266304801271674,0.008023379301692909,0.9910232294560853
2015-01-15,1,0.0005660361934200974,0.000588207357357832,-0.0030349336856478077,0.008023379301692909,0.9919985989927712
2015-01-20,1,0.0010012870657859457,0.0010433738074280131,-0.0030349336856478077,0.008023379301692909,0.9924621600522228
2015-01-22,1,0.0014307848885796305,0.0015218866588187522,-0.0035968769816738383,0.008023379301692909,0.9923365929900922
2015-01-26,1,0.0014581994356381927,0.0015568920196068654,-0.0035968769816738383,0.006465079146050467,0.9930071248429475
2015-01-28,1,0.0018819811889696837,0.0020240352181770246,-0.003280310617109034,0.0050835814919870555,0.9944851041292053
2015-01-30,1,0.0017036505887277297,0.0018096967074397135,-0.003280310617109034,0.0050835814919870555,0.9952169135066353
2015-02-03,1,0.0017310059069146904,0.0018380974201361875,-0.004386783555457206,0.005944659751195102,0.9943423042561247
2015-02-05,1,0.0014449923052261755,0.001481564229212591,-0.005575947717995359,0.005944659751195102,0.9930263138173264
2015-02-09,1,0.0005808276803951419,0.0006595123134876419,-0.004386783555457206,0.005944659751195102,0.9929939853687115
2015-02-11,1,0.0008206661432201714,0.0008633837922153892,-0.004386783555457206,0.006504379520899975,0.9913359770193635
2015-02-13,1,0.0008753024237584128,0.0009275799660821388,-0.005522098050438233,0.0093486420905469,0.9898335819032167
2015-02-18,1,0.0006850932304687582,0.000760886206671423,-0.00851197319684909,0.0093486420905469,0.9891654150056239
2015-02-20,1,0.0006171969860188539,0.0007290947020215265,-0.00851197319684909,0.008552897591762448,0.9893598650677559
2015-02-24,0,-9.326498039748652e-05,0.00012556418961783618,-0.007999514475591177,0.008552897591762448,0.9892861233742427
2015-02-26,-1,-0.0005519418481718998,-0.00023960310944890482,-0.008620362866128045,0.008552897591762448,0.9887235924727473
2015-03-02,-1,-0.0005180732710075156,-0.00021298647661770849,-0.008620362866128045,0.010772275390857188,0.9880697577518746
2015-03-04,-1,-0.0007231108354877986,-0.0004160646073832308,-0.007999514475591177,0.010772275390857188,0.9885582990565084
2015-03-06,-1,-0.0017852697382841822,-0.0013132561014655491,-0.0070907197585979905,0.010220056019953488,0.9894918138160029
2015-03-10,-1,-0.0028550918671923007,-0.0022313866096414247,-0.005948618248617506,0.010220056019953488,0.9902509244092471
2015-03-12,-1,-0.0016579560239953126,-0.0011558031945122266,-0.005948618248617506,0.006106157172571311,0.9920918883344312
2015-03-16,-1,-0.0006323437694859518,-0.0002885857232093396,-0.005948618248617506,0.0051837405670256236,0.9935797404310637
2015-03-18,1,0.00039945563048185217,0.0005207489370017167,-0.005532315729677749,0.004540055703403285,0.9939632236569936
2015-03-20,1,0.0010247295157500692,0.0010330335207522792,-0.005532315729677749,0.0031879432185660033,0.9940493879840239
2015-03-24,1,0.00071385987197548,0.000718588630390254,-0.0044221207005119,0.0031879432185660033,0.9947603128464637
2015-03-26,1,0.0004585795916222229,0.00048773369881588516,-0.0044221207005119,0.0031879432185660033,0.9951362229237797
2015-03-30,1,0.001051897226875498,0.0011109890882634867,-0.005094872256674848,0.002755413125625722,0.994159616472641
2015-04-01,1,0.0006631298522489248,0.0006772676885680902,-0.003411646004495086,0.002755413125625722,0.9946442971313458
2015-04-06,1,0.0009831740982992523,0.0010281622045240505,-0.003411646004495086,0.002755413125625722,0.9947341425492309
2015-04-08,1,0.0007014752644328461,0.0007221612924449075,-0.0025458110698569096,0.0030164845365104557,0.9947533445144033
2015-04-10,1,0.0008931808107370356,0.0009541598195761099,-0.0025458110698569096,0.00386245277049261,0.9939256642699932
2015-04-14,1,0.00042706920003433054,0.0004417965450543497,-0.0024861635401039555,0.0052632702932150855,0.9940229178331628
2015-04-16,1,0.0007525892217437405,0.0008025939399659819,-0.00295590997534845,0.0052632702932150855,0.9937034689974156
2015-04-20,1,0.0005002695146392179,0.0005262041027793632,-0.002141737318367664,0.005489852505416332,0.9935954571554687
2015-04-22,1,0.0005126350992834142,0.0005385786353494428,-0.002141737318367664,0.008080249114675643,0.9925177828676369
2015-04-24,1,0.00042600300178378535,0.00043816449296644317,-0.0024861635401039555,0.008080249114675643,0.992330777421723
2015-04-28,1,0.001198867028021203,0.0013283662189092315,-0.0024861635401039555,0.008080249114675643,0.99364235726938
2015-04-30,1,0.0007155082347160837,0.0007679702160519649,-0.0031995486475687664,0.008080249114675643,0.9932548968835291
2015-05-04,1,0.0008135826582786011,0.0008657768790614003,-0.0031995486475687664,0.006362748394319347,0.993820237331484
2015-05-06,1,0.00042289209864262165,0.0004532950308809923,-0.004207404068948918,0.006362748394319347,0.993595964729509
2015-05-08,1,0.0009522961149923909,0.0009691034538589368,-0.004207404068948918,0.00477784837443988,0.9944290802541564
2015-05-12,1,0.0007802102151068149,0.0007918733051899358,-0.004207404068948918,0.005005603753400038,0.9943575950264704
2015-05-14,1,0.0009121775898597362,0.0009562929317051074,-0.004207404068948918,0.005005603753400038,0.9944468435826387
2015-05-18,1,0.0012406820935744727,0.0013391695136232206,-0.004675802555049558,0.005575083997502655,0.9940968357415594
2015-05-20,1,0.0016129363200378785,0.0017379984930640515,-0.004675802555049558,0.0025945317731583865,0.9943592500527312
2015-05-22,1,0.0011531473843263004,0.0012138120525222776,-0.003702705821625676,0.0025945317731583865,0.9949499457890639
2015-05-27,1,0.0012638581864928026,0.0013088742974117873,-0.005402941145492519,0.001686595155201396,0.9949934280734387
2015-05-29,1,0.000879081914454206,0.0008889016506619916,-0.005402941145492519,0.0025882640398446092,0.9938861527964734
2015-06-02,1,0.0012902235405958975,0.0013860203067361818,-0.006284189712860136,0.004300950217771139,0.992568946991485
2015-06-04,1,0.001007187917393339,0.00105527484795265,-0.005672446299007839,0.004300950217771139,0.9928698115917017
2015-06-08,1,0.000784841740640862,0.0007969024727225168,-0.005672446299007839,0.004300950217771139,0.9931031725209747
2015-06-10,1,0.0005939264881102741,0.0006388754912185698,-0.007186708016980066,0.0030513622908465658,0.9919057000705643
2015-06-12,1,0.0004802142254970311,0.0005266922719654489,-0.007186708016980066,0.004492721442518171,0.9906641612093413
2015-06-16,1,0.000755762262088365,0.0007621375556558494,-0.007673268266149319,0.004492721442518171,0.9902410056575502
2015-06-18,1,0.0010873147793827973,0.0011353666770788403,-0.007673268266149319,0.004300950217771139,0.9909077884796068
2015-06-22,1,0.000937745671828285,0.000988593948315127,-0.007673268266149319,0.004300950217771139,0.9907804353419976
2015-06-24,1,0.0005992790968509512,0.0006036548972050751,-0.004388696302052319,0.004492721442518171,0.9905646934593834
2015-06-26,1,4.7767824478075213e-05,0.00010520951741639761,-0.00635405840252301,0.004492721442518171,0.9914670062624766
2015-06-30,-1,-0.000381857062509672,-0.00027657512225247766,-0.004388696302052319,0.0063954924858745646,0.9913734553188788
2015-07-02,-1,-0.0004832846783753149,-0.00034233836293206957,-0.006028219091016635,0.007386133051857966,0.9911584709679229
2015-07-07,-1,-0.00027170777186658415,-0.00016397973444122487,-0.006028219091016635,0.007684862271457268,0.990958735121011
2015-07-09,-1,-0.0010910806709749448,-0.000898429000136019,-0.006028219091016635,0.007684862271457268,0.99088362584099
2015-07-13,-1,-0.00036474197589330694,-0.0002488692481344002,-0.006028219091016635,0.006887487863894226,0.9918445732603309
2015-07-15,-1,-0.00010317918165773558,-3.338315020458819e-05,-0.00635405840252301,0.005797270891377724,0.9915553115988514
2015-07-17,-1,-0.0002274906739049988,-0.00012586810516077056,-0.006433003696466339,0.005797270891377724,0.9912901973227303
2015-07-21,-1,-0.00025867308380531876,-0.00015795497648225467,-0.006433003696466339,0.005797270891377724,0.9912784799134037
2015-07-23,-1,-0.00013081299043469027,-4.758070110657983e-05,-0.006862551531121508,0.004655484099919895,0.9910888232537274
2015-07-27,-1,-0.0007550938951262774,-0.0005664256549905228,-0.012899907017317653,0.004655484099919895,0.9885954601902645
2015-07-29,0,-9.103859093625543e-05,3.3803332273298287e-06,-0.012899907017317653,0.003541501592839497,0.9870355192315885
2015-07-31,-1,-0.0006261658720871241,-0.00043489674132708516,-0.012899907017317653,0.003541501592839497,0.9861960644556209
2015-08-04,1,0.00041663239538139,0.0004257108836248392,-0.023204963628801575,0.0030958146212924148,0.9837743923915059
2015-08-06,1,5.986178383190716e-05,7.954556349668613e-05,-0.022563549655878267,0.0033657267034054262,0.9836335946505783
2015-08-10,1,0.0004576401619707768,0.00048203214822903687,-0.022563549655878267,0.0033657267034054262,0.98190518327667
2015-08-12,-1,-0.00015906512795625723,-0.00010220529392961477,-0.021971405682091244,0.005267972212963802,0.9824214091406893
2015-08-14,-1,-0.0009345252334696625,-0.00076320098089805,-0.021971405682091244,0.010957475046888246,0.9822331098791122
2015-08-18,-1,-0.0009921307924555024,-0.0008099717043920362,-0.021971405682091244,0.010957475046888246,0.9822535079642253
2015-08-20,-1,-0.0013293396735342736,-0.0011312547375901137,-0.016966917890190933,0.010957475046888246,0.9825770152918576
2015-08-24,-1,-0.002367058818676756,-0.0020422456911631227,-0.012262337763681474,0.010957475046888246,0.9849715043011678
2015-08-26,-1,-0.0006222169064792839,-0.000529170204531384,-0.012262337763681474,0.00564766500059913,0.9868924388131598
2015-08-28,-1,-0.001211914077812851,-0.0010258018188657602,-0.0152003217256536,0.003808424381574266,0.9872617464629204
2015-09-01,-1,-0.0024909009823309873,-0.0021611772178603958,-0.011763474395237741,0.008969901542611233,0.9884577002224054
2015-09-03,-1,-0.0018308691899339095,-0.001563789282163009,-0.011763474395237741,0.008969901542611233,0.9892005841995232
2015-09-08,-1,-0.0013189083457345705,-0.001121525452183122,-0.011763474395237741,0.005295529349880294,0.990458522382209
2015-09-10,-1,-0.0018528047157537657,-0.0015745841724822212,-0.01039305466816202,0.005295529349880294,0.990647768644126
2015-09-14,-1,-0.0016605808857764167,-0.0014080060057497252,-0.01039305466816202,0.005295529349880294,0.9908694726437909
2015-09-16,-1,-0.0013514817059148072,-0.0011321562166171637,-0.011650341505879073,0.004857485941006325,0.9901710403307206
2015-09-18,-1,-0.0018381263952983937,-0.0016035498230076387,-0.01039305466816202,0.008884825780023389,0.9896297833809373
2015-09-22,-1,-0.0024877967998428578,-0.0021498234083854556,-0.009136586173906886,0.008884825780023389,0.9897523413588519
2015-09-24,-1,-0.002599611706194057,-0.002263990472011453,-0.00759769625696025,0.011055512866107542,0.9892567157020481
2015-09-28,-1,-0.0032750670399379084,-0.0028626120318126754,-0.0034196693436068285,0.011055512866107542,0.9895509458499828
2015-09-30,-1,-0.0017548406485142867,-0.0015662515753938429,-0.0034196693436068285,0.015526905306508028,0.9893528568301738
2015-10-02,-1,-0.001051891730564608,-0.0009439078076128996,-0.00503028225017845,0.011055512866107542,0.9903170388922208
2015-10-06,-1,-0.0019088041437713258,-0.0016924732718372856,-0.003265963228630767,0.015684054776350865,0.9891695992211936
2015-10-08,-1,-0.0011670334086062452,-0.0010583599276378362,-0.004550449065180308,0.011055512866107542,0.9902059854858151
2015-10-12,-1,-0.0006837455242134504,-0.0006720858448053231,-0.004550449065180308,0.010427615791990244,0.9904379647326241
2015-10-14,-1,-0.0015848183543425232,-0.0014431415644899008,-0.003946188068708113,0.010427615791990244,0.9909759829657359
2015-10-16,-1,-0.0003813874781250635,-0.00034566521150592746,-0.004790600203189529,0.006424990044305688,0.9914073991287653
2015-10-20,-1,-0.0002678152741865549,-0.0002414672894369656,-0.004790600203189529,0.010737865269956256,0.990647097520437
2015-10-22,1,0.00034365498370899494,0.00046439806664091434,-0.0045217904211760215,0.00903087600835663,0.9915613678010009
2015-10-26,1,0.0003297509421910287,0.00044047778921306116,-0.0045217904211760215,0.010261474955687367,0.9912599756309545
2015-10-28,1,0.001460926415137713,0.0017154858990637057,-0.004790600203189529,0.004807458456595355,0.9926341099962027
2015-10-30,1,0.0010181998567303581,0.0012438960124142358,-0.0045217904211760215,0.005788676255307454,0.9925754788685841
2015-11-03,1,0.0020350452566613025,0.0023770938705614765,-0.00503919376064551,0.004566422980271871,0.9930736956555605
2015-11-05,1,0.0018204150558912616,0.0021440136734525925,-0.006085695996004369,0.005788676255307454,0.9911707658194966
2015-11-09,1,0.0023312830763350034,0.002757827068596724,-0.006085695996004369,0.004738048958369509,0.9909908863239639
2015-11-11,1,0.0018016929185565452,0.002135264167856295,-0.007409947653261256,0.0071219346413619305,0.9904717231943115
2015-11-13,1,0.0011717753649630588,0.001401328134403647,-0.0060586512078542355,0.0071219346413619305,0.9913704955570402
2015-11-17,1,0.0015573318022642183,0.001800971762868634,-0.0060586512078542355,0.0072872084158087345,0.9910023234816805
2015-11-19,1,0.0012113301704651412,0.0013829671050791296,-0.009473770471674619,0.0072872084158087345,0.989513364859074
2015-11-23,1,0.0017038526240969539,0.0019567576618097103,-0.009473770471674619,0.00887128788209583,0.9890794578880496
2015-11-25,1,0.001724445974877955,0.001992581807033644,-0.009473770471674619,0.00887128788209583,0.9891816339995009
2015-11-30,1,0.0009064506738500173,0.0009969857116772325,-0.006738665972176956,0.011399340927965193,0.9891348632232072
2015-12-02,1,0.0009757815504139074,0.0011295676043054188,-0.006329864467784739,0.011399340927965193,0.9896474025361738
2015-12-04,1,0.0015481736672027218,0.001783529485940601,-0.006329864467784739,0.00887128788209583,0.9902249206306045
2015-12-08,1,0.001212706187944866,0.0014119997006211895,-0.007099787821970505,0.00887128788209583,0.9902424928136848
2015-12-10,1,0.0012330952105783222,0.0014327811242212621,-0.007099787821970505,0.008201486517801945,0.9900212473772168
2015-12-14,1,0.0011242094336857034,0.001313192605683557,-0.009250272115811893,0.008201486517801945,0.9890004366649682
2015-12-16,1,0.001883014962293699,0.002161779303651281,-0.009250272115811893,0.0064344780607707465,0.9885830913610378
2015-12-18,1,0.00126750302613631,0.0015113214058191215,-0.00666173947193819,0.0064344780607707465,0.9898943070844687
2015-12-22,1,0.00208021737968738,0.002421730488105398,-0.00666173947193819,0.0018032757314668582,0.9893889856805388
2015-12-24,1,0.002152818440127783,0.0025203236793620316,-0.007099787821970505,0.0011417191209914543,0.9876486283463818
2015-12-29,1,0.002230717787074781,0.002566418943886712,-0.01203142056635893,-0.0025095831625376553,0.9860777789901395
2015-12-31,1,0.0021406751255032015,0.0025012678128770284,-0.01203142056635893,0.00022804684635133285,0.9850500590485546
2016-01-05,1,0.0009153468481417998,0.001074333565298465,-0.01203142056635893,0.0038846024799839003,0.9861505361584455
2016-01-07,1,0.0007110988917996131,0.0008166125761854755,-0.01712835923330342,0.0038846024799839003,0.98520271045235
2016-01-11,1,9.293015282430788e-05,0.0001189174501692529,-0.01691806006933052,0.006181607491800434,0.9847501889819914
2016-01-13,-1,-0.0009123530916965875,-0.0007804311829226112,-0.01196132084503463,0.009331877077836784,0.9851928867926281
2016-01-15,-1,-0.0009818062281597676,-0.00076743882878104,-0.01196132084503463,0.014190490974024066,0.9852073395617982
2016-01-20,-1,-0.00024833010044234075,-0.00019538132607755456,-0.01196132084503463,0.016164748373703672,0.9842289445337543
2016-01-22,1,0.00015870937140512745,0.00016528888944537863,-0.01196132084503463,0.014190490974024066,0.984798367093825
2016-01-26,-1,-0.0020798365121681168,-0.0017326570975565775,-0.011256962888592743,0.014190490974024066,0.9864764564066737
2016-01-28,-1,-0.0026596674307006055,-0.002295191142525178,-0.008397891396403016,0.014190490974024066,0.9876660833029606
2016-02-01,-1,-0.0018270564326243522,-0.001577005519507139,-0.010914691358005402,0.014190490974024066,0.9876610448111234
2016-02-03,-1,-0.0021069227423112405,-0.0018109917305699414,-0.008397891396403016,0.016164748373703672,0.9876643358601718
2016-02-05,-1,-0.0031964559299083963,-0.002787438232067272,-0.0038240713523937857,0.016164748373703672,0.9876008668030348
2016-02-09,-1,-0.002361651595920636,-0.0020656512971382766,-0.0021634068796226214,0.014190490974024066,0.9894547038264593
2016-02-11,-1,-0.0030565002624537664,-0.0026401678157110223,-0.0021634068796226214,0.013164639850177103,0.9896261645358774
2016-02-16,-1,-0.0023407151630271883,-0.0019866015766656976,-0.0021634068796226214,0.009240128393354375,0.991474444714466
2016-02-18,-1,-0.002423724736547339,-0.0020418137124771215,-0.0021634068796226214,0.007543487731896696,0.9915606929157491
2016-02-22,-1,-0.00242256225751529,-0.002000484386297849,-0.0021634068796226214,0.007543487731896696,0.9912720909847189
2016-02-24,-1,-0.002319548250774027,-0.00195165859290378,-0.0013473929710767273,0.007543487731896696,0.9914084796850071
2016-02-26,-1,-0.0017785487946439034,-0.0015001588704293908,-0.0016110559196010127,0.006377215831604752,0.9919731422755617
2016-03-01,-1,-0.0016212236038259254,-0.001325654615425262,-0.0013473929710767273,0.006377215831604752,0.9930053388645637
2016-03-03,-1,-0.0008518987210144837,-0.0006724148558018678,-0.0015572993314913858,0.006377215831604752,0.9938334824289723
2016-03-07,-1,-0.00032425027180578203,-0.00020626793694212712,-0.0023636559611776085,0.0053950670844403,0.9937645141852262
2016-03-09,-1,-0.0010792752094050295,-0.0008386198618251308,-0.003495556443869908,0.007410985891994783,0.9912463478966195
2016-03-11,-1,-0.0002970513521384031,-0.00018665677853154478,-0.004198752608227847,0.006853925215191425,0.9913588966775719
2016-03-15,-1,-0.00015654759825400053,-7.509985770803927e-05,-0.004198752608227847,0.011398517264185904,0.9899709151828502
2016-03-17,-1,-0.0004298174104395768,-0.0003354212187361932,-0.0023364642844736364,0.011398517264185904,0.9906222957308052
2016-03-21,1,0.00025211265895703117,0.00026315113844541235,-0.004198752608227847,0.011398517264185904,0.9901606498393771
2016-03-23,1,0.0009945489710422892,0.0011496345204507273,-0.004198752608227847,0.011398517264185904,0.9901570447769971
2016-03-28,1,0.0005324874965951791,0.0005929107945561204,-0.003954890858254716,0.011398517264185904,0.9900130783678359
2016-03-30,1,0.0016341586264533945,0.001912525310321048,-0.004370053062758093,0.00980625678348913,0.9892421861983366
2016-04-01,1,0.001847506759474656,0.00213562749982506,-0.01147172098758152,0.009127414145476015,0.9885307964615295
2016-04-05,1,0.001219440521758295,0.001433623056936964,-0.01147172098758152,0.009910008175590465,0.9880260886424723
2016-04-07,1,0.0009409936442278194,0.0011027259971724112,-0.006655682406087031,0.009127414145476015,0.9903418002851864
2016-04-11,1,0.0007397349822614803,0.0008409232095115941,-0.005924097156167642,0.009910008175590465,0.9901104293571705
2016-04-13,1,0.00209266091642777,0.0024157509538362556,-0.009185352284400912,0.007442790730463754,0.9904091537424645
2016-04-15,1,0.0021930434661483313,0.0025233045484805688,-0.009185352284400912,0.007410022177390967,0.9904603947351492
2016-04-19,1,0.0024663271528933385,0.0028580871191016275,-0.009149790744027615,0.007401437870233664,0.9909613817053533
2016-04-21,1,0.0026572375553521157,0.003067512434575267,-0.009149790744027615,0.004817061825952597,0.991222644679978
2016-04-25,1,0.0025051381570461283,0.0028834603245511637,-0.009149790744027615,0.004817061825952597,0.9912901209129683
2016-04-27,1,0.001380376292548554,0.0015844719255753105,-0.005203925744480795,0.007401437870233664,0.9921419584046886
2016-04-29,1,0.0009181499504115451,0.0010781784082602363,-0.002855818500888797,0.007401437870233664,0.9927730223664704
2016-05-03,1,0.0009420070530567657,0.0010864121490285622,-0.0017206373894529665,0.006656018720719503,0.9941051000218869
2016-05-05,1,0.0009205738678651599,0.0010638042643028706,-0.0017206373894529665,0.007401437870233664,0.9934939934703146
2016-05-09,1,0.0013446761934413803,0.0015347396912331328,-0.0028541782737729455,0.005713585256879581,0.9940542539362216
2016-05-11,1,0.0018771103830206035,0.002189666824324067,-0.0017206373894529665,0.005713585256879581,0.9948155005266609
2016-05-13,1,0.0013877437104600583,0.0015754926547024532,-0.004715416688400277,0.005713585256879581,0.9932035335466173
2016-05-17,1,0.0017766646115220314,0.002064650219882085,-0.004715416688400277,0.004476106563182645,0.993828985301717
2016-05-19,1,0.0019633444659851703,0.00228074465011042,-0.006597426447485339,0.004243837166410466,0.9934587345722328
2016-05-23,1,0.0021654656637702494,0.0025373015002273114,-0.006597426447485339,0.005713585256879581,0.9927464080865411
2016-05-25,1,0.0023522071119019255,0.002722067186555016,-0.006597426447485339,0.00703751241362485,0.9930255190389965
2016-05-27,1,0.001741088276794242,0.0019728700567597365,-0.009898647043554344,0.00703751241362485,0.9912181915076558
2016-06-01,1,0.0019360845650679618,0.002187836029298811,-0.009898647043554344,0.008358436350879739,0.9909247461130809
2016-06-03,1,0.0014440179462369743,0.0015900010713546522,-0.007570028934614514,0.008918384310692596,0.9892290408141614
2016-06-07,1,0.0010719025975507207,0.0011363002490190383,-0.007570028934614514,0.008918384310692596,0.9888703091845273
2016-06-09,1,0.00175077209022657,0.0019413293682270178,-0.007570028934614514,0.008918384310692596,0.9880953058566666
2016-06-13,1,0.0007124013366814316,0.000750891705809231,-0.004183115693771491,0.010383390251896725,0.988670542257342
2016-06-15,1,0.0007492841928551017,0.0008145704058697326,-0.0029464431240545093,0.010383390251896725,0.988651398397506
2016-06-17,0,-0.00010375830751074139,1.2415598693288734e-06,-0.002715528788857539,0.010383390251896725,0.9888737802041181
2016-06-21,-1,-0.0005578309673834547,-0.00034015549861781216,-0.0016832575158256876,0.010383390251896725,0.9891949601767707
2016-06-23,1,0.000291505091976433,0.0003768526249305874,-0.00317860930948744,0.010383390251896725,0.9897410569832181
2016-06-27,-1,-0.0011298861441957925,-0.000871343533945719,-0.0016832575158256876,0.011441602447008582,0.9891182004785246
2016-06-29,-1,-0.0014919550870079964,-0.0011406079070237986,-0.002356982595580389,0.012161121009645339,0.9891150281374258
2016-07-01,1,0.00025466080745021886,0.0003773387066757749,-0.002356982595580389,0.011937294303353743,0.991212508383461
2016-07-06,1,8.645506232996306e-05,0.00026298233572345266,-0.002356982595580389,0.011937294303353743,0.9910596860251772
2016-07-08,1,0.0013399723188441011,0.0013491289910822271,-0.002356982595580389,0.009821508940299593,0.9922294039927764
2016-07-12,1,0.0013657290367207519,0.001382960722715132,-0.0014926884905588854,0.006475077269167623,0.9928695180216098
2016-07-14,1,0.001739433090422175,0.0018204531370704085,-0.0014926884905588854,0.005135784476119104,0.993047252413606
2016-07-18,1,0.001266130071052977,0.0012762111231910066,-0.0014926884905588854,0.005599430397058008,0.9927444432156227
2016-07-20,1,0.0015991520954463715,0.0016385873441336432,-0.003049623489433188,0.005135784476119104,0.9930224048948583
2016-07-22,1,0.0013668720250315939,0.0013988058039181989,-0.0014926884905588854,0.005599430397058008,0.9931416053357429
2016-07-26,1,0.0026705880383150497,0.0029010164197295868,-0.0003653097666683636,0.005599430397058008,0.9954937854183271
2016-07-28,1,0.002962151654536671,0.0032499681143995777,-0.0003653097666683636,0.005135784476119104,0.9949246548824531
2016-08-01,1,0.0030297486302773265,0.003308276258523629,-0.0003653097666683636,0.004516899757093731,0.9952028266039911
2016-08-03,1,0.0026831910493897424,0.002925796892958931,-0.00128597053042699,0.004516899757093731,0.9954996649484802
2016-08-05,1,0.002504147617965127,0.0027179010475715864,-0.002429469609037502,0.004516899757093731,0.9951552550548245
2016-08-09,1,0.0023030051010951903,0.0024591531986661213,-0.002429469609037502,0.004516899757093731,0.994682027939676
2016-08-11,1,0.002638683843470103,0.0028686828484556027,-0.005936532944985901,0.003976922928852918,0.9920733235596662
2016-08-15,1,0.0026513869066578117,0.0028755856238082125,-0.003238065246623411,0.003976922928852918,0.991798872391173
2016-08-17,1,0.0022647810387650315,0.002420016314712334,-0.001602738508011417,0.004888037920976693,0.9914927031610987
2016-08-19,1,0.0027490661709810072,0.002991527323001795,-0.0037314417347730482,0.004554281398902469,0.9910926212897759
2016-08-23,1,0.0029760868558167137,0.0032636182833364943,-0.0037314417347730482,0.004554281398902469,0.990840780943457
2016-08-25,1,0.001833256948056627,0.0019210867019902067,-0.001602738508011417,0.005604851520477195,0.9919618957459025
2016-08-29,1,0.0017381527070091404,0.001794657150052804,-0.003219674897242941,0.007891709100558957,0.9910160800550201
2016-08-31,1,0.001374274972217889,0.001381666154008907,-0.006156463989709893,0.007891709100558957,0.9905248469974837
2016-09-02,1,0.0015183395550683052,0.001604028908840337,-0.003219674897242941,0.011320578047317313,0.9903709602891161
2016-09-07,1,0.002173513713494579,0.0023520597000406887,-0.005419376522591669,0.007891709100558957,0.9907634518190249
2016-09-09,1,0.0003871745709085785,0.00043718826958167694,-0.0037528697991636197,0.008522571288084336,0.9928699024841893
2016-09-13,1,0.0010107655692954947,0.0010504110157688526,-0.005419376522591669,0.0072292134738637425,0.9929650835681859
2016-09-15,1,0.0013089923683489366,0.0013821737218516314,-0.00619990767370629,0.005604851520477195,0.9929735133951518
2016-09-19,1,0.0003426207675234589,0.0004395595920224074,-0.0057262879937997665,0.00440472933885333,0.9937548922646884
2016-09-21,1,0.00028222331518198567,0.00042424291753324835,-0.0057262879937997665,0.00440472933885333,0.9937553045548666
2016-09-23,1,0.000304259599909877,0.00044016346998424546,-0.006084647176541655,0.0035150209455475758,0.9937595121145658
2016-09-27,1,0.0006140489745419714,0.0007022921848601819,-0.006540667647352121,0.0035150209455475758,0.9893820966341822
2016-09-29,1,5.5391951286380735e-05,0.00019225559645276376,-0.006084647176541655,0.004615016734695124,0.9888586010619279
2016-10-03,1,0.0005177552993033424,0.0006004119297078302,-0.006540667647352121,0.0021845452134734277,0.9889660690479917
2016-10-05,1,9.802708045674504e-05,0.00023167276027712136,-0.007110755739997287,0.0021845452134734277,0.9883924003605556
2016-10-07,1,0.0002273257148276848,0.0003508784418114738,-0.007110755739997287,0.002911361843486994,0.9883451805766094
2016-10-11,-1,-0.0003034045168238247,-0.00012251315640986074,-0.006922659069522077,0.00688214653496805,0.9880053113795636
2016-10-13,-1,-0.0008456101256404858,-0.000594899479113819,-0.0065768775780281705,0.008820182918126349,0.9877607742396849
2016-10-17,-1,-0.0005994232178883443,-0.00039943641323167693,-0.007640308628196518,0.008820182918126349,0.9869316105751588
2016-10-19,-1,-0.0003130926934044251,-0.000142102153136033,-0.007640308628196518,0.008820182918126349,0.9868884372683546
2016-10-21,-1,-0.00039343927554845936,-0.0002255051304124336,-0.009509159528368491,0.008820182918126349,0.9853137917833726
2016-10-25,-1,-0.0032382351332673727,-0.0027293645708667286,-0.009509159528368491,0.008820182918126349,0.9893891870838804
2016-10-27,-1,-0.0025762821546546255,-0.0021384877211995806,-0.009509159528368491,0.008820182918126349,0.9894494348530207
2016-10-31,-1,-0.0030347199929565798,-0.002560042204836598,-0.012504490841853566,0.008820182918126349,0.9886258244430922
2016-11-02,-1,-0.004318824552513433,-0.0036438509174559555,-0.013221911323897585,0.008820182918126349,0.9881732174108061
2016-11-04,-1,-0.004007034716306475,-0.0033597601097697435,-0.013221911323897585,0.008055131143763031,0.9883581429497991
2016-11-08,-1,-0.0033370760114157997,-0.0027615574482300503,-0.013974398117491146,0.008055131143763031,0.9875362433300613
2016-11-10,-1,-0.0028516851162624876,-0.0023466512670445314,-0.013974398117491146,0.009462816498812523,0.9872389477064302
2016-11-14,-1,-0.0033997812790708447,-0.0028532127647700944,-0.013754098790841749,0.009462816498812523,0.9876851242483977
2016-11-16,-1,-0.004223759913933074,-0.0035126211902616025,-0.013754098790841749,0.008437508045741504,0.9879912777986276
2016-11-18,-1,-0.005317678140880558,-0.00449733979510102,-0.007328923931706481,0.008437508045741504,0.9891977550959176
2016-11-22,-1,-0.004057895118231526,-0.0034743726362287857,-0.006609694106529318,0.007680134683037549,0.9907160982961133
2016-11-25,-1,-0.0032080456786119727,-0.002729063418391529,-0.006609694106529318,0.004614902826702273,0.9918525190027456
2016-11-29,-1,-0.0028160004483398044,-0.0024298198847760278,-0.006609694106529318,0.002554397486467315,0.9922154740242485
2016-12-01,-1,-0.0036593499475651306,-0.003180473495436489,-0.005421661300936189,0.002554397486467315,0.992946295362787
2016-12-05,-1,-0.0031939658797408635,-0.002785670581262254,-0.006599606427505922,0.002554397486467315,0.9927194940487513
2016-12-07,-1,-0.002510317349265871,-0.0021776696925993634,-0.005421661300936189,0.002554397486467315,0.9932079831011233
2016-12-09,-1,-0.0016668216312255809,-0.001457304888007207,-0.006599606427505922,0.001544690120981536,0.9938622028861465
2016-12-13,-1,-0.001953822185843773,-0.0016900982872450347,-0.006599606427505922,0.0018790551517980543,0.993233951814848
2016-12-15,-1,-0.001626278413122292,-0.0014732071462908356,-0.005633474945069131,0.002554397486467315,0.9924772026737333
2016-12-19,-1,-0.0016702055494100425,-0.0015234373560972794,-0.005633474945069131,0.005481087636861675,0.9917815300637791
2016-12-21,-1,-0.0013885279943983875,-0.0012992925496571775,-0.005633474945069131,0.011173143481149882,0.9907120481009098
2016-12-23,-1,-0.00141235694495267,-0.0013047451566583345,-0.006008814757727856,0.012042197763579515,0.9893196977280696
2016-12-28,-1,-0.0017568127629205574,-0.0016122998007766917,-0.006008814757727856,0.012042197763579515,0.9890658497220662
2016-12-30,-1,-0.001506931748094906,-0.0014067594719829137,-0.007439664876557318,0.012042197763579515,0.9877313104634076
2017-01-04,-1,-0.0010278138937873866,-0.0009980972600986372,-0.006558593003190662,0.012042197763579515,0.9871830072256094
2017-01-06,1,0.0001721986519947383,0.00029882106117224967,-0.006558593003190662,0.011173143481149882,0.9883551686064938
2017-01-10,-1,-0.00047101980829145155,-0.00043399561624323315,-0.0049011496354509805,0.011173143481149882,0.988495913791386
2017-01-12,1,2.6373710692559327e-05,0.00015641951476945442,-0.003575308736919419,0.010965393293469784,0.9889504244802869
2017-01-17,1,0.0009184980197392906,0.0011829421394405786,-0.003575308736919419,0.010134571117063366,0.9900030174537028
2017-01-19,1,0.0006313168745821662,0.0008202283103910917,-0.0028073772234115525,0.010134571117063366,0.9897929444702773
2017-01-23,1,0.0016570444141764187,0.0019917637730363794,-0.0028073772234115525,0.00913803408064121,0.9912751868811134
2017-01-25,1,0.0012543348310764153,0.0015219544243751785,-0.0002801169787648922,0.008742976451767281,0.9927784238865142
2017-01-27,1,0.0011557108584684423,0.0013981654376830754,0.0007527693611800138,0.008742976451767281,0.9932705888054962
2017-01-31,1,0.0010127342848448096,0.0012796102485914669,0.0007527693611800138,0.008742976451767281,0.9938942506034179
2017-02-02,1,0.0008413235675992846,0.000986488701360957,0.0007527693611800138,0.007712555404883116,0.9946557691088954
2017-02-06,1,0.0013034389830080487,0.0015408548593102743,0.00029026631385965226,0.005911210440568952,0.9948718803853523
2017-02-08,1,0.001856389928270043,0.002189967062136285,-0.0007986434584618801,0.005911210440568952,0.9947933615863545
2017-02-10,1,0.002008080207292586,0.002349986784984836,-0.0007986434584618801,0.0062379661140059255,0.9944459298126745
2017-02-14,1,0.002526373757842982,0.0029641904704907638,-0.002184178883629846,0.0089568214686246,0.9937385873383088
2017-02-16,1,0.002943247251576424,0.0034383588455416704,-0.002725003271965478,0.0062379661140059255,0.9939120179171497
2017-02-21,1,0.003433189469640963,0.0040196201153258875,-0.004705345998823107,0.004808409908370784,0.993402729781592
2017-02-23,1,0.003156798806765077,0.003667765870855064,-0.004705345998823107,0.004808409908370784,0.9934459644769214
2017-02-27,1,0.003658841290002368,0.004266460673468621,-0.0050244856712621,0.004808409908370784,0.993068510490004
2017-03-01,1,0.00339868083499556,0.003958170334626364,-0.004705345998823107,0.003225216210831502,0.9934284302100219
2017-03-03,1,0.003410968614008689,0.003984289492162168,-0.003041536531667154,0.0031504589896401303,0.9939681840896757
2017-03-07,1,0.002886671177962546,0.0033656007492495303,-0.003041536531667154,0.0031504589896401303,0.9942388025121547
2017-03-09,1,0.00298117943006894,0.003450639196643783,-0.003041536531667154,0.0035329168740333835,0.9947808915828713
2017-03-13,1,0.0033852419603047734,0.003910406544070654,-0.0031742488893598073,0.0035329168740333835,0.9948335400155756
2017-03-15,1,0.0037882960820748305,0.004388998135510681,-0.003611239378101006,0.0029459661591614518,0.994564050640801
2017-03-17,1,0.003329776164101958,0.0038581339816136815,-0.0028240524732533034,0.0036863552672699953,0.995502576100001
2017-03-21,1,0.0019730346809416063,0.002161613369240376,-0.002545676619313584,0.003880876217819943,0.9956695013785436
2017-03-23,1,0.002211304254043425,0.0024611507770512554,-0.0027478338178927486,0.003880876217819943,0.9954828369627431
2017-03-27,1,0.0020957086048393548,0.002295830288309702,-0.002545676619313584,0.004623977443854444,0.9923383534034229
2017-03-29,1,0.0013954526381281898,0.0014699467649866146,-0.0027478338178927486,0.004623977443854444,0.9921581313618183
2017-03-31,1,0.0015676813617582954,0.0016834791418650651,-0.0029753267862947476,0.006833764055504557,0.9912252347148586
2017-04-04,1,0.0015577573020909838,0.0017082590928131631,-0.0029753267862947476,0.006833764055504557,0.9913942342027525
2017-04-06,1,0.0019546197602463957,0.0021816220112267867,-0.0029753267862947476,0.007954454284300845,0.9913183303669766
2017-04-10,1,0.001583512717028225,0.0017171787884437994,-0.003089862333140234,0.008846368492073025,0.9910419467157455
2017-04-12,1,0.001299315114028139,0.0013988243528872248,-0.0029753267862947476,0.008846368492073025,0.9907842479730015
2017-04-17,1,0.0009422655599326949,0.0009630140553943265,-0.0029753267862947476,0.008956786580109425,0.9907383387498856
2017-04-19,1,0.0011965125409715148,0.001203244584386696,-0.0029879369449229837,0.007370595847493429,0.991147660464618
2017-04-21,1,0.0013484444418741805,0.0014152024753335748,-0.003451375003909886,0.008956786580109425,0.9907141286172356
2017-04-25,1,0.003406751902806835,0.0037261062787263717,-0.003451375003909886,0.004802114756645548,0.9938694984424536
2017-04-27,1,0.0025683889648774167,0.0027209849660740537,-0.0034065098253107254,0.0073492430819850005,0.9941588102700719
2017-05-01,1,0.0028322687909323476,0.0030284345541624217,-0.002968884166131557,0.006246241236275012,0.9950127148289023
2017-05-03,1,0.002765764431196668,0.0029681903719129465,-0.002418094706683487,0.007239607331887672,0.9952005701257624
2017-05-05,1,0.003178458983137601,0.0034612321911777176,-0.002418094706683487,0.007848191742939907,0.9945865442893808
2017-05-09,1,0.0030575353728203828,0.003317981481489494,-0.0013748748225082782,0.007848191742939907,0.9946226352772107
2017-05-11,1,0.0022390183277281404,0.0023562242486011792,-0.000965185653217309,0.007848191742939907,0.9949821914215838
2017-05-15,1,0.002287652657757642,0.002385127136292427,-0.001558016006851149,0.007848191742939907,0.9947054721487725
2017-05-17,1,0.001946414601163874,0.0019837766343048105,-0.000965185653217309,0.007848191742939907,0.9947228407164207
2017-05-19,1,0.0019578250327129797,0.0019953515473693307,-0.000965185653217309,0.007717646195924594,0.9949145502286599
2017-05-23,1,0.0016019817691434555,0.0016345057658244805,-0.001558016006851149,0.007717646195924594,0.9943622080263746
2017-05-25,1,0.0017313931705700263,0.0017609352143248028,-0.002925965099072066,0.006608021942378508,0.9946012517906615
2017-05-30,1,0.0015865602249990549,0.001627715336934387,-0.0032919388116551384,0.006608021942378508,0.9941271499101056
2017-06-01,1,0.0022457555694117537,0.002337191416015896,-0.004954811753233717,0.005653780485137001,0.993896090825926
2017-06-05,1,0.0021933096805835835,0.0022366747592116286,-0.0070488395924297705,0.00546097857287728,0.9941130891370193
2017-06-07,1,0.002314193405270637,0.0023754438986164296,-0.00718296577146943,0.00546097857287728,0.9939924821473741
2017-06-09,1,0.002304602098546206,0.00239292338730342,-0.007244390271100411,0.005662064765185986,0.9930106527216424
2017-06-13,1,0.0021031017406636958,0.0021580475271432455,-0.0070488395924297705,0.005662064765185986,0.9934335441194964
2017-06-15,1,0.0021540022580319516,0.002256801079645322,-0.0070488395924297705,0.005662064765185986,0.9934529104607518
2017-06-19,1,0.0018065162299933856,0.0018554508629091764,-0.007244390271100411,0.005662064765185986,0.9930656874808418
2017-06-21,1,0.001634175391007248,0.0016515499052132034,-0.007244390271100411,0.005742093829619606,0.9932204192109924
2017-06-23,1,0.0010705030960193613,0.001153388382391512,-0.007244390271100411,0.006243392897625609,0.9931888209751162
2017-06-27,1,0.0006836580200939965,0.0007541234708649522,-0.0076728020737904115,0.006243392897625609,0.9904405395813785
2017-06-29,1,0.0005731861696016433,0.0006541340024813717,-0.007479972182879935,0.006243392897625609,0.9907044062986328
2017-07-03,1,0.0005136165577157299,0.0005931070460383878,-0.004980985539080531,0.0066462707696182816,0.9904789283746115
2017-07-06,1,0.00046903760963834935,0.0005474872969324397,-0.003373462036206096,0.007000355741843664,0.9905990340093671
2017-07-10,1,0.0002900524972216428,0.00038372997034205966,-0.0021088061557550685,0.006243392897625609,0.9919407159782172
2017-07-12,1,0.0006590178020651422,0.0006919615757289707,-0.003373462036206096,0.005588686990770279,0.9921740559759415
2017-07-14,1,0.0007070827502509993,0.0007260776629041927,-0.0043575095999482194,0.006243392897625609,0.9917103219270643
2017-07-18,1,0.000620579638242889,0.0006512195423451936,-0.003373462036206096,0.006243392897625609,0.9918476148345341
2017-07-20,1,0.0007398252431541983,0.0007491520043556206,-0.0043575095999482194,0.006553028583634659,0.990930717113857
2017-07-24,1,0.000623915816234912,0.0006574573413111726,-0.0043575095999482194,0.006004053964137333,0.9910428098242429
2017-07-26,-1,-0.001119291285061926,-0.000876087507224905,-0.003126072378990395,0.007929262799870813,0.9927611235844015
2017-07-28,-1,-0.0011201480817386667,-0.0008624655495220553,-0.0043575095999482194,0.007929262799870813,0.9926085479465236
2017-08-01,-1,-0.0008595850888877998,-0.0006415738291248654,-0.003635450529874233,0.006201217265153825,0.9931281375752893
2017-08-03,-1,-0.0004227436534070265,-0.00026842320413633246,-0.003635450529874233,0.006201217265153825,0.9929944076248564
2017-08-07,-1,-0.0004795528206574641,-0.0003223301511496738,-0.003635450529874233,0.006201217265153825,0.9929844873671588
2017-08-09,-1,-0.0009204499114028486,-0.0006932174618388303,-0.0025607716147991576,0.006201217265153825,0.9927293926548911
2017-08-11,-1,-0.0010673777401965182,-0.000810282442775109,-0.001614436102727247,0.010156632905139257,0.9921559726887089
2017-08-15,-1,-0.0008902890255255239,-0.0006494519667201575,-0.0019947447432679417,0.006523168759042754,0.9927181556946721
2017-08-17,-1,-0.0008283605657901443,-0.0005978483685936748,-0.0019947447432679417,0.005558792581976069,0.993695481391379
2017-08-21,-1,-0.000989836041262393,-0.0007321535155426823,-0.0019947447432679417,0.005876110285358742,0.992521955425365
2017-08-23,-1,-0.0011444147997897477,-0.0008651416460255532,-0.0030437544592222384,0.005558792581976069,0.9933130590539757
2017-08-25,-1,-0.0014931958706188469,-0.0011571694734906649,-0.003758301370590868,0.0053362933259300796,0.9937140518120557
2017-08-29,-1,-0.0013122113103058784,-0.0010029389292878737,-0.00468190299033066,0.0053362933259300796,0.9937624486216922
2017-08-31,-1,-0.0009602919150273868,-0.0006900894785390137,-0.00468190299033066,0.004848270655013722,0.9943543007215683
2017-09-05,-1,-0.0013193396333192435,-0.0009909910542018692,-0.00468190299033066,0.0053362933259300796,0.9934827626135879
2017-09-07,-1,-0.0009381299543751143,-0.0006690189538866904,-0.00468190299033066,0.004897079740132689,0.9936827043664197
2017-09-11,-1,-0.00031660556678025605,-0.00013024039454226084,-0.005470812393176826,0.004431377588242504,0.99371379119344
2017-09-13,-1,-0.000520536516567933,-0.0002986395209304387,-0.005470812393176826,0.0046222049526365196,0.9935333440958195
2017-09-15,1,0.0006042049484374398,0.0006343131181812624,-0.00468190299033066,0.0046222049526365196,0.9939191137771399
2017-09-19,-1,-0.00032809194310204175,-0.00021156376818119108,-0.005160425934219745,0.0041893353214008605,0.9940380545698716
2017-09-21,-1,-0.0005068809391218573,-0.0003933557558465215,-0.003758301370590868,0.0046222049526365196,0.9934840676479747
2017-09-25,-1,-0.0009202417540110683,-0.0007403685817834118,-0.0017896438443934868,0.0057479703888432794,0.9928440241622476
2017-09-27,-1,-0.001058430513306762,-0.0008773035175781693,0.0001543449127062987,0.007560403247863379,0.9922778819525016
2017-09-29,-1,-0.0008946839218675221,-0.0007342478684104535,0.00030645353841878123,0.01415218416909755,0.9901788573701121
2017-10-03,-1,-0.0005787502154399748,-0.00043798943510964386,-0.0014337596370519567,0.01149317407098671,0.9904588118757507
2017-10-05,-1,-0.00021283780751944902,-0.00013439748475688843,-0.0014337596370519567,0.01149317407098671,0.9903482621338127
2017-10-09,-1,-0.0003745910371611108,-0.00026816825256221495,-0.0014337596370519567,0.011275264743877326,0.9908115449741816
2017-10-11,0,-3.948611783212826e-05,2.2843452688685675e-05,-0.0014337596370519567,0.011275264743877326,0.9911571434299321
2017-10-13,0,-5.570971594988253e-05,5.4683498960079015e-06,-0.006173259197250572,0.011275264743877326,0.990448872717794
2017-10-17,-1,-0.0005900340587355766,-0.0004897892342671537,-0.0014337596370519567,0.011275264743877326,0.9910381854224736
2017-10-19,1,0.00036452463618383616,0.0003732647624898781,-0.003374247078833593,0.011275264743877326,0.9909315055719743
2017-10-23,1,0.0006185082361236259,0.0006846571717820834,-0.004608809639730639,0.010249360501109925,0.9909526956544646
2017-10-25,1,0.0012654142980655099,0.0014365406792548085,-0.007103674344379549,0.0081012960594954,0.9905821925067432
2017-10-27,1,0.002821522272293052,0.0032186139574131,-0.007103674344379549,0.0041933652839567445,0.9921112019856491
2017-10-31,1,0.0019852949775156737,0.002260128409043551,-0.007103674344379549,0.005238550868896708,0.992647063788037
2017-11-02,1,0.002127397345891491,0.0024200878503060712,-0.007103674344379549,0.005238550868896708,0.9927697071001912
2017-11-06,1,0.0017762592663431646,0.0020214413156982294,-0.007103674344379549,0.005238550868896708,0.9923783986030612
2017-11-08,1,0.0019083142581432307,0.002172009388059973,-0.007103674344379549,0.005782392240317645,0.9922415094224127
2017-11-10,1,0.0014300916200700436,0.0016271272088166676,-0.007103674344379549,0.006729935912922433,0.9920199883188807
2017-11-14,1,0.0018051367146244925,0.002049826681273045,-0.007103674344379549,0.005782392240317645,0.9921818826513096
2017-11-16,1,0.002172434077725433,0.0024403618590156393,-0.0075615048136304375,0.005782392240317645,0.9921018988889223
2017-11-20,1,0.002106071152605731,0.00236159920368015,-0.0075615048136304375,0.0056312310091923045,0.9927564773262223
2017-11-22,1,0.0014124018713581872,0.0015678143651586237,-0.007721612339299017,0.0056312310091923045,0.992771489423704
2017-11-27,1,0.0013662029674611266,0.0015112279834578442,-0.007721612339299017,0.0056312310091923045,0.9927928128604864
2017-11-29,1,0.001124601036867272,0.0012250528064085458,-0.004733974998614429,0.006052685836932334,0.993156798035822
2017-12-01,1,0.001746305036900416,0.0019446557846589199,-0.007721612339299017,0.006052685836932334,0.9925234974879085
2017-12-05,1,0.0009653503009445085,0.0010602803937071674,-0.004733974998614429,0.007661820804201438,0.9928222323195349
2017-12-07,1,0.0013163269655586585,0.0014560623270041015,-0.004733974998614429,0.011099424554847245,0.9921541018167603
2017-12-11,1,0.0014882794919590665,0.001657988771021029,-0.004776760118041772,0.011099424554847245,0.9918581798547939
2017-12-13,1,0.001382678635910258,0.0015402167730270279,-0.004776760118041772,0.011099424554847245,0.991699978241828
2017-12-15,1,0.00012352851250206084,0.00026632599034943493,-0.0037800950339369355,0.009950402799735681,0.9926597513924407
2017-12-19,1,0.00045213328710654797,0.0005435007060239283,-0.004438188394797678,0.011099424554847245,0.9920476829123567
2017-12-21,-1,-0.0002077009694202491,-4.752450574430848e-05,-0.0037800950339369355,0.012600837105088272,0.9910519120562824
2017-12-26,-1,-0.0001480156428457193,-1.4912340730775743e-05,-0.0023972130186995753,0.013100249080621997,0.9897961758389761
2017-12-28,0,-6.768906892396008e-05,6.243168485527194e-05,-0.0001757273668150385,0.013100249080621997,0.9899219055299304
