JNU-Tangyin/eata/results/Batch4_SP500/Batch4_SP500-FAST.csv
Date,Action,Predicted_Q25,Predicted_Q75,Actual_Q25,Actual_Q75,RL_Reward
2010-12-14,0,0.0,0.0024593483806629544,-0.002467683035463436,0.0043527871207079405,0.9963187819333328
2010-12-16,1,0.0022504607366799602,0.0024749237333697893,-0.002467683035463436,0.004453631564794214,0.9941087552348952
2010-12-20,1,0.0021797170269921883,0.002377632804581461,-0.0036228792723422957,0.004453631564794214,0.9925343879949108
2010-12-22,1,0.0026747357598164686,0.0030525040788873794,-0.004040202166515878,0.0043527871207079405,0.992464899862632
2010-12-27,1,0.004788111734565198,0.005371817275329053,-0.0072437419575713795,0.0046007368101955185,0.9908760864991
2010-12-29,1,0.004786314114805854,0.0053622867104483884,-0.0072437419575713795,0.005318290813925665,0.9909468792861675
2010-12-31,1,0.004310400185556904,0.004787143908021681,-0.010782723421147018,0.005953953778488279,0.9895981680287339
2011-01-04,1,0.0027965640565525787,0.0029275418681995635,-0.009292342389439023,0.005953953778488279,0.9898199216045857
2011-01-06,1,0.001997706001314538,0.001999421398307673,-0.006861937284605045,0.01123490421769966,0.9886646506849076
2011-01-10,1,0.0025882198125918416,0.0027590084859690192,-0.006861937284605045,0.01123490421769966,0.9886362429166341
2011-01-12,1,0.000953703520739031,0.0010939145793419773,-0.0011619512530157796,0.01315962266908142,0.9882740539860989
2011-01-14,1,0.0001354893496490991,0.00047449033003666124,-0.004740795733584847,0.00972173238911155,0.9886869184546034
2011-01-19,0,-0.00033699746155484004,0.00012664156288420044,-0.003918429698447976,0.009046436038046893,0.9900190790538167
2011-01-21,-1,-0.001222841119265911,-0.0006227381222035323,-0.0017822476685628542,0.009227303895489373,0.9896714174503594
2011-01-25,0,0.0,0.0,-0.003918429698447976,0.009227303895489373,0.9886008086251823
2011-01-27,0,0.0,0.0,-0.003918429698447976,0.009963137957483402,0.9886160479189131
2011-01-31,-1,-0.0005138249525733492,-0.0001874685944565647,-0.003918429698447976,0.010271365386428385,0.9891147060097724
2011-02-02,1,0.0006438462286353459,0.0007766708016088465,-0.0023043829840710024,0.010271365386428385,0.9893473875633955
2011-02-04,1,0.0027813923585435375,0.002941357343635957,-0.005200839711867086,0.009193580361551969,0.990249579626777
2011-02-08,1,0.0020373546726408227,0.002146057631345385,-0.005200839711867086,0.009771479342319596,0.9899204440594535
2011-02-10,1,0.002478908473028087,0.0026731073897564087,-0.008399237406111938,0.006381011550493849,0.9892379372594554
2011-02-14,1,0.0022750391083801126,0.0024337021124028278,-0.010174822861485239,0.006381011550493849,0.9884691348733301
2011-02-16,1,0.002396979363964915,0.00260720016236947,-0.013068836485651268,0.009771479342319596,0.9873393990465142
2011-02-18,1,0.002553170378944658,0.002786609133913652,-0.013068836485651268,0.010271365386428385,0.9869128319026155
2011-02-23,1,0.0010169048275783148,0.0010312949387655493,-0.009300036734648154,0.010271365386428385,0.988575471827717
2011-02-25,0,0.0,0.0,-0.009300036734648154,0.010128820710242648,0.9884266408702786
2011-03-01,0,0.0,0.0,-0.008319512829956856,0.010913270467453117,0.9894815818944005
2011-03-03,0,0.0,0.0,-0.008319512829956856,0.00912877199901599,0.9902643297643985
2011-03-07,0,0.0,0.0,-0.00152111797458286,0.010913270467453117,0.990152784625519
2011-03-09,0,0.0,0.0,-0.00152111797458286,0.010913270467453117,0.9895233368212152
2011-03-11,0,0.0,0.0,-0.004589843351778859,0.010913270467453117,0.9897091085273333
2011-03-15,-1,-0.0007181579228947286,-0.0005051338689745642,-0.00152111797458286,0.010913270467453117,0.9883355548674734
2011-03-17,-1,-0.0002911398018522025,-0.00014160741438825735,0.0013129086002799087,0.009601652830447852,0.989619939197007
2011-03-21,1,6.415176332555178e-06,0.00017053085695936952,-0.0018505386776323047,0.00890393543343966,0.9899988718654309
2011-03-23,-1,-0.0004064770744466482,-0.00015948813301181483,-0.001628666494563215,0.009601652830447852,0.9894141250540435
2011-03-25,0,-3.50878651704618e-05,0.00016320769087604155,-0.003033446132405498,0.00973158126548121,0.9895129856332687
2011-03-29,1,0.0007061146520671619,0.0007788123283754098,-0.003033446132405498,0.011197969684169475,0.988855246617657
2011-03-31,1,0.0010801852947085783,0.001104960697929609,-0.003033446132405498,0.011197969684169475,0.9892473657530921
2011-04-04,1,0.0012334567795970752,0.0012671923871452335,-0.004552633895936683,0.00973158126548121,0.989379119599183
2011-04-06,1,0.0022307050377151313,0.0023274324414366203,-0.0052040435034987256,0.0032853208940500315,0.9904184529157672
2011-04-08,1,0.0012120462598763202,0.0012732964614709298,-0.003151231965993549,0.006415513330532151,0.9912646016240682
2011-04-12,-1,-0.00072338086205778,-0.0003998342842198479,-0.003151231965993549,0.007065107039957448,0.9927077026559558
2011-04-14,-1,-0.00037504567980035637,-0.00010724889963353629,-0.0038789897616246048,0.008662735843896244,0.9922813240530363
2011-04-18,-1,-0.001178005762528713,-0.0008145362646031003,-0.0045988192382397895,0.008662735843896244,0.9926860442401958
2011-04-20,-1,-0.0003333814492847087,-9.817704283658375e-05,-0.0045988192382397895,0.008458743610210338,0.9932569202851852
2011-04-25,-1,-0.0005315280181169821,-0.0002490615080302859,-0.006884795027340014,0.007065107039957448,0.992880242929343
2011-04-27,1,0.0015294995400608393,0.0015939972234159522,-0.006884795027340014,0.006415513330532151,0.9925186669070516
2011-04-29,0,0.0,0.0,-0.006884795027340014,0.006415513330532151,0.9928496862465727
2011-05-03,0,0.0,0.0,-0.006884795027340014,0.007065107039957448,0.9907641217774669
2011-05-05,0,0.0,0.0,-0.008596815492810753,0.007065107039957448,0.9901289395082992
2011-05-09,0,0.0,0.0,-0.008596815492810753,0.004898998458394331,0.9907354729503165
2011-05-11,0,0.0,0.0,-0.006884795027340014,0.002996468499741615,0.9915194971782467
2011-05-13,0,0.0,0.0,-0.008596815492810753,0.002996468499741615,0.9912036504672219
2011-05-17,0,0.0,0.0,-0.010073875461924875,0.005121697417338154,0.9897193835454752
2011-05-19,0,0.0,0.0,-0.010073875461924875,0.01022993181932133,0.9886856706301501
2011-05-23,0,0.0,0.0,-0.004155157110482018,0.01083152210012224,0.9883314630286378
2011-05-25,0,0.0,0.0,-0.006005049924578934,0.01022993181932133,0.988707575722113
2011-05-27,1,0.0017885920259828917,0.0018931143973193966,-0.008375220333197727,0.01083152210012224,0.9877692304720382
2011-06-01,0,0.0,0.0,-0.004945213913354949,0.013101860540721459,0.9876691754828136
2011-06-03,0,0.0,0.0,-0.0013724955213808853,0.018621898726809846,0.987622323851582
2011-06-07,0,0.0,0.0,-0.003415680996214305,0.018621898726809846,0.987413681972011
2011-06-09,0,0.0,0.0,-0.002047747729099541,0.018621898726809846,0.9875112328181735
2011-06-13,-1,-0.001252956862119019,-0.0010202090165010336,-0.00453683706718421,0.018621898726809846,0.9855590727307227
2011-06-15,-1,-0.0010885810523559639,-0.0008597660935034041,-0.0043437123438296605,0.012671534828818368,0.9873194098156519
2011-06-17,-1,-0.00022131879836760708,-8.491661493186892e-05,-0.007729307956201016,0.00906673258309174,0.9879210028754153
2011-06-21,1,0.00109077029104403,0.0011336699369790056,-0.007739155111283208,0.006468882474593811,0.9877708674667015
2011-06-23,1,0.0001328180952415199,0.0002686469476838415,-0.007539465617873864,0.00902966352302658,0.9878111213652712
2011-06-27,1,0.0008730140057683659,0.0009089927296559207,-0.007539465617873864,0.003766277118680111,0.9885506416186426
2011-06-29,1,0.0026706591054142586,0.0029510524143215623,-0.009231316369683721,0.0021900068002592894,0.9886773362721114
2011-07-01,1,0.0031403285592499853,0.0034962943380303967,-0.014846344046968059,0.0020800481908183105,0.9876175946292879
2011-07-06,1,0.0031496255219050553,0.0035321127643008847,-0.01671480749547291,0.0021900068002592894,0.9846186141382773
2011-07-08,1,0.0031602041817219246,0.0035233310692153845,-0.017855554948937143,0.003653970174090028,0.9823324763082665
2011-07-12,1,0.001149162035086715,0.0012538900621408887,-0.017371316587334665,0.008921750594937258,0.9799472275237563
2011-07-14,1,0.0010731667097474153,0.0011859973890905179,-0.020292313331327666,0.012108505102072486,0.9756123180193756
2011-07-18,-1,-0.00023955202969048328,-0.00010952080109745947,-0.017838547694139922,0.018345996004471357,0.9751776967038835
2011-07-20,1,0.0003410145055428217,0.00039420545962559687,-0.017838547694139922,0.014170719878959875,0.975543437270397
2011-07-22,0,-2.11351919923345e-06,0.0001250462445700037,-0.02617530275538209,0.014170719878959875,0.9730801438499073
2011-07-26,1,6.625730801947512e-05,0.00014226039201729122,-0.02617530275538209,0.018345996004471357,0.9716758691514911
2011-07-28,-1,-0.00037878820349324284,-0.00021976147871922085,-0.027192440815463167,0.01561249794235396,0.9716201733563302
2011-08-01,-1,-0.0009106237732458064,-0.0007283554783906271,-0.027192440815463167,0.027586654218605268,0.969737393376655
2011-08-03,-1,-0.0013503406708647722,-0.0010919917134098404,-0.016608729699188845,0.021664989209733893,0.9724320445513318
2011-08-05,-1,-0.0028431869477096444,-0.0023738553932175117,-0.017190739742192696,0.021664989209733893,0.9728699309751785
2011-08-09,-1,-0.0026280053687574552,-0.002176918742482806,-0.014655579369302564,0.021654858513446066,0.9772624965695308
2011-08-11,-1,-0.0019728828374874904,-0.0016291377310361788,-0.012689838407929123,0.015951585184513187,0.981218973555347
2011-08-15,-1,-0.00124964718108351,-0.000997558299331469,-0.012689838407929123,0.017891829299320837,0.9798318238285786
2011-08-17,-1,-0.0019695751357905198,-0.0016466048789416337,-0.011062134360461037,0.02464000333899197,0.978390811178641
2011-08-19,-1,-0.004156478119069128,-0.003604541986310249,-0.0031270116429240906,0.02464000333899197,0.9795847190493469
2011-08-23,-1,-0.002201798742796523,-0.001895613883312824,-0.011062134360461037,0.021390426871704213,0.9816048955747574
2011-08-25,-1,-0.0021302589610836106,-0.0018689073622886565,-0.011062134360461037,0.021390426871704213,0.9815819061183528
2011-08-29,1,0.0008010350541695053,0.0009694766328822262,-0.011062134360461037,0.014697242113138113,0.9845321280016758
2011-08-31,1,0.0008630394625536624,0.0010055306737215873,-0.012883841755597075,0.01424129639616108,0.9838086240179532
2011-09-02,-1,-0.0012986417839290607,-0.0010965191163995838,-0.014262854722704001,0.01424129639616108,0.9828562063167103
2011-09-07,1,2.717005848492853e-05,6.343474361705269e-05,-0.014262854722704001,0.01638159752939742,0.9816335511784016
2011-09-09,-1,-0.0013043354397893126,-0.001076639020739984,-0.0175015449567394,0.01638159752939742,0.9817781575905856
2011-09-13,1,0.001506517443634484,0.0016559318115086478,-0.0175015449567394,0.015457377276135305,0.9831402257097039
2011-09-15,1,0.0026113366746635626,0.0029112268082816303,-0.022148039019673264,0.008008269576070317,0.983354853126988
2011-09-19,1,0.003648368214577681,0.004149094851804284,-0.022148039019673264,0.0043896141991344746,0.9827258727695988
2011-09-21,1,0.002844029117395062,0.0032235662291384562,-0.01889594269567854,0.00863642330127344,0.9829248620194616
2011-09-23,0,0.0,0.0,-0.010780918945170862,0.016667744075578427,0.9838441743116633
2011-09-27,0,0.0,0.0,-0.011966469276638414,0.020232192246426736,0.9833353934638541
2011-09-29,1,0.0012735557749443546,0.0014291320289139633,-0.009297237754469948,0.021695924769596052,0.9812439012925614
2011-10-03,-1,-0.0008587564519519399,-0.0007381836310885329,-0.005246214018009197,0.021695924769596052,0.983143476387128
2011-10-05,1,0.0012424048387349733,0.0013884975309253179,-0.009297237754469948,0.021695924769596052,0.9833147816750832
2011-10-07,1,0.00023727489891751596,0.00024949145334821044,-0.005246214018009197,0.02462638187963511,0.9817523339189644
2011-10-11,1,0.0014487078133334603,0.0016084735690724823,-0.009297237754469948,0.02191156238101314,0.982080089140664
2011-10-13,1,0.0002934432127453085,0.000322838089460992,-0.009297237754469948,0.02191156238101314,0.98101846485928
2011-10-17,1,3.6565940049176386e-05,6.740872036850011e-05,-0.004814287504176929,0.0245490697012335,0.980155343369152
2011-10-19,1,0.0004838555296225936,0.000492727133525765,-0.011028232922120724,0.022194678437102388,0.9805757520788231
2011-10-21,0,0.0,0.0,-0.012929282602748251,0.020911127681552344,0.9813890333072692
2011-10-25,0,0.0,0.0,-0.014288571182984162,0.020720091666962457,0.9821159682341506
2011-10-27,0,0.0,0.0,-0.01602802792077751,0.010623417841148456,0.9842469985898935
2011-10-31,1,0.0036555190377288924,0.0039251592499465375,-0.01602802792077751,0.020720091666962457,0.983049496145037
2011-11-02,0,0.0,0.0,-0.0134944256667506,0.020720091666962457,0.9836611222931293
2011-11-04,0,0.0,0.0,-0.0134944256667506,0.020720091666962457,0.9848943261682674
2011-11-08,0,0.0,0.0,-0.01602802792077751,0.01079236424925736,0.9854501858806494
2011-11-10,0,0.0,0.0,-0.01301042350131796,0.01135537021111798,0.9862393169090476
2011-11-14,0,0.0,0.0,-0.016104368372804045,0.006065915366780287,0.9855720294453315
2011-11-16,0,0.0,0.0,-0.01600944719233339,0.008562571055296444,0.9859651749360302
2011-11-18,0,0.0,0.0,-0.01301042350131796,0.012797106351817834,0.986074245891468
2011-11-22,1,0.0019926522710989204,0.0019926522710989204,-0.0070820060945897545,0.017853396179708776,0.9847092305228583
2011-11-25,1,0.0057353795858843945,0.006579487727893864,-0.004559877013696119,0.02023313622272385,0.9849790942192959
2011-11-29,0,0.0,0.0,-0.004559877013696119,0.016985589040926966,0.9865012430917524
2011-12-01,1,0.005335484002666274,0.005989337003610448,-0.007527042171265727,0.013819508929824236,0.986308692193623
2011-12-05,0,0.0,0.0,-0.007527042171265727,0.013199224481480868,0.9875216309387069
2011-12-07,1,0.00438948982749973,0.004855885284866643,-0.003729398664841052,0.014331489014891837,0.9881272913406306
2011-12-09,0,0.0,0.0,-0.0031075299022952753,0.013199224481480868,0.9891780017805983
2011-12-13,0,0.0,0.0,-0.0021223512062936837,0.013821657363278303,0.9902321531212784
2011-12-15,0,0.0,0.0,-0.001299721059919427,0.014594262101411098,0.989910447644299
2011-12-19,0,0.0,0.0,-0.0026490699586654027,0.013821657363278303,0.9892534801320407
2011-12-21,1,0.003710337292458538,0.004036491792651185,-0.0014042476108503395,0.013199224481480868,0.992387415122684
2011-12-23,1,0.0038690646097335694,0.004214744664814392,-0.0013037843667661041,0.013199224481480868,0.9926941275670094
2011-12-28,1,0.0029998235816431663,0.0031624680548847477,-0.001144560811536566,0.013199224481480868,0.9924741946054005
2011-12-30,1,0.0027789019997799336,0.0028986036437089434,-0.0009848400824688235,0.006927071975914967,0.9935706530573329
2012-01-04,1,0.0034603528703242674,0.0036773776235810157,-0.0014447402269998186,0.005587956497831686,0.9935970807880523
2012-01-06,1,0.00364453911788525,0.003908927980856523,-0.001974042567872571,0.005587956497831686,0.9927280095088077
2012-01-10,1,0.0028096994562217307,0.002910044437125653,-0.0014447402269998186,0.009804310929028462,0.9924865508563536
2012-01-12,1,0.0018311921062719744,0.0019628571582870112,-0.001974042567872571,0.005547991145658407,0.9923313493204029
2012-01-17,1,0.0029103555512127273,0.0029859401494796915,-0.001974042567872571,0.009528215074485896,0.9904298022395989
2012-01-19,1,0.0014677556434938544,0.0016197373982557346,-0.001974042567872571,0.009528215074485896,0.9912812759212617
2012-01-23,1,0.002495179668370804,0.002566042267575373,-0.001974042567872571,0.009528215074485896,0.9911236342780089
2012-01-25,1,0.0028597260195283875,0.002987968565922717,-0.001809195100722316,0.009609225164165913,0.9912942307462945
2012-01-27,1,0.00163555435442828,0.0017305547719638037,-0.0014065044558395751,0.009757945332867992,0.9911529294525493
2012-01-31,0,0.0,0.0,-0.0017301728678287137,0.009757945332867992,0.9904299902100644
2012-02-02,0,0.0,0.0,-0.00011702734776515713,0.009757945332867992,0.9905536946828947
2012-02-06,0,0.0,0.0,-0.00011702734776515713,0.008702522349441544,0.9908706544277874
2012-02-08,1,0.005903445332542774,0.006337501924342153,-2.62141675437652e-06,0.008702522349441544,0.9918889160940195
2012-02-10,0,0.0,0.0,0.00019014227384072535,0.008702522349441544,0.9917817308316281
2012-02-14,0,0.0,0.0,-0.0011382863087989552,0.007035230241449456,0.9937686653598072
2012-02-16,1,0.003131089349190352,0.0032539279472468124,-0.0017301728678287137,0.007035230241449456,0.9942711383842572
2012-02-21,0,0.0,0.0,-0.002292808821826808,0.008666500800586013,0.9931690522409892
2012-02-23,0,0.0,0.0,-0.004035973546159141,0.007048782082161285,0.9930117229010746
2012-02-27,0,0.0,0.0,-0.004035973546159141,0.007048782082161285,0.9925672242900684
2012-02-29,0,0.0,0.0,-0.004384555522410063,0.005736014572590219,0.992592774889592
2012-03-02,0,0.0,0.0,-0.004384555522410063,0.005707862628476809,0.9927759097118138
2012-03-06,0,0.0,0.0,-0.004384555522410063,0.009071971064917885,0.9924427866191152
2012-03-08,1,0.0011872201085863104,0.0013215654259884088,-0.005544974866918729,0.0035978144377931884,0.9923770588335626
2012-03-12,1,0.0003226056061767786,0.0006148253005032106,-0.007509774626584575,0.003145598315753754,0.9889293695019815
2012-03-14,0,0.0,0.0,-0.007509774626584575,0.0035104130579501408,0.9882646321428091
2012-03-16,0,0.0,0.0,-0.00880969012104417,0.0035104130579501408,0.9882096951344186
2012-03-20,1,0.0006191175946116083,0.0008424877187145613,-0.010724473665024537,0.0035104130579501408,0.9878191482692598
2012-03-22,1,0.0016785275127747619,0.0016949360797479667,-0.012129235563587495,0.0035104130579501408,0.9867797927923069
2012-03-26,1,0.0015812023477871039,0.0016269782786601777,-0.01658917461473429,0.0007479826164383422,0.9856392440777498
2012-03-28,1,0.0013764694757067773,0.0014319205187093183,-0.01658917461473429,0.0035104130579501408,0.9853544325524184
2012-03-30,1,0.0016753558843643902,0.0017183901711222884,-0.018786250908437004,0.010166643450968706,0.9840772191326812
2012-04-03,0,0.0,0.0,-0.01604572003545281,0.01004025631999424,0.985526988802141
2012-04-05,0,0.0,0.0,-0.021872775113537052,0.01004025631999424,0.9826348975930819
2012-04-10,0,0.0,0.0,-0.01604572003545281,0.01004025631999424,0.9859086849384341
2012-04-12,-1,-0.00021124332295201356,-0.00015902787458003047,-0.016536077056223467,0.01004025631999424,0.9855204530616297
2012-04-16,0,0.0,0.0,-0.016536077056223467,0.01004025631999424,0.9853088008499188
2012-04-18,0,0.0,0.0,-0.016536077056223467,0.01004025631999424,0.9859510814354507
2012-04-20,0,0.0,0.0,-0.016536077056223467,0.005543023924040387,0.9853923248354952
2012-04-24,0,0.0,0.0,-0.012319241282578476,0.01062227121764728,0.9848318356653887
2012-04-26,0,0.0,0.0,-0.012319241282578476,0.01004025631999424,0.9854435086719757
2012-04-30,0,0.0,0.0,-0.010565369295193621,0.01049519960828783,0.9856528356472981
2012-05-02,-1,-0.002477432730893175,-0.0019359604351745722,-0.012319241282578476,0.006062175499409779,0.9854355749436795
2012-05-04,-1,-0.005075913565804805,-0.004276962268818109,-0.010565369295193621,0.00647061897476487,0.9870528527955587
2012-05-08,-1,-0.0062343969367170664,-0.00522737794474561,-0.012319241282578476,0.009893265340044883,0.9823708456100001
2012-05-10,-1,-0.00593548800291382,-0.004978685292187028,-0.009450840039176445,0.009893265340044883,0.9828103599721708
2012-05-14,-1,-0.006318950694679174,-0.005335873542655177,-0.01355527581234972,0.010115790205788518,0.9808955180932338
2012-05-16,0,0.0,0.0,-0.015329456155640641,0.009269495047798374,0.9817932252010292
2012-05-18,0,0.0,0.0,-0.007582587397187808,0.010770050757930878,0.9832407260620805
2012-05-22,0,0.0,0.0,-0.007582587397187808,0.009269495047798374,0.9846841856717775
2012-05-24,0,0.0,0.0,-0.015329456155640641,0.009269495047798374,0.9832720849005916
2012-05-29,0,0.0,0.0,-0.015329456155640641,0.006355999384102265,0.9839896033896555
2012-05-31,0,0.0,0.0,-0.008184784394433488,0.007380967307504573,0.9847079860367369
2012-06-04,0,0.0,0.0,-0.008184784394433488,0.009269495047798374,0.9824407385157156
2012-06-06,-1,-0.00022932286442904707,-0.00021212735280551792,-0.005301445019485718,0.012658419786553314,0.9847935544360932
2012-06-08,-1,-0.009868330925805618,-0.008645453775747405,-0.008184784394433488,0.010121476256416153,0.9827503978863013
2012-06-12,0,0.0,0.0,-0.008184784394433488,0.008084598605626596,0.986018856944977
2012-06-14,0,0.0,0.0,-0.005301445019485718,0.015803198702928973,0.9828028720181945
2012-06-18,-1,-0.006679745680573378,-0.00585391943352016,-0.006286798841547432,0.013857475198384801,0.982022005317203
2012-06-20,-1,-0.006083198254658405,-0.0053262871306164455,-0.006286798841547432,0.014620695931442284,0.9809339417195763
2012-06-22,-1,-0.0073808984206320625,-0.006475475719337032,-0.006286798841547432,0.014620695931442284,0.9805287986941313
2012-06-26,0,0.0,0.0,-0.008374332438609288,0.014620695931442284,0.9810778334042224
2012-06-28,-1,-0.007015837255799288,-0.006222644918908095,-0.008374332438609288,0.01838070056306161,0.9781329486545258
2012-07-02,0,0.0,0.0,-0.01047914822410005,0.015818512145209906,0.9825097066910263
2012-07-05,0,0.0,0.0,-0.015017646539567874,0.01087292446023868,0.9839872461605288
2012-07-09,-1,-0.0035250761051530285,-0.003322657225918927,-0.010723227390794163,0.014803124581296059,0.9832153480516844
2012-07-11,-1,-0.004332625290726809,-0.004027248432923623,-0.010575374166447266,0.015818512145209906,0.982365180128374
2012-07-13,0,0.0,0.0,-0.01530632436660952,0.010668314455451225,0.9861822331601782
2012-07-17,0,0.0,0.0,-0.01530632436660952,0.010668314455451225,0.9866396775950714
2012-07-19,0,0.0,0.0,-0.01530632436660952,0.010983705969238384,0.9875899400615836
2012-07-23,0,0.0,0.0,-0.014622440813835997,0.014803124581296059,0.9873932094260839
2012-07-25,1,0.0012758538635952823,0.0016929632122147753,-0.010396697390305057,0.014803124581296059,0.9889907058412629
2012-07-27,1,0.0021423392610745683,0.0026470178953299957,-0.010396697390305057,0.010983705969238384,0.9893819923313188
2012-07-31,1,0.0014524087206203547,0.0018842084945826605,-0.007514585185363181,0.010983705969238384,0.990046033592588
2012-08-02,1,0.0014679793888684582,0.0019110692386952563,-0.007514585185363181,0.010983705969238384,0.9899601787423322
2012-08-06,1,0.001741383414652552,0.0022385343863435625,-0.00620310532704749,0.007318191715990569,0.9907825359166837
2012-08-08,1,0.0018137466385901837,0.0022980066966809187,-0.00620310532704749,0.003763263897767189,0.9908864718919662
2012-08-10,1,0.001716027867027543,0.0022278893450155116,-0.005019347037551431,0.003763263897767189,0.9918512037689703
2012-08-14,1,0.002157543274209482,0.0027507949639256563,-0.005019347037551431,0.006530296784919263,0.9915698966252711
2012-08-16,1,0.0036528270162981516,0.004481332758527222,-0.005019347037551431,0.004963275976765351,0.9905923663091435
2012-08-20,1,0.0039429769962933325,0.004803537501333197,-0.005995354770765179,0.0037581440198654055,0.9907019415982082
2012-08-22,1,0.004021997262875424,0.004891080703572224,-0.005995354770765179,0.004963275976765351,0.9908351237080036
2012-08-24,1,0.005005220577418592,0.005986039477593068,-0.006193270249978699,0.0043722796160364785,0.9903797019500773
2012-08-28,1,0.004512879710211003,0.00541852485934305,-0.006193270249978699,0.0043722796160364785,0.9901750560251785
2012-08-30,1,0.0025139006076800867,0.003005754134076491,-0.005672280430999111,0.004865304579124038,0.9923342839290359
2012-09-04,1,0.003052033139444626,0.0036365444887664186,-0.006193270249978699,0.004865304579124038,0.990455960032783
2012-09-06,1,0.0018780347752322213,0.0022793387747328054,-0.005672280430999111,0.004865304579124038,0.9918317589922782
2012-09-10,1,0.0021692299066503728,0.0026279664529658365,-0.006193270249978699,0.004865304579124038,0.9912591868902494
2012-09-12,1,0.002453081669045065,0.0029442168441919676,-0.006842581486742412,0.0043722796160364785,0.9893908002601665
2012-09-14,1,0.0029373940621341375,0.003388962175917577,-0.008081420053063818,0.0037928087588444794,0.9860384747861283
2012-09-18,1,0.002425809681281547,0.0028443692419548063,-0.008081420053063818,0.004528107209510418,0.9865623151182581
2012-09-20,1,0.002828329898020837,0.003280146170319457,-0.011169750376110947,0.0039751103552705894,0.9855371111478113
2012-09-24,1,0.0028236330641205256,0.0033098465600078014,-0.01277349487161302,0.005332787359545854,0.9845078369785842
2012-09-26,0,0.0,0.0,-0.011169750376110947,0.005332787359545854,0.9850940547512693
2012-09-28,1,0.0008394956265907733,0.0009690016172106379,-0.01277349487161302,0.00457890012118671,0.9844874432328878
2012-10-02,1,0.0017386049769948122,0.001993002331347908,-0.01277349487161302,0.005819685197117697,0.9845674448090445
2012-10-04,0,0.0,0.0,-0.014276425884666322,0.005819685197117697,0.9829081717223653
2012-10-08,0,0.0,0.0,-0.014276425884666322,0.005819685197117697,0.982869616033311
2012-10-10,0,0.0,0.0,-0.014198437867328658,0.0077290671012090525,0.9835928135012213
2012-10-12,0,0.0,0.0,-0.014198437867328658,0.005711472633485865,0.9872302423233068
2012-10-16,0,0.0,0.0,-0.015090875036172855,0.0077290671012090525,0.9858432771548551
2012-10-18,0,0.0,0.0,-0.014198437867328658,0.0077290671012090525,0.9865385001673227
2012-10-22,0,0.0,0.0,-0.013609566473803698,0.005215360755883828,0.9874934020583604
2012-10-24,-1,-0.003610781368681394,-0.0032164889736027713,-0.013609566473803698,0.0077290671012090525,0.9879651763291337
2012-10-26,0,0.0,0.0,-0.013125464580634504,0.0077290671012090525,0.9880985941522564
2012-11-01,0,0.0,0.0,-0.013125464580634504,0.005026425200967862,0.9882846490956547
2012-11-05,0,0.0,0.0,-0.010115608812335414,0.0069279134089704295,0.9898665985274304
2012-11-07,0,0.0,0.0,-0.010181109311650973,0.0069279134089704295,0.9894181230290673
2012-11-09,0,0.0,0.0,-0.00895551890919927,0.007177875928917174,0.9900230482841966
2012-11-13,0,0.0,0.0,-0.004630207117628517,0.0087343470044165,0.989952442898437
2012-11-15,1,0.000947346653811694,0.0013286320497670112,-0.0021019661609850116,0.007177875928917174,0.9925000263931898
2012-11-19,-1,-0.004759374264042472,-0.003928449102632679,-0.0021019661609850116,0.0087343470044165,0.9893111405980541
2012-11-21,-1,-0.003908603560719589,-0.0032679035357495497,-0.0009385906702139756,0.009727806510492855,0.9893621463980861
2012-11-26,-1,-0.00330568914378875,-0.0027459468719822047,-0.0009385906702139756,0.012126772078127734,0.9887805019720355
2012-11-28,-1,-0.0023220652150050536,-0.001972192337612408,-0.0009385906702139756,0.012126772078127734,0.9891202216357444
2012-11-30,-1,-0.0022474111841510004,-0.0018724377398458831,-0.0009385906702139756,0.01055454519549162,0.9903948866358655
2012-12-04,0,0.0,0.0,-0.0009385906702139756,0.012126772078127734,0.9903030010116418
2012-12-06,0,0.0,0.0,-0.0009385906702139756,0.012126772078127734,0.9911027702136054
2012-12-10,0,0.0,0.0,-0.001251328579019899,0.012126772078127734,0.9913304812198207
2012-12-12,0,0.0,0.0,-0.0029402569072687554,0.01055454519549162,0.9913903483212051
2012-12-14,1,0.0004591006464385307,0.0005754043454376342,-0.0029402569072687554,0.011830545449185433,0.9910607202095015
2012-12-18,1,0.0008342127205722611,0.000946416300811784,-0.0029402569072687554,0.008090290164382482,0.992492341544258
2012-12-20,1,0.0014586647022770487,0.0017255874789177598,-0.00341171510853126,0.008090290164382482,0.9906628953284533
2012-12-24,1,0.0017395389070019665,0.0019897886678491654,-0.004688322043698866,0.008090290164382482,0.9906505047324057
2012-12-27,1,0.001458202875157492,0.001655736170638196,-0.00341171510853126,0.008722286795444107,0.9910849313987704
2012-12-31,1,0.0017284614454275405,0.0019763807162313215,-0.0026597080204011792,0.008167996692162695,0.991200982613819
2013-01-03,1,0.0023120131686005154,0.0026432368736219276,-0.0026597080204011792,0.008167996692162695,0.9912786577031116
2013-01-07,1,0.0021065659786839858,0.0023726801138796347,-0.002768487672126092,0.008696526558792009,0.9901881619959371
2013-01-09,1,0.0018764096657250652,0.0021214199625570196,-0.0028449606124335714,0.008696526558792009,0.9901742166150115
2013-01-11,1,0.0015703768574499848,0.0018167431460764786,-0.002163142117925913,0.01062240638946954,0.9906471884928157
2013-01-15,1,0.001908691839284285,0.0021973799858260178,-0.002163142117925913,0.011921624845780104,0.9902795160994432
2013-01-17,1,0.001298916563503814,0.00151248845391011,-0.002163142117925913,0.011921624845780104,0.9898755500685948
2013-01-22,1,0.002433409895837734,0.002835370143589181,-0.002163142117925913,0.009440432315901784,0.9915368690473908
2013-01-24,1,0.0026561332127356145,0.003060733284619434,-0.002163142117925913,0.009440432315901784,0.9910365887400951
2013-01-28,1,0.0026540056184497776,0.0030141822777567107,-0.0028449606124335714,0.009440432315901784,0.990458877522108
2013-01-30,1,0.0028229066087077626,0.0032195568454465888,-0.005468606099424409,0.01040520539530701,0.9890181522936278
2013-02-01,1,0.0032484191644360713,0.00365834216848571,-0.005468606099424409,0.009440432315901784,0.9897851312565823
2013-02-05,1,0.002791706446000663,0.003134254181074948,-0.004445096373656595,0.008277725350106003,0.9905572563447229
2013-02-07,1,0.0026742180036782954,0.0030215411008503107,-0.004513648929139085,0.008765226478117564,0.9905190899002072
2013-02-11,1,0.0036687950904122986,0.004209103878182992,-0.005746900016823891,0.008123114420814401,0.9902750917669509
2013-02-13,1,0.0038917371178406575,0.0044070244923274365,-0.005746900016823891,0.005847983113499566,0.9906851177619586
2013-02-15,1,0.004284885154996235,0.004882772956566704,-0.007112855361718061,0.0023843889366855983,0.9898316652734912
2013-02-20,1,0.003465194580249042,0.003924471546260296,-0.005130068696710339,0.003548230165936397,0.9910328355747235
2013-02-22,1,0.002613848819436346,0.0028900446435063897,-0.005130068696710339,0.003548230165936397,0.991254911312348
2013-02-26,1,0.002345719783218234,0.0026163408544361837,-0.005130068696710339,0.003548230165936397,0.9909424304329578
2013-02-28,1,0.0029947218894082186,0.003400398101741111,-0.004513648929139085,0.003548230165936397,0.9919679695877058
2013-03-04,1,0.0032553062070898482,0.0036991052790352596,-0.005130068696710339,0.003548230165936397,0.9901810886583492
2013-03-06,1,0.002633896681666455,0.0029833801964548037,-0.007112855361718061,0.005719097189635365,0.9891207159469673
2013-03-08,1,0.0020873962197660353,0.002276471298708705,-0.007112855361718061,0.00731324940552331,0.9886271151853381
2013-03-12,1,0.0024909917447876366,0.0027938771752347162,-0.00963207009548296,0.0125457742157455,0.9871963528054895
2013-03-14,1,0.0022333764249878483,0.00248962824517172,-0.009646040996220902,0.014351351987219612,0.986442443317247
2013-03-18,1,0.0017317431670541407,0.0019118708365308125,-0.019813059642633024,0.015148218572523077,0.9845284776159784
2013-03-20,1,0.0021435889824915058,0.002362479276584651,-0.022828603363833237,0.014512346147364946,0.9830773813440831
2013-03-22,1,0.0018460766928644374,0.001988484088926754,-0.022828603363833237,0.014512346147364946,0.9838299332831393
2013-03-26,1,0.0009915265325463841,0.0010071058400821457,-0.016559607214645545,0.014512346147364946,0.9842377567063767
2013-03-28,1,0.001649124999673415,0.0018265391031838118,-0.016559607214645545,0.01233381674069279,0.9847640843188424
2013-04-02,1,1.4106179040992701e-05,0.00011253916169981206,-0.014686680164719083,0.01233381674069279,0.9849269961389076
2013-04-04,-1,-0.0005670469164453449,-0.00037463247823892303,-0.014686680164719083,0.011264622400307317,0.9857940628070531
2013-04-08,-1,-0.0004385909687007435,-0.00023700257738175422,-0.014686680164719083,0.010099623141020786,0.9869659358780092
2013-04-10,-1,-0.001893221414905604,-0.0014860168429416487,-0.008329226998673056,0.010099623141020786,0.988202298891085
2013-04-12,-1,-0.0017240850025683847,-0.0013319354095246367,-0.006527131448451597,0.010099623141020786,0.9867190948939436
2013-04-16,-1,-0.0017907112510811825,-0.001386792147312024,-0.0033011740098493635,0.010099623141020786,0.988099588737956
2013-04-18,-1,-0.0037874448134305656,-0.0031150477419157525,-0.0021654552519188683,0.010099623141020786,0.9878433873032347
2013-04-22,-1,-0.002566802221906112,-0.0020502423470983608,-0.0033011740098493635,0.007462291597071684,0.9895113468780449
2013-04-24,-1,-0.0022593824367337315,-0.0017680084939265407,-0.004600237392622805,0.0066093904416282935,0.989201951210481
2013-04-26,-1,-0.002172514569674505,-0.0017117572647692783,-0.004600237392622805,0.01058939576005762,0.9885046783250748
2013-04-30,-1,-0.0023958226994078595,-0.0019236277894395658,-0.00376306953169004,0.00810242604122019,0.9893642191319194
2013-05-02,-1,-0.0034854361493072564,-0.0028602500750533307,-0.003746466490351654,0.010730368412720194,0.9895597592347708
2013-05-06,-1,-0.003632271178029077,-0.0029860500037563725,-0.004062048718277997,0.010730368412720194,0.9889259207492705
2013-05-08,-1,-0.003056374480149941,-0.0025038313395777203,-0.004550428268607647,0.006656381325849151,0.9869645813534277
2013-05-10,-1,-0.0014884594751909761,-0.0011228940918936363,-0.004550428268607647,0.006155920806822104,0.9885849403572683
2013-05-14,-1,-0.0002801302668875062,-0.00010659359736469302,-0.0076414324172456236,0.0040233959394569575,0.988863416911606
2013-05-16,-1,-0.001049105985428353,-0.0007958949190762323,-0.0076414324172456236,0.006155920806822104,0.9884240051029892
2013-05-20,-1,-0.0005480287675599352,-0.00040121766426911426,-0.010798385043997966,0.005066196902965975,0.9881122395491043
2013-05-22,-1,-0.0006660155659175252,-0.0004969846636731145,-0.013245794253429888,0.0026192414693698577,0.9876562947551346
2013-05-24,1,6.634566483960323e-05,0.00014288319335432773,-0.013245794253429888,0.002497898359392828,0.9879356850820609
2013-05-29,1,0.0004391227724881245,0.0004416751645415044,-0.013245794253429888,0.0037175752049160757,0.9872137044948158
2013-05-31,1,0.00033984059645191276,0.0003549320475378865,-0.016391144978228807,0.0037175752049160757,0.9858904022842692
2013-06-04,-1,-0.0007078394557181694,-0.0005578220992369909,-0.013245794253429888,0.0037175752049160757,0.987174402684767
2013-06-06,-1,-0.003058136951533899,-0.0026003015021923486,-0.01176692515372902,0.0080164983831252,0.9888844505657021
2013-06-10,-1,-0.0021961706867429853,-0.0018558770982611504,-0.01176692515372902,0.0080164983831252,0.9885227429446887
2013-06-12,0,0.0,0.0,-0.01176692515372902,0.011963547256448968,0.9872225212092303
2013-06-14,0,0.0,0.0,-0.010597728345770826,0.01167174513213922,0.9882130864028091
2013-06-18,0,0.0,0.0,-0.005278782554536848,0.01167174513213922,0.9888386143327186
2013-06-20,0,0.0,0.0,-0.002070135250555004,0.01167174513213922,0.9903208106947172
2013-06-24,-1,-0.0030570566660295608,-0.002675318720909863,-0.003772977715622541,0.01167174513213922,0.9894566001271671
2013-06-26,-1,-0.001959282745330993,-0.001747362607096666,-0.006118387385188889,0.01167174513213922,0.9888508972761659
2013-06-28,-1,-0.002359977187057636,-0.0020869613323145192,-0.003772977715622541,0.009843371205341834,0.9896869228870155
2013-07-02,-1,-0.002461597541488902,-0.0021670636020619423,-0.003772977715622541,0.012750162044777828,0.9876764216580181
2013-07-05,-1,-0.0020002339292818565,-0.001791390687699533,-0.002070135250555004,0.015020457087586632,0.9875312845916574
2013-07-09,-1,-0.00044920640067353597,-0.0004343446996564607,-0.005190727902681842,0.012750162044777828,0.9883211780961471
2013-07-11,-1,-0.00045310251414015,-0.00041783016992953887,-0.005190727902681842,0.010033543203191416,0.9890879755042826
2013-07-15,-1,-0.00040651201971458054,-0.0003801356664240962,-0.006118387385188889,0.008590382964584652,0.9890599309561307
2013-07-17,-1,-0.0004989579977984718,-0.0004971631414303233,-0.008545253956392874,0.008590382964584652,0.9885466976055574
2013-07-19,-1,-0.0008147504260907963,-0.0007606110179799567,-0.011935501303308872,0.008590382964584652,0.9874669851677013
2013-07-23,-1,-0.0005553636025546168,-0.0005530798077117658,-0.01432432360223745,0.010541444122281281,0.9864245022881089
2013-07-25,-1,-0.0005212251209265489,-0.0005011542557735951,-0.011450439809180611,0.010541444122281281,0.9875957267801486
2013-07-29,-1,-0.00017578723715464033,-0.0001266126707484912,-0.011450439809180611,0.00597336460463416,0.9881225154847587
2013-07-31,1,0.0010857648089534543,0.0013118970975659532,-0.01432432360223745,0.0009393391588481286,0.9886815519130306
2013-08-02,1,0.0016186551133117214,0.0018966754183331392,-0.01432432360223745,0.00027138912313367077,0.9884617466313463
2013-08-06,1,0.0008855093093274645,0.0010632351086218494,-0.011450439809180611,0.004789084145574185,0.9882444233413453
2013-08-08,-1,-8.761583511109956e-05,-5.106640150851361e-05,-0.011450439809180611,0.010740019254859198,0.9863688777953007
2013-08-12,-1,-0.00016809315274076057,-0.00010410897034839639,-0.010591972866050436,0.015531301713578277,0.9847784307046853
2013-08-14,-1,-0.00027315217470569547,-0.0002142142170908765,-0.009280003827904839,0.015531301713578277,0.9853614484554903
2013-08-16,-1,-0.0016062312086068083,-0.0014713348159634593,-0.005231107123161787,0.015531301713578277,0.9866874509245364
2013-08-20,-1,-0.0010367538995650508,-0.0009992211598529672,-0.0027196521015990243,0.015429053605887826,0.9874347679438242
2013-08-22,-1,-0.0012835933865190394,-0.0011695300380746637,-0.0030422089748479222,0.013772909183489399,0.9874618827573807
2013-08-26,-1,-0.0016329763733156986,-0.0014735470758119673,-0.003336608104762269,0.013772909183489399,0.9871249514374834
2013-08-28,-1,-0.001748070001958629,-0.0016092505458066586,-0.003144836935664425,0.013772909183489399,0.9874464556294126
2013-08-30,-1,-0.0023056424044610654,-0.002071744370317272,-0.001544359672311594,0.013772909183489399,0.9876217254832798
2013-09-04,-1,-0.0005072725223107097,-0.0004997601066671846,-0.001544359672311594,0.007118082227454307,0.9891065470024462
2013-09-06,1,0.0007243159354113162,0.0008685137979783667,-0.001544359672311594,0.005410896312371928,0.9923762586813772
2013-09-10,1,0.0015766605250734254,0.0017512681863436318,-0.006801060755272335,0.00431893433085046,0.993409813442616
2013-09-12,1,0.00175260667299166,0.0020058346604560793,-0.007861325362907774,0.005321319716433226,0.9895408648296548
2013-09-16,1,0.0020341684739933986,0.0023505222376521,-0.009510899577500852,0.005410896312371928,0.9884280746763318
2013-09-18,1,0.0023363960935119357,0.0026879812804242657,-0.009510899577500852,0.005410896312371928,0.9881213325299661
2013-09-20,1,0.0017858696141477362,0.0020539405273227846,-0.007861325362907774,0.005616406720671246,0.9886448523720813
2013-09-24,1,0.0012314273594847063,0.0013820357788574607,-0.007286011855614242,0.008571098144260353,0.9881096586918845
2013-09-26,1,0.001118844002354638,0.0012490179755723523,-0.009510899577500852,0.009493623827405656,0.9873072186425357
2013-09-30,1,0.0015786132164454627,0.0017910095146244091,-0.009510899577500852,0.01608239691037498,0.9861749482917186
2013-10-02,1,0.0030481789253133714,0.003547054950797753,-0.009510899577500852,0.009613463215030489,0.9866167714997407
2013-10-04,1,0.003112237885850728,0.0036486545045611857,-0.0101695047145751,0.009613463215030489,0.9859876667561603
2013-10-08,1,0.001572282587222712,0.00184859906038501,-0.009804923775594089,0.01608239691037498,0.9823928916376472
2013-10-10,1,0.0008776788540901382,0.0010525092246104798,-0.012815085141909861,0.009613463215030489,0.9837297626503163
2013-10-14,1,0.0010767437026512755,0.001291322914259542,-0.00989052605100403,0.00908517715727255,0.9841786234852541
2013-10-16,1,0.0018680373353311202,0.0022257621001726974,-0.011406244080330715,0.007404934238419411,0.9844455526366752
2013-10-18,1,0.0019863828585683697,0.0023558644224140907,-0.011406244080330715,0.007574914029294388,0.9844167851938564
2013-10-22,1,0.002595030729643448,0.0030726373807725806,-0.011406244080330715,0.007404934238419411,0.9843890323258487
2013-10-24,1,0.0018885895154864738,0.002232605304499866,-0.009750483076077811,0.007574914029294388,0.9845362952161617
2013-10-28,1,0.00190483932897073,0.002157974882631865,-0.011358291160562398,0.0058612400541606545,0.9851089252604066
2013-10-30,1,0.0022217991264749885,0.0025515395757242727,-0.011358291160562398,0.004049266493563823,0.985217647681279
2013-11-01,1,0.001230762002343742,0.0013912032655807804,-0.009750483076077811,0.0059113804574107975,0.9860707585841485
2013-11-05,1,0.0012360974143647233,0.0013953954530290533,-0.009750483076077811,0.004669906824542714,0.9903135779525828
2013-11-07,-1,-0.0007094648366180898,-0.0005914819747941877,-0.006442485105803667,0.0059113804574107975,0.9919957710079524
2013-11-11,-1,-0.0013171246614583788,-0.0010608571135319162,-0.00455617350489691,0.005506367255688245,0.9925877091023019
2013-11-13,-1,-0.0014565837892756253,-0.0011915399939088317,-0.007351312905023504,0.005506367255688245,0.9919915840400082
2013-11-15,-1,-0.0007010898282628186,-0.0005583793790234842,-0.007351312905023504,0.005506367255688245,0.9914866782093382
2013-11-19,-1,-0.0011106282619543382,-0.0008866044809081338,-0.00455617350489691,0.0076952408176195345,0.9908489683292949
2013-11-21,-1,-0.0008449774532726801,-0.0006927852637978444,-0.005899115503008406,0.005506367255688245,0.9897620919108232
2013-11-25,-1,-0.0012147439221595233,-0.0010207058409287776,-0.0037097916427489674,0.007428591755826851,0.9897994295253009
2013-11-27,-1,-0.0009483328907108587,-0.0008309644498411864,-0.0037097916427489674,0.011665168788636271,0.9888235707858434
2013-12-02,-1,-0.0004110062827103365,-0.00034234972701133485,-0.0037097916427489674,0.007428591755826851,0.9893355553165383
2013-12-04,-1,-0.0006706713307595613,-0.0005804780557431607,-0.004011897513292894,0.007428591755826851,0.9890894057803491
2013-12-06,-1,-0.00018628551051855005,-0.00015694289016954965,-0.006773210679592146,0.005799381294487646,0.9891912567596888
2013-12-10,1,0.00014673854248395656,0.00016162756134667462,-0.006773210679592146,0.007122690618159891,0.9887940501245899
2013-12-12,-1,-0.001120838725776565,-0.0009457594565709718,-0.0038714152485385188,0.012417672859340579,0.9885662398340594
2013-12-16,-1,-0.0006963820209845558,-0.0005724606313622944,-0.004787672964165654,0.012417672859340579,0.9866728390044058
2013-12-18,1,0.00040525287619348066,0.0004338167219550017,-0.004787672964165654,0.013801427074201632,0.9862545030912775
2013-12-20,1,1.326770340542903e-05,7.210132159015314e-05,-0.0034871650498347934,0.013801427074201632,0.9881080171553754
2013-12-24,1,0.000822507934490108,0.0010307333883084323,-0.005916830530577587,0.013801427074201632,0.9860653677339655
2013-12-27,1,0.00112872702279693,0.0013294922594888773,-0.007953181677940074,0.00963201808753591,0.9862230652601325
2013-12-31,1,0.0009226534890099162,0.0010287137752634271,-0.007953181677940074,0.00963201808753591,0.9863160430685151
2014-01-03,-1,-0.00015947097920299315,-0.0001007508211140462,-0.00853048375030311,0.00963201808753591,0.9858198581630397
2014-01-07,-1,-0.0008362061873328436,-0.000684620010362461,-0.0068785955523974355,0.013801427074201632,0.9851395103356949
2014-01-09,-1,-0.0011367777233056435,-0.0009153654504368107,-0.0068785955523974355,0.00963201808753591,0.9858060250529835
2014-01-13,-1,-0.0007014796385483957,-0.0005315505159226223,-0.0068785955523974355,0.00963201808753591,0.9863368677836621
2014-01-15,-1,-0.001021891942531448,-0.0008267262101235266,-0.0055557929663954,0.008255997045749443,0.9891181055699492
2014-01-17,-1,-0.0002318766146860557,-0.00010863970117529171,-0.0055557929663954,0.005069781139014428,0.9900847377515323
2014-01-22,-1,-0.0006646673003574223,-0.0004544746635332669,-0.0055557929663954,0.005069781139014428,0.9901807396893406
2014-01-24,-1,-0.002299152693788064,-0.0019118632958553103,-0.0035835747675825895,0.007254509218036577,0.9922853394312127
2014-01-28,-1,-0.0019194636993669848,-0.0016499517599907886,-0.002032943140867011,0.007254509218036577,0.9923209816535465
2014-01-30,-1,-0.002022088260785291,-0.001771643627107764,-0.002032943140867011,0.008286637191294043,0.9909152412450755
2014-02-03,-1,-0.0019225056633107374,-0.0017486564411357795,-0.001780222205029929,0.008286637191294043,0.9914211403243246
2014-02-05,-1,-0.0011849503662786972,-0.0010894717122608216,-0.001780222205029929,0.007457946043713498,0.9916886212700055
2014-02-07,-1,-0.0009942807879083917,-0.0009277196882945968,-0.001214118301918092,0.00879665097754997,0.9913199508571872
2014-02-11,-1,-0.0003437524343486493,-0.0003095133625278028,-0.001214118301918092,0.007457946043713498,0.9920608924990191
2014-02-13,-1,-0.0006886888351612774,-0.0006581274529406413,-0.001214118301918092,0.007457946043713498,0.9915591445240888
2014-02-18,-1,-0.0003944573877734265,-0.0003931615458266305,-0.001214118301918092,0.009673422689699283,0.9902972330292512
2014-02-20,-1,-0.00013319823319904794,-9.466944871511534e-05,-0.004431076954816751,0.008935698507069866,0.990287967112393
2014-02-24,1,0.00022457640216032467,0.00032867663843846884,-0.006274029824994228,0.007842901634109866,0.9903171564143505
2014-02-26,1,0.000713181181387364,0.0009154089654121166,-0.008446177206414296,0.007842901634109866,0.9900265110747941
2014-02-28,1,0.0011102793681502486,0.0013588059867740468,-0.006731956651903331,0.007842901634109866,0.9908767123300287
2014-03-04,1,0.0006131122962511223,0.0007595583061999949,-0.005126280745137254,0.01017261469879369,0.9910942804607397
2014-03-06,1,0.0018846963278568653,0.0021104824637082666,-0.005126280745137254,0.010472059232420776,0.9918640801318865
2014-03-10,1,0.0019123811280419925,0.0021682896643203872,-0.006731956651903331,0.010472059232420776,0.9912909838054051
2014-03-12,1,0.001980099899848966,0.002270135376767001,-0.006155614423550013,0.010472059232420776,0.991333024396686
2014-03-14,1,0.0016954883170604866,0.001961301773011153,-0.006278457911822664,0.010472059232420776,0.9906970280134588
2014-03-18,1,0.002500734292437695,0.0029075212191776107,-0.007635295478056055,0.01010733144723007,0.9913830893696688
2014-03-20,1,0.0018903930520050036,0.002193462160959722,-0.005386445857763945,0.01010733144723007,0.9922732481210368
2014-03-24,1,0.0018527605230183619,0.0021846780006356675,-0.004325401062631973,0.010607968701575628,0.9924356720508145
2014-03-26,1,0.0016227491441707259,0.0019234918778856004,-0.004325401062631973,0.010607968701575628,0.9923794412499177
2014-03-28,1,0.0016401421279646773,0.0019164877033525343,-0.0047776802513764365,0.010099338331592083,0.9920406113099833
2014-04-01,1,0.002386950032335959,0.0027703803577062472,-0.0047776802513764365,0.010099338331592083,0.9919003319364273
2014-04-03,1,0.0021303939497108243,0.0023844209799211732,-0.007852996477821818,0.003155085992021337,0.9921631476874099
2014-04-07,1,0.0016450448903440992,0.001844625085805482,-0.007852996477821818,0.003155085992021337,0.992352757793539
2014-04-09,1,0.001875195093691331,0.0020997716384693168,-0.007852996477821818,0.001100930874357396,0.9921046454791306
2014-04-11,1,0.0016288741184629176,0.001832692561907242,-0.0063202066712654765,0.002728210216450095,0.9925196087682342
2014-04-15,1,0.0012952939887940253,0.0014292100529277542,-0.007429919725089958,0.0014124446502919877,0.9923560869995829
2014-04-17,1,0.0014428790833709935,0.0016309172132815829,-0.007429919725089958,0.001507738052936498,0.9923338537353423
2014-04-22,1,0.0015318177591709544,0.0017047329357230924,-0.011503548437552991,0.001507738052936498,0.9915129193970004
2014-04-24,1,0.00097571799192743,0.0010622164968645124,-0.007429919725089958,0.0027628161958607395,0.9921403321534878
2014-04-28,1,0.001097003094744611,0.0012320944626777715,-0.0036999582357436535,0.005540711619836826,0.9927853774056342
2014-04-30,1,0.0012880118487088013,0.001430481972285931,-0.004931513485900721,0.005540711619836826,0.9928305138486775
2014-05-02,1,0.0008384376085000813,0.0009384416686771886,-0.003284069035370053,0.006316641764679873,0.9931674328587451
2014-05-06,1,0.0005201644936850816,0.0005884537573324308,-0.0014282226148331011,0.007094118336043207,0.9936698086535137
2014-05-08,-1,-0.0001762942432370428,-0.00011122427288003407,-0.0003054865603782688,0.007094118336043207,0.9932808600670655
2014-05-12,1,0.0007463885109874666,0.0008208333287236732,6.176497794634713e-06,0.007094118336043207,0.993986573413307
2014-05-14,1,0.00039966219209302574,0.00047295240707002467,6.176497794634713e-06,0.007094118336043207,0.9940143324519356
2014-05-16,-1,-0.0002606863997776893,-0.00016502007279909899,-0.0014282226148331011,0.007094118336043207,0.9936558594261098
2014-05-20,-1,-0.0005278637426745505,-0.0004128308084305045,-0.0012122169452214923,0.006316641764679873,0.9946236366560217
2014-05-22,1,6.414547792093825e-05,7.671425372981258e-05,-0.0014282226148331011,0.007060868422515454,0.9945891531438391
2014-05-27,1,0.00043585822358931353,0.0004727618309799572,-0.0022413579483126487,0.006296527157160997,0.9944770221877947
2014-05-29,1,0.00015112731483975274,0.00018486925064520172,-0.002013842948367269,0.0053061165715813105,0.9948424605959051
2014-06-02,0,-4.984484668815227e-05,2.9913675745889403e-05,-0.0021570440222076527,0.005112393677681485,0.9948965224123831
2014-06-04,1,0.00042571954037032864,0.0004289731964152232,-0.0026709611698337997,0.003836237325955179,0.9951465106132831
2014-06-06,1,0.0008894832909276328,0.0009771027573858859,-0.00302253067592792,0.003284691563441294,0.9945785249428739
2014-06-10,1,0.00114941095258923,0.001223914870884165,-0.004337188503374721,0.0026369903496683434,0.9942492095877475
2014-06-12,1,0.001002607100179585,0.001115983549049291,-0.005516246673765765,0.0026369903496683434,0.9923643125390651
2014-06-16,1,0.0007011097418127858,0.0007736703233022768,-0.010172124425964518,0.0026369903496683434,0.9913943155995242
2014-06-18,-1,-0.00024151016163079556,-9.559332049435311e-05,-0.010821258485046434,0.001829787733935097,0.99087597195179
2014-06-20,-1,-0.000563939014470672,-0.0003593541400427208,-0.010821258485046434,0.001829787733935097,0.9907646491198735
2014-06-24,-1,-0.00137583527473966,-0.001063958571494831,-0.01011540182710401,0.001829787733935097,0.9913601315123023
2014-06-26,-1,-0.0019337981421079457,-0.0014988901193497446,-0.01011540182710401,0.0038163173229610902,0.991144133288792
2014-06-30,-1,-0.0012973066624415155,-0.0009907942338842905,-0.01011540182710401,0.0011374850186523647,0.9911547851213734
2014-07-02,-1,-0.0015330921806962139,-0.0012011829004071402,-0.010821258485046434,0.0006665550197425664,0.9908738575355052
2014-07-07,-1,-0.0010399368025798866,-0.0007878807661461576,-0.010821258485046434,0.0006665550197425664,0.9910308238013784
2014-07-09,-1,-0.0018091158185048837,-0.0014500017778114318,-0.011470083029429593,0.0039283680657504864,0.990791612273872
2014-07-11,-1,-0.0033111346064788934,-0.002793142806292292,-0.008643524935625422,0.0061188160778107925,0.9927014371537166
2014-07-15,-1,-0.0041466591892230665,-0.0035475319701782563,-0.005893937774760087,0.007762920907677523,0.9924898143556646
2014-07-17,-1,-0.004018346919769834,-0.003446120268342025,-0.005893937774760087,0.007762920907677523,0.9923130973626912
2014-07-21,-1,-0.003919714662012883,-0.0033694887755011185,-0.005893937774760087,0.009097868957188941,0.990885497598751
2014-07-23,-1,-0.0036786594716742573,-0.003189555240209166,-0.004080469320796972,0.009097868957188941,0.9901879785370735
2014-07-25,-1,-0.003477334917312834,-0.002996634897109101,-0.004080469320796972,0.008773774446833539,0.9905760200890487
2014-07-29,-1,-0.002807676470445706,-0.002465219482567585,-0.004080469320796972,0.008773774446833539,0.990459468914134
2014-07-31,-1,-0.0028898707961496502,-0.0025613193847400374,-0.004080469320796972,0.008773774446833539,0.9906330681918682
2014-08-04,-1,-0.0025720650429945802,-0.002280292924885666,-0.0025656318603876605,0.006469883653416192,0.9912369460715778
2014-08-06,-1,-0.0030656927156723717,-0.002703054581783638,-0.0020418515769424616,0.009369805901437007,0.9897230702116345
2014-08-08,-1,-0.0018165379861157654,-0.0016674345243018803,-0.002504331026845848,0.006469883653416192,0.99075882409083
2014-08-12,-1,-0.0015849962132964618,-0.0014409297231879508,-0.0041537709055313385,0.005290930187783655,0.9910865005738797
2014-08-14,-1,-0.0018507338328269687,-0.0016568525743183582,-0.006456244190781803,0.004273828435741972,0.9918460556376133
2014-08-18,-1,-0.002022463111544323,-0.0017962145041204576,-0.0041537709055313385,0.0039124191349744,0.9938426087995371
2014-08-20,-1,-0.0013718588185455721,-0.0012399915952506933,-0.0041537709055313385,0.0034381826561827424,0.9940686086432777
2014-08-22,-1,-0.0008208084459424217,-0.0007802118748039211,-0.006456244190781803,0.0018171106494776063,0.9938666411238555
2014-08-26,-1,-0.00021422758842277269,-0.0001333413424797854,-0.006456244190781803,0.0019672282159859562,0.9928611491944904
2014-08-28,-1,-0.0007279302095291857,-0.0007147049664700565,-0.006456244190781803,0.0039124191349744,0.9917049136484257
2014-09-02,-1,-0.00046458306635006804,-0.0004224393840188877,-0.006604330156722828,0.0039124191349744,0.991258819677038
2014-09-04,1,0.0009386494576330691,0.0011415602224280168,-0.006968409612308391,0.0012996522575432208,0.9914423413386645
2014-09-08,1,0.00023205116361994593,0.0003457782954958003,-0.006604330156722828,0.005144920758238075,0.9918987072732727
2014-09-10,1,0.00025272565102081894,0.00036729605441885286,-0.006968409612308391,0.0072828736030594214,0.990045941076645
2014-09-12,1,0.00010771770544015373,0.00023095775154910876,-0.009537335980562608,0.0072828736030594214,0.9872287985351943
2014-09-16,1,2.4213575560925397e-05,0.00011355350610394371,-0.015585250038423707,0.0072828736030594214,0.9855917343587081
2014-09-18,1,0.0002728478976256545,0.00038932028723175354,-0.015585250038423707,0.005144920758238075,0.985717484489191
2014-09-22,1,9.477393248147277e-05,0.00021473220475168135,-0.012363067611298973,0.0075587859383494755,0.9857824343811951
2014-09-24,1,0.0003094581166056038,0.00042671477116030697,-0.024157696527221193,0.0075587859383494755,0.984192483515868
2014-09-26,-1,-0.00030512335942900574,-0.00029579870153453674,-0.012458319207887363,0.008365945385320974,0.9845656502895004
2014-09-30,-1,-0.0008614758804959765,-0.0007962627917240883,-0.012458319207887363,0.012331144089537312,0.984067695410054
2014-10-02,1,0.00018467740858426414,0.0002915903245886559,-0.013021739250893456,0.008365945385320974,0.984872161141627
2014-10-06,0,-3.059605516161902e-05,4.0047002473021575e-06,-0.013021739250893456,0.012331144089537312,0.9844037025458628
2014-10-08,1,0.00028434037244048064,0.00037585946355546044,-0.00596396158613591,0.008365945385320974,0.9862879776001392
2014-10-10,-1,-0.0021276047481469953,-0.0019097217055001788,-0.003947412507943442,0.01059665983030145,0.9886405824402615
2014-10-14,-1,-0.0030591778963590323,-0.002745013477910518,-0.0029514047980991834,0.01059665983030145,0.9896827999635809
2014-10-16,-1,-0.0028028317230302576,-0.0025420420262290033,-0.0022774778209405664,0.01059665983030145,0.9892810028624658
2014-10-20,-1,-0.00213205931089407,-0.0019601859093128044,-0.004076641114101074,0.010616277257995002,0.9895468697119171
2014-10-22,-1,-0.001991970089580396,-0.0018455649316604509,-0.0022774778209405664,0.010582624543715915,0.9917438567071696
2014-10-24,-1,-0.0007453674477553391,-0.0007300624883887902,-0.0022774778209405664,0.007650911489021276,0.9929106754245612
2014-10-28,1,8.17430945424578e-05,0.00022812295070991225,-0.0013499243271574554,0.0055915125015949365,0.994164840136571
2014-10-30,1,0.0001708766262652784,0.00035677191077770193,-0.0013410069634918018,0.0055915125015949365,0.9947265923667289
2014-11-03,1,0.0004051899759432195,0.0005951163184885802,-0.001994360755512889,0.0055915125015949365,0.9943987826337178
2014-11-05,1,0.0007112696708204122,0.0009395808291325471,-0.001994360755512889,0.008231119169853064,0.9929423091701592
2014-11-07,1,0.001069894419550904,0.0013613059987641236,-0.001994360755512889,0.008231119169853064,0.9925907660750735
2014-11-11,1,0.001048229159611505,0.0013417170985476606,-0.003280794099811962,0.008231119169853064,0.992089276994532
2014-11-13,1,0.0007668925433762795,0.0009917470447286703,-0.003721212666617392,0.008382826470505427,0.991290660244535
2014-11-17,1,0.0009164821761665056,0.0011751682038241272,-0.005678989412472275,0.008231119169853064,0.9915688231153901
2014-11-19,1,0.0012882517585714424,0.0016008154800595908,-0.005678989412472275,0.008382826470505427,0.9904192733011199
2014-11-21,1,0.001487802461943027,0.0018213609675754425,-0.005678989412472275,0.00893611842706627,0.9898378373640082
2014-11-25,1,0.0018433761747649194,0.0022424718204456795,-0.005678989412472275,0.00893611842706627,0.9898248288038065
2014-11-28,1,0.0015371644044512413,0.0018713707733952676,-0.005678989412472275,0.00893611842706627,0.9896054253351249
2014-12-02,1,0.000793190988254061,0.0009530109085781844,-0.005678989412472275,0.008605063956880338,0.9900082687958073
2014-12-04,1,0.0014338391450691274,0.0016275148935676674,-0.007948355885851167,0.008326966083101576,0.9906630225910545
2014-12-08,1,0.0014200356308959655,0.0016106099424143356,-0.007948355885851167,0.008226214391028662,0.9906636030327473
2014-12-10,1,0.0009467551119656837,0.0010723090422143783,-0.007951413849440715,0.008326966083101576,0.9898259389025394
2014-12-12,1,0.00048236161718936087,0.0005316654441865089,-0.00689706124058571,0.008226214391028662,0.9906536889194635
2014-12-16,1,0.00032123606771304917,0.00037144340909379156,-0.011454072751811279,0.008226214391028662,0.9892328205576543
2014-12-18,1,0.001417896131787754,0.0016030972344692087,-0.011454072751811279,0.005674558085858842,0.989210491494173
2014-12-22,1,0.0017273556869734845,0.0019270469809075852,-0.011454072751811279,0.005758036992301561,0.9892006187372419
2014-12-24,1,0.0017640656957584188,0.0019773832655850896,-0.011454072751811279,0.005758036992301561,0.9887743987653285
2014-12-29,1,0.0017454502207438505,0.001931514854331045,-0.01486439335641984,0.003690775233345844,0.9876131111109042
2014-12-31,1,0.0013914896463204525,0.0015470914412801617,-0.01486439335641984,0.005066861671144789,0.987628475709374
2015-01-05,1,0.0009875079583291015,0.0011114292647812507,-0.013524959292897204,0.0109253915981864,0.9874393173057172
2015-01-07,1,0.00024176291483514443,0.0002605242191160557,-0.013524959292897204,0.0109253915981864,0.9846522942929482
2015-01-09,1,0.00039819045493856374,0.00043061290300331197,-0.013524959292897204,0.007580936757966635,0.9858805081565737
2015-01-13,1,0.000590303128140677,0.000667275179287068,-0.013524959292897204,0.007580936757966635,0.9858232209926395
2015-01-15,-1,-0.0006286418072468888,-0.0005621559724975381,-0.004901544321314882,0.007580936757966635,0.9875016339119674
2015-01-20,1,0.0004204252268013599,0.00048789045275124995,-0.004901544321314882,0.007580936757966635,0.9885226045781265
2015-01-22,1,0.0009429099651760116,0.0010595695488719195,-0.005140101362883469,0.005975635626189088,0.9891929172616902
2015-01-26,1,0.0005591551088417438,0.0006223595664445797,-0.008742588897715323,0.005975635626189088,0.9888142479699317
2015-01-28,1,0.0005120821409651686,0.0006602450867353578,-0.0046132750363375155,0.006280729087693079,0.9897440349483494
2015-01-30,1,4.8795001146843304e-06,4.794472739814485e-05,-0.0046132750363375155,0.006280729087693079,0.9897892759830462
2015-02-03,1,0.0009634931710638236,0.0011332403574084592,-0.007878906229563136,0.0034201271961207744,0.9890394796045487
2015-02-05,-1,-0.001676543038238687,-0.0014962994475923317,-0.005711865664768357,0.005975635626189088,0.9925828046984874
2015-02-09,-1,-0.0014964519538153147,-0.0013425050126631016,-0.006777829215052875,0.005975635626189088,0.9922598019955786
2015-02-11,-1,-0.0012808678588225077,-0.0011694347012803437,-0.005540360521650575,0.006576078183729341,0.9919445181764683
2015-02-13,-1,-0.0012592755928935236,-0.0011285809166724505,-0.005540360521650575,0.007851763842238424,0.9915694521245924
2015-02-18,-1,-0.0004722155090370211,-0.0004576946696289943,-0.005540360521650575,0.007851763842238424,0.9901859910686484
2015-02-20,-1,-0.0009644735718290331,-0.0008713727351080283,-0.007171763281195156,0.007851763842238424,0.9900558338528398
2015-02-24,-1,-0.0017028470072807996,-0.0015013630871623833,-0.005540360521650575,0.007851763842238424,0.9905998016046706
2015-02-26,-1,-0.001252990722475707,-0.0011357335263652095,-0.00906070842798998,0.006551381141405782,0.9901849949406459
2015-03-02,-1,-0.001464702639536848,-0.0013329775292931312,-0.007463057165217741,0.009163768706428984,0.9898507398618753
2015-03-04,-1,-0.0026034215499384505,-0.0023477593790094805,-0.0067034220332759555,0.009163768706428984,0.9913391988683364
2015-03-06,-1,-0.0033836666001252685,-0.0029236348903964983,-0.0067034220332759555,0.006551381141405782,0.9923338143841788
2015-03-10,-1,-0.003892770894333883,-0.003321253742765637,-0.0073991506755478175,0.004546033166138287,0.9920815839176578
2015-03-12,-1,-0.0036340862073958,-0.0030856844829533076,-0.008676361439965575,0.003051242144121731,0.9926164019431387
2015-03-16,-1,-0.003095325262961364,-0.002632304315203734,-0.008676361439965575,0.003051242144121731,0.9908872059995065
2015-03-18,-1,-0.0019086526165400478,-0.0015886216207192639,-0.008941815614834963,0.0006747150679511881,0.991934227939816
2015-03-20,-1,-0.0018822100260491512,-0.0016076980343935061,-0.009438511585184278,0.002143205999702267,0.991493444252874
2015-03-24,-1,-0.0014683443570508736,-0.0012692788816004146,-0.009438511585184278,0.003647965412075769,0.9905739094644274
2015-03-26,-1,-0.0022138734134098245,-0.0019183337275976704,-0.008750096145825196,0.006748978214298259,0.9905442548825562
2015-03-30,-1,-0.001625656502967469,-0.0014219915327434948,-0.008750096145825196,0.0075979825428766825,0.9901075181345221
2015-04-01,-1,-0.0018378419745986355,-0.0016249176939545115,-0.009484296179203381,0.007806071366110863,0.9896982039489193
2015-04-06,-1,-0.0017756665204494433,-0.0015782828861701777,-0.009484296179203381,0.007806071366110863,0.9892423830122937
2015-04-08,-1,-0.0022642658067183103,-0.0020072290589954445,-0.009484296179203381,0.007806071366110863,0.9884508811096292
2015-04-10,-1,-0.0025883942352568734,-0.0022926781013447874,-0.008777411231872301,0.008786328825097714,0.9872824719487997
2015-04-14,-1,-0.0009332187067055664,-0.0008336558438887998,-0.008777411231872301,0.008786328825097714,0.9891733274685816
2015-04-16,-1,-0.0014919541370475545,-0.0013410826236967544,-0.004601758792692467,0.010523477273799294,0.9891066715786769
2015-04-20,-1,-0.0013649530272839081,-0.001245732805081739,-0.004601758792692467,0.010523477273799294,0.9894750262555473
2015-04-22,-1,-0.000652320646686645,-0.0006244697069830432,-0.004601758792692467,0.008535992057913161,0.9903940906410528
2015-04-24,-1,-0.0006003549306319319,-0.0005749426822023162,-0.004601758792692467,0.007925944241590887,0.9910227224682749
2015-04-28,1,9.82403179975863e-05,0.0001532542930804861,-0.004601758792692467,0.007406097757172275,0.9921333964139311
2015-04-30,1,0.0005487773310536681,0.0007252379531861785,-0.004601758792692467,0.0062343659957631616,0.9918063862614489
2015-05-04,1,0.0009563425923984341,0.001189520730603417,-0.004601758792692467,0.006404203897966949,0.9917249037041105
2015-05-06,0,-2.4628950534055744e-05,6.0549875257453285e-05,-0.004601758792692467,0.008370231020732113,0.9924991945818883
2015-05-08,1,0.0005520437254715724,0.0007009085310502552,-0.0061477273389804145,0.004546685332864807,0.992888982051231
2015-05-12,1,0.000647654620994906,0.0007905476477291396,-0.0061477273389804145,0.004546685332864807,0.9930866593738735
2015-05-14,1,0.0013639935669779823,0.00166956042556292,-0.006925247731098511,0.004047373478654497,0.9932063369214233
2015-05-18,1,0.0013437661931806765,0.0016817920957309818,-0.0061477273389804145,0.004546685332864807,0.9935692923151326
2015-05-20,1,0.0013718445213410117,0.0017208882733781407,-0.0061477273389804145,0.007268774050357326,0.9925287246043889
2015-05-22,1,0.0014672714932399504,0.001846567442956091,-0.006279882773078137,0.009064532290783198,0.9921053762149121
2015-05-27,1,0.0015261887289026647,0.0018917756112908856,-0.006279882773078137,0.009064532290783198,0.9919099455585242
2015-05-29,1,0.0005772002719144164,0.0007876891775284366,-0.006249672406934554,0.009064532290783198,0.992410531877306
2015-06-02,1,0.0007636824281895797,0.0009604950649136725,-0.0072310829349609305,0.008527547341803545,0.9919212936926207
2015-06-04,1,0.0008897091870251443,0.0011215416405382446,-0.006249672406934554,0.006940988533854255,0.9926597942520258
2015-06-08,1,0.0005779580326020665,0.0007728731981675794,-0.0037751527258514696,0.008527547341803545,0.992612964330885
2015-06-10,1,0.00044977510909890864,0.0005592623961715502,-0.005095820027567978,0.006940988533854255,0.9923978711488344
2015-06-12,1,0.0008505155699400382,0.0010661017520151104,-0.0037751527258514696,0.008527547341803545,0.9920160856288169
2015-06-16,1,0.0012474418078024076,0.001544010328339236,-0.005095820027567978,0.008941889595895612,0.9900472035794506
2015-06-18,1,0.0018709098963401267,0.0022375910005925093,-0.005095820027567978,0.008527547341803545,0.9905951787539089
2015-06-22,1,0.001485063635580069,0.001759591439536517,-0.005095820027567978,0.008018266974698507,0.9903398968139527
2015-06-24,1,0.0012649899756029426,0.0015029028298599305,-0.009670678574163424,0.008018266974698507,0.98950813431532
2015-06-26,1,0.0018646077723695324,0.002237458914485765,-0.01058190792996991,0.007863733196364676,0.9895629513415829
2015-06-30,1,0.00017152146763892986,0.00019244267728056076,-0.006899798493509001,0.009104076063431846,0.9897866679011759
2015-07-02,1,0.00018555758667323927,0.00021476891068450535,-0.008108361211350423,0.009583872064889035,0.9883497292540637
2015-07-07,1,0.0005422269803868003,0.0006165376920249741,-0.008999418161170673,0.009104076063431846,0.9885912397970551
2015-07-09,1,0.00023152981939262427,0.00027638886870432996,-0.010844406974997953,0.009104076063431846,0.9880024548241911
2015-07-13,1,0.0008812370949293979,0.0010317785702641375,-0.010844406974997953,0.009104076063431846,0.9879989176361492
2015-07-15,1,4.010491622939156e-05,7.042533854911468e-05,-0.010844406974997953,0.009444429216293682,0.9887071034021443
2015-07-17,1,0.0010567396526108175,0.0012106757183220195,-0.010844406974997953,0.008176928846782209,0.98844957519546
2015-07-21,-1,-0.00016108573424927425,-0.00014670584065739584,-0.010287630585305121,0.008954201892462496,0.989270885943394
2015-07-23,-1,-0.00025369906110445583,-0.00023300034517969881,-0.010287630585305121,0.008954201892462496,0.9888958026031689
2015-07-27,-1,-0.0016294214683816438,-0.0013452786069945049,-0.010844406974997953,0.008954201892462496,0.9872859710819657
2015-07-29,-1,-0.00025671651292809153,-0.0001913742096215872,-0.010844406974997953,0.005226186252603454,0.9863620976842085
2015-07-31,1,0.00013478351245803908,0.00015949884295253785,-0.010844406974997953,0.005226186252603454,0.9862666482145822
2015-08-04,-1,-7.453852452242472e-05,-3.93273653063704e-05,-0.01299317396959118,0.005226186252603454,0.9853728615583478
2015-08-06,-1,-0.0013222044343437836,-0.0011456436352537819,-0.012521827693230878,0.010252301206638849,0.9850942563606603
2015-08-10,1,0.0001586096623812824,0.0002363333291863538,-0.012521827693230878,0.011027234712974801,0.9836922578889092
2015-08-12,-1,-0.0006478993931845534,-0.0005823524348222214,-0.011111016039848076,0.007313321703113544,0.9847122416978654
2015-08-14,-1,-0.00022723594812680005,-0.00021970908753760456,-0.012011222745311974,0.007313321703113544,0.9846533575269494
2015-08-18,-1,-0.00022222924421954078,-0.00019147944947914695,-0.012011222745311974,0.008158506619696894,0.984402803815151
2015-08-20,-1,-0.0014450474928655328,-0.0012739913575823742,-0.012674972383930542,0.008158506619696894,0.9841373422756223
2015-08-24,-1,-0.002911651751965643,-0.0025543240334024372,-0.012674972383930542,0.008158506619696894,0.9859422164871716
2015-08-26,-1,-0.002403093659363084,-0.002103950611623698,-0.012674972383930542,0.006013061513924568,0.9873409332061008
2015-08-28,-1,-0.001567654211233817,-0.0013554019859287857,-0.014051262281647773,0.005705327082937284,0.9879245913675684
2015-09-01,-1,-0.002631913596263278,-0.002265931958861856,-0.012674972383930542,0.006013061513924568,0.9885441392431515
2015-09-03,-1,-0.002645511730679796,-0.0023449062276113715,-0.012674972383930542,0.006013061513924568,0.9883919645524769
2015-09-08,-1,-0.0019356604915225831,-0.0016911878686209727,-0.012674972383930542,0.006781295445565368,0.9887177408906744
2015-09-10,-1,-0.002391833753461815,-0.0020635699146528946,-0.01232781355481953,0.010548145852585037,0.9868263073371344
2015-09-14,-1,-0.002181904223678901,-0.0019322996617553252,-0.0066770591688975825,0.010548145852585037,0.9873319898061067
2015-09-16,-1,-0.001488844885646417,-0.0013244771622869724,-0.014051262281647773,0.0075847331962337955,0.9874445280902016
2015-09-18,-1,-0.0023178886041011317,-0.002099473048415619,-0.007103576638092142,0.0075847331962337955,0.9882368740283523
2015-09-22,-1,-0.0027293009822167043,-0.0024617194998447613,-0.006271678132445027,0.0075847331962337955,0.9883061409967897
2015-09-24,-1,-0.0022492340184349464,-0.0020615213616423677,-0.006271678132445027,0.01085330503112554,0.9865377864384699
2015-09-28,-1,-0.003262890531148529,-0.002910621689859812,-0.005012811402969259,0.01085330503112554,0.9865377954460259
2015-09-30,-1,-0.0022041239223706726,-0.0020163143034194544,-0.005012811402969259,0.014707646258663458,0.9864875366519679
2015-10-02,-1,-0.002306246266480541,-0.002123012484933141,-0.00420879117015968,0.009660535200647368,0.9882184475477861
2015-10-06,-1,-0.0012661988981808917,-0.0012160186113039117,-0.00420879117015968,0.009784179417631409,0.9880990535077997
2015-10-08,1,0.00029662419330015133,0.0004264433390977459,-0.005012811402969259,0.006691579191319261,0.9892151595361509
2015-10-12,0,-5.091552438225559e-05,3.0875628257665054e-05,-0.007137964139154423,0.006691579191319261,0.9887028659001732
2015-10-14,-1,-0.0007048944231577284,-0.000697495295975697,-0.006376145165873635,0.006691579191319261,0.989417548071857
2015-10-16,-1,-0.0008083857765208119,-0.0008043968242582304,-0.006376145165873635,0.006217307033131083,0.988652525572284
2015-10-20,-1,-0.0016218978732016106,-0.0014850288451104077,-0.006376145165873635,0.008909076572294717,0.9882475777601907
2015-10-22,1,0.00010966862050142682,0.00021521919022405894,-0.006376145165873635,0.008909076572294717,0.9890651399596148
2015-10-26,1,3.0042833114445955e-05,0.00012631443754722717,-0.005890909994113227,0.008909076572294717,0.9893875578953704
2015-10-28,1,0.00031570387248573906,0.00042547824162721197,-0.005890909994113227,0.006637357829495089,0.9900866980753416
2015-10-30,1,0.0006662133520009039,0.0008527536852866724,-0.005890909994113227,0.006637357829495089,0.9896803863111847
2015-11-03,1,0.001669711237680548,0.0019835682859541508,-0.006546355556288139,0.006499268667258444,0.9899255539986189
2015-11-05,1,0.0023184208722217712,0.0027263854932783457,-0.0066765842483659495,0.006499268667258444,0.9897550824510055
2015-11-09,1,0.0022585075425737176,0.0027102892859904313,-0.0066765842483659495,0.006992840216673083,0.9892114968212025
2015-11-11,1,0.0020110691706443596,0.0024285591321256536,-0.006388551937560969,0.006992840216673083,0.9896038946666308
2015-11-13,1,0.0008033193351783168,0.0010485897561233076,-0.006388551937560969,0.009007405103424522,0.9902051876327448
2015-11-17,1,0.0011041547152854476,0.0013962072311356293,-0.002764508492939608,0.009007405103424522,0.9907334167809192
2015-11-19,1,0.0012895431712128503,0.0015708422957203974,-0.009441962075555841,0.006992840216673083,0.9904823036383031
2015-11-23,1,0.0014843593530079104,0.0017910735250435189,-0.009441962075555841,0.009007405103424522,0.9889165554965869
2015-11-25,1,0.002070219199027154,0.002487992580886266,-0.009441962075555841,0.011058033172820277,0.9876695599869714
2015-11-30,1,0.002180428549940934,0.002579087873883552,-0.009441962075555841,0.011058033172820277,0.9876323922351461
2015-12-02,1,0.002229714187426392,0.0026754338835710103,-0.009441962075555841,0.011058033172820277,0.9877784518601701
2015-12-04,1,0.0019066411391556498,0.0022588321541383216,-0.01206843653240645,0.007267942452578224,0.9880219145501026
2015-12-08,1,0.0021104501675737863,0.0025090771641335073,-0.012069381727945631,0.005862571583221117,0.9884425339854368
2015-12-10,1,0.001889538136035781,0.0022378338155917693,-0.012069381727945631,0.005862571583221117,0.9883363574551253
2015-12-14,1,0.0013478260877796055,0.0015775575531409205,-0.012069381727945631,0.005862571583221117,0.9882588462094027
2015-12-16,1,0.001509335959532775,0.0017482289404332873,-0.015730844990403496,0.005862571583221117,0.9863140644014977
2015-12-18,1,0.000632979211457098,0.0007814658665177248,-0.015730844990403496,0.005862571583221117,0.9864262225269348
2015-12-22,1,0.0018011098374563494,0.002131871816022713,-0.015730844990403496,0.007639526763681232,0.9864188245849708
2015-12-24,1,0.0019461458904688402,0.0022630986566670548,-0.016651481135047438,0.00744296092154944,0.9848468511707411
2015-12-29,1,0.0014682056641905656,0.001680408807992854,-0.016651481135047438,0.012756856414433462,0.9836776013997977
2015-12-31,1,0.0012267627957517806,0.0014255849428515396,-0.01575985793443081,0.014588661279664518,0.983162446832519
2016-01-05,1,0.000902436093252753,0.0010666763424668122,-0.0176341794942128,0.014588661279664518,0.9823665737763199
2016-01-07,1,0.00033609266892147113,0.0004042214405197074,-0.009079959244140075,0.01817824808366957,0.9783848392395469
2016-01-11,1,0.00041308571031579484,0.0005082280201376746,-0.009338075447159307,0.01817824808366957,0.9780530986101035
2016-01-13,-1,-0.00011210327935071204,-9.611159436398823e-05,-0.01112635330597769,0.01817824808366957,0.9779378449615906
2016-01-15,-1,-0.000350964507559659,-0.00026070849543240464,-0.006613144404150051,0.023092355315267512,0.9785794188990553
2016-01-20,-1,-0.0012780754939017364,-0.0011004968827781677,-0.006163896098396914,0.023092355315267512,0.978797900155548
2016-01-22,-1,-0.0004606737508356172,-0.00038867880653283026,-0.006163896098396914,0.018835515847017037,0.9799955236806285
2016-01-26,-1,-0.0008728490006856457,-0.0007173366949076887,-0.006163896098396914,0.016161411768508258,0.982132590503938
2016-01-28,1,0.00016597947157076032,0.0001944954077529092,-0.006163896098396914,0.015127764163656963,0.9831552166425409
2016-02-01,1,0.0010174731672741091,0.0011500354251384635,-0.006163896098396914,0.015127764163656963,0.9835445658589141
2016-02-03,1,0.0005529581461063131,0.000608890760153601,-0.004749749869995627,0.015127764163656963,0.984822421228537
2016-02-05,1,0.0019136094286672832,0.002128970520592447,-0.004749749869995627,0.013324204924246788,0.9894602660859425
2016-02-09,1,0.002044434929308996,0.002299337310640897,-0.0017442351443568566,0.013324204924246788,0.9897904673339312
2016-02-11,1,0.0010422924969117572,0.0010995220933748687,-0.00022452242200896993,0.013324204924246788,0.9907317230950636
2016-02-16,1,0.0014301072057835615,0.0015175258357850066,-0.00022452242200896993,0.009452215199466749,0.9926409514311456
2016-02-18,1,0.0018188017982480713,0.0019646065982952218,-0.00022452242200896993,0.009452215199466749,0.9918121004500902
2016-02-22,1,0.0018506986507030594,0.0019640422521870014,-0.00022452242200896993,0.009452215199466749,0.9917476989713156
2016-02-24,1,0.0016371340026313447,0.0017376347708742117,-0.0005109261879082596,0.009452215199466749,0.9915992427963808
2016-02-26,1,0.0015324178570261828,0.00162157689796957,-0.0022244207401008196,0.008152644992924757,0.991716602398964
2016-03-01,1,0.0023021811633738686,0.0025056760524086565,-0.0022244207401008196,0.008152644992924757,0.992572654357538
2016-03-03,1,0.0030436595301597024,0.003439324887955162,-0.0018879174937137815,0.006013915468066943,0.9928228738736966
2016-03-07,1,0.0019241503421686319,0.0021196384615648936,-0.0018879174937137815,0.006013915468066943,0.9923253533501812
2016-03-09,1,0.001902022825692045,0.0020682915220564977,-0.0034995806641898194,0.002271604588699569,0.9919385077712745
2016-03-11,1,0.0015729487648744266,0.0016812697431362214,-0.0044482447954722545,0.003723560629966603,0.9917192532277537
2016-03-15,1,0.0017495404969706495,0.0018648370885106839,-0.0063189599174408775,0.008091884299824634,0.9895138842322521
2016-03-17,1,0.0026948994360483183,0.0029957351473305404,-0.0063189599174408775,0.0016370696658675073,0.9905831605528034
2016-03-21,1,0.0024315111340489247,0.0026641606049529892,-0.0063189599174408775,0.0010131183940716442,0.9911053989915707
2016-03-23,1,0.001987560648111144,0.0021834915353012864,-0.00519019990031068,0.0014313413510477293,0.9922696763061291
2016-03-28,1,0.0016767105173079294,0.0018164037532752545,-0.004278772582160219,0.001180368909972404,0.9928425288615406
2016-03-30,1,0.0020317795094305013,0.002256356968963625,-0.004278772582160219,0.001455552295951634,0.9914689032065777
2016-04-01,1,0.00254351728667889,0.0028639950617920795,-0.00519019990031068,0.0012053122873131336,0.9904961820024738
2016-04-05,1,0.0014564038476166591,0.0015986458537266067,-0.00519019990031068,0.0023766794141412786,0.9919240169542941
2016-04-07,1,0.001001791303587467,0.0010716370631623025,-0.004278772582160219,0.005880598138534611,0.9909742593304267
2016-04-11,1,0.00048442738994869345,0.0005186617993632474,-0.005540130725134802,0.0023766794141412786,0.9911929476253547
2016-04-13,1,0.0002722991300161505,0.0003275534110153473,-0.005540130725134802,0.0023766794141412786,0.9925070186907738
2016-04-15,1,0.0003094668434314028,0.0003484237214703944,-0.007305750521404447,0.0023766794141412786,0.9916824841150144
2016-04-19,1,9.873109355976287e-05,0.00016256575227586529,-0.008484592476267042,0.005005948232882284,0.9910240192767231
2016-04-21,1,6.226090150138666e-05,0.00012488849671224775,-0.01045921365592101,0.005005948232882284,0.9901946259478913
2016-04-25,1,0.0001595900659810754,0.00020010045970657433,-0.01045921365592101,0.005923674660675534,0.9898747010685498
2016-04-27,1,0.0008460675760717765,0.0008730498436668609,-0.01045921365592101,0.005257966182549588,0.9905326427850444
2016-04-29,1,0.0004570620146921364,0.0004716829012601813,-0.008789383928083767,0.005257966182549588,0.9910894360372811
2016-05-03,1,0.00019834087876527168,0.00025135761873030355,-0.007305750521404447,0.005257966182549588,0.9918196868336906
2016-05-05,1,0.00031085588823741013,0.0003552455873161236,-0.006773470733607089,0.005257966182549588,0.9931082681419447
2016-05-09,0,-7.455012870330268e-05,1.4556559713577882e-05,-0.006980881415468261,0.005257966182549588,0.9930279129702135
2016-05-11,-1,-0.0001098817275493897,-2.0496553257125987e-05,-0.0070010444629781,0.005257966182549588,0.993004600888136
2016-05-13,-1,-0.0008837151094795045,-0.0006649339822136736,-0.008849873070613285,0.005257966182549588,0.9923765628561504
2016-05-17,-1,-0.0006068881834770963,-0.0004630576827172134,-0.0070010444629781,0.0053051145683829055,0.9925788503155001
2016-05-19,-1,-0.0006911049654960227,-0.000553993900776437,-0.006413174496788787,0.005559013401704832,0.9930956498382795
2016-05-23,-1,-0.0006217092596313553,-0.0004873942978597338,-0.006413174496788787,0.005559013401704832,0.9928436174956162
2016-05-25,-1,-0.0004494501421189291,-0.0003186091452314119,-0.006413174496788787,0.005559013401704832,0.9933715685834673
2016-05-27,-1,-0.0006636340845741975,-0.0004988371723963202,-0.009315877888657228,0.005559013401704832,0.9905276769246792
2016-06-01,-1,-0.0006623095709956329,-0.0004786966640838807,-0.009315877888657228,0.005857227330831154,0.9899452324726714
2016-06-03,-1,-0.0008913662182530401,-0.0006725205458806627,-0.009315877888657228,0.009005136320709706,0.9884356082010436
2016-06-07,-1,-0.0013655409805717446,-0.0010793677746763998,-0.013407239932044472,0.009005136320709706,0.9878529893448291
2016-06-09,-1,-0.002242073540423795,-0.001790402373442632,-0.008056281059768435,0.011757597314824645,0.9875028628305149
2016-06-13,-1,-0.003760174488983007,-0.0030709274860024807,-0.0029144727437339975,0.011757597314824645,0.9863521989049892
2016-06-15,-1,-0.00325037354331951,-0.0026713965047418554,-0.004129631526530921,0.011757597314824645,0.9865822097753714
2016-06-17,-1,-0.0030278125742029087,-0.0024671978943434864,-0.010910246093443095,0.011757597314824645,0.9868404802331379
2016-06-21,-1,-0.0022877282155826396,-0.001870321589006126,-0.011533356758041985,0.00927868680046535,0.987056365861997
2016-06-23,-1,-0.0016822523349299522,-0.0013595903972349324,-0.013594561075194848,0.0071616395310347,0.986843172889712
2016-06-27,-1,-0.0037029565487759417,-0.003102651012258808,-0.010910246093443095,0.0071616395310347,0.9890737022795976
2016-06-29,-1,-0.002283172812135459,-0.0019390216577879096,-0.010910246093443095,0.0071616395310347,0.9895716289210496
2016-07-01,-1,-0.0010592644276798918,-0.0008564997752985049,-0.010910246093443095,0.00406876713578898,0.9913342800787699
2016-07-06,-1,-0.0020197980859537595,-0.0016788863889538991,-0.010910246093443095,0.005906622346330223,0.9911802549691547
2016-07-08,-1,-0.0010394620170626684,-0.0008572366264505397,-0.010910246093443095,0.005906622346330223,0.9912271288008168
2016-07-12,-1,-0.0015403887041268072,-0.001320621043424159,-0.00918032562570936,0.005906622346330223,0.9926412823446339
2016-07-14,-1,-0.0017269446254824525,-0.0015051731171882169,-0.006720061022664813,0.006157605774329608,0.9918995437683487
2016-07-18,-1,-0.0020587549801932585,-0.0017831092313723438,-0.005081725257329472,0.00697582141425556,0.9919762251389307
2016-07-20,-1,-0.0019843382125204487,-0.0017299731986317357,-0.005081725257329472,0.00697582141425556,0.9922535802311842
2016-07-22,-1,-0.0015598947474406957,-0.0014033926044309945,-0.0026163056801828625,0.006772111104175722,0.9928830735736733
2016-07-26,-1,-0.0016458984646600008,-0.0014860654785073845,-0.002165182795612199,0.006772111104175722,0.9928315282444425
2016-07-28,-1,-0.001407796972300197,-0.0012572881933145617,-0.0037283566036174806,0.006089702337636328,0.9933162013828274
2016-08-01,-1,-0.0012604063341124354,-0.0011460588379795275,-0.0010858692429886727,0.006089702337636328,0.9935132049023077
2016-08-03,-1,-0.0014326989489914798,-0.0012955242993827984,-0.0036283531284100196,0.005890843702007005,0.9936663440089953
2016-08-05,-1,-0.0005944197477247783,-0.0005801536758613463,-0.005943113296660027,0.004155841554914081,0.9940158816731112
2016-08-09,-1,-0.00031124083200598327,-0.0002455958026351398,-0.006758355681582027,0.004155841554914081,0.9933490130731634
2016-08-11,1,0.0004988147420189867,0.0006880690883138272,-0.00701303135296665,0.003151518793561508,0.992532497023752
2016-08-15,1,0.00032979204825777986,0.00047103638148422597,-0.00701303135296665,0.0031051314301602643,0.9924320965956009
2016-08-17,1,0.0002156444163185747,0.0003348533074093851,-0.006918960231777257,0.0034971980782531383,0.9920751218408823
2016-08-19,1,0.0006308452086302934,0.0008166362506699068,-0.007987245538793276,0.0034971980782531383,0.9908839102565432
2016-08-23,1,0.0009111959463782721,0.0011268024768987441,-0.010755474727806701,0.00401667946471035,0.9899247827561997
2016-08-25,1,0.00025159938175891054,0.0003626650159463883,-0.010755474727806701,0.006211643371594784,0.9900039992354062
2016-08-29,1,0.00030543816434037724,0.0004021293702422865,-0.010755474727806701,0.005470679516908068,0.9897306406725325
2016-08-31,-1,-0.00018568685869942126,-0.00015159917720752262,-0.007411360767018192,0.007781817344060828,0.9902161458869022
2016-09-02,-1,-0.00013447198794898146,-0.0001067841473120786,-0.0073403281427193,0.008285911939594673,0.9895205892225718
2016-09-07,-1,-0.000684817614855326,-0.0006429796314737506,-0.0061090712271636306,0.009595886488572066,0.9893534177830171
2016-09-09,-1,-0.0020501269104736632,-0.001842006193728726,-0.0061090712271636306,0.011294293987956113,0.9896368107090249
2016-09-13,-1,-0.001959775725700028,-0.0017609173672678492,-0.0069667977847707105,0.011294293987956113,0.9876125878311703
2016-09-15,-1,-0.001633500547001261,-0.0014815435997289135,-0.01622644286611583,0.009595886488572066,0.9866092941307649
2016-09-19,-1,-0.0009752136878670301,-0.0009740373904271297,-0.011552828188447446,0.008285911939594673,0.9879348006519354
2016-09-21,-1,-0.0014318320041007346,-0.0013560166118351067,-0.0069667977847707105,0.009595886488572066,0.9880340271958842
2016-09-23,-1,-0.0013202104268175588,-0.0012498943581619043,-0.010381732707051136,0.009595886488572066,0.9879733922089997
2016-09-27,-1,-0.00099124479335107,-0.0009750067943739958,-0.010381732707051136,0.011294293987956113,0.9873361282009439
2016-09-29,-1,-0.0007747063919012119,-0.0007658292300304308,-0.012154981381824956,0.010150218693635037,0.9867390701473717
2016-10-03,1,0.0002807183104207226,0.00041442860680041867,-0.012154981381824956,0.008505365384546982,0.9874405091261101
2016-10-05,-1,-0.0001950279081182185,-0.0001481263935028749,-0.012154981381824956,0.0062725785165415986,0.9879983499893731
2016-10-07,0,-4.499546247086996e-05,8.524631248436269e-06,-0.012154981381824956,0.00833433802880431,0.9878935245777922
2016-10-11,-1,-0.0018918206567243641,-0.0017055508555410578,-0.008612442371795379,0.009321314260869306,0.9892114618690333
2016-10-13,-1,-0.002870805604026578,-0.0025878973866139366,-0.003132319894044048,0.01612053581810957,0.9855718853837153
2016-10-17,-1,-0.0026957443103197325,-0.0024908363881458832,-0.004855752417291141,0.018867908765886163,0.9841550967882576
2016-10-19,-1,-0.0015438420112339494,-0.0014786278379936607,-0.004855752417291141,0.015771139189301484,0.9852639869847413
2016-10-21,-1,-0.0018395257125476245,-0.001765505760967923,-0.003645609050165235,0.015771139189301484,0.9855581318307892
2016-10-25,-1,-0.0015402975471724902,-0.0015010236254939145,-0.0030520386267259003,0.015566435456190644,0.9853637732470857
2016-10-27,-1,-0.0018663327964218044,-0.0017711903288366586,-0.0008870557913135303,0.015566435456190644,0.9858030159310032
2016-10-31,-1,-0.0012943746317534556,-0.0012537429602404108,-0.0008870557913135303,0.015566435456190644,0.9860435961908013
2016-11-02,-1,-0.0024864917348581244,-0.0022633878013991453,-5.3905120571008445e-05,0.015566435456190644,0.9855071458650082
2016-11-04,-1,-0.0010348072699412146,-0.0009806103297179424,-5.3905120571008445e-05,0.01485694107908234,0.9867862786259253
2016-11-08,1,0.00023120268503975638,0.00037314208762620076,-0.0002171384319540381,0.01485694107908234,0.9878707841987059
2016-11-10,1,0.0038194906615881996,0.004450203531557808,-0.0012207227636029084,0.011206042149214179,0.9930171031618005
2016-11-14,1,0.004201323260313507,0.004913324563850705,-0.0022939197898195554,0.008789090973340389,0.9937596514771303
2016-11-16,1,0.003107014334530502,0.003552530085549888,-0.002552703087405585,0.008789090973340389,0.9937080148991766
2016-11-18,1,0.003058914430266813,0.0035317644522571178,-0.0022939197898195554,0.008789090973340389,0.993628288722193
2016-11-22,1,0.00503661802661431,0.0058734320671357115,-0.0032722394908063935,0.007443597622160474,0.9931290751244339
2016-11-25,1,0.004705397716766813,0.0054434185931923635,-0.0032722394908063935,0.007443597622160474,0.9928730635965598
2016-11-29,1,0.0055617278429661125,0.006446073141845992,-0.0057619044369492355,0.004750005635788078,0.9918655616918561
2016-12-01,1,0.005457763073631592,0.006265724831839096,-0.0057619044369492355,0.002704404160307254,0.9911821491640284
2016-12-05,1,0.005926236060026815,0.006756079975674423,-0.0057619044369492355,0.002279939042924589,0.9908615414055607
2016-12-07,1,0.006426237360640184,0.007300872567401816,-0.0058547268374365665,0.00010088249736968,0.990188275006859
2016-12-09,1,0.005727974151122445,0.006489635774560496,-0.006428838507269087,0.002279939042924589,0.9909497946089174
2016-12-13,1,0.005066702096636325,0.005712141772420087,-0.006148533802854994,0.004131599568307192,0.9914956207382374
2016-12-15,1,0.004642369249795978,0.005210627920021982,-0.0054814445378642065,0.0044492665171090365,0.9921808957478323
2016-12-19,1,0.004379423341627211,0.00494193184229034,-0.0054814445378642065,0.0053553587101911465,0.9899016474608973
2016-12-21,1,0.0043687082464468644,0.004915662035492456,-0.004922430271065807,0.0053553587101911465,0.9899013934323762
2016-12-23,1,0.004052832041853236,0.0045306321738457335,-0.004922430271065807,0.0053553587101911465,0.9898469953104829
2016-12-28,1,0.003693100380360519,0.004161744247222579,-0.004922430271065807,0.0053553587101911465,0.9901293787283042
2016-12-30,1,0.0030538255833308017,0.0034082502054725897,-0.005633216603129168,0.0053553587101911465,0.9902168118441097
2017-01-04,1,0.0036173766622567376,0.004099382654223939,-0.007550040369101887,0.005118844557845604,0.9892865636527067
2017-01-06,1,0.003095619922370753,0.0035203268306110607,-0.005633216603129168,0.008527495573893231,0.9891952006272301
2017-01-10,1,0.002899670970672119,0.003285352728497737,-0.005872997568706689,0.006282247299337984,0.9890882926354791
2017-01-12,1,0.004260590691071215,0.0048451205039829436,-0.005872997568706689,0.002435892976102553,0.9893002731006448
2017-01-17,1,0.004307903377875817,0.004891234825604086,-0.005872997568706689,0.002639906226533738,0.9890329488585115
2017-01-19,1,0.005724250933008738,0.0064735342679446296,-0.004397261606670868,0.002086456334156496,0.9911292650409039
2017-01-23,1,0.006022385099066904,0.006819564961780216,-0.004020878170630638,0.0022250684135083267,0.9913996032662852
2017-01-25,1,0.005264806188289549,0.005904740913899025,-0.005196056839046788,0.0022250684135083267,0.9911677503246483
2017-01-27,1,0.004796274007714536,0.005379303698075414,-0.001948721502131406,0.0036138999742893305,0.9926354949428149
2017-01-31,1,0.003756979255040007,0.004139041835614257,-0.001948721502131406,0.00503913545105739,0.9928304637193415
2017-02-02,1,0.0021066714476593003,0.0021662463019764895,-0.0010429036741960585,0.005446386271221638,0.9926346664028444
2017-02-06,1,0.002967795235925537,0.0031265834732368348,-0.004717587410482632,0.005446386271221638,0.99270068655091
2017-02-08,1,0.0024480586952589476,0.0025523651578037536,-0.004717587410482632,0.005446386271221638,0.9921542050922633
2017-02-10,1,0.0024175174395722736,0.0024903126332838973,-0.004717587410482632,0.006696612140994928,0.9915321373110807
2017-02-14,1,0.0020265224345990675,0.0020321053796391506,-0.006482981052972443,0.009033877105068339,0.9903875039980765
2017-02-16,1,0.002029390055581187,0.0020351407277366205,-0.006892906695255874,0.01188268667476753,0.9895305925092702
2017-02-21,1,0.001876796870586366,0.001910549707812296,-0.008320353270750525,0.01188268667476753,0.9887468229316673
2017-02-23,1,0.000916666154981034,0.001049012177214658,-0.008320353270750525,0.01188268667476753,0.9887767295126748
2017-02-27,1,0.001942083653576894,0.001993217252292928,-0.012698355720492292,0.01188268667476753,0.9880028835870364
2017-03-01,1,0.002052986781097352,0.0020934054292778836,-0.012698355720492292,0.01188268667476753,0.9882715861018361
2017-03-03,1,0.0027205587218861894,0.0028603217426014012,-0.012698355720492292,0.011162326072620283,0.9896418083898397
2017-03-07,1,0.0006581798679381821,0.0008969897376404195,-0.008320353270750525,0.011162326072620283,0.9903399053283132
2017-03-09,-1,-0.001709098792851804,-0.0011028874693562619,-0.008320353270750525,0.011162326072620283,0.9908935188681471
2017-03-13,-1,-0.00104159980885592,-0.0004961053989368468,-0.012698355720492292,0.007106069266339734,0.9912934345034935
2017-03-15,-1,-0.0008019753967255054,-0.0003081346010088842,-0.012698355720492292,0.004656872807184149,0.9888288480087227
2017-03-17,-1,-0.0011972019385096846,-0.0006725229202093432,-0.013828746769032415,0.004413582010003154,0.988779588291447
2017-03-21,-1,-0.0019287121960001937,-0.001333585030220939,-0.014144730546708593,0.0059525204042572884,0.9864556601538138
2017-03-23,-1,-0.0024609761655339795,-0.0017902092751505673,-0.014144730546708593,0.005766419953906048,0.9871312835838372
2017-03-27,-1,-0.0030702159248920703,-0.002343850855179549,-0.008943929932030338,0.006124091444746553,0.9870086963512684
2017-03-29,-1,-0.002941756189238738,-0.0021887983270687857,-0.010572833699794408,0.004413582010003154,0.98792264518304
2017-03-31,-1,-0.0023538140196520795,-0.0017221512219351813,-0.01427297351698805,0.004413582010003154,0.9877264387824725
2017-04-04,-1,-0.0018732237088563402,-0.0013342414565242567,-0.01427297351698805,0.004413582010003154,0.9872881392712333
2017-04-06,-1,-0.00044948998931445194,-0.0002639962407543741,-0.010572833699794408,0.005766419953906048,0.9872781487817177
2017-04-10,-1,-0.001031438118669785,-0.0007607682929689508,-0.0077576994255396485,0.005766419953906048,0.9877045273904939
2017-04-12,-1,-0.003434156493093296,-0.0028975849808903185,-0.0077576994255396485,0.005766419953906048,0.9907859675473639
2017-04-17,-1,-0.0038846879006647315,-0.0032841525553449183,-0.0077576994255396485,0.0043127724054368675,0.9912865057153061
2017-04-19,-1,-0.003668879222087591,-0.003129865786161268,-0.0077576994255396485,0.0034136817292785056,0.992487136959149
2017-04-21,-1,-0.003394349522716343,-0.0028986358554446085,-0.0077576994255396485,0.004375229238588769,0.9913079142545324
2017-04-25,-1,-0.003161129802640406,-0.002714198240281852,-0.007259302142069838,0.004375229238588769,0.9909350207124141
2017-04-27,-1,-0.003051542336482922,-0.0026353133871568134,-0.008817923041882472,0.004375229238588769,0.99069720384193
2017-05-01,-1,-0.003219301541078215,-0.002818428339452961,-0.006917683877063069,0.004665462921477017,0.9908934768318259
2017-05-03,-1,-0.0024051797370425753,-0.002122392594656053,-0.006917683877063069,0.004665462921477017,0.9912418642177533
2017-05-05,-1,-0.0020641386714144753,-0.0018150851511197078,-0.006917683877063069,0.008985866302073283,0.9904939458614925
2017-05-09,-1,-0.0019011958844345682,-0.0016651341979011473,-0.008817923041882472,0.008985866302073283,0.9880451237061116
2017-05-11,-1,-0.0026146793637972406,-0.0022884263645509997,-0.006077459133841395,0.011370388356603877,0.9868859710253224
2017-05-15,-1,-0.0031539651127844978,-0.002753141098827584,-0.006077459133841395,0.0118258934745586,0.9862595986557592
2017-05-17,-1,-0.004538366320335888,-0.003982492610543425,-0.004774940638915052,0.0118258934745586,0.9868414867523281
2017-05-19,-1,-0.0033202132979837976,-0.0029097469810238953,-0.004774940638915052,0.010687925846569992,0.9876102367170513
2017-05-23,-1,-0.003029751637635893,-0.0026277555059364666,-0.00890794653882539,0.01030691035662844,0.986931054413606
2017-05-25,-1,-0.004015696303915366,-0.00348438768837138,-0.004774940638915052,0.01030691035662844,0.9869208352978431
2017-05-30,-1,-0.0038473367081753047,-0.003346420525331093,-0.006865664782988002,0.01030691035662844,0.9868957736035413
2017-06-01,-1,-0.0037332921795123156,-0.0032244371264951626,-0.006865664782988002,0.00910045652738494,0.9868327967039694
2017-06-05,-1,-0.002796643416582302,-0.0024006044945339144,-0.006865664782988002,0.010687925846569992,0.986465797348515
2017-06-07,-1,-0.003736431102714749,-0.003287616778637685,-0.005173072009046715,0.010687925846569992,0.9887082592474408
2017-06-09,-1,-0.002353970268805365,-0.0020777670386166415,-0.005173072009046715,0.00871824163655193,0.9907963848370481
2017-06-13,-1,-0.0012994556996233867,-0.00119721127652704,-0.005173072009046715,0.005734696063838955,0.9909324186064786
2017-06-15,-1,-0.0007862082146849441,-0.0007700826261551973,-0.005528190338573859,0.005734696063838955,0.990823928160711
2017-06-19,1,1.536165527918514e-05,9.734238825642022e-05,-0.007253662079492773,0.004061638445978305,0.9904411968284917
2017-06-21,-1,-0.00228382661374716,-0.002093443991229374,-0.005528190338573859,0.008340010148677104,0.9913373138889995
2017-06-23,-1,-0.0016763701813105206,-0.0015151665958915935,-0.007253662079492773,0.009486725342772284,0.9901921160940071
2017-06-27,-1,-0.0029436358390757126,-0.002649038453272594,-0.004912190303321573,0.010886675937789957,0.9895167653137682
2017-06-29,-1,-0.0012914408027084037,-0.0012086160446517378,-0.005960212269941787,0.010886675937789957,0.9898121689681876
2017-07-03,-1,-0.0004949564399262823,-0.000492590359082456,-0.007253662079492773,0.004327553423440638,0.9907124166864593
2017-07-06,0,-2.5433441227465045e-05,4.589600273620587e-05,-0.009031303031781733,0.0028082270843988936,0.9903582015129935
2017-07-10,-1,-0.00021863817960256535,-0.00016977486583303426,-0.010541400405360227,0.009486725342772284,0.9884025958203531
2017-07-12,-1,-0.0008492642626911233,-0.0008326210489160636,-0.010521088875309668,0.01148928788409524,0.9882307099500828
2017-07-14,-1,-0.0005555493975873062,-0.0005207084820978238,-0.01348671553439331,0.010442377098970704,0.9879263042975445
2017-07-18,-1,-0.0004044474028121011,-0.0003911186055333961,-0.01348671553439331,0.010197599851395732,0.9882631485342107
2017-07-20,-1,-0.00039035209583659366,-0.00034717705478241173,-0.01348671553439331,0.009132435622127979,0.9875004402327164
2017-07-24,-1,-0.00021964393884622125,-7.3306019107861e-05,-0.014453068741714089,0.006355729572464147,0.9870504744200486
2017-07-26,1,0.0009669322898376091,0.001258235105697812,-0.014453068741714089,0.006355729572464147,0.9860737286291584
2017-07-28,1,0.000621392522404636,0.0008521774981479558,-0.014453068741714089,0.007579400073934301,0.9862729522962682
2017-08-01,-1,-0.00014088309812644692,-5.345901924814762e-05,-0.014392134151562408,0.007579400073934301,0.9867278400275651
2017-08-03,1,6.96273536628103e-05,0.00024285453593449007,-0.014392134151562408,0.013621911409965584,0.9857611708939475
2017-08-07,1,0.000603747439888209,0.0008595477586187868,-0.01113493842076085,0.009132435622127979,0.9873614443046048
2017-08-09,1,0.0008801753770560804,0.0011871473439873034,-0.010364505922159309,0.007750556988588368,0.9878255889682452
2017-08-11,1,0.00028862439205342945,0.000488486856186183,-0.009884524211043157,0.009231498261771783,0.9878057416866978
2017-08-15,1,0.00044127207126410414,0.0006586274725282455,-0.006937302140273381,0.009320642125512375,0.9882720985902517
2017-08-17,-1,-0.0006403694715968483,-0.0006023581388840624,-0.0047888442949736605,0.009803932229063159,0.9896498861909125
2017-08-21,-1,-0.0014263055080555708,-0.0014199066936113963,-0.0012043230635851736,0.009803932229063159,0.9907701167707426
2017-08-23,-1,-0.00025393068493482254,-8.817771654505543e-05,-0.0005749123403897972,0.008232109144512546,0.9930151063356443
2017-08-25,1,0.00027761572411090247,0.0005307086907879611,-0.0022003194455226635,0.008232109144512546,0.9930448771074318
2017-08-29,1,4.487581940743155e-05,0.00023602236852793659,-0.0003927271805818218,0.009803932229063159,0.9921979442829064
2017-08-31,1,0.0010867275725805975,0.0013978399058066293,-0.0019981996517560636,0.00792341723326443,0.9935921963920891
2017-09-05,1,3.789357350107128e-05,0.00015442388125839405,0.00017225263614844004,0.00792341723326443,0.9937549461926942
2017-09-07,0,-6.053343011904095e-06,8.898077548850897e-05,0.00017225263614844004,0.008232109144512546,0.9940351046414059
2017-09-11,1,0.0006034705487334659,0.0007614894797392644,-0.0005556638014261593,0.006843846578250625,0.9951562462855059
2017-09-13,1,0.0013748717347088543,0.0016622953102130673,-0.003276312548007099,0.006348290044034493,0.9944668833813969
2017-09-15,1,0.0015449350315533427,0.0018299958558637536,-0.003276312548007099,0.006843846578250625,0.992765097193586
2017-09-19,1,0.0015390514847222338,0.0018028695559087864,-0.003276312548007099,0.009890258930582232,0.991627858188147
2017-09-21,1,0.001382395980464914,0.0015840093445788068,-0.0034404590690116305,0.011461578251915183,0.99133943445015
2017-09-25,1,0.0019070269442280424,0.0022152800167599936,-0.003276312548007099,0.011697309512143192,0.9915541100609245
2017-09-27,1,0.0031364162371658724,0.0036642312575860428,-0.00400868199174695,0.010716919824331666,0.9899979223169919
2017-09-29,1,0.0029136906682931743,0.003397533879522684,-0.004505889475488029,0.011697309512143192,0.9891734694603003
2017-10-03,1,0.0029214471324347895,0.0033829087328432848,-0.005489754311033683,0.011697309512143192,0.9887101489696157
2017-10-05,1,0.002723277240764539,0.0031146075041922064,-0.005489754311033683,0.014045587640427539,0.9882415080315524
2017-10-09,1,0.0012781929443051242,0.001351867969062853,-0.00478169918225891,0.014045587640427539,0.98813123810337
2017-10-11,1,0.0013516423714578514,0.0015322854597477893,-0.0039525109833237065,0.014045587640427539,0.9892613837512132
2017-10-13,1,0.0029895152934833885,0.0034148625348075492,-0.00410135807396004,0.010716919824331666,0.9905950504472588
2017-10-17,1,0.0036617107211458556,0.004122176254852639,-0.00478169918225891,0.007439454092822847,0.990941841442191
2017-10-19,1,0.003669887452186868,0.004124641638506361,-0.00478169918225891,0.007439454092822847,0.9908269828746531
2017-10-23,1,0.004148394005379232,0.004682945649489836,-0.006594709325547308,0.005545075006243908,0.9903000857419579
