JNU-Tangyin/eata/results/Batch4_SP500/Batch4_SP500-VFC.csv
Date,Action,Predicted_Q25,Predicted_Q75,Actual_Q25,Actual_Q75,RL_Reward
2010-12-14,0,0.0,0.001231514906242155,-0.006407434014063645,0.0029423205893536605,0.9943257169786607
2010-12-16,1,0.0011328360788726054,0.0012746252081358882,-0.007919010127174995,0.0029423205893536605,0.9923852321025718
2010-12-20,1,0.0010533919343432767,0.0011697125164080212,-0.009626621299249245,0.0029423205893536605,0.9920734752136874
2010-12-22,1,0.0010142460970506565,0.0011447934621807575,-0.009626621299249245,0.0031472052299391594,0.9923401101236121
2010-12-27,1,0.002426447411554378,0.002769876242569316,-0.014087299249676112,0.0032925040108312395,0.9914911646954337
2010-12-29,1,0.0024044701074645305,0.002724710494932983,-0.014087299249676112,0.003999229867734748,0.9906876748682117
2010-12-31,1,0.0017574766774740213,0.0019783774305607276,-0.014434474867789112,0.006012401355864186,0.9900760952802758
2011-01-04,1,0.00011244596355702711,0.00020484634735746653,-0.014052654333101901,0.0066723856356230874,0.9898817007739941
2011-01-06,-1,-0.001121163087369613,-0.0008715110555114501,-0.009626621299249245,0.009356200054419082,0.9888168181946342
2011-01-10,-1,-0.001604680975896413,-0.0013272850720332753,-0.005843705639507478,0.011875934105613842,0.9891472933560701
2011-01-12,-1,-0.0023130914254221734,-0.001887591363021463,-0.006983873467728945,0.011875934105613842,0.9887228767085833
2011-01-14,-1,-0.0024118785107095923,-0.0019392095668679294,-0.005441712787646821,0.008751250191473554,0.9899562283011818
2011-01-19,-1,-0.0034988715985696563,-0.002852146880488569,-0.004778081155810274,0.008751250191473554,0.9905468637837567
2011-01-21,-1,-0.0039225708423884795,-0.003159862320235075,-0.0038456402141074934,0.012382477890207622,0.9895281068386698
2011-01-25,-1,-0.004359552777532976,-0.0035560598097721108,-0.0038456402141074934,0.015812785627970193,0.9859820711930078
2011-01-27,-1,-0.0028371531969426872,-0.0022798723552796404,-0.0038456402141074934,0.012382477890207622,0.9868390304630847
2011-01-31,0,0.0,0.0,-0.0038456402141074934,0.010805975792194979,0.9875710331730204
2011-02-02,-1,-0.0016162750260925792,-0.0012723921605733697,-0.0035932567174637286,0.010805975792194979,0.9878391045976117
2011-02-04,0,-0.00014027646819221703,1.584775278332313e-06,-0.0035932567174637286,0.010747201945081771,0.9889714856364149
2011-02-08,1,1.9294055614396547e-05,0.0001386795328634864,-0.002615155895109943,0.010215824284838011,0.9891974278879836
2011-02-10,1,0.0002606266342696177,0.0003289771611496114,-0.002615155895109943,0.011136198035449137,0.9888737387993595
2011-02-14,-1,-0.00032519022407904915,-0.00016266689259947502,-0.00407937320489928,0.011136198035449137,0.9882025698139203
2011-02-16,-1,-0.0002826899302832889,-0.00014364966379702178,-0.006814326693624641,0.011136198035449137,0.9876093035459407
2011-02-18,1,0.001159002216288298,0.0012256119890970629,-0.009130226180368859,0.009946477821258414,0.9877512379541368
2011-02-23,1,0.0028233823011246514,0.0031110014358054286,-0.006814326693624641,0.009341167635480098,0.9913580523494596
2011-02-25,1,0.002883091401495832,0.003167574462846881,-0.006814326693624641,0.009081357003818468,0.991500973252762
2011-03-01,1,0.002512166825276163,0.0027745419366734447,-0.006778818281994415,0.009946477821258414,0.9915676339374426
2011-03-03,1,0.0032507772341983376,0.003649520957029798,-0.006778818281994415,0.009946477821258414,0.9906774428978976
2011-03-07,1,0.0035819500131086253,0.0040312389084510795,-0.006778818281994415,0.009081357003818468,0.9908310089161326
2011-03-09,1,0.003869903049773211,0.00437518579885843,-0.007266715912046513,0.00643750089172433,0.9906766456873912
2011-03-11,0,0.0,0.0,-0.007417131118587561,0.004682349291127579,0.9912870929403449
2011-03-15,0,0.0,0.0,-0.006647988914538012,0.00643750089172433,0.9913685096290521
2011-03-17,0,0.0,0.0,-0.003660894523435104,0.007333126667147625,0.9916518774355272
2011-03-21,1,0.002361330790095219,0.0025532339106207865,-0.003660894523435104,0.006879029500193642,0.9922953882665577
2011-03-23,1,0.001916427654005977,0.0020133146885518574,-0.003660894523435104,0.010633900583888068,0.9905861994995454
2011-03-25,1,0.0023341132082775394,0.002546107837418912,-0.003660894523435104,0.009271609083026119,0.9908161410148157
2011-03-29,1,0.0024974971334569772,0.0027210716082669223,-0.0011893798631290905,0.011974265342936953,0.9905988716280173
2011-03-31,1,0.0034098004087473343,0.003792849340573029,-0.0011893798631290905,0.010613736374736888,0.9883375854442608
2011-04-04,1,0.002463565196627093,0.0026865689969447102,-0.006021124813126614,0.010613736374736888,0.9874382952705902
2011-04-06,1,0.001787624973724998,0.001871524901565601,-0.0018493466885382498,0.012057211732683579,0.9871072698630385
2011-04-08,1,0.0011173508892832608,0.001151407799521705,-0.0018493466885382498,0.012057211732683579,0.9871547214200643
2011-04-12,1,0.0016991874884585395,0.001754478275348028,-0.005544808713463146,0.010613736374736888,0.9876736246148473
2011-04-14,1,0.002137338809035138,0.0022795977988803845,-0.006566348500035724,0.012057211732683579,0.9861585524359595
2011-04-18,1,0.0017577612733883738,0.00184982111015334,-0.005544808713463146,0.012057211732683579,0.9867877312160164
2011-04-20,0,0.0,0.0,-0.005544808713463146,0.010613736374736888,0.9879573393633376
2011-04-25,1,0.0028786584647403366,0.0030943315968752876,-0.006566348500035724,0.010613736374736888,0.9856454048880783
2011-04-27,1,0.004198811488872995,0.0046343981136207826,-0.008716818700402492,0.005856830300794327,0.9852805559688411
2011-04-29,1,0.002053800682089226,0.002202819540022002,-0.006566348500035724,0.006622077916465527,0.988751919253906
2011-05-03,1,0.0014093055842024555,0.0014637028942924152,-0.006566348500035724,0.008503090869411253,0.9881857997611535
2011-05-05,1,0.0018980324647859671,0.002022724077962566,-0.009976495625400482,0.006622077916465527,0.9876525494701816
2011-05-09,1,0.001861951583010981,0.0020097177846694543,-0.012010870878099949,0.006622077916465527,0.9874001748948018
2011-05-11,1,0.0018151094630559567,0.0019638528358686272,-0.013192089776487548,0.008503090869411253,0.9861491953302892
2011-05-13,1,0.0020552000999161926,0.0022605366448780694,-0.01409382391973265,0.008503090869411253,0.982348431512328
2011-05-17,1,0.0009465252562787156,0.00098672541885305,-0.01409382391973265,0.008503090869411253,0.9822664418063863
2011-05-19,1,0.0012002528626520168,0.0012663627708462172,-0.01409382391973265,0.008503090869411253,0.9822246769464639
2011-05-23,1,0.0002230703689034353,0.00027640395841897747,-0.012208377755698763,0.01034672156531887,0.9833668114604529
2011-05-25,-1,-0.0004758436192446044,-0.0003257391345681761,-0.010169157412774549,0.01034672156531887,0.9839090551646806
2011-05-27,1,2.8159704610451405e-05,0.00013588554103603333,-0.010169157412774549,0.007941846199392987,0.98519437390836
2011-06-01,-1,-0.000683169952533426,-0.0004713891756614366,-0.009415845957814556,0.009687067694321701,0.9856359261224378
2011-06-03,-1,-0.0014463183664246782,-0.0011314001443254174,-0.003046570607983406,0.016137468581669437,0.9846380974182064
2011-06-07,-1,-0.0018069347333880647,-0.0014474271249028832,-0.0014089601451893893,0.016137468581669437,0.9848599789071014
2011-06-09,-1,-0.0018645888758729095,-0.0015108422669480024,-0.0012856152841289768,0.017908302585630646,0.9855344935988363
2011-06-13,-1,-0.00019483170991569862,-2.172147226727942e-05,-0.0005965613727261739,0.014089755602514952,0.990983623010298
2011-06-15,-1,-0.0005396302835865795,-0.00031035722269327445,-0.000628868118436526,0.014089755602514952,0.9912502573867326
2011-06-17,-1,-0.00038998343861686895,-0.00016120502790136447,-0.0012856152841289768,0.009918436492385593,0.9909829354847833
2011-06-21,1,0.00024059590216886785,0.00038548318488324364,-0.002412466756070121,0.009918436492385593,0.9908045834428523
2011-06-23,0,-0.0001521386196376331,2.905410295687787e-05,-0.002412466756070121,0.014089755602514952,0.9882239977168621
2011-06-27,0,-3.509045454236289e-05,0.00012412543461684945,-0.005508949441016218,0.014089755602514952,0.9874181369748625
2011-06-29,1,0.0007638133685732259,0.0007962569165581592,-0.008803664974780965,0.014050977581443332,0.986608064510478
2011-07-01,0,0.0,0.0,-0.008803664974780965,0.009918436492385593,0.9881176309151392
2011-07-06,0,0.0,0.0,-0.010466850846218604,0.013831609969211123,0.9858477134535644
2011-07-08,1,0.0005592107268498848,0.0005738132452113615,-0.011944816231219561,0.013831609969211123,0.9835707273580356
2011-07-12,0,0.0,0.0,-0.013525012970449663,0.016989501255379607,0.9787313165076967
2011-07-14,0,0.0,0.0,-0.018680203145771665,0.018390580119777324,0.9747626690368981
2011-07-18,0,0.0,0.0,-0.014638306944000028,0.019999685697730248,0.9742512727653589
2011-07-20,1,0.0027177795301316417,0.0028735809414100902,-0.015398922137476529,0.01818397261806054,0.9741590136262379
2011-07-22,1,0.003113692718902579,0.003345164455201814,-0.02493913220942162,0.017525222044496174,0.9739367482863952
2011-07-26,1,0.0027412112155758162,0.0029250059730395322,-0.02493913220942162,0.01818397261806054,0.9723887996873956
2011-07-28,1,0.0021199976786977007,0.002339197062167403,-0.027263312558221987,0.018061590570480485,0.9723588671523572
2011-08-01,1,0.0021689493572628234,0.002389022886100259,-0.027263312558221987,0.021557390225116622,0.970332711765254
2011-08-03,1,0.0018022004355709082,0.0019755507143190514,-0.019153500964724197,0.021557390225116622,0.9725209086361898
2011-08-05,1,0.0009260099920963473,0.0009517546394359527,-0.019153500964724197,0.020937567719966268,0.9736658633872175
2011-08-09,1,0.0002952715234429543,0.00036582738208008317,-0.014185151842599188,0.020937567719966268,0.9775063561890849
2011-08-11,1,0.00016395182735428997,0.00025974210071465074,-0.014185151842599188,0.018061590570480485,0.9805592894141262
2011-08-15,1,0.0009564862828711381,0.0009630474466697312,-0.014185151842599188,0.018661126622829063,0.9798995984789698
2011-08-17,1,0.0004391617023826765,0.0005009572019236478,-0.013773591253718109,0.02501404905741268,0.9791301748898837
2011-08-19,-1,-0.0009497979777593511,-0.0007353611552336465,-0.0009617287199192307,0.02501404905741268,0.9806105421503306
2011-08-23,1,0.0009389444018212298,0.0009715091903219388,-0.004893333099676485,0.018661126622829063,0.9822804694368433
2011-08-25,1,0.0006972578663780935,0.0007031421308454504,-0.004893333099676485,0.02501404905741268,0.9807923593276043
2011-08-29,1,0.0018785661388333885,0.0020126067355584034,-0.004893333099676485,0.019183104589803615,0.9818039599420159
2011-08-31,1,0.0016212629118228267,0.001702743894419069,-0.014049208897393313,0.019183104589803615,0.9799563742566725
2011-09-02,1,0.0008696778547485488,0.0008754802020324057,-0.02048961376286941,0.019183104589803615,0.9788608870082098
2011-09-07,1,0.0017250899834415742,0.0018478350896995541,-0.02048961376286941,0.021222311426301484,0.9778054712546514
2011-09-09,1,0.0008416248465670292,0.0008567189767679677,-0.009138211444934551,0.021222311426301484,0.977858190670403
2011-09-13,0,0.0,0.0,-0.013926357370056184,0.021222311426301484,0.9780978096052216
2011-09-15,0,0.0,0.0,-0.013926357370056184,0.020194533403414427,0.9795601772870705
2011-09-19,0,0.0,0.0,-0.019654324743696425,0.020194533403414427,0.9785586196957284
2011-09-21,0,0.0,0.0,-0.01935053018022835,0.020194533403414427,0.9792445485999306
2011-09-23,0,0.0,0.0,-0.01500941308867032,0.020194533403414427,0.9812663611226425
2011-09-27,0,0.0,0.0,-0.022903491899538834,0.020194533403414427,0.9802398323066172
2011-09-29,0,0.0,0.0,-0.01500941308867032,0.020939751027159455,0.979798574901437
2011-10-03,0,0.0,0.0,-0.006545531049055625,0.020939751027159455,0.9815709632825635
2011-10-05,0,0.0,0.0,-0.012837395058179334,0.02050821657684588,0.9825564532823936
2011-10-07,1,0.0011381377528242632,0.001145843795303387,-0.015353422215113972,0.018573128589782467,0.981954041638915
2011-10-11,1,0.0015782689805670944,0.001676875303527532,-0.015353422215113972,0.015046507197419639,0.9832507135679944
2011-10-13,1,0.0009089209385924132,0.0009314929710958844,-0.02040903424761927,0.015046507197419639,0.9812027928673756
2011-10-17,1,0.0005812555318450603,0.000667163620014098,-0.015353422215113972,0.016149064516643417,0.9818422707710392
2011-10-19,1,0.0008613760597733977,0.0008685830796127403,-0.013886127374642595,0.016149064516643417,0.9825169228266764
2011-10-21,1,0.0011144012501935557,0.0011168681934902926,-0.013886127374642595,0.014147186732144818,0.9828458673067643
2011-10-25,0,-4.580973889257197e-05,0.00013757236064128688,-0.013886127374642595,0.009950986573027773,0.9847103679940769
2011-10-27,1,0.0008860311437356395,0.0009808556915532952,-0.014005991399025454,0.005353751057317898,0.9857859728224799
2011-10-31,1,0.0003866631710076734,0.000569715351938398,-0.01398049355956123,0.006742340098405602,0.9838236446597582
2011-11-02,1,0.001997770168828702,0.0020152716618882793,-0.012121544278744135,0.006742340098405602,0.9836956537578176
2011-11-04,1,0.0009950151608252309,0.001105229578459948,-0.010199750003445538,0.006244117560566689,0.9854434697550775
2011-11-08,1,0.0008029225577962658,0.0009132261826166683,-0.009758069768589048,0.005856012490537591,0.985328433594274
2011-11-10,1,0.0006091459906555923,0.0007031264323732295,-0.009758069768589048,0.005712023850239981,0.9862864431350786
2011-11-14,1,0.0009536373157040164,0.0010319260260347935,-0.010796503574174662,0.003428009149175259,0.9856046113740276
2011-11-16,1,0.0006489123370006674,0.0007759307522985524,-0.009758069768589048,0.00024136628219312793,0.9859920866492766
2011-11-18,1,0.00030698157202078686,0.0004422202758176798,-0.010686538500942469,0.0047903304471398215,0.9860941673767092
2011-11-22,0,0.0,0.0,-0.009224807033215786,0.0047903304471398215,0.9870023429812208
2011-11-25,0,0.0,0.0,-0.009224807033215786,0.008782828774444314,0.9862523253852251
2011-11-29,1,0.0016049766390682243,0.0016599220643471102,-0.010275920874600804,0.008782828774444314,0.9878813338382829
2011-12-01,0,0.0,0.0,-0.012110644314674542,0.0047903304471398215,0.9894129573118905
2011-12-05,0,0.0,0.0,-0.012110644314674542,0.008782828774444314,0.9870082633408319
2011-12-07,0,0.0,0.0,-0.012110644314674542,0.008782828774444314,0.9872294208582265
2011-12-09,0,0.0,0.0,-0.011491058614919463,0.008121470282617439,0.9880202840511432
2011-12-13,0,0.0,0.0,-0.011491058614919463,0.009087282323864881,0.988542686832168
2011-12-15,1,0.0002631570657652011,0.000338301673713079,-0.011491058614919463,0.009087282323864881,0.9883704908773729
2011-12-19,-1,-0.00018834707157823157,-4.782443374406732e-05,-0.008768911018927565,0.009087282323864881,0.9892388001606081
2011-12-21,-1,-0.0007364227553848529,-0.0005213602657077605,-0.009587471725398736,0.009087282323864881,0.9891398940787245
2011-12-23,-1,-0.000998190471020142,-0.000719892865787007,-0.008168186353710244,0.009087282323864881,0.9899899235739281
2011-12-28,-1,-0.0019324252250293356,-0.0014500927840866262,-0.008168186353710244,0.006375251860901684,0.9900987398065102
2011-12-30,-1,-0.002621636675177148,-0.00202991319098645,-0.006812167566138928,0.006375251860901684,0.9901304081822979
2012-01-04,-1,-0.00038867065959608134,-7.953536389386452e-05,-0.0070502756085198525,0.003935978819076422,0.9930917482202731
2012-01-06,-1,-0.00025433186987521114,-2.4688708791647694e-05,-0.006530481840683372,0.004775086523066361,0.9921191530781839
2012-01-10,-1,-0.0009473046827587917,-0.0005842666276799765,-0.005854353003594623,0.006560059168329272,0.9903542125950456
2012-01-12,-1,-0.0029402896476405727,-0.0022201437732179393,-0.005854353003594623,0.007280288861030481,0.9901310559512218
2012-01-17,-1,-0.0018133755823601814,-0.0013372724612694365,-0.00506275685391183,0.012331542044490364,0.9897952940987365
2012-01-19,-1,-0.002163428141274056,-0.0016184529194733564,-0.00506275685391183,0.014226173236904768,0.988365078349084
2012-01-23,-1,-0.0013013548332849068,-0.0009557289584949636,-0.005632576276484978,0.014226173236904768,0.9881103658349771
2012-01-25,-1,-0.0008449014662589752,-0.0005509884394700696,-0.005948248447848736,0.014035092264442654,0.9886223730012407
2012-01-27,-1,-0.002919619270584711,-0.0022985328570329384,-0.005145725753292077,0.018180468105005523,0.9880757706506403
2012-01-31,-1,-0.002438533309334282,-0.0019089822749007385,-0.005948248447848736,0.018180468105005523,0.9881424137133046
2012-02-02,-1,-0.003671691183128892,-0.0029471030107678436,-0.005012634545205468,0.018180468105005523,0.9876635604353621
2012-02-06,-1,-0.0019785272256004124,-0.001543601145324614,-0.005948248447848736,0.013649640333857281,0.9888039686826057
2012-02-08,1,0.0007902101118964021,0.0008118541760862575,-0.005948248447848736,0.009938607539146068,0.9906361443458603
2012-02-10,1,0.0012982847035561903,0.0013735340440029977,-0.0046103377693520724,0.008473334869512397,0.9914605093916127
2012-02-14,1,0.0008780084894272135,0.0009271345381588554,-0.005948248447848736,0.008473334869512397,0.9912960372181344
2012-02-16,1,0.002026411589983752,0.0021791785442661213,-0.005948248447848736,0.006975283572841762,0.9925369551547973
2012-02-21,1,0.0019161571897389025,0.0021160341248893525,-0.0038652835604341164,0.006975283572841762,0.9935899387220705
2012-02-23,1,0.0011102358469081701,0.0011397157330518967,-0.0025183749736273067,0.006975283572841762,0.9940779360503639
2012-02-27,1,0.0007540720999263378,0.0008557312575391057,-0.0038652835604341164,0.006007486107980788,0.9933480495041057
2012-02-29,1,0.0011815619872239688,0.0012295613995460524,-0.0035659622778024566,0.006007486107980788,0.9931511124626232
2012-03-02,1,0.0015895671803467747,0.001726438504439896,-0.005294217751510449,0.004770614797863299,0.9923359823978681
2012-03-06,1,0.0013605567434095702,0.0014828266009583586,-0.0035659622778024566,0.006007486107980788,0.9922272255211786
2012-03-08,1,0.0015632781056660876,0.0017120643477614747,-0.004720900466702051,0.006007486107980788,0.9916949944778358
2012-03-12,1,0.0014706871001349685,0.0015936703648509617,-0.009921116392919002,0.004822830030143938,0.9901422312744187
2012-03-14,1,0.0012071454057899383,0.0012698457324975309,-0.008201164538493807,0.005605470169437484,0.9906270316451329
2012-03-16,1,0.0016020179396410918,0.001758933391225175,-0.008201164538493807,0.006769834464733852,0.9899751422470169
2012-03-20,1,0.0018486573034802898,0.0020350029024797473,-0.008201164538493807,0.0076447244484738625,0.9894984759061473
2012-03-22,1,0.002538395221310362,0.0028862119150254136,-0.008201164538493807,0.010016592902155399,0.9890452725586691
2012-03-26,1,0.0027824347811971238,0.003150953490564848,-0.008201164538493807,0.0076447244484738625,0.9895279400900687
2012-03-28,1,0.00245729050893107,0.0027906324504984757,-0.006902274201983245,0.01154189139491108,0.9886029282701783
2012-03-30,1,0.001672133472577547,0.0018735993192353381,-0.006902274201983245,0.01154189139491108,0.9888649041755778
2012-04-03,1,0.0022543121298203165,0.002515921788846084,-0.006902274201983245,0.01154189139491108,0.9890066992422333
2012-04-05,1,0.001976188448005346,0.0021538791053143636,-0.010918905465264023,0.01039351934868478,0.9874295529488737
2012-04-10,0,0.0,0.0,-0.009441527670297012,0.01039351934868478,0.9869949147432575
2012-04-12,0,0.0,0.0,-0.013428122494542012,0.009432500115363344,0.9868795467895802
2012-04-16,0,0.0,0.0,-0.013428122494542012,0.007324384704033384,0.9875013577225968
2012-04-18,1,0.0008510030818547761,0.0008920791722145263,-0.013428122494542012,0.005143937547140136,0.9873129067630374
2012-04-20,1,0.0008822966490198886,0.0008879510722831738,-0.013793316027098976,0.0019926351936919917,0.9863102188846387
2012-04-24,1,0.000793892903939429,0.0008756928510765356,-0.013428122494542012,0.01010762073559798,0.9857875246450939
2012-04-26,1,0.0027756137621371764,0.0031438441960822076,-0.013428122494542012,0.005143937547140136,0.9865431937446917
2012-04-30,1,0.002594109371290125,0.002966372710042753,-0.011107217702253029,0.010161414398903137,0.9865666961735322
2012-05-02,1,0.0029258319133477,0.003301432830944551,-0.013428122494542012,0.0021903005117265752,0.9861531199514544
2012-05-04,1,0.0010095549020470893,0.0010910743042172706,-0.011107217702253029,0.006423893214615165,0.9863798306410676
2012-05-08,-1,-0.0017364119898342408,-0.0014068934537927323,-0.005753556475313689,0.01344809569816953,0.9877155814728815
2012-05-10,-1,-0.002714303780024991,-0.002246727294655657,-0.002996780228638758,0.01344809569816953,0.9878928994764195
2012-05-14,-1,-0.0030891491097217376,-0.0025639885798731245,-0.004763604083142241,0.013580943865879372,0.9866691390685824
2012-05-16,-1,-0.003504332677244685,-0.0029200961042279137,-0.005070928683113759,0.013580943865879372,0.9859582616707595
2012-05-18,-1,-0.0046036134264011664,-0.003908592853815922,-0.0018527654358280678,0.013580943865879372,0.985923167319569
2012-05-22,-1,-0.0032045675767059844,-0.0026746377763227857,-0.0018527654358280678,0.012430867631574378,0.9882265141989098
2012-05-24,-1,-0.0031167656064543057,-0.002562004507386967,-0.005070928683113759,0.012430867631574378,0.9871562768487183
2012-05-29,-1,-0.0012505123472954288,-0.0010221521461527333,-0.012091782037661796,0.011339503769473454,0.9870582070437647
2012-05-31,-1,-0.002185252421459543,-0.0018257739816017276,-0.012091782037661796,0.011339503769473454,0.9863443378720315
2012-06-04,-1,-0.003244673146973621,-0.0027593576087712015,-0.011602149167643188,0.009466054813252946,0.9886198846945149
2012-06-06,-1,-0.0025638270077114043,-0.0021436540978579813,-0.011602149167643188,0.008456716569837212,0.9886210886329879
2012-06-08,0,0.0,0.0,-0.011602149167643188,0.008456716569837212,0.9881926415340286
2012-06-12,0,0.0,0.0,-0.011374319333260774,0.008456716569837212,0.9877061630179799
2012-06-14,-1,-0.0005154035322548919,-0.0004100821624180176,-0.010850652526093501,0.008456716569837212,0.9875138415113756
2012-06-18,0,0.0,0.0,-0.010850652526093501,0.009028864252830632,0.9872656093741281
2012-06-20,0,0.0,0.0,-0.010850652526093501,0.013049093761231798,0.9836372744904648
2012-06-22,0,0.0,0.0,-0.010850652526093501,0.009327647261964805,0.9850701605795205
2012-06-26,1,0.0011474752018633167,0.0011753086745833574,-0.008534045399732999,0.009327647261964805,0.9856028876886407
2012-06-28,0,0.0,0.0,-0.007459060222923336,0.009771144066005422,0.9865094890470716
2012-07-02,0,0.0,0.0,-0.006593990636689571,0.009771144066005422,0.9869344970468256
2012-07-05,0,0.0,0.0,-0.007459060222923336,0.009327647261964805,0.9870791475342885
2012-07-09,0,0.0,0.0,-0.00664564122932019,0.009771144066005422,0.9864140039715797
2012-07-11,0,0.0,0.0,-0.00664564122932019,0.009771144066005422,0.9870511419257781
2012-07-13,0,0.0,0.0,-0.00831777591145229,0.009327647261964805,0.9877035022506457
2012-07-17,0,0.0,0.0,-0.00831777591145229,0.009759707606599787,0.9875760434539893
2012-07-19,0,0.0,0.0,-0.00831777591145229,0.009012265469539859,0.9910708200444392
2012-07-23,0,0.0,0.0,-0.00831777591145229,0.011289609817711339,0.9901081285229911
2012-07-25,1,0.0012471401057620088,0.001454846311032292,-0.005282655982881592,0.011289609817711339,0.9908991063891667
2012-07-27,1,0.0015129569266061063,0.001728626576919272,-0.005282655982881592,0.011573821387094386,0.9908872143409518
2012-07-31,1,0.0014693876117428304,0.0016947904001862767,-0.0045521538377294325,0.011965676464695664,0.9901307686396317
2012-08-02,0,0.0,0.0,-0.0038042927981154166,0.011965676464695664,0.9913643105901178
2012-08-06,0,0.0,0.0,-0.0045521538377294325,0.011573821387094386,0.9918846932014704
2012-08-08,0,0.0,0.0,-0.0038042927981154166,0.01004931748155728,0.9925018168541644
2012-08-10,0,0.0,0.0,-0.0031043734527044873,0.01004931748155728,0.9926585150665244
2012-08-14,0,0.0,0.0,-0.0031043734527044873,0.00789508355371277,0.9931754162791873
2012-08-16,0,0.0,0.0,-0.0031043734527044873,0.01004931748155728,0.9910792083418117
2012-08-20,0,0.0,0.0,-0.00329583299535162,0.00789508355371277,0.9916461133636494
2012-08-22,0,0.0,0.0,-0.0033724813956003677,0.00789508355371277,0.9916034261569902
2012-08-24,0,0.0,0.0,-0.0037327442218808566,0.006950974417104639,0.9914618599187708
2012-08-28,0,0.0,0.0,-0.0037327442218808566,0.006079690904811076,0.9922112445839305
2012-08-30,0,0.0,0.0,-0.004786379508218875,0.006950974417104639,0.9915308008283341
2012-09-04,0,0.0,0.0,-0.004233065737387394,0.00789508355371277,0.9910826840162413
2012-09-06,1,0.0026271094210721683,0.0029806034665874146,-0.004233065737387394,0.008272028918150494,0.990960859149575
2012-09-10,1,0.003027081390329551,0.0034358108324938387,-0.005071468604068432,0.007146579715229513,0.9905168552965087
2012-09-12,1,0.0033526226798306635,0.0038315978481555657,-0.006831933555431113,0.007146579715229513,0.9898998710061349
2012-09-14,1,0.004382146601365841,0.004952559830765447,-0.006831933555431113,0.0040818243846131265,0.991364552008044
2012-09-18,1,0.004181118716444131,0.004814756107799511,-0.005071468604068432,0.01074012050519456,0.9915754838261555
2012-09-20,1,0.004075244883797554,0.004650524473671419,-0.005071468604068432,0.01074012050519456,0.9918494748253491
2012-09-24,1,0.003659588282453204,0.004263852651943892,-0.005071468604068432,0.01074012050519456,0.9901505067584845
2012-09-26,1,0.0031203047220730333,0.003538954182959523,-0.006831933555431113,0.01074012050519456,0.9888657539515538
2012-09-28,1,0.0026220984815394917,0.0028669696045577394,-0.007806572626838399,0.007762664549988487,0.9888363010800125
2012-10-02,1,0.0025875372536532794,0.0027924541475561455,-0.007806572626838399,0.010935164252085374,0.9885155526982407
2012-10-04,1,0.002275465030960883,0.0024761281860062657,-0.009826185121240918,0.007762664549988487,0.9886888835557084
2012-10-08,0,0.0,0.0,-0.010108661050896212,0.010935164252085374,0.9877922415788772
2012-10-10,0,0.0,0.0,-0.011268376999690232,0.010935164252085374,0.9868434343573168
2012-10-12,1,0.0011010467068274217,0.0011923187497872392,-0.013959172273102439,0.011878383931072805,0.984332331763218
2012-10-16,1,0.004488876749334354,0.00494423260838772,-0.014677634126941728,0.005168349072995276,0.9841852265934785
2012-10-18,1,0.00470176535749586,0.005211622812478139,-0.014677634126941728,0.008606190735941313,0.9839558987772566
2012-10-22,1,0.0016591754338924404,0.0017123249083433063,-0.011507864284303329,0.008606190735941313,0.9868903995925353
2012-10-24,-1,-0.0003308925000901792,-5.931901236686204e-05,-0.010108661050896212,0.01110449245277519,0.9877623800984481
2012-10-26,-1,-0.0004797802938847431,-0.00024196515329487898,-0.009129177091065706,0.012043297950620205,0.9860399464750057
2012-11-01,0,0.0,0.0,-0.009129177091065706,0.008341464779797235,0.9870235581650962
2012-11-05,0,0.0,0.0,-0.009679728445522643,0.008341464779797235,0.9861493588586233
2012-11-07,0,0.0,0.0,-0.009453329301014415,0.004648067823901675,0.9866934071013728
2012-11-09,-1,-0.000265824099772972,-0.00015604851177809727,-0.009453329301014415,0.004648067823901675,0.9868598591493555
2012-11-13,0,-0.00014997062476832478,2.8747916345470722e-05,-0.009093243531138216,0.004648067823901675,0.9885813309032877
2012-11-15,-1,-0.000917564289486323,-0.0006629467379573483,-0.009093243531138216,0.005641385487678168,0.9886067090610707
2012-11-19,-1,-0.0011023874561672592,-0.0007404938433672496,-0.009093243531138216,0.004877902515745076,0.9884692339836492
2012-11-21,0,0.0,0.0,-0.009093243531138216,0.004877902515745076,0.988136927748058
2012-11-26,-1,-0.002072284791505696,-0.001574087232169481,-0.009093243531138216,0.0037309753249764634,0.9896552153870991
2012-11-28,-1,-0.0007623016977998035,-0.00044515640319307283,-0.010802939363000981,0.0037309753249764634,0.9901868972102889
2012-11-30,-1,-0.0014606585329729864,-0.0010431343622531357,-0.012009312229382861,0.004877902515745076,0.9893018345840018
2012-12-04,-1,-0.0024328921963756352,-0.001907307698736146,-0.010802939363000981,0.006141830714150386,0.9905147347485789
2012-12-06,-1,-0.0026911518554555485,-0.002183601207566978,-0.010929054919754261,0.010459819412865898,0.9892697587296004
2012-12-10,-1,-0.003760175743848033,-0.0031322961752821166,-0.010494746734111245,0.010459819412865898,0.9899991413631565
2012-12-12,-1,-0.0017490583876062964,-0.001501553406397372,-0.011084734342713655,0.010459819412865898,0.9894967571197926
2012-12-14,-1,-0.0024583514481480735,-0.0021012191954739145,-0.005725025783234843,0.013595520016691311,0.9887134785065246
2012-12-18,-1,-0.001992559937255638,-0.0016542204732195422,-0.010881876884351622,0.010459819412865898,0.9894278637076933
2012-12-20,0,0.0,0.0,-0.011779086524556608,0.010459819412865898,0.9880305492587543
2012-12-24,0,0.0,0.0,-0.012471232875263636,0.012746693862499957,0.9860005645748892
2012-12-27,0,0.0,0.0,-0.011779086524556608,0.012746693862499957,0.9858861088727605
2012-12-31,0,0.0,0.0,-0.010881876884351622,0.010272769929952835,0.9867235439319288
2013-01-03,0,0.0,0.0,-0.010881876884351622,0.012576028757933237,0.9866729559535797
2013-01-07,0,0.0,0.0,-0.009106875269083683,0.011862614691051517,0.9878815401326067
2013-01-09,-1,-0.0036421316472365147,-0.0031092618583971813,-0.00857661352453954,0.01370446094229727,0.9866984503159896
2013-01-11,-1,-0.002291261747756198,-0.0019588207268012433,-0.0069677255976260625,0.012576028757933237,0.9880384253039081
2013-01-15,-1,-0.0012213473301818391,-0.0009983403361688774,-0.0069677255976260625,0.011862614691051517,0.9893886107144161
2013-01-17,-1,-0.002039172991990773,-0.0017126430678821114,-0.005796104023704781,0.012576028757933237,0.9882505571114936
2013-01-22,-1,-0.00248403956389541,-0.0021173004504412038,-0.005796104023704781,0.01370446094229727,0.9869925157733139
2013-01-24,-1,-0.002876046849110278,-0.0024971416230302607,-0.005796104023704781,0.01370446094229727,0.9888359375181309
2013-01-28,-1,-0.002440230142819829,-0.002105153705111841,-0.005796104023704781,0.01187899906939786,0.9898758801672157
2013-01-30,-1,-0.0031326254206522144,-0.002703721268956908,-0.005611494171996207,0.01370446094229727,0.9888918281267771
2013-02-01,0,0.0,0.0,-0.005611494171996207,0.016884148665607123,0.9890687601197354
2013-02-05,1,0.00026792901504815784,0.0003089180089304879,-0.005726974900827697,0.016884148665607123,0.9893826872897327
2013-02-07,-1,-0.00023826901358457172,-0.00020220729735511924,-0.005726974900827697,0.004225245382358726,0.9907368466917569
2013-02-11,1,0.0006201971535443534,0.0008408244465412603,-0.004672289396029453,0.005724772426227693,0.9908070378080212
2013-02-13,1,0.0002230476481595856,0.0003328761315964437,-0.004672289396029453,0.007189307907497903,0.9903950895257585
2013-02-15,0,0.0,0.0,-0.006420894555430072,0.006027624580086689,0.9915411344845504
2013-02-20,1,0.0012203149512484562,0.001407376695240036,-0.004672289396029453,0.006027624580086689,0.9936858942331843
2013-02-22,1,0.0008018662581315695,0.0009356330513390439,-0.0036775661548445115,0.006027624580086689,0.9940712881960247
2013-02-26,0,0.0,0.0,-0.00300565653656898,0.006027624580086689,0.9941496902726938
2013-02-28,0,0.0,0.0,-0.00300565653656898,0.006027624580086689,0.9945471551877939
2013-03-04,0,0.0,0.0,-0.0031485271043214065,0.006027624580086689,0.994232397654514
2013-03-06,0,0.0,0.0,-0.0014290312643936418,0.007189307907497903,0.9942856167026525
2013-03-08,1,0.0011540208863464654,0.0013381983736596944,-0.0014290312643936418,0.007189307907497903,0.9944930596702113
2013-03-12,0,0.0,0.0,-0.0014290312643936418,0.00784469818036418,0.9934927665798508
2013-03-14,0,0.0,0.0,-0.00312343663586995,0.006266159903884172,0.9937751556584294
2013-03-18,0,0.0,0.0,-0.00312343663586995,0.009517816343803784,0.991741067917281
2013-03-20,0,0.0,0.0,-0.004504622503083238,0.006266159903884172,0.9919400324074104
2013-03-22,1,0.0024638588521541794,0.0028791724623556903,-0.004504622503083238,0.009517816343803784,0.9906344108783383
2013-03-26,1,0.0021126389748588924,0.0024490117829247867,-0.004504622503083238,0.009517816343803784,0.9908969509989263
2013-03-28,1,0.0031423516001627336,0.00368440617915083,-0.006008829259223823,0.01032360489659578,0.9889825880092487
2013-04-02,1,0.0029988203300143623,0.003498278766633129,-0.004504622503083238,0.011698127137049395,0.9893293201908177
2013-04-04,0,0.0,0.0,-0.006008829259223823,0.011542006912898898,0.9886256645540822
2013-04-08,0,0.0,0.0,-0.006008829259223823,0.014286477351813494,0.9884161824685437
2013-04-10,1,0.003670312970391397,0.004145261682307036,-0.0038052598664429743,0.013060525255274761,0.9889079625627644
2013-04-12,1,0.0030376786024141926,0.003386267585240174,-0.0023816773681278654,0.014031683465505453,0.9886747625794385
2013-04-16,1,0.0029733138241188495,0.0033558829394589942,-0.0023816773681278654,0.013416410006046316,0.9903743632662785
2013-04-18,1,0.0023718264074337734,0.0026685597172659316,-0.0013412445824512022,0.013416410006046316,0.9898411495441347
2013-04-22,1,0.003544703111167894,0.003999315104490472,-0.0013412445824512022,0.012728456839371231,0.99052416356852
2013-04-24,1,0.00427303804111951,0.0048902349945941954,-0.0027354203676017547,0.012728456839371231,0.9902452999331959
2013-04-26,1,0.004042718806758489,0.0046015475652382495,-0.0027354203676017547,0.012309622453392092,0.9918320092219873
2013-04-30,1,0.003986788718691858,0.004469652870377847,-0.0027354203676017547,0.010282911173597645,0.9924655817802625
2013-05-02,1,0.002845250322099357,0.0031314514303136263,-0.0027354203676017547,0.010282911173597645,0.9930502474193664
2013-05-06,1,0.002529810465442482,0.0027043520402963137,-0.0027354203676017547,0.00958781500386588,0.9931779344067642
2013-05-08,1,0.003222431073635131,0.0035002481649253543,-0.004831814973884652,0.00651444596642428,0.9931568305873936
2013-05-10,1,0.0032255216268465567,0.003473128480354878,-0.004831814973884652,0.00651444596642428,0.9932459898045112
2013-05-14,1,0.0037954383638409608,0.004162207901556304,-0.0038202989050448504,0.006271927039704711,0.9937885264515106
2013-05-16,1,0.002662605127954312,0.002856562216244627,-0.005745990628307419,0.006271927039704711,0.9941915969615936
2013-05-20,1,0.003231512642944863,0.0034874251054519572,-0.005745990628307419,0.005538410858806306,0.9943660763144118
2013-05-22,1,0.002837187678253658,0.0030333580523037923,-0.005745990628307419,0.006271927039704711,0.9928697248885298
2013-05-24,1,0.0025173255548726,0.0026765293249414127,-0.00467581914605964,0.006271927039704711,0.9928945167750742
2013-05-29,1,0.0025188449614287956,0.0026802633661563856,-0.00467581914605964,0.009830597910339607,0.9919618535630927
2013-05-31,0,0.0,0.0,-0.0034307962628883164,0.009830597910339607,0.9916099929829971
2013-06-04,0,0.0,0.0,-0.00467581914605964,0.01030427600226351,0.9914835930376585
2013-06-06,1,0.0017285031966081722,0.001744735954147329,-0.0025756662758172565,0.011036060381129656,0.9917637975640612
2013-06-10,1,0.0025632739885442534,0.00271744731730442,-0.0025756662758172565,0.01030427600226351,0.9923998476349662
2013-06-12,1,0.0024208831572373702,0.002506886083012016,-0.0033133217692104134,0.01030427600226351,0.992150564471981
2013-06-14,1,0.001272785863013077,0.0013696019313320464,-0.001098069901845895,0.01030427600226351,0.9925148370353729
2013-06-18,1,0.0010627540984122516,0.0012333392442656842,-0.0030873042571650943,0.009486682597008134,0.9926608223203541
2013-06-20,1,0.0003330249237710238,0.0005728824932337854,-0.0030873042571650943,0.009486682597008134,0.9934537350756865
2013-06-24,-1,-0.0005134089947315694,-0.00014368074293670324,-0.0030873042571650943,0.009486682597008134,0.9928449083807183
2013-06-26,1,0.0006757567360536131,0.0008853414528096725,-0.0030873042571650943,0.0069587370326472525,0.9940903293151118
2013-06-28,1,0.0008503455651293631,0.0010381294719156654,-0.004252667274108499,0.0069587370326472525,0.9936613710244641
2013-07-02,1,0.001414385650694334,0.001479003984478172,-0.0030873042571650943,0.006622992130090473,0.994271069739335
2013-07-05,1,0.001401202171325313,0.0014966680634105364,-0.0030873042571650943,0.006622992130090473,0.9936727315281383
2013-07-09,1,0.0015423283135833476,0.0016275694615782302,-0.003994708148830096,0.006231095086995668,0.9936171733831463
2013-07-11,1,0.002195266453829708,0.002256639026568905,-0.005942547687100566,0.005647063077015433,0.9932900342877077
2013-07-15,1,0.0020613665479208582,0.002138011118959758,-0.005942547687100566,0.005647063077015433,0.993190907550386
2013-07-17,1,0.001323802152132734,0.001370833140322449,-0.006724628446429622,0.005647063077015433,0.9929445679383018
2013-07-19,1,0.0008551140871530569,0.0009718300370582152,-0.006724628446429622,0.004929814026995105,0.9931637414789888
2013-07-23,1,0.0009356871713808136,0.0010079764227484158,-0.00666293382964369,0.003530606996986992,0.9933824698520949
2013-07-25,1,0.0012557990645629437,0.0012721163631931147,-0.00666293382964369,0.0028246272152964466,0.9933090948268261
2013-07-29,1,0.0008983602101970972,0.0009662786853994717,-0.00666293382964369,0.0021647393535255254,0.993630111614004
2013-07-31,1,0.0006272307355722339,0.0007395850894685953,-0.00971037920038106,0.0022922598820339203,0.9930456889333501
2013-08-02,1,0.0012911633275387452,0.0013313159673198072,-0.00971037920038106,0.0017656990926516111,0.9940373454913527
2013-08-06,1,0.0010937110694257536,0.0011425514903044525,-0.00971037920038106,0.0022922598820339203,0.9933261614673062
2013-08-08,1,0.0003575751810088503,0.0005142199436798322,-0.00971037920038106,0.0022922598820339203,0.9933849234041822
2013-08-12,1,0.0003897065112572967,0.0005190372997834827,-0.00971037920038106,0.0025592434914224684,0.9934119718796538
2013-08-14,-1,-0.0002299291597607974,-1.9446937942225735e-05,-0.005925770659540028,0.0030968684233137296,0.9936175463967424
2013-08-16,-1,-0.0010693449528657083,-0.0007498592596738054,-0.0002306686433695142,0.004096856657900399,0.9937578789834811
2013-08-20,-1,-0.0011757645408433685,-0.0008617594408880941,0.001400206218317581,0.006660106067638526,0.9931597212503565
2013-08-22,-1,-0.0014463991489462966,-0.0010973103156445832,0.001659185452171784,0.008310457273016686,0.991980515040187
2013-08-26,-1,-0.0016513145090910294,-0.001290973138189318,0.001258169846874937,0.008310457273016686,0.992199126127423
2013-08-28,-1,-0.002289176951870665,-0.0018522524075628131,0.001258169846874937,0.008310457273016686,0.9918486930962391
2013-08-30,-1,-0.00198849910950358,-0.0016068668752109775,-0.000563374262360176,0.008310457273016686,0.9919337185446975
2013-09-04,-1,-0.0012803531665982334,-0.0009687635878281515,-0.004661321904157131,0.004710160492294316,0.9929434531194549
2013-09-06,-1,-0.001935669359245985,-0.0015158623441857322,-0.004661321904157131,0.005175973046716541,0.9927627406639093
2013-09-10,-1,-0.002176298224920906,-0.0017038925347969867,-0.005899955130645863,0.005175973046716541,0.9916365471852815
2013-09-12,-1,-0.0011296019199677934,-0.0008314333057616819,-0.005899955130645863,0.008574756973859822,0.9911099863904566
2013-09-16,-1,-0.0007976201119656892,-0.0005501971992792715,-0.005899955130645863,0.008574756973859822,0.9907455459318363
2013-09-18,0,-0.00013563447999456616,3.9147312752797737e-05,-0.00673693480534408,0.008191990800500249,0.9901102241035389
2013-09-20,1,0.0008320033492686463,0.0008600759568866149,-0.00673693480534408,0.008191990800500249,0.9907095250058149
2013-09-24,1,0.00017479018400261352,0.0003118471836096573,-0.00673693480534408,0.010579094834900419,0.9892778369085402
2013-09-26,-1,-0.0002623608082482729,-8.83928441860408e-05,-0.00673693480534408,0.010579094834900419,0.9894911304710206
2013-09-30,0,-4.329520461155155e-05,7.171402433348522e-05,-0.00673693480534408,0.011954137898576868,0.9885758194481733
2013-10-02,-1,-0.0005050381090074261,-0.0003515637583001395,-0.005219862280266324,0.011954137898576868,0.9889034418880681
2013-10-04,-1,-0.0002568636550627776,-0.000145193912574734,-0.003108540996273488,0.011954137898576868,0.9896143552881137
2013-10-08,-1,-0.001955489771671216,-0.001615151425241742,0.000792139971788283,0.01250817418619711,0.9894419053972957
2013-10-10,-1,-0.0005905808825890041,-0.00044562970797403645,-0.0004954098737276684,0.012035940022323714,0.9896605583059797
2013-10-14,-1,-0.00017717422611174353,-7.389499344346147e-05,-0.0004954098737276684,0.012035940022323714,0.9901003110022003
2013-10-16,1,0.0003061924124149087,0.0003681433863714441,-0.0004954098737276684,0.012035940022323714,0.9905503422894457
2013-10-18,1,0.0008453692262084414,0.000847622159706697,-0.0004954098737276684,0.00892272393934714,0.9908871244165319
2013-10-22,1,0.0018252955979140874,0.0019436731556521137,-0.003108540996273488,0.0072134178107919715,0.9923715835827169
2013-10-24,1,0.001847775591080509,0.0019945613137128675,-0.0013357527836951701,0.0072134178107919715,0.9928632041889516
2013-10-28,1,0.0024841506510193834,0.0026862035618958643,-0.0013357527836951701,0.006991176949765612,0.9922995117862273
2013-10-30,1,0.002287128290564335,0.002482556054950027,-6.0964422735500354e-05,0.006991176949765612,0.9928144126699524
2013-11-01,1,0.0024621883104611474,0.0027044062665837476,-0.0008351096270008543,0.006991176949765612,0.9926511672350375
2013-11-05,1,0.0027397416578336022,0.0029852287174613875,-0.001640796994709423,0.005882316146365374,0.992625777216137
2013-11-07,1,0.0024613205848238893,0.0027012840232119037,-0.001640796994709423,0.005109036928833965,0.9942052180397829
2013-11-11,1,0.0022951785893645434,0.0024676921383714667,-0.0024405026836081542,0.004743872171818195,0.9937923165739992
2013-11-13,1,0.00261725898850945,0.0028123383677348653,-0.0024405026836081542,0.004743872171818195,0.9940628068461581
2013-11-15,1,0.003395717982659383,0.0037481146379723254,-0.0024405026836081542,0.004449627844502508,0.9936486501482407
2013-11-19,1,0.0031906442216445437,0.003528433688084279,-0.0021589806127780735,0.005109036928833965,0.9935380607178469
2013-11-21,1,0.003121262802662473,0.0034494711040732482,-0.0024405026836081542,0.006612069120198301,0.992140544657848
2013-11-25,1,0.004599838267696529,0.0051441803487760895,-0.0029212439086424872,0.004449627844502508,0.9925741533046416
2013-11-27,1,0.004911087566676108,0.005512053594913388,-0.004497766295550445,0.006120070447759981,0.9915135781265708
2013-12-02,1,0.00503208637899057,0.005654447440264899,-0.004497766295550445,0.008379111167207546,0.9916642972189338
2013-12-04,1,0.004511483561641836,0.005055407911025324,-0.0037770132513246656,0.008379111167207546,0.9921268757669401
2013-12-06,1,0.004112195826295628,0.0045743589038650485,-0.004856290547405711,0.008379111167207546,0.9920468302906544
2013-12-10,1,0.003488418292182856,0.003856341555135173,-0.0037770132513246656,0.009747258990099159,0.992427109567861
2013-12-12,1,0.0034282726820694586,0.0037716295669883108,-0.0037770132513246656,0.008379111167207546,0.9915287665061548
2013-12-16,1,0.003739743468563291,0.004134921669052955,-0.003812072172952715,0.0052517293542373375,0.9914990658765709
2013-12-18,1,0.003970932995146294,0.004387524191496064,-0.006603494511651137,0.004040212342769697,0.9906170801163258
2013-12-20,1,0.0047408986328869715,0.005247342999221702,-0.006603494511651137,0.0037913306757377105,0.9914992776651426
2013-12-24,1,0.004907688960342138,0.005483052375647128,-0.0066745140169102565,0.0035506526149809126,0.9905469795097281
2013-12-27,1,0.004784294274532099,0.005321811360037976,-0.006463861782143278,0.0035506526149809126,0.9912023263141957
2013-12-31,1,0.004667476974341549,0.005160818184846971,-0.0066745140169102565,0.003038925122350742,0.9889862468767414
2014-01-03,1,0.003920805584284386,0.004308884101445944,-0.014844806058670872,0.003038925122350742,0.987259017895725
2014-01-07,1,0.0034018499119534674,0.0036943589029589294,-0.014844806058670872,0.003038925122350742,0.9873998517697968
2014-01-09,1,0.0031267981148002198,0.003337839181979984,-0.014844806058670872,0.0035506526149809126,0.986121923274767
2014-01-13,1,0.0017268665012955878,0.0017302899690719179,-0.008921755058564636,0.007792214499982058,0.987123011430793
2014-01-15,1,0.001431536165883835,0.0014844646436015703,-0.014844806058670872,0.010403159091368509,0.986191725244021
2014-01-17,1,9.425516547370029e-05,0.0002788498415407624,-0.014844806058670872,0.010403159091368509,0.9847427928016105
2014-01-22,-1,-0.0002567537242014361,-7.157748360893043e-06,-0.014844806058670872,0.015513834308881386,0.9836420151986498
2014-01-24,-1,-0.0010378695016940178,-0.0006922728015811881,-0.009184859923713512,0.015513834308881386,0.9838566436968296
2014-01-28,-1,-0.00031505164200418387,-8.447667593659153e-05,-0.009184859923713512,0.016092289881160297,0.9838775417395217
2014-01-30,0,-0.00018629979060547292,3.485896996084539e-05,-0.008655094191627907,0.010595977615461478,0.9853476955607132
2014-02-03,-1,-0.001732923991471596,-0.0013309575744139734,-0.006751128401547266,0.015673792434889568,0.9864274406917318
2014-02-05,-1,-0.001903824536275351,-0.0014965307867023862,-0.0020792174402010062,0.015673792434889568,0.9862446000836885
2014-02-07,-1,-0.0005351308005693032,-0.00029180232140436284,-0.0020792174402010062,0.010595977615461478,0.9877431869155274
2014-02-11,1,0.00046401715420043356,0.0005673584663918525,-0.005822105398520809,0.008304858534466681,0.9889625097095625
2014-02-13,1,0.00032152073311847017,0.0004210622719253641,-0.005722392935288069,0.006991483945104096,0.989746559760068
2014-02-18,-1,-0.001499998155111924,-0.0011787364002916242,-0.0031830300577975748,0.009462128243011313,0.9908420628133069
2014-02-20,-1,-0.0010801269821653554,-0.0007846662815920454,-0.004066008356930165,0.008336176041093464,0.9915851967248689
2014-02-24,-1,-0.0008914779517558043,-0.0006087293948757325,-0.005722392935288069,0.0074007512425476015,0.9920455388013185
2014-02-26,-1,-0.0008551328236033219,-0.0005500048424701245,-0.006391608905508869,0.003549304711588838,0.9920122463260869
2014-02-28,-1,-0.0015740161931032338,-0.0011835148893922052,-0.005561799374094229,0.007104722783225341,0.992276755171486
2014-03-04,-1,-0.0017695731913089563,-0.0013041761579134289,-0.005561799374094229,0.0070873296462886735,0.992635563617325
2014-03-06,-1,-0.001408100684014614,-0.0010160496796592202,-0.0059001819124482316,0.007505364658635588,0.9917912170934691
2014-03-10,-1,-0.000551956495236842,-0.0002682206814418241,-0.0066258394840586245,0.00544533473619267,0.9915705461561052
2014-03-12,-1,-0.000653220102721277,-0.0003767616676695431,-0.008733416974137336,0.005716858918731097,0.9910025765495244
2014-03-14,-1,-0.000840915389535509,-0.0005642924295948954,-0.012672310024827983,0.005716858918731097,0.9904066087313098
2014-03-18,1,0.00024920364954013005,0.0003646129673887708,-0.012672310024827983,0.007505364658635588,0.9904641439040003
2014-03-20,1,0.00010579391264225758,0.0002485112657484062,-0.012672310024827983,0.007505364658635588,0.9902783750989593
2014-03-24,1,0.00024671232851171973,0.0003371587754512727,-0.012672310024827983,0.007505364658635588,0.9903364217084574
2014-03-26,-1,-0.0006139903714511172,-0.0004089547209043061,-0.010620823029148047,0.008327684685324936,0.9906054841412997
2014-03-28,-1,-0.00034208916295095325,-0.0001665495334122728,-0.010691764520057706,0.008399750549009178,0.9896589518646904
2014-04-01,1,0.00027103618169832,0.0003509893493523898,-0.010691764520057706,0.008086129346127478,0.9896689367858675
2014-04-03,-1,-0.00033875238224704456,-0.000168054003562395,-0.01002022059072839,0.008086129346127478,0.9908435676139726
2014-04-07,-1,-0.0013002963076335708,-0.0010274799015015973,-0.005145094363044351,0.008086129346127478,0.9921976398127035
2014-04-09,-1,-0.0012760677931577648,-0.0010314038821846064,-0.003733470338933538,0.00940402870994911,0.9922917308950687
2014-04-11,-1,-0.0017738533470514455,-0.0014857239558455516,-0.0029830639421708775,0.012031205620777252,0.9921647063407623
2014-04-15,-1,-0.0012005807711864143,-0.0009688249034172512,-0.003180283155918687,0.009406681544902247,0.9927697734810781
2014-04-17,-1,-0.0009155521882720327,-0.0007159992714101878,-0.003180283155918687,0.008086129346127478,0.9929493153894743
2014-04-22,-1,-0.00020063993943182298,-0.0001397601776411461,-0.004221932069369535,0.008086129346127478,0.9921375322269487
2014-04-24,-1,-6.531245741504257e-05,-2.8167721738402173e-05,-0.003180283155918687,0.006904059948210251,0.9925515256111436
2014-04-28,1,0.0002887539098307689,0.00029720748557547405,-0.0029830639421708775,0.005467169241624142,0.9938225072447985
2014-04-30,1,0.00021954224555399059,0.00023423061889172648,-0.0029830639421708775,0.004896520833911255,0.9941845377221703
2014-05-02,1,0.00020610640471200917,0.00022457254944183733,-0.0029830639421708775,0.005655053694993625,0.9937137753413157
2014-05-06,0,-3.604633683648045e-05,2.6267351896221538e-05,-0.0007361495626875291,0.005655053694993625,0.9937482339722874
2014-05-08,1,0.0002735680379234856,0.0002947466985657815,-0.0008347847103823989,0.00517957854206874,0.9939343788988851
2014-05-12,1,0.000821275962114976,0.0008837761280055289,-0.0038814398356286917,0.004896520833911255,0.9945579562551279
2014-05-14,1,0.0011406592253233175,0.0012738509640387902,-0.00529383622370486,0.004811956037728345,0.9944920069557712
2014-05-16,1,0.0013033953178451041,0.0014979763260593933,-0.004697047625733152,0.004498233148205374,0.9951197278838715
2014-05-20,1,0.0009191676129547693,0.0010558351312112283,-0.003634842170922318,0.004498233148205374,0.995765459337679
2014-05-22,1,0.0011443447581921643,0.0013195257316788286,-0.004257522657857867,0.0036981525601388347,0.9957346233265315
2014-05-27,1,0.0014596226005298841,0.0016937902682687095,-0.004697047625733152,0.0036981525601388347,0.9952205598023227
2014-05-29,1,0.001335853377305146,0.0015482027093907335,-0.00529383622370486,0.004652779926424399,0.9947475359831529
2014-06-02,1,0.0015521021681215467,0.001785865224796056,-0.00529383622370486,0.004412763350289778,0.9948678436805193
2014-06-04,1,0.001732427859556534,0.001999961537451053,-0.00529383622370486,0.00450949687444567,0.9944500612141022
2014-06-06,1,0.0011175884609943535,0.0012535954437763723,-0.0050928753058080405,0.0047527115971838715,0.9946689857506669
2014-06-10,1,0.0010018995699728798,0.0011207536806371499,-0.0050928753058080405,0.005274771292152215,0.9942668625624896
2014-06-12,1,0.00014618295872408766,0.00017472528143021039,-0.004708220269680593,0.005274771292152215,0.9944398971342714
2014-06-16,1,5.6758886295892865e-05,9.246768673718178e-05,-0.004708220269680593,0.006052693241034905,0.9943808942884146
2014-06-18,0,-5.082936612012628e-05,2.6573286208530323e-05,-0.005418412507167773,0.005274771292152215,0.9940303437583997
2014-06-20,1,4.592116675094577e-05,9.388621327638776e-05,-0.0065294296096475996,0.005274771292152215,0.9935639261918303
2014-06-24,1,0.00025863649786189724,0.000270283806197348,-0.005418412507167773,0.005274771292152215,0.9937499167187941
2014-06-26,-1,-0.000623530136679504,-0.0004338884818902431,-0.0057685889451059204,0.005274771292152215,0.993080881262807
2014-06-30,-1,-0.000616492758770944,-0.0004113291829120128,-0.007550286612105586,0.005274771292152215,0.9931099145097483
2014-07-02,1,0.00018305381167050313,0.00022413768251354987,-0.008450669296331616,0.005454433910873136,0.9918043243596747
2014-07-07,1,0.0005661127747564144,0.0006134428106068146,-0.009973709960377617,0.007060709806604221,0.9912063837436015
2014-07-09,1,0.0004344885506796373,0.00044807659148324687,-0.009973709960377617,0.007128064093183846,0.9913410277830103
2014-07-11,-1,-0.0014572206110912136,-0.0011221931114917755,-0.008057966833454252,0.009108139749995157,0.991576969883732
2014-07-15,-1,-0.0006636295290120436,-0.0004705380086176053,-0.008357682111199362,0.009108139749995157,0.9914716824503258
2014-07-17,-1,-0.0010597717570986697,-0.0008447654328731173,-0.0077505778942016405,0.009108139749995157,0.9917584499982073
2014-07-21,-1,-0.0013019845595750464,-0.0010873959672763685,-0.0075004371262287935,0.010326135876152468,0.9912912095998748
2014-07-23,-1,-0.0015505426245819329,-0.0012646764996673055,-0.0075004371262287935,0.01065066497510198,0.9908421957624131
2014-07-25,-1,-0.0007308106133538871,-0.0005761284464897104,-0.007062973176146726,0.010326135876152468,0.9920877941887809
2014-07-29,-1,-0.0008922437067128736,-0.0007255059005002696,-0.004183329143175911,0.010326135876152468,0.9920997875315997
2014-07-31,-1,-0.0003261861333628154,-0.0002836803571140854,-0.004183329143175911,0.007721995491573646,0.9935379870096892
2014-08-04,-1,-0.0004904958975193593,-0.00041416137300710504,-0.0008159271195015903,0.0070772370039254,0.9938330846998529
2014-08-06,-1,-0.00044213650257592866,-0.0003509568376391713,-0.0003869371376696753,0.0070772370039254,0.9938259982729407
2014-08-08,1,0.0005653279020995578,0.0006482839546801018,-0.0008459057269807818,0.00617075863023749,0.9946748782825069
2014-08-12,1,0.00037719830489851277,0.00043973102137933527,-0.0008459057269807818,0.00617075863023749,0.9946039805795595
2014-08-14,1,0.00015117508974347332,0.00017040956174684316,-0.0008459057269807818,0.0070772370039254,0.9941245484339302
2014-08-18,-1,-5.237428704509624e-05,-5.4028616780630765e-06,-0.00015298952977036882,0.00617075863023749,0.9947704932193806
2014-08-20,1,0.0007734730279322322,0.0008545529987897156,-0.0008459057269807818,0.005854813124335081,0.9950085526733339
2014-08-22,1,0.0012430047576543956,0.0014131737303416472,-0.001650724276609407,0.0053575275011982365,0.9950011686335455
2014-08-26,1,0.0012807640497838782,0.0014343623197797823,-0.0021253026255174325,0.005545743768543272,0.9944040751348161
2014-08-28,1,0.00021509504248700336,0.00026810901795648904,-0.0021253026255174325,0.008071747313287669,0.9933387399842954
2014-09-02,1,0.00040992510847063265,0.0004574876751397257,-0.002240010181886844,0.005975605275870433,0.9936995382183997
2014-09-04,1,0.00021788973132672186,0.00033311606087290475,-0.0022457232116883928,0.005975605275870433,0.9938252681706591
2014-09-08,1,0.0006268866642110313,0.000651647908378044,-0.003120490378938409,0.009535869516563173,0.992702183951054
2014-09-10,1,0.0005051971675560865,0.0005281192773569623,-0.003120490378938409,0.010096395875018767,0.9919093591699634
2014-09-12,1,0.0010437210778095126,0.0010891192073493538,-0.008121350611160875,0.009535869516563173,0.9912701097357564
2014-09-16,1,0.0012439683558103226,0.0013153829584949613,-0.0099639178120218,0.009535869516563173,0.9907532166457347
2014-09-18,1,0.0017053199513993632,0.0018612595672718836,-0.011712136537653755,0.009535869516563173,0.9896042554042082
2014-09-22,1,0.0017067388751267755,0.0018637296369087854,-0.011712136537653755,0.009535869516563173,0.9896033680322706
2014-09-24,1,0.0016405304591791642,0.001786887089172355,-0.011712136537653755,0.010096395875018767,0.9884585245156532
2014-09-26,1,0.0012347887315717226,0.0013223717786631393,-0.008662603213884672,0.00549560701473306,0.9894062100380692
2014-09-30,1,0.0012248386850125723,0.00133045551177438,-0.008662603213884672,0.007816131667448987,0.9891629774330272
2014-10-02,1,0.001800707762273287,0.0020186510389606366,-0.008662603213884672,0.006942735799871707,0.9892406794505598
2014-10-06,1,0.0017359478600686349,0.0019525155221756776,-0.00759442782814659,0.006300432259510529,0.9900801917917204
2014-10-08,1,0.0017077195038744017,0.001906967771664037,-0.006728094786069519,0.006300432259510529,0.9909640986923381
2014-10-10,1,0.00018991685176723716,0.00021719215713161464,-0.0008596312577020769,0.006942735799871707,0.9914218506281063
2014-10-14,-1,-6.910519773095045e-05,-2.3436399662840038e-05,-0.00035400746083200877,0.007436331806923514,0.9914158175920649
2014-10-16,1,0.00013335646456966673,0.00014071402100143194,-0.00035400746083200877,0.007436331806923514,0.9925072067966293
2014-10-20,1,7.550928535597119e-06,3.725941847166207e-05,-0.00035400746083200877,0.007436331806923514,0.992338927719353
2014-10-22,1,0.00180359745447209,0.002031906741046136,-0.00024356877342585572,0.007436331806923514,0.9943540648404011
2014-10-24,1,0.0017767403194694383,0.002009314493181669,0.0024183730792077464,0.008993261387806636,0.994377015945095
2014-10-28,1,0.002126680244082784,0.0023910379480672162,0.0015589349288850402,0.008993261387806636,0.9949609958576636
2014-10-30,1,0.0019035975719570973,0.002129095293689963,0.0015589349288850402,0.010405145222478417,0.9947140593681407
2014-11-03,1,0.0016573457085121183,0.0018039746072069903,7.668773204077955e-05,0.010405145222478417,0.9935314756298275
2014-11-05,1,0.0017764800387617557,0.001927350962431844,-0.0004552603269281293,0.010405145222478417,0.9935250240444723
2014-11-07,1,0.0025154274325049878,0.002782359821236164,-0.002765130652902934,0.007667253620811125,0.9936457379284177
2014-11-11,1,0.0026939267051311853,0.002971218780914712,-0.004781392187507484,0.005368371961755722,0.9936028949053821
2014-11-13,1,0.002965541174426656,0.0032766336010533453,-0.004910195913052123,0.005368371961755722,0.9934965770760216
2014-11-17,1,0.0028388322170444726,0.0031350418711636537,-0.005653570174450914,0.005368371961755722,0.9927190652244864
2014-11-19,1,0.003597443718618156,0.004005398279686291,-0.005653570174450914,0.007564675503859244,0.9913312013321479
2014-11-21,1,0.003915681485491551,0.004360895233511608,-0.007201146103540905,0.007505717166131989,0.9903438955919135
2014-11-25,1,0.003985917185047724,0.0044343025523601795,-0.007201146103540905,0.007883327331575029,0.9900921967106208
2014-11-28,1,0.004368005057040797,0.004859989751901219,-0.007201146103540905,0.007045796075791144,0.9906992488163868
2014-12-02,1,0.003441379882873437,0.0037707050402616214,-0.005653570174450914,0.006053581631051371,0.991290765620448
2014-12-04,1,0.0034506780600167507,0.00378508958748358,-0.007635716921946734,0.006053581631051371,0.990242657044392
2014-12-08,1,0.0024753267049532,0.002636637473865386,-0.007635716921946734,0.007883327331575029,0.9904162353932672
2014-12-10,1,0.0016435446898486626,0.0016559662902570409,-0.006510786261528409,0.009322048940324817,0.9899799681360677
2014-12-12,1,0.0015973310079235227,0.001612379346272057,-0.004948460897998386,0.007883327331575029,0.9906243855231859
2014-12-16,1,0.0008690105261552447,0.0009259318530246513,-0.006510786261528409,0.007883327331575029,0.9896310483222313
2014-12-18,1,0.002309356721805387,0.002414448140809814,-0.00871566463522528,0.006053581631051371,0.990449706792521
2014-12-22,1,0.0017965741066932497,0.001818672062722858,-0.006510786261528409,0.005802077569025526,0.9913540546825039
2014-12-24,1,0.0018616994543972103,0.0018807498133164393,-0.00871566463522528,0.005519555181079562,0.9907689018908784
2014-12-29,1,0.0021363023956061152,0.002203920741055885,-0.00871566463522528,0.0019630186361126916,0.9905005652812873
2014-12-31,1,0.0018574995202032911,0.001909577254313133,-0.010664083083708684,0.005062915684891215,0.9895512915184203
2015-01-05,1,0.000582044539562723,0.0007022588117772819,-0.006922536305413654,0.005405542271123007,0.9899166185458647
2015-01-07,1,0.000506794632966719,0.0006266436825741039,-0.010664083083708684,0.005405542271123007,0.9883245845233992
2015-01-09,1,0.0012497261082593692,0.0012811357360323307,-0.013789194406356568,0.005062915684891215,0.9880568833514166
2015-01-13,1,0.001292136112842369,0.0012930049432044676,-0.013789194406356568,0.006235343129911727,0.9874275084741181
2015-01-15,-1,-0.00028399142230210435,-0.00010179095530667473,-0.008259772741423877,0.00999126734339504,0.9862664182386689
2015-01-20,-1,-0.00028517566383175447,-0.00012087283594009661,-0.006460506634170634,0.008131136531679815,0.9870305501911407
2015-01-22,-1,-0.0004441824960834549,-0.00024393744364581567,-0.0088015920401083,0.013338052230631649,0.9860326484357254
2015-01-26,-1,-0.0006323136891293027,-0.00042617887892133506,-0.006460506634170634,0.013338052230631649,0.986563483223144
2015-01-28,-1,-0.0007350665339623308,-0.0005322577764253993,-0.0081997935235674,0.01437691913513986,0.9855344519725528
2015-01-30,-1,-0.001667905100944078,-0.0013523790219093423,-0.004095685654382234,0.01437691913513986,0.9863967139458371
2015-02-03,-1,-0.0010059040187567394,-0.0007525723431926997,-0.007289934487879448,0.013338052230631649,0.9875728787963522
2015-02-05,-1,-0.0011899984617596215,-0.0009390754237638599,-0.007289934487879448,0.008992534134009985,0.9888763452535362
2015-02-09,-1,-0.0018480152981007205,-0.0015323494193108453,-0.005898321066928473,0.009157838475135379,0.9886578147047991
2015-02-11,-1,-0.0009899663150102986,-0.0007911433982976405,-0.00769198494126599,0.007621021576612831,0.9886413995741784
2015-02-13,1,0.001328532250518665,0.0014019845554871175,-0.00769198494126599,0.005379921495314123,0.9916959673759077
2015-02-18,1,0.0012329047418405733,0.0012888015009681788,-0.00769198494126599,0.007048247087913031,0.9912360620119779
2015-02-20,1,0.0011776814044455884,0.0012034005958226524,-0.005898321066928473,0.007048247087913031,0.9919205310648657
2015-02-24,1,0.0011926562299840635,0.0012071799272685435,-0.0073144432496460784,0.007621021576612831,0.991261835635285
2015-02-26,1,0.0014294108676482075,0.001485105075088583,-0.0073144432496460784,0.007048247087913031,0.9914198902975895
2015-03-02,1,0.001381841583546987,0.001422195310047053,-0.0073144432496460784,0.0071033485349548285,0.9912458591016844
2015-03-04,1,0.0009810935906417976,0.0009917068704296723,-0.006092099356128906,0.0071033485349548285,0.9915461300377891
2015-03-06,-1,-0.0007805154861688518,-0.0005071299290867221,-0.003778599268862793,0.0071033485349548285,0.9923447210208961
2015-03-10,-1,-0.0013853835734878397,-0.0010203073173476614,-0.0028533483427163812,0.0065916410384062995,0.9932678016620237
2015-03-12,-1,-0.0018064755722220118,-0.0013978502490920163,-0.0028533483427163812,0.006122441544867296,0.9939379813315503
2015-03-16,-1,-0.001983169005271875,-0.0015496836486973411,-0.0031330505706362046,0.006122441544867296,0.9938356478799741
2015-03-18,-1,-0.000909055771534461,-0.0006686106563363418,-0.0031330505706362046,0.004588265344076739,0.9944616430170097
2015-03-20,-1,-0.0004863445293142066,-0.00028982627236357145,-0.003846757500968229,0.004109892487500947,0.9947284682363952
2015-03-24,-1,-0.00029479046193320606,-0.00013803664496942175,-0.003846757500968229,0.004109892487500947,0.9950315313882607
2015-03-26,-1,-0.0010758165730295423,-0.0008219526300714495,-0.0031330505706362046,0.004109892487500947,0.9958933266356484
2015-03-30,-1,-0.0004809964146763293,-0.00030662939144110576,-0.0033718266990800374,0.002576615347857413,0.9966176114258003
2015-04-01,-1,-0.00046911357889209914,-0.0003055912619151384,-0.0037135436784993393,0.0007797779757538413,0.9962640371407117
2015-04-06,1,0.000104478181860899,0.0001746436336928795,-0.00534750448779795,-0.0003698153026249522,0.9956629954533245
2015-04-08,1,0.00013585910217293396,0.0001891580066317772,-0.00655333646081059,-0.00020415974093441412,0.9951204577297585
2015-04-10,1,0.00028449221951830735,0.00030513327642592503,-0.00655333646081059,0.0007065142537619222,0.9946862949837417
2015-04-14,-1,-0.0001657961019199341,-9.070765011914974e-05,-0.005978585511604737,0.0007065142537619222,0.9951050109207012
2015-04-16,1,8.24006128964783e-05,0.00010139712170568332,-0.007774462595818863,0.0028993207370396077,0.9941185369283274
2015-04-20,1,7.924985664551348e-05,7.938997325648855e-05,-0.005978585511604737,0.0037002828433851435,0.9939647567857585
2015-04-22,1,0.0001337160051273225,0.0001503348630467497,-0.005675545394469903,0.002961507321001975,0.9940588713348186
2015-04-24,1,0.0002794286557251686,0.0003406687970012856,-0.005675545394469903,0.002961507321001975,0.9940995136178707
2015-04-28,-1,-5.261056022610545e-06,-2.9156655536955205e-06,-0.007774462595818863,0.002961507321001975,0.9929622002079613
2015-04-30,-1,-0.00044567611973202236,-0.00039675984434586525,-0.007508188294717428,0.0037002828433851435,0.9920777862075693
2015-05-04,-1,-0.0011971136738976214,-0.0010417443145417675,-0.005084744371749105,0.004947466387291126,0.9924555482567312
2015-05-06,-1,-0.0015739052115497137,-0.0013610616939848856,-0.005084744371749105,0.006062114011454943,0.9923397370700509
2015-05-08,-1,-0.00103103596909283,-0.0008828351744880288,-0.007365686550604263,0.004947466387291126,0.9926121942289489
2015-05-12,-1,-0.0016684892946895063,-0.0014161928664762242,-0.0054877226907327735,0.006062114011454943,0.9925252935510797
2015-05-14,-1,-0.0010565444692583702,-0.0009474753904358956,-0.005881727272417642,0.006062114011454943,0.9928666350729076
2015-05-18,-1,-0.0006042849418175661,-0.0005390272364265557,-0.005881727272417642,0.0023724831462097083,0.9930063298584966
2015-05-20,-1,-0.0006892026181540612,-0.0006260493996280283,-0.005881727272417642,0.006149384689506023,0.9926785276956178
2015-05-22,-1,-0.00036297521363802066,-0.0003559164795328079,-0.005881727272417642,0.006149384689506023,0.9925978849595312
2015-05-27,-1,-0.0012934830406836056,-0.0011685549731741153,-0.005881727272417642,0.007626559856701433,0.9925516467230079
2015-05-29,-1,-0.0012288201952004153,-0.0010771034512717444,-0.005122511000993968,0.006149384689506023,0.9937106939099083
2015-06-02,-1,-0.0009472193153682103,-0.0008395256768615608,-0.005881727272417642,0.007626559856701433,0.9921270984251138
2015-06-04,-1,-0.000555616908854799,-0.000526890131118792,-0.005122511000993968,0.008151737547240556,0.9911963950054977
2015-06-08,-1,-0.00094270939985233,-0.0008669319976977679,-0.005122511000993968,0.008665053042177467,0.9906143352798282
2015-06-10,-1,-0.00138627267493541,-0.00120023264285343,-0.005881727272417642,0.008174990473465819,0.9900615512024593
2015-06-12,-1,-0.0017333785414696487,-0.0015064507147094879,-0.0033628279896708167,0.011904030855618315,0.9881840630095124
2015-06-16,-1,-0.0015621082726254287,-0.0013611760716911467,-0.002459982132727652,0.011904030855618315,0.9887847181068012
2015-06-18,-1,-0.0013047829569963528,-0.001122318021573684,-0.004016851208371272,0.009819558519192164,0.9890191407801746
2015-06-22,-1,-0.001482555196532653,-0.0012703029518359842,-0.0036310726702169565,0.01386923732129729,0.9879521290502501
2015-06-24,-1,-0.001828186952159177,-0.0015429880744361971,-0.0015472884881531776,0.009819558519192164,0.9887825254901599
2015-06-26,-1,-0.0012619514651100172,-0.001075717087635612,-0.0036310726702169565,0.009819558519192164,0.989096965163439
2015-06-30,-1,-0.0020312658378187796,-0.0017343796166783111,-0.002290409653146763,0.010702332628548129,0.9893534330132849
2015-07-02,-1,-0.0013978762340749124,-0.0011401872396627475,-0.002290409653146763,0.00869684694145541,0.9904981428133166
2015-07-07,-1,-0.0012422050423814526,-0.0010330400027442222,-0.002290409653146763,0.007227001862436301,0.990714892879627
2015-07-09,-1,-0.000623181752970258,-0.0006009649473508379,-0.002290409653146763,0.007227001862436301,0.9911370675343599
2015-07-13,1,0.0007204597075800192,0.0008765757568105025,-0.002603237765856247,0.0065062718704285444,0.9929906989096234
2015-07-15,1,0.0007212630893661125,0.0008866008301098752,-0.006487935379332578,0.0065062718704285444,0.9923049907193435
2015-07-17,1,0.000772301031526825,0.0009568978172561542,-0.0040992222939215195,0.006779624289677924,0.9925506851803201
2015-07-21,1,0.0015337736332292876,0.001833224427634686,-0.0040992222939215195,0.0065062718704285444,0.9936142475560104
2015-07-23,1,0.0018695491886390194,0.002223438678192637,-0.00794118585555096,0.005813905324401298,0.9924359542540568
2015-07-27,1,0.001670732795643917,0.0019957622705310905,-0.009277602738610962,0.005813905324401298,0.9897325971695569
2015-07-29,1,0.0017217509992538261,0.0019916920004014226,-0.009277602738610962,0.005813905324401298,0.9887132944678041
2015-07-31,1,0.0020501102581986343,0.0023528192375127767,-0.009277602738610962,0.004867887273138315,0.9880774453539506
2015-08-04,1,0.001600591269948309,0.001825837862008279,-0.009398535784360177,0.0036809750476529345,0.9873613829584641
2015-08-06,1,0.0013947607283586161,0.0015891141591370494,-0.009398535784360177,0.0037976608320571042,0.9876607408841925
2015-08-10,1,0.0015929555867734892,0.0018271724852948236,-0.011496624340667574,0.0037976608320571042,0.9866541377090873
2015-08-12,1,0.0014145289020679479,0.0016529792566083827,-0.014603942279040105,0.0037976608320571042,0.9864685501823577
2015-08-14,1,0.0016742893924333398,0.0019499901345042905,-0.014603942279040105,0.003739493681491763,0.9859627410726135
2015-08-18,1,0.001425970362709958,0.0016363162150477754,-0.014603942279040105,0.0082197146282563,0.9852797556450651
2015-08-20,1,0.0009851769756492811,0.0011625607414681354,-0.014493047458839732,0.0082197146282563,0.9857473169657192
2015-08-24,-1,-0.0006225651197354855,-0.0005891316178484191,-0.008298197273365933,0.012197313625446862,0.9880120554462684
2015-08-26,1,0.000446169507114685,0.0005660980646013922,-0.008558944365627045,0.0082197146282563,0.9894216413990851
2015-08-28,1,0.0008112298160786468,0.0009759196709293702,-0.009984111707257057,0.006770566467180864,0.9889651203185543
2015-09-01,1,8.422412917624778e-05,0.00015484493833784252,-0.009275233514297836,0.0082197146282563,0.9894141016744701
2015-09-03,1,0.00026724355774905854,0.0003445559843373393,-0.009275233514297836,0.009552181545775473,0.9886084796547152
2015-09-08,1,0.00044746373375322934,0.0005492075279614371,-0.009275233514297836,0.009552181545775473,0.9878502143235277
2015-09-10,-1,-0.0001717380905504602,-0.00016133129640218352,-0.00818639042638939,0.014037122748073626,0.9877140143410582
2015-09-14,-1,-0.00018535431081818942,-0.00017632219180684864,-0.00818639042638939,0.014037122748073626,0.9882482707296442
2015-09-16,1,0.00033404195136540885,0.0004076091976352785,-0.009275233514297836,0.009552181545775473,0.9884438138744217
2015-09-18,-1,-0.00016681196229822467,-0.0001640265161125499,-0.00818639042638939,0.015306131605591864,0.9875349726026426
2015-09-22,-1,-0.00021198658403184654,-0.00019082979790968282,-0.006158391166135696,0.015306131605591864,0.9879218617013343
2015-09-24,-1,-0.0008751940367648969,-0.000754733942658464,-0.0057840710003835205,0.015306131605591864,0.9876901935713305
2015-09-28,-1,-0.0017466270651794276,-0.0015164188674152423,-0.0057840710003835205,0.017977847598794342,0.9823929036216871
2015-09-30,-1,-0.0013740776003645634,-0.0012096122063655927,-0.0020942179390085825,0.019841427111200703,0.9822501185657728
2015-10-02,-1,-0.0006720579056048058,-0.0005792023154612227,-0.0057840710003835205,0.017977847598794342,0.9833450460720936
2015-10-06,-1,-0.001026480041126546,-0.0008781954957663295,-0.0020942179390085825,0.011401121694577666,0.9850439674296078
2015-10-08,-1,-9.934528350463073e-05,-8.209127737723981e-05,-0.00398412904413588,0.011401121694577666,0.9853960866854623
2015-10-12,-1,-0.0001511098457169604,-0.00011664039930404119,-0.0057840710003835205,0.011401121694577666,0.9843105355732068
2015-10-14,-1,-0.0006143742435300427,-0.000528874116633231,-0.0057840710003835205,0.011401121694577666,0.9831563562521524
2015-10-16,0,-4.80653860463105e-05,1.1934197844812674e-05,-0.01060709103096825,0.007413451727654792,0.9823313066011697
2015-10-20,1,0.00030556417021312455,0.00030692889905116434,-0.013789992255598908,0.007413451727654792,0.9818172648623263
2015-10-22,1,0.00029378260335020636,0.0002961722335131692,-0.013789992255598908,0.008312340214848862,0.9814317588358923
2015-10-26,-1,-0.0016869933238147293,-0.0014571239660911219,-0.00972345092298114,0.009349127949528782,0.9863260343534402
2015-10-28,-1,-0.0010738675822618707,-0.0008952159061264005,-0.00972345092298114,0.009349127949528782,0.9869848972191977
2015-10-30,-1,-0.0011140699904149827,-0.0009395544092805977,-0.013708382848121654,0.009349127949528782,0.9864604419896364
2015-11-03,-1,-0.0010482642892299715,-0.0008635159531788278,-0.013708382848121654,0.012059411022141907,0.9862677601039663
2015-11-05,-1,-0.0005657787741691388,-0.00044075790798419386,-0.01619608435712848,0.009676644702510505,0.9856645828544364
2015-11-09,-1,-0.001161547272886691,-0.0009846225806542524,-0.013708382848121654,0.009676644702510505,0.9866427207287526
2015-11-11,-1,-0.0019860971082517965,-0.001709397988065067,-0.013708382848121654,0.009676644702510505,0.98709151150052
2015-11-13,-1,-0.003563701067095521,-0.003107923354354945,-0.010459092930227204,0.010383673543485083,0.9877654768031282
2015-11-17,-1,-0.003426382656787414,-0.002999186853875943,-0.00389710664774758,0.010990864195031966,0.987752482793361
2015-11-19,-1,-0.00296351514675066,-0.0025697301236857657,-0.011261123630737061,0.009323726522927627,0.988520399629583
2015-11-23,-1,-0.0014182016472457386,-0.001255353786576165,-0.011261123630737061,0.006384224304856308,0.9895891648322359
2015-11-25,-1,-0.000986984926782538,-0.0008660061989277557,-0.011261123630737061,0.006384224304856308,0.9898341123366647
2015-11-30,-1,-0.0022192421357199923,-0.0019195403954186778,-0.007408271954367469,0.009323726522927627,0.9901676963253092
2015-12-02,-1,-0.0010121771120271915,-0.0009183151835423296,-0.007588491700107395,0.006384224304856308,0.990415833734592
2015-12-04,-1,-0.001478946178082155,-0.0013280260903820562,-0.007588491700107395,0.005549701935648681,0.9907582292296843
2015-12-08,-1,-0.0014368701697728605,-0.0012888339230201847,-0.013426963655479966,0.005549701935648681,0.9896749488173958
2015-12-10,-1,-0.0016941818351163178,-0.0015520856149946556,-0.017060939958782988,0.005549701935648681,0.9888080986133297
2015-12-14,-1,-0.0016097672945529528,-0.0014905253816109888,-0.017060939958782988,0.005549701935648681,0.9881356485154897
2015-12-16,-1,-0.001157003776903565,-0.0010812569306860394,-0.01804861986056284,0.0006481644263297077,0.9877160381854762
2015-12-18,-1,-0.0012948595590582747,-0.001249949712111589,-0.018089549003484428,0.005549701935648681,0.9870858884731936
2015-12-22,-1,-0.0010213108202684808,-0.0009984422684179977,-0.018089549003484428,0.01129586730186619,0.9848607408075662
2015-12-24,-1,-0.0008502485347794353,-0.0008197314559165019,-0.018089549003484428,0.014858495797362084,0.9845118207430772
2015-12-29,-1,-0.00035100715479204417,-0.0002535559623924441,-0.018089549003484428,0.01629774146110651,0.9840280340663168
2015-12-31,-1,-0.0005279904128299118,-0.0004375581299535699,-0.018089549003484428,0.01866958550924121,0.9820608220362542
2016-01-05,-1,-0.0011559694396257312,-0.0011429694049369292,-0.01707458300642352,0.01866958550924121,0.9818941478561289
2016-01-07,-1,-0.0017099516577563025,-0.0016486892311585735,-0.01893096362966231,0.01866958550924121,0.9800109936291294
2016-01-11,-1,-0.003181107921375946,-0.002965046113811457,-0.018089549003484428,0.01866958550924121,0.9806052189426641
2016-01-13,-1,-0.003310101706574137,-0.003042160107197768,-0.015828806532800062,0.01629774146110651,0.9821889233398189
2016-01-15,-1,-0.005460279636601702,-0.004845499501747345,-0.008264587791014048,0.01866958550924121,0.9801065757803827
2016-01-20,-1,-0.004499711568299686,-0.0040618459010141215,-0.004589845253789399,0.019959086391901013,0.9803521915194129
2016-01-22,-1,-0.0019384555292750185,-0.0018242146978324691,-0.008264587791014048,0.017285119476747473,0.9794228148819163
2016-01-26,-1,-0.0020593375828554237,-0.0018891210588907767,-0.008264587791014048,0.02360439529965395,0.9788247902738396
2016-01-28,-1,-0.0009610469554553044,-0.000946236998023637,-0.008264587791014048,0.02395248827060311,0.9788616494321432
2016-02-01,1,0.0008213830992243595,0.0010567802042618273,-0.008264587791014048,0.023496164198125547,0.9805234117058867
2016-02-03,1,0.0005368170302564529,0.0006962016163212732,-0.006234009998787491,0.023496164198125547,0.9815437497961607
2016-02-05,-1,-0.001534770661522309,-0.001434930048432292,-0.0034663064443142123,0.023496164198125547,0.9831897877870918
2016-02-09,-1,-0.0022801396576193856,-0.0021315566241462197,-0.00227421122579195,0.023496164198125547,0.9841141934441068
2016-02-11,-1,-0.0023877242434577916,-0.0022033265645199926,-0.0011484735385746871,0.023496164198125547,0.9831141939474406
2016-02-16,-1,-0.0005411282399405161,-0.0004891716471199425,-0.003376157472453933,0.018376722110880848,0.9859158197271481
2016-02-18,1,0.00014871305877753375,0.00026993163017554044,-0.005184440690964926,0.015566058382127844,0.9864596548520465
2016-02-22,0,-4.3772207028457366e-05,2.7851794919978923e-06,-0.0027572334437567427,0.009173751780300877,0.9909315689739698
2016-02-24,1,0.0008835898492200883,0.0010594927082463214,-0.007428614873890478,0.006539065294797599,0.9909037915585527
2016-02-26,1,0.0021262417726805377,0.002518940888720779,-0.007428614873890478,0.0052096341030513915,0.9913463374865412
2016-03-01,1,0.0029084703482612105,0.0033948626568851975,-0.007428614873890478,0.0052096341030513915,0.9918886052440129
2016-03-03,1,0.003072815859966282,0.0036217589958295136,-0.00766583118867146,0.006539065294797599,0.9917866029490077
2016-03-07,1,0.002966578491538303,0.003509369389231604,-0.009096047417099401,0.0052096341030513915,0.9911195799389682
2016-03-09,1,0.002251475107961977,0.0026692850240132423,-0.00766583118867146,0.0065954343692085455,0.9916085080330095
2016-03-11,1,0.0035894720658518854,0.004253982431080671,-0.010713496737551998,0.004790417067809796,0.9901636388433449
2016-03-15,1,0.0034112679235963187,0.004062055800341547,-0.010713496737551998,0.007694783586226717,0.9899985052195887
2016-03-17,1,0.0038348512714312093,0.004546104990960199,-0.010713496737551998,0.006800404822663384,0.990474376786968
2016-03-21,1,0.002929615253799065,0.003401099496813034,-0.010713496737551998,0.0072360464944192,0.9903345966719881
2016-03-23,1,0.002402420069490408,0.0028609289740478983,-0.008109789898118919,0.0072360464944192,0.9915045044111681
2016-03-28,1,0.0023554783252473705,0.0028013386259221344,-0.010427923545441777,0.0072360464944192,0.9913022737074209
2016-03-30,1,0.002979786897256845,0.0035283146527322765,-0.010427923545441777,0.0072360464944192,0.9909876716520605
2016-04-01,1,0.003237223288150519,0.003848816102078644,-0.01065116949447274,0.00674174190246186,0.9903786725006509
2016-04-05,1,0.001943291132491389,0.0023356622212381633,-0.004345093415374528,0.007966590664326218,0.9909371417115487
2016-04-07,1,0.0017730640257449391,0.002090876684443096,-0.009228843413538615,0.00674174190246186,0.9905980224709633
2016-04-11,-1,-0.00019480537208399124,-0.00015284863512221174,-0.0036685639413099554,0.007963995948335315,0.9914741859138657
2016-04-13,1,0.0007403951246662945,0.0008126736318859957,-0.007989578286012171,0.006317154029232822,0.9895883066339505
2016-04-15,1,0.001229440370471654,0.0014118978611622397,-0.009228843413538615,0.005620105124046485,0.9892587752084456
2016-04-19,1,0.001821692473590371,0.0021341098962820645,-0.009228843413538615,0.005620105124046485,0.9888948926602865
2016-04-21,1,0.001896819461439284,0.0022507288417706922,-0.007989578286012171,0.005620105124046485,0.9892751889950017
2016-04-25,1,0.0012141672041381174,0.0014306106083268881,-0.005631873434062324,0.007248980293935732,0.9888586757442975
2016-04-27,1,0.0016791872881105276,0.001979038365868168,-0.005631873434062324,0.007248980293935732,0.989006855207006
2016-04-29,1,0.0010164885901213418,0.0011998794576066397,-0.004215041814128116,0.00664505604963065,0.9898821177108134
2016-05-03,1,0.0019117553865833437,0.002214781907910312,-0.004215041814128116,0.00534212426238574,0.9908137846392308
2016-05-05,1,0.0010018067336367733,0.00114019498621776,-0.0025577165572846154,0.006275064837797127,0.9910761913731676
2016-05-09,1,0.0011891678541512318,0.00133572871837084,-0.0025577165572846154,0.006275064837797127,0.9910413386984156
2016-05-11,-1,-0.00039074366394621434,-0.00036533739716016476,-0.0016201517649640596,0.006198392057571409,0.9942185439151847
2016-05-13,-1,-0.0012874219614789526,-0.0011170524237236847,-0.001718626120449691,0.006198392057571409,0.9946910228842183
2016-05-17,-1,-0.0010455073909042569,-0.0008997167790451903,-0.001718626120449691,0.006048874467179699,0.9946278513008743
2016-05-19,-1,-0.0009567054774543602,-0.0008332054937069497,-0.001497695354523492,0.008395315452179005,0.9939190765959384
2016-05-23,-1,-7.82342018831183e-05,-7.656726812918869e-05,-0.0013644392396346043,0.008395315452179005,0.9938574135580189
2016-05-25,1,8.238746600020797e-05,8.520204301272621e-05,-0.001718626120449691,0.008277687384236912,0.9938516235255905
2016-05-27,-1,-0.00014410805353920947,-8.696494666533085e-05,-0.00537667318077717,0.008277687384236912,0.9889832316229709
2016-06-01,-1,-0.0008991649115875537,-0.0007049596689598005,-0.00537667318077717,0.008961467776162873,0.987182622506791
2016-06-03,-1,-0.001967003229542432,-0.001560663074072458,-0.0024314926082615843,0.013310759815187274,0.9862145518084594
2016-06-07,-1,-0.0016784406452548441,-0.0013119415963621416,-0.005721788878862067,0.013839457677221775,0.984554298861257
2016-06-09,-1,-0.002216812932863673,-0.0017386251519886935,-0.005721788878862067,0.014694035624396366,0.983223127604576
2016-06-13,-1,-0.0025645297525808456,-0.002052298212674047,-0.001956011186993278,0.014694035624396366,0.9827467665950466
2016-06-15,-1,-0.0016910897748436213,-0.0013641919429196615,-0.0002405486204128455,0.014694035624396366,0.9837522226454664
2016-06-17,-1,-0.001009644742055275,-0.0007759632417174851,-0.0014685926287368058,0.013839457677221775,0.9845675736143334
2016-06-21,0,-4.475116349488456e-05,4.5628170694503485e-05,-0.0036949475301589325,0.013310759815187274,0.9854495621061458
2016-06-23,1,0.0008844776242781289,0.000993440340237933,-0.011162064689088121,0.013310759815187274,0.9847916650221165
2016-06-27,-1,-0.002371386805173157,-0.0020881473702024696,-0.00449992376767821,0.013310759815187274,0.9885971905648231
2016-06-29,-1,-0.0023282985258309017,-0.0019479485238288578,-0.005546860961513099,0.008136715836160742,0.9906889886304886
2016-07-01,-1,-0.0022723799311136737,-0.001837805024517748,-0.005546860961513099,0.006926078704150337,0.9914922444045093
2016-07-06,-1,-0.0024698987903867906,-0.0020046139494260236,-0.005546860961513099,0.006926078704150337,0.9914244632378879
2016-07-08,-1,-0.0006692134761115268,-0.0004859506981385063,-0.005546860961513099,0.004365861669238099,0.9919059570642529
2016-07-12,1,8.87953680564429e-05,0.00014245166718033052,-0.008783359315135379,0.0037657722748792835,0.9911993910032345
2016-07-14,1,0.00018177471131610985,0.00022318656029092488,-0.008783359315135379,0.006609140720997214,0.9891894101428887
2016-07-18,1,0.0002924321824283935,0.0003145338564406946,-0.005546860961513099,0.006609140720997214,0.9895910371749925
2016-07-20,1,0.0008072645042484549,0.0009454532971892888,-0.005546860961513099,0.004808872537920767,0.9898865830506655
2016-07-22,1,0.0004178715675942368,0.0005574922907760948,-0.001680290560496822,0.007547024365143856,0.9906242399307846
2016-07-26,1,0.0001938314137563186,0.00029458239600806113,-0.001680290560496822,0.010093206570135266,0.9903241290707607
2016-07-28,0,-5.2857628771984036e-05,4.707207514718443e-06,-0.0030766087933548772,0.010093206570135266,0.9898968233955096
2016-08-01,1,8.939994226093829e-05,0.0001386089503276208,-0.004002666196212312,0.00753602961533766,0.990375640545759
2016-08-03,-1,-0.00029620151600155486,-0.0002517852410950307,-0.0053763792864518194,0.006611463372710984,0.9912332985527367
2016-08-05,1,0.0003611467108463996,0.00047696625011171796,-0.00761241244514285,0.0047835929242664756,0.9907878049492455
2016-08-09,1,0.00016190953361242786,0.0002738474915332654,-0.006159178595792861,0.006611463372710984,0.9910094588387937
2016-08-11,1,0.001568957634648921,0.0018724005598751753,-0.008072502706582111,0.0010557943196419384,0.9906423693993492
2016-08-15,1,0.0010005719387661198,0.0011665327416248024,-0.009666419206298505,0.0022325751774728646,0.9890813060376887
2016-08-17,1,0.0009187453596220934,0.0010736470376001839,-0.014512776616939877,0.0022325751774728646,0.9873646907972564
2016-08-19,1,0.0015400688706791428,0.0017981641916579943,-0.014512776616939877,-0.0003384865295323724,0.9873145038938025
2016-08-23,1,0.0016501720036385616,0.0019223780097328133,-0.014512776616939877,-0.0003384865295323724,0.9871375982405579
2016-08-25,1,0.0008035866763741055,0.0009142624158246013,-0.014512776616939877,0.0016282184069709507,0.9882850241739032
2016-08-29,1,0.0008657237448956205,0.0010007651155210387,-0.019547998844741284,0.003985297320063235,0.9868674071299804
2016-08-31,-1,-0.0006123488162886431,-0.0005094625013353884,-0.016925051535176917,0.003985297320063235,0.9877835635102106
2016-09-02,-1,-0.0010506541554732847,-0.0009419491595662988,-0.013671122981678921,0.008191830892376434,0.9887496936343662
2016-09-07,-1,-0.0006174236383308142,-0.0005671718248991618,-0.016925051535176917,0.004683146287594369,0.9880879705865887
2016-09-09,-1,-0.0015921876442773699,-0.0014372869027826302,-0.009853322338218912,0.004683146287594369,0.9897707169305446
2016-09-13,-1,-0.001587011085911054,-0.0014246382272820664,-0.009738716825345519,0.004683146287594369,0.9905467934853525
2016-09-15,-1,-0.0028859634736074914,-0.0025615156661184454,-0.005716431535162293,0.007808397455501237,0.9913974343899822
2016-09-19,-1,-0.002389518974267842,-0.0021394432003516307,-0.0079387117242716,0.005012894463346528,0.9917408952561935
2016-09-21,-1,-0.002515995693842871,-0.002233864236292399,-0.005878512775113996,0.00438349568503359,0.9919349285451947
2016-09-23,-1,-0.001688688082093207,-0.0015486217539898016,-0.006500246098765443,0.006413538470091588,0.9918579524100299
2016-09-27,-1,-0.0021495671747957137,-0.0019368643569970326,-0.006500246098765443,0.00438349568503359,0.9920166803482683
2016-09-29,-1,-0.0024870368281505574,-0.002256841326537077,-0.0031106207194617087,0.006413538470091588,0.9912719014310434
2016-10-03,-1,-0.0032273393101244705,-0.002821959572766812,-0.0031106207194617087,0.005450984947804683,0.9917061448135465
2016-10-05,-1,-0.004146461668925184,-0.0036168890239194765,-0.0025221628178162462,0.005450984947804683,0.9926649911624261
2016-10-07,-1,-0.003996278727580786,-0.0034995955236553945,-0.004093302612041966,0.005450984947804683,0.9924649006843962
2016-10-11,-1,-0.004113584580410072,-0.003602978068536259,-0.004093302612041966,0.005450984947804683,0.992062915290485
2016-10-13,-1,-0.0034354267325144567,-0.0030346107900865852,-0.004093302612041966,0.006413538470091588,0.9911627583375606
2016-10-17,-1,-0.0033956691204626776,-0.0030237867634329623,-0.002395022783356585,0.00795142368556774,0.9903109799229859
2016-10-19,-1,-0.0029114994449130497,-0.002606540252382829,-0.0059422846550433615,0.00795142368556774,0.9904577813976287
2016-10-21,-1,-0.0028019736728779466,-0.0025082077616493128,-0.006870348418481806,0.011685036735503015,0.9884861422863357
2016-10-25,-1,-0.0036735153336491634,-0.003287145563446327,-0.004176910950106973,0.013163046147547385,0.9862246564510121
2016-10-27,-1,-0.002563651589648235,-0.0023262291231985147,-0.006870348418481806,0.012682346534945545,0.9872001158513246
2016-10-31,-1,-0.002422569027171344,-0.002214296918229585,-0.008971345317790615,0.012682346534945545,0.9861296061822153
2016-11-02,-1,-0.002680846819097582,-0.002431610556999311,-0.009935829851919606,0.013163046147547385,0.9841089580663132
2016-11-04,-1,-0.0028458764995338785,-0.002577263163550249,-0.009935829851919606,0.015940221921722987,0.9831357926598243
2016-11-08,-1,-0.0016212050386011775,-0.0015284598191477208,-0.010003162213246578,0.01337363614585109,0.9837176565969051
2016-11-10,0,-7.793571536637031e-05,6.687196950383786e-05,-0.010015341128607427,0.012852036320377149,0.9848998704069465
2016-11-14,1,0.0006587860803428514,0.0009149269492812526,-0.012248925622240244,0.01275254320104678,0.9846914210373985
2016-11-16,-1,-0.002100752515094427,-0.0018248925907591198,-0.015459764266838191,0.01275254320104678,0.9840603401461263
2016-11-18,-1,-0.0022210035242928756,-0.002003693511700572,-0.013116733007900718,0.009711484632892285,0.9865061507092318
2016-11-22,1,0.000677911071609226,0.0008733067307226208,-0.013116733007900718,0.0034607161283433134,0.9881762365501559
2016-11-25,1,0.00028242510789966977,0.0004296577114959165,-0.013244854399122104,0.0028361783428825,0.987912640127769
2016-11-29,0,-5.2339461948544184e-05,0.00011617240813977415,-0.01005850916074802,0.008697232066791568,0.9889662468064012
2016-12-01,1,0.0003600479001025727,0.0006070109974654522,-0.009273023392749168,0.0028361783428825,0.9905894460122594
2016-12-05,1,0.0013820490856414822,0.0017725148380080523,-0.009273023392749168,0.002201037144299153,0.9910964762625825
2016-12-07,1,0.0014120014020405553,0.001786512270813077,-0.009022705928559305,0.0009218708436701721,0.9915038690917959
2016-12-09,1,0.0010863766571137703,0.0014291765050516634,-0.00614951050927692,0.0021671155044746472,0.9920411954178268
2016-12-13,1,0.0005504061300010876,0.000768024286640073,-0.009985877089608988,0.0009218708436701721,0.9918997591478633
2016-12-15,-1,-0.0008173123210056148,-0.0007891636665394439,-0.00614951050927692,0.0021671155044746472,0.9929514842961928
2016-12-19,-1,-0.0010368646142551632,-0.0010299218803057162,-0.009113136801189926,0.0058907614353827485,0.9914808861846953
2016-12-21,0,-0.00010940071534916348,3.472199576677663e-05,-0.009113136801189926,0.0058907614353827485,0.9917144662458875
2016-12-23,-1,-0.0012804834629989359,-0.0012223450321097301,-0.00614951050927692,0.006242299609244224,0.9922082383947515
2016-12-28,-1,-0.0003714770640991297,-0.0002641075616883616,-0.01008634504315483,0.0058907614353827485,0.9910438041753934
2016-12-30,-1,-0.0007559370593664479,-0.0007190108806394453,-0.01008634504315483,0.006242299609244224,0.9906826393696593
2017-01-04,1,0.00036049783874500996,0.0006410062499224131,-0.011837923820618549,0.006140534689770707,0.9901816044273429
2017-01-06,1,0.0002147041590214087,0.00048479817107372294,-0.013234336549109282,0.006140534689770707,0.9893848881034014
2017-01-10,1,0.00037633666619555934,0.0006690758750034495,-0.014367691387033817,0.008026820912020088,0.988086772229695
2017-01-12,0,-1.938613512591841e-05,0.00026378849457660226,-0.01277837946494201,0.01120533335745455,0.9882297600842715
2017-01-17,1,0.0004894194117806795,0.0008585690863762644,-0.01277837946494201,0.009927371048586887,0.9890968298326416
2017-01-19,1,5.5210939847965494e-05,0.0003461118278723839,-0.008011364561673253,0.008187073969032154,0.9902001591730685
2017-01-23,1,0.0006004339953249152,0.0009621688202124175,-0.008011364561673253,0.009927371048586887,0.988311024803994
2017-01-25,1,0.0005368637659359599,0.0008318896679190461,-0.01277837946494201,0.01000027887518538,0.9870136017022179
2017-01-27,-1,-0.001017908135629424,-0.0009908691065753199,-0.005421643947105454,0.010134775438406768,0.9879156943718217
2017-01-31,-1,-0.0002500260172185439,-9.668088511798214e-05,-0.008080889343712084,0.009570518408904292,0.9879168476011847
2017-02-02,-1,-0.0013123356555678214,-0.0012706494040352657,-0.008080889343712084,0.009666495011940906,0.9875053354370229
2017-02-06,-1,-0.0021499989418256814,-0.0020216488345737187,-0.006999478630827662,0.009666495011940906,0.9878116160810023
2017-02-08,-1,-0.003175231071648419,-0.0028623008451294,-0.005421643947105454,0.009557678422176034,0.9891715731978555
2017-02-10,-1,-0.0018540984295050047,-0.0017129370641974211,-0.005421643947105454,0.008371108884275995,0.9901824022178238
2017-02-14,-1,-0.0012248060927174263,-0.0011661639386864693,-0.005421643947105454,0.008403101085288198,0.9900736258100157
2017-02-16,-1,-0.0013968544813015961,-0.0013307465245954925,-0.004003941484110446,0.008403101085288198,0.9899650557329136
2017-02-21,1,0.00010148927166310772,0.0002143425032034434,-0.004609348694798246,0.007430298961044246,0.9920969401263774
2017-02-23,-1,-0.00016116706764844423,-0.00012755918410410042,-0.003053640385907015,0.007430298961044246,0.9931116351788937
2017-02-27,1,0.00045832161010754666,0.0005995663681476639,-0.003053640385907015,0.007430298961044246,0.9931009709986668
2017-03-01,-1,-9.614186297593718e-05,-7.623227378597043e-05,-0.0018222229665814632,0.010120125414268575,0.9924337590076429
2017-03-03,-1,-0.00029819139686615296,-0.0002872240301757682,-0.0018222229665814632,0.011549908809276492,0.9909405078507406
2017-03-07,-1,-0.0004084387906171253,-0.0003721688871714211,-0.003053640385907015,0.011549908809276492,0.9907823944812949
2017-03-09,-1,-0.00014573699246070893,-0.00013139160580868551,-0.0023137956062147607,0.011549908809276492,0.9907527930890256
2017-03-13,0,-1.2838468042439076e-06,1.2017826175723893e-05,-0.0023137956062147607,0.011549908809276492,0.990742141376808
2017-03-15,1,0.0007265589710554098,0.0008564757214524372,-0.0023137956062147607,0.00979870540215458,0.9912722154400698
2017-03-17,1,0.0007902146688811122,0.0009305340046918366,-0.0024805399031694133,0.00979870540215458,0.9912758588734201
2017-03-21,-1,-0.0004921579025862377,-0.00040835144169450914,-0.0007359192997641473,0.00979870540215458,0.9913509982562935
2017-03-23,1,0.0006171583507285578,0.0007229783465461965,-0.0024805399031694133,0.00979870540215458,0.9911375432199576
2017-03-27,1,0.001078868183679537,0.0012380750269936893,-0.0024805399031694133,0.007242267621090736,0.9917776027395392
2017-03-29,1,0.0019091767343490597,0.002165010593388669,-0.0024805399031694133,0.007242267621090736,0.9917604819256157
2017-03-31,1,0.0008876561786497037,0.0009931820963569415,-0.0047711506106877044,0.006540217263070023,0.9897541842734601
2017-04-04,1,0.0006184652415673632,0.0007258482688877138,-0.0007359192997641473,0.007242267621090736,0.9902057298463323
2017-04-06,1,0.001339629921431655,0.001606513274401113,-9.081373372949728e-05,0.009490357437602279,0.9900616387201642
2017-04-10,1,0.001978274249393056,0.0023657263619621498,-9.081373372949728e-05,0.010312870825095653,0.9899106095997959
2017-04-12,1,0.0018248715517262938,0.002150620538176398,-0.0012250244079727631,0.010312870825095653,0.989364469857242
2017-04-17,1,0.0013299463130021362,0.001535093575248351,-0.005530029886751636,0.010312870825095653,0.9885124484216817
2017-04-19,1,0.0026220233143081756,0.0031175661861176404,-0.012986973406401116,0.010312870825095653,0.9866789827752487
2017-04-21,1,0.002598274845527219,0.0030656061776947836,-0.012986973406401116,0.010312870825095653,0.9875146546664975
2017-04-25,1,0.0022593571625366777,0.0026278810915954538,-0.012986973406401116,0.010312870825095653,0.9872711423800327
2017-04-27,1,0.0032229688942201264,0.003723183776550878,-0.012986973406401116,0.008689775538904335,0.9879959401587451
2017-05-01,1,0.0009891642569134114,0.0012422236430776998,-0.002953744437318091,0.009190855428298813,0.9919660723550193
2017-05-03,1,0.001404964924095533,0.001720502038561278,-0.00306329370849586,0.008689775538904335,0.9923049241364537
2017-05-05,1,0.0017588850931697427,0.002094885507612066,-0.00306329370849586,0.008689775538904335,0.9923711722759919
2017-05-09,1,0.0023220402905873207,0.002726088767506715,-0.005586992009655097,0.0036424530709463204,0.9922390359247185
2017-05-11,1,0.00123805209798011,0.0014222371620653627,-0.00306329370849586,0.0069719480528737865,0.9916121665834676
2017-05-15,1,0.0005403595314712592,0.0006196221049687698,-0.0016378110506384646,0.008884895557596376,0.9921196476907501
2017-05-17,-1,-0.00039702602625638013,-0.0003864045400927719,-0.001024742128733208,0.009138093554277957,0.9930748416640549
2017-05-19,-1,-0.0003305613399370753,-0.0002898685790244144,-0.001024742128733208,0.008888547222746807,0.9932167685422318
2017-05-23,1,0.00020922822056315883,0.00025240344194596653,-0.0016378110506384646,0.008888547222746807,0.9919320070112585
2017-05-25,1,0.0001878317896860689,0.0002124387163410228,-0.001024742128733208,0.009817251840716324,0.9913104917480472
2017-05-30,1,0.0006305271630526505,0.0007261319358509064,-0.0016743274743643878,0.010171678538480285,0.99110344606737
2017-06-01,1,0.0003758788957518313,0.0004183807037713511,-0.001415667145300033,0.010171678538480285,0.9909640584988636
2017-06-05,1,0.0007342970601453557,0.0008252244638356967,-0.001415667145300033,0.010171678538480285,0.9911505470162326
2017-06-07,-1,-0.00016736244523327833,-9.755177381572163e-05,-0.0024968242633560396,0.010171678538480285,0.9901268458649274
2017-06-09,1,0.0009039199482310059,0.0009757639804131012,-0.0034304151626219936,0.009994024392575037,0.9914279149566351
2017-06-13,1,0.000992831000769277,0.0010506585767988445,-0.00510523554543993,0.009232793393453889,0.9910865306987307
2017-06-15,1,0.0011446544820906369,0.001240986921237509,-0.0034304151626219936,0.009195954371955065,0.9918465078556675
2017-06-19,1,0.001609669602887421,0.001782898730025219,-0.004746251227628583,0.007047817560757113,0.9920512851691888
2017-06-21,1,3.509401574011646e-05,0.00012441605781010644,-0.0034304151626219936,0.010881212764818557,0.9922887318483851
2017-06-23,1,0.0009409084904447647,0.0009781536365176713,-0.0034304151626219936,0.010387586890055665,0.992514093269525
2017-06-27,1,0.000806549975485406,0.0008203400380341667,-0.0029608558607804726,0.010387586890055665,0.9913496211723151
2017-06-29,1,0.00013882576411769086,0.0002800314262685785,-0.0029608558607804726,0.011256191446409325,0.9906475867337466
2017-07-03,1,0.00030466834045399975,0.00043893851656537017,-0.0029608558607804726,0.010387586890055665,0.990800078932175
2017-07-06,-1,-0.000295909268270943,-0.00012902376185913505,-0.0002464202344522975,0.010387586890055665,0.9913988893717507
2017-07-10,1,4.192956476196659e-05,0.00015539888835150163,-0.00048361103426838815,0.00850836971986311,0.9919423009615302
2017-07-12,-1,-0.000669347246544644,-0.00045129014555320493,-0.0014763583670803003,0.00850836971986311,0.9921284774702178
2017-07-14,1,0.00015803896318740025,0.00021408282142721088,-0.003279165504942153,0.00850836971986311,0.9912822638892324
2017-07-18,1,8.83771277234851e-05,0.00015000915989572808,-0.0014763583670803003,0.012386070116191797,0.9898366622897472
2017-07-20,1,0.0012352612659956368,0.0013327309616714036,-0.003279165504942153,0.006636758942743461,0.9908763293950631
2017-07-24,1,0.001688753433521471,0.0018332025223303803,-0.00443201535033698,0.005738769898854447,0.9913933051351193
2017-07-26,1,0.002514711411668806,0.0027555035907964225,-0.004962948184079099,0.005510887679859276,0.992868828397739
2017-07-28,1,0.0028660672775727564,0.003149019687242662,-0.004962948184079099,0.005510887679859276,0.993368903320463
2017-08-01,1,0.0030579690696593076,0.0033608124121919008,-0.004962948184079099,0.005461491909911561,0.9929659717665695
2017-08-03,1,0.003366248499324923,0.0037190754658989987,-0.005144033604801691,0.005315293070518053,0.9924209899220543
2017-08-07,1,0.003280076284111713,0.003642987442233541,-0.005144033604801691,0.005618829933731653,0.9925450000866708
2017-08-09,1,0.002842527989400657,0.0031440711396567116,-0.0076618969288394225,0.005618829933731653,0.9922969412753629
2017-08-11,1,0.00205788487008063,0.002219896869410689,-0.006783109617151708,0.005939394712460039,0.9924079681953589
2017-08-15,1,0.0032986213078262713,0.003646377631619057,-0.006783109617151708,0.005315293070518053,0.9932373539142152
2017-08-17,1,0.0029722207569333114,0.0032994871246624273,-0.006783109617151708,0.005315293070518053,0.9934791421675496
2017-08-21,1,0.0032275625139004975,0.0036344262697007345,-0.006783109617151708,0.005315293070518053,0.9932848735564938
2017-08-23,1,0.002537374295188035,0.002808991820052717,-0.00500987360891511,0.005315293070518053,0.9935601776321888
2017-08-25,1,0.0024775076960025086,0.0027015666912433593,-0.006783109617151708,0.0024019446099531835,0.9932669171770316
2017-08-29,1,0.0022177604281868905,0.002410436006691476,-0.006783109617151708,0.005372172162218221,0.9930597820442865
2017-08-31,1,0.0021535210792828076,0.0023487221968358602,-0.00500987360891511,0.005699004122880596,0.9934489763720293
2017-09-05,1,0.002629522825540294,0.002893213008327011,-0.00500987360891511,0.00452028510651882,0.9937147776081048
2017-09-07,1,0.0020020244415223385,0.0021768947244923545,-0.004158895649337989,0.005696019507443952,0.9941930666994756
2017-09-11,1,0.00225012405947951,0.0024684989674107435,-0.004158895649337989,0.005696019507443952,0.9935230825644037
2017-09-13,1,0.0021208692022695905,0.0023279543047573527,-0.0031610086384815904,0.005696019507443952,0.9937301219904652
2017-09-15,1,0.001772340948964601,0.0019375674634615411,-0.0031610086384815904,0.005696019507443952,0.9939377238626464
2017-09-19,1,0.0021483847958635735,0.0024163132707786263,-0.0025534232220081735,0.006139935963484392,0.994025606010845
2017-09-21,1,0.0002614221695808592,0.00041712401058837664,0.00020672865116198,0.007210766383530977,0.9933826234411127
2017-09-25,1,0.00021337728386334364,0.0003663759493417337,0.0013245640949125844,0.009089286254826483,0.990637181617862
2017-09-27,1,0.0013332062844181613,0.0013457402032515625,0.0008969652753115678,0.009089286254826483,0.9912497274772696
2017-09-29,1,0.0018610799568181062,0.001980725819595173,-0.00040950147114892954,0.009089286254826483,0.9909453711903918
2017-10-03,1,0.0017427782036110906,0.0018128419520084906,-0.003009584402645135,0.009089286254826483,0.9900708271786738
2017-10-05,1,0.0015195484854663027,0.001530297805947484,-0.0034956519977099292,0.007523993249012326,0.9902887372873788
