JNU-Tangyin/eata/results/Batch4_SP500/Batch4_SP500-ALK.csv
Date,Action,Predicted_Q25,Predicted_Q75,Actual_Q25,Actual_Q75,RL_Reward
2010-12-14,0,0.0,0.0029285352112685937,-0.009029049277981493,0.015140886155147741,0.9879493683025847
2010-12-16,1,0.004119696535073502,0.004676583103800225,-0.009029049277981493,0.015140886155147741,0.987532649876833
2010-12-20,0,0.0,0.0,-0.012033617296134403,0.011102832882563038,0.9859637626288891
2010-12-22,0,0.0,0.0,-0.014138737639556144,0.009269231448481107,0.9855886245947968
2010-12-27,0,0.0,0.0,-0.009029049277981493,0.011033025618542802,0.9860730131531096
2010-12-29,0,0.0,0.0,-0.009029049277981493,0.014257730420187803,0.9853542729982735
2010-12-31,0,0.0,0.0,-0.009029049277981493,0.014257730420187803,0.9832843940457934
2011-01-04,0,0.0,0.0,-0.01322370661907962,0.014257730420187803,0.9804960466956685
2011-01-06,0,0.0,0.0,-0.01322370661907962,0.014257730420187803,0.9807005850593316
2011-01-10,1,0.004792676927453302,0.005637570229829304,-0.01322370661907962,0.011377315996389359,0.9826470353770717
2011-01-12,0,0.0,0.0,-0.010435291087076007,0.009383994907763293,0.9835720873801262
2011-01-14,0,0.0,0.0,-0.010435291087076007,0.011377315996389359,0.9827675582358718
2011-01-19,1,0.003968502908904286,0.00397161239512929,-0.006384356062250853,0.011377315996389359,0.9835029779141887
2011-01-21,1,0.001183213781148592,0.001537281116624692,-0.003086820443486571,0.011377315996389359,0.9853736943404986
2011-01-25,1,0.0021765754572322443,0.0023853760252745986,-0.00873168071902278,0.009769743141712629,0.9806841167663036
2011-01-27,1,0.004350833215320986,0.0045129328765915,-0.00873168071902278,0.011449722918180515,0.980560691418829
2011-01-31,1,6.468364103419193e-05,0.0005321362632589226,-0.007078536238324553,0.011449722918180515,0.9815486808778695
2011-02-02,1,0.0010648494998602334,0.001382078958145292,-0.00613153074091138,0.011449722918180515,0.9834821302480462
2011-02-04,1,0.00257584225350822,0.002669695652078957,-0.007973204755004359,0.009769743141712629,0.9839861522416223
2011-02-08,1,0.0023772295679592597,0.0024323793966676823,-0.009867609405121693,0.010779019116763188,0.9816070340980796
2011-02-10,1,0.0020511263408778445,0.00218189024674564,-0.009867609405121693,0.010779019116763188,0.9816792336995359
2011-02-14,1,0.003648095862190883,0.0037478800492982147,-0.011785008546767574,0.005865070095123767,0.9812033216034539
2011-02-16,1,0.002845493645555767,0.0028881992357524863,-0.014377142279858143,0.005865070095123767,0.9800832464810034
2011-02-18,1,0.003174230036598299,0.003253328335114459,-0.014377142279858143,0.01541456519608243,0.9779976978297343
2011-02-23,-1,-0.0014894283826364578,-0.0010713127071226608,-0.013176800401195257,0.01541456519608243,0.982248649541893
2011-02-25,-1,-0.0015731105748059402,-0.0010231338648729724,-0.013176800401195257,0.010984823394529825,0.9831406866306728
2011-03-01,-1,-0.0036669629160792907,-0.002871730625578522,-0.01150810508182055,0.014112893458825321,0.9843133352880196
2011-03-03,-1,-0.002651068801168586,-0.0019418869128828673,-0.01150810508182055,0.013280734225732112,0.9857899902350589
2011-03-07,-1,-0.004422282769349051,-0.00345401019496371,-0.011081928959441186,0.013280734225732112,0.9857909977780782
2011-03-09,-1,-0.0027038574531179447,-0.001927350179818035,-0.011081928959441186,0.011151239922954786,0.988234066820893
2011-03-11,-1,-0.002531416232659656,-0.0017731464280815708,-0.011621368569110141,0.011151239922954786,0.9867061957771281
2011-03-15,-1,-0.00307177843809895,-0.002331419431828425,-0.006829146026902806,0.013280734225732112,0.9855484415852309
2011-03-17,-1,-0.004228450922697433,-0.0033888516576090284,-0.0062911142742314505,0.013280734225732112,0.9849395692367389
2011-03-21,-1,-0.0007320934169416059,-0.00033732160895198044,-0.0062911142742314505,0.010375027984881578,0.9885128255114894
2011-03-23,-1,-0.0005665640621942536,-0.0002505755601254101,-0.004053622338298897,0.010731882532671527,0.98918068178935
2011-03-25,0,-0.0002634849205467685,4.1230075704693447e-05,-0.004548556811004366,0.007216067475735851,0.9894403874390965
2011-03-29,1,0.001224025358402522,0.0012924703176500094,-0.004548556811004366,0.010731882532671527,0.9872835746442289
2011-03-31,1,0.0023198820655770894,0.0024680323244283945,-0.004548556811004366,0.010731882532671527,0.986884312071341
2011-04-04,1,0.00032918907807467316,0.0005364619373811443,-0.004548556811004366,0.012146557474894144,0.9869080825287943
2011-04-06,1,0.0007200378236539699,0.0008825859468649152,-0.004548556811004366,0.016515648697390445,0.9859122944412727
2011-04-08,0,0.0,0.0,-0.0032002421944366823,0.016515648697390445,0.9878731083603831
2011-04-12,0,0.0,0.0,-0.0032002421944366823,0.012146557474894144,0.9892210917240316
2011-04-14,1,6.734433796064033e-05,7.100988006189877e-05,-0.0022561620565701808,0.012146557474894144,0.9901405822582395
2011-04-18,-1,-0.0018255342438156942,-0.0013819770618940584,-0.0032002421944366823,0.012146557474894144,0.9893567078353891
2011-04-20,-1,-0.0009029450622215326,-0.000617481337848185,-0.0023081253526991636,0.015309026733217785,0.9892106800444135
2011-04-25,-1,-0.0014616992635918197,-0.0010673277474846487,-0.002666790257666517,0.015309026733217785,0.9885399155705675
2011-04-27,1,0.001253135600601339,0.00132374592263312,-0.004262958578179932,0.007137203516049823,0.9911064841474446
2011-04-29,1,0.002349062508427583,0.0024391982680153678,-0.004262958578179932,0.00639489527749969,0.9918555686275874
2011-05-03,1,0.0024390343750091614,0.0025311202379168576,-0.004610531181185146,0.006151049096499976,0.9912567181613718
2011-05-05,1,0.003953378318127322,0.004243558863545119,-0.008752687231540546,0.0033557061787627233,0.9905945682206792
2011-05-09,1,0.0035187770031112524,0.0037105227289680803,-0.010276179913791286,0.0033557061787627233,0.9902350607190936
2011-05-11,1,0.003906975450827998,0.0041454723037878186,-0.01166537568821065,0.00208331808302026,0.9883537722264722
2011-05-13,1,0.003925476005964093,0.004208038784492013,-0.01166537568821065,0.00208331808302026,0.9882402815584583
2011-05-17,0,0.0,0.0,-0.011657111367091712,0.0021446984036156075,0.988375271301371
2011-05-19,0,0.0,0.0,-0.011657111367091712,0.0027685962749876844,0.9882965486216194
2011-05-23,0,0.0,0.0,-0.010801676138594363,0.010117391720205217,0.9876031428416372
2011-05-25,0,0.0,0.0,-0.011657111367091712,0.015023927694574415,0.9860480603829745
2011-05-27,1,0.0012106213532634446,0.0012785991000331218,-0.01302167858206432,0.015023927694574415,0.9846487729756606
2011-06-01,1,0.0008222649227499088,0.000868512853125329,-0.011657111367091712,0.015023927694574415,0.9853386810129915
2011-06-03,1,0.0010003775906298976,0.0011111807265501191,-0.010801676138594363,0.015023927694574415,0.986323221311198
2011-06-07,0,0.0,0.0,-0.006772902128885118,0.015023927694574415,0.9861549822406906
2011-06-09,0,0.0,0.0,-0.00519853606803065,0.015023927694574415,0.9870183369353354
2011-06-13,0,0.0,0.0,-0.008721490465922431,0.013845417046764107,0.9861435454171341
2011-06-15,-1,-0.00020025769373507196,-7.61798970892338e-05,-0.006134207801369224,0.013495831030938113,0.9877925840352507
2011-06-17,1,0.0010890093594750302,0.0011733033067117889,-0.008721490465922431,0.011754674331907081,0.9873804314315074
2011-06-21,0,0.0,0.0,-0.011833066615258089,0.009810039680010154,0.9871870724868168
2011-06-23,0,0.0,0.0,-0.012266821943039217,0.008041000374093377,0.9877982065947317
2011-06-27,1,0.002170460033433627,0.0022284323221320058,-0.012266821943039217,0.007111167827806398,0.987898046609077
2011-06-29,1,0.0027618219380872618,0.0029547531901605714,-0.017615507962091922,0.0045905071981241444,0.9867613498333418
2011-07-01,1,0.00324870724459975,0.003522529791072423,-0.017928870967462297,0.004583692628837485,0.9857596544175802
2011-07-06,1,0.0036059182312175764,0.003940050973329792,-0.02065072787259515,0.004583692628837485,0.9828595992171686
2011-07-08,1,0.004164949271947376,0.004624259543418957,-0.022655779449971162,-0.00016459455535992656,0.9799851584773464
2011-07-12,1,0.0024133252308490734,0.002627477779272376,-0.022655779449971162,0.004583692628837485,0.9767533469315921
2011-07-14,1,0.0019860390237166473,0.002203872204285244,-0.025312749948435923,0.004583692628837485,0.9720800353747867
2011-07-18,-1,-0.0018813466586254939,-0.0013539659247780935,-0.022655779449971162,0.02224344695014016,0.9724659198267357
2011-07-20,-1,-0.0005590479674879692,-0.00038638572094387827,-0.022655779449971162,0.010572646799212429,0.973730767951205
2011-07-22,-1,-0.002172195381353643,-0.0017270606597728924,-0.02903810216255951,0.010572646799212429,0.9723417746600334
2011-07-26,0,0.0,0.0,-0.027618605450621107,0.02272051734243196,0.9706468585885737
2011-07-28,-1,-0.003575115069183283,-0.003127782120071401,-0.032383659012989396,0.02272051734243196,0.9710905937006797
2011-08-01,-1,-0.0023207921105803707,-0.0019419411787784998,-0.032383659012989396,0.02878245235074374,0.9675304827574085
2011-08-03,0,0.0,0.0,-0.014508253023917847,0.02878245235074374,0.9701898610344023
2011-08-05,-1,-0.006139548072457673,-0.0052759813070592555,-0.02558774925900455,0.02878245235074374,0.9711022842335706
2011-08-09,-1,-0.005498111600664402,-0.00467630842211743,-0.014193847092994897,0.02878245235074374,0.9747202401647216
2011-08-11,-1,-0.0051336228617571075,-0.00444692053695883,-0.01659982019343477,0.02275914084181062,0.9785723739535117
2011-08-15,-1,-0.003530169586975555,-0.0030001737372853292,-0.01659982019343477,0.014030772136570134,0.9783367015743034
2011-08-17,-1,-0.003082206737770133,-0.00262543092007076,-0.01659982019343477,0.03676420981151,0.9754899006602489
2011-08-19,-1,-0.004304496215629025,-0.003711971625240218,-0.012570442130343924,0.03676420981151,0.9779041054940204
2011-08-23,-1,-0.0040915367873595124,-0.0035520865133085076,-0.0217874971494048,0.014979189390693953,0.9773723617169888
2011-08-25,-1,-0.003550204432794856,-0.0030574121262026163,-0.01543787146720917,0.040546451839394586,0.9759862344693628
2011-08-29,0,0.0,0.0,-0.01543787146720917,0.004821597752910554,0.9799325418205075
2011-08-31,-1,-0.003685358311973446,-0.0032344484574807148,-0.020922462155148543,0.006973858597214406,0.9790420890781037
2011-09-02,-1,-0.005311662387840603,-0.004670826361596196,-0.020922462155148543,0.006973858597214406,0.9761917989280967
2011-09-07,0,0.0,0.0,-0.020922462155148543,0.013030078227118103,0.974720106511942
2011-09-09,-1,-0.008453813775088737,-0.007341118246717425,-0.014299667782333936,0.026257486797592038,0.9726045960713885
2011-09-13,-1,-0.004061148617943101,-0.0035479201288331737,-0.014299667782333936,0.0318778079468581,0.9722221784782751
2011-09-15,-1,-0.002398192360079601,-0.0020767984267719315,-0.014299667782333936,0.030307638920006298,0.9734318416793799
2011-09-19,0,0.0,0.0,-0.01187473936158196,0.030307638920006298,0.9738870358759588
2011-09-21,0,0.0,0.0,-0.008776431763108224,0.030307638920006298,0.9749715141971137
2011-09-23,0,0.0,0.0,-0.008776431763108224,0.030307638920006298,0.9755019308458945
2011-09-27,0,0.0,0.0,-0.011867794808998256,0.0360957011126797,0.9719732355869249
2011-09-29,0,0.0,0.0,-0.008776431763108224,0.040280856127047446,0.9710688979990032
2011-10-03,0,0.0,0.0,-0.008776431763108224,0.040280856127047446,0.9752520978626363
2011-10-05,-1,-0.0008970615350860395,-0.0008424593519861087,-0.00939493671936755,0.0360957011126797,0.978529240458354
2011-10-07,1,0.0006882216363104992,0.0009420763960464677,-0.009213565474759561,0.0360957011126797,0.9785072165505815
2011-10-11,1,0.0045362789242811225,0.005458124980092466,-0.009213565474759561,0.02447027286770069,0.9809640706283564
2011-10-13,1,0.005792094168322671,0.006820141988898562,-0.014969117210037674,0.01082950420752465,0.9788707904495247
2011-10-17,1,0.004939566807355629,0.005833005946958015,-0.015516970661893814,0.02515679975965535,0.9779751117553359
2011-10-19,1,0.004952082360285499,0.005845154138400378,-0.015516970661893814,0.015203568025803384,0.9785929614222748
2011-10-21,0,0.0,0.0,-0.018671128450400903,0.0075117602962406615,0.980634692903106
2011-10-25,0,0.0,0.0,-0.01859910421523916,0.004170962909664397,0.982679706336846
2011-10-27,0,0.0,0.0,-0.019293922181712934,0.00346124424765558,0.9836462215470406
2011-10-31,0,0.0,0.0,-0.019293922181712934,0.0075117602962406615,0.9819308195835318
2011-11-02,1,0.003110633872995236,0.00356973939968603,-0.019293922181712934,0.014329525594817094,0.9793949033442295
2011-11-04,1,0.005521570121604306,0.006330733052126257,-0.019293922181712934,0.013307088142809455,0.9803713220514273
2011-11-08,1,0.006065716764000457,0.006982146061501233,-0.019293922181712934,0.013307088142809455,0.9794297480517533
2011-11-10,1,0.004746621888868992,0.005558855977638099,-0.017975734991350207,0.021407135905845094,0.9800482071183033
2011-11-14,1,0.005657655306044809,0.006616881738245787,-0.017975734991350207,0.013307088142809455,0.9822150128435461
2011-11-16,1,0.0049366841900332446,0.005772535873581158,-0.01296217470632037,0.021662401956622626,0.9820680035852111
2011-11-18,1,0.004522687302025045,0.005316681036312573,-0.01296217470632037,0.023925043881844365,0.9804528194442901
2011-11-22,1,0.003393465055957861,0.00405852461689914,-0.0040681710799748754,0.024748816742986006,0.9813346530419477
2011-11-25,1,0.0029860719947187686,0.0036185227200573856,-0.003296359566424225,0.024748816742986006,0.9820836117672064
2011-11-29,1,0.005361614949101907,0.006314436570390013,-0.005995996155924282,0.021662401956622626,0.9838209418103195
2011-12-01,1,0.007212170960195488,0.008339896058366878,-0.008037261667135311,0.020530832068543704,0.9851192270328747
2011-12-05,1,0.007536821566437608,0.008708342192038969,-0.010238758129526567,0.016164191890547946,0.9851354896722968
2011-12-07,1,0.006346464358722383,0.007305479263860843,-0.010238758129526567,0.016164191890547946,0.9855244405054956
2011-12-09,1,0.006263029977643732,0.007213886916566127,-0.010238758129526567,0.012779554760344902,0.9872190482757455
2011-12-13,1,0.005785756236137964,0.006624114992960663,-0.01127071677438777,0.012779554760344902,0.9857668339382616
2011-12-15,1,0.006792176552343995,0.007699947142073288,-0.01127071677438777,0.007588857339907669,0.9863272847776614
2011-12-19,1,0.006191164098259021,0.006946048071296284,-0.010238758129526567,0.00895271787767299,0.9891043076633451
2011-12-21,1,0.006995334665053301,0.007834592454503768,-0.010238758129526567,0.006945538052714242,0.9888998433560545
2011-12-23,0,0.0,0.0,-0.010238758129526567,0.00895271787767299,0.9900060831501548
2011-12-28,1,0.004251324304499886,0.004447762080663999,-0.01127071677438777,0.011208315762067995,0.9881143053505768
2011-12-30,0,0.0,0.0,-0.009979455757083708,0.011208315762067995,0.9879639308561408
2012-01-04,0,0.0,0.0,-0.007434060004311405,0.012766632244985802,0.9878709398511603
2012-01-06,0,0.0,0.0,-0.007434060004311405,0.012766632244985802,0.9881193417620665
2012-01-10,0,0.0,0.0,-0.008179547538075685,0.012732727046853782,0.9881922005756062
2012-01-12,0,0.0,0.0,-0.0070034272506385685,0.012732727046853782,0.9881659454044547
2012-01-17,0,0.0,0.0,-0.0070034272506385685,0.014855645981746761,0.987523852118622
2012-01-19,0,0.0,0.0,-0.008810290172972935,0.016112220468808395,0.9863226973563206
2012-01-23,0,0.0,0.0,-0.012607684517117364,0.016112220468808395,0.9838642205724804
2012-01-25,0,0.0,0.0,-0.014947458894578073,0.013299652547235325,0.9827988595295195
2012-01-27,0,0.0,0.0,-0.014947458894578073,0.013299652547235325,0.9838739762986062
2012-01-31,1,0.003106038230076477,0.0031345064566482344,-0.014947458894578073,0.006394890190882108,0.9834449136214108
2012-02-02,1,0.0035941195457902765,0.0036435623623648767,-0.014947458894578073,0.006394890190882108,0.9835116998822883
2012-02-06,0,0.0,0.0,-0.014947458894578073,0.004190459736636227,0.9848630251220644
2012-02-08,0,0.0,0.0,-0.01425429368615905,0.0043007257646382295,0.9857203801719442
2012-02-10,0,0.0,0.0,-0.012584590608458724,0.006308787908394863,0.9858274249707125
2012-02-14,0,0.0,0.0,-0.012584590608458724,0.006308787908394863,0.9853787614025974
2012-02-16,0,0.0,0.0,-0.012584590608458724,0.006308787908394863,0.9843140229199475
2012-02-21,-1,-0.0024720754500956415,-0.0017564941463115418,-0.011422667580991584,0.008644550153178615,0.9870392758089503
2012-02-23,-1,-0.005372689659443353,-0.0042807480267704956,-0.010449062465251251,0.008644550153178615,0.9881329470207652
2012-02-27,-1,-0.009131199680065573,-0.007315364320830639,-0.00906605811858811,0.008644550153178615,0.9866146198642058
2012-02-29,-1,-0.007538556936124631,-0.006094567958422525,-0.00906605811858811,0.012310317541561252,0.9864735418645056
2012-03-02,-1,-0.006550749340610231,-0.005287128252841946,-0.010449062465251251,0.008644550153178615,0.9869608066343161
2012-03-06,-1,-0.005236722727426506,-0.004288262323250651,-0.010449062465251251,0.012073420020544819,0.9865862420254241
2012-03-08,0,0.0,0.0,-0.010449062465251251,0.012073420020544819,0.9867052838115542
2012-03-12,0,0.0,0.0,-0.012095828386739267,0.008922350404002943,0.9852782610009002
2012-03-14,-1,-0.0015705223910449922,-0.0012129029857415464,-0.012095828386739267,0.008922350404002943,0.9853084830628254
2012-03-16,-1,-0.0028467685664712236,-0.002315659727979343,-0.012095828386739267,0.0066770116997476965,0.9877601238291417
2012-03-20,-1,-0.0023570140639065404,-0.0018819661646266857,-0.012095828386739267,0.007142345831475954,0.9877293246766441
2012-03-22,-1,-0.002303220264808695,-0.0019232620484395811,-0.008902567235991362,0.007142345831475954,0.9880074435039718
2012-03-26,-1,-0.0012730400639139278,-0.0009427520500496316,-0.012095828386739267,0.006191341196663,0.9888816895913666
2012-03-28,-1,-0.0018048705489894243,-0.0013679877492939023,-0.009675736966484034,0.006191341196663,0.9894879648088087
2012-03-30,-1,-0.0007634477233553902,-0.0005657118929425347,-0.008264660167147764,0.006191341196663,0.9897715003244584
2012-04-03,-1,-0.0003165859753817073,-0.000180550294156554,-0.010393357747948452,0.004553622780908371,0.9894647484282996
2012-04-05,0,0.0,0.0,-0.010393357747948452,0.004553622780908371,0.9895388998165761
2012-04-10,-1,-0.0012597406803411717,-0.001051651139720898,-0.007536753921052582,0.007133698137099213,0.9907393113665435
2012-04-12,0,0.0,0.0,-0.007536753921052582,0.00461072128219062,0.991712474034972
2012-04-16,0,0.0,0.0,-0.006894762343467179,0.0051193469327259055,0.9920592160536419
2012-04-18,0,0.0,0.0,-0.00705149001099972,0.004059402700039229,0.9923064093423775
2012-04-20,0,0.0,0.0,-0.007309213254497278,0.004437324737957838,0.990539817507091
2012-04-24,0,0.0,0.0,-0.007309213254497278,0.0051193469327259055,0.9906079366695948
2012-04-26,0,0.0,0.0,-0.00674468039896718,0.0051193469327259055,0.9887769698152826
2012-04-30,0,0.0,0.0,-0.00674468039896718,0.00534439940463742,0.9886608602365576
2012-05-02,0,0.0,0.0,-0.00674468039896718,0.007788210548103143,0.9880750585311731
2012-05-04,-1,-0.002065509718520743,-0.0017963719816338586,-0.009218044709184185,0.0067728558170230616,0.9856956936113249
2012-05-08,-1,-0.0017231273796904376,-0.0015393120259033148,-0.009218044709184185,0.005840372896906385,0.9854381292929192
2012-05-10,0,0.0,0.0,-0.009218044709184185,0.010641376161906517,0.9840615813000944
2012-05-14,-1,-0.0011107988458270636,-0.0010305749616672123,-0.009218044709184185,0.010641376161906517,0.9840141714136557
2012-05-16,-1,-0.0006497661728834531,-0.0006178661772067609,-0.007450445212535589,0.010641376161906517,0.9839039814944759
2012-05-18,-1,-0.0020400055447564037,-0.001900796291106722,-0.007450445212535589,0.014584044105994107,0.9841403490137365
2012-05-22,-1,-0.0021131282975652387,-0.0019445839875912906,-0.0051501473986311636,0.015694854993581288,0.9838606260872115
2012-05-24,-1,-0.0003790100998704602,-0.00032851699609154084,-0.003644793633444403,0.011011646457768911,0.9868509257412819
2012-05-29,-1,-0.00017514684920374272,-0.00011331603108079923,-0.007026635860426217,0.012758172639029494,0.9856325615481014
2012-05-31,0,-5.4329933323589354e-05,1.227229709700701e-05,-0.005110863420969732,0.012758172639029494,0.9863368711996174
2012-06-04,-1,-0.0019259681873585546,-0.0017708158060484886,-0.002914319113143015,0.014541827259580265,0.9875887975223558
2012-06-06,-1,-0.0011000386263317118,-0.0010038465410231114,-0.002914319113143015,0.014541827259580265,0.987953691406039
2012-06-08,1,0.00027729840288448845,0.00035737522048635465,-0.003644793633444403,0.012758172639029494,0.9874964976711049
2012-06-12,1,0.0007035921579845756,0.0008867509849588503,-0.004148693348079267,0.014541827259580265,0.9862992777948272
2012-06-14,1,0.001112873267679783,0.0013431195034969055,-0.0045244807126347195,0.014541827259580265,0.9861649961959059
2012-06-18,1,0.0016419107357953265,0.0019922252161072357,-0.0034493327306660652,0.013902253733969833,0.9877193675813588
2012-06-20,1,0.0023602229803268496,0.0027901717191072075,-0.0045244807126347195,0.012569578053584893,0.9875511053331611
2012-06-22,1,0.002837091627690475,0.003377167716957296,-0.008487560422416558,0.012569578053584893,0.9864759578126803
2012-06-26,1,0.002848513647625305,0.0034301867643073128,-0.008487560422416558,0.010206727431494332,0.9863987073382685
2012-06-28,1,0.003218427215044602,0.0038529146911394562,-0.008487560422416558,0.01010011300082016,0.9868592746515228
2012-07-02,1,0.0032831457277723145,0.0038814015040162394,-0.008487560422416558,0.008847408152229572,0.987012679846078
2012-07-05,1,0.004266592473346056,0.00496523638374874,-0.013721440359130971,0.00573019168880514,0.9859967877014539
2012-07-09,1,0.0032460936719904835,0.0038542489323115355,-0.008487560422416558,0.009137299673175524,0.9879860461499308
2012-07-11,1,0.004058551246623555,0.004808917137475889,-0.007197906983923639,0.00573019168880514,0.9887809426508646
2012-07-13,1,0.0031751721560482208,0.003673507476412318,-0.007395849578896446,0.0036510425040842016,0.9889993896525124
2012-07-17,0,0.0,0.0,-0.007395849578896446,0.0003754507664612345,0.9903035694571177
2012-07-19,1,0.0014340483477064086,0.0015845681228513462,-0.007197906983923639,0.0027892876469311984,0.9907469670509433
2012-07-23,1,0.00029872134887300487,0.00031955873729142995,-0.005924521331581249,0.004324607700769359,0.9915895856116694
2012-07-25,-1,-0.0006109090490021508,-0.0005058641579014785,-0.004391537374843582,0.004324607700769359,0.9927879440275418
2012-07-27,0,0.0,0.0,-0.005989361579417343,0.0016648232591366433,0.9928899478802176
2012-07-31,0,0.0,0.0,-0.0073352885631463895,0.0016648232591366433,0.9925026195880359
2012-08-02,0,0.0,0.0,-0.005316586925515456,0.0017057096724875332,0.9938327206754093
2012-08-06,0,0.0,0.0,-0.005316586925515456,0.0010204599909506191,0.9952992759205467
2012-08-08,0,0.0,0.0,-0.004033229566183665,0.0017057096724875332,0.9944051874065907
2012-08-10,0,0.0,0.0,-0.002739877727922623,0.0027892876469311984,0.9943171964908534
2012-08-14,0,0.0,0.0,-0.0029608709529045352,0.004977209497132852,0.9937376268590915
2012-08-16,-1,-0.0005701719654869003,-0.0005403218829919372,-0.005601287341752425,0.005126418287373616,0.9933672175444027
2012-08-20,1,0.0009997779938397942,0.0012144745852380127,-0.008670287265172211,0.002199438510244593,0.9935292964422161
2012-08-22,1,0.0005046217816529349,0.0006371657400617594,-0.008670287265172211,0.005126418287373616,0.9929822434351471
2012-08-24,0,0.0,0.0,-0.008670287265172211,0.005126418287373616,0.9929193465417534
2012-08-28,0,0.0,0.0,-0.005549423650573811,0.008196853486826163,0.99054702959634
2012-08-30,0,0.0,0.0,-0.008706859245336322,0.008196853486826163,0.9898004658666179
2012-09-04,0,0.0,0.0,-0.008706859245336322,0.010742856349483392,0.9890246513484438
2012-09-06,0,0.0,0.0,-0.008706859245336322,0.00878742152494462,0.9891255805329712
2012-09-10,0,0.0,0.0,-0.008706859245336322,0.008602376013214744,0.9888939883160119
2012-09-12,0,0.0,0.0,-0.008706859245336322,0.00769696060933907,0.9888924183608924
2012-09-14,0,0.0,0.0,-0.0068763557289220085,0.008277258002075284,0.9891492729299225
2012-09-18,0,0.0,0.0,-0.003940788973933607,0.010221235274538987,0.9890121609847662
2012-09-20,0,0.0,0.0,-0.0028257248147668616,0.009925229406963618,0.9892593235301881
2012-09-24,0,0.0,0.0,-0.0010289938488056735,0.009925229406963618,0.9890492223241252
2012-09-26,0,0.0,0.0,-0.0010289938488056735,0.008632528265364396,0.9917757125426399
2012-09-28,0,0.0,0.0,0.0022846897452453133,0.008632528265364396,0.9923301201635599
2012-10-02,1,0.0009943919900372964,0.0010265577086791427,-0.000531502719464679,0.008632528265364396,0.9925678104228505
2012-10-04,1,0.0013654962119088558,0.0014495093808978752,0.0007008978039053951,0.008632528265364396,0.992592226035901
2012-10-08,1,0.0017400927083253768,0.0018428719599075391,-0.000531502719464679,0.008632528265364396,0.990642320120116
2012-10-10,1,0.0005145667354322543,0.0006533747837811782,-0.000531502719464679,0.009925229406963618,0.9897137847225854
2012-10-12,1,0.0007309498505022592,0.0008553681136861841,-0.0006893040105875427,0.011936385943414566,0.9893452716784252
2012-10-16,1,0.0022017306383109265,0.0023564732257903504,-0.002152757918227729,0.011936385943414566,0.9890687648033861
2012-10-18,1,0.002679271406450079,0.0028925477168113885,-0.004108822771925605,0.0163689869573447,0.9886861390662535
2012-10-22,1,0.002624821110839855,0.00282063041123811,-0.001957825636312653,0.0163689869573447,0.9892317181994998
2012-10-24,1,0.0013281093893818528,0.0014228081448252362,-0.001957825636312653,0.01658617157737781,0.9884538275754623
2012-10-26,1,0.002028990867982928,0.002110499112045701,-0.001957825636312653,0.01658617157737781,0.9882533068551677
2012-11-01,1,0.0032273988885550753,0.0035455232121700906,-0.0013413256284868348,0.01604687380714928,0.9892957485158231
2012-11-05,1,0.004032696371149861,0.004440728533628749,-0.004171288199049772,0.01065700706596381,0.9899714323476315
2012-11-07,1,0.00426308925204316,0.0047316416600766764,-0.0030916259117991325,0.00745832374215374,0.9922400489646795
2012-11-09,1,0.0042421580978962235,0.004710303360451914,-0.0010672374357497026,0.006891240989953171,0.99325037652797
2012-11-13,1,0.004966122964486121,0.005574947486143475,-0.0030916259117991325,0.006891240989953171,0.9924385317813187
2012-11-15,1,0.004672861151631572,0.005229652203127351,-0.0030916259117991325,0.005541721754506459,0.9934668126128589
2012-11-19,1,0.0049229605577729395,0.005496287462656409,-0.0010571676649787616,0.006891240989953171,0.9936863808509604
2012-11-21,1,0.005102465854906563,0.005716554957709969,-0.0010571676649787616,0.007362422780126799,0.9936355636061317
2012-11-26,1,0.005652594013473218,0.0063567738377541955,-0.004350781000820684,0.005541721754506459,0.9927797595454341
2012-11-28,1,0.00640955859776848,0.007270138806373939,-0.0052568576064049065,0.0037397168139129706,0.9912925190538867
2012-11-30,1,0.0056125222493657355,0.006281940250578153,-0.005905531853951384,0.00593280406998232,0.9911429944435612
2012-12-04,1,0.005400048055295434,0.0060441785010215306,-0.005314436243982023,0.009073549983396418,0.990719149155415
2012-12-06,1,0.005691423151492498,0.006414558798616691,-0.005314436243982023,0.015054237657566326,0.9902289232178568
2012-12-10,1,0.00577645785289993,0.006509457561947051,-0.006343189491329598,0.015054237657566326,0.9900960510976614
2012-12-12,1,0.005408566781306993,0.0060276342740430405,-0.006394158299129025,0.015054237657566326,0.9901133560946137
2012-12-14,1,0.005069240117099186,0.005597447797952112,-0.0073941743945371355,0.015054237657566326,0.9898260768852495
2012-12-18,1,0.005231180030129646,0.005702952717712557,-0.0073941743945371355,0.0107313587306011,0.990411486805057
2012-12-20,1,0.005808428846836774,0.006373475688965537,-0.00778926432479512,0.012146477069489264,0.9897710262229467
2012-12-24,1,0.0045506112759223,0.004919399078722876,-0.00778926432479512,0.012146477069489264,0.9897375323048435
2012-12-27,1,0.003216383392825457,0.0033391244623913337,-0.0073941743945371355,0.012146477069489264,0.9905263918102998
2012-12-31,1,0.0033863387868734865,0.0035857978007322222,-0.0073941743945371355,0.012146477069489264,0.9902233541282943
2013-01-03,1,0.00447231735647525,0.00477329599371851,-0.0073941743945371355,0.009620950339475676,0.9914253348896702
2013-01-07,1,0.00509020625687901,0.005431907923755739,-0.0073941743945371355,0.00693569843347917,0.9921698887716754
2013-01-09,1,0.004558495175722154,0.004822241115058775,-0.006688766896748235,0.008394697297814084,0.9924263458013732
2013-01-11,1,0.0049632058579245734,0.005254012802991022,-0.005797868324039517,0.008394697297814084,0.992931828885939
2013-01-15,1,0.004701513977295435,0.00498878063943997,-0.002359675604485546,0.009620950339475676,0.9930688899355692
2013-01-17,1,0.004510835133791735,0.0047406198554695135,-0.005797868324039517,0.009620950339475676,0.992204218718261
2013-01-22,1,0.004087568969436792,0.004239660772797529,-0.005797868324039517,0.009620950339475676,0.99080034507494
2013-01-24,1,0.0027711183457557,0.0028484612009537446,0.0006000491237580464,0.010389439910989368,0.9906010911046732
2013-01-28,1,0.003243184090969505,0.0032745644749982237,-0.002584079239864044,0.010141283225169368,0.9894224590651467
2013-01-30,0,0.0,0.0,0.0014471967152732813,0.012339823600466981,0.988089221851382
2013-02-01,0,0.0,0.0,0.0019112032954739825,0.01691687150986937,0.9858449032927215
2013-02-05,0,0.0,0.0,0.0019112032954739825,0.019492673229708126,0.9849497816246355
2013-02-07,0,0.0,0.0,0.0019112032954739825,0.023577899856530974,0.9843410207185721
2013-02-11,0,0.0,0.0,-0.0018115868325910033,0.023577899856530974,0.9849561141379136
2013-02-13,0,0.0,0.0,-0.0018115868325910033,0.02471413201342731,0.9835327847918351
2013-02-15,0,0.0,0.0,-0.0018115868325910033,0.02471413201342731,0.9832462731144858
2013-02-20,0,0.0,0.0,0.0007850095172076384,0.02471413201342731,0.9836364717773242
2013-02-22,0,0.0,0.0,-0.0018115868325910033,0.02471413201342731,0.9834848271710215
2013-02-26,0,0.0,0.0,-0.0018115868325910033,0.02471413201342731,0.9843324634817184
2013-02-28,0,0.0,0.0,-0.0018115868325910033,0.023016603428776906,0.9849430109444817
2013-03-04,0,0.0,0.0,-0.00531138327942839,0.017781075206031182,0.9841321877570153
2013-03-06,1,0.006020603229211539,0.0063588979940656,-0.00591704510539626,0.017781075206031182,0.9834212839745639
2013-03-08,1,0.006530283118995889,0.00688703987207559,-0.007174805621431392,0.014653459314003263,0.9832647001494645
2013-03-12,1,0.005784447582268938,0.006047105834803603,-0.008371760490927995,0.014653459314003263,0.9827996071423315
2013-03-14,1,0.007217663002158186,0.00768823577428445,-0.008371760490927995,0.011792875658197725,0.9837145209535532
2013-03-18,1,0.007769965603979053,0.00831107317701327,-0.010888066044154696,0.011792875658197725,0.9790937699974094
2013-03-20,1,0.008156003903524976,0.008745509420047806,-0.01897925583886992,0.010691532761116023,0.9776278829314656
2013-03-22,1,0.007692825597779026,0.008215828579164608,-0.01897925583886992,0.010691532761116023,0.9774899295308526
2013-03-26,1,0.007187784754758708,0.007612212910015968,-0.01897925583886992,0.011792875658197725,0.9769278677521271
2013-03-28,1,0.006635856055030278,0.00711313358218027,-0.01897925583886992,0.011792875658197725,0.9764291701485506
2013-04-02,1,0.004212945116855042,0.004410919798959297,-0.014290065218456056,0.011792875658197725,0.9806445761451259
2013-04-04,1,0.004377261478761662,0.004597810917942919,-0.014290065218456056,0.011792875658197725,0.9812417687995479
2013-04-08,1,0.00432191350072383,0.004528173036228997,-0.014290065218456056,0.0187256348620542,0.9785237872253699
2013-04-10,0,0.0,0.0,-0.011074067792648343,0.021511792889105697,0.9788146098545624
2013-04-12,0,0.0,0.0,-0.014290065218456056,0.021511792889105697,0.9779656557164739
2013-04-16,0,0.0,0.0,-0.011074067792648343,0.017168485425342293,0.9833232736231338
2013-04-18,0,0.0,0.0,-0.007747925995150332,0.017168485425342293,0.9834861239641876
2013-04-22,0,0.0,0.0,-0.007747925995150332,0.01710554116310823,0.9804464869476089
2013-04-24,0,0.0,0.0,-0.017536252517406224,0.01024193955805916,0.9801472421254687
2013-04-26,0,0.0,0.0,-0.017536252517406224,0.01710554116310823,0.9792224327357915
2013-04-30,1,0.0030865972374386095,0.0030928539821966985,-0.02051180545228306,0.01710554116310823,0.9772084886046736
2013-05-02,1,0.0018196942780102081,0.0019359923708085428,-0.017536252517406224,0.012660398309357626,0.9791931424222707
2013-05-06,0,0.0,0.0,-0.017536252517406224,0.005567579825951919,0.983133927292838
2013-05-08,0,0.0,0.0,-0.02051180545228306,0.004941554531562427,0.9827239034429305
2013-05-10,1,0.003352106424235915,0.003367324783973338,-0.019993607076274168,0.005567579825951919,0.9796221896985625
2013-05-14,0,0.0,0.0,-0.019993607076274168,0.005567579825951919,0.9811210848344778
2013-05-16,0,0.0,0.0,-0.017536252517406224,0.006236696988947145,0.9816544884732501
2013-05-20,0,0.0,0.0,-0.016173575252149457,0.006236696988947145,0.9852452242937901
2013-05-22,0,0.0,0.0,-0.017039788866050384,0.006236696988947145,0.984650401338097
2013-05-24,-1,-0.0010968562890832445,-0.000637452509139956,-0.022904756034049574,0.003028535372892691,0.984443078246016
2013-05-29,-1,-0.004136953739748912,-0.00321603086923808,-0.020858861898824674,0.004680805067431808,0.9860806774321346
2013-05-31,0,0.0,0.0,-0.020858861898824674,0.0028610652028000223,0.9843882437684125
2013-06-04,0,0.0,0.0,-0.020858861898824674,0.005734286478669139,0.9831910029858993
2013-06-06,0,0.0,0.0,-0.017823348228721034,0.009006933228981079,0.9841168819365403
2013-06-10,0,0.0,0.0,-0.016245726108781916,0.009006933228981079,0.9833958989252487
2013-06-12,0,0.0,0.0,-0.016245726108781916,0.016552006700457103,0.9804442941013459
2013-06-14,0,0.0,0.0,-0.015538828670374203,0.019215379186699015,0.9804456939069132
2013-06-18,1,0.0009092628644551688,0.0010778609632512781,-0.015538828670374203,0.025455571407472993,0.9798976398060056
2013-06-20,-1,-0.007969915197862606,-0.006571195892112847,-0.011240978763816842,0.025455571407472993,0.98046596236889
2013-06-24,-1,-0.011216288297866405,-0.009381745911176067,-0.0035085319613409965,0.025455571407472993,0.9789476383685483
2013-06-26,0,0.0,0.0,-0.007239344278528747,0.025455571407472993,0.982851747681
2013-06-28,0,0.0,0.0,-0.01074498457543797,0.025455571407472993,0.9804342092653686
2013-07-02,0,0.0,0.0,-0.007239344278528747,0.025455571407472993,0.9807396164349055
2013-07-05,0,0.0,0.0,-0.007239344278528747,0.025455571407472993,0.9797657525950961
2013-07-09,-1,-0.005993435850195318,-0.004921544855235952,-0.013074813022621853,0.02166427993917372,0.9811121888767587
2013-07-11,-1,-0.002416091936695699,-0.001773015581645836,-0.013074813022621853,0.014787602207495809,0.9840320129702284
2013-07-15,0,0.0,0.0,-0.013886524901165702,0.014129927692837167,0.983660082337898
2013-07-17,0,0.0,0.0,-0.014438850924078178,0.01267355634162058,0.983988089523719
2013-07-19,0,0.0,0.0,-0.014438850924078178,0.01267355634162058,0.9835766872096934
2013-07-23,1,0.002490062372987052,0.002623082563579644,-0.017534344318199648,0.01267355634162058,0.9826936827305616
2013-07-25,-1,-0.0005395319291941914,-0.0002936892790518312,-0.017534344318199648,0.014129927692837167,0.982452757739411
2013-07-29,-1,-0.000683072987087929,-0.0004579430076633831,-0.012638218245542353,0.012815706914228203,0.9853863352400318
2013-07-31,1,0.0010782566222401993,0.001125066230580679,-0.017534344318199648,0.011522808388951845,0.983909170714445
2013-08-02,1,0.0019601448026067064,0.002099325177782575,-0.01891186635320658,0.01062371294700162,0.9835938388655173
2013-08-06,0,0.0,0.0,-0.013062327541037238,0.012815706914228203,0.984159869887486
2013-08-08,0,0.0,0.0,-0.013062327541037238,0.01062371294700162,0.9845801986183526
2013-08-12,1,0.0023198875593547956,0.002729897639237493,-0.011111700925870554,0.016451463200389867,0.9828732413180776
2013-08-14,0,0.0,0.0,-0.011111700925870554,0.016451463200389867,0.9828680504686189
2013-08-16,0,0.0,0.0,-0.010724012805960014,0.018732339485618706,0.9820249455927378
2013-08-20,0,0.0,0.0,-0.010150859203513565,0.018163915286350085,0.9830345951827355
2013-08-22,0,0.0,0.0,-0.010150859203513565,0.01626198846730033,0.9841493018085445
2013-08-26,0,0.0,0.0,-0.008014694827909452,0.01626198846730033,0.9840370077177941
2013-08-28,0,0.0,0.0,-0.005485306402675609,0.01626198846730033,0.9860180249084004
2013-08-30,0,0.0,0.0,-0.007926928105143581,0.015610633525228191,0.9865118898376501
2013-09-04,-1,-0.0001127418339949666,-7.889251173926754e-05,-0.007926928105143581,0.015610633525228191,0.9856119244048165
2013-09-06,1,0.0005618440381154354,0.0006849631753909585,-0.005860630305797358,0.015610633525228191,0.9860623676369051
2013-09-10,1,0.0018230637403522897,0.002042057839572938,-0.007926928105143581,0.012347245378696288,0.9865109100493831
2013-09-12,1,0.0006462179857630774,0.00073053556540139,-0.0049886373860904155,0.013115531792091633,0.9876763074220114
2013-09-16,1,0.002637075329100175,0.003033938417850948,-0.0049886373860904155,0.012347245378696288,0.9886154577576124
2013-09-18,1,0.003052652343592717,0.0034924790207080574,-0.005860630305797358,0.012964798755993063,0.9871122397423024
2013-09-20,1,0.002881343978932437,0.003333856748303196,-0.0049886373860904155,0.015091707029630481,0.9870508535773266
2013-09-24,1,0.0034653635759983865,0.003961972717333762,-0.0049886373860904155,0.013088313861641585,0.9874613154091558
2013-09-26,1,0.005196604143073279,0.006122786380426462,-0.003193368012907179,0.015716684377119566,0.9863284409397548
2013-09-30,1,0.004554949823076328,0.00544045800279002,-0.0008128669293531246,0.015716684377119566,0.9877950605752879
2013-10-02,1,0.0053682525368142844,0.006328762269913746,-0.0008128669293531246,0.011838280556544399,0.9891965560708221
2013-10-04,1,0.005163529737597536,0.0060779713789489015,0.0006594580786973811,0.015716684377119566,0.988674386013061
2013-10-08,1,0.0025014404271734517,0.0030033777769388845,0.0015896723172185482,0.015716684377119566,0.9902010281830607
2013-10-10,1,0.001962408190695274,0.0022223264552104654,-0.001664270383685009,0.014013949374294631,0.9891355424151672
2013-10-14,1,0.002244009557046902,0.002429082599886041,-0.001664270383685009,0.014324922055060047,0.9881983386127213
2013-10-16,1,0.003031944167272066,0.0033831057002289564,-0.0006949893737035818,0.014324922055060047,0.9894148401537137
2013-10-18,1,0.002641074226475442,0.0028139568496002828,-0.0020385792892323555,0.014376746568417422,0.9888192949240364
2013-10-22,1,0.0029367741295793465,0.0031601850569043513,-0.002522518801317585,0.014376746568417422,0.9891707613949254
2013-10-24,1,0.004148826673106981,0.004517207147531506,-0.002522518801317585,0.009690644548804531,0.9909047306057897
2013-10-28,1,0.003644558971381126,0.003886826944748595,-0.002522518801317585,0.013710258029706763,0.9902836164741654
2013-10-30,1,0.0034575343226017205,0.0036973941327487444,-0.002522518801317585,0.01537850027501897,0.9897292139041871
2013-11-01,1,0.00462284695084896,0.005058236702689836,-0.00547775080794129,0.011982178574386214,0.989932125309975
2013-11-05,1,0.004253067830679125,0.0046005525281756655,-0.0073051798629321756,0.011982178574386214,0.9886117814905997
2013-11-07,1,0.0031611503213147454,0.0033786053358379007,-0.0073051798629321756,0.011982178574386214,0.989298346925993
2013-11-11,1,0.0034756420285223955,0.0036404997928899015,-0.009299553028930431,0.011982178574386214,0.9895256865846139
2013-11-13,1,0.002998227965372731,0.0030058626805914384,-0.01077495120262835,0.0067904554502006866,0.9891941604109595
2013-11-15,1,0.002465846281695168,0.0025631100758306165,-0.01077495120262835,0.003638247035457077,0.9902763514833562
2013-11-19,1,0.002617790877799562,0.0026533607655935152,-0.012408459082347474,0.0016744889361282234,0.9891319129986827
2013-11-21,1,0.002454834004569853,0.002525359145460885,-0.012408459082347474,0.0030402814757442406,0.9874280535376994
2013-11-25,1,0.0032266891543350157,0.0032531914814537904,-0.013254464730477419,0.00031374281303715663,0.9866817334857795
2013-11-27,1,0.0038729176487245515,0.00412439422188252,-0.012712615638689998,-0.0007604889476022443,0.986547393592324
2013-12-02,1,0.003982056984664513,0.004367248432731961,-0.012712615638689998,0.000418551616249619,0.9867971418194316
2013-12-04,1,0.0031580675926904064,0.0034798589474890015,-0.009507710593723252,0.0031179828866530436,0.9881067234771883
2013-12-06,1,0.002844407737294736,0.003140361306483658,-0.00791564752519672,0.0031179828866530436,0.9886107464967616
2013-12-10,1,0.0026279053244580987,0.0028722360583704138,-0.006822657725065637,0.012976719989359103,0.987998597816009
2013-12-12,1,0.0021093592607958015,0.002284046219598525,-0.004925221983194847,0.018348720553850714,0.9874735648617209
2013-12-16,1,0.0014120948719080688,0.0014248314268848975,-0.006978636709751686,0.01909054410314905,0.9861921626897475
2013-12-18,1,0.0002084763185092464,0.00037371729068829334,-0.006978636709751686,0.01909054410314905,0.9868652504411652
2013-12-20,1,0.0019486407943579197,0.0020533997985515123,-0.006978636709751686,0.020051037853978382,0.986930737386415
2013-12-24,1,0.0023310923859268026,0.002544056198166111,-0.006978636709751686,0.020051037853978382,0.9867413005362121
2013-12-27,1,0.0007255224211410486,0.0008007323780855944,-0.006978636709751686,0.020051037853978382,0.9866931263787652
2013-12-31,1,0.0017490375388600871,0.0018359313513471476,-0.008225398266407693,0.020051037853978382,0.9851491345958266
2014-01-03,1,0.0015996939300547783,0.0016214658181736008,-0.008920248201726932,0.020051037853978382,0.9827066468817515
2014-01-07,1,0.00041825606437189203,0.0005950952139059714,-0.008920248201726932,0.020051037853978382,0.9822440341456781
2014-01-09,1,0.0013349603328387304,0.0014166648429343202,-0.008920248201726932,0.017230217101505525,0.9827405616619982
2014-01-13,1,0.001122468578259849,0.0012392885246578704,-0.008920248201726932,0.015587784815274433,0.9835976177985686
2014-01-15,1,0.0021200780260952124,0.002171121291514249,-0.008920248201726932,0.015358228047742312,0.9842566896796078
2014-01-17,1,0.0018314722069883863,0.0018457417044489167,-0.01156967528877935,0.015822619830076875,0.9821289024102774
2014-01-22,1,0.001925104943857554,0.0020339184897000128,-0.01156967528877935,0.015358228047742312,0.9825381483377603
2014-01-24,1,0.00016795517372204826,0.0005100473577958834,-0.008745471685691269,0.016655647897223576,0.9818792750790196
2014-01-28,1,0.000510568479523015,0.0007814696701121146,-0.007183259418802861,0.01757700897067277,0.9815834860455404
2014-01-30,-1,-0.0007436063173060174,-0.0002937148611980042,0.001235640888274308,0.01757700897067277,0.9831230663531425
2014-02-03,-1,-0.0012399729645362228,-0.0008381196326026322,0.0014254636747566413,0.019128153734551116,0.9842907816327754
2014-02-05,-1,-0.001734771326146305,-0.0011975207280615551,0.0040148937087693334,0.019128153734551116,0.9839083163206117
2014-02-07,1,0.00022110036936005492,0.0004670239989882103,-0.005556186932313241,0.01757700897067277,0.9854837753360928
2014-02-11,1,0.00012958779461157816,0.00036697441367824807,-0.002270096680733025,0.01757700897067277,0.9865721404176226
2014-02-13,1,0.00041148748766635303,0.0006443171721801565,-0.005556186932313241,0.020121338865562412,0.9847834368754136
2014-02-18,1,0.0002971265398056673,0.0005095049811336382,-0.002270096680733025,0.01757700897067277,0.9869545218560176
2014-02-20,1,0.0011207476865189247,0.001228630344600107,-0.0014139774063773006,0.016594756585693787,0.988480637116639
2014-02-24,1,0.0016991743209462836,0.001792655888749814,-0.002800807151663231,0.007707331574522818,0.9892468584796719
2014-02-26,1,0.002982774394650005,0.0031108647899825244,-0.005556186932313241,0.0064229879555649984,0.9892442904598832
2014-02-28,1,0.002930561281412178,0.003035128261041942,-0.006769360405291189,0.0064229879555649984,0.9883909158557738
2014-03-04,1,0.0023789982318967594,0.002461714210039121,-0.0062082945325426814,0.0075028600654406695,0.9889260684038418
2014-03-06,1,0.0030283368827357265,0.0030564153886410116,-0.0062082945325426814,0.0074585173183436635,0.9890990147537728
2014-03-10,1,0.002118348253140771,0.0021774127710749392,-0.008864633820531221,0.0074585173183436635,0.9877728215390609
2014-03-12,1,0.002099077189570789,0.0021567024999426605,-0.008864633820531221,0.009105314346584495,0.9854371883511405
2014-03-14,1,0.003182013124925374,0.0032839081304692095,-0.01009736806304517,0.008333384106766869,0.9858572473705877
2014-03-18,1,0.0034855174496121414,0.0036357366739450453,-0.012640086600302528,0.008333384106766869,0.9851687079345736
2014-03-20,1,0.004335942363159086,0.004658317985537173,-0.012640086600302528,0.009105314346584495,0.9843649438658482
2014-03-24,1,0.0036970186148903555,0.003935602942748545,-0.01009736806304517,0.01142457543328548,0.984712647284519
2014-03-26,1,0.0034732761344192656,0.003655837389209381,-0.012561114237590645,0.01142457543328548,0.9841759943601938
2014-03-28,1,0.0034548812849727554,0.0036886875657851865,-0.01268838353420956,0.01142457543328548,0.9841773920036931
2014-04-01,1,0.004645310506056463,0.00503125920677228,-0.01268838353420956,0.008972286105293478,0.9853494537057744
2014-04-03,1,0.00395035069417218,0.004180385271796366,-0.01268838353420956,0.01142457543328548,0.9846117748732269
2014-04-07,1,0.0024792691437612274,0.002593561789002123,-0.006918924851792815,0.01142457543328548,0.9868296951150064
2014-04-09,1,0.004798074232070705,0.005251013785535819,-0.008047036874862183,0.006701783689732881,0.988425397864347
2014-04-11,1,0.0029973116165332306,0.0032240235779013933,-0.004634323755977324,0.008194910929193094,0.9896541018285934
2014-04-15,1,0.0025538950289350697,0.002717279257145156,-0.004634323755977324,0.008194910929193094,0.9898791892577561
2014-04-17,1,0.0036663755256289587,0.0039819188355520885,-0.005419598723539664,0.006252833650413927,0.9899161962304843
2014-04-22,1,0.004234136243471207,0.00467080746321193,-0.00695536252799408,0.006252833650413927,0.9891870261107849
2014-04-24,1,0.004387695658089398,0.004839235257493034,-0.005419598723539664,0.006252833650413927,0.9904216344393736
2014-04-28,1,0.00335499133022142,0.003622837938702852,-0.004634323755977324,0.007552039864864,0.9913280808033356
2014-04-30,1,0.0028359378680927047,0.00296214901615846,-0.004634323755977324,0.010616540135734731,0.991066805042611
2014-05-02,1,0.0028581324814865024,0.0029517986484256745,-0.005419598723539664,0.010616540135734731,0.990963647563788
2014-05-06,1,0.002306296135136621,0.002325180666109078,-0.006562590139613337,0.010616540135734731,0.9911578550046313
2014-05-08,1,0.0014672262609510276,0.0016003632639822378,-0.004146026216188736,0.010688188709031312,0.9914115249000393
2014-05-12,1,0.0024747361951094195,0.0025036526284159264,-0.007000000707006991,0.010140708561664474,0.9919725224005473
2014-05-14,1,0.0011514807556741035,0.0013832385394031204,-0.009145198767609369,0.010140708561664474,0.9900326236163572
2014-05-16,1,0.001162879282007756,0.0013331370409818762,-0.009145198767609369,0.010688188709031312,0.9888151435322493
2014-05-20,1,0.000708779541700337,0.0009483728868154956,-0.007207451798698885,0.010688188709031312,0.9894230591528222
2014-05-22,1,0.0004214032730924705,0.0007387988020147775,-0.007207451798698885,0.010688188709031312,0.9897303479307693
2014-05-27,1,0.0009919019200823908,0.0012165737583149923,-0.009145198767609369,0.004291038633690795,0.9893593785994316
2014-05-29,1,0.0014707966651170516,0.0016236808853253948,-0.009145198767609369,0.004291038633690795,0.9884923012825378
2014-06-02,1,0.001155151206161049,0.0013713406120144155,-0.0082331594571048,0.003959221641456952,0.9892809641166067
2014-06-04,1,0.0015825031622768771,0.001705779848473169,-0.009913313818307068,0.009216906158259531,0.9874944464948614
2014-06-06,1,0.0016197006402980441,0.0017500055604320864,-0.014006418003870527,0.00924706893169263,0.9865600340381817
2014-06-10,1,0.0011303945632198768,0.0012601264261215338,-0.014006418003870527,0.011844603402313792,0.9863031515032881
2014-06-12,-1,-0.001591949795006476,-0.0011171901269185578,-0.004588547736589822,0.013076852383116153,0.9882265739830104
2014-06-16,-1,-0.0005444961991635236,-0.0002809254756593522,-0.003071806043504068,0.0107437578889609,0.9898543495513131
2014-06-18,-1,-0.0006586716085230969,-0.00029119287127473466,-0.007116251229365547,0.00924706893169263,0.989306342744722
2014-06-20,-1,-0.0009450233203739191,-0.0005312133382096033,-0.007842279379302241,0.010708641639907642,0.9885601780787027
2014-06-24,-1,-0.0023779328769311095,-0.0017833773318054762,-0.007072064845854916,0.011870658122603487,0.9874825414422546
2014-06-26,-1,-0.00322280705643193,-0.002400490500955596,-0.007072064845854916,0.011870658122603487,0.9832988770971942
2014-06-30,-1,-0.003162118591545386,-0.002408340854514702,-0.007072064845854916,0.011870658122603487,0.9831413802724219
2014-07-02,-1,-0.002221066150310597,-0.0016434412400111028,-0.011026744989442304,0.01116816737501466,0.9834257604679764
2014-07-07,-1,-0.0029948515760052988,-0.0022360668966430464,-0.011026744989442304,0.01116816737501466,0.9833237868665454
2014-07-09,-1,-0.0018325918987445403,-0.0012965477410635563,-0.018626430058061957,0.010923819767136723,0.9836720396279371
2014-07-11,-1,-0.0015510010552781464,-0.0010193044699384037,-0.018626430058061957,0.010795322251441749,0.9840172779896936
2014-07-15,-1,-0.0009320131973086468,-0.0005116725204390368,-0.018626430058061957,0.010923819767136723,0.9834776742164251
2014-07-17,-1,-0.0018054387689342194,-0.0013878275650037397,-0.010331321351998162,0.01184286759678636,0.9831533120089392
2014-07-21,-1,-0.0009003246323536759,-0.0006098653940477306,-0.008072135619365157,0.012775062629710711,0.9821173340861016
2014-07-23,1,8.121292780783674e-05,0.00025303354772030927,-0.008072135619365157,0.011175493098250788,0.982986783818985
2014-07-25,-1,-0.0032466606794642416,-0.0027373174264668895,-0.008072135619365157,0.010923819767136723,0.9864612158323616
2014-07-29,-1,-0.0024312588495367504,-0.0020509910381717113,-0.014239639293761795,0.010622035065154432,0.9861532105589814
2014-07-31,-1,-0.0049596864101655435,-0.004242263732212367,-0.0045467978404722924,0.010622035065154432,0.9871296949968053
2014-08-04,-1,-0.005359151176383275,-0.004601200077422705,-0.004260706016233637,0.010859115435135555,0.986160897871259
2014-08-06,-1,-0.004826126725416354,-0.004194331036345544,-0.004260706016233637,0.010859115435135555,0.9867729308205895
2014-08-08,-1,-0.0041788361450329995,-0.0036284334358723876,-0.0045467978404722924,0.010461370512214616,0.9871088268752258
2014-08-12,-1,-0.0037886197501938567,-0.0032920258774700364,-0.005922253715704499,0.010461370512214616,0.9864992218581418
2014-08-14,-1,-0.0027121684762211676,-0.002315886429528004,-0.005922253715704499,0.007599708312181608,0.988662483487226
2014-08-18,-1,-0.001167099039158413,-0.0009617355629228942,-0.01096804753610977,0.007599708312181608,0.9892640652498741
2014-08-20,-1,-0.001540458038854208,-0.0012633860082043365,-0.012717538985847751,0.008951349928154505,0.9885372328910027
2014-08-22,-1,-0.001049062292250179,-0.0009095497997361505,-0.013066019466281508,0.005716262675461798,0.9884858241390153
2014-08-26,-1,-0.0012476164473359916,-0.0011017647628862573,-0.013555094019711793,0.006213360104712064,0.9875456592151598
2014-08-28,-1,-0.0022386381753487514,-0.0018709353065211557,-0.014739018987872537,0.011627099728392529,0.9861959635060814
2014-09-02,1,0.0006580490044513808,0.0007506941573964051,-0.014739018987872537,0.005671034620040579,0.9866874714809548
2014-09-04,-1,-0.0011202572363357035,-0.0009400053038944269,-0.016161241568432044,0.005806657148071751,0.9869340763291037
2014-09-08,-1,-0.0012176004408239898,-0.0009821527061842205,-0.016161241568432044,0.011627099728392529,0.9855557119075162
2014-09-10,-1,-0.00038927477246456334,-0.000313846560726583,-0.016492801621119685,0.005806657148071751,0.9861015115491077
2014-09-12,-1,-0.0005909975093817039,-0.0005172440303668706,-0.016492801621119685,0.005806657148071751,0.9859305310098531
2014-09-16,-1,-0.0006713685888176135,-0.000599367233837176,-0.016492801621119685,0.00684141584218651,0.985202458818981
2014-09-18,-1,-0.0006892475905582241,-0.0005898620149769583,-0.01689138161777148,0.0071612990664100245,0.9836585075311168
2014-09-22,-1,-0.0018707571903932322,-0.0016369127435318276,-0.01599863178035275,0.017722058094612,0.9827735468939759
2014-09-24,-1,-0.0016273806898486924,-0.0014625453139275242,-0.015178217995226118,0.021685324422073403,0.982880926531647
2014-09-26,-1,-0.0025790335477274247,-0.0023461078449858934,-0.0133932407781921,0.025496879478220213,0.9812238222302455
2014-09-30,-1,-0.003226578960148194,-0.0029119918671476324,-0.0133932407781921,0.027186098278884817,0.9791755126183838
2014-10-02,-1,-0.003032861746056959,-0.0027942478824746625,-0.013294238239920698,0.027186098278884817,0.9794447343783432
2014-10-06,-1,-0.002601888829031501,-0.0023999027371568306,-0.00708466161418188,0.025496879478220213,0.9792687578084521
2014-10-08,-1,-0.0032514574137399374,-0.002948438513628262,-0.00708466161418188,0.025496879478220213,0.9778977967665086
2014-10-10,-1,-0.0035489653069413103,-0.0032154298001602992,-0.006738545228220519,0.026546017100382575,0.9764537281745553
2014-10-14,-1,-0.0028298972734073524,-0.002606325215856562,-0.0035703159286652655,0.025447069026564316,0.9777504899427895
2014-10-16,-1,-0.0013639953993007901,-0.00133944534396888,-0.00039823958947584346,0.02318210879916805,0.9808272958854567
2014-10-20,1,0.0006670436863541179,0.0009416611420807244,-0.005688295789031703,0.021685981961448535,0.9832508572778651
2014-10-22,1,0.00078038762638895,0.001086129809494762,-0.005688295789031703,0.021028963268783618,0.9833281042005483
2014-10-24,1,0.0027119550643427423,0.0032578292134468733,-0.009059967533985535,0.019265313401935023,0.9861363374110073
2014-10-28,1,0.004180590252704847,0.004937095567360519,-0.009059967533985535,0.017785040845129326,0.9873205055445298
2014-10-30,1,0.003559243736070846,0.004205631281280655,-0.005688295789031703,0.018897477371585057,0.9859806162062318
2014-11-03,1,0.0034391969115018235,0.003948593667633371,-0.009059967533985535,0.01583137240520477,0.9841687583532286
2014-11-05,1,0.002947681220366538,0.003402965851236124,-0.005688295789031703,0.015979097816011575,0.9849473597826808
2014-11-07,1,0.004146666104763394,0.004804902371322596,-0.004565432492620334,0.011669240093091445,0.9861460651085341
2014-11-11,1,0.0046157180921443395,0.005314036285267708,-0.011664918170981493,0.00949404405020493,0.9848613779232899
2014-11-13,1,0.004236205252361133,0.004843795253204585,-0.011664918170981493,0.011395152859377667,0.9844766021667489
2014-11-17,1,0.003520373898571745,0.004055970299113813,-0.012190650155447803,0.014407129694357519,0.9828279527448561
2014-11-19,1,0.0034684551554115513,0.004001044242849143,-0.004720405429982,0.011395152859377667,0.984413088393749
2014-11-21,1,0.003512635246718151,0.004067326130536763,-0.002964395403404499,0.011395152859377667,0.9845104283197839
2014-11-25,1,0.003973755781033175,0.00454715982201373,-0.002964395403404499,0.011145436047491596,0.9837368976397651
2014-11-28,1,0.00496814262615833,0.005704819704615836,-0.002964395403404499,0.010619626630932187,0.9856562775592855
2014-12-02,1,0.0030385101769405307,0.0035589048535248744,-0.0009788941392779773,0.010619626630932187,0.9887246514721527
2014-12-04,1,0.0037898127206630527,0.004428635494608509,-0.0029427270226401255,0.009691050514730902,0.9889757591610713
2014-12-08,1,0.0035851233175486046,0.004117492518530096,-0.00533883350183789,0.010619626630932187,0.987892063265324
2014-12-10,1,0.002099319045986408,0.0024475241527229805,-0.0029427270226401255,0.012555614210965517,0.9883260292430334
2014-12-12,1,0.00298142181743786,0.00349935870573396,-0.0009242312119503212,0.013582592752502646,0.9882810767670424
2014-12-16,1,0.0020330115510653573,0.0021870882544608285,-0.0004098744620415727,0.012322135929596191,0.9910081070264716
2014-12-18,1,0.0027350685236654576,0.0029961382321036885,-0.0004098744620415727,0.014420156877805717,0.9892486027114418
2014-12-22,1,0.0017595845659506648,0.0018242478667147264,0.00022258048048790923,0.014878211407592644,0.9873242305258362
2014-12-24,1,0.0026748620287514657,0.002802936401708967,0.0004604357320358199,0.014878211407592644,0.9877318503792463
2014-12-29,1,0.002284435357024765,0.002375141583429105,-0.00347946801087993,0.014878211407592644,0.9867684318019586
2014-12-31,1,0.002935689536730647,0.0030654550757812306,-0.01082176752283218,0.015800834837360105,0.9832601325085838
2015-01-05,1,0.0012547205058956595,0.0012678503134046669,-0.01082176752283218,0.015800834837360105,0.9818858763829895
2015-01-07,1,0.0027136408958238494,0.002924092577953298,-0.008704197334067462,0.018776233426551558,0.9824864254832489
2015-01-09,1,0.0023340459689152352,0.002599599662343405,-0.011246365248275074,0.01687973355573737,0.9814343286611915
2015-01-13,1,0.0030427281509307043,0.003383934234735793,-0.013234179052423847,0.02400856456525953,0.9804635610475222
2015-01-15,1,0.0029398362289382715,0.003235403431489698,-0.013688583842157417,0.02400856456525953,0.9789511564579922
2015-01-20,1,0.003867701552715647,0.004270936465855316,-0.013688583842157417,0.02391776610691699,0.979445387526122
2015-01-22,1,0.004965736644014541,0.005516547359740696,-0.014044303223664307,0.020129338403430386,0.9796592449805641
2015-01-26,1,0.0061332383126034215,0.006903944038394589,-0.014044303223664307,0.008157477749239844,0.9800488271464391
2015-01-28,1,0.004544846471887639,0.005062823649051309,-0.014298887227239885,0.011150443196353948,0.9813099392747713
2015-01-30,1,0.003631060477951246,0.004026656994617753,-0.01358761727546786,0.011150443196353948,0.9838136573293864
2015-02-03,1,0.0023668189970183725,0.0025974615694074987,-0.013234179052423847,0.013018294790332825,0.9854900265079151
2015-02-05,1,0.003144326614280882,0.003451900727323794,-0.01397699451007566,0.009134611637097568,0.9845690941256842
2015-02-09,1,0.001012735694171318,0.0010129471292290916,-0.01335275217959281,0.009134611637097568,0.9873861423771821
2015-02-11,1,0.0011509665247934364,0.0011819435293397148,-0.00790701385123557,0.011797132167252386,0.9873578088987094
2015-02-13,1,9.540171103429823e-05,0.0002996514938847104,-0.006097520560742287,0.013783763397435964,0.9879504645955773
2015-02-18,1,0.0002961430972139032,0.0004859685699158668,-0.008045017513105658,0.013783763397435964,0.9879970945677907
2015-02-20,-1,-0.0003774495056682145,-9.680344816076058e-05,-0.006097520560742287,0.011664673641137636,0.989027779253947
2015-02-24,-1,-0.0005204240168042139,-0.0001612015723136777,-0.00868344032427292,0.011664673641137636,0.988120587417888
2015-02-26,-1,-0.001698974178877232,-0.0011778287330629592,-0.00868344032427292,0.011664673641137636,0.9875195927943253
2015-03-02,-1,-0.0009642213534221218,-0.0005245097813525114,-0.00868344032427292,0.011664673641137636,0.9878963653122134
2015-03-04,-1,-0.0009971685723491525,-0.0005193034937276517,-0.012567476692907937,0.010387982237154227,0.9871449289643006
2015-03-06,-1,-0.003047847139404926,-0.002287382058669121,-0.010983311034876745,0.010387982237154227,0.9872093886504136
2015-03-10,-1,-0.0032787977396652765,-0.0025123264264037826,-0.010983311034876745,0.013783763397435964,0.9856334783931232
2015-03-12,-1,-0.001424182882936166,-0.0009086980636306996,-0.010983311034876745,0.006651936463787797,0.9876377771009603
2015-03-16,0,-0.00021138525592413954,6.94160101757643e-05,-0.012206057581877048,0.0056352907724047906,0.9874074082152972
2015-03-18,-1,-0.0007082970167683839,-0.0003638939347538002,-0.011125389049336007,0.0056352907724047906,0.9874265134756927
2015-03-20,1,0.0008019293725612013,0.0009165986051705408,-0.011125389049336007,0.006034047776546199,0.9866679430529931
2015-03-24,1,0.0003848009041780662,0.000463085362330958,-0.010293436654722007,0.007446541964040437,0.986437688839366
2015-03-26,-1,-0.0009398265882139903,-0.000639932888482642,-0.009707478495757274,0.017341713881977864,0.985456955400558
2015-03-30,1,0.0003654075435288932,0.00044097626576879807,-0.011125389049336007,0.01108730554657282,0.98507042826832
2015-04-01,-1,-0.001404971219808442,-0.001088446180509096,-0.012768514054465795,0.01108730554657282,0.9855004871630443
2015-04-06,-1,-0.0020722182138828964,-0.0017470521110906421,-0.01200191942019465,0.02048352016775392,0.9852294873793848
2015-04-08,-1,-0.00030480653369522416,-0.0002052688870066006,-0.012768514054465795,0.00996072481719254,0.9853037507204487
2015-04-10,-1,-0.00100123770973641,-0.0008101095247369388,-0.012768514054465795,0.02109047973294469,0.9837244474895067
2015-04-14,-1,-0.002377461378003728,-0.0019895440271136145,-0.013332441956579066,0.02109047973294469,0.9839281754987402
2015-04-16,-1,-0.0017082446949216827,-0.0013796811668515133,-0.013332441956579066,0.02061067167385692,0.9840366014746187
2015-04-20,-1,-0.0017039339697998187,-0.001356931971618998,-0.013332441956579066,0.02061067167385692,0.9835737685078857
2015-04-22,-1,-0.0010301881148235166,-0.0008138649856852551,-0.01459872374763918,0.01955925929343723,0.9826769213273803
2015-04-24,1,0.0015406881075616875,0.001638852201602474,-0.01459872374763918,0.012620234269253554,0.9845820322199577
2015-04-28,-1,-0.0008980058218862839,-0.0005774050878618891,-0.017084561987055887,0.016309069709040797,0.9838976334524342
2015-04-30,-1,-0.0020009298931167353,-0.0015760745108987458,-0.009495787894995174,0.016309069709040797,0.984424147665867
2015-05-04,-1,-0.0015221739050244858,-0.0011864264422784439,-0.007590727684199073,0.016309069709040797,0.9846158153089957
2015-05-06,-1,-0.003379886259828358,-0.002757385027174949,-0.006001469501301858,0.016309069709040797,0.9854433886594959
2015-05-08,-1,-0.0016043057294213069,-0.001210798969548508,-0.007590727684199073,0.01209003342431052,0.9856703950013906
2015-05-12,-1,-0.002823525721928241,-0.002299334165702305,-0.007590727684199073,0.01209003342431052,0.9849625495661745
2015-05-14,-1,-0.0018423870638528135,-0.001464947419874045,-0.006381377631917661,0.014650026503587248,0.9840608030808529
2015-05-18,-1,-0.00093467128682144,-0.0006312465756013135,-0.009854926271947815,0.01209003342431052,0.984474345202656
2015-05-20,-1,-0.002931765362535633,-0.002494371750134803,-0.005714887614185147,0.014718467174211691,0.9851671874885488
2015-05-22,-1,-0.0020875351483653033,-0.0017640068822598644,-0.005714887614185147,0.016747221549791348,0.9840877535791557
2015-05-27,-1,-0.002647922709586608,-0.002257472178849281,-0.005385298091306813,0.014951297003088913,0.9858954380586793
2015-05-29,-1,-0.0018128412643193558,-0.0014628922988671785,-0.00714656670368507,0.012097009452732337,0.9862361070000255
2015-06-02,-1,-0.001530989126567832,-0.0012766278329677603,-0.010702435541244646,0.009272854932935618,0.9864478579012282
2015-06-04,-1,-0.0016828026760378934,-0.001366718972853185,-0.010702435541244646,0.010496075670202089,0.9862063307696197
2015-06-08,-1,-0.002972758315695708,-0.0025037813577041797,-0.00714656670368507,0.01750668555423552,0.9865671608092991
2015-06-10,-1,-0.0042160621307848235,-0.003612038764929649,-0.00714656670368507,0.01750668555423552,0.9866887407833985
2015-06-12,-1,-0.0012478801148011654,-0.0010482749499536688,-0.00714656670368507,0.0181039613215573,0.9850209101837323
2015-06-16,-1,-0.0005184467187065582,-0.0005166548787371766,-0.004213242096078097,0.01905823628923191,0.9848317677744113
2015-06-18,1,0.0012203069652389664,0.0015341937393151721,-0.002715882971436995,0.018007700763564574,0.9866723370547938
2015-06-22,1,0.0019496891953985477,0.002300445330811562,-0.005714384924915699,0.014290835585123854,0.9873834939498506
2015-06-24,1,0.0016741821499805221,0.0019630914356900575,-0.00891754986351128,0.014290835585123854,0.9858960496277933
2015-06-26,1,0.00022213181362041405,0.00024598719455667397,-0.003619688958093331,0.014290835585123854,0.9855960343559697
2015-06-30,1,0.0006346978894871568,0.0007723397733062542,0.0002988493950109464,0.017718052871300488,0.9858251697878723
2015-07-02,-1,-0.0001584506496858182,-9.194388851035295e-05,0.0012864833703338698,0.017718052871300488,0.9853856983986587
2015-07-07,1,0.00160058773960409,0.0017818014470906206,2.1854591538232864e-06,0.014319279348751303,0.9864384636208418
2015-07-09,1,0.0004762443540253442,0.0005032294438829624,2.1854591538232864e-06,0.01660208228799003,0.985558422824466
2015-07-13,1,0.0037798080914135937,0.004232371224872699,2.1854591538232864e-06,0.012095397569040416,0.9904188615968492
2015-07-15,1,0.0045236605736426105,0.005067089305011844,-0.0045096807656647,0.012095397569040416,0.9897321235500838
2015-07-17,1,0.0050564235883761985,0.005662571785111548,-0.0045096807656647,0.011129239348011324,0.9901112261318934
2015-07-21,1,0.004800783387496083,0.005354851964548166,-0.0008010766814811744,0.012856331882119992,0.9898535599081285
2015-07-23,1,0.004359588725720209,0.004898693175315941,-0.003998139438482786,0.011212367690363205,0.9897341179191805
2015-07-27,1,0.003957224857844702,0.0044890644331763855,-0.00883381966341549,0.011212367690363205,0.9865143045308221
2015-07-29,1,0.005343344318681323,0.005797347618529574,-0.00883381966341549,0.016379908120496157,0.9854726094091227
2015-07-31,1,0.005539491514377228,0.006024507043276781,-0.00883381966341549,0.016379908120496157,0.9847090285195165
2015-08-04,1,0.006991363485330077,0.00776526543922886,-0.013447557833060203,0.011212367690363205,0.9847676268086477
2015-08-06,1,0.006219147737071091,0.0069101720688031654,-0.010363591988279366,0.011390627480933602,0.9834586339594853
2015-08-10,1,0.006566451607615417,0.0073072742383500505,-0.010363591988279366,0.017644991706378177,0.9823015443261426
2015-08-12,1,0.006545745377562057,0.007306802280386899,-0.007194984805792856,0.012120931695104429,0.9833240375212758
2015-08-14,1,0.006387009814375261,0.007071044314833432,-0.010363591988279366,0.010310204631838477,0.982628301719186
2015-08-18,1,0.006327338900687104,0.006931337026508053,-0.01242189840959511,0.0066832126018629,0.9821563055393718
2015-08-20,1,0.005360777697384301,0.005871206586048922,-0.012037297544375604,0.007091513675570859,0.9836022333510711
2015-08-24,1,0.0021943315032187244,0.00221751832877338,-0.010211082797779185,0.010310204631838477,0.9838410885984085
2015-08-26,1,0.003469489494588399,0.003616191473833764,-0.012037297544375604,0.007091513675570859,0.9840052762775512
2015-08-28,1,0.00353288681807282,0.0037581835451285955,-0.01242189840959511,0.009864890786815766,0.9820996625966988
2015-09-01,1,0.002735716630946081,0.0028165691589321093,-0.012037297544375604,0.014752240951555149,0.9824645210405705
2015-09-03,1,0.003468531599397149,0.0036023950527064113,-0.012164050214789278,0.010776041810051946,0.9845702314444371
2015-09-08,1,0.004798209193215117,0.005131443216844526,-0.012692337008105263,0.010776041810051946,0.9813261053008642
2015-09-10,1,0.004051703253546566,0.00429606788958509,-0.012692337008105263,0.014752240951555149,0.9808912314446988
2015-09-14,1,0.003746825288500146,0.003960016716700582,-0.012164050214789278,0.018371264685111834,0.9807036395172984
2015-09-16,1,0.003749543476143152,0.00408403444965676,-0.012470952166439949,0.018371264685111834,0.9789097560789222
2015-09-18,1,0.0030258464208782424,0.0032123373163073215,-0.012470952166439949,0.01969522916132876,0.9780469493990027
2015-09-22,1,0.0020708907708647498,0.0020890219022976,-0.0077912451515653085,0.018371264685111834,0.9811153833433843
2015-09-24,1,0.0023344528715099617,0.002345152013036535,-0.0077912451515653085,0.01727505724461998,0.9807330340875244
2015-09-28,1,0.0013667415894962746,0.0014947361873025764,-0.005297166167879719,0.01727505724461998,0.9813849691395021
2015-09-30,1,0.002554894541324323,0.002655488123485368,-0.012889086908892263,0.01727505724461998,0.9793205198181217
2015-10-02,1,0.002037123981236393,0.002037807557495434,-0.008590076792890065,0.01727505724461998,0.9799465580422072
2015-10-06,-1,-0.0003068475665692949,-4.93070870291422e-05,-0.005297166167879719,0.014434434993619258,0.9838566504228607
2015-10-08,1,0.0011138853028873192,0.0011799436575127954,-0.005297166167879719,0.01208443576655149,0.9844898787570193
2015-10-12,1,0.0007688964635462515,0.0009812244123182184,-0.007234115038578279,0.009182813427919444,0.9853266526694671
2015-10-14,-1,-0.0009394591423477372,-0.0005473392371281875,-0.006173039426893422,0.01208443576655149,0.9866761770023756
2015-10-16,0,-0.00017499517364691244,0.00014964389780192208,-0.01026467610575177,0.009182813427919444,0.9875494840771272
2015-10-20,1,1.700131589677011e-05,0.00029583837883035953,-0.01026467610575177,0.009619158058844494,0.9874543474483014
2015-10-22,0,-9.328057371937285e-05,0.00019534663936375508,-0.009507699136588922,0.009619158058844494,0.9883101419170942
2015-10-26,1,0.0009432806523779827,0.0011361229769260121,-0.01026467610575177,0.009619158058844494,0.9879477496707254
2015-10-28,-1,-0.0021643704068523614,-0.001514557311219964,-0.009507699136588922,0.009619158058844494,0.9894668450716746
2015-10-30,0,-0.00037497087560661507,0.00016220078191603966,-0.009507699136588922,0.009619158058844494,0.9905255102736553
2015-11-03,1,0.0007074864061569505,0.001061102867664183,-0.009507699136588922,0.009663092437982523,0.9902099203732396
2015-11-05,1,0.0001501643695614235,0.0006356802430322328,-0.009914660616434878,0.012437171505426402,0.987523616305479
2015-11-09,0,-0.00015633308430444757,0.0003095315959307941,-0.009560624937404413,0.015023485311287893,0.9867591488876594
2015-11-11,1,0.0002193648011545959,0.0006102116273559769,-0.009560624937404413,0.012437171505426402,0.9864838266365564
2015-11-13,-1,-0.000842709557186486,-0.0003210309876961529,-0.008686543242241598,0.012437171505426402,0.9860766817680804
2015-11-17,-1,-0.0006732099386900692,-0.00012730190822900851,-0.008686543242241598,0.011283460088944536,0.9867924349052519
2015-11-19,0,-0.000305883008398283,0.0002143456517935962,-0.014193000501823374,0.008206381827258689,0.9862579352090838
2015-11-23,0,-5.659397559522068e-07,0.0004958936132087696,-0.011074031817222054,0.008206381827258689,0.9866628793133129
2015-11-25,1,0.00043121140051756435,0.000839324845712028,-0.010609851296668995,0.008206381827258689,0.986810527619242
2015-11-30,0,-0.00026334013714074313,0.00025676317169896616,-0.010609851296668995,0.008206381827258689,0.9866573245467748
2015-12-02,1,0.0019942839676564674,0.002096338745692697,-0.014193000501823374,0.005925461835711481,0.9859023577977617
2015-12-04,1,0.00324990457825598,0.003351320176004258,-0.016228728252099135,0.004530959926550782,0.986563970110461
2015-12-08,1,0.0036860393567203654,0.003806927277015474,-0.01724389765499998,0.004530959926550782,0.9843279225669509
2015-12-10,1,0.0027570081591607567,0.002816877429923438,-0.01724389765499998,0.004152007378855904,0.9837159486986421
2015-12-14,1,0.0012888514856766546,0.0014304034555288536,-0.017426205257748156,0.004493803035436441,0.9830227956646969
2015-12-16,1,0.0016633742371669374,0.0017565661196363423,-0.017426205257748156,0.004493803035436441,0.9825158151854143
2015-12-18,1,0.0007329563983257011,0.0009020512874079096,-0.01864280656909479,0.004493803035436441,0.9831950552318155
2015-12-22,1,0.0018975915571960893,0.001970329802848711,-0.01864280656909479,0.004493803035436441,0.9811115208802106
2015-12-24,1,0.0021122672626006714,0.002118986412190901,-0.02488459112550149,0.004493803035436441,0.9782618265746997
2015-12-29,1,0.0020024341974922734,0.0020186186820362884,-0.02488459112550149,0.004399286731973602,0.9764030038060845
2015-12-31,1,0.0013383019086684658,0.0013740011674748041,-0.02488459112550149,0.007526421647014478,0.9766663990823441
2016-01-05,0,-0.00013341742215351878,7.886924629988627e-05,-0.026619711003552465,0.007526421647014478,0.9768678413451773
2016-01-07,-1,-0.0013546863126521768,-0.0010303901015656699,-0.026619711003552465,0.007954207464952574,0.976031579508986
2016-01-11,-1,-0.0023273571264285976,-0.0020237994350138675,-0.02353647632877664,0.017598982787739473,0.9754339551357458
2016-01-13,-1,-0.004734943384090531,-0.004093472890840229,-0.02133978046822703,0.019344060875857688,0.9765243559370761
2016-01-15,-1,-0.007474083917526669,-0.006475226803444133,-0.02133978046822703,0.022151690034312155,0.9750880389626072
2016-01-20,-1,-0.006216139009295468,-0.005430494546345078,-0.01895114393832786,0.022900962469770848,0.9740258813590927
2016-01-22,-1,-0.0032135600312329237,-0.0027705750456511677,-0.01895114393832786,0.022151690034312155,0.9786648451822695
2016-01-26,-1,-0.004617821283072506,-0.004012227686257988,-0.012206154550753353,0.019429539485537033,0.9802039112412436
2016-01-28,-1,-0.004657565793883422,-0.004092213990394699,-0.002306589628918946,0.019429539485537033,0.9805061313337746
2016-02-01,-1,-0.002490191328981692,-0.0022609592512988566,-0.005650329939712659,0.019429539485537033,0.9803081049281102
2016-02-03,-1,-0.004051649367311205,-0.0036432620096397577,0.0005875426322343955,0.019429539485537033,0.9803841160965706
2016-02-05,-1,-0.0057586500798227445,-0.005144616730127607,-0.0009273314600263889,0.017958407265994007,0.9835301761855564
2016-02-09,-1,-0.005020125722321052,-0.004462083088865735,-0.0009273314600263889,0.017161566453176163,0.9859415160916926
2016-02-11,-1,-0.004169395042310993,-0.0037081105020352017,-0.004916939029766037,0.017161566453176163,0.9843495127418618
2016-02-16,-1,-0.0025083078350750737,-0.002242419566613134,-0.006391484715137879,0.012234857262754195,0.9863127977001569
2016-02-18,-1,-0.0007766520180784368,-0.0007331775956163444,-0.006391484715137879,0.011877669946261125,0.9879739867866284
2016-02-22,-1,-0.00098016893475141,-0.000889154274681162,-0.006391484715137879,0.012234857262754195,0.9872217304790035
2016-02-24,1,8.85858346676177e-05,0.00017641633699908233,-0.007805328465085765,0.012234857262754195,0.987645123585152
2016-02-26,1,0.0005245647316135961,0.0006699993188544573,-0.007805328465085765,0.011386208732017778,0.9879459640452241
2016-03-01,1,0.0006840825902164935,0.0007038845190282029,-0.006753248008821114,0.010707001956559499,0.9899003601193906
2016-03-03,1,0.0016288288549897263,0.0018142371315140213,-0.006753248008821114,0.007701504087643173,0.9903065336034481
2016-03-07,1,0.0020890923757010942,0.0023656734981038503,-0.007490865868622747,0.009860886746790181,0.9888658803805188
2016-03-09,1,0.0010195021420969883,0.0010207640944750337,-0.007673570559643807,0.007470649701009918,0.9888603617506216
2016-03-11,1,0.0032457136568883136,0.0036151692015267455,-0.006797015500836795,0.007470649701009918,0.9911716358503829
2016-03-15,1,0.0028879091812989994,0.0032261327178011454,-0.00445745050815256,0.009913471098580314,0.9902494870285056
2016-03-17,1,0.002973356263259277,0.0033103932477940895,-0.00445745050815256,0.009913471098580314,0.9902147849405469
2016-03-21,1,0.004419686904915466,0.005031428810851276,-0.00445745050815256,0.009675367701980197,0.9899046362192179
2016-03-23,1,0.0027235439053624475,0.002983568563796789,-0.006382588788682373,0.009675367701980197,0.9893275254079271
2016-03-28,1,0.003190539601920791,0.003536521544572019,-0.009959638857623014,0.007171708913298055,0.9866617938108018
2016-03-30,1,0.003844223149756967,0.004316735780132724,-0.012036496441939205,0.0014966760555248715,0.985974559176497
2016-04-01,1,0.003685602750628364,0.004146991021419834,-0.02148834188529488,0.001496438726585393,0.9841388059079226
2016-04-05,1,0.0023968071980026637,0.0026575942665503136,-0.018141969012006272,0.00026332874165344456,0.9867597213797628
2016-04-07,1,0.0017638066887392155,0.0019405265573471317,-0.019288367156606253,0.0007891203035926544,0.987104843271016
2016-04-11,1,0.0013354205185546865,0.0014048509557723103,-0.019288367156606253,0.0007891203035926544,0.9875681184409876
2016-04-13,1,0.0032940402766260856,0.003660464848617765,-0.02148834188529488,5.3092901311894855e-05,0.9865691237999659
2016-04-15,1,0.00385526087445641,0.004344639306268683,-0.022694358980522536,-0.0008626510623615184,0.9844982366512182
2016-04-19,1,0.0039304870863757484,0.004449875223618933,-0.022694358980522536,0.0006227968395580946,0.9839878568941874
2016-04-21,1,0.002408523835887161,0.002711558272503569,-0.02148834188529488,0.0009208574325136241,0.9854901832238966
2016-04-25,1,0.00024281271951719736,0.00026592004358664775,-0.016281865623801645,0.0015632501632148878,0.9894267075344528
2016-04-27,1,0.00037947233394883327,0.00047485671870291864,-0.016281865623801645,0.0025533808651517316,0.9889117110871296
2016-04-29,-1,-0.0002719730165225932,-0.0001598874132060933,-0.01191107424935857,0.005100596514591163,0.9899504801763739
2016-05-03,1,0.0001364881660285668,0.00031560318071226885,-0.01191107424935857,0.005100596514591163,0.9895272188147798
2016-05-05,-1,-0.0007418947832265909,-0.0006939691672863856,-0.011891586357512786,0.005100596514591163,0.9897752211110086
2016-05-09,-1,-0.0013637901456109445,-0.001292541656265416,-0.011891586357512786,0.008347909305711533,0.9893714609021131
2016-05-11,-1,-0.001753447656721035,-0.001654975237850779,-0.007846921739804167,0.010341705360282429,0.9899162398128639
2016-05-13,-1,-0.0031380744899447187,-0.002810428072848159,-0.009321479549312573,0.004068431011027391,0.9896909364329431
2016-05-17,-1,-0.002983631807756016,-0.002739193024943262,-0.009321479549312573,0.004068431011027391,0.9882408457942494
2016-05-19,-1,-0.0026705555551018952,-0.0024769148476990214,-0.009321479549312573,0.0019945126912641756,0.9889388794413427
2016-05-23,-1,-0.0022259978450537496,-0.002107592113999205,-0.009321479549312573,0.004068431011027391,0.9879614628112772
2016-05-25,-1,-0.0017086372197355302,-0.001597307510682717,-0.011856312188429939,0.0011777732346147753,0.9883267289573406
2016-05-27,-1,-0.00264279315608171,-0.002334999374823383,-0.012948257711219257,-1.239575697379355e-06,0.9870554119438131
2016-06-01,-1,-0.004073505771732842,-0.0035158376713678233,-0.012948257711219257,0.0056171541359652175,0.9858365376951388
2016-06-03,-1,-0.005415437825807761,-0.004616923438618525,-0.012905042271330273,0.011919371668933892,0.9854556214068879
2016-06-07,-1,-0.00570276999656158,-0.004772255593275231,-0.012905042271330273,0.008390139150279072,0.9866417582856057
2016-06-09,-1,-0.004544532118934703,-0.003785946766127959,-0.012905042271330273,0.008390139150279072,0.9862157218148618
2016-06-13,-1,-0.007289420220966668,-0.006153457169018703,-0.01001147240922514,0.011771986515965244,0.9848025425989198
2016-06-15,-1,-0.0066946076810741224,-0.005832290483585091,-0.008349502394497154,0.016033963400853588,0.9847304142838816
2016-06-17,-1,-0.007491261838195123,-0.006511295796139,-0.007272107229170636,0.016033963400853588,0.984069654849576
2016-06-21,-1,-0.00778730140491324,-0.006692469046437573,-0.006724224810392278,0.011771986515965244,0.9850402641605439
2016-06-23,-1,-0.008052540736373456,-0.006969183660231417,-0.0028444108529823986,0.016235157447408385,0.9835314727466896
2016-06-27,-1,-0.010680916643668915,-0.009215373692986608,-0.0015762649879024018,0.0172789075579793,0.9812654158803935
2016-06-29,-1,-0.009900311915571725,-0.008447510803339001,-0.0015762649879024018,0.01623449495140858,0.9822881829369753
2016-07-01,-1,-0.00699328154564344,-0.005925203441681043,-0.0017430933392291056,0.01623449495140858,0.9850232911259118
2016-07-06,-1,-0.006838083847081339,-0.005798086604129662,-0.0027148346789607567,0.01623449495140858,0.9835210915044034
2016-07-08,-1,-0.005047233676348323,-0.004289093616565556,-0.0027148346789607567,0.01729818037597266,0.9846755742525352
2016-07-12,-1,-0.002067642871094723,-0.0017655696315769494,-0.005807111702014514,0.013607522612099575,0.9880646755848473
2016-07-14,-1,-0.0006460794998091921,-0.0004749178065569962,-0.005807111702014514,0.013607522612099575,0.9885267931480148
2016-07-18,-1,-0.0007777157924335602,-0.0006617423756779006,-0.005807111702014514,0.013607522612099575,0.9881273356250031
2016-07-20,-1,-0.0008889762779079511,-0.0007938869114152295,-0.0031277115513259988,0.01729818037597266,0.987506045696876
2016-07-22,1,0.0005282573592736812,0.0006561726414487689,-0.006516405164124505,0.013607522612099575,0.9880590472861848
2016-07-26,1,0.0021100346464625955,0.0025051184025215844,-0.006516405164124505,0.00934940919126989,0.989077543727775
2016-07-28,1,0.002932624248969592,0.003387645472557162,-0.006516405164124505,0.007612347795525241,0.9898028953906216
2016-08-01,1,0.002276866430674028,0.002651885140874198,-0.006516405164124505,0.007612347795525241,0.9897844422713996
2016-08-03,1,0.002471822746962741,0.0029498789841303757,-0.003960903982376534,0.007821384579588664,0.991585990241046
2016-08-05,1,0.003028658437310138,0.003562504387362531,-0.004395288372000592,0.007821384579588664,0.9915195024849596
2016-08-09,1,0.0025733725226028278,0.0030708627453627153,-0.003203031148290422,0.011384371143713674,0.9910110468049655
2016-08-11,1,0.0037976834726072706,0.004477276928159136,-0.0035637889843873304,0.009177068123814122,0.9904128262521964
2016-08-15,1,0.003498287973189545,0.004128428345892074,-0.0035637889843873304,0.009242908765060145,0.9897592872052791
2016-08-17,1,0.004333284987328027,0.005108203203898556,-0.005325060170156894,0.007821384579588664,0.989408331400595
2016-08-19,1,0.004525066888587835,0.005325600055338364,-0.0069128813919435905,0.007821384579588664,0.9887964051871101
2016-08-23,1,0.004494716374930227,0.005325223466620692,-0.0069128813919435905,0.009242908765060145,0.9882887965859903
2016-08-25,1,0.004421085565229614,0.005261571866631188,-0.011335496446652073,0.008601046013719197,0.9873428707900663
2016-08-29,1,0.003563010174250693,0.004261102864959416,-0.011574817345783524,0.0120628367949708,0.9870643071130851
2016-08-31,1,0.003915932566371894,0.004668575354269915,-0.014236647381524678,0.0120628367949708,0.9864189668351308
2016-09-02,1,0.005300147385867221,0.006339956229711702,-0.014236647381524678,0.0120628367949708,0.9861149002821687
2016-09-07,1,0.006735996195084441,0.008006449700347359,-0.014236647381524678,0.0096924835115837,0.9855443018768405
2016-09-09,1,0.005476969363608558,0.006576041150928436,-0.013629159139932172,0.011940303766166253,0.9868530148701965
2016-09-13,1,0.004621026722371725,0.005520087492448988,-0.010782270125536418,0.013144027795609406,0.9870314802490125
2016-09-15,1,0.0032128273531867478,0.0038260305880997887,-0.008696053475517492,0.018409401647774357,0.9866135941559361
2016-09-19,1,0.002611349044508682,0.0031272842836510203,-0.008449558177221981,0.018409401647774357,0.9867331219338971
2016-09-21,1,0.0025647310091845704,0.002988898544587253,-0.008449558177221981,0.018687279865266464,0.9869224672657259
2016-09-23,1,0.0018535338073486602,0.0022221942055420654,-0.008449558177221981,0.01942028714007192,0.9860496398825199
2016-09-27,1,0.001788772951230996,0.0021113365441644298,-0.009105730992883105,0.018687279865266464,0.9863176577420535
2016-09-29,1,0.0012542221659791663,0.001498996063530834,-0.009105730992883105,0.018687279865266464,0.986038506883295
2016-10-03,1,0.001974455342508192,0.002274937270752126,-0.009105730992883105,0.01657993787359763,0.9866355430660264
2016-10-05,1,0.0021735332195219636,0.002468981616565184,-0.010006618059881255,0.01253041801752691,0.9870111115538565
2016-10-07,1,0.0016484676091261512,0.0018393336884784273,-0.010006618059881255,0.010926556631286126,0.9869499387850665
2016-10-11,1,0.0022345338546183417,0.002499555629801885,-0.010006618059881255,0.010926556631286126,0.9871063226215759
2016-10-13,1,0.003931010716071371,0.004419704832981409,-0.010006618059881255,0.008779940014156818,0.9878811238294116
2016-10-17,1,0.0035699679332467753,0.0040513140259360175,-0.010006618059881255,0.011640369521913165,0.9874953574132156
2016-10-19,1,0.004485924384831927,0.005094061006758601,-0.010006618059881255,0.008779940014156818,0.9877121751034595
2016-10-21,1,0.004540696098680633,0.0051236146504296315,-0.007669616750240051,0.008779940014156818,0.988798001515678
2016-10-25,1,0.0032250585612714315,0.0035560416927488507,-0.006150351288703312,0.010431807170527569,0.9882812613894877
2016-10-27,1,0.0029452748602294817,0.0032816856714336985,-0.0034002903554518705,0.01480023535429723,0.9884086192936726
2016-10-31,1,0.0037897186376217376,0.004268595515980662,-0.004402092656425913,0.01480023535429723,0.9886714095926594
2016-11-02,1,0.0018217943758002944,0.0019227509759694613,-0.002865263497505943,0.01480023535429723,0.9884864015129418
2016-11-04,1,0.000603638550886068,0.0007531304677999909,-0.002865263497505943,0.019098434197262426,0.9872118691469994
2016-11-08,1,0.001476038696816501,0.00155625961603543,-0.002865263497505943,0.021102572996712206,0.9865710361987029
2016-11-10,1,0.0025495888053930563,0.002593552459535526,-0.002865263497505943,0.018207606263863085,0.9873128725196063
2016-11-14,1,0.0031858008403058895,0.0032453886688890046,-0.004402092656425913,0.01480023535429723,0.9872291418346845
2016-11-16,1,0.0014462175588937243,0.0016485502528686708,-0.004310468215187503,0.018207606263863085,0.9851316770383629
2016-11-18,1,0.002524691147768075,0.0025541183879272495,-0.005770740181222034,0.01857709731835948,0.9844375682714241
2016-11-22,1,0.0037217225747638067,0.0038717832675862775,-0.005014320436969576,0.017662723682211955,0.9858418565361019
2016-11-25,1,0.003781745997104182,0.003919485172498396,-0.005770740181222034,0.015703355484106275,0.9850142406553609
2016-11-29,1,0.003712889000456007,0.003875366993204088,-0.008476668754057361,0.015703355484106275,0.9841161318300202
2016-12-01,1,0.004483343812615801,0.004857962602307296,-0.008086474606321429,0.015703355484106275,0.9844377693114293
2016-12-05,1,0.004693022054726806,0.0051370370275865464,-0.006287317512189133,0.014064857746003375,0.9855307458207408
2016-12-07,1,0.006160933975433491,0.006756490749966375,-0.010521864432051343,0.013460993545413323,0.9855987793189961
2016-12-09,1,0.0064384359664268346,0.007038194123116965,-0.010521864432051343,0.013460993545413323,0.983761568307496
2016-12-13,1,0.00508466038556476,0.005528990889354242,-0.008392398214523925,0.01394428555463862,0.985095393520119
2016-12-15,1,0.006721319715213823,0.0074374582303276225,-0.009077887613376497,0.013460993545413323,0.9860819047544523
2016-12-19,1,0.007245867717515444,0.00807479247894097,-0.008392398214523925,0.013460993545413323,0.9866671597545636
2016-12-21,1,0.007092757264361701,0.00785200109919209,-0.009077887613376497,0.01187680877262092,0.9862420555433073
2016-12-23,1,0.005873306516195928,0.0063740343698875735,-0.008392398214523925,0.0070666023635554374,0.9880067798609827
2016-12-28,1,0.004967411115182907,0.005371602229744041,-0.008078742041016562,0.01187680877262092,0.9881251169028843
2016-12-30,1,0.0044208923650256955,0.004688125229778047,-0.008392398214523925,0.01187680877262092,0.9874228947159489
2017-01-04,1,0.0047158756693060355,0.0050537496633533425,-0.008243896602714122,0.010050751971877988,0.9879142673532006
2017-01-06,1,0.0034913355119629928,0.0036565676587615135,-0.00529323869503272,0.011051787383319009,0.9887541694135817
2017-01-10,1,0.005627924133242547,0.006103542903871928,-0.006325014783920648,0.011051787383319009,0.9888997894302533
2017-01-12,1,0.005403407064490657,0.005833891287604762,-0.00843392231647401,0.011051787383319009,0.9890539541318221
2017-01-17,1,0.005115405032681138,0.005501123539082971,-0.008571057637097576,0.009945998798152528,0.9889384256727137
2017-01-19,1,0.005412722007602374,0.005859218097254117,-0.008571057637097576,0.007564853421262941,0.9893482760587179
2017-01-23,1,0.0041142096133306725,0.00432886912342816,-0.005498285043408688,0.007564853421262941,0.9900785390112411
2017-01-25,1,0.0041421151516380155,0.0043586083654944775,-0.008571057637097576,0.007564853421262941,0.9894491369574362
2017-01-27,1,0.004562325877526592,0.004846646813673435,-0.006040101176759638,0.008819899353511714,0.9905835238066099
2017-01-31,1,0.0045859888000582775,0.004945651784717235,-0.0032521223748407328,0.009945998798152528,0.9905391592485987
2017-02-02,1,0.0038511878134634965,0.004013442297065529,-0.006171810041232583,0.011130295350883241,0.9878032847931266
2017-02-06,1,0.003517573823556633,0.003610305346203965,-0.011574632078113604,0.009336838965281747,0.9862814110895736
2017-02-08,1,0.003613826115676219,0.0036583064864503982,-0.011574632078113604,0.007300713096542783,0.987848224717128
2017-02-10,1,0.0027852479552571766,0.002891030440453562,-0.006804954738050243,0.007300713096542783,0.9882100402609256
2017-02-14,1,0.002094006924872585,0.0022498851928348974,-0.006804954738050243,0.008691953161412615,0.9880618031791716
2017-02-16,1,0.0015233539517357255,0.0017933068855627249,-0.013091373188035327,0.008691953161412615,0.9874913821011058
2017-02-21,1,0.0012199538078847539,0.001538397403068657,-0.014395076731042846,0.009745421363144924,0.9856262445947515
2017-02-23,0,-9.305554853422226e-05,0.0004151106863907279,-0.013501867807493982,0.01180032195525715,0.9858993095044682
2017-02-27,1,0.0011378799591678507,0.0014634646490908972,-0.013501867807493982,0.009865664543649759,0.9862533014991927
2017-03-01,1,0.0020468781993985526,0.002273647617676433,-0.016988265559655626,0.009865664543649759,0.9856273482235609
2017-03-03,1,0.0010442327534538492,0.0014085295161422972,-0.015437729073540681,0.008870489062111185,0.9877718027841739
2017-03-07,-1,-0.0005748715933594324,-4.291924127696324e-05,-0.013438923968867937,0.008870489062111185,0.9887074290303676
2017-03-09,1,0.0001156516073268798,0.0004761849360462411,-0.013438923968867937,0.008870489062111185,0.9884192323934682
2017-03-13,1,6.926055350820696e-06,0.0004199198855383006,-0.013438923968867937,0.007381815961683061,0.9891724480033461
2017-03-15,0,-0.00013726245051243723,0.00026415680355787127,-0.009412548674746512,0.004103736295342705,0.9904710831880286
2017-03-17,-1,-0.0010314348399669017,-0.0005300750902110926,-0.009007516899264958,0.006766608466831726,0.9901183038162155
2017-03-21,-1,-0.0027294262990643255,-0.0019507538443142604,-0.006811406369017206,0.006766608466831726,0.9919729708094237
2017-03-23,-1,-0.002529828345158489,-0.0017423796698595897,-0.006811406369017206,0.006766608466831726,0.9919706074840933
2017-03-27,-1,-0.002080453165917924,-0.001374637895354534,-0.006811406369017206,0.007760726425038374,0.9911537828116462
2017-03-29,-1,-0.0035102912103511827,-0.0025824073416945053,-0.009007516899264958,0.0069456841095255455,0.9895495094799615
2017-03-31,-1,-0.004648827761339078,-0.0035509630211452603,-0.007132319232505806,0.0069456841095255455,0.9895918976006948
2017-04-04,-1,-0.005237681817321352,-0.004114880854043202,-0.0050005699299052984,0.007760726425038374,0.988823925125936
2017-04-06,-1,-0.005026755514992452,-0.003978436871791717,-0.00524779504169604,0.007760726425038374,0.9885728657793015
2017-04-10,-1,-0.004363176720163533,-0.003487429061528914,-0.009283088851891504,0.008145728894412008,0.9876099621815904
2017-04-12,-1,-0.004788605552701759,-0.003841669332850444,-0.012461994904570119,0.008145728894412008,0.9868874173123945
2017-04-17,-1,-0.005102788478676092,-0.004165898617587533,-0.008933629918770905,0.008213870304452047,0.9872007645257288
2017-04-19,-1,-0.004317174454245969,-0.003533243913524937,-0.012461994904570119,0.008213870304452047,0.986600587483446
2017-04-21,-1,-0.0032347785001411136,-0.0026000467141011284,-0.012461994904570119,0.008705873745239921,0.9864915041699596
2017-04-25,-1,-0.0024215049798816763,-0.0018742890663145495,-0.012461994904570119,0.008204443957361687,0.9872365162774988
2017-04-27,-1,-0.0050373586000828155,-0.004181786746586275,-0.008933629918770905,0.008882018934088956,0.9878237641200327
2017-05-01,-1,-0.005279846570250109,-0.004396344039592015,-0.010041570517085794,0.008882018934088956,0.9877439201045745
2017-05-03,-1,-0.002875934942201203,-0.0023903270158402794,-0.010041570517085794,0.01114526163775943,0.9883251346651485
2017-05-05,-1,-0.0029888058610620482,-0.0025345532076572557,-0.0035749930259053827,0.012569358931289656,0.987929606599564
2017-05-09,-1,-0.004309389891867213,-0.003635384686787124,-0.0012523104711812424,0.01377922187609297,0.9870670558552326
2017-05-11,-1,-0.003625557575667233,-0.003115456170966746,-0.0029215209334022742,0.01377922187609297,0.9876428346386412
2017-05-15,-1,-0.002977320754354302,-0.002558255533436612,-0.0073908324214552274,0.012569358931289656,0.9884921983318292
2017-05-17,-1,-0.00410496076642294,-0.0035657635107652157,-0.007183766356509952,0.012569358931289656,0.9889517746065964
2017-05-19,-1,-0.002834738824486523,-0.002433508278007367,-0.007183766356509952,0.012569358931289656,0.9894678719888798
2017-05-23,-1,-0.0028440276534264716,-0.0023964378771661587,-0.008730050504128724,0.01377922187609297,0.9889315134163996
2017-05-25,-1,-0.002307393301875818,-0.0019409546577687467,-0.007183766356509952,0.012569358931289656,0.9902767614920008
2017-05-30,-1,-0.0026048134328609494,-0.0022076572207132585,-0.008351371420418906,0.012569358931289656,0.9894527249370455
2017-06-01,-1,-0.002005341543347248,-0.0016277230613417704,-0.008351371420418906,0.006977495044053815,0.9905135970590774
2017-06-05,-1,-0.0002578003286191424,-0.00020789986711181388,-0.008351371420418906,0.006878235204734176,0.9904357150036383
2017-06-07,1,0.0009667255357677172,0.0011001280527710515,-0.008351371420418906,0.006878235204734176,0.9913637326257119
2017-06-09,1,0.0002552121637820322,0.00029085606840702406,-0.008351371420418906,0.007506708474698366,0.9903776795062436
2017-06-13,1,1.4705446271858473e-05,9.174872399542411e-05,-0.008351371420418906,0.008790623654245985,0.9885568445379658
2017-06-15,-1,-0.0002609256200815849,-0.0002274467033410112,-0.00958333156031281,0.008790623654245985,0.9879954982640058
2017-06-19,1,0.0007768846866580111,0.0008888622682987154,-0.010548960723661101,0.007506708474698366,0.9883882537692867
2017-06-21,1,0.0011345383229171037,0.0013331075739594143,-0.010548960723661101,0.006878235204734176,0.9889495635238206
2017-06-23,1,0.0012074500205120115,0.0013938095941134405,-0.012121226598726808,0.00569543730527661,0.9879468014896121
2017-06-27,1,0.00031790193314706276,0.00040041776136223994,-0.010548960723661101,0.006930514625421094,0.9893088987282923
2017-06-29,1,0.000601145743381006,0.000733747272606422,-0.012121226598726808,0.005536459301957399,0.9888986535321422
2017-07-03,1,0.0014653162954706236,0.0017629063087718218,-0.012710817032954319,0.0030443038883762163,0.9884919380965503
2017-07-06,1,0.0020611487049504826,0.0024300993391958414,-0.012710817032954319,0.0018811935498709007,0.9882527387616107
2017-07-10,1,0.002456213963382959,0.0028537539769641854,-0.012710817032954319,0.0018811935498709007,0.989458058268226
2017-07-12,1,0.0032404116316656515,0.003756737638684734,-0.01203779999376367,0.0015154777302381394,0.9899796929920622
2017-07-14,1,0.0024392951637684695,0.0028508296401116772,-0.01056962499758873,0.0018811935498709007,0.9912028522541152
2017-07-18,1,0.0016324120539413396,0.001915941267079739,-0.01056962499758873,0.0030443038883762163,0.9917282369843406
2017-07-20,1,0.0013965560899590296,0.0017122190761240373,-0.01056962499758873,0.0030443038883762163,0.9904453983445972
2017-07-24,1,0.0011319201929703912,0.0014723293588549656,-0.01056962499758873,0.0030443038883762163,0.9904326642512742
2017-07-26,1,0.0009548352255803261,0.0013122608254068939,-0.012937438832762865,0.0018811935498709007,0.9886770516638381
2017-07-28,0,-3.4407574001251665e-05,7.288414660025613e-05,-0.012937438832762865,0.0019614968384716503,0.9877115870940281
2017-08-01,-1,-0.0002969421029307848,-0.00023456046016070783,-0.014438822685184573,0.0015154777302381394,0.9877163584583397
2017-08-03,1,4.223097170058597e-05,0.00018434787726017424,-0.014438822685184573,0.0029228354554500136,0.987574378538762
2017-08-07,1,0.0003827317986035756,0.0005457917762995988,-0.016753327161115508,0.0023472610050385098,0.9863279099463581
2017-08-09,-1,-0.0006281678928057473,-0.0006266005534329362,-0.016753327161115508,0.006709714983190595,0.9868031933337544
2017-08-11,-1,-0.0008380280948299532,-0.0007860810364976391,-0.016753327161115508,0.007197223093343382,0.9859123224438767
2017-08-15,-1,-0.0005161608649292503,-0.00047319410000828125,-0.016753327161115508,0.0075183145806927846,0.9863376901212974
2017-08-17,-1,-0.0021451098705303736,-0.002030650933562167,-0.016753327161115508,0.008882495756030926,0.9864725589038318
2017-08-21,-1,-0.002879271098677444,-0.002667847129141394,-0.016753327161115508,0.008882495756030926,0.9857877442453341
2017-08-23,-1,-0.004664340501423376,-0.004216209455142211,-0.012557381617043013,0.009873184508690446,0.986397784465345
2017-08-25,-1,-0.004452663747570425,-0.00399020155482663,-0.008132874405511529,0.009873184508690446,0.9870204107715547
2017-08-29,-1,-0.004843039612619091,-0.0043314846549172455,-0.004285214167101656,0.009873184508690446,0.9870594861595615
2017-08-31,-1,-0.00467451342367218,-0.004180335364725518,-0.002845355983860053,0.010319919114723429,0.9865591813622768
2017-09-05,-1,-0.005787332484143103,-0.005166048891530798,-0.0012849468581823279,0.011785956930100188,0.9847558860053944
2017-09-07,-1,-0.00577807734465794,-0.005097770183819363,-0.0012849468581823279,0.011785956930100188,0.9844869696580155
2017-09-11,-1,-0.00413168393817851,-0.003654069653189384,-0.0015464534773341385,0.010180795174985654,0.986517995238431
2017-09-13,-1,-0.0031007953186370754,-0.0028035865771249076,-0.0013900925421279086,0.010292654028231322,0.98673797978985
2017-09-15,-1,-0.0028945608589633397,-0.0026609579658376454,-0.0013900925421279086,0.010180795174985654,0.9880188294068385
2017-09-19,-1,-0.006656829016691911,-0.005893579589509621,9.314034192349209e-05,0.010180795174985654,0.9870628787673568
2017-09-21,-1,-0.006012158659942287,-0.005312387219034265,-0.001303739599902945,0.010012648222189507,0.9876725842086826
2017-09-25,-1,-0.004072034853049283,-0.0036553581967379285,-0.0029095042028027497,0.010012648222189507,0.98918711433816
2017-09-27,-1,-0.004137725098605298,-0.003686512437252906,-0.007519571844527752,0.010012648222189507,0.9845089540957248
2017-09-29,-1,-0.003723541258739922,-0.0033073876053175315,-0.012311783619661495,0.010012648222189507,0.9823815684981815
2017-10-03,-1,-0.002134451910397497,-0.0019084206966009552,-0.012311783619661495,0.008343475459055326,0.9851448707547176
2017-10-05,-1,-0.001999743572614287,-0.0018155672609509968,-0.012375663888542367,0.007287616751735049,0.9846516634206702
2017-10-09,-1,-0.0024041769474799713,-0.0021135857291067596,-0.012375663888542367,0.005158376566274651,0.9848526511327332
2017-10-11,-1,-0.001174721857290071,-0.001090149003368548,-0.015277439243933037,0.0016049997261674198,0.984265272821849
2017-10-13,-1,-0.001015005707850028,-0.0009799210919310332,-0.01391420269935376,0.0016199187271509832,0.984845431150461
2017-10-17,-1,-0.0008910365226662575,-0.0008893993546586093,-0.01391420269935376,0.0016199187271509832,0.9846195137127699
2017-10-19,-1,-0.0015028280861028348,-0.0014016940259148933,-0.011391042285647707,0.005688105374163218,0.982277010423111
2017-10-23,-1,-0.0008436859086825568,-0.0007957475416816111,-0.007656122846652127,0.005635879506751363,0.9827455135059595
2017-10-25,-1,-0.0042934308344669036,-0.003955131684776507,-0.007156522023887737,0.004625206107084041,0.9871451344531232
2017-10-27,-1,-0.005237959420090138,-0.004855169775629137,-0.005006104073715884,0.002160255287887124,0.9898896165098844
2017-10-31,-1,-0.0056187974326562,-0.0051615878318370615,-0.00396914794417381,0.005635879506751363,0.98666328797293
2017-11-02,-1,-0.006882877464957549,-0.006256520639186651,-0.003188087406352493,0.005635879506751363,0.9857897923515725
2017-11-06,-1,-0.006335728292111703,-0.005775416485716382,-0.003188087406352493,0.011153397278597939,0.9854226794316391
2017-11-08,-1,-0.006418275845279434,-0.005912238937151051,-0.0030497349959448046,0.02090419076245615,0.985026635679132
2017-11-10,-1,-0.0057555172377625795,-0.0053407031420197645,-0.0030497349959448046,0.02090419076245615,0.9854429183729038
2017-11-14,-1,-0.005517497514185711,-0.005158590562093257,-0.0030497349959448046,0.02090419076245615,0.9854858741460866
2017-11-16,-1,-0.0030602577675475752,-0.00295145052088275,-0.0030497349959448046,0.011153397278597939,0.9887728839893747
2017-11-20,-1,-0.0025194605065145736,-0.002487156660270167,-0.0030497349959448046,0.02054446967540729,0.9874410722815555
2017-11-22,-1,-0.0021887103746496606,-0.002140023474704385,-0.0026633422439342313,0.02054446967540729,0.9868567714638229
2017-11-27,-1,-0.001729359100337959,-0.0015749667303875858,-0.002968333413254986,0.02054446967540729,0.9865713586075228
2017-11-29,1,0.0011629879775206448,0.0017553010994069125,-0.0042309917146193515,0.009061193634926502,0.9899482139386969
2017-12-01,1,0.0006927892747798506,0.0012827430077229712,-0.0042309917146193515,0.01445480167241501,0.9898780312674912
2017-12-05,1,0.001237153478040527,0.0018612341949584422,-0.005144732224110221,0.009061193634926502,0.9901989232190146
2017-12-07,1,0.0018345609195068223,0.002499601206848811,-0.005687048345184272,0.007635381634053329,0.9905805064628306
