JNU-Tangyin/eata/results/Batch4_SP500/Batch4_SP500-NOV.csv
Date,Action,Predicted_Q25,Predicted_Q75,Actual_Q25,Actual_Q75,RL_Reward
2010-12-14,0,0.0,0.0,-0.002197769416384902,0.013694561075644028,0.9891485031619534
2010-12-16,0,0.0,0.0,-0.0017127086393531605,0.01567050600754953,0.9883946246103783
2010-12-20,0,0.0,0.0,-0.004195380696455107,0.01567050600754953,0.9876820514770852
2010-12-22,0,0.0,0.0,-0.0060691502601820674,0.010249869586650827,0.9884264662708456
2010-12-27,0,0.0,0.0,-0.004195380696455107,0.011910796331372112,0.9883989802263398
2010-12-29,0,0.0,0.0,-0.0060691502601820674,0.011910796331372112,0.9865347206611407
2010-12-31,0,0.0,0.0,-0.0060691502601820674,0.01567050600754953,0.985157484502781
2011-01-04,1,0.003095241362602865,0.0031440018042744318,-0.004613967929086843,0.01567050600754953,0.9855239782197064
2011-01-06,0,0.0,0.0,-0.002241085105586838,0.01756343092221624,0.9860836947934386
2011-01-10,0,0.0,0.0,-0.003694714219916197,0.01668170210772555,0.9861964592303354
2011-01-12,1,0.0021261870310048795,0.0023943723592012934,-0.0038765398708647814,0.01668170210772555,0.9863444473403293
2011-01-14,1,0.0023890587101081336,0.0026384067543477737,-0.005112627783411089,0.01668170210772555,0.9860841638281372
2011-01-19,1,0.00017992638708426195,0.0007799606550470126,-0.005112627783411089,0.01850366682426608,0.9858718038910689
2011-01-21,0,-0.00035082141175070544,0.0002855118998274686,-0.005123200668774526,0.01850366682426608,0.9851564268818291
2011-01-25,1,0.0007268981673372225,0.0011879938071907177,-0.005695213122400677,0.01850366682426608,0.9854201059044466
2011-01-27,1,0.002218876761775299,0.0024687447713356964,-0.005695213122400677,0.01850366682426608,0.986317012731428
2011-01-31,1,0.002629500449954636,0.0028834367068279456,-0.0075668576910591315,0.01668170210772555,0.9862166954457192
2011-02-02,1,0.0029837478689202193,0.003167605661834819,-0.0075668576910591315,0.022211352720807327,0.9836764243947828
2011-02-04,1,0.0034821998390166726,0.003607154111472972,-0.011409088992586613,0.022211352720807327,0.9829486683344529
2011-02-08,1,0.0027181483869197958,0.0029867193352796613,-0.014008343711065302,0.022211352720807327,0.9829335556121604
2011-02-10,1,0.004020658500383386,0.004077300207169093,-0.01593885408897575,0.022211352720807327,0.9801937580035501
2011-02-14,1,0.0036810745306107276,0.003775548550526911,-0.014008343711065302,0.012047083429131305,0.981593561881698
2011-02-16,1,0.003959090762020841,0.003993501710095478,-0.014008343711065302,0.012732359273297767,0.9797736792359112
2011-02-18,1,0.0029682597849922817,0.0031356172522823793,-0.014956091588934985,0.02590747822924424,0.9788081585835506
2011-02-23,1,0.002026028899432289,0.002297817189419943,-0.014956091588934985,0.02590747822924424,0.978833788419658
2011-02-25,1,0.0015160595300357396,0.0018843818946597127,-0.013660394536024663,0.01629097610545885,0.9806304370644433
2011-03-01,1,0.00047167669264096984,0.0008991294496584503,-0.011401924726615185,0.021535987466916835,0.9817284455915753
2011-03-03,1,0.0026110805297769836,0.0027979608450570976,-0.013660394536024663,0.009054413873900675,0.9821130700093039
2011-03-07,1,0.0007608433888715654,0.0011674671617970113,-0.01078193801220972,0.013510541141057892,0.9827705810849638
2011-03-09,0,-0.00024483435109798704,0.00024602333642764957,-0.012436096487614205,0.013510541141057892,0.9820420243310575
2011-03-11,-1,-0.0013006487347852135,-0.0006807730188637022,-0.010376226751396711,0.012630162951976796,0.985608531793437
2011-03-15,-1,-0.001627775415575452,-0.000994274278746747,-0.014934598791020699,0.012630162951976796,0.9829697007672652
2011-03-17,1,4.491343543908859e-05,0.0004881994802738035,-0.01371746500858167,0.012160847168169672,0.9852533010683597
2011-03-21,1,0.0012457052861683674,0.0015348891014606665,-0.010376226751396711,0.010272138476883548,0.9872841645522715
2011-03-23,1,0.0012697307754538588,0.001499917903971506,-0.008921214701906228,0.012857741786698088,0.9869265598166418
2011-03-25,1,0.0017226542514606705,0.001881411960004751,-0.008921214701906228,0.012857741786698088,0.987119886516294
2011-03-29,1,0.002854755106127684,0.0028693773517251423,-0.014955948295534564,0.012857741786698088,0.9849871445095237
2011-03-31,1,0.0021664140004925727,0.002185719890400922,-0.005833012539353356,0.012857741786698088,0.9866469004167806
2011-04-04,1,0.0027044856934335657,0.0027674265650690123,-0.02418883388343184,0.008820144209144646,0.9847008856438493
2011-04-06,1,0.0010396225874352853,0.0011379282324636732,-0.025823864872158136,0.008820144209144646,0.9841570776982757
2011-04-08,0,-0.00013608867640431204,0.00020454394912106837,-0.025823864872158136,0.008820144209144646,0.983477109894238
2011-04-12,-1,-0.002831414291483014,-0.002237940216398263,-0.019475738535029624,0.011799501560754287,0.9836033457494705
2011-04-14,-1,-0.0018183488694841433,-0.0013771989163695653,-0.019475738535029624,0.008623836061765755,0.9847090021620312
2011-04-18,-1,-0.0024034320538953305,-0.001849282535707965,-0.02276686448403844,0.008623836061765755,0.9835634689588268
2011-04-20,-1,-0.0010152687690455108,-0.0005629520854198589,-0.02276686448403844,0.0040113128566573834,0.9829817250986276
2011-04-25,-1,-0.0010220363502305785,-0.0005584102711149958,-0.02276686448403844,0.001676762795048017,0.9827574798626094
2011-04-27,-1,-0.0021666035572644963,-0.0015953325994109693,-0.018545552353534653,0.0050044319738605965,0.982037137601327
2011-04-29,-1,-0.0023757882038462023,-0.0017881259195943818,-0.018545552353534653,0.006105510902141826,0.981776237772958
2011-05-03,-1,-0.005781914640436416,-0.004738280102717301,-0.015221257850633612,0.006105510902141826,0.983135947771187
2011-05-05,-1,-0.007849680165889106,-0.006585571045605733,-0.006464493894872089,0.012088256118647932,0.982450051120637
2011-05-09,0,0.0,0.0,-0.014399366081023745,0.011497363074481572,0.9843978582694579
2011-05-11,0,0.0,0.0,-0.006464493894872089,0.01198242577975411,0.9859154834501248
2011-05-13,0,0.0,0.0,-0.015221257850633612,0.01198242577975411,0.9834758413753272
2011-05-17,-1,-0.00973674705315925,-0.00832997431180618,-0.014399366081023745,0.015938929395988562,0.980282757588231
2011-05-19,-1,-0.008687665175900961,-0.007365210135967916,-0.014399366081023745,0.01198242577975411,0.9827697006013173
2011-05-23,0,0.0,0.0,-0.013549379729819452,0.015938929395988562,0.982652486962011
2011-05-25,0,0.0,0.0,-0.013549379729819452,0.01167404608350672,0.9861731514701759
2011-05-27,0,0.0,0.0,-0.01601690769612739,0.01167404608350672,0.9849494635152816
2011-06-01,0,0.0,0.0,-0.01523726394032331,0.014315313839897939,0.9823826276807536
2011-06-03,-1,-0.007313443201888091,-0.006158639403901076,-0.01523726394032331,0.018254538212285745,0.9804703387958431
2011-06-07,-1,-0.00759241087209931,-0.0064811443590091795,-0.006339025653044924,0.02244584478524874,0.9799047422244291
2011-06-09,-1,-0.003403470712715303,-0.002795710545957541,-0.010178448492608896,0.018028024847182786,0.9821533505559364
2011-06-13,-1,-0.006563742911047696,-0.005550198300258978,-0.009637809020358417,0.018028024847182786,0.981585517130275
2011-06-15,-1,-0.006206367224009222,-0.005205865805724207,-0.009637809020358417,0.013390174751155769,0.9834094125303273
2011-06-17,-1,-0.006763266359066293,-0.005716987809592353,-0.008490799318985578,0.018028024847182786,0.9820097987534029
2011-06-21,-1,-0.003743571720230188,-0.003143744501043571,-0.009637809020358417,0.018028024847182786,0.9830438061428656
2011-06-23,-1,-0.0024910155624048406,-0.0021354000165222874,-0.009637809020358417,0.023869869596956365,0.9807264193566683
2011-06-27,-1,-0.0029069936808975823,-0.002527389215589708,-0.009637809020358417,0.023869869596956365,0.9816678178220734
2011-06-29,1,0.0011070912350967133,0.001271439684348744,-0.011223614003447888,0.022310763808433925,0.9837350381690263
2011-07-01,1,0.0027774213989413513,0.0031929246431127503,-0.011223614003447888,0.017273527081854024,0.9840945456053823
2011-07-06,1,0.004357585609937976,0.005050885973568998,-0.011636082042775175,0.012443476130169611,0.9830154350137754
2011-07-08,1,0.004380027704908258,0.005079974598376303,-0.013182919841495284,0.012443476130169611,0.9780188590605066
2011-07-12,1,0.002651147485656328,0.0031596215427096364,-0.013182919841495284,0.01736495947014217,0.9716811927266511
2011-07-14,1,0.0025360676708860623,0.00301412297875254,-0.016184541592530934,0.023869869596956365,0.9686211437751127
2011-07-18,1,0.003165288131417875,0.003700396878807115,-0.016184541592530934,0.023869869596956365,0.9675793884388172
2011-07-20,1,0.002803807570411214,0.003203801283158653,-0.022778675677935116,0.01736495947014217,0.9679435520470487
2011-07-22,1,0.0036027084289970606,0.0040664805489265075,-0.030526076126725102,0.001799082124515007,0.9642061297350774
2011-07-26,1,0.004290342336817577,0.004931336204292334,-0.030526076126725102,0.011278066571085404,0.9623405571916581
2011-07-28,1,0.003617275788998674,0.004147910360233369,-0.030656114441549528,0.01027835090179631,0.9625848468296501
2011-08-01,1,0.0027755854291692736,0.003150657288018298,-0.030656114441549528,0.024100632473368203,0.9613016161487967
2011-08-03,1,0.0007808953756808309,0.0008246277801490064,-0.030656114441549528,0.024100632473368203,0.9620709160107966
2011-08-05,-1,-0.003319779790990123,-0.0028721070478127998,-0.02735874550765203,0.024100632473368203,0.965910999860036
2011-08-09,-1,-0.003320899560528401,-0.0029299114769123463,-0.02454899823618529,0.02228476575363297,0.973268232132217
2011-08-11,-1,-0.0026999299061115966,-0.002384281491031584,-0.02454899823618529,0.013151049373890479,0.9753204434592636
2011-08-15,-1,-4.540918466559959e-05,-4.5309651114223664e-05,-0.02454899823618529,0.010207823217742615,0.9771777568203349
2011-08-17,-1,-0.00029905100228818857,-0.00029766935839767804,-0.01656914820106137,0.014446398252209183,0.9770732564605576
2011-08-19,-1,-0.0023369763918155576,-0.0021221509641582066,-0.013558678488423067,0.014446398252209183,0.9808085794348028
2011-08-23,0,0.0,0.0,-0.02371738369598844,0.012229255992615262,0.9796047387871714
2011-08-25,-1,-0.0016338972170285063,-0.001581236356062833,-0.02371738369598844,0.010811016251757483,0.9776246503506547
2011-08-29,0,0.0,0.0,-0.02371738369598844,0.010811016251757483,0.9773268649180664
2011-08-31,-1,-0.0003598695938134792,-0.00030274978407985383,-0.02500289045993231,0.010811016251757483,0.9749668836596518
2011-09-02,0,0.0,0.0,-0.028422719996781018,0.010811016251757483,0.9743520656981453
2011-09-07,0,0.0,0.0,-0.028422719996781018,0.014446398252209183,0.9715914556694193
2011-09-09,0,0.0,0.0,-0.02500289045993231,0.01947205400186625,0.9697287577253833
2011-09-13,0,0.0,0.0,-0.02500289045993231,0.031708540686056226,0.967502966171521
2011-09-15,0,0.0,0.0,-0.02500289045993231,0.031708540686056226,0.9687309736373265
2011-09-19,0,0.0,0.0,-0.028422719996781018,0.036679847091704174,0.9651979401492883
2011-09-21,0,0.0,0.0,-0.02227482557924791,0.04424666354861438,0.9659134699998477
2011-09-23,0,0.0,0.0,-0.019917979436018675,0.04424666354861438,0.968715635989341
2011-09-27,0,0.0,0.0,-0.019917979436018675,0.04424666354861438,0.9695610156146153
2011-09-29,0,0.0,0.0,-0.007379078407420897,0.04536866977844271,0.9683250299724911
2011-10-03,0,0.0,0.0,-0.00022224653517598138,0.04536866977844271,0.9672604099435413
2011-10-05,0,0.0,0.0,-0.007379078407420897,0.04183598704162926,0.9685565449998732
2011-10-07,-1,-0.0008885867098368886,-0.0007019369300843415,-0.010376985824149865,0.03813732525997997,0.9697402380389315
2011-10-11,0,0.0,0.0,-0.010376985824149865,0.028715060614170833,0.9720264712618792
2011-10-13,0,0.0,0.0,-0.023326622591219814,0.02887646070870524,0.9673401893648078
2011-10-17,0,0.0,0.0,-0.017489482417600035,0.027750825862160624,0.9702442620172874
2011-10-19,0,0.0,0.0,-0.008510281724577151,0.02593854076680787,0.9730704779603889
2011-10-21,0,0.0,0.0,-0.017489482417600035,0.02593854076680787,0.9720192000998947
2011-10-25,0,0.0,0.0,-0.023909802227781312,0.022713661635273302,0.9721992433180888
2011-10-27,0,0.0,0.0,-0.023909802227781312,0.015551985221511858,0.9756271421118275
2011-10-31,0,0.0,0.0,-0.018439757511750095,0.022713661635273302,0.9767547268877869
2011-11-02,0,0.0,0.0,-0.015939536682744008,0.022767461666784772,0.9769269226660335
2011-11-04,0,0.0,0.0,-0.013772592634819447,0.022767461666784772,0.9781481426130575
2011-11-08,0,0.0,0.0,-0.013772592634819447,0.021520308520357384,0.9789432420265385
2011-11-10,0,0.0,0.0,-0.013772592634819447,0.02198514522870273,0.981167162934645
2011-11-14,0,0.0,0.0,-0.01854446102557434,0.013938223964794395,0.980531287885895
2011-11-16,0,0.0,0.0,-0.025673847564360135,0.013938223964794395,0.9777699531762013
2011-11-18,0,0.0,0.0,-0.02552868537893617,0.020055275138057087,0.9777955426326047
2011-11-22,0,0.0,0.0,-0.023991720369983847,0.022169677422786728,0.9772138913357618
2011-11-25,0,0.0,0.0,-0.023991720369983847,0.022169677422786728,0.9776118957261007
2011-11-29,0,-0.0008055092552383112,0.00018151947564954427,-0.02552868537893617,0.015640597594183694,0.9790630675469758
2011-12-01,1,0.006335481498369912,0.007380720219166631,-0.02552868537893617,0.014471116154933647,0.9792179583201277
2011-12-05,0,0.0,0.0,-0.02552868537893617,0.014471116154933647,0.9803333494565126
2011-12-07,0,0.0,0.0,-0.02552868537893617,0.014471116154933647,0.9804268348150301
2011-12-09,0,0.0,0.0,-0.02552868537893617,0.014471116154933647,0.9810866718113818
2011-12-13,0,0.0,0.0,-0.003691865517827184,0.014471116154933647,0.9836703812025649
2011-12-15,0,0.0,0.0,-0.0026136479606198265,0.014471116154933647,0.9862504106995574
2011-12-19,0,0.0,0.0,-0.0008707265847718285,0.014471116154933647,0.9873918773670228
2011-12-21,0,0.0,0.0,-0.0026136479606198265,0.014471116154933647,0.9886837411222581
2011-12-23,0,0.0,0.0,-0.0026136479606198265,0.015615277206193,0.9887172938574167
2011-12-28,0,0.0,0.0,-0.0026136479606198265,0.015845811615939696,0.9884545708903039
2011-12-30,0,0.0,0.0,-0.003691865517827184,0.015845811615939696,0.9871204202727677
2012-01-04,0,0.0,0.0,-0.003691865517827184,0.015845811615939696,0.9872055784998696
2012-01-06,0,0.0,0.0,-0.003691865517827184,0.018256126108613338,0.9832982984348905
2012-01-10,1,0.0,0.0018256417558212069,-0.00676092990108415,0.01659607807630332,0.9850214556795912
2012-01-12,1,0.001289075373785987,0.0013330014927435594,-0.006403731326209291,0.01659607807630332,0.9844322447732735
2012-01-17,1,0.0024991434127461564,0.0026952211553032375,-0.006403731326209291,0.016629720422641985,0.9847220806485344
2012-01-19,0,0.0,0.0,-0.012859739162655294,0.016672096723174566,0.9836253006564798
2012-01-23,0,0.0,0.0,-0.009840056368359825,0.016672096723174566,0.9841475421103859
2012-01-25,0,0.0,0.0,-0.011359943710707506,0.01842620982434015,0.9829103167241993
2012-01-27,0,0.0,0.0,-0.009784893091113302,0.016672096723174566,0.9840037774712491
2012-01-31,0,0.0,0.0,-0.009006414110216717,0.016672096723174566,0.9846240287453601
2012-02-02,1,0.0033117171493471003,0.0033179731929725603,-0.009784893091113302,0.016672096723174566,0.9842534108980759
2012-02-06,1,0.005655202623767683,0.006002263738565621,-0.014164088651342655,0.008655730017807822,0.98404395847108
2012-02-08,1,0.004653039432863652,0.004907527342492726,-0.011359943710707506,0.016795624597263817,0.9839998285991151
2012-02-10,1,0.003987514279385351,0.004063600138301111,-0.01355517436266032,0.016795624597263817,0.9831142370304251
2012-02-14,1,0.0018254159732945675,0.002173586609414799,-0.017142068162187045,0.01888356887301702,0.9825693045084722
2012-02-16,1,0.000410265872475691,0.0010205121668357456,-0.017142068162187045,0.01888356887301702,0.9826949410964849
2012-02-21,1,0.0011087656811639647,0.0015665749158051564,-0.017142068162187045,0.01888356887301702,0.9821896577672588
2012-02-23,0,-0.00047903817159447755,0.0002900995603718221,-0.019421244822725073,0.005280620226310357,0.983075891776437
2012-02-27,-1,-0.002796625230200246,-0.0016463787640705729,-0.019421244822725073,0.01888356887301702,0.9831017483310786
2012-02-29,-1,-0.0015787976810998855,-0.0007766881364537283,-0.019421244822725073,0.01888356887301702,0.9828018545131514
2012-03-02,-1,-0.0016265530014100563,-0.0008979955641255032,-0.017488472747602415,0.01244242301776959,0.9840712284794151
2012-03-06,-1,-0.00208440887833958,-0.0014110877066713758,-0.013670470865337923,0.01244242301776959,0.9857970528841657
2012-03-08,-1,-0.0007516919310899001,-0.00021679692059967288,-0.016225864812537055,0.007059855253856916,0.9872355791458959
2012-03-12,-1,-0.002121702374566601,-0.0013929224250917222,-0.018030246922579516,0.007059855253856916,0.9858870256857287
2012-03-14,-1,-0.0017071691317790483,-0.0010845845560880374,-0.017166781834986506,0.010124420575449312,0.9849544296210426
2012-03-16,0,-0.0002768219404292139,0.00014482875467131573,-0.018030246922579516,0.007059855253856916,0.9854981896250941
2012-03-20,0,-0.00033938405967237953,1.4716981697739063e-05,-0.018030246922579516,0.010124420575449312,0.9851494756616765
2012-03-22,-1,-0.0007629509618419488,-0.0004373466235106356,-0.012877757753061849,0.010124420575449312,0.9860502224490343
2012-03-26,-1,-0.0015492455718374445,-0.0010413744306356745,-0.012877757753061849,0.009600378006764783,0.9867523997707365
2012-03-28,1,4.78892070430309e-06,0.0003920245781451467,-0.012259259928650429,0.009600378006764783,0.9872059398174666
2012-03-30,0,-3.246867802161055e-05,0.0003611769105957253,-0.015052329561929843,0.0069043989842273445,0.9869331463372147
2012-04-03,1,0.000574145056558535,0.0008645382997899722,-0.015052329561929843,0.0032011044621578543,0.9864075919253857
2012-04-05,1,0.00021736514195188912,0.00027836008967503884,-0.016174753449345255,-0.0003163212952826517,0.9855251180491669
2012-04-10,-1,-0.0012197014323164343,-0.0009986153763819482,-0.015043763047594961,-0.0003163212952826517,0.9872417080393643
2012-04-12,1,0.0012129871037667172,0.0013036952365469508,-0.01522687134469745,-0.003757719175506189,0.9872469243107473
2012-04-16,-1,-0.0012991078835152806,-0.001017730487182565,-0.01522687134469745,-0.0007323417070222258,0.9892076228502714
2012-04-18,-1,-0.0017574257204917847,-0.0013586771243772491,-0.019825933201687115,-0.003757719175506189,0.9883055762053685
2012-04-20,-1,-0.002470528315729036,-0.0019905109268849555,-0.019825933201687115,-0.0007606615395523582,0.9891082928185956
2012-04-24,-1,-0.0014742316725694675,-0.001180098190660186,-0.019825933201687115,-0.0007606615395523582,0.9861778303363868
2012-04-26,-1,-0.0014148854831301113,-0.001131451165647556,-0.019825933201687115,0.0004999121161313154,0.9858764463474047
2012-04-30,-1,-0.0014433098841809006,-0.001191713960578686,-0.019825933201687115,0.0013598083017765355,0.9850784904508882
2012-05-02,-1,-0.0021567050591380635,-0.00181147531192232,-0.021090677599276048,0.0013598083017765355,0.9839626351759712
2012-05-04,-1,-0.00351295734669123,-0.0030572335765582615,-0.019920693147550052,0.0013598083017765355,0.9844321596841642
2012-05-08,-1,-0.005640523440891565,-0.00482238684179907,-0.019920693147550052,0.011543816817110928,0.982187744076488
2012-05-10,-1,-0.008137240024503467,-0.006904279635063848,-0.015012817262425059,0.007334121036688127,0.983120730531811
2012-05-14,-1,-0.00843952287846083,-0.007151744852019505,-0.01372043768081812,0.01858705185779065,0.9824305607776117
2012-05-16,-1,-0.008831379497278665,-0.007531972932289908,-0.0113711892484496,0.01858705185779065,0.9830822352205696
2012-05-18,-1,-0.008654618339041728,-0.007392025836100479,-0.012617760408937131,0.01858705185779065,0.9823172336709709
2012-05-22,-1,-0.007141967306841112,-0.006017985597700863,-0.012617760408937131,0.01624556266963497,0.9849414261719583
2012-05-24,-1,-0.0062375566979035535,-0.005269596758938497,-0.014310719219368117,0.011031225755420052,0.9839937997883975
2012-05-29,-1,-0.004323567848614418,-0.0036367344485956476,-0.015460907054715525,0.010889593351816662,0.9824750536791176
2012-05-31,-1,-0.005974105707590233,-0.005090390203757053,-0.014310719219368117,0.015141643332393297,0.9830793190604492
2012-06-04,-1,-0.006479455933785043,-0.005620375408178757,-0.012799754534670214,0.016549985478496124,0.9820435379345924
2012-06-06,-1,-0.0041282337864704255,-0.003526109257396713,-0.012799754534670214,0.015141643332393297,0.9826925557828187
2012-06-08,-1,-0.004018287309127493,-0.0034577730690507217,-0.011860077756231983,0.015141643332393297,0.9829324065064455
2012-06-12,-1,-0.003217035622951025,-0.002795242041246227,-0.01172681443207072,0.012944807522861628,0.9833962749264367
2012-06-14,-1,-0.0032818086620932936,-0.002857447064736201,-0.011637321173828184,0.012951053597304266,0.9835083137012045
2012-06-18,0,0.0,0.0,-0.0077638046379430855,0.012674299553439385,0.9842800077520387
2012-06-20,0,0.0,0.0,-0.0077638046379430855,0.014169748797195266,0.9830301745407626
2012-06-22,0,0.0,0.0,-0.0073409436733139636,0.014169748797195266,0.9846126052249361
2012-06-26,0,0.0,0.0,-0.0073409436733139636,0.013049145794445115,0.9868385746986827
2012-06-28,0,0.0,0.0,-0.0073409436733139636,0.013049145794445115,0.9832849356397624
2012-07-02,-1,-0.0020590933446974586,-0.0019102536022468995,-0.009670056417426107,0.012393016567144293,0.9836598384332279
2012-07-05,-1,-0.001375111022131303,-0.001283006112487439,-0.009852124361076006,0.012393016567144293,0.9851004980680084
2012-07-09,-1,-0.0004999885041089635,-0.00033611894199860883,-0.009852124361076006,0.013049145794445115,0.9837269995323686
2012-07-11,-1,-0.00022086664721802885,-1.9520390804627676e-06,-0.0073409436733139636,0.014424243588749965,0.9840086903607996
2012-07-13,1,0.00032726147031452975,0.000625703489734123,-0.0073409436733139636,0.014424243588749965,0.9841253583394506
2012-07-17,1,0.0010458929668355084,0.0014799498085454536,-0.009811572787046119,0.013580394629864696,0.9845359390280067
2012-07-19,1,0.002038940779194271,0.002589615821668275,-0.009811572787046119,0.010292141983604883,0.9851066962498322
2012-07-23,1,0.0008908744676231697,0.0012383942090565237,-0.007130301545894375,0.010292141983604883,0.9856723449002739
2012-07-25,1,0.00047135243424448745,0.0007633724296011837,-0.003395055147133138,0.010292141983604883,0.9862622050465805
2012-07-27,1,0.0023735074784672957,0.0028153515410522436,-0.006267335450402403,0.005965013750659541,0.990273674418106
2012-07-31,1,0.0026397877209006822,0.0032058154020325903,-0.006267335450402403,0.009825243785696835,0.9904780616790583
2012-08-02,1,0.0026322425079796192,0.0031699321362249327,-0.006267335450402403,0.005798145347767507,0.9911231144207678
2012-08-06,1,0.0037820938116164696,0.00447474606486321,-0.009098630359969828,0.005798145347767507,0.9905635856184332
2012-08-08,1,0.004781856340823783,0.005682619705068864,-0.009098630359969828,0.00689928925224736,0.990822299744271
2012-08-10,1,0.004904278833358257,0.005787577182516084,-0.009603176925518755,0.008271641815134546,0.9890107136803978
2012-08-14,1,0.003992054783094691,0.004693714097095267,-0.009098630359969828,0.013942301474358397,0.9893376437799061
2012-08-16,1,0.004931261031002393,0.005781818132428824,-0.009098630359969828,0.010917957887416084,0.9897770927231684
2012-08-20,1,0.004421665231275129,0.005168677874064623,-0.010712008955045916,0.010917957887416084,0.9888995217163241
2012-08-22,1,0.00477962135173954,0.005596552554204517,-0.011151918360594017,0.010917957887416084,0.987362808882321
2012-08-24,1,0.004476219448806788,0.005273825288551144,-0.011151918360594017,0.01387864552616602,0.9874473548053554
2012-08-28,0,0.0,0.0,-0.01127519540202377,0.010917957887416084,0.9867501124883803
2012-08-30,0,0.0,0.0,-0.009996892513863705,0.01387864552616602,0.986276247542474
2012-09-04,0,0.0,0.0,-0.009996892513863705,0.010917957887416084,0.9880135928704644
2012-09-06,0,0.0,0.0,-0.01127519540202377,0.010123017311201864,0.9877317768137884
2012-09-10,1,0.0033017144918314934,0.0038417352518681854,-0.010285803161962903,0.0071753793053715275,0.9892378004632788
2012-09-12,1,0.0034598862199082397,0.004004040805506381,-0.012209072579202389,0.005683356539257525,0.9886985946136194
2012-09-14,0,0.0,0.0,-0.012209072579202389,0.005683356539257525,0.9891716477755712
2012-09-18,0,0.0,0.0,-0.00953973006957669,0.00686355835310604,0.9894818014596528
2012-09-20,0,0.0,0.0,-0.009232087112443927,0.010246230905660372,0.9893139401724413
2012-09-24,0,0.0,0.0,-0.009232087112443927,0.009038573458571477,0.9895341652066271
2012-09-26,0,0.0,0.0,-0.010962921741965562,0.009038573458571477,0.9885381507869596
2012-09-28,0,0.0,0.0,-0.015573295424742787,0.00686355835310604,0.9882484969783039
2012-10-02,0,0.0,0.0,-0.015573295424742787,0.00686355835310604,0.9876655293637876
2012-10-04,0,0.0,0.0,-0.017152660928285247,0.005399321773197018,0.9879486967816027
2012-10-08,0,0.0,0.0,-0.020596073952164007,0.006006696091546056,0.9863348472742026
2012-10-10,-1,-0.0002965222278014988,-5.0250937581112196e-05,-0.020673586082683815,0.006006696091546056,0.9863276707215312
2012-10-12,1,0.0005411380121655809,0.0006275000904564105,-0.020673586082683815,0.006359588241964379,0.9855922233642835
2012-10-16,1,0.000987215300682329,0.001008845905748283,-0.020673586082683815,0.004661894189788733,0.9847973315922101
2012-10-18,1,0.00233609608537455,0.0025190923339708984,-0.020673586082683815,0.0025225611240795123,0.9837850534026873
2012-10-22,1,0.0008876314719198032,0.0009270092684016022,-0.02268347687160196,0.0003939747789871079,0.9840385598727024
2012-10-24,-1,-0.0012849519617238595,-0.0009289824866551053,-0.020039364366860726,0.005009170268685747,0.9857672608811326
2012-10-26,-1,-0.0017515910575720962,-0.001482374671695709,-0.017504839521815602,0.005009170268685747,0.9861453627485472
2012-11-01,-1,-0.002586891937543284,-0.002193705059725296,-0.020039364366860726,0.005015921277250472,0.9853967752158307
2012-11-05,-1,-0.0032433894247876054,-0.0027802961163854705,-0.01757434916185861,0.012358920395021062,0.9854931604059584
2012-11-07,-1,-0.003554153528765338,-0.0030499558756537006,-0.015874697673597248,0.004870046232857127,0.9873933474631772
2012-11-09,-1,-0.004529639331029918,-0.0039063142295753545,-0.00991353132596089,0.005477577918727366,0.987976591958298
2012-11-13,-1,-0.0035310947108749546,-0.0030292197405940406,-0.015874697673597248,0.0026248904222236765,0.9885186914588863
2012-11-15,-1,-0.004238889194400837,-0.003539813692655015,-0.014054738963773336,0.0024156288517022044,0.9891936098367954
2012-11-19,-1,-0.003579488281505374,-0.002949980535932332,-0.014054738963773336,0.0026248904222236765,0.9882767245007826
2012-11-21,-1,-0.0042540524857103724,-0.0035443571249727237,-0.0115042897540617,0.005477577918727366,0.9884290375896176
2012-11-26,-1,-0.003951646528132881,-0.0032726144118220835,-0.0115042897540617,0.0026248904222236765,0.9892553281197417
2012-11-28,-1,-0.0036514207722355713,-0.0030498782335320685,-0.0115042897540617,0.002941979985849946,0.9892012458303296
2012-11-30,-1,-0.004446190455301433,-0.003751645472950783,-0.0115042897540617,0.005477577918727366,0.9881637869951198
2012-12-04,-1,-0.0043345803271739956,-0.0036608140010558525,-0.0115042897540617,0.005517926956577938,0.9875277326118779
2012-12-06,-1,-0.004659472781142815,-0.003961795192046235,-0.0115042897540617,0.01479184372815361,0.9860778388218512
2012-12-10,-1,-0.004383524534342496,-0.003710632447197483,-0.013987116431998504,0.01479184372815361,0.9848505612457888
2012-12-12,-1,-0.004567766993510648,-0.003908779239127353,-0.0115042897540617,0.01479184372815361,0.9848650960390433
2012-12-14,-1,-0.005426905046607559,-0.004645282462831612,-0.0075374623953915155,0.01479184372815361,0.9852236648215752
2012-12-18,-1,-0.003821482373780361,-0.0031997465827086225,-0.0075374623953915155,0.008998308960906271,0.9872523927006229
2012-12-20,-1,-0.0021509159254891118,-0.0018492385159701208,-0.0075374623953915155,0.014206943081015397,0.986588880413745
2012-12-24,-1,-0.003451858241832799,-0.003008031283465806,-0.005355751808246151,0.014206943081015397,0.9869932331553805
2012-12-27,-1,-0.003358324581875463,-0.002903420277311647,-0.0051720269330971765,0.014206943081015397,0.9875137753192986
2012-12-31,-1,-0.001983198978334227,-0.0017244807359314792,-0.0051720269330971765,0.009443729766201095,0.9899211265469472
2013-01-03,-1,-0.0021431823905164347,-0.0018756407220645226,-0.005245090598429278,0.007081152521489848,0.9891123532981989
2013-01-07,-1,-0.00090457445832531,-0.0008063876377932336,-0.0065942405028228766,0.006797972285877024,0.9890696875486878
2013-01-09,-1,-0.0019877180849431214,-0.0017722509266767526,-0.0065942405028228766,0.007081152521489848,0.9883120808930672
2013-01-11,-1,-0.0007730188065258534,-0.0007368168577598208,-0.008786486341323646,0.008632696913449263,0.987918134018019
2013-01-15,-1,-0.0012514249679556806,-0.0011436390568396865,-0.007622185998137295,0.010790718190039452,0.9876668302505721
2013-01-17,-1,-0.00026473734173727316,-0.0002298557968304938,-0.012317159522493865,0.010790718190039452,0.9872666022052525
2013-01-22,1,0.0002959438059051208,0.0003798701145228393,-0.014067279707818871,0.00658521807682234,0.9874500068207999
2013-01-24,1,0.0002160444067381825,0.00030236619559434425,-0.015378325684443327,0.00751089473572598,0.985867190707759
2013-01-28,1,3.46195307472684e-05,9.54390797473895e-05,-0.01761970686995743,0.008982292179002815,0.984525225639193
2013-01-30,1,0.000553490939425772,0.0007086442848380896,-0.01761970686995743,0.010849335224404448,0.9837185322833615
2013-02-01,1,7.581386057111143e-05,0.00021034429028432122,-0.016011990879920227,0.010849335224404448,0.9846086780619961
2013-02-05,-1,-0.001006667168570757,-0.0009745389812256928,-0.014149495385510972,0.011512614093093208,0.9856547783569581
2013-02-07,0,-0.0001025756382478962,9.80209238217617e-05,-0.012317159522493865,0.009890008968545756,0.9876909022413106
2013-02-11,1,0.000256222662162851,0.0005304548733302979,-0.010470888312717416,0.008982292179002815,0.9886512497693235
2013-02-13,1,0.0006157693623367783,0.0009283798741637568,-0.010470888312717416,0.009203385135232401,0.9881363970297176
2013-02-15,1,0.0002791595161355097,0.0005271817184463944,-0.010962714090053635,0.009203385135232401,0.9876462838919637
2013-02-20,0,-9.467046636439495e-05,0.0001108531176627391,-0.010962714090053635,0.010465756265617427,0.98745769568312
2013-02-22,-1,-0.000160214119480166,-9.363871595645618e-06,-0.010438777884295512,0.009174207944693372,0.9881724766615155
2013-02-26,-1,-0.0002380215165202111,-4.596084067821514e-05,-0.00796147697284266,0.010465756265617427,0.9890632004710773
2013-02-28,1,0.000586088040329565,0.0009129533121819307,-0.00796147697284266,0.010465756265617427,0.9898809576064416
2013-03-04,0,-9.777171199773938e-05,0.00014066236582416366,-0.004234672183312454,0.010465756265617427,0.9901637768202037
2013-03-06,1,0.0007312936206426428,0.0010951111118650309,-0.013609816361935749,0.00758626694497685,0.9892129240875633
2013-03-08,1,0.00019925825666633696,0.0005125947831392668,-0.013609816361935749,0.01078269090574199,0.9888984368722337
2013-03-12,1,0.00021299079172870422,0.0005337997921827074,-0.013609816361935749,0.011732320485604698,0.9884164922594775
2013-03-14,1,0.0011359675211680114,0.0016173614847776396,-0.014617863264562643,0.011732320485604698,0.9880623975422446
2013-03-18,1,0.0028613069325989678,0.003572851649328332,-0.014617863264562643,0.011732320485604698,0.9876683060208672
2013-03-20,1,0.0025446146340637812,0.0031789897196279207,-0.014617863264562643,0.011732320485604698,0.9868106551453407
2013-03-22,1,0.0014382042833336385,0.001833664919694627,-0.014617863264562643,0.011732320485604698,0.9867731334907717
2013-03-26,1,0.0016293172072597074,0.002003066597040381,-0.014617863264562643,0.012016865304854147,0.9860590152422516
2013-03-28,1,0.0018565723931982978,0.0022175658740825506,-0.014617863264562643,0.011732320485604698,0.9860754917707119
2013-04-02,1,0.0009479783704085668,0.0011363865621589289,-0.014160731731949608,0.011732320485604698,0.9860044073916877
2013-04-04,-1,-0.00014317497025979474,-0.00010011084679911611,-0.00717827810654471,0.011732320485604698,0.9872836687685028
2013-04-08,-1,-0.00029503204680705246,-0.00024350873519187298,-0.00717827810654471,0.012995794474176928,0.9861990297958817
2013-04-10,1,0.0009575295410756975,0.0011236792563449327,-0.00717827810654471,0.012995794474176928,0.9868770913756696
2013-04-12,1,0.0006594946276546576,0.000774082663260964,-0.0063404170238649925,0.011664572617224228,0.987919023582538
2013-04-16,1,0.0005541350282206882,0.0007211622671105965,-0.0063404170238649925,0.008829532651174988,0.9899950377062338
2013-04-18,-1,-0.0005968353432596516,-0.0005633968527887444,-0.0063404170238649925,0.008829532651174988,0.9908584594101033
2013-04-22,-1,-0.0007162959449278916,-0.0006686012301106137,-0.0063404170238649925,0.015325576279078037,0.9890528432009682
2013-04-24,1,0.00012432757103746653,0.0001807837036876497,-0.007576077130716646,0.007618921944626811,0.9897416845520992
2013-04-26,-1,-0.0006475499722520754,-0.0005512214742159611,-0.0063404170238649925,0.009910429417905781,0.9894073119434812
2013-04-30,-1,-0.0012091069101406848,-0.001068435627263682,-0.0024707815486303846,0.01609228677166447,0.9888508505823379
2013-05-02,-1,-0.001002135613188035,-0.00086134842535829,-0.0074067659665603795,0.01609228677166447,0.9886249518162916
2013-05-06,1,0.0002721589859982026,0.0002771870406804541,-0.007993931474358182,0.006568079680821657,0.9896754756516567
2013-05-08,1,0.0001899746239257759,0.00023711023420378252,-0.008876033523573069,0.00842660796267071,0.9888479721681759
2013-05-10,-1,-0.0005553597288716456,-0.0003681806211492985,-0.008876033523573069,0.00842660796267071,0.9891128530333027
2013-05-14,1,0.00035605600485437016,0.00038473142300476893,-0.010467519940284047,0.00842660796267071,0.9891206828195126
2013-05-16,-1,-0.0003924722507243108,-0.0003473754804428868,-0.008368100031104268,0.013376981085516465,0.9892045503287411
2013-05-20,1,0.0006561152832330029,0.0007088886962441944,-0.008368100031104268,0.012484771509314506,0.9905193440308633
2013-05-22,-1,-0.0002651560043414762,-0.00019272248063374587,-0.008368100031104268,0.012484771509314506,0.9894808111173728
2013-05-24,1,0.0011483402570673772,0.0012934061668503803,-0.010467519940284047,0.007784157266357324,0.9892322357665199
2013-05-29,1,0.0017398596391174372,0.0019381175559632898,-0.010467519940284047,0.009034832396995207,0.9893756623150343
2013-05-31,1,0.001559398603166637,0.0017724172742456992,-0.008532099347242826,0.009034832396995207,0.9901767590519202
2013-06-04,1,0.0009773660920512058,0.0010882902505698173,-0.007309761788559615,0.009543582430629968,0.990312642634919
2013-06-06,1,0.0007673365475173442,0.0009286307362101264,-0.005538345813708429,0.009543582430629968,0.9905013373553856
2013-06-10,1,0.001154101787697959,0.0012877957798373724,-0.005538345813708429,0.011253976884595998,0.9899259624873005
2013-06-12,1,0.001132727257501024,0.0013136505568659492,-0.0052580632706547056,0.011253976884595998,0.9900198483877379
2013-06-14,1,0.0017440823717944994,0.0020579712225314026,-0.004981342534766369,0.009543582430629968,0.9909222226884977
2013-06-18,1,0.0026366194684196913,0.0030636808381256215,-0.005322397203836349,0.008856950553432807,0.9914325633955994
2013-06-20,1,0.0013373734700246969,0.0015900020479993875,-0.00463182362216831,0.009543582430629968,0.9922026676324847
2013-06-24,1,0.0008512772788620363,0.0010411439892211898,-0.004653268266562191,0.009543582430629968,0.9922202891077404
2013-06-26,1,0.0010736685359316292,0.0012849232566131698,-0.005097870087411239,0.009324701911098014,0.99240402855496
2013-06-28,1,0.0005415246265655785,0.0005859176383020916,-0.005385487361930813,0.009324701911098014,0.9920644821524204
2013-07-02,1,0.0009957782975971096,0.0011095532268953414,-0.006148338157980521,0.00937714840959549,0.9910022573000351
2013-07-05,1,0.0015628983773456318,0.0017397107675221385,-0.006148338157980521,0.011269457885319821,0.9907015902070756
2013-07-09,1,0.002180319511155689,0.0024619765190738805,-0.006148338157980521,0.00937714840959549,0.9908715243758572
2013-07-11,1,0.002613975879533939,0.0029368048742103234,-0.005581829385338154,0.0067277250226634696,0.9912539759766064
2013-07-15,1,0.0019510046276426636,0.002123484116618637,-0.005581829385338154,0.0067277250226634696,0.9913843539956152
2013-07-17,1,0.0015577122150051263,0.001700720932706408,-0.005197120132552339,0.009052902092171935,0.9917131864453538
2013-07-19,1,0.002080307216711553,0.0022427342686335726,-0.005581829385338154,0.005146089859543652,0.9921031691733964
2013-07-23,1,0.0016955146478789503,0.0018115953242451308,-0.005581829385338154,0.0060469842255003944,0.9915528474399138
2013-07-25,1,0.0008030371626190169,0.0008409137428220127,-0.005581829385338154,0.008462822618671897,0.9905927655489027
2013-07-29,1,0.0006276820859266497,0.0006553279368375905,-0.004336831238466147,0.009308219459425296,0.9903123387588609
2013-07-31,1,0.0007170569328566417,0.0007344714547517522,-0.0029391622077715946,0.009308219459425296,0.9910711335144887
2013-08-02,1,0.001464982996782389,0.0015297400475591163,-0.0029391622077715946,0.0077180178492251075,0.9924120640670226
2013-08-06,1,0.001407431727821588,0.0015101044365713914,-0.001957129492106911,0.008462822618671897,0.9917639559189627
2013-08-08,1,0.0013532601930617203,0.0014960549899160514,-0.001957129492106911,0.009308219459425296,0.9910190816585358
2013-08-12,1,0.0012090132500205642,0.0012964412849679053,-0.0011510421928927067,0.009308219459425296,0.9911353490533578
2013-08-14,1,0.0010288556344322437,0.0010701105022749644,-0.001957129492106911,0.009308219459425296,0.99096268984572
2013-08-16,1,0.0010682911992723949,0.0011399359013870157,-0.0007392182460477208,0.009308219459425296,0.991349641542879
2013-08-20,1,0.0009650959977045371,0.0010549094720228918,0.0008529291472287768,0.008555552310238109,0.9925426117419658
2013-08-22,1,0.0007899808683885718,0.0008157051149887823,0.0008529291472287768,0.007557790123159084,0.9931552152137525
2013-08-26,1,0.0005732234628285326,0.0006678590655460342,-0.0007392182460477208,0.006277346700026093,0.993642300201904
2013-08-28,1,0.0015990924453717988,0.0016353690607390297,8.87399840093497e-05,0.005628808267506699,0.9947398003640476
2013-08-30,1,0.0015930827398119457,0.001672578634387475,0.0010170564363539479,0.005628808267506699,0.9942408332433353
2013-09-04,1,0.0021457489572742155,0.0022660214796487903,0.0010170564363539479,0.006277346700026093,0.994808026778458
2013-09-06,1,0.0028660962534057684,0.0030715689125759083,-0.0007937085069745551,0.005569216969780336,0.9950508553720658
2013-09-10,1,0.0023631822782255764,0.002467396649553159,-0.00542274211640175,0.005569216969780336,0.9940917735119649
2013-09-12,1,0.0019907228162155447,0.002036175834073115,-0.004938863718533261,0.006568911414005965,0.9935207161652657
2013-09-16,1,0.0024696418397319674,0.0026439002908410776,-0.004938863718533261,0.007548236395982867,0.9933774383364626
2013-09-18,1,0.0030210584771580614,0.003215395659109968,-0.004938863718533261,0.007823857044745273,0.9927313123831656
2013-09-20,1,0.0020806102774432963,0.002101456178101798,-0.004159344866929346,0.008909001904028256,0.9928467400306882
2013-09-24,1,0.0019606032026260826,0.0019911212547682744,-0.004938863718533261,0.008909001904028256,0.9925178901783066
2013-09-26,1,0.002278324964961099,0.002462630696752242,-0.005368381478583947,0.008909001904028256,0.9910022838855826
2013-09-30,1,0.0013972866295459728,0.0015553473053896323,-0.004938863718533261,0.009246469371896273,0.9897451097461326
2013-10-02,1,0.0016887060866578446,0.0018554763943796249,-0.005368381478583947,0.009246469371896273,0.98953070067041
2013-10-04,1,0.001557995401421875,0.0017003402780590446,-0.005368381478583947,0.0054406944430434884,0.98961188063738
2013-10-08,1,0.00038249577495336065,0.00042462453917246044,-0.005368381478583947,0.0054406944430434884,0.9903668174400653
2013-10-10,1,0.002016704821961944,0.0022265302132762847,-0.006128626972537041,0.0054406944430434884,0.9899715281625281
2013-10-14,1,0.001453923899262155,0.001586879713722209,-0.006128626972537041,0.010387129473372699,0.9891478942558942
2013-10-16,1,0.0022115423283127844,0.002454855651302609,-0.006128626972537041,0.005387185769420696,0.9892855614982957
2013-10-18,1,0.0021232560381182065,0.002381024710611524,-0.006128626972537041,0.008983778492060817,0.9892464645062442
2013-10-22,1,0.0016571383685961847,0.0017851580767691852,-0.007303260707185557,0.008983778492060817,0.9890787244899395
2013-10-24,1,0.0008298365077432016,0.0008414240558571974,-0.005619532924950514,0.008983778492060817,0.9906076368866948
2013-10-28,1,0.0013100972090091937,0.0013832180836729191,-0.007303260707185557,0.006712559605792311,0.9919443782562813
2013-10-30,1,0.0006201094558997181,0.0006434247914331695,-0.007303260707185557,0.006712559605792311,0.9920813318984867
2013-11-01,-1,-0.000838530373211028,-0.0006391545035198311,-0.005619532924950514,0.006712559605792311,0.9927321324902451
2013-11-05,-1,-0.001083798540624217,-0.0008724369119444675,-0.006126461661775076,0.008983778492060817,0.9921265901903192
2013-11-07,-1,-0.0007059659022958466,-0.0005646979061985457,-0.003926061293080772,0.006712559605792311,0.9932195756824872
2013-11-11,0,-5.17625525444251e-05,4.8772243467634874e-05,-0.009510608033079734,0.002349721778354353,0.9932378377253747
2013-11-13,-1,-0.0011250530087722585,-0.0008684930885322318,-0.009817970574873332,0.002349721778354353,0.9931847376296274
2013-11-15,-1,-0.00013225466154897565,-1.6513642938056807e-05,-0.009817970574873332,0.002297319269715359,0.9938838487838991
2013-11-19,-1,-0.0005943788227969536,-0.0004369723289498212,-0.00976804812291487,0.002297319269715359,0.9940036885721127
2013-11-21,1,9.571670012901352e-05,0.00017503640593872623,-0.00976804812291487,0.0021983814687267025,0.993802891266662
2013-11-25,-1,-0.00037694295042630744,-0.000291006267044999,-0.0094222511453094,0.002297319269715359,0.9937838137009076
2013-11-27,-1,-0.0008375250034467488,-0.0007319272692000591,-0.00807189256101594,0.0026739194302655075,0.9938017522903609
2013-12-02,-1,-0.0006542800724056439,-0.000567784932584193,-0.009381592157929653,0.004188544531004059,0.9930039650011939
2013-12-04,-1,-0.0007080094486838346,-0.0006018621720200353,-0.00813368775423406,0.0026739194302655075,0.9936147238519216
2013-12-06,-1,-0.0015244389702767035,-0.0012989532613951423,-0.00813368775423406,0.004915662117896468,0.9930829703382794
2013-12-10,-1,-0.0024041682781768027,-0.002116543079450023,-0.006723520874262373,0.004915662117896468,0.9932816054539239
2013-12-12,-1,-0.003215707315463466,-0.0027963563840424817,-0.006723520874262373,0.004915662117896468,0.9928446347560097
2013-12-16,-1,-0.003199376993741372,-0.002757552835537826,-0.006723520874262373,0.007815593587227778,0.9926700614325845
2013-12-18,-1,-0.003784871673036618,-0.0032773917126321358,-0.005440909071442909,0.007815593587227778,0.9927450615241022
2013-12-20,-1,-0.003414351079848196,-0.0029251683552532076,-0.005440909071442909,0.006306581129733211,0.9927332883982023
2013-12-24,-1,-0.002967068973497313,-0.0025868625245061986,-0.007201284202045691,0.00441265796539828,0.9915964264288573
2013-12-27,-1,-0.002555227957141974,-0.002214789695615844,-0.009385016683133799,0.0037066948883590248,0.9919516262946462
2013-12-31,-1,-0.0022073525989812254,-0.0019237742002769774,-0.007140630517228953,0.0037066948883590248,0.9922877551907165
2014-01-03,-1,-0.0024235769219716893,-0.0020954213721319087,-0.011189325661972727,0.00441265796539828,0.9908588429519043
2014-01-07,-1,-0.0017619668181345332,-0.0015251520923851057,-0.01637561622340389,0.004093646063925575,0.9903279100542889
2014-01-09,-1,-0.0030013566669216487,-0.00260150628009207,-0.011053126518794117,0.0089408478191646,0.9900173368535854
2014-01-13,-1,-0.0038964001829094536,-0.0033615726186359825,-0.0057168543364228,0.0089408478191646,0.9902044795954541
2014-01-15,-1,-0.0035328651407502934,-0.003048991646569882,-0.0051956367537050845,0.008122436247969617,0.9904457854089495
2014-01-17,-1,-0.0032986312455522597,-0.0028631991514705716,-0.0051956367537050845,0.008122436247969617,0.9900766393713288
2014-01-22,-1,-0.002609337173646317,-0.0022815476331792396,-0.0051956367537050845,0.008122436247969617,0.9906801094737518
2014-01-24,-1,-0.004579648152228423,-0.00401948947558565,-0.0017441022425690135,0.008943485026384519,0.9900536615164488
2014-01-28,-1,-0.004421151056766515,-0.003921545558495438,-0.004501595972975144,0.008943485026384519,0.9899660034331048
2014-01-30,-1,-0.0036729250756763862,-0.0033114591065750375,-0.0024263035433763984,0.010320911091562501,0.9887035360481985
2014-02-03,-1,-0.003339484949664087,-0.003031390391021907,-0.0010477962544250246,0.010320911091562501,0.9897209793455237
2014-02-05,-1,-0.0037304181101217833,-0.003371016809282857,-0.0010477962544250246,0.009852025935547005,0.9901228565191524
2014-02-07,-1,-0.0025872194607894023,-0.0023825026268620214,-0.0012635928091909257,0.008420011191407761,0.9914501432233267
2014-02-11,-1,-0.0017831292812707051,-0.0017284812951334683,-0.0051056897090192834,0.007160572330355756,0.9915150593656692
2014-02-13,-1,-0.001911996195540941,-0.00179493633778225,-0.008251553199981674,0.007160572330355756,0.9903740709483103
2014-02-18,-1,-0.0015371623269177072,-0.0014671490025809015,-0.008251553199981674,0.006051925492259509,0.9903352490812612
2014-02-20,-1,-0.0013510778149290888,-0.0013168594007591345,-0.008251553199981674,0.006051925492259509,0.990187975878918
2014-02-24,-1,-0.0018704023673561197,-0.0017577033523521629,-0.007257096972232509,0.006051925492259509,0.991374265631181
2014-02-26,-1,-0.0021659787792859013,-0.002047626440528724,-0.0052447689716050416,0.00879217180911673,0.9916309403368679
2014-02-28,-1,-0.000783385144850778,-0.0007249629624735808,-0.0052447689716050416,0.009803342906291392,0.9915103092117264
2014-03-04,-1,-0.0006066717888553131,-0.0005723731651025552,-0.0052447689716050416,0.00879217180911673,0.991761958044178
2014-03-06,0,-6.713411397069388e-05,6.065340669150716e-05,-0.004998937864720857,0.005871194311983194,0.9920729497590092
2014-03-10,1,0.00018901286534791942,0.00038426342698312424,-0.007257096972232509,0.005871194311983194,0.9910886601482685
2014-03-12,0,-1.709052229592774e-05,0.00016810506722146905,-0.0041029572138991145,0.008915599910714344,0.9911259292957955
2014-03-14,-1,-0.0009556268412714906,-0.0008733573663440215,-0.003782036107105983,0.008915599910714344,0.9922567562064895
2014-03-18,-1,-0.0011771141842799016,-0.0011377182798388316,-0.0036610031934714805,0.010688648004727443,0.9909769614241553
2014-03-20,-1,-0.0015831247450292128,-0.0015055697866271408,-0.0005764223938845669,0.012357590223038215,0.9899445073054239
2014-03-24,-1,-0.0011041401210000832,-0.0011020763566090088,-0.0005764223938845669,0.012357590223038215,0.9906746472785934
2014-03-26,-1,-0.0009905449801250969,-0.0009810225207739927,0.0001612291212727794,0.012357590223038215,0.9907582831853671
2014-03-28,1,3.2439980979199665e-05,0.00014699644710645417,-0.0020651902809605475,0.008703245238319852,0.989240001856997
2014-04-01,1,0.00014673704569007388,0.0002632134894309115,-0.0020651902809605475,0.010263604364498495,0.9887621359316742
2014-04-03,1,0.00019802910026969875,0.00032877572440092776,0.0001612291212727794,0.010263604364498495,0.9886955097452709
2014-04-07,1,0.00042828143499410137,0.0006430500388454452,0.0019963770479355094,0.008731379224974559,0.9900873299420988
2014-04-09,1,0.001047997963760622,0.0013341175910817952,0.0001612291212727794,0.00761518006542315,0.9907700508936335
2014-04-11,1,0.0012185042494155906,0.0015697117572286059,0.0019963770479355094,0.00761518006542315,0.9909381629077654
2014-04-15,1,0.0020253533708114715,0.0024589100653807606,5.154991932616827e-07,0.0072932169829173785,0.9920400244199824
2014-04-17,1,0.0029212608567664345,0.003494109916189174,-0.0028326722616373277,0.00724260241733459,0.9920072680306388
2014-04-22,1,0.0026091640801770752,0.0031103406327504094,-0.003018121627686406,0.00761518006542315,0.9917467440461517
2014-04-24,1,0.0026150831361993823,0.0030849496595533425,-0.003018121627686406,0.00761518006542315,0.9916991126483901
2014-04-28,1,0.0016705821803476987,0.0020217399988026455,-0.003018121627686406,0.00761518006542315,0.994917790567825
2014-04-30,1,0.0022373213823389877,0.002669716775913358,-0.003018121627686406,0.006437550369986145,0.9954527568459872
2014-05-02,1,0.002549543049631663,0.0030165868240181965,-0.003018121627686406,0.005354556795558453,0.9953384211391211
2014-05-06,1,0.002236249158887857,0.0025995451723871054,-0.003018121627686406,0.005747788935672743,0.9943631611668086
2014-05-08,1,0.002293629516797226,0.002643016595388542,-0.0026175269476356026,0.005895164020286121,0.9943433577354415
2014-05-12,1,0.0022576332989532504,0.0026247771383672317,-0.00122930183401258,0.008984751699858712,0.9941871591148765
2014-05-14,1,0.0023133261224462082,0.0026201408526186775,-0.00122930183401258,0.008381549984910662,0.9931510795703697
2014-05-16,1,0.002536031986112063,0.0028800408923670114,-0.0007457800111761045,0.006723662344529017,0.9940384691344181
2014-05-20,1,0.0026420494486827932,0.0030037255277802406,9.159872436063324e-05,0.005400451395095832,0.9944080608691054
2014-05-22,1,0.0028128921718702524,0.003213148857528985,9.159872436063324e-05,0.00689743183820422,0.9938572521257659
2014-05-27,1,0.0026785217889625512,0.0030525706134444997,0.00029821842989950754,0.009158926010014619,0.9933879055260304
2014-05-29,1,0.002534077655292268,0.002868719051290595,0.0009312603402867014,0.010363377267419831,0.9928136290632383
2014-06-02,1,0.0028404034339460475,0.0032318957874550823,0.0009312603402867014,0.011735678357407025,0.9921210431306685
2014-06-04,1,0.0032387609630957466,0.0036316726001897224,0.0007069260866416357,0.010363377267419831,0.9931376214762068
2014-06-06,1,0.003197666607278027,0.003553511213834409,0.0009529947163060114,0.009158926010014619,0.9935537901130272
2014-06-10,1,0.003654188163286898,0.004075759822863356,0.0007069260866416357,0.009158926010014619,0.993280740060178
2014-06-12,1,0.002868583859660035,0.003180463798362832,0.0004812922189377792,0.007153499382282569,0.9936544257856712
2014-06-16,1,0.00310891768455635,0.0034666043339327043,0.0004812922189377792,0.010466494517941025,0.9933004828855662
2014-06-18,1,0.002298764735918605,0.0024442484842729546,-0.0008471462804184376,0.013023722338983534,0.9922162066638112
2014-06-20,1,0.002567041839627554,0.0027278580727446928,-0.0008471462804184376,0.01055659563777861,0.9925321482265197
2014-06-24,1,0.0023379207857417397,0.0024729878463873667,0.0005464953469957092,0.01055659563777861,0.993392283019733
2014-06-26,1,0.002705476868863613,0.002882723611659991,-0.0033047131847198452,0.0064554674675558615,0.993166726775714
2014-06-30,1,0.0028701095515865005,0.003046909405333387,-0.005968208503803888,0.00503682413549683,0.9929870199977562
2014-07-02,1,0.0033362457471990655,0.003621928956782014,-0.008449516883943818,0.00503682413549683,0.9912673560075539
2014-07-07,1,0.003350715023565603,0.003649849504360144,-0.008449516883943818,0.0064554674675558615,0.9903903105741951
2014-07-09,1,0.0038482710105180906,0.004202964493766144,-0.008578884479570323,0.0053230182970063974,0.98996484908573
2014-07-11,1,0.0030551091991019128,0.0033079739485043077,-0.008449516883943818,0.006189784845983461,0.9909700077336199
2014-07-15,1,0.003197158646838521,0.0034599562220065908,-0.008449516883943818,0.0053230182970063974,0.9908614086274969
2014-07-17,1,0.003078847004200149,0.003306024940183946,-0.008449516883943818,0.00433691437685657,0.9911391570191825
2014-07-21,1,0.0028460870270042224,0.002984439830464948,-0.008449516883943818,0.00478547901896743,0.9908775275327419
2014-07-23,1,0.003504970802003367,0.0037956472248203395,-0.008449516883943818,0.004850295182132603,0.9903621154592542
2014-07-25,1,0.0028579714954801057,0.0030711957605357113,-0.0062494075804494925,0.00583778803452256,0.9908284796327984
2014-07-29,1,0.002115386502078748,0.002235248224348908,-0.004598080615078364,0.007093106003418455,0.9918101806710545
2014-07-31,1,0.0012478647549301908,0.0012489436779936887,-0.0027846373964648423,0.00803381126454731,0.9926613572177139
2014-08-04,1,0.0016141235146080281,0.0016170024053937123,-0.004225930276875005,0.00803381126454731,0.9921773206175
2014-08-06,1,0.00034464135686948234,0.0005614967429767383,-0.004225930276875005,0.00803381126454731,0.9919465067752865
2014-08-08,1,1.806639833816428e-05,0.000288842591021194,-0.004312332597305807,0.007093106003418455,0.991940380576497
2014-08-12,-1,-0.0006593655117074595,-0.0002872271691108743,-0.006305428718308154,0.007093106003418455,0.9915016936689816
2014-08-14,-1,-0.0012718806457691196,-0.0008154215940141035,-0.006305428718308154,0.008072572433098427,0.9908329999100779
2014-08-18,-1,-0.0005878550612481135,-0.0002161013395107689,-0.006305428718308154,0.008228872888058804,0.990874120002533
2014-08-20,1,0.0006297676529479101,0.000801044004061357,-0.010740248966664732,0.008028268829573845,0.9904899871788969
2014-08-22,1,0.0004803199873274922,0.0006727900830878256,-0.012630148606366055,0.008028268829573845,0.9898724692963344
2014-08-26,1,0.0005454040435768771,0.0007348006844259762,-0.012630148606366055,0.006477195283088541,0.9902708551514395
2014-08-28,1,0.0002802789256492246,0.0005348570215688653,-0.013216360096878977,0.006259616071771764,0.9899544137066351
2014-09-02,1,0.0001647749221387238,0.0003996287503083757,-0.013216360096878977,0.0026206271003197156,0.9900308834075257
2014-09-04,-1,-0.0009014977377088899,-0.0005250638273906676,-0.013216360096878977,0.0007618259191622121,0.9903648241152119
2014-09-08,-1,-0.0010163556373158293,-0.0006949191288179911,-0.013216360096878977,0.0007893757562001152,0.9904286498708607
2014-09-10,-1,-0.0012874177821807472,-0.0009626430302081499,-0.013216360096878977,0.0023440097197899973,0.9907208346435824
2014-09-12,-1,-0.0019144071012862547,-0.001510518296272625,-0.015094831177678772,0.0016535411978015426,0.9902628795519857
2014-09-16,-1,-0.0013119870312251185,-0.0009990643934693765,-0.017882270175169093,0.0007893757562001152,0.9893422137597548
2014-09-18,-1,-0.0027705815392590986,-0.0022121522037089813,-0.015490825230277632,0.0023440097197899973,0.9885173440824349
2014-09-22,-1,-0.0031039241258208772,-0.002476349389909519,-0.012419211781915155,0.004095828289855983,0.9885594599434792
2014-09-24,-1,-0.0027756107042481762,-0.002196614019835953,-0.015848089971849673,0.0067881177908789515,0.9859766670646832
2014-09-26,-1,-0.003201642461274066,-0.002628784003531299,-0.015848089971849673,0.006876082565826693,0.9852462272224953
2014-09-30,-1,-0.003855681918755193,-0.003178792315824965,-0.015848089971849673,0.01018004614584856,0.9834035687911393
2014-10-02,-1,-0.0045641177495825466,-0.003801344843367268,-0.017233132877942627,0.01018004614584856,0.9830595533991785
2014-10-06,-1,-0.004172299750233175,-0.0034578605539900974,-0.026137535461847602,0.018656355433435533,0.9809898187669442
2014-10-08,-1,-0.0037278556403762923,-0.0030699479340288915,-0.026137535461847602,0.0227370646898405,0.9788323768474082
2014-10-10,-1,-0.006042870662584899,-0.0051534383754023635,-0.023266111579840522,0.0227370646898405,0.9789884090204781
2014-10-14,-1,-0.006218192296213084,-0.005298989647905044,-0.01369519440165796,0.0227370646898405,0.9803409515708433
2014-10-16,-1,-0.0054365856798842555,-0.004584721851174842,-0.020790927557409935,0.02037195293917468,0.9820429256345454
2014-10-20,-1,-0.0052456126695096,-0.004426513995109936,-0.020790927557409935,0.02037195293917468,0.9822614886932195
2014-10-22,-1,-0.004883344339005547,-0.004121449728772767,-0.01089784362276471,0.00962289028494713,0.9846666970753186
2014-10-24,-1,-0.003302514575418641,-0.0027790203122144285,-0.01089784362276471,0.013703777112720961,0.984679341946584
2014-10-28,-1,-0.002595364077835373,-0.002160330407160199,-0.009534314917466726,0.008088686155567109,0.9871419868404517
2014-10-30,-1,-0.0029790608761447904,-0.0025510096799565896,-0.015151631467656183,0.008088686155567109,0.9849785024722423
2014-11-03,-1,-0.00409611244270907,-0.003509574562565357,-0.01019365982226065,0.0056960887332092695,0.9869880736199353
2014-11-05,-1,-0.0016159257221028001,-0.0013290453626108641,-0.00799223360257378,0.0056960887332092695,0.9889001395178406
2014-11-07,-1,-0.0008419052992397072,-0.0006581504463934193,-0.01019365982226065,0.0032891051099956763,0.9874763194323783
2014-11-11,-1,-0.0019720531066263216,-0.0017136029031834684,-0.015151631467656183,0.0040839706306345005,0.9859767993344922
2014-11-13,-1,-0.0025193990658369703,-0.002194296452651122,-0.015151631467656183,0.0040839706306345005,0.9859561180381775
2014-11-17,-1,-0.001692937530443993,-0.001495346034980352,-0.015151631467656183,0.006285488713385399,0.9854210530464392
2014-11-19,-1,-0.0007232555334253901,-0.0006501096665608652,-0.015151631467656183,0.012805871101569308,0.9834426046871498
2014-11-21,1,5.018386721732709e-05,0.00010295144251532988,-0.015151631467656183,0.008643972876154649,0.9830115004716184
2014-11-25,-1,-0.0004017383803052577,-0.0003954198362539279,-0.012870767893852348,0.008643972876154649,0.9835714681350494
2014-11-28,-1,-0.0015926432120811004,-0.0014917744394662945,-0.007285378979785994,0.009571672332655469,0.9866094439819711
2014-12-02,-1,-0.0021926206437543924,-0.0019910133122839468,-0.008892169420735807,0.009571672332655469,0.9863527008622334
2014-12-04,-1,-0.001233590780095202,-0.0011743949063083537,-0.011095645299307335,0.006929608501621666,0.9850587223663524
2014-12-08,-1,-0.002946182415173761,-0.002720429978122692,-0.011095645299307335,0.006929608501621666,0.9866512637162653
2014-12-10,-1,-0.00278368785200796,-0.0026034045650363447,-0.011095645299307335,0.006929608501621666,0.9861327433113342
2014-12-12,-1,-0.003625320462695523,-0.003387430573338352,-0.011095645299307335,0.006929608501621666,0.9843235616494243
2014-12-16,-1,-0.0026577907793710704,-0.0024975319273528606,-0.011914066082455467,0.004227504961621864,0.9845049825186422
2014-12-18,-1,-0.001300850359485313,-0.001276745428900538,-0.011914066082455467,0.0018788991201589516,0.985267680288955
2014-12-22,-1,-0.0011927340714206014,-0.0011385491383552337,-0.013048811178691607,0.0018788991201589516,0.9852597162140537
2014-12-24,-1,-0.0004410886450489212,-0.00034607200428167793,-0.015752424947903302,0.003088833452325826,0.9836718518562287
2014-12-29,-1,-0.000332360430808896,-0.0002436700644883935,-0.019853711127301214,0.0006290998971072609,0.9806307614966565
2014-12-31,-1,-0.0006455825072877991,-0.0005835866925425127,-0.019853711127301214,0.0033099257196067366,0.9803078972975983
2015-01-05,-1,-0.002395499130700003,-0.0022579574226553067,-0.019853711127301214,0.013234719830969745,0.9789874809014486
2015-01-07,-1,-0.0031285462714082113,-0.002909684920979005,-0.0277249804899469,0.01853416522903749,0.977350138962762
2015-01-09,-1,-0.0024468137095701305,-0.0023673637561522336,-0.02938362097978439,0.01853416522903749,0.9770807430504861
2015-01-13,-1,-0.003916208607440866,-0.0037040270062687402,-0.0200759418038913,0.01853416522903749,0.9794552743163877
2015-01-15,-1,-0.003612030164686014,-0.0033886777088532115,-0.018524335186511923,0.01853416522903749,0.9784566539747694
2015-01-20,-1,-0.0023331238126740104,-0.002325964071530905,-0.018524335186511923,0.01853416522903749,0.9775379986126813
2015-01-22,-1,-0.001784600048443252,-0.0017084939944794746,-0.0284570713209705,0.01576292371120876,0.9779480478870999
2015-01-26,-1,-0.0021587035720057567,-0.0021392026152334135,-0.01375356188649118,0.01576292371120876,0.9792505315468726
2015-01-28,-1,-0.004809800170138242,-0.004519509915088349,-0.013303805311671232,0.01576292371120876,0.9810873338623439
2015-01-30,-1,-0.003684585366652572,-0.003520587400840271,-0.013303805311671232,0.01811073885925464,0.9799299658081644
2015-02-03,-1,-0.0035012293688802642,-0.003344809981606608,-0.01263972634383922,0.01576292371120876,0.9822176307355848
2015-02-05,-1,-0.003942845646233045,-0.0037283297730322453,-0.020217234397667597,0.013489146905079432,0.9829077915787081
2015-02-09,-1,-0.0026824157593870993,-0.0026704423672371663,-0.019029224684394563,0.012886967069860747,0.9844358954762796
2015-02-11,-1,-0.0034600636207511274,-0.003324494631229087,-0.019029224684394563,0.012886967069860747,0.9844475603832358
2015-02-13,-1,-0.002491103939665631,-0.00244305619285927,-0.019029224684394563,0.006433602598682959,0.9851655346463516
2015-02-18,-1,-0.00048827360754042325,-0.0002598249092490543,-0.020217234397667597,0.004741655993601409,0.9847511601661779
2015-02-20,-1,-0.0012419126083586278,-0.0011110451300186904,-0.019029224684394563,0.006433602598682959,0.9840441274638604
2015-02-24,-1,-0.001381817292948217,-0.001321086092385436,-0.019029224684394563,0.0023843415262107042,0.9835550586011542
2015-02-26,-1,-0.002522298290371992,-0.002405242877746819,-0.017610419356457904,0.0074154671129938185,0.9846889952870088
2015-03-02,-1,-0.0006973896986879309,-0.0006012890924893149,-0.017610419356457904,0.006157867994422617,0.9854230885981241
2015-03-04,-1,-0.0010303305240928077,-0.0009561384631454353,-0.017009713968115122,0.00378941783778912,0.9868132125036277
2015-03-06,-1,-0.003429322503129872,-0.003128276730832871,-0.014469360458443804,0.011189151786607322,0.9861995759239983
2015-03-10,-1,-0.004939388055007307,-0.004423724505204664,-0.008678855147100505,0.011189151786607322,0.9870891172787198
2015-03-12,-1,-0.004433456844126856,-0.004072485860087847,-0.006568710816399005,0.014443508836023813,0.9855326885438054
2015-03-16,-1,-0.005090712505197046,-0.004651799854484116,-0.0031601138478744334,0.021923404413852154,0.983750750707352
2015-03-18,-1,-0.0045446482133917184,-0.004195422556535874,-0.0031601138478744334,0.021923404413852154,0.9842496810281558
2015-03-20,-1,-0.0026450008146352384,-0.00257748481538539,-0.0031601138478744334,0.014443508836023813,0.9864746218457824
2015-03-24,-1,-0.003995177837842973,-0.003785240983741986,-0.0019263789971835901,0.01675177871313248,0.9842409403677529
2015-03-26,-1,-0.004032071469854517,-0.003765701664857366,-0.004774851255151254,0.021923404413852154,0.9821106025172603
2015-03-30,-1,-0.002960273631826136,-0.002857021172051856,-0.0125847710419358,0.021923404413852154,0.9808165132117546
2015-04-01,-1,-0.0023450461061220247,-0.0023362265693463924,-0.0125847710419358,0.023680533647438745,0.9788051863068027
2015-04-06,1,0.00021883701651276158,0.0006338564022188684,-0.0125847710419358,0.019845262248561212,0.9820520267278704
2015-04-08,1,0.0005888002091693262,0.001042937844991411,-0.01360040631620226,0.019845262248561212,0.9808548007354911
2015-04-10,1,0.001662703821924263,0.0022099552135055236,-0.017654690625928615,0.019845262248561212,0.9793521201087234
2015-04-14,1,0.001844646554694254,0.002434834834199898,-0.018864040757123283,0.016059064658035496,0.9797067434658187
2015-04-16,1,0.002634399084189822,0.0033133524467548296,-0.018864040757123283,0.012807093090691167,0.9808954400601748
2015-04-20,1,0.0033494010819390286,0.0042215105767132305,-0.018864040757123283,0.012807093090691167,0.9815930352089207
2015-04-22,1,0.002486454479883185,0.0032073064390656615,-0.017872736584553822,0.009794661537231526,0.9826429176470706
2015-04-24,1,0.002044861931163733,0.0025864802143862504,-0.01403925255417214,0.009794661537231526,0.9836927897431859
2015-04-28,1,0.0010299875606627068,0.0014287827041963089,-0.013765624339720534,0.008841776498127075,0.9854574603489028
2015-04-30,1,0.0029621967823860586,0.0036471600205674978,-0.014220658159875298,0.006112311558130012,0.9861094010248498
2015-05-04,1,0.002305365018147487,0.0028025696470574376,-0.014220658159875298,0.0070465950206293135,0.9852773981886677
2015-05-06,1,0.0020494813296062903,0.002504145288270764,-0.014220658159875298,0.0048538702150783776,0.9849052135868142
2015-05-08,1,0.002086223050865259,0.0025273366860772114,-0.013575849553331543,0.004437723191179825,0.9881754958889638
2015-05-12,1,0.0012729721638908972,0.001642470102630027,-0.013575849553331543,0.005557006462701138,0.9878861109706938
2015-05-14,1,0.0017412516009226644,0.002313442445567181,-0.013575849553331543,0.004437723191179825,0.9877073469532034
2015-05-18,1,0.0021994855777696136,0.0028808025722067998,-0.013575849553331543,0.005557006462701138,0.9875317708926673
2015-05-20,1,0.0019565494812810837,0.0025911928224609066,-0.012654832551069143,0.005557006462701138,0.9888353529287252
2015-05-22,1,0.002706822015474486,0.003457090954797676,-0.011167339188498895,0.004353338690284079,0.9903335190876926
2015-05-27,1,0.0021852467691662342,0.0028621950897299545,-0.008802565443497374,0.004291373994700967,0.991180730584017
2015-05-29,1,0.001042306166466553,0.0014572451578908987,-0.006099289487493862,0.004954965352053247,0.9917292694463008
2015-06-02,1,0.0016298948550087016,0.0021165702902238483,-0.007558384626155405,0.004291373994700967,0.9916513383103813
2015-06-04,1,0.0009151472916907495,0.0013048892512477189,-0.006101132743114697,0.004954965352053247,0.991520766841356
2015-06-08,1,0.00014912547112984646,0.00030416510508551875,-0.007968733628988731,0.004291373994700967,0.9890704048993267
2015-06-10,1,6.17485355990647e-05,0.00016813975958304532,-0.007968733628988731,0.004291373994700967,0.9898735819420071
2015-06-12,1,3.0301925654472608e-06,0.00016710353843766234,-0.006101132743114697,0.008140802047482687,0.9895927811432627
2015-06-16,1,0.0005821605316479596,0.0008632406238239173,-0.009119289656049365,0.005916016653986703,0.9879489926222621
2015-06-18,1,0.0007357019471609516,0.0009698477606197715,-0.012527975151756316,0.005916016653986703,0.9873185130338317
2015-06-22,-1,-0.0003439418179309796,-0.0002980523113605807,-0.012527975151756316,0.007463039225007516,0.9871375583502029
2015-06-24,1,0.00014455863043157276,0.00020537363882678594,-0.018340442024234748,0.009038034860922937,0.9845715347807663
2015-06-26,-1,-0.0003202039046961387,-0.00028289491553325197,-0.018340442024234748,0.007516009439394048,0.9839402228998161
2015-06-30,-1,-0.0013214339310770576,-0.0011567553771355417,-0.017821991135450802,0.009635834441754726,0.9824914785056369
2015-07-02,-1,-0.0015821923207083532,-0.0013536055825233984,-0.017821991135450802,0.00927543775744272,0.9825258256173663
2015-07-07,-1,-0.0031794392422622225,-0.0027431240792813007,-0.017821991135450802,0.00927543775744272,0.9838695539652437
2015-07-09,-1,-0.0030373004033803007,-0.0026663291436759278,-0.014202862822238396,0.007516009439394048,0.98477461385212
2015-07-13,-1,-0.0010743467899398322,-0.0009988318465276736,-0.017589143321564138,0.005825057344550135,0.9831233144651966
2015-07-15,-1,-0.002894390689439381,-0.002592496541656993,-0.014202862822238396,0.008303954955649721,0.9844875411176492
2015-07-17,-1,-0.003266630506761163,-0.00293258681191711,-0.017589143321564138,0.008303954955649721,0.9836507466045487
2015-07-21,-1,-0.0032663069164501003,-0.002898412108778839,-0.017589143321564138,0.007263363176430329,0.9839150629440196
2015-07-23,-1,-0.0023824297201132986,-0.002201411165194319,-0.016517002881508227,0.005478193418143671,0.9851406272627246
2015-07-27,-1,-0.0042421505255119,-0.003860170980948885,-0.018212124605500375,0.005478193418143671,0.9852289608989067
2015-07-29,-1,-0.0019156686554380213,-0.0017822748678260982,-0.018212124605500375,0.0033754364264284944,0.9849431308447378
2015-07-31,-1,-0.004512794509645072,-0.004018279572216466,-0.016366535124341677,0.005929088146144991,0.9834989700071575
2015-08-04,-1,-0.005699990867036784,-0.005047497440637266,-0.016366535124341677,0.008345902478249217,0.9828567894139294
2015-08-06,-1,-0.005663346421908036,-0.005002777157627454,-0.016366535124341677,0.008345902478249217,0.9827463695202576
2015-08-10,-1,-0.004858288028015547,-0.004313032673571375,-0.013729448028523132,0.005929088146144991,0.9843804509689176
2015-08-12,-1,-0.004330953019912728,-0.003885186046878715,-0.016366535124341677,0.005929088146144991,0.982730492039588
2015-08-14,-1,-0.005766905131483025,-0.005115739913688921,-0.015683242312509577,0.005929088146144991,0.9832129021526587
2015-08-18,-1,-0.005251903974731556,-0.004681101412500259,-0.015683242312509577,0.008158210094916163,0.9817006861955607
2015-08-20,-1,-0.005631661471359165,-0.005055279289269552,-0.013587622540257185,0.008158210094916163,0.9808645990902275
2015-08-24,-1,-0.005605567936586795,-0.005024144109113964,-0.013587622540257185,0.008158210094916163,0.9813359560501125
2015-08-26,-1,-0.0033497497674893086,-0.0031280291214384,-0.013587622540257185,0.005091191566893978,0.9837685388645279
2015-08-28,-1,-0.0007468263913724268,-0.0005699862715869633,-0.01638666327812035,0.004126377369751181,0.9852866875972288
2015-09-01,0,-0.0001970878206499347,8.883439086898354e-05,-0.013587622540257185,0.005789269171024094,0.985916607012753
2015-09-03,-1,-0.0009430164778624926,-0.0007202839840417512,-0.01638666327812035,0.010252442907306508,0.9819214553170066
2015-09-08,-1,-0.0023823257301596058,-0.002296877338259289,-0.01638666327812035,0.014609615262925589,0.9792683881502152
2015-09-10,-1,-0.002711663660195065,-0.00268005171002847,-0.011947859928106807,0.014609615262925589,0.9813013112998672
2015-09-14,-1,-0.0032538610431526423,-0.0031972560797469554,-0.012793106381983527,0.014609615262925589,0.9800609086528678
2015-09-16,-1,-0.00237317740847979,-0.0023008070321402945,-0.01581343819601446,0.014609615262925589,0.9805388207680185
2015-09-18,-1,-0.004019869591846957,-0.0038722620715239946,-0.011698502419094441,0.014609615262925589,0.9819297414891258
2015-09-22,-1,-0.0035854225508984185,-0.003570666093348834,-0.010663035721401164,0.014609615262925589,0.9819463450006888
2015-09-24,-1,-0.0036301709459330206,-0.0036225374556516734,-0.007581748118785302,0.014609615262925589,0.9821210639792771
2015-09-28,-1,-0.003655174621980173,-0.0036278244773569816,-0.007581748118785302,0.012308893438730047,0.9823248426501151
2015-09-30,-1,-0.00301883268565945,-0.0029651558911492114,-0.011689240486626054,0.013185296280358137,0.9807668813558581
2015-10-02,-1,-0.0023882991656043887,-0.0022863419286112334,-0.008383994142797125,0.013185296280358137,0.9834972653159892
2015-10-06,0,-0.00016576548400216605,0.00020782998474829254,-0.008383994142797125,0.013185296280358137,0.9838035253782147
2015-10-08,1,0.00033620794309757035,0.0007855754513609176,-0.009997640567468474,0.013185296280358137,0.9838149965155294
2015-10-12,-1,-0.0013355721426925363,-0.0011340497365109406,-0.009997640567468474,0.013185296280358137,0.9845147460967584
2015-10-14,-1,-0.0005208681662948592,-0.00018005491018311184,-0.009997640567468474,0.008328297702306729,0.984620074001522
2015-10-16,-1,-0.0005407889002849881,-0.00018850518682122174,-0.009997640567468474,0.008328297702306729,0.984723952738315
2015-10-20,-1,-0.0006641014557554462,-0.00036408589966007733,-0.01216452752749864,0.008453028824751081,0.9843152534308662
2015-10-22,-1,-0.0005190275032380567,-0.00014920689076534542,-0.01930765018790363,0.014194709300844014,0.9821679090233104
2015-10-26,-1,-0.0020740603108397116,-0.0019678552902606455,-0.012157912173233504,0.014194709300844014,0.983533273299343
2015-10-28,-1,-0.0021295243801779384,-0.0019947333789543144,-0.010764398938267226,0.01585420525373965,0.9843144374843777
2015-10-30,-1,-0.0010771157968664149,-0.000791387104374595,-0.01508780024538134,0.008453028824751081,0.9852961776007916
2015-11-03,0,-3.339459644191079e-05,0.0003646210361379332,-0.017517895922147687,0.0032445372518348334,0.9866617626641243
2015-11-05,0,-5.3103839475376674e-05,0.0003706472756351241,-0.017517895922147687,0.0032445372518348334,0.9865686198524571
2015-11-09,0,-0.00017302660619662583,0.0002737927048667738,-0.019202950183563543,0.00026892662289357375,0.9838169174062937
2015-11-11,-1,-0.0007365065892774806,-0.0003736308853387728,-0.017517895922147687,0.003953284098028045,0.984895694623909
2015-11-13,-1,-0.0006559256370794284,-0.0002648630020718598,-0.017517895922147687,0.008627113604558728,0.9842880756028786
2015-11-17,-1,-0.0005124679805598939,-7.470287205040439e-05,-0.015558308424389041,0.008627113604558728,0.9837145597010974
2015-11-19,0,-0.00023291305085554196,0.00021178879047821118,-0.015558308424389041,0.003436727728021282,0.9847627486632746
2015-11-23,-1,-0.0004557081540527139,-7.4383827559214e-05,-0.015558308424389041,0.01024451594728571,0.9838051909128637
2015-11-25,-1,-0.0005607926943677503,-0.00026115429230576216,-0.015558308424389041,0.01024451594728571,0.9840060207516653
2015-11-30,-1,-0.0009747128074118918,-0.0007747431118262101,-0.015558308424389041,0.01024451594728571,0.9839270563908195
2015-12-02,-1,-0.00036891783911404124,-3.541964215820039e-05,-0.01502329292372976,0.00869484683726542,0.9841249516187486
2015-12-04,-1,-0.001393307864661097,-0.0012715169956696547,-0.015986054948287205,0.011080614218598062,0.9818701441303693
2015-12-08,-1,-0.004795889097937944,-0.004496987458390566,-0.015986054948287205,0.011080614218598062,0.9822580024400641
2015-12-10,-1,-0.0038580698038198557,-0.003680492131882494,-0.018743431310827327,0.0093277454104577,0.9816349132976343
2015-12-14,-1,-0.004010684728425017,-0.0038213825835877718,-0.018990797644587745,0.013741156326827583,0.979880144072254
2015-12-16,-1,-0.0037266929520898347,-0.003521586324007017,-0.018990797644587745,0.013741156326827583,0.9786358860587486
2015-12-18,-1,-0.003771559824275145,-0.0037065604464061146,-0.018794790387269264,0.013741156326827583,0.9787291866685813
2015-12-22,-1,-0.0027039113682764786,-0.0026545642706905202,-0.018794790387269264,0.016584738480930453,0.97774394617389
2015-12-24,-1,-0.003014151995369401,-0.0028724566542157794,-0.02086483087092904,0.016584738480930453,0.9763638154620022
2015-12-29,-1,-0.003179474825048027,-0.003027704922234615,-0.02086483087092904,0.01919858756705574,0.9761168024442978
2015-12-31,-1,-0.0034433368071767707,-0.003283589970688515,-0.02086483087092904,0.022744363136762057,0.9737785461321838
2016-01-05,-1,-0.003658942163476326,-0.0035405735133089518,-0.029834245499002307,0.01919858756705574,0.970943834068352
2016-01-07,-1,-0.010309182907420649,-0.009088455088382602,-0.020272139851711855,0.021040149225158424,0.9729461086399421
2016-01-11,-1,-0.010626781401580718,-0.009377751673894711,-0.02116033277592575,0.021040149225158424,0.9728662278457356
2016-01-13,-1,-0.01154307049559549,-0.01004391591784698,-0.02116033277592575,0.021040149225158424,0.9746266643083386
2016-01-15,-1,-0.008137311642409231,-0.00729311093125473,-0.020071099253137107,0.021040149225158424,0.9739960585987625
2016-01-20,-1,-0.006959076533741863,-0.0063439657051683526,-0.020071099253137107,0.022744363136762057,0.9722491881992891
2016-01-22,-1,-0.003630073203774184,-0.0035216030259048402,-0.020071099253137107,0.021040149225158424,0.9751706235298468
2016-01-26,-1,-0.004084976948882183,-0.0038772357417347237,-0.019054282716587243,0.0190624249126719,0.9771476093203846
2016-01-28,-1,-0.0030224540810032687,-0.0029129199704425205,-0.021781231921329434,0.0190624249126719,0.9755222313472103
2016-02-01,-1,-0.0017010810703641632,-0.001630988677525112,-0.021781231921329434,0.016602986107672874,0.9771890560650535
2016-02-03,-1,-0.003898963148519915,-0.003634305959076498,-0.013412814918658878,0.02392269769993428,0.9789888230235134
2016-02-05,-1,-0.0038065552329935347,-0.0035285409716496107,-0.013412814918658878,0.03451592041826991,0.9751561802038842
2016-02-09,-1,-0.003884901196413624,-0.0036594324710995164,-0.013412814918658878,0.03451592041826991,0.9719067979761237
2016-02-11,-1,-0.006863430180807716,-0.0062461936331507,-0.002230099974785496,0.03839276286307821,0.9688249677177263
2016-02-16,-1,-0.0041093164909607694,-0.0038231802426072995,-0.0053242533735013454,0.03451592041826991,0.973075769569037
2016-02-18,-1,-0.0027134384030568864,-0.002584203627046656,-0.0053242533735013454,0.029484995134399828,0.9744402545929441
2016-02-22,-1,-0.0024918285404817706,-0.0023829150508743622,-0.010978931751050776,0.029484995134399828,0.9728760620850853
2016-02-24,-1,-0.0032834528138779495,-0.003129072591143078,-0.011622942176552659,0.029484995134399828,0.9728177994373701
2016-02-26,-1,-0.0017672007548180122,-0.0017355545489235974,-0.007964211671979011,0.024507475444431395,0.9752572064242223
2016-03-01,-1,-0.00040791851704979345,-5.6827410319115236e-05,-0.007964211671979011,0.024507475444431395,0.97632543753434
2016-03-03,1,0.0016396186708494977,0.002302677838767912,-0.011622942176552659,0.005596822168770048,0.9769617464742573
2016-03-07,1,0.005363007857889304,0.006361172835966825,-0.017396335333017973,0.0016310271049360286,0.9780137029722582
2016-03-09,1,0.0020311787652395946,0.0026085911752180557,-0.017396335333017973,0.0024798900832102393,0.9839627319077691
2016-03-11,1,0.0036443314955099545,0.0044565809674369135,-0.019190857851503724,0.0016310271049360286,0.9819790141558847
2016-03-15,1,0.003818353418274365,0.004603067735494654,-0.019190857851503724,0.00763741272699194,0.9798863059660878
2016-03-17,1,0.004652768296240736,0.00552596856483107,-0.020551917299062156,0.00316008693595087,0.9779444368907673
2016-03-21,1,0.002631084840390443,0.0031815925366999328,-0.019190857851503724,0.012853112435485913,0.9788395159076697
2016-03-23,1,0.0009788347653644698,0.001318361249786856,-0.018078309308763856,0.012853112435485913,0.979836476656501
2016-03-28,1,0.0017897045297036096,0.002257865212313936,-0.018078309308763856,0.018725982827726445,0.9794671039216569
2016-03-30,1,0.001843254847648089,0.0024365718466490592,-0.018078309308763856,0.019414171530187253,0.976592208363024
2016-04-01,-1,-0.0009497714064950507,-0.0006986596653993183,-0.014719441082057774,0.02740677904637594,0.9721599105605694
2016-04-05,0,-2.6524683706038174e-06,0.0002507617963250407,-0.014719441082057774,0.02740677904637594,0.9716872221302555
2016-04-07,-1,-0.0006516022940162179,-0.0005371454297401336,-0.014719441082057774,0.02740677904637594,0.9707556735254727
2016-04-11,-1,-0.0015501322391941721,-0.0015426185306364657,-0.014719441082057774,0.02740677904637594,0.9712001242305656
2016-04-13,1,0.0008609508346195755,0.001162268234975193,-0.014719441082057774,0.022020055082658717,0.9736465224812445
2016-04-15,-1,-0.0005968186433563284,-0.0004679328672756506,-0.013951463703466161,0.022020055082658717,0.9740069794462514
2016-04-19,1,0.0010520529150584096,0.0014112810833551452,-0.013951463703466161,0.020473514053282925,0.9745602822754913
2016-04-21,1,0.000473642062668419,0.0007953446620095571,-0.015684009134627322,0.020473514053282925,0.9729987604878101
2016-04-25,1,0.0011402809675196426,0.0015225378240899111,-0.015684009134627322,0.020119239167446415,0.9727858032747536
2016-04-27,1,0.003728375396896387,0.004449297109759861,-0.015684009134627322,0.020119239167446415,0.9745354872697026
2016-04-29,1,0.009230662315038381,0.010659728465318846,-0.015684009134627322,0.012613356394231159,0.9781296687823104
2016-05-03,1,0.006511963189581738,0.007432222072826122,-0.015684009134627322,0.012613356394231159,0.9796530362665401
2016-05-05,1,0.004986230684605133,0.005723067262754373,-0.011752559481620729,0.012613356394231159,0.9821447300558009
2016-05-09,1,0.0034256043822453695,0.0039452736517511505,-0.009223623512773168,0.020119239167446415,0.9798720401438568
2016-05-11,1,0.005332890448831034,0.0060902981728674765,-0.011752559481620729,0.021053903323113132,0.9788664090223378
2016-05-13,1,0.003199492239277525,0.0036088047543473565,-0.011725225871871168,0.021053903323113132,0.978602943119427
2016-05-17,1,0.005383875710978243,0.006147086291656067,-0.012672858225123955,0.012621891661569948,0.9786908945902124
2016-05-19,1,0.0038336159933289593,0.00439499307419211,-0.009502089396778591,0.021053903323113132,0.9802919003138383
2016-05-23,1,0.004054138618164608,0.004614923675937083,-0.009071624742806515,0.015486733880497457,0.9810830604154401
2016-05-25,1,0.004975701967069328,0.0056180036285844144,-0.009071624742806515,0.015486733880497457,0.9813044765357939
2016-05-27,1,0.004654944182997478,0.005261589610029862,-0.014083830735070156,0.015486733880497457,0.9748204717351803
2016-06-01,1,0.0031726265403157006,0.0034274773846629234,-0.012672858225123955,0.021856386608368885,0.9751922326737672
2016-06-03,1,0.0024563401618070066,0.0025693797934660902,-0.012672858225123955,0.024360608984917667,0.9736149866286117
2016-06-07,1,0.005621430833446376,0.006103947648748808,-0.018269338493720717,0.020569588319242563,0.9744927028653823
2016-06-09,1,0.0059282261145365,0.006522998059254464,-0.015046533275010808,0.022267668936871824,0.9751605286423022
2016-06-13,1,0.0043570916864048076,0.004733035787628551,-0.012457703347000047,0.024360608984917667,0.9746708376122526
2016-06-15,1,0.003909582572642197,0.004312341247085813,-0.013908424030494075,0.024360608984917667,0.9746605118869763
2016-06-17,1,0.004779792006816556,0.005253805632386761,-0.01492842712861255,0.022267668936871824,0.9755551679205987
2016-06-21,1,0.005034001711800296,0.005548885709271296,-0.01492842712861255,0.022267668936871824,0.9752869806993036
2016-06-23,1,0.005871520250450005,0.006555440028744227,-0.01862582731153078,0.014482263562817253,0.9751004342793294
2016-06-27,-1,-0.0001523016941949486,-7.933154611003266e-05,-0.014866221211519601,0.01961709636318979,0.9802734089127861
2016-06-29,1,0.001067930603257986,0.0011297810126032664,-0.018529797563418257,0.01961709636318979,0.9799719787491972
2016-07-01,1,0.0015655286711501223,0.001621939559977198,-0.01862582731153078,0.009952726720305352,0.9800816981430216
2016-07-06,-1,-0.002360597230736874,-0.001858022263906641,-0.014854946601179742,0.015928797773661674,0.9831554881462757
2016-07-08,-1,-0.0007455318143393581,-0.0005340691288524001,-0.014854946601179742,0.015928797773661674,0.9834735727023731
2016-07-12,1,0.0012070128902111198,0.0012925336816477662,-0.014854946601179742,0.015928797773661674,0.9846174731743672
2016-07-14,1,0.0003154590561960757,0.0003591164111899623,-0.014854946601179742,0.015928797773661674,0.9844797876651301
2016-07-18,-1,-0.0006035696271068355,-0.0003922641008213859,-0.010038236640596838,0.02002684784841657,0.9836009199510674
2016-07-20,-1,-0.0010075222546350063,-0.0007586759583865318,-0.009426168767583773,0.02002684784841657,0.9835921427782648
2016-07-22,-1,-0.0018031685754094653,-0.001492696209807673,-0.007221021768863261,0.023693405298418294,0.9824906305927742
2016-07-26,-1,-0.0006395336902660755,-0.0006186384581204029,-0.007221021768863261,0.023693405298418294,0.983987013207462
2016-07-28,1,0.001665663100583033,0.0021329240698330695,-0.007198347569097187,0.01708771649029588,0.9863504086319794
2016-08-01,-1,-0.0022700854879309116,-0.002018660576561133,-0.007198347569097187,0.01708771649029588,0.9860849313284764
2016-08-03,1,0.00022652081838933966,0.0003550976397693139,-0.009629912358898129,0.007102994992940047,0.9870224979521409
2016-08-05,1,0.0006580747093933911,0.0008213460126819114,-0.011000344378692803,0.007102994992940047,0.9869816979661555
2016-08-09,1,0.0013067871091648306,0.0015934323987664202,-0.011000344378692803,0.007102994992940047,0.9873859573035494
2016-08-11,1,0.0003665612027499998,0.00042012825418481954,-0.011000344378692803,0.007881925356275318,0.9846618719984056
2016-08-15,1,0.0006471639228249714,0.0006530791630233979,-0.015097868532959288,0.007881925356275318,0.983528735310645
2016-08-17,1,0.0005638734173848428,0.0005706597601286605,-0.01603313566007599,0.01470266722014741,0.9818094136540468
2016-08-19,1,0.0007266836997153801,0.000732492095974297,-0.01603313566007599,0.007881925356275318,0.9827717280519794
2016-08-23,-1,-0.0005743664279378726,-0.00035823642853085864,-0.01569361941562615,0.01470266722014741,0.9808986817450244
2016-08-25,-1,-0.001242350139195629,-0.000915707290458754,-0.01569361941562615,0.018583509469168095,0.980116415975869
2016-08-29,-1,-0.002607014100064772,-0.0020924023458985122,-0.014984696451476008,0.018583509469168095,0.9806220960888555
2016-08-31,-1,-0.004236283926379467,-0.0034476912030152276,-0.014416283719457895,0.021257956949398284,0.9766071359082866
2016-09-02,-1,-0.0032126664854981923,-0.0026577026564552717,-0.014493407530751743,0.021257956949398284,0.9773130952224544
2016-09-07,-1,-0.004043513414168483,-0.003263481227250041,-0.014493407530751743,0.02229884186715806,0.9766328747226467
2016-09-09,-1,-0.00392449357377685,-0.003233822383979866,-0.013992690317462487,0.018583509469168095,0.9804667322570652
2016-09-13,-1,-0.004543746866638216,-0.003731522735057985,-0.013992690317462487,0.018583509469168095,0.9813815874947218
2016-09-15,-1,-0.0043797119914462555,-0.0036326076270530206,-0.013992690317462487,0.017320400465923622,0.9819346077259634
2016-09-19,-1,-0.0032237240296723643,-0.0026598584942923134,-0.01343522698621044,0.017320400465923622,0.982448392530969
2016-09-21,1,0.0018891893344806909,0.0022281400392728566,-0.013275311740704263,0.015490135183025042,0.9842637770859741
2016-09-23,1,0.0008922032280278785,0.0010323819279459434,-0.0077552052973964315,0.0103544427530468,0.9853917809975559
2016-09-27,-1,-0.00028172358775225507,-0.00018373300887651513,-0.0077552052973964315,0.0103544427530468,0.9850630269123404
2016-09-29,1,0.002062152232987416,0.0021442776940165205,-0.013902407189341718,0.006547492958212374,0.9851861301169142
2016-10-03,1,0.0018512049599854175,0.0019967912211184104,-0.016496851611037804,0.006547492958212374,0.9838459492264825
2016-10-05,1,0.0014254199493949674,0.001442321808882342,-0.016496851611037804,0.005714133796175047,0.9849824095812116
2016-10-07,1,0.002089870751975577,0.0022661063279407166,-0.016496851611037804,0.006547492958212374,0.9830655004900671
2016-10-11,1,0.0010196816936129875,0.001095438892268504,-0.015824952968228004,0.006547492958212374,0.984124037551971
2016-10-13,1,0.0006502895465706666,0.0007615432912191755,-0.015267913415570442,0.011119598253028348,0.983230683981198
2016-10-17,1,0.0009489400698602926,0.0009625571790469857,-0.015267913415570442,0.01227712330227913,0.980851497883396
2016-10-19,1,0.0012418681701048574,0.0012467102580882205,-0.015824952968228004,0.013325156619433893,0.9792290859196239
2016-10-21,1,0.0008534307898573668,0.0009278102918630415,-0.015824952968228004,0.013325156619433893,0.9796692845010538
2016-10-25,-1,-0.00022897987053473905,-2.1003714241601967e-05,-0.015267913415570442,0.022044434196088085,0.9791813746016511
2016-10-27,1,0.0012564054913894913,0.0015414408964787055,-0.012243786089527066,0.022044434196088085,0.9826876279110084
2016-10-31,1,0.00023268170358253223,0.0003380370800773532,-0.011311394052470268,0.022044434196088085,0.9833210012301911
2016-11-02,-1,-0.0007673918059132892,-0.0006601534065938723,-0.010496647700368776,0.030578688837521194,0.9801787589609402
2016-11-04,-1,-0.0006550603155881327,-0.000528878708320749,-0.008140965500400669,0.026160588745490355,0.9807682776085849
2016-11-08,0,-5.267372886270103e-05,4.910352893043433e-06,-0.003984765523860071,0.026160588745490355,0.9811572598585472
2016-11-10,1,0.0012187540732378922,0.0014572404327037442,-0.003984765523860071,0.017022257394751918,0.9830583991212825
2016-11-14,1,0.0028475953559913745,0.003312537254904747,-0.0025887158242243907,0.013195278564688589,0.9853100465606381
2016-11-16,1,0.00028356930300460015,0.0003526832327498899,-0.0025887158242243907,0.009159819246181356,0.9863420119933806
2016-11-18,1,0.0009702279915059529,0.0010572523419818123,-0.007274859472930789,0.009159819246181356,0.9850531197970466
2016-11-22,1,0.0021680649492198893,0.002475860993510291,-0.007274859472930789,0.007999113288089459,0.9866549030215613
2016-11-25,1,0.0005791095368989059,0.000644927076130146,-0.007307027538528007,0.007999113288089459,0.9863590739964391
2016-11-29,-1,-0.00012213641802000675,-9.44005660262194e-06,-0.0033657025786215603,0.009214682187642907,0.9861497562804793
2016-12-01,1,0.0026469493376361846,0.0029586530325119527,-0.007032393615048791,0.007999113288089459,0.9898112749711909
2016-12-05,1,0.0032124629195757573,0.0035535322593081013,-0.007032393615048791,0.008511120260796128,0.9899199521118964
2016-12-07,1,0.0031734285068464336,0.0035026300472525574,-0.007032393615048791,0.008109292132558274,0.9903711696878882
2016-12-09,1,0.0032532860331212546,0.0035556064468443187,-0.011073927040970887,0.007635668600660688,0.9892122941369934
2016-12-13,1,0.0028985797568746472,0.0030991626240843787,-0.011073927040970887,0.008109292132558274,0.9880992085389998
2016-12-15,1,0.002411143139709321,0.00252967696446946,-0.011073927040970887,0.008109292132558274,0.9881263157751549
2016-12-19,1,0.0016530831189672456,0.001725277906454759,-0.009779500195163235,0.00867706796981792,0.9889676561442591
2016-12-21,1,0.0007293306678347692,0.0008499087703366448,-0.011073927040970887,0.010618778111578504,0.9870309557176137
2016-12-23,1,0.0009734681640349621,0.0009794602589055217,-0.009779500195163235,0.014520571986268407,0.9861602638290368
2016-12-28,1,0.0007305447618371346,0.0007708515154997356,-0.009838507545496793,0.013588849444322378,0.9869208781511435
2016-12-30,1,0.0004675680247629853,0.0005102625575931934,-0.010219381951088497,0.013588849444322378,0.9856489449555823
2017-01-04,1,0.0010709111743653855,0.0010881957077084918,-0.013032791854264779,0.013588849444322378,0.985098289437544
2017-01-06,1,0.0016980055967296104,0.0018454605544506765,-0.01733825348877388,0.016259283770702432,0.9831888533342975
2017-01-10,1,0.0005145635095274122,0.0005641149211763123,-0.013032791854264779,0.01795640132410979,0.9823861589666586
2017-01-12,1,0.0012115656287288762,0.0013082537655322653,-0.013032791854264779,0.016259283770702432,0.9830550250212179
2017-01-17,1,0.0004098154857912007,0.0004381915695059099,-0.010219381951088497,0.01795640132410979,0.982858270925611
2017-01-19,1,0.0003058298066772881,0.00033618081041969093,-0.010219381951088497,0.01795640132410979,0.9832585554989683
2017-01-23,1,0.0002567821873861088,0.00034115464420038627,-0.010219381951088497,0.016259283770702432,0.9841713221664335
2017-01-25,1,0.0012705484885595132,0.0013674132622692476,-0.013298310064019093,0.01316415494199445,0.9837456353192586
2017-01-27,-1,-0.0005430959331505442,-0.0003119617381491213,-0.008850651146318122,0.019771209255557518,0.9832503511281541
2017-01-31,-1,-0.0008783465561378682,-0.0006221684220145035,-0.008563241266808432,0.020746125181943416,0.9828298275398945
2017-02-02,-1,-0.0015505733700224512,-0.0011578730385374775,-0.008563241266808432,0.020746125181943416,0.9829394189110562
2017-02-06,-1,-0.001924630311341177,-0.0014980041067976684,-0.013046664629734396,0.0137396217776402,0.9841645797441877
2017-02-08,-1,-0.0006835163372741783,-0.00041315268708825724,-0.014858597227570144,0.007526873103786592,0.9846062915848751
2017-02-10,-1,-0.0015717299120627084,-0.001159447807876898,-0.014858597227570144,0.006487526404675225,0.984907588191109
2017-02-14,1,0.00028039442897595274,0.0003910778377899934,-0.014858597227570144,0.006487526404675225,0.9840484118147601
2017-02-16,-1,-0.0007921208850665251,-0.0005079388248920124,-0.014858597227570144,0.006487526404675225,0.984384412887659
2017-02-21,-1,-0.0015311812207699092,-0.0011540971654059973,-0.013046664629734396,0.004782878946050939,0.9854436598436807
2017-02-23,1,0.0008427074543010892,0.0009837474301599995,-0.009850433514556278,0.004006617449932055,0.98647642341898
2017-02-27,1,0.0014889638683069316,0.0016884656869439482,-0.009850433514556278,0.002670325520669532,0.9877665916359647
2017-03-01,1,0.0018352618645352294,0.0021068469079282806,-0.0080434091377351,0.004006617449932055,0.9878424660477324
2017-03-03,1,0.0010015768659201079,0.001138700891326008,-0.007484550937245081,0.004006617449932055,0.9894205994252177
2017-03-07,1,0.0004886503486126214,0.000555331546528819,-0.0068688639126932224,0.004006617449932055,0.9901567974502254
2017-03-09,-1,-0.0003288426410986366,-0.00027654009250750126,-0.0068688639126932224,0.004782878946050939,0.9912676406913944
2017-03-13,-1,-0.0004572611343514364,-0.0003783744308645224,-0.007484550937245081,0.004800798722230014,0.9908782445357428
2017-03-15,1,0.000619779752895014,0.0006946418054591505,-0.00836918327581305,0.00199800371199354,0.9911465263178271
2017-03-17,1,0.00025000786380934166,0.0002849988463770486,-0.00836918327581305,0.0006997845872423421,0.9911225601732253
2017-03-21,-1,-0.00014911705722499632,-0.00010295429461635886,-0.011019546926384838,0.0006997845872423421,0.9894856696904206
2017-03-23,-1,-0.0017019951907782033,-0.0013608966058373461,-0.011588344194249903,0.0006997845872423421,0.9891518396877864
2017-03-27,-1,-0.0018990695505743656,-0.001455953226558921,-0.011588344194249903,0.007318609302486727,0.9876179480777071
2017-03-29,-1,-0.001022954497371649,-0.0006680317597891612,-0.014101132185480507,0.0021100211325739684,0.9877829367193889
2017-03-31,-1,-0.0015738082449191326,-0.0011706179644109652,-0.018254709997569358,0.0015212954168454308,0.987383807857266
2017-04-04,-1,-0.0019759706220663685,-0.0015139612396449103,-0.018254709997569358,0.005520217767004445,0.9870514880458665
2017-04-06,-1,-0.0017076130585687319,-0.0013434522461388298,-0.018587331079395263,0.005520217767004445,0.9854092124390363
2017-04-10,-1,-0.0015291857133327038,-0.001264349738135974,-0.018587331079395263,0.0010471444522243724,0.9855797014057058
2017-04-12,-1,-0.002453116763858206,-0.0020815154017096178,-0.01768275397298361,0.0060877454805299,0.98659236098298
2017-04-17,-1,-0.0025231924372250618,-0.0021466233148296943,-0.01768275397298361,0.0060877454805299,0.9863315197094712
2017-04-19,-1,-0.0032969144420588585,-0.002861195686369425,-0.01698194627573521,0.0060877454805299,0.987159543058591
2017-04-21,-1,-0.004318476344414882,-0.003784807904102747,-0.010927873450829953,0.00986098389371662,0.985957122827932
2017-04-25,-1,-0.004581513723933523,-0.003973414968931176,-0.010927873450829953,0.0060877454805299,0.9873158088741768
2017-04-27,-1,-0.003829855792154368,-0.0034703524493946442,-0.015730815693882596,0.005021513406749299,0.9863217811796112
2017-05-01,-1,-0.0034647835114183043,-0.0030890270499828237,-0.010625655343442893,0.0050882463563865325,0.9868342730557013
2017-05-03,-1,-0.0031867041964298995,-0.00285617752493235,-0.008425438327184981,0.0050636929607524445,0.987533347142357
2017-05-05,-1,-0.0023044303743556477,-0.002093233609371988,-0.008218451812132068,0.0050636929607524445,0.9894777760050749
2017-05-09,-1,-0.0027167096361025403,-0.002469263809970861,-0.005944808611712639,0.005277626142385231,0.9888507332372566
2017-05-11,-1,-0.002669121652421228,-0.0024156135634145854,-0.0019856102769467408,0.005277626142385231,0.9869760597419222
2017-05-15,-1,-0.00279908790075345,-0.002467423659709184,-0.0019856102769467408,0.005556890919188808,0.9866941974288367
2017-05-17,-1,-0.0030186216858291894,-0.002679054708303032,-0.0019856102769467408,0.005556890919188808,0.985324302385636
2017-05-19,-1,-0.0016636228458427082,-0.0014638089985117217,-0.0030794200312430197,0.005277626142385231,0.9867426423241737
2017-05-23,-1,-0.0018156147478057068,-0.0015830465858481637,-0.013014467139759133,0.005277626142385231,0.9851962133555014
2017-05-25,-1,-0.0051585912774357555,-0.0045325328508536355,-0.006967538412470319,0.005277626142385231,0.9871520375883752
2017-05-30,-1,-0.004394821501375847,-0.0039181663316244205,-0.006967538412470319,0.004922199407013693,0.9872754107436768
2017-06-01,-1,-0.0040544227215235555,-0.003638127747372816,-0.006967538412470319,0.005556890919188808,0.9862958138968647
2017-06-05,-1,-0.004255440405819492,-0.0037656076514720007,-0.006967538412470319,0.008225104084293652,0.9845311786055816
2017-06-07,-1,-0.0038367821287697374,-0.0034182064800138585,-0.009821834809959285,0.008225104084293652,0.9837765194190273
2017-06-09,-1,-0.002323414018182768,-0.0020791624167572427,-0.009821834809959285,0.008225104084293652,0.9854420424739679
2017-06-13,-1,-0.00244863313667422,-0.0021853272355131033,-0.009821834809959285,0.016084344461293833,0.9850566586858297
2017-06-15,-1,-0.004476532265916538,-0.004001098938383363,-0.008529710261161935,0.016084344461293833,0.9859885704373403
2017-06-19,-1,-0.0030908862251524086,-0.0028298886997150463,-0.008529710261161935,0.01215674095785865,0.987276751538301
2017-06-21,-1,-0.004625123206108644,-0.004151563439556533,-0.006802154916303171,0.016084344461293833,0.9852197106529755
2017-06-23,-1,-0.005219107872503213,-0.0046529048814259975,-0.008144903476123268,0.016084344461293833,0.9846132743784675
2017-06-27,-1,-0.005068911472250328,-0.004503794494751138,-0.008144903476123268,0.016084344461293833,0.9843168954176235
2017-06-29,-1,-0.004185270684757647,-0.0037194244160394935,-0.00971046451487953,0.012894893461866437,0.9846369059189902
2017-07-03,-1,-0.0015330096827853306,-0.0014720500878883966,-0.01435577036061022,0.011077910312854707,0.9854110888096315
2017-07-06,-1,-0.003192025096918231,-0.0029401436101753682,-0.009293492117730204,0.011337186509667694,0.9862655429043852
2017-07-10,-1,-0.001465574908421465,-0.0014431957793615484,-0.01310485316916225,0.011337186509667694,0.9847549738389969
2017-07-12,-1,-0.0014048061076561858,-0.0013859359352779476,-0.015840274012683044,0.011077910312854707,0.984342394822952
2017-07-14,-1,-0.0008323385111899013,-0.0007867912747617469,-0.015840274012683044,0.00699163052408068,0.9845660349803421
2017-07-18,-1,-0.00026724757958361176,-0.00012568757963471298,-0.015840274012683044,0.010945448488778441,0.9839557463496087
2017-07-20,1,0.0007594426640305408,0.001113365039506022,-0.015437361650990149,0.00648117587376734,0.9860952659574002
2017-07-24,1,0.000470976759787714,0.0008601387902360796,-0.015032743557101918,0.009951960763399307,0.9868613358227578
2017-07-26,1,0.0003912126536413557,0.0006632215661806825,-0.015032743557101918,0.006631286191634086,0.9873636381987511
2017-07-28,0,-5.254852175971662e-05,0.0001131969138085311,-0.014838145832261604,0.006631286191634086,0.9876668291989134
2017-08-01,-1,-0.001426600123212495,-0.0013353278775022506,-0.010863561391728126,0.006631286191634086,0.9892818448602225
2017-08-03,-1,-0.0005160893136867945,-0.00048159967116806186,-0.010863561391728126,0.0060280901472311455,0.9898037398778571
2017-08-07,-1,-0.000541770399771457,-0.00037136808270275606,-0.008020839884566556,0.0060280901472311455,0.9916679233266777
2017-08-09,-1,-0.0012883958949152013,-0.0012277943876857762,-0.003702907413751829,0.00782813226254098,0.9920282246665112
2017-08-11,-1,-0.0018025669364225899,-0.0017980664014290515,-0.0032479033232433578,0.009951960763399307,0.9915574285970669
2017-08-15,-1,-0.0017537590052670142,-0.0017335256481582836,-0.002964633874897929,0.01399242869788653,0.9899327270252634
2017-08-17,-1,-0.0016720714948347329,-0.0016696830630314337,-0.0004960601749954493,0.014652643067051453,0.9898797939845423
2017-08-21,-1,-0.00039354911309897754,-7.849560235208416e-05,0.0005759228937330546,0.014652643067051453,0.9902473623569292
2017-08-23,0,-0.00023624901683334213,7.195121380602779e-05,0.0005759228937330546,0.014652643067051453,0.9898695184182879
2017-08-25,0,-2.551017204835231e-05,0.0002983499496144134,0.001342918578338412,0.014017394398793567,0.9902651192510239
2017-08-29,0,-0.0001511034609242483,0.0001762354873524731,0.0026160291701799536,0.014017394398793567,0.9896851304009786
2017-08-31,1,0.0003082111285574935,0.0006967480080465774,0.0012596306064458656,0.014017394398793567,0.9894107340074845
2017-09-05,1,0.0007033246884758417,0.0010564858450860734,-0.004160251473082765,0.012647594894625372,0.9897127485743064
2017-09-07,1,0.001321510545987775,0.0017556384995595033,-0.004160251473082765,0.012647594894625372,0.9896128862439253
2017-09-11,1,0.0010290582380282022,0.0013276061529085355,-0.004861633635585163,0.011911302517286167,0.9887474407072039
2017-09-13,1,0.00240731481647264,0.002847674079305559,-0.006850021506720592,0.009449978708088847,0.9909042079424873
2017-09-15,1,0.003780005918234534,0.004459936556736731,-0.008746615253156205,0.00931167980568156,0.9904558050589881
2017-09-19,1,0.004032561927953902,0.004716880571887709,-0.008746615253156205,0.009098016119957378,0.9904799487715806
2017-09-21,1,0.003413797816039098,0.00396392548112109,-0.010840185061697222,0.008141044760307213,0.9898099091208409
2017-09-25,1,0.0038359595949937096,0.00441093563117042,-0.010840185061697222,0.005720536787080706,0.9894055544401985
2017-09-27,1,0.004491609154578979,0.005194912670234614,-0.010840185061697222,0.0035421616569570823,0.9892427384424465
2017-09-29,1,0.0036534588927931407,0.004191566656694548,-0.010840185061697222,0.003633630900810277,0.9894857857896957
2017-10-03,1,0.0027716549786208867,0.003206110767028164,-0.009461317452769239,0.0062059878636409535,0.9893655071033289
2017-10-05,1,0.003841966785376903,0.0044265945821276,-0.011777565113029279,0.0025722954616894415,0.9883314328479957
2017-10-09,1,0.002611264630738218,0.002996399216179328,-0.009461317452769239,0.003058645425560917,0.9876012969135881
2017-10-11,1,0.003398483236991957,0.003979127433429304,-0.011314408656931174,0.003058645425560917,0.9869439746972646
