JNU-Tangyin/eata/results/Batch4_SP500/Batch4_SP500-NTRS.csv
Date,Action,Predicted_Q25,Predicted_Q75,Actual_Q25,Actual_Q75,RL_Reward
2010-12-14,0,0.0,0.0,-0.004258027635957505,0.009493800666975541,0.9931627792045503
2010-12-16,-1,-0.00023079233271726155,-0.00018510320553582953,-0.004441445589213115,0.007481298545824155,0.9928457633463179
2010-12-20,0,0.0,0.0,-0.005010126267693489,0.007481298545824155,0.9902384709411669
2010-12-22,0,0.0,0.0,-0.005010126267693489,0.005509220110616113,0.9911757285082632
2010-12-27,1,0.0007950271126494916,0.002335724589281215,-0.004874955175462308,0.0036309185700787875,0.9917598366731794
2010-12-29,1,0.0021252091667732097,0.0023535392337392627,-0.004874955175462308,0.0036309185700787875,0.9910475539861778
2010-12-31,1,0.0021986486429332527,0.002453844297719489,-0.006750148887174656,0.00591950705165514,0.9903094292261146
2011-01-04,1,0.0022052003792280028,0.0024645220019173402,-0.007374386083093032,0.005746842556519985,0.9900120735089453
2011-01-06,0,0.0,0.0,-0.007374386083093032,0.00342648928841046,0.9908745009491012
2011-01-10,0,0.0,0.0,-0.004874955175462308,0.005746842556519985,0.9916997334865778
2011-01-12,1,0.0017738549111190132,0.0019115419278361314,-0.006750148887174656,0.005453505096238016,0.991903338926429
2011-01-14,1,0.0015824461871666474,0.0016628822248679815,-0.004874955175462308,0.005453505096238016,0.9916311137781311
2011-01-19,1,0.0005376616280990196,0.000637022776303789,-0.0036356501458030223,0.005746842556519985,0.9937981458965953
2011-01-21,1,0.00012555069193016165,0.0002626977061495957,-0.0036356501458030223,0.005746842556519985,0.9937309174071637
2011-01-25,1,0.00013808063189494485,0.0002740387082785052,-0.004931343753994932,0.005746842556519985,0.9921082137323439
2011-01-27,-1,-0.00020284927779203044,-0.00010999367533317162,-0.005531278089000335,0.005746842556519985,0.9918347129146505
2011-01-31,1,0.0001838411412510603,0.00021553277121587843,-0.007437260187434932,0.005589960281273275,0.9917926824873408
2011-02-02,-1,-0.00016581105278701388,-0.0001401586160683119,-0.005531278089000335,0.005825672039651563,0.9917457548959243
2011-02-04,-1,-0.00011548610170902725,-8.108017272098641e-05,-0.008018897627630021,0.005825672039651563,0.991214872745516
2011-02-08,0,0.0,0.0,-0.008018897627630021,0.005066457314756577,0.9907242111232637
2011-02-10,0,0.0,0.0,-0.009556220775047874,0.005066457314756577,0.9900991999466814
2011-02-14,-1,-0.0004017577120892217,-0.00026920704477153054,-0.00988683263531997,0.0027799100844138978,0.9900508334373604
2011-02-16,-1,-0.00043642546239178496,-0.0002977865284422939,-0.010502275362799705,0.0016327477286241661,0.9902526011479761
2011-02-18,-1,-0.00019579869501780547,-0.0001540996992216145,-0.010502275362799705,0.0025300084745459683,0.9900715705337794
2011-02-23,-1,-0.0005111681885732902,-0.0004558485705731804,-0.009556220775047874,0.0025300084745459683,0.9919172812181617
2011-02-25,-1,-0.000333756484854071,-0.00026290670907482396,-0.009556220775047874,0.0044103488576679286,0.9912534425009353
2011-03-01,-1,-0.0001716439099177719,-0.00016007456600629068,-0.007606211903802685,0.004535862983147476,0.9918747941595769
2011-03-03,0,0.0,0.0,-0.007606211903802685,0.004535862983147476,0.991699794317402
2011-03-07,-1,-0.0014533259094588098,-0.0012101695076705385,-0.006807504915398192,0.010177845637519016,0.991381801619554
2011-03-09,-1,-0.0009753748738482779,-0.000787471798509881,-0.006807504915398192,0.010177845637519016,0.9918981061144662
2011-03-11,-1,-0.001253788135775534,-0.001052464276129982,-0.005661679848204775,0.010177845637519016,0.9928546645595382
2011-03-15,-1,-0.002125803875632194,-0.0017956138642439947,-0.003054745736765881,0.010177845637519016,0.993224867434546
2011-03-17,-1,-0.002473354880525247,-0.002075837813844245,-0.003054745736765881,0.00590654491344682,0.9939112974039465
2011-03-21,-1,-0.0016116505110795765,-0.0013714892943976372,-0.005583416086493029,0.0033301300612630378,0.9943107070500946
2011-03-23,-1,-0.001832465898446838,-0.0015525684078319993,-0.006429264958246333,0.005302784527813445,0.9914465056745365
2011-03-25,-1,-0.0018703459236230307,-0.00157006504404415,-0.006572713630262953,0.0052382262864775495,0.9916896774270831
2011-03-29,-1,-0.0016186845748042,-0.0013735259713584065,-0.006572713630262953,0.0072030917418943775,0.9910212093211497
2011-03-31,-1,-0.0011072141690248796,-0.000956882547879512,-0.0033106074401130672,0.0052382262864775495,0.9917060870660795
2011-04-04,-1,-0.0009760941062956875,-0.0008068583107674076,-0.006597922886471696,0.004474421190658621,0.9918319068436435
2011-04-06,-1,-0.0005065477464175801,-0.000408590843994952,-0.007413878081498734,0.004311551474249965,0.9918573880813953
2011-04-08,-1,-0.0006230269336918148,-0.0005128943760691754,-0.007413878081498734,0.004311551474249965,0.9917306843122854
2011-04-12,-1,-0.0010291676597497545,-0.0008474453671229133,-0.007529135029720696,0.004311551474249965,0.9907053444594184
2011-04-14,-1,-0.0010148231943203174,-0.0008524225960932243,-0.00877063170411366,0.005107856928685598,0.9900298401049092
2011-04-18,-1,-0.0014655771292505146,-0.001226381855294342,-0.00877063170411366,0.007560786635462599,0.9895858525011062
2011-04-20,-1,-0.002711592222762891,-0.0023372981395522784,-0.0052153016989673045,0.008060776403292462,0.9917326406119646
2011-04-25,-1,-0.002937480471484156,-0.002523641631418926,-0.008710106277793362,0.008060776403292462,0.9918098327872713
2011-04-27,-1,-0.001378505070043916,-0.0012247898555736852,-0.008710106277793362,0.005217022075770689,0.9927418390974291
2011-04-29,-1,-0.0013826369052395214,-0.0012202678680412284,-0.008710106277793362,0.005217022075770689,0.9929319622702063
2011-05-03,0,0.0,0.0,-0.008710106277793362,0.007276371959935852,0.9921486678589501
2011-05-05,0,0.0,0.0,-0.008282783741779102,0.007276371959935852,0.9923408142712584
2011-05-09,0,0.0,0.0,-0.008282783741779102,0.007276371959935852,0.9921545265666003
2011-05-11,-1,-0.0005382391671420296,-0.0005039858997565825,-0.007975748994769032,0.007276371959935852,0.9924675067615295
2011-05-13,-1,-0.0009273012426564181,-0.0008304336250803653,-0.007975748994769032,0.0072843012190841145,0.992355230894597
2011-05-17,-1,-9.034520974597659e-05,-6.221632957272315e-05,-0.008282783741779102,0.0026338770204933173,0.9917948383573634
2011-05-19,1,3.721766924280937e-05,8.709321669250747e-05,-0.008282783741779102,0.0026338770204933173,0.9918019101832143
2011-05-23,1,6.417671243922672e-05,0.00011941955986693198,-0.006598127270361421,0.0036696081912370427,0.9921912344269259
2011-05-25,-1,-0.00012147137198062914,-8.624617423482839e-05,-0.009516949261837358,0.0036696081912370427,0.9909351057897935
2011-05-27,1,1.7988396516099825e-05,6.838334484237957e-05,-0.011796615936994086,0.006016637562917214,0.9901977343192093
2011-06-01,-1,-0.00047854871333874015,-0.00046874920325697296,-0.009366099065205961,0.006016637562917214,0.9908965374042853
2011-06-03,-1,-9.31508022544794e-05,-6.872115344200697e-05,-0.008843446697057259,0.0073754708198014544,0.9906331428222968
2011-06-07,-1,-0.00015169889743765958,-0.00011995729768806612,-0.011796615936994086,0.0073754708198014544,0.9900866597568501
2011-06-09,0,0.0,0.0,-0.012336565956018565,0.0073754708198014544,0.9900304177844393
2011-06-13,0,0.0,0.0,-0.013365379867855154,0.006836369246076675,0.9898756702220449
2011-06-15,-1,-0.0013444823090422962,-0.0012278825020846996,-0.013365379867855154,0.006836369246076675,0.9901290704179767
2011-06-17,-1,-0.0009847498041010239,-0.000914153260277501,-0.015673648777594897,0.006016637562917214,0.9896182366580042
2011-06-21,-1,-0.0010088269807091263,-0.0009312781793655053,-0.015673648777594897,0.006836369246076675,0.9891548059393396
2011-06-23,-1,-0.0018157702585382793,-0.0016361457630458664,-0.012650630990570089,0.008439817971649824,0.9883428540627002
2011-06-27,-1,-0.0019460483027535667,-0.0017490552565803427,-0.009632745406071855,0.008439817971649824,0.9888180276766044
2011-06-29,-1,-0.0011636461868175475,-0.001058359773010053,-0.015673648777594897,0.00615543094948091,0.9890320646571601
2011-07-01,-1,-0.0006217500181390262,-0.0006048885168215801,-0.015673648777594897,0.005777377416845742,0.9893365042007854
2011-07-06,-1,-0.0010741722820241744,-0.0009915630799203793,-0.015805926023720544,0.006168951858875987,0.988131959540239
2011-07-08,-1,-0.0009792609033012238,-0.0009256250816705025,-0.01702167961250833,0.005777377416845742,0.9867028129031966
2011-07-12,-1,-0.0005260238508295631,-0.0004643289822413661,-0.017133531814209242,0.005777377416845742,0.9819324318793589
2011-07-14,-1,-0.0009655294774779418,-0.000937469281806501,-0.017251179944994005,0.006168951858875987,0.9779525867436971
2011-07-18,-1,-0.002109768897050741,-0.0019468808489539135,-0.013139368012779196,0.008552683790028527,0.9771818754376449
2011-07-20,-1,-0.0013942655748426652,-0.0013116118697385428,-0.013139368012779196,0.006168951858875987,0.9776544123972241
2011-07-22,-1,-0.0005328924893295098,-0.0005237942576673092,-0.021885164348331026,0.0054726107029830036,0.9763798729379627
2011-07-26,-1,-0.00044356134622496453,-0.00041460308733814994,-0.021885164348331026,0.007702079414917243,0.9747814073215855
2011-07-28,-1,-0.0013399582129210068,-0.0012437064737613598,-0.021807492684488398,0.013165847665613838,0.973758585803513
2011-08-01,-1,-0.0006124032723986173,-0.0005841182412151747,-0.021807492684488398,0.02592304197902117,0.97198535074199
2011-08-03,-1,-0.001609851224040426,-0.0014879210625697132,-0.013113477458164987,0.02592304197902117,0.9737796923181451
2011-08-05,-1,-0.0031156646492455143,-0.0027967724863040095,-0.013113477458164987,0.02592304197902117,0.9745422416489277
2011-08-09,-1,-0.004071312816132294,-0.003646121669422966,-0.01264108415787547,0.02592304197902117,0.9781214119164747
2011-08-11,-1,-0.004977564784923217,-0.004467244455714473,-0.014707281751979955,0.013165847665613838,0.981095766233917
2011-08-15,-1,-0.004721497408534831,-0.004252221260987914,-0.014707281751979955,0.00978702110435642,0.9820589527345687
2011-08-17,-1,-0.004871301598444916,-0.004398757712097059,-0.014707281751979955,0.018588249051007588,0.9802742447606907
2011-08-19,-1,-0.006549847677650329,-0.005889860598188076,-0.011367110912605519,0.018588249051007588,0.9813601161083081
2011-08-23,-1,-0.004499734400956919,-0.004092926142636344,-0.01635796749242478,0.01296749764032888,0.9828212122885714
2011-08-25,-1,-0.0033830004932694302,-0.0031494079774539866,-0.022787601348572765,0.008396354356909056,0.9831611722882265
2011-08-29,-1,-0.0013101403655523844,-0.0012662619433514955,-0.022787601348572765,0.0124376790133304,0.9829710308868438
2011-08-31,-1,-0.0016858028841828087,-0.0016706414395177135,-0.02280675392647154,0.01564241582998889,0.9805819042984789
2011-09-02,-1,-0.0029068821312998447,-0.0027529578832538697,-0.02354008512544423,0.01564241582998889,0.9804385248577716
2011-09-07,-1,-0.001521947740136538,-0.0015061381986590672,-0.02354008512544423,0.01564241582998889,0.9793438371349776
2011-09-09,-1,-0.003368346018649011,-0.0031805043929536286,-0.02280675392647154,0.01564241582998889,0.9797762936275523
2011-09-13,-1,-0.003717194068070925,-0.003423516037305373,-0.02280675392647154,0.018588249051007588,0.9780230403736797
2011-09-15,-1,-0.0021164880749069753,-0.002014489309920502,-0.02415913535375049,0.016158874192141636,0.9777842774049543
2011-09-19,-1,-0.002804980945838599,-0.0026564293814264144,-0.02280675392647154,0.016158874192141636,0.97885773834862
2011-09-21,-1,-0.0032853091886423,-0.0030956222292739654,-0.02280675392647154,0.020234662647840455,0.9766907874744051
2011-09-23,-1,-0.0034577741005273805,-0.0032368409274725536,-0.022127042377176664,0.026051019499857515,0.9752393048689701
2011-09-27,-1,-0.0023433959491537416,-0.00223402557205002,-0.023997097729814364,0.02324014703512211,0.975347936410296
2011-09-29,-1,-0.0014584354222472193,-0.00145710013146899,-0.02337139872183153,0.023408794580004767,0.9744312312558724
2011-10-03,-1,-0.002956339455814151,-0.002770850821960021,-0.012551714633483346,0.023408794580004767,0.9745900966009458
2011-10-05,-1,-0.000542214190518096,-0.00043315057543823166,-0.02352140226014584,0.020997815701879287,0.9752335069246117
2011-10-07,-1,-0.0008132706332072115,-0.00070069425956382,-0.0220450892946134,0.022956218398039692,0.9748676213730527
2011-10-11,1,0.0007237877332487339,0.0010504110132091126,-0.0220450892946134,0.0200948952990942,0.9765394343573662
2011-10-13,1,0.00030370221378457195,0.0005431590433837862,-0.0220450892946134,0.0200948952990942,0.9757313500906746
2011-10-17,1,0.0007471527609398607,0.0010573881140197219,-0.024314953345486414,0.022956218398039692,0.9733163262887485
2011-10-19,1,0.001290502623797273,0.0016665437395636704,-0.030060793325502495,0.0200948952990942,0.974767893234182
2011-10-21,1,0.0026657479400248956,0.003198954426582291,-0.030060793325502495,0.016500442493353033,0.9759536021308829
2011-10-25,1,0.0021508785787376855,0.002612528428883638,-0.024314953345486414,0.013823750677340107,0.9766513603759043
2011-10-27,1,0.004416213462703077,0.005163894200142309,-0.026246288343450462,0.008046818097347627,0.9780474600380383
2011-10-31,1,0.003332681569991036,0.003967267443708478,-0.023068707387561126,0.01018041831499731,0.979969858613806
2011-11-02,1,0.003047514725735569,0.00363563012693475,-0.021053792363341886,0.01018041831499731,0.9799377441173645
2011-11-04,1,0.0028474110895318843,0.003384364065882844,-0.01845071805355944,0.015562407246240638,0.9797780955813419
2011-11-08,1,0.0037610267606667993,0.004435306632098011,-0.01845071805355944,0.014510952516630402,0.9797442035355849
2011-11-10,1,0.002651443413576579,0.0031814659739574725,-0.01845071805355944,0.016403003906530617,0.9800571863933787
2011-11-14,1,0.0023896722988847588,0.0028458457443229224,-0.013681484532630999,0.014510952516630402,0.9820167952062242
2011-11-16,1,0.0017496915234790896,0.002115599305191269,-0.00906180339778936,0.014510952516630402,0.9838254225897365
2011-11-18,1,0.0015629947245486668,0.0019402924465144115,-0.00906180339778936,0.014510952516630402,0.9838812169029301
2011-11-22,1,0.0010941261619817084,0.0014212662898777768,-0.00696254507169432,0.016403003906530617,0.9837663035277939
2011-11-25,1,0.0005350497107663974,0.0007789239080278245,-0.005661596804763606,0.020561148616601688,0.9837809485897606
2011-11-29,1,0.0008166367648951298,0.001096287953458752,-0.008621185209269144,0.020561148616601688,0.9832435946866722
2011-12-01,1,0.0022927443869147097,0.002756475860514373,-0.007899792815966,0.016403003906530617,0.985994140633159
2011-12-05,1,0.0034147246023309734,0.003991503607955539,-0.007899792815966,0.013722100275629265,0.9870513333978473
2011-12-07,1,0.003879086182990985,0.00448331843356436,-0.007899792815966,0.009504948266478925,0.9875913525423426
2011-12-09,0,0.0,0.0,-0.0067220809405932735,0.010356368561444552,0.9894663813017647
2011-12-13,0,0.0,0.0,-0.0025787547978408467,0.010356368561444552,0.9895780199670509
2011-12-15,0,0.0,0.0,-0.0067220809405932735,0.010356368561444552,0.9890216370772881
2011-12-19,0,0.0,0.0,-0.006021020832653275,0.01268509670188199,0.988315922867878
2011-12-21,1,0.002137556652546174,0.0025115924280604326,-0.006021020832653275,0.01268509670188199,0.9895501830804755
2011-12-23,1,0.004013496277192099,0.00472780357642656,-0.008374192144262077,0.010356368561444552,0.9893541569915493
2011-12-28,1,0.00260740258226642,0.0030629184256283437,-0.007315732650612333,0.01268509670188199,0.9890726532366408
2011-12-30,1,0.00205799019250506,0.002357284569623239,-0.007637378501234608,0.010877259653266129,0.9891144027375215
2012-01-04,1,0.0018575752213737893,0.0020511730787188664,-0.007637378501234608,0.010877259653266129,0.9890891995106982
2012-01-06,1,0.0021955830065993596,0.002450553041239466,-0.007637378501234608,0.014276360051125786,0.9876374476003343
2012-01-10,1,0.0025874659198630717,0.0028732928767699452,-0.007637378501234608,0.008233359738351514,0.9883311923690227
2012-01-12,1,0.0018121058837767706,0.001878899753642025,-0.008374192144262077,0.008038930983591016,0.9879698161878073
2012-01-17,1,0.0018479104728112324,0.0019797473871448566,-0.007780096396900977,0.008038930983591016,0.9884139316514566
2012-01-19,1,0.002161139884886581,0.0023764761817049226,-0.00598357668204963,0.008038930983591016,0.9892239820793759
2012-01-23,1,0.0033091341300952944,0.003740058521445725,-0.00598357668204963,0.00250346242969583,0.9893170096495965
2012-01-25,0,0.0,0.0,-0.005348310886892211,0.008038930983591016,0.9898060011461846
2012-01-27,0,0.0,0.0,-0.0047699790122919875,0.007697370638982782,0.9912204144316593
2012-01-31,0,0.0,0.0,-0.003060947124070605,0.007697370638982782,0.9917454719572615
2012-02-02,0,0.0,0.0,-0.003060947124070605,0.004116808189520615,0.9925665972653005
2012-02-06,0,0.0,0.0,-0.005348310886892211,0.0005148604213145638,0.9930060119990604
2012-02-08,0,0.0,0.0,-0.005348310886892211,0.004477239969312719,0.99250804486827
2012-02-10,0,0.0,0.0,-0.0038884133683299788,0.007591037374858082,0.992408197452779
2012-02-14,0,0.0,0.0,-0.00152984703289469,0.00918566028040874,0.991254600794766
2012-02-16,0,0.0,0.0,-0.000725502785638118,0.00918566028040874,0.9908570360400716
2012-02-21,0,0.0,0.0,-0.0005086573637026772,0.00918566028040874,0.9906846847740712
2012-02-23,0,0.0,0.0,-0.000725502785638118,0.007788648680903143,0.991781309526332
2012-02-27,0,0.0,0.0,-0.000725502785638118,0.007788648680903143,0.9914522368443033
2012-02-29,0,0.0,0.0,-0.0016031291801345804,0.007788648680903143,0.9910360964229398
2012-03-02,0,-4.573237659615323e-05,2.7052623697233926e-05,-0.005500191168774492,0.007591037374858082,0.9908993508911721
2012-03-06,1,0.0005500521474581932,0.0006102505388619827,0.0007373040509079112,0.0077609234082676995,0.9922988614921104
2012-03-08,1,0.0005207952876111598,0.0006062212370959795,-0.0012601751115110839,0.0077609234082676995,0.9918445535692871
2012-03-12,1,0.0008738961293193566,0.0009118384019998016,-0.008837962364472953,0.007575398111301862,0.9906081217559861
2012-03-14,1,0.0016635447741725007,0.0017584358831101675,-0.008837962364472953,0.007575398111301862,0.9904852058403883
2012-03-16,1,0.0027763783495203,0.003088105294614116,-0.009158614960968649,0.007575398111301862,0.9899894814001887
2012-03-20,1,0.002651037928889068,0.0029202840551691453,-0.009158614960968649,0.00852274555904287,0.9892824965819466
2012-03-22,1,0.0032222869035569814,0.003667769749727513,-0.008837962364472953,0.00852274555904287,0.9896790802764311
2012-03-26,1,0.0027854735891188163,0.00310751965713231,-0.009537774924539343,0.00852274555904287,0.9892142019483352
2012-03-28,1,0.0024376978648252227,0.0026804429192622595,-0.009537774924539343,0.010188176857228818,0.9893914756147537
2012-03-30,1,0.002319066706179502,0.0025385861706268215,-0.007873123057579683,0.010188176857228818,0.9897530171891088
2012-04-03,0,0.0,0.0,-0.011917305580687244,0.010188176857228818,0.9890902190380937
2012-04-05,0,0.0,0.0,-0.009608453711817849,0.010188176857228818,0.9895008167526329
2012-04-10,0,0.0,0.0,-0.0074058321180151656,0.010188176857228818,0.9907416396731086
2012-04-12,0,0.0,0.0,-0.0095308132566882,0.006329880163761425,0.99097877882224
2012-04-16,0,0.0,0.0,-0.0095308132566882,0.005485680637984706,0.991334367420828
2012-04-18,0,0.0,0.0,-0.0095308132566882,0.00485427029183607,0.9917827148278312
2012-04-20,0,0.0,0.0,-0.009560439146524295,0.00485427029183607,0.9911275039798871
2012-04-24,0,-0.00011190292345954081,0.00012056254160137958,-0.009151038068865363,0.004217523242054716,0.9922147453067607
2012-04-26,1,0.0003342049397920912,0.00046565875942074594,-0.009151038068865363,0.0032969621900776095,0.9925879545771523
2012-04-30,1,0.0010913540649300057,0.001117386548082438,-0.009151038068865363,0.0032969621900776095,0.9922119409254222
2012-05-02,1,0.0011573494900274834,0.001242710740590145,-0.009151038068865363,0.0032969621900776095,0.9916227840594124
2012-05-04,1,0.00046808958381872815,0.0005228420914659042,-0.009560439146524295,0.0032969621900776095,0.9903952150613654
2012-05-08,0,-9.549788549465644e-05,5.278814184331331e-05,-0.009118025577587433,0.0036123171058494606,0.9899154382042175
2012-05-10,-1,-0.0006739939394257175,-0.00044460846867413356,-0.009035573223197731,0.004980326729442586,0.9903059137212374
2012-05-14,-1,-0.00205560317040778,-0.0016336111770687636,-0.009035573223197731,0.007958107071164703,0.9899970066112461
2012-05-16,-1,-0.0017221416736455178,-0.0013833787666681675,-0.009118025577587433,0.009133120389594152,0.9891901718415171
2012-05-18,-1,-0.0018790720262126326,-0.0015563456558815142,-0.004949556026125609,0.010742123022260398,0.9886941675046129
2012-05-22,-1,-0.0022897876222281576,-0.0018707524651200894,-0.004949556026125609,0.012489356468084802,0.9882644435182123
2012-05-24,-1,-0.0020111265136915782,-0.0016293132726320173,-0.008687841045921654,0.014326136287388717,0.986686090537427
2012-05-29,-1,-0.0017461152691000698,-0.0014141607339318318,-0.01053086877203988,0.014326136287388717,0.9865196120988247
2012-05-31,-1,-0.0019603620036289285,-0.001619314375809357,-0.008687841045921654,0.014326136287388717,0.9876201886610794
2012-06-04,-1,-0.0028131103585053575,-0.002383343679346226,-0.004193256752525679,0.014835765116246324,0.9862591442530229
2012-06-06,-1,-0.001822436246028934,-0.0015282248492431527,-0.0038774228550051437,0.014326136287388717,0.9868079305960258
2012-06-08,-1,-0.001729693972429809,-0.0014197521226792494,-0.008687841045921654,0.014326136287388717,0.9874974021259003
2012-06-12,-1,-0.0013001484549720831,-0.001057131337606293,-0.008818877181520867,0.014326136287388717,0.9874922499557651
2012-06-14,-1,-0.0011040234687345182,-0.0009123893966947526,-0.008818877181520867,0.014835765116246324,0.9867581448052616
2012-06-18,-1,-0.0014275550098960038,-0.001162759851400567,-0.004579122854110696,0.010611645205582375,0.9877420039257695
2012-06-20,-1,-0.0007650806658253917,-0.000501492381124743,-0.011168527877084534,0.007683943093566709,0.9877622902641091
2012-06-22,-1,-0.0014387720255520748,-0.0010751131938203627,-0.011168527877084534,0.0064521530026097635,0.9888862607496497
2012-06-26,-1,-0.0010203803392901467,-0.0007571237048897356,-0.007136663374793352,0.006161627622627336,0.9892876224475827
2012-06-28,-1,-0.0014743638705042614,-0.0012522277584615534,-0.007136663374793352,0.011374070732181931,0.9877251088965878
2012-07-02,1,0.0009965985750141012,0.0010718358890350064,-0.011732316596102505,0.006674818585057475,0.988989528670366
2012-07-05,1,0.0012627793126319116,0.00133607037225319,-0.012371937565938738,-0.00010618197072099963,0.9879410891036388
2012-07-09,1,0.00043931502630177436,0.00048594800278866594,-0.012202074190215682,0.0050943390713146675,0.9873364732610679
2012-07-11,1,0.0008450759412429768,0.0008691724686585504,-0.008700899810252252,0.005059430850979844,0.9880051561386233
2012-07-13,1,0.001078382074812807,0.001122690452473243,-0.007013699709322853,0.0016293749041445477,0.9900695428178002
2012-07-17,1,0.0010654616626086365,0.0011132730056657133,-0.007013699709322853,0.0020055708587731745,0.9900676809214499
2012-07-19,1,0.00026479498436988075,0.00028958578780252013,-0.005856576513551593,0.006300579676439471,0.99049433513177
2012-07-23,-1,-0.0007989296905760452,-0.0006475110845809415,-0.005404027930453951,0.006300579676439471,0.9911925511825855
2012-07-25,-1,-0.0010070524848434102,-0.0008582883201666004,-0.0033779462608505605,0.006300579676439471,0.9914561134323315
2012-07-27,-1,-0.00016831760384273669,-4.0424172419801206e-05,-0.004663800925044346,0.0024857309229454495,0.9924147343624764
2012-07-31,0,0.0,0.0,-0.0033779462608505605,0.0024857309229454495,0.9930141589669793
2012-08-02,0,0.0,0.0,-0.003018909648807932,0.0024857309229454495,0.9941484318214495
2012-08-06,0,0.0,0.0,-0.0018591204453641912,0.004052102664987452,0.9952843782067783
2012-08-08,0,0.0,0.0,-0.0018591204453641912,0.004052102664987452,0.9948857672763529
2012-08-10,0,0.0,0.0,-0.003018909648807932,0.004052102664987452,0.9940362883655793
2012-08-14,0,0.0,0.0,-0.003018909648807932,0.006378673358428585,0.9932770703772889
2012-08-16,1,0.0015830017466052755,0.0018572396948011182,-0.003018909648807932,0.006378673358428585,0.9932819516330341
2012-08-20,1,0.001433851865922389,0.00167988218898086,-0.0034644657261561265,0.006378673358428585,0.9927628213979162
2012-08-22,1,0.0013279600737100606,0.0015602673786161295,-0.0043598702186428565,0.006378673358428585,0.9922089476230426
2012-08-24,1,0.0012597183606386886,0.0014939685182708204,-0.002926279563964443,0.00605479994722785,0.9930797393788151
2012-08-28,1,0.0009648383361241292,0.0011370627084681198,-0.0058893004721394205,0.00605479994722785,0.9918152570727089
2012-08-30,1,0.00045759738341385374,0.0005083129005498311,-0.004587932646773554,0.00605479994722785,0.9917636689710203
2012-09-04,1,0.0011932328651039813,0.0013934960782536034,-0.004587932646773554,0.006924120707312141,0.9916339469256675
2012-09-06,1,0.001644098505507011,0.001882686018156526,-0.004587932646773554,0.005996744417054726,0.9925302268964397
2012-09-10,1,0.0011900214445861364,0.0013755100914819521,-0.0056878448545891955,0.005996744417054726,0.9927126365388733
2012-09-12,1,0.0015843288424177502,0.001814183865843285,-0.007569626278444661,0.00507047624303179,0.9929472025118105
2012-09-14,1,0.00209621907287378,0.00239924330392229,-0.00822467027347626,0.0035263784828077566,0.9927583822801036
2012-09-18,1,0.0019947674565802954,0.0023056011537461517,-0.007569626278444661,0.005436497468965802,0.9925438156251185
2012-09-20,1,0.001793778596037272,0.002088295140730839,-0.0056878448545891955,0.005996744417054726,0.9929313713973583
2012-09-24,1,0.0016859545542640933,0.001952727470518967,-0.007569626278444661,0.005996744417054726,0.9917470688729582
2012-09-26,1,0.0007871062630970359,0.0009185518552043536,-0.005178846254723829,0.005996744417054726,0.9926016295615604
2012-09-28,1,0.0007508089392446876,0.0008672726884508583,-0.005178846254723829,0.005996744417054726,0.9924502087198537
2012-10-02,1,0.0009141246311677317,0.0010210466999540629,-0.005178846254723829,0.006288527398559005,0.992143940404438
2012-10-04,0,0.0,0.0,-0.00601860506520737,0.008609860673739615,0.9909959834870611
2012-10-08,0,0.0,0.0,-0.00604263047884856,0.008609860673739615,0.9897032203442234
2012-10-10,0,0.0,0.0,-0.0066316593415977855,0.008609860673739615,0.9895350044741567
2012-10-12,0,0.0,0.0,-0.005835055519197176,0.008609860673739615,0.9898971194258076
2012-10-16,0,0.0,0.0,-0.007608006503163305,0.007799807265251088,0.9901467108911142
2012-10-18,0,0.0,0.0,-0.007608006503163305,0.007799807265251088,0.9900889897483451
2012-10-22,0,0.0,0.0,-0.005835055519197176,0.007799807265251088,0.9909457124513541
2012-10-24,0,0.0,0.0,-0.004238298418753695,0.009507117068610326,0.9907991972916227
2012-10-26,0,0.0,0.0,-0.006682098954823435,0.009507117068610326,0.9908176668490908
2012-11-01,0,0.0,0.0,-0.006682098954823435,0.007142731139144622,0.9916910284225399
2012-11-05,1,0.9995242087281658,1.0011997248371005,-0.006682098954823435,0.006842053237948476,0.4996535542606271
2012-11-07,-1,-0.0008269525862659965,-0.0006255581813825291,-0.003709377380952731,0.006842053237948476,0.9940181768006138
2012-11-09,-1,-0.001003402263908348,-0.000790963692395841,-0.002564070378887503,0.006842053237948476,0.9942587982853915
2012-11-13,-1,-0.0008104666620725291,-0.0006380563146462885,-0.002564070378887503,0.005146508909646745,0.9945051337681353
2012-11-15,-1,-0.0012306404817456376,-0.00098626503397566,-0.0029402502248176516,0.0044723505776137614,0.9950209153896973
2012-11-19,-1,-0.0008309385653347152,-0.0006217434612409366,-0.0029402502248176516,0.0044723505776137614,0.9934595794431684
2012-11-21,-1,-0.00048021039914106494,-0.00031806203826245563,-0.0029402502248176516,0.0044723505776137614,0.9932295831854723
2012-11-26,1,0.0007310792508032691,0.0008015060420710905,-0.0029402502248176516,0.004254582050897605,0.9937703268137826
2012-11-28,1,0.0007950478320263657,0.0009007099759281349,-0.0029402502248176516,0.004254582050897605,0.9938751098367871
2012-11-30,1,0.000606681218588725,0.0006609744564974004,-0.0029402502248176516,0.004259815713990043,0.9939571860776613
2012-12-04,0,0.0,0.0,-0.002564070378887503,0.0044723505776137614,0.992791640971748
2012-12-06,1,0.0005100430973682308,0.0005754929700911276,-0.00277148333338274,0.006531564477095091,0.991364380956825
2012-12-10,1,0.0005531480105881951,0.0006242920133638227,-0.0038710302081814956,0.006531564477095091,0.9907690472131997
2012-12-12,1,0.00011013455868694583,0.00013920700765562377,-0.0016374740641326702,0.006813789503045827,0.9908498987747485
2012-12-14,-1,-0.0008226271787581511,-0.000648673656687362,-0.0005273005903660084,0.007215892495601056,0.9908447523311281
2012-12-18,1,0.0005166948383963165,0.0005397447346147361,-0.0009622743183547355,0.0050951581415887145,0.9905302159564608
2012-12-20,1,0.0013850005253930003,0.0015301238601992794,-0.0009622743183547355,0.0050951581415887145,0.9906442121848583
2012-12-24,1,0.0010216731453608725,0.001085576226341273,-0.0011574618618382815,0.005448336601224693,0.9903972235642654
2012-12-27,1,0.00033512218676829607,0.00040733827823802364,-0.0005273005903660084,0.005673828516251505,0.9900632210762018
2012-12-31,1,0.0008431774315494792,0.0008711982956589372,-0.0005273005903660084,0.005673828516251505,0.9900080843440187
2013-01-03,0,0.0,0.0,-0.0011574618618382815,0.005673828516251505,0.9903504982573192
2013-01-07,0,0.0,0.0,-0.0011574618618382815,0.005673828516251505,0.9910319683097294
2013-01-09,0,0.0,0.0,0.00205186263122572,0.006637408133277628,0.9911251101920773
2013-01-11,0,0.0,0.0,-0.00038011996388107234,0.006637408133277628,0.9913985886932386
2013-01-15,0,0.0,0.0,0.0016642136853103288,0.006637408133277628,0.9912236141609417
2013-01-17,0,0.0,0.0,0.0016642136853103288,0.007408057916561018,0.9938439899911526
2013-01-22,0,0.0,0.0,-0.0005864835310494082,0.007425479565213053,0.9934426007127747
2013-01-24,1,0.0008623801023502938,0.0009033396118163484,-0.0007530230731025831,0.008333608546053183,0.9928468060800002
2013-01-28,0,0.0,0.0,-0.004189170180460999,0.007425479565213053,0.9918637388660733
2013-01-30,0,0.0,0.0,-0.004189170180460999,0.008414269544590796,0.9914219543795554
2013-02-01,1,0.001550472279828272,0.0017404026159926274,-0.00201810337861499,0.008414269544590796,0.9924053634746628
2013-02-05,1,0.0010226122912215005,0.0011012751553657692,-0.00201810337861499,0.008632655520774518,0.9925761469872573
2013-02-07,1,0.0016554949714359898,0.0018467986452174385,-0.00201810337861499,0.00856093444252604,0.9928308179016445
2013-02-11,1,0.001789745401590952,0.0020271795959400448,-0.0032385555857744113,0.00856093444252604,0.992576890690261
2013-02-13,1,0.001768805208515822,0.001983895539032826,-0.0032385555857744113,0.00856093444252604,0.9926207950230358
2013-02-15,1,0.001780766545899115,0.0019780237054916384,-0.005690965905927327,0.00856093444252604,0.992058843792222
2013-02-20,1,0.001459483989478374,0.0016079567372995268,-0.005531168383895049,0.009628796233954523,0.992269276641359
2013-02-22,1,0.001017454047585604,0.0010608514395477966,-0.005531168383895049,0.009628796233954523,0.991964000146404
2013-02-26,1,0.000722625566140195,0.0007286587297917559,-0.005531168383895049,0.009628796233954523,0.9924251013502932
2013-02-28,1,0.0010599286761265809,0.0011288219873984567,-0.005531168383895049,0.008453249717963044,0.9930055239027787
2013-03-04,1,0.0014038892227180254,0.0015272863157057826,-0.005531168383895049,0.007538029394399242,0.992965393374786
2013-03-06,1,0.0011142203281556662,0.0011808272184413006,-0.005531168383895049,0.006834283998892042,0.993166212976988
2013-03-08,1,0.0013504448687725542,0.0014360389865331906,-0.0058171679668684775,0.006487945865904835,0.9925345378463116
2013-03-12,1,0.001022467246769367,0.0010436302116565055,-0.005722246202333849,0.007538029394399242,0.992154123031786
2013-03-14,1,0.001463380712622075,0.0015858998706407782,-0.006798509578473503,0.00813120668690331,0.9916133475336266
2013-03-18,1,0.0012428972268816927,0.0013384842375193421,-0.007720257437895862,0.00813120668690331,0.9904727428466137
2013-03-20,1,0.0010230971479437902,0.0010580201330066814,-0.010061562336182077,0.007538029394399242,0.9898041379244341
2013-03-22,1,0.001067665397507359,0.001096437323578186,-0.008481515426264115,0.007538029394399242,0.9907117510200136
2013-03-26,1,0.0009229208215572581,0.0009346740275755855,-0.008481515426264115,0.0075839281759205075,0.9910107114743681
2013-03-28,1,0.0009730782074810298,0.0010283446678761815,-0.008481515426264115,0.0075839281759205075,0.9909801368451485
2013-04-02,1,0.0011141398552012064,0.001198944552582618,-0.008481515426264115,0.008816719713877257,0.9906655442286036
2013-04-04,1,0.00019042495579362244,0.0002762711857238508,-0.008685518199407875,0.008816719713877257,0.9904688068087889
2013-04-08,1,0.00027512696907275346,0.00036024087016068283,-0.007720257437895862,0.008328737058684796,0.9911996753492921
2013-04-10,1,0.0005798840256088737,0.0006367862317717298,-0.007720257437895862,0.00756430426320503,0.9916905291742243
2013-04-12,1,0.0002535999775387503,0.00034732353936674297,-0.005152207701993959,0.006847226830874215,0.9922092605924634
2013-04-16,-1,-0.0004096263674068676,-0.00024815402881316203,-0.0022269526132835636,0.008816719713877257,0.9920299682537355
2013-04-18,-1,-0.0012753266182133037,-0.0010213075571491922,0.0008504350025003678,0.008816719713877257,0.9923612551720347
2013-04-22,-1,-0.0009362752913045194,-0.0007308970387107112,0.0008504350025003678,0.008816719713877257,0.9921540735043164
2013-04-24,-1,-0.0008259330690545551,-0.0006243505061882745,-0.0010190763459699808,0.007624138290422722,0.9923878046710548
2013-04-26,-1,-0.0009734500595339283,-0.0007481471222165324,-0.0010190763459699808,0.007624138290422722,0.9921475910647171
2013-04-30,-1,-0.0006462047047968846,-0.00044699166136617644,-0.002659840364822675,0.006993863167039217,0.9917629168021572
2013-05-02,-1,-0.0011133836732559774,-0.0008608582213636794,-0.002659840364822675,0.006993863167039217,0.991518637722229
2013-05-06,-1,-0.0008584340462347514,-0.0006328597616161006,-0.0046007404607550885,0.006735368550848063,0.9915893864619814
2013-05-08,-1,-0.0007386764680374206,-0.0005208783108985644,-0.005030392483256266,0.008284782653699928,0.990566765679723
2013-05-10,-1,-0.001057103655625685,-0.0007807588829609237,-0.005030392483256266,0.012721407589068857,0.9896848985913014
2013-05-14,1,0.0008677030787202639,0.000892926794852776,-0.008821083754661832,0.006872504429164903,0.9902294470424349
2013-05-16,1,0.000972123213170635,0.0010231292921242569,-0.009464848397629913,0.008503573831160106,0.9893844254727387
2013-05-20,1,0.0012604437917673023,0.001341297856062109,-0.009464848397629913,0.008503573831160106,0.9894060656947637
2013-05-22,1,0.0007995878657800362,0.0008105252507648921,-0.009464848397629913,0.008503573831160106,0.9894164403567297
2013-05-24,1,0.0006948553327290172,0.000696335228897934,-0.010254382490825224,0.008503573831160106,0.9890515769152778
2013-05-29,1,0.0013566828872717085,0.0014825201721715708,-0.010254382490825224,0.005722520156544206,0.9905797839034914
2013-05-31,1,0.0013755809999214494,0.0015372804250103555,-0.009464848397629913,0.008503573831160106,0.9901901912475376
2013-06-04,1,0.0009810176535354515,0.0010621028202403085,-0.008252886558642992,0.013448962388819149,0.9899640830695989
2013-06-06,1,0.001125172307771093,0.0012398166131116187,-0.007244059716028513,0.013896036410191867,0.9902926062323829
2013-06-10,1,0.0014997461270436726,0.001661818566287694,-0.007244059716028513,0.010272723067116192,0.9907246006226005
2013-06-12,0,-5.077199011409842e-05,7.805880328693159e-05,-0.0027629214244643194,0.010272723067116192,0.9917343230145781
2013-06-14,1,0.00025145937198310317,0.00033352836413206454,-0.0021018586570665464,0.009105007835608478,0.9923492599516761
2013-06-18,1,0.0009279930442771048,0.0009369677295290851,-0.005068838495287276,0.005418145638826445,0.9915405928505046
2013-06-20,1,0.0008991851743515343,0.0009078219131580987,-0.004489240880998207,0.005418145638826445,0.9917912396457217
2013-06-24,1,0.0003224066354067175,0.0003710403935024938,-0.0027629214244643194,0.009105007835608478,0.9919331219654131
2013-06-26,1,0.0003503403725179395,0.0003989355343240832,-0.004489240880998207,0.009105007835608478,0.9912439393705501
2013-06-28,1,0.0004976471318350745,0.0005448788888710793,-0.004489240880998207,0.005737360137742432,0.9917977861408457
2013-07-02,1,0.0010921043391404228,0.0011456559340736667,-0.004489240880998207,0.004415293147120353,0.992301704628894
2013-07-05,1,0.0019056637083143678,0.002065051978481533,-0.004795032275217581,0.004415293147120353,0.9924403807291449
2013-07-09,1,0.0022806360340841972,0.0025017949485009825,-0.006197759207090842,0.003754730673977507,0.9918244442866921
2013-07-11,1,0.0020672753961050285,0.0022652407397522386,-0.010248475262341685,0.003754730673977507,0.9915399289097669
2013-07-15,1,0.002271275891094042,0.0024810986518857513,-0.011993062260618883,0.0013006515667744513,0.9910626457590133
2013-07-17,1,0.0010761254730119133,0.0011252916850715967,-0.006197759207090842,0.003412728326915468,0.9929514423308463
2013-07-19,1,0.0005357594645903211,0.0005796524230875245,-0.010248475262341685,0.003412728326915468,0.992763084637097
2013-07-23,1,0.0011515185478334002,0.0012016987671655999,-0.01068057207290983,0.0013006515667744513,0.992322403614522
2013-07-25,1,0.0007753226436801576,0.0007959383316113011,-0.009811598479062177,0.003412728326915468,0.9920705678501675
2013-07-29,1,0.000298774230332806,0.00033650437215989134,-0.010575984958100942,0.003412728326915468,0.9922625200851733
2013-07-31,1,0.000628077089193996,0.0006566577734808167,-0.011677441078321693,0.003344708205047768,0.9908671814565557
2013-08-02,1,0.0008161780277056787,0.000859988656456433,-0.011677441078321693,0.002280396781596475,0.9915592349765796
2013-08-06,1,0.000465696134194771,0.000475340431142834,-0.010575984958100942,0.004371307006394962,0.9919214772074555
2013-08-08,-1,-0.00025720956891066505,-0.0001535563931655922,-0.00866710635965523,0.004371307006394962,0.9925800006493108
2013-08-12,-1,-0.0005911644864356222,-0.00045385813426981057,-0.005292298834179449,0.005579638760688673,0.9928890273753389
2013-08-14,-1,-0.00039118389716087475,-0.00028394946276850307,-0.00866710635965523,0.004371307006394962,0.9926913340799438
2013-08-16,-1,-0.0008424803216022018,-0.0006817978105380408,-0.007449600012602166,0.005579638760688673,0.9926872896964697
2013-08-20,-1,-0.0010315026312104313,-0.0008380974439609959,-0.0049354006399860975,0.005707920873471788,0.9928509970415149
2013-08-22,-1,-0.0006218373842315486,-0.0004819607695070005,-0.00482649303534366,0.005477529416473854,0.9938952990409625
2013-08-26,-1,-0.0013274674979290174,-0.0010908791676279403,-0.00482649303534366,0.005477529416473854,0.9939284370929627
2013-08-28,-1,-0.0019999496957697877,-0.0016948075831252044,-0.004150537383953565,0.005707920873471788,0.9948476601348211
2013-08-30,-1,-0.0016967910101636824,-0.0014573853685013907,-0.006892218297432176,0.005707920873471788,0.9945159743417428
2013-09-04,-1,-0.0012406376315948612,-0.0010511470321046914,-0.00723967918189079,0.0058133990443615,0.9939466864720334
2013-09-06,-1,-0.0018076967459366437,-0.0015050790455549239,-0.007408484701353351,0.006625348609948447,0.9932076166188272
2013-09-10,-1,-0.0022314007855955475,-0.0018326902504751494,-0.009248882191833285,0.0058133990443615,0.9930383614749636
2013-09-12,-1,-0.0027070589054848096,-0.002262524216635909,-0.008102226378673898,0.0073460359651147285,0.991424717031452
2013-09-16,-1,-0.0023214924331966588,-0.0019381367437390166,-0.008102226378673898,0.0073460359651147285,0.9913309845937058
2013-09-18,-1,-0.001973441139264134,-0.0016284849400399594,-0.009248882191833285,0.007952980084765266,0.9909254984667827
2013-09-20,-1,-0.0019285602817530308,-0.0016165520809175338,-0.009248882191833285,0.008554515681585991,0.9897566427581826
2013-09-24,-1,-0.0021221824681609174,-0.0017844544555307535,-0.009248882191833285,0.008554515681585991,0.9897686128959741
2013-09-26,-1,-0.0017738627477689528,-0.0014918116915676855,-0.009248882191833285,0.008740734967294387,0.9895254251689136
2013-09-30,-1,-0.001963951155065974,-0.0016713395217474078,-0.008093834178518639,0.008740734967294387,0.9892465229358467
2013-10-02,-1,-0.0024513786800580135,-0.0021001031908710745,-0.007243960712831891,0.008740734967294387,0.9899927679791279
2013-10-04,-1,-0.0013531835160345792,-0.0012008230398006326,-0.007243960712831891,0.008457748889837073,0.990389000705746
2013-10-08,-1,-0.0022033333170818903,-0.0019378713488173234,-0.001757055357567853,0.008645367352185768,0.9904255113815122
2013-10-10,-1,-0.00025057380021435195,-0.00023976406869412914,-0.003897454977654161,0.008082920758061107,0.9924421731613138
2013-10-14,-1,-0.0004568615794917064,-0.0004013418242082916,-0.005627093586562264,0.008144993853297238,0.9907693914290164
2013-10-16,-1,-0.0008774354855822103,-0.0007768701035147594,-0.00557393940991299,0.007216992069388986,0.9915966195205136
2013-10-18,1,0.00010405261516551845,0.00014398368331995317,-0.006937796546473097,0.006094361211718717,0.9925390641830598
2013-10-22,-1,-0.00032614995652226675,-0.0002996153343655091,-0.00557393940991299,0.006094361211718717,0.9926796112186376
2013-10-24,-1,-0.00018031212977809904,-0.00016924636433859357,-0.0033839950800996755,0.006094361211718717,0.9928575899703326
2013-10-28,1,0.0002160829922313903,0.0002669635719391414,-0.0033839950800996755,0.004741246215396483,0.9931037991588519
2013-10-30,1,0.0003338950206195209,0.00041605198811545336,-0.0033839950800996755,0.004483363012309267,0.9932296984341209
2013-11-01,-1,-0.00031431656530133404,-0.00026305916119796286,-0.0033287611874347088,0.004483363012309267,0.9935264048735615
2013-11-05,1,0.00034497581402817144,0.0003910168079359896,-0.005343418869711267,0.0031931175943158982,0.9933694518025301
2013-11-07,-1,-7.64617532553222e-05,-5.161731491668526e-05,-0.004971336745281145,0.004483363012309267,0.9932560602682154
2013-11-11,1,0.0007519073301607911,0.0008850793507307092,-0.005177717191716367,0.003649884825421612,0.9947346113578472
2013-11-13,1,0.0006445785910541077,0.0007275352676156517,-0.005177717191716367,0.003649884825421612,0.9941409479876475
2013-11-15,1,0.00010054733453010242,0.00011218629746010127,-0.0033287611874347088,0.004483363012309267,0.9939585889659805
2013-11-19,1,0.0005456668090631429,0.0006392433081580584,-0.005070680116430255,0.0055050436263245055,0.9925725780121408
2013-11-21,1,0.0009623941629332377,0.001134962212951896,-0.005070680116430255,0.0055050436263245055,0.991837916151023
2013-11-25,1,0.0018297831176698552,0.002174409322435931,-0.005070680116430255,0.0055050436263245055,0.9918139165158205
2013-11-27,1,0.0019750190854449464,0.0023491141882724022,-0.005070680116430255,0.006941418366299489,0.9914370477378828
2013-12-02,1,0.0016466564398978077,0.0019618052085871164,-0.004543524287013443,0.006941418366299489,0.9916880014409842
2013-12-04,1,0.0015876333291373454,0.0019171624190138191,-0.0026085032425345973,0.006975195455032855,0.9914382252218568
2013-12-06,1,0.001460188419642008,0.0017235038384629526,-0.004543524287013443,0.006975195455032855,0.9914075450607994
2013-12-10,1,0.00106357408613088,0.0012620811061230842,-0.004543524287013443,0.006975195455032855,0.9913915277897034
2013-12-12,1,0.001009946647130644,0.0012259620200681274,-0.005655129700469422,0.006975195455032855,0.9914990929403312
2013-12-16,1,0.0009229030369487839,0.0011015726489200482,-0.005655129700469422,0.007023446216258205,0.9914280082476835
2013-12-18,1,0.0019854859560976936,0.002281277655360155,-0.005681226873211976,0.006699674241893698,0.992868276451171
2013-12-20,1,0.002260348837448884,0.0025966236396238827,-0.005681226873211976,0.006699674241893698,0.9925286318654214
2013-12-24,1,0.002061940699377529,0.0023797361178881015,-0.0060627219858759435,0.005561889348467846,0.9915159115104221
2013-12-27,1,0.0017783245917152289,0.002042165056331433,-0.0067856817056192505,0.004591962810902684,0.9914178253541255
2013-12-31,1,0.0017693353464766234,0.0020200399764470447,-0.0067856817056192505,0.005573148378045635,0.9911852818841839
2014-01-03,1,0.00137417265305677,0.0015541569647521177,-0.008781209580060022,0.0038977399437947727,0.9900042127717424
2014-01-07,1,0.0018363037060931502,0.0020824228205255906,-0.00970884067442908,0.0038977399437947727,0.9891553654822441
2014-01-09,1,0.0013300450773433147,0.0014911677566145116,-0.00970884067442908,0.0076646906826068305,0.9888004088869524
2014-01-13,1,0.0010168590783700602,0.001142346914525772,-0.0065489076614761495,0.0099190104142159,0.9890716346659468
2014-01-15,1,0.0014701081449275018,0.001673849729213805,-0.0065489076614761495,0.0076826729792297205,0.9895204343105233
2014-01-17,1,0.0008945712281138941,0.0009832017952076388,-0.0036073640470703516,0.0076826729792297205,0.9897559837344242
2014-01-22,1,0.0016989158566132153,0.001869611447046833,-0.00970884067442908,0.004330955979734675,0.99085365782054
2014-01-24,1,0.0005610263572996572,0.000575386624659535,-0.0031125902706068157,0.007410755234398707,0.9912182516308554
2014-01-28,1,0.0008707865988404032,0.0009581906318874176,-0.004059263860169835,0.007410755234398707,0.9913282991770412
2014-01-30,1,0.000904386154445455,0.0009854155066194473,-0.0063422917030559935,0.007811070552853579,0.9910926826794827
2014-02-03,-1,-0.00032365853314111106,-0.0002474586475975375,-0.003024174303062137,0.009157204069591529,0.9918449484845455
2014-02-05,-1,-0.000370500240005243,-0.0002712310611694227,-0.0023395307944304978,0.009157204069591529,0.9928462525849963
2014-02-07,1,0.0005669065692217238,0.0005844793181471065,-0.0023395307944304978,0.007811070552853579,0.9933545232235135
2014-02-11,1,0.0011149062219685379,0.0012231559469591629,-0.005722556467563424,0.006250647345665891,0.9930924248099399
2014-02-13,1,0.000732482550987624,0.0007696924851867699,-0.007328310394415935,0.006250647345665891,0.9922575193295777
2014-02-18,1,0.0006048521662287018,0.0006118039541973362,-0.007328310394415935,0.007811070552853579,0.9916701260032312
2014-02-20,1,0.0004057326566431727,0.0004163481149970555,-0.005722556467563424,0.011190346442338026,0.9904749312542364
2014-02-24,1,0.0005286910482557234,0.0005499215084580209,-0.005722556467563424,0.011190346442338026,0.9909441870689969
2014-02-26,-1,-0.00015718928262900577,-3.181748935483097e-05,-0.005722556467563424,0.011190346442338026,0.990774822174961
2014-02-28,-1,-0.00016011712222820947,-3.842252651846883e-05,-0.005801206397040901,0.011190346442338026,0.9906829168830005
2014-03-04,-1,-0.0005134507448990261,-0.0003064959674472026,-0.005237296989805053,0.010286758997968177,0.991199934566425
2014-03-06,1,0.0006283049203940874,0.0006318913498515164,-0.005237296989805053,0.009383153161225096,0.9917040845094155
2014-03-10,1,0.0009722944709570754,0.0010108940168552481,-0.007676316869409869,0.006237481816708042,0.9905766883035261
2014-03-12,1,2.979521675995151e-05,0.0001372885358476577,-0.005237296989805053,0.006237481816708042,0.9914502784517719
2014-03-14,1,0.00018826115757400786,0.00024900206514393095,-0.006508903834041962,0.006237481816708042,0.9905718818974648
2014-03-18,1,0.00046192276498000396,0.0005147066492161302,-0.011288808018611332,0.004690132106745443,0.9895288488932218
2014-03-20,1,0.0015874448184708193,0.0017018388332154602,-0.011360014281292283,0.0029725745567387002,0.9903182789228172
2014-03-24,1,0.0012696759295900406,0.0013567300805036556,-0.011360014281292283,0.006031835121202027,0.9900252266216376
2014-03-26,1,0.0007484642546580221,0.0007609538666449435,-0.011360014281292283,0.0069460717303234795,0.9899756248627923
2014-03-28,1,0.0007816482536935216,0.0007860789524738803,-0.013525909951891606,0.006031835121202027,0.9897576738030992
2014-04-01,1,0.0011216521387863825,0.0011908011149314212,-0.013525909951891606,0.006031835121202027,0.989483116655925
2014-04-03,1,0.0005116292691391388,0.0005550294774140891,-0.013525909951891606,0.006547027106415359,0.9893490800154394
2014-04-07,0,-3.20013855299225e-05,3.392700264737608e-05,-0.010371731066355869,0.006547027106415359,0.9905551446705175
2014-04-09,0,-3.0206089855694976e-05,3.420867532301079e-05,-0.010371731066355869,0.007558556700892597,0.9895936699808822
2014-04-11,-1,-0.001270422981432465,-0.0010394455694735334,-0.0066810515553615245,0.008847408287352056,0.9905956656827133
2014-04-15,-1,-0.001322042880335138,-0.0010903405495971416,-0.0066810515553615245,0.007558556700892597,0.9917357388796678
2014-04-17,-1,-0.001558067506611921,-0.0013055377378835662,-0.0066810515553615245,0.007558556700892597,0.99130548703501
2014-04-22,-1,-0.0009036419601025779,-0.0007423920902748821,-0.008832014750016604,0.006737126492675218,0.991566224323655
2014-04-24,-1,-0.0011097480343174636,-0.0009281014494554672,-0.006337753860723809,0.006737126492675218,0.9917624599527645
2014-04-28,-1,-0.001548369333414565,-0.001307550157027285,-0.0037703196655998884,0.0072483947245408015,0.9918519052827758
2014-04-30,-1,-0.00108971609170095,-0.0008870104897451535,-0.004983635592687595,0.006737126492675218,0.9927974321425176
2014-05-02,-1,-0.0007540391215676687,-0.0006072524557205459,-0.004983635592687595,0.006727051016114234,0.9929198020011852
2014-05-06,-1,-0.0017660927257514996,-0.0014868037881757335,-0.0011116248258199216,0.006727051016114234,0.992842145955862
2014-05-08,-1,-0.0011714739473071248,-0.0009408012652614264,-0.0011116248258199216,0.0060873463977768015,0.9937175738783038
2014-05-12,-1,-0.0009368392990511637,-0.000741381337609552,-0.0011116248258199216,0.006035563110452447,0.994006802854669
2014-05-14,-1,-0.0007756616020430351,-0.000649146889278364,-0.0011116248258199216,0.006035563110452447,0.9941226425293569
2014-05-16,-1,-0.0007655598116591265,-0.0006642975388287703,-0.00012599542798756385,0.006035563110452447,0.9951767893205987
2014-05-20,-1,-0.0010311123840983393,-0.0008981474949491024,0.0004131197743600059,0.00721816829485785,0.9939088906527235
2014-05-22,-1,-0.0006066448118328658,-0.00052462101155094,-0.00012599542798756385,0.006963860308767478,0.9944863522620491
2014-05-27,-1,-0.0003282580586811297,-0.0002871834332682799,-0.001815843297585116,0.006035563110452447,0.9947642422822772
2014-05-29,-1,-0.0006215974038514176,-0.000535844485071537,-0.0013072921855560593,0.006035563110452447,0.9946586198115213
2014-06-02,-1,-0.00021767473063457506,-0.00019375924361355617,-0.0016352837706171063,0.005790286383685225,0.9947273626443242
2014-06-04,-1,-0.00013237281663427714,-0.00010705806360065121,-0.0029967577060347997,0.005643292547060204,0.9945874664235285
2014-06-06,-1,-9.676122847838365e-05,-5.4614902890626484e-05,-0.0029967577060347997,0.00487007611754706,0.9946475039529665
2014-06-10,1,0.00024602114540050557,0.00026208947211706936,-0.0036216284851540125,0.004299122779549146,0.9944256706401652
2014-06-12,-1,-6.894427885107074e-05,-3.6214648081286664e-05,-0.003122700422014259,0.00487007611754706,0.9943925947670925
2014-06-16,1,0.0005448819914609555,0.0006490750110379404,-0.003122700422014259,0.00487007611754706,0.9943869308418759
2014-06-18,1,0.0009588187488768504,0.001060940283085847,-0.003122700422014259,0.003045108164168869,0.9956980459208278
2014-06-20,1,0.000722883612342864,0.0007879708353978772,-0.0028417989580947437,0.00487007611754706,0.9953168387422159
2014-06-24,1,0.0005919217479448742,0.0006488124329981264,-0.0017125843441396112,0.00625536863841423,0.995101444708844
2014-06-26,1,1.8235802553752964e-05,0.00010199581978801575,-0.0017125843441396112,0.007635508705212757,0.9948142582405622
2014-06-30,1,3.746879365715036e-05,0.00010482541859556122,-0.0014300973264360186,0.007635508705212757,0.9951977132561243
2014-07-02,1,0.00042080426124201944,0.00044431622686665073,-0.0014300973264360186,0.008913922842846925,0.9944939796860227
2014-07-07,1,0.0010277382615439146,0.0011593475237874021,-0.0017125843441396112,0.007635508705212757,0.9943673162249008
2014-07-09,1,0.0006206167922248723,0.0006960419169745298,-0.0013243103295527453,0.007635508705212757,0.9942920805613047
2014-07-11,1,0.0009141374748765191,0.0010311742894141109,-0.0013243103295527453,0.006830677309967947,0.9944099029107895
2014-07-15,1,0.0006044631869475016,0.0006620304211918788,-0.0013243103295527453,0.006830677309967947,0.9942409119555321
2014-07-17,1,0.0007047921205384225,0.0007977476468694236,-3.701694157507259e-05,0.006830677309967947,0.9941310193194455
2014-07-21,1,0.001049684634224356,0.0011671802821663566,-0.001578137290441284,0.0057567688177902815,0.9943209886804715
2014-07-23,1,0.001242455682652993,0.0013847447721315998,-0.002918800005438859,0.005198760131539155,0.9945843814031468
2014-07-25,1,0.001569750789809389,0.0017647228719967192,-0.002918800005438859,0.005198760131539155,0.9945745199870656
2014-07-29,1,0.0017552268761857708,0.0019886195345602802,-0.002918800005438859,0.0057567688177902815,0.9943353542177991
2014-07-31,1,0.0018155318827955205,0.002084986270777892,-0.002555990524435116,0.005198760131539155,0.9953695802142848
2014-08-04,1,0.0014465770417274883,0.0016284006752131748,-0.0006162032983054492,0.005512519973313235,0.99572992089203
2014-08-06,1,0.0009801976071596992,0.0010825555838856423,-0.0015875265893248644,0.005512519973313235,0.9959195026041473
2014-08-08,1,0.0013294050474394262,0.001505169955877138,-0.0015875265893248644,0.004303577406873691,0.9960624099306781
2014-08-12,1,0.0018310931234555923,0.002143872903530185,-0.002555990524435116,0.005836537676659979,0.9955523366216693
2014-08-14,1,0.0019036160566797162,0.002209967624423796,-0.002555990524435116,0.007210669926533507,0.9954428991648547
2014-08-18,1,0.0016950106378809456,0.0019451414639078243,-0.002555990524435116,0.004761621490164868,0.9956785749998908
2014-08-20,1,0.0017417574927361392,0.002007472296133959,-0.0023467633051360353,0.007210669926533507,0.9953878432222778
2014-08-22,1,0.002467619021247615,0.002846206513628237,-0.0026034866190442546,0.006351117125085164,0.9950318689712591
2014-08-26,1,0.0023626245815716374,0.002718479495831039,-0.0034533975491813696,0.0039344398715131885,0.9950572496489175
2014-08-28,1,0.0015065005830942827,0.0016905575193440637,-0.004841462759605609,0.006351117125085164,0.9942933170592622
2014-09-02,1,0.001600697144892807,0.0017972752598216927,-0.005354972636399978,0.0039344398715131885,0.9939934431276239
2014-09-04,1,0.0009203966406999941,0.0009783093298000964,-0.006314330638225073,0.0039344398715131885,0.9939042792719216
2014-09-08,1,0.0012521810434026736,0.001289469935508146,-0.005354972636399978,0.006351117125085164,0.9937815064935281
2014-09-10,1,0.0010626572497690395,0.0010634210445531916,-0.006314330638225073,0.006351117125085164,0.992772399988712
2014-09-12,1,0.001591577707829057,0.0016819831534253074,-0.010294479079890277,0.003275740299408884,0.9908864400411115
2014-09-16,1,0.0011347213289996541,0.0011536473145966422,-0.011393604754896803,0.003275740299408884,0.990653489327399
2014-09-18,1,0.0013629827868555143,0.0013632459669059437,-0.012114277634819481,0.0018058661544796827,0.9902238653432981
2014-09-22,1,0.0011612537662839704,0.001180891065660365,-0.012114277634819481,0.0032613787105277552,0.9904164024560022
2014-09-24,1,0.000847200634636981,0.0008640576206361132,-0.01428194622076126,0.005766126654963686,0.986802811870316
2014-09-26,0,-2.2455582753617715e-05,7.354325607895998e-05,-0.012114277634819481,0.009153411832778856,0.9867701088743444
2014-09-30,1,0.0001193169772320998,0.00016459584785957898,-0.012114277634819481,0.009153411832778856,0.9867851676198737
2014-10-02,0,-3.5888464640575804e-05,2.4499593823254333e-05,-0.012114277634819481,0.010883875312728865,0.9866104504592328
2014-10-06,0,-6.017385993092853e-05,2.094287909121603e-05,-0.012114277634819481,0.011202864367304086,0.9860608661489069
2014-10-08,-1,-0.0003821783205946014,-0.00025564303091913184,-0.008673994325409403,0.00955529282543231,0.9872396732802893
2014-10-10,-1,-0.0015428853406239044,-0.001269930370729574,-3.917837638231207e-05,0.00955529282543231,0.9881954070227368
2014-10-14,-1,-0.001597516605772295,-0.001332468587023915,0.0016298776458535304,0.00955529282543231,0.9880623497049859
2014-10-16,-1,-0.0015231748570214854,-0.0012708427447240367,0.0016298776458535304,0.00955529282543231,0.9887099273623305
2014-10-20,-1,-0.0016482195436688014,-0.0013740380505214804,0.0009330896510519514,0.009466059748474255,0.9890733284392474
2014-10-22,-1,-0.002106514427809428,-0.0017859191024930613,0.0009330896510519514,0.008230840025660805,0.9924579236903166
2014-10-24,-1,-0.001356740279402618,-0.0011317394796786116,0.0005159408306635517,0.005345838630810969,0.9941068636504307
2014-10-28,-1,-0.000903064478164834,-0.0007413337139439127,0.0005159408306635517,0.005001068579076682,0.9946826452482017
2014-10-30,-1,-0.0007995756170242885,-0.0006555406229712131,-0.000442382631740238,0.004439746483562153,0.9953587574471552
2014-11-03,-1,-0.0008727881871376292,-0.0007113655652850842,-0.000442382631740238,0.004439746483562153,0.9951722476415664
2014-11-05,-1,-0.000676613879270217,-0.0005375978630075865,-0.0028719316919345117,0.004176266539259095,0.9953469021934391
2014-11-07,-1,-5.6124056027076e-05,-2.6785376583003207e-05,-0.0028719316919345117,0.004340250794489972,0.9951449985744336
2014-11-11,1,9.136090181952213e-05,0.00010927920627503906,-0.004309716990988114,0.0040349638484782294,0.9945365770821102
2014-11-13,-1,-0.00017263375201775192,-0.00011455402973654919,-0.004309716990988114,0.002883843055699815,0.9940967589989773
2014-11-17,0,-8.602319598578271e-06,2.271515646876923e-05,-0.004854469259958269,0.0024991686317766904,0.9934437630418069
2014-11-19,1,1.3992208607566494e-05,5.111449051777207e-05,-0.004854469259958269,0.0030178183770940433,0.9911903568341873
2014-11-21,-1,-0.00018086849992073346,-0.00011594280680831694,-0.006109779157239464,0.005481313523438114,0.9906897693032547
2014-11-25,0,-2.4989224521392893e-05,7.19081181833153e-06,-0.006721872542905096,0.009313400994130357,0.9899978163900014
2014-11-28,-1,-0.00029190168984425936,-0.00021163966833977782,-0.006721872542905096,0.009313400994130357,0.9900623566436904
2014-12-02,1,0.00018436167881391853,0.00019700244405451578,-0.006536311516822105,0.005481313523438114,0.9906519954996208
2014-12-04,-1,-0.0003467958640309137,-0.00026413107312127214,-0.01017381435873198,0.005481313523438114,0.9892229343187885
2014-12-08,1,4.492320303330473e-05,8.756534810339719e-05,-0.011551293289320377,0.0038410065948758783,0.987782969234228
2014-12-10,-1,-0.00034439602648628486,-0.0002777042249223274,-0.011551293289320377,0.009335278757665409,0.9873836633221541
2014-12-12,-1,-0.0006122747027019148,-0.000526970899268714,-0.011050526526624246,0.009335278757665409,0.9875782698058371
2014-12-16,-1,-0.0008826647922195287,-0.0007752156907330457,-0.011050526526624246,0.009335278757665409,0.987193175239799
2014-12-18,1,0.00038181166056690133,0.0004292951498480054,-0.011050526526624246,0.003824211881474405,0.9889872834120549
2014-12-22,1,0.00016269250280914765,0.0001748167570129313,-0.010493843448375274,0.009284894617460989,0.9856740639212024
2014-12-24,1,0.00015139251922995816,0.0001610700965081529,-0.013125617503217179,0.00891908219681975,0.9852056350861631
2014-12-29,1,9.375954563252981e-05,0.00010004353556773013,-0.01798316109860512,0.00891908219681975,0.9834304124996603
2014-12-31,-1,-0.00015421114060896514,-0.00012150392388740991,-0.01798316109860512,0.012076786746564538,0.9821797787355825
2015-01-05,-1,-0.0007397543664283894,-0.00063996397014082,-0.0167584322734955,0.016800065507418256,0.9820096585143115
2015-01-07,-1,-0.0007822800655971202,-0.0006860771099176412,-0.01575001318605911,0.01637462101879748,0.9833222081180534
2015-01-09,-1,-0.0008456727433637226,-0.000745490738163055,-0.012885412356501435,0.016745306785032495,0.9836811267001334
2015-01-13,-1,-0.0009644108368128897,-0.0008517299481782827,-0.011096222621859924,0.016745306785032495,0.9831156485040087
2015-01-15,-1,-0.0012301667393532995,-0.0011052556383481659,-0.007824813323009296,0.016745306785032495,0.9838785398349235
2015-01-20,-1,-0.0008782847868945487,-0.000800127736068803,-0.010886335035638586,0.016745306785032495,0.9837439263666012
2015-01-22,1,0.0007383861475947001,0.000862975744499114,-0.010886335035638586,0.01189459241443796,0.9876426071016695
2015-01-26,1,0.0007127562420606004,0.000844870225495489,-0.007824813323009296,0.013639507008277848,0.9883520601440003
2015-01-28,-1,-0.00011238817290753147,-9.572560236115241e-05,-0.006098811619367465,0.013639507008277848,0.9894580157090681
2015-01-30,1,7.134709101582451e-05,0.00010772393407597793,-0.005171240930561011,0.011799381906145429,0.9907677927332963
2015-02-03,1,0.0008587556159628059,0.0010037159324405723,-0.006098811619367465,0.00973062522917493,0.9920813827100154
2015-02-05,1,0.001013788405865393,0.0011898969747147867,-0.005546551036253901,0.00973062522917493,0.9923223633061672
2015-02-09,1,0.000988250081911418,0.001152726888335656,-0.005546551036253901,0.007310591335165576,0.9926868639031631
2015-02-11,1,0.0015915684096701366,0.0018530637716679935,-0.005546551036253901,0.006473279689535145,0.992813189020117
2015-02-13,1,0.0012832870445873227,0.0014905241770004078,-0.004863338903681768,0.007313029292069471,0.9925683714298087
2015-02-18,1,0.0010423364166846042,0.001215546186920157,-0.004863338903681768,0.007313029292069471,0.9926557620220459
2015-02-20,1,0.0012513807049789327,0.001442909321822575,-0.005072567439772969,0.007190925307093902,0.9926395328733162
2015-02-24,1,0.0013742511153767402,0.0015704559322297722,-0.009327203831019867,0.0060264589642584085,0.9919271265535357
2015-02-26,1,0.0010122275084305937,0.0011504526255181682,-0.009327203831019867,0.007190925307093902,0.9915713774877593
2015-03-02,1,0.0012291753288989377,0.0014084613552105198,-0.009327203831019867,0.006920000528785696,0.991686308374107
2015-03-04,1,0.00078253239554655,0.0008913358866743748,-0.0062040242574642745,0.006920000528785696,0.9920501367844978
2015-03-06,1,0.0006075885892181475,0.0006456084264668347,-0.0062040242574642745,0.006920000528785696,0.9919953831870332
2015-03-10,1,9.860170860596e-05,0.0001357519658877842,-0.004456313896606154,0.008126055090196095,0.9923839496360644
2015-03-12,1,0.00037374824962095544,0.0003845442121537978,-0.005018465880969962,0.006428477151395208,0.9931707579633684
2015-03-16,1,0.0006239028412759589,0.0006456781184214537,-0.005018465880969962,0.006428477151395208,0.9933716950775578
2015-03-18,1,0.00018664922283715823,0.0002683452397268624,-0.004352866673422005,0.006428477151395208,0.9938577288949287
2015-03-20,1,0.0005081273378306963,0.0005200934650073769,-0.004352866673422005,0.00629476523941127,0.9932365996368901
2015-03-24,0,-2.604379487382912e-05,3.722000498780089e-05,-0.003759071435216146,0.008514094172711456,0.9920101598492272
2015-03-26,1,0.00019536410877367681,0.00021928908828122674,-0.003759071435216146,0.008079339818881984,0.9925913025400018
2015-03-30,1,0.00027219565338432476,0.00028163538050404973,-0.002916780699879917,0.007431945328516674,0.9927971043490319
2015-04-01,1,0.0004183189124760697,0.00043617063681836924,-0.002916780699879917,0.007431945328516674,0.9927528254089956
2015-04-06,1,0.0005785013985823839,0.0006280855902681936,-0.0021415564582570362,0.007626549057169152,0.9925111645829803
2015-04-08,1,0.0008534780329377414,0.0009516611125148547,-0.00310389444302722,0.0073241305282252134,0.9926615760520805
2015-04-10,1,0.0006830172452602981,0.0007541645269760988,-0.0021415564582570362,0.0076821931609718525,0.9923741613053193
2015-04-14,1,0.0008465391897320575,0.0009435745819656372,-0.00310389444302722,0.0073241305282252134,0.9923986844251427
2015-04-16,1,0.0007769931682526615,0.0008698761677634189,-0.003099797076217905,0.0073241305282252134,0.9925499792529512
2015-04-20,1,0.00048091345056161994,0.0005289225113687788,-0.0029598658843220074,0.0076821931609718525,0.9927598221062505
2015-04-22,1,0.001534010915181907,0.001717988499959937,-0.0029598658843220074,0.0062732495626421705,0.9949651960903612
2015-04-24,1,0.0012079061726067793,0.0013441547179159409,-0.0029598658843220074,0.0062732495626421705,0.9950878215038167
2015-04-28,1,0.0013212908761940014,0.0014751545638394283,-0.004006094467036918,0.006338117472192997,0.9945243250830818
2015-04-30,1,0.001024339840093557,0.001127625468129871,-0.004006094467036918,0.006338117472192997,0.9942373023127768
2015-05-04,1,0.0016205614092940964,0.0018233943230556637,-0.004124611240831782,0.004190933942635183,0.9947067628771559
2015-05-06,1,0.0011737837721696896,0.0012828498434961431,-0.004383907536071344,0.005628634338672991,0.9940813093125634
2015-05-08,1,0.0011685652084609966,0.0012513907834505336,-0.004383907536071344,0.005572559872961706,0.9938252055785641
2015-05-12,1,0.0006831495019945237,0.0006888467029131386,-0.0039056688664059753,0.006810574142805103,0.9932809522246563
2015-05-14,1,0.001290740365923837,0.0014284761712527621,-0.0039056688664059753,0.006810574142805103,0.9934961051837218
2015-05-18,1,0.0013805688847788318,0.0015238937997105436,-0.00414585701156704,0.005572559872961706,0.9940387883644661
2015-05-20,1,0.0014684464468941306,0.00162787072333085,-0.004837972195216861,0.006438555471802043,0.9935201738559408
2015-05-22,1,0.0012576663199799641,0.0013867973402991731,-0.00414585701156704,0.008637611608665576,0.9935210797682389
2015-05-27,1,0.0010379978535491568,0.0011189222378573784,-0.00414585701156704,0.006181572361581864,0.9938760565538548
2015-05-29,1,0.00023815502813267171,0.0002951118590201313,-0.0023573919230528784,0.008637611608665576,0.9938172255279005
2015-06-02,0,-1.717029110973327e-05,7.392228731563496e-05,-0.0024790632944190795,0.008637611608665576,0.9924645716105842
2015-06-04,-1,-0.00019334563230723949,-7.826108050142127e-05,-0.002228527624029945,0.0069015709648879865,0.992946856880504
2015-06-08,0,-4.054134175895274e-05,6.97114852240354e-05,-0.00375926411449824,0.0039319126406523915,0.9933885929318209
2015-06-10,0,-5.908083476212773e-05,8.602395873881226e-05,-0.004837972195216861,0.0039319126406523915,0.9928036185961838
2015-06-12,1,8.68396651042524e-06,0.00012459094850894201,-0.004837972195216861,0.00861496085248215,0.9914160453103636
2015-06-16,1,0.0012293770710214182,0.0012893290842923288,-0.0040863651840494595,0.00861496085248215,0.9914179574396694
2015-06-18,1,0.0011054912017793217,0.0011379537223035938,-0.00483180917739596,0.00861496085248215,0.9911508371336297
2015-06-22,1,0.0005520187706884684,0.0006369851155760732,-0.004976558156628484,0.00713590331892474,0.9911876700932993
2015-06-24,1,0.0003077029342421698,0.00041964818279943743,-0.0035569781038532807,0.00713590331892474,0.9916614476412776
2015-06-26,1,0.0011261798348579104,0.001168522234820846,-0.009100761720786565,0.006165847492026605,0.9907024475395576
2015-06-30,1,0.000379056460169793,0.00042112152327769255,-0.005025912026777499,0.00713590331892474,0.9917831834335376
2015-07-02,1,0.000474587161020081,0.0004997521915113817,-0.009100761720786565,0.007313223708913269,0.9914453221512108
2015-07-07,1,0.00044455005730507853,0.00044500153393026224,-0.005128206889711483,0.008006801350899661,0.9915842809368257
2015-07-09,-1,-9.326436675088551e-05,-2.0100439557782995e-05,-0.001694187324198227,0.006876171521015686,0.9930715587783594
2015-07-13,1,0.0005110279182524301,0.0005325532789072448,-0.001694187324198227,0.0066191396832493855,0.993874846528029
2015-07-15,1,0.0007847852450288799,0.0008129147120440208,-0.009547335337842452,0.0066191396832493855,0.9928792540825967
2015-07-17,1,0.0009059103497219669,0.0009733530734658374,-0.005267895917965418,0.0066191396832493855,0.9933395340588937
2015-07-21,1,0.0006850820461905558,0.0007035560743706263,-0.0032603561590778406,0.0066191396832493855,0.9936306275068753
2015-07-23,1,0.0006586343543467524,0.0006776708109516147,-0.01021261100999971,0.0066191396832493855,0.9920278556744413
2015-07-27,-1,-0.000514838583130031,-0.0003352164113608535,-0.01021261100999971,0.0066191396832493855,0.9883073875541091
2015-07-29,1,0.00012011187273161636,0.00016698946350756242,-0.011657484872976444,0.0066191396832493855,0.9854039895433874
2015-07-31,-1,-0.000315303543522621,-0.00019414168757116097,-0.011657484872976444,0.006850332230578183,0.9847533935341705
2015-08-04,1,0.00022955144344050574,0.0002624424563881794,-0.016918642508558693,0.005471163605655507,0.9836137725264399
2015-08-06,1,0.0002876938798842954,0.0002956723434329453,-0.016918642508558693,0.007745793042439276,0.9826654770780655
2015-08-10,1,0.00047283919154131316,0.00047962457098935964,-0.01900907095281644,0.007745793042439276,0.9810587876937839
2015-08-12,1,2.5752779196242583e-05,7.296835670463341e-05,-0.01900907095281644,0.007745793042439276,0.9815972190967716
2015-08-14,-1,-0.0001553266271661395,-5.773620592840949e-05,-0.01900907095281644,0.00428942820115093,0.9822398218849648
2015-08-18,-1,-0.00021599793036933897,-0.00011841220151949904,-0.01900907095281644,0.008189531627693586,0.9817502538635786
2015-08-20,-1,-0.001076291811679171,-0.0008717983930332118,-0.0211012615106168,0.008189531627693586,0.9808055639187194
2015-08-24,-1,-0.0030899101963914716,-0.0026602540001751038,-0.015655741696245784,0.011666808458155282,0.9839855455975725
2015-08-26,-1,-0.002440791279304933,-0.0020917096261872025,-0.013193410471794344,0.008189531627693586,0.9871327827696758
2015-08-28,-1,-0.001839757229169679,-0.0015700359345413874,-0.015655741696245784,0.008189531627693586,0.9861498247549424
2015-09-01,-1,-0.0025540397271371614,-0.0021948290547887765,-0.013193410471794344,0.011630602931168962,0.9864122494148422
2015-09-03,-1,-0.0020487192567357395,-0.001758441285403654,-0.013193410471794344,0.005225224187087145,0.9871084310836964
2015-09-08,-1,-0.0015552749614141793,-0.0013192879272253834,-0.012134642983006445,0.005225224187087145,0.9882911662459916
2015-09-10,-1,-0.001957011773461544,-0.0016611798607758113,-0.0076942897989327845,0.00988165352903678,0.9882847857304204
2015-09-14,-1,-0.0013348303318224909,-0.001171731468798137,-0.009949860892153967,0.00988165352903678,0.9879157597158543
2015-09-16,-1,-0.0011813891047517257,-0.0010183893755733324,-0.011333909346389634,0.005882143927298995,0.9879030945248267
2015-09-18,-1,-0.0023038883661765513,-0.002016363409455612,-0.007003678967790793,0.010515336874703508,0.9887945997315191
2015-09-22,-1,-0.002242059563279129,-0.0019531742172157773,-0.007003678967790793,0.010515336874703508,0.9890450525467557
2015-09-24,-1,-0.0018336109428986646,-0.0016175931528104853,-0.009720599545757198,0.014648313265947299,0.9861674488588178
2015-09-28,-1,-0.002090775398119621,-0.0018388248999297143,-0.007003678967790793,0.014076785683539152,0.9879480121282314
2015-09-30,-1,-0.0014188041603117876,-0.0012594394067743859,-0.007003678967790793,0.016283711412057318,0.986897843836852
2015-10-02,-1,-0.0013479319426793793,-0.0011893501564978494,-0.006906542048131743,0.016283711412057318,0.9869315505214931
2015-10-06,-1,-0.001471591182118728,-0.0013075695583961728,-0.006627030830614316,0.013517492615490337,0.9871839344982122
2015-10-08,-1,-0.0009556626427907949,-0.0008654374919037358,-0.006627030830614316,0.015463316553025196,0.9866931941785214
2015-10-12,-1,-0.0010243211020229547,-0.0009282850099200541,-0.006627030830614316,0.016283711412057318,0.9856425718086995
2015-10-14,-1,-0.0014537584666290096,-0.0012982142131611153,-0.005141451955561245,0.016283711412057318,0.9855576105552053
2015-10-16,-1,-0.0009671039239165911,-0.0008773506017941005,-0.00908708230071417,0.015463316553025196,0.9861384924327257
2015-10-20,-1,-0.0008406564656521854,-0.0007457777275006158,-0.006627030830614316,0.013434536856615676,0.9870059902208836
2015-10-22,-1,-0.000994083086056367,-0.0008876218573378853,-0.005033676975784388,0.013434536856615676,0.9888170408566934
2015-10-26,-1,-0.0010532345578204956,-0.0009373867653251703,-0.005832580341660145,0.011184998642351797,0.9893246933299881
2015-10-28,1,0.0005050110735887507,0.0006039561751283736,-0.005832580341660145,0.010563960866537232,0.991250771032701
2015-10-30,0,-4.3635934053475284e-05,1.380936750939251e-05,-0.005018156985217604,0.010563960866537232,0.9912082432218488
2015-11-03,1,0.00047808287602220997,0.0006050077150098335,-0.006348493128190457,0.00803371650823113,0.9915879906203668
2015-11-05,1,0.0009267540469953373,0.001108439815888445,-0.008391149108543645,0.00803371650823113,0.9897643074831672
2015-11-09,1,0.0011127920539127784,0.0013342969797404125,-0.008391149108543645,0.0041872496589792875,0.9905710563365917
2015-11-11,1,0.0013542945660613881,0.0016085258218625676,-0.010034770285854918,0.0015963313255799656,0.9893508310059501
2015-11-13,1,0.0008235983048154544,0.000998328071003563,-0.008689697338669212,0.0015963313255799656,0.9892951305154439
2015-11-17,1,0.0013357949003661562,0.0016070150542061273,-0.008689697338669212,0.0041872496589792875,0.9869942001519698
2015-11-19,1,0.0014985689642593354,0.0017552131022238423,-0.013953485361540275,0.0015963313255799656,0.9855018425974792
2015-11-23,1,0.0014917676981009804,0.0017572200286397706,-0.013953485361540275,0.00852720300826557,0.9847510407095782
2015-11-25,1,0.0013507988528576043,0.001589532709889653,-0.013953485361540275,0.01306008497764196,0.9842735196478739
2015-11-30,1,0.0009888493762241738,0.001145942348837821,-0.013953485361540275,0.01306008497764196,0.9845946442815505
2015-12-02,1,0.0012071919356579572,0.0014409369266146746,-0.013953485361540275,0.01306008497764196,0.9840473920268491
2015-12-04,1,0.0022992304025751748,0.002684877966073157,-0.014337256144743696,0.010123081619891425,0.9853558316931343
2015-12-08,1,0.0014351036984679095,0.0017093536703352659,-0.024013744647611128,0.010123081619891425,0.9840060283405621
2015-12-10,1,0.0007735257093173526,0.0009617558783203645,-0.021546929232432503,0.010123081619891425,0.9846983405393498
2015-12-14,1,0.0005555415096534714,0.0007153029153511585,-0.021486950780610914,0.010123081619891425,0.984781809359108
2015-12-16,1,0.0013377825643787985,0.0015627188509921733,-0.023585805868951017,0.007112636888964555,0.9850599469008616
2015-12-18,1,0.00014912249488994265,0.00023541790273216287,-0.021486950780610914,0.007112636888964555,0.9860338488368801
2015-12-22,1,0.0008599770448903682,0.0010334408140206981,-0.023585805868951017,0.00335745189997374,0.9841249452821047
2015-12-24,1,0.0011118143810160059,0.001337543887848547,-0.02445378633566547,0.00335745189997374,0.982696254842795
2015-12-29,1,0.0012589893251535003,0.0014967018117161455,-0.02445378633566547,0.0016505029415107976,0.982934383483353
2015-12-31,1,0.0010420516919042889,0.001275977433541267,-0.02445378633566547,0.00335745189997374,0.9816168931086913
2016-01-05,1,0.0006246802530463942,0.0007851939068536326,-0.026632885570232655,0.004378805396242613,0.9810253919671884
2016-01-07,-1,-0.0002034943877829922,-0.00013629393222255835,-0.024388814881018843,0.008480645211808302,0.9826753876835184
2016-01-11,-1,-0.0005038412837183343,-0.0004748376998639821,-0.027686934826142547,0.008480645211808302,0.9815245902862914
2016-01-13,-1,-0.0013803736678161093,-0.0012649491351372773,-0.030564880396649848,0.007208292794002388,0.9801552456540393
2016-01-15,-1,-0.002887974613788558,-0.0024881873868393724,-0.028437407736283497,0.015607471597850031,0.9789526492975466
2016-01-20,-1,-0.003130961351559526,-0.0027368600097622143,-0.02084170403155573,0.019359589078037732,0.979368147956646
2016-01-22,-1,-0.003267773800918652,-0.0028800377658643106,-0.014726492417298849,0.019359589078037732,0.9806164769650064
2016-01-26,-1,-0.003974679187720886,-0.00346922453333774,-0.017504582416945767,0.01693682522620977,0.9813424186968562
2016-01-28,-1,-0.0037571570431429793,-0.0033005589644526487,-0.017504582416945767,0.01693682522620977,0.9800353617207163
2016-02-01,-1,-0.002881718314633335,-0.0025591016343554057,-0.017504582416945767,0.01693682522620977,0.9793356581036098
2016-02-03,-1,-0.0033728127247853604,-0.0029813825579803853,-0.014975677230678107,0.020070671445710245,0.9792971783396315
2016-02-05,-1,-0.003446381055255102,-0.003044959261562173,-0.014975677230678107,0.020154815848387773,0.9788482668928192
2016-02-09,-1,-0.00356302265121659,-0.0031722438337647915,-0.014975677230678107,0.020154815848387773,0.9795583423771903
2016-02-11,-1,-0.006114620344487004,-0.005360727226920025,-0.0059751179611713025,0.02366729667838683,0.9793919382950907
2016-02-16,-1,-0.004095950925197345,-0.003587964238106825,-0.007379349637950432,0.019006393407467185,0.9836336149202898
2016-02-18,-1,-0.0037211793223788925,-0.0032601145824490132,-0.005471199480200829,0.014962560012491155,0.9846589568410555
2016-02-22,-1,-0.0029279257706907656,-0.0025555962212543623,-0.005471199480200829,0.013534872492449553,0.9855277939198681
2016-02-24,-1,-0.0032655109663577543,-0.002880248052097277,-0.004827675470502908,0.013534872492449553,0.9865789002971987
2016-02-26,-1,-0.0027727666708289266,-0.002447885710403058,-0.005314112412702637,0.012136288260521254,0.9880174242109393
2016-03-01,-1,-0.0013411806426606538,-0.001184350705254713,-0.004827675470502908,0.00880735533357724,0.9909029462481315
2016-03-03,-1,-0.0003251118512545588,-0.00030513524543520953,-0.004827675470502908,0.007411531105538343,0.9916872244913932
2016-03-07,-1,-5.769374885133309e-05,-5.162795106464794e-05,-0.005314112412702637,0.002838425782046431,0.9917859268752031
2016-03-09,-1,-0.0013311300659381456,-0.0011689314728928273,-0.0051386656285977595,0.007411531105538343,0.9916439661546022
2016-03-11,1,0.00017238021563847913,0.00021295845710024163,-0.0051386656285977595,0.007411531105538343,0.9923220949180619
2016-03-15,-1,-0.00010387853205049819,-8.07185768754277e-05,-0.0047430600474201775,0.009652850830634899,0.9900526005157615
2016-03-17,-1,-0.0001921887360180876,-0.00018394013336003707,-0.00502178817249146,0.009652850830634899,0.9900781335505636
2016-03-21,1,7.028598170105955e-05,0.00010014517964232173,-0.00502178817249146,0.009959212727235399,0.9877606240891083
2016-03-23,1,0.0005107353738011124,0.0006717177878272423,-0.00502178817249146,0.009959212727235399,0.987658015004392
2016-03-28,0,-8.342598146243659e-06,4.2089610449786054e-05,-0.00502178817249146,0.009959212727235399,0.9871121267965507
2016-03-30,1,0.0004360651021558221,0.0005783694770273946,-0.00502178817249146,0.010452203660523463,0.9870244744858454
2016-04-01,1,0.0011162327617655066,0.0013811557594814606,-0.006729201365212804,0.009977162524302197,0.9870452416364388
2016-04-05,1,0.0006127465918439831,0.000819040136737711,-0.006729201365212804,0.01062292315684205,0.9863814058101125
2016-04-07,1,0.0003298932716217425,0.0005184396041924324,-0.006729201365212804,0.01062292315684205,0.9874618803073286
2016-04-11,1,0.0004359433247618375,0.0006101355380862615,-0.006729201365212804,0.01062292315684205,0.9878351593793779
2016-04-13,1,0.0021383728080635114,0.0025534472373165288,-0.007833979285019242,0.008686716393172322,0.9886526621241579
2016-04-15,1,0.0021391368425986005,0.002582449920600144,-0.00923319639448019,0.008686716393172322,0.9883082886454342
2016-04-19,1,0.0038360010241508015,0.0045008339156569635,-0.00923319639448019,0.0061790131118188915,0.9900928818763133
2016-04-21,1,0.0034568727467842583,0.0040709746799914475,-0.00923319639448019,0.007715956060406376,0.9886183277214853
2016-04-25,1,0.0034661064509267526,0.004080037596129957,-0.008126137940854858,0.008439271718375076,0.9884891468943715
2016-04-27,1,0.003518351623792398,0.004126531824728389,-0.008126137940854858,0.011328731982379742,0.9876843031167505
2016-04-29,1,0.003624660091824745,0.004295177332649548,-0.007504778379583624,0.011328731982379742,0.9883818839630268
2016-05-03,1,0.003069659661286564,0.003623336926461714,-0.0055304696658552465,0.008794470228558207,0.9895694556509006
2016-05-05,1,0.002130700938980529,0.0025170978585587122,-0.005112240475894389,0.008794470228558207,0.9893758123323588
2016-05-09,1,0.0018663552613630103,0.0021949213615745514,-0.007504778379583624,0.012718028087500787,0.988663114360198
2016-05-11,1,0.002537169969964761,0.003018529806483909,-0.007504778379583624,0.008794470228558207,0.9895997689326886
2016-05-13,1,0.001601698977469436,0.0018799093409297362,-0.007504778379583624,0.008794470228558207,0.9895518294076836
2016-05-17,1,0.002205821203134036,0.002607588463827908,-0.008230159383827314,0.007876959695340063,0.9888268568095703
2016-05-19,1,0.002881347542834694,0.0033781678647683226,-0.008230159383827314,0.0049365022046708,0.990306621434638
2016-05-23,1,0.003014754891819146,0.0035424730369108684,-0.007227259370027687,0.0043552768781241775,0.9911040196587687
2016-05-25,1,0.0035638213434055115,0.004133016961720859,-0.007227259370027687,0.0033536091713165074,0.9907422344306759
2016-05-27,1,0.003431417105475984,0.003966909301689418,-0.011454398131456744,0.0014808289120762119,0.9839472920172557
2016-06-01,1,0.002943576555839777,0.003351127632341136,-0.011454398131456744,0.0043552768781241775,0.9822376712750028
2016-06-03,1,0.0021631452200493477,0.0024436032478096295,-0.011454398131456744,0.006662989464605376,0.9824995867740252
2016-06-07,1,0.001862422047180207,0.002073666489886215,-0.013173797016267282,0.0033536091713165074,0.9821850424702534
2016-06-09,1,0.0015532265907224178,0.0017010134327043044,-0.013173797016267282,0.007032669414442495,0.9822138573460543
2016-06-13,1,0.000699436473774262,0.0007087859404204144,-0.008726347646702758,0.015351006517804074,0.9820449062311564
2016-06-15,0,-2.2330249844893294e-05,9.896236737363338e-05,-0.006365209332827764,0.015351006517804074,0.9821320678125072
2016-06-17,-1,-0.0004047804936940074,-0.00022662403584918433,-0.0030940753372280952,0.015351006517804074,0.9819084795046175
2016-06-21,-1,-0.0004840948546259743,-0.00029143466811305146,-0.007135970296315566,0.015351006517804074,0.9814696081324303
2016-06-23,1,0.0006139776692656045,0.0006575958510472673,-0.007135970296315566,0.01415323454592402,0.9827038221776558
2016-06-27,-1,-0.003458739334068493,-0.002918536706813123,-0.002093616583805381,0.0146323872113264,0.9875519366583124
2016-06-29,-1,-0.0018916480235200046,-0.0015268035427654057,-0.005032446914007557,0.00926500807214983,0.9903904432307521
2016-07-01,-1,-0.002541699887608203,-0.0020791641790293158,-0.005032446914007557,0.0064133766021184455,0.9914501159361213
2016-07-06,-1,-0.004409846533981801,-0.003622093242685358,-0.005032446914007557,0.008831953994257284,0.9908866071123897
2016-07-08,-1,-0.0030605521680071497,-0.002522684822053455,-0.005032446914007557,0.008831953994257284,0.9904685514368937
2016-07-12,-1,-0.0022502448846098105,-0.0018203907227341818,-0.005032446914007557,0.005898694864267113,0.9919310651773466
2016-07-14,-1,-0.0017559973953651174,-0.0014172446579164173,-0.005297890631781056,0.005402611305746973,0.9921810148692292
2016-07-18,-1,-0.0020004315941793936,-0.0015969511808379318,-0.007932301449636064,0.005402611305746973,0.9918817172946912
2016-07-20,-1,-0.0019926989265630426,-0.0016138058076772238,-0.004423666244340331,0.005402611305746973,0.9921645760551024
2016-07-22,-1,-0.001296550047797202,-0.0010513065472223591,-0.004423666244340331,0.004654288846803888,0.9924925632588484
2016-07-26,-1,-0.0004306075762368395,-0.0003228982766809926,-0.004423666244340331,0.004024029480489912,0.9932249246624127
2016-07-28,-1,-0.0005261647983147088,-0.00042109559053366935,-0.0036300574930660506,0.004024029480489912,0.9935039989522451
2016-08-01,-1,-0.0013843228348089734,-0.0011312503570313933,-0.0026139761861605237,0.006815383057535301,0.9928859588574792
2016-08-03,-1,-0.0007684433551571157,-0.0006362567436894613,-0.0025678121972124313,0.006815383057535301,0.9934787792202412
2016-08-05,-1,-0.00010200415280266665,-2.604331012970109e-05,-0.002393340962739257,0.004830657820616695,0.9952741907158661
2016-08-09,-1,-0.0003281623614761116,-0.00022731495882309113,-0.002724303861176899,0.004830657820616695,0.9946495744691636
2016-08-11,-1,-0.0003626437351655087,-0.0002699038209558128,-0.002724303861176899,0.004830657820616695,0.9947076048288283
2016-08-15,-1,-0.0006544912206726916,-0.0005153323379875018,-0.002724303861176899,0.004830657820616695,0.9944320680620661
2016-08-17,-1,-0.0008329272127103557,-0.0006611316737282521,-0.003491565526221773,0.0068244031808796755,0.9937395773630269
2016-08-19,-1,-0.0006798625579160061,-0.0005312227250505075,-0.004330459786236841,0.0068244031808796755,0.9931649682810602
2016-08-23,-1,-0.000579697361903241,-0.0004516907934182399,-0.004330459786236841,0.0075967632224342675,0.9927680288376814
2016-08-25,-1,-0.000867274165561733,-0.0006765420982919403,-0.0035989159013607836,0.0075967632224342675,0.9930725811155207
2016-08-29,-1,-0.0009528113944694091,-0.0007172983313217185,-0.006284856992888053,0.0034239778922662855,0.9925477519448312
2016-08-31,-1,-0.0005659645128200671,-0.0003904362271481501,-0.01153694720338939,0.0024978600192560926,0.9926543199554042
2016-09-02,1,0.00033373137957563544,0.00033798812203423526,-0.01153694720338939,0.00263255161953813,0.9918240162094321
2016-09-07,-1,-0.00014600714815151414,-8.829379774195e-05,-0.0066399089596868455,0.00858389178275141,0.9897847583823444
2016-09-09,1,0.0005220267400635256,0.000645424366477745,-0.0021357930590330315,0.00858389178275141,0.9905813316434301
2016-09-13,1,0.0004121996021285655,0.0005105928684622206,-0.0021357930590330315,0.004533303191885253,0.9909805358893211
2016-09-15,1,0.000678534961669932,0.0008121361615109029,-0.00426457033877492,0.00263255161953813,0.9910163037767206
2016-09-19,1,0.00043433385572918073,0.0005470409285840327,-0.0021059693098182146,0.004533303191885253,0.9910173113126907
2016-09-21,1,0.0004985771966746764,0.0005976888212695787,-0.0021059693098182146,0.005021878468704503,0.990893316994332
2016-09-23,1,0.0004242278897946468,0.000501098420722675,-0.002714850818388366,0.004321992997476441,0.9909447503544894
2016-09-27,-1,-0.0004162029930412934,-0.0003577113169241852,-0.002714850818388366,0.004321992997476441,0.9916492501755978
2016-09-29,-1,-0.0008953305960815326,-0.0007766453716950565,-0.001464203026787175,0.011668437066619873,0.9906922171955379
2016-10-03,-1,-0.0001439025109070125,-0.00012452102603720017,-0.001464203026787175,0.010051015641446795,0.9919773343507078
2016-10-05,1,0.0011380080889758927,0.0012665104878871532,-0.002714850818388366,0.0029383878011037747,0.9939293414912844
2016-10-07,1,0.001069623757383731,0.0012012243908180434,-0.004241850197410148,0.004356563287912632,0.9936504283073733
2016-10-11,1,0.0010924225498963867,0.0012702573926595046,-0.0026177289125935465,0.006168206428709355,0.9931037194859536
2016-10-13,1,0.0007976114857300022,0.0009394320730156878,-0.0007298509596236619,0.011668437066619873,0.9912104192002184
2016-10-17,1,0.0014262600239473714,0.0017132174925189505,-6.755622657569679e-05,0.01648880572225322,0.9895536425462498
2016-10-19,1,0.0018723733073433661,0.0022174030202761143,-0.0007298509596236619,0.01648880572225322,0.9887777151779761
2016-10-21,1,0.0017630340645296877,0.002094910351133757,-6.755622657569679e-05,0.01648880572225322,0.9887982551908155
2016-10-25,1,0.0012208589788385096,0.0014497430190210411,0.0,0.01648880572225322,0.9890572145491908
2016-10-27,1,0.0019988548135261124,0.0023302838413997414,0.0,0.008587257546047979,0.9903985588471145
2016-10-31,1,0.001764058014297003,0.0020508856569726587,-6.755622657569679e-05,0.009448638795624211,0.9893111591276879
2016-11-02,1,0.0014265153574526965,0.001641990440662813,0.00018321167978418193,0.017429715171254297,0.9875025173526587
2016-11-04,1,0.0012583334748654017,0.0014325091929745111,0.00018321167978418193,0.017429715171254297,0.9868353275657198
2016-11-08,1,0.0018048825174153565,0.002040406938723219,0.001068209273510301,0.017429715171254297,0.9862881998559018
2016-11-10,1,0.0033361831674393275,0.0037755116051166916,0.00018321167978418193,0.01171843165577637,0.9888541984371819
2016-11-14,1,0.0053748057293601355,0.006129935402767625,-0.0011139409363987913,0.00775135233378383,0.990332496409512
2016-11-16,1,0.0024816566714713903,0.0026115284514086536,-0.0011139409363987913,0.010767307837642303,0.9907097499458176
2016-11-18,1,0.0034063672529418155,0.0037462384905382236,-0.004746317191218846,0.010767307837642303,0.9899891799388854
2016-11-22,1,0.003244025654709243,0.003548211932233423,-0.004746317191218846,0.01171843165577637,0.9893555660025062
2016-11-25,1,0.002663253200211797,0.0028552238306011903,-0.004746317191218846,0.01171843165577637,0.9889183594779568
2016-11-29,1,0.0021922279114833985,0.0023380222304754342,-0.004746317191218846,0.01171843165577637,0.9896839221985589
2016-12-01,1,0.00408788525754657,0.00451728522976797,-0.005780018814574203,0.0064957643407528584,0.9911282212929745
2016-12-05,1,0.0036883365934576675,0.004062471370216087,-0.004746317191218846,0.007339676704949642,0.9918683789796549
2016-12-07,1,0.005023901737206339,0.005582869593706377,-0.004746317191218846,0.004841797728319267,0.992351884760782
2016-12-09,1,0.0043906373928968645,0.004844589354340731,-0.005780018814574203,0.003781591311328028,0.9923768324548513
2016-12-13,1,0.0041495427293240855,0.004569237124562671,-0.004636890769926784,0.005210512983077754,0.9926172627013442
2016-12-15,1,0.004452140924743119,0.004933961807684644,-0.00485777985670551,0.004525858845244572,0.9922554096350398
2016-12-19,1,0.003504871880664465,0.003843184753860193,-0.0058223226817190835,0.004525858845244572,0.9908242429294768
2016-12-21,1,0.0035392246265230254,0.0038590220704111354,-0.00662925948670824,0.003710588483461221,0.9907854115291505
2016-12-23,1,0.0031555458110996406,0.0034193881912002785,-0.00662925948670824,0.005210512983077754,0.9910950069215352
2016-12-28,1,0.003301048734436012,0.0036359548129542866,-0.0058223226817190835,0.005210512983077754,0.9910317562102468
2016-12-30,1,0.0029760542214762493,0.00324181147949388,-0.005780348562117222,0.004997504499477334,0.9909189728213786
2017-01-04,1,0.0031933918665932185,0.0034727988471890572,-0.0059946253928521865,0.0030764930217312774,0.9907915262922338
2017-01-06,1,0.0025195983190157163,0.0026970782152029335,-0.0059946253928521865,0.0042778757508210195,0.99087394684004
2017-01-10,1,0.0022477737733533026,0.0023805870973306175,-0.005667344560802168,0.0042778757508210195,0.9909627079534495
2017-01-12,1,0.0023416420536871187,0.002485825978672844,-0.005667344560802168,0.0042778757508210195,0.9905036893114364
2017-01-17,1,0.0015462643101227503,0.0015739497868335864,-0.004599554130837449,0.007689959249092051,0.9909879441589816
2017-01-19,1,0.00017910990211548338,0.00030564292229626357,-0.003478978317617705,0.01010407241656975,0.9925795992301917
2017-01-23,0,-0.00011892796003484845,3.4401379862670004e-05,-0.0025178323464851234,0.01010407241656975,0.9925553568351296
2017-01-25,1,0.0005246215321104708,0.0005917101249109402,-0.003478978317617705,0.0100616533590568,0.9928659780312411
2017-01-27,1,0.0001134771866174582,0.00023339000698359002,-0.004670979741082437,0.0100616533590568,0.9925462220788497
2017-01-31,-1,-0.0005081566208751978,-0.0002960672952866069,-0.0027522729851312145,0.011077477379966075,0.9917155827777131
2017-02-02,-1,-0.0007874333263794956,-0.0005251841755416864,-0.0027522729851312145,0.011077477379966075,0.991418606164324
2017-02-06,-1,-0.0004576643570249915,-0.0002322985188773904,-0.004790392625424246,0.0100616533590568,0.9915553122536496
2017-02-08,-1,-0.0005314076909522359,-0.0003071773533889022,-0.0031321492131990637,0.0100616533590568,0.991227864939103
2017-02-10,-1,-0.0007741116268366921,-0.0004882728489531119,-0.0031321492131990637,0.008280217185981698,0.9918452226961623
2017-02-14,1,0.00014733544691447966,0.00031576029869844223,-0.0031781132513505994,0.0057823032985797095,0.9930279305193488
2017-02-16,-1,-0.00035478521246017373,-0.00012170833225161597,-0.0031781132513505994,0.005563273453124167,0.993432669016376
2017-02-21,-1,-0.0005468620652621557,-0.00026295161922104606,-0.007334455666318865,0.00542711716812645,0.9927490976824769
2017-02-23,-1,-0.0011936537595348409,-0.0007962188597232598,-0.007334455666318865,0.00542711716812645,0.9929548505903236
2017-02-27,-1,-0.0011571229073831487,-0.0007786194116405987,-0.008765696134435147,0.005202986456080688,0.992717941954677
2017-03-01,1,0.0002735176763562899,0.00039669683241198037,-0.008765696134435147,0.005202986456080688,0.9930331651685422
2017-03-03,-1,-0.00021999786205203207,-2.1361289379477535e-05,-0.007564406519340287,0.005476367522897953,0.9929559088191612
2017-03-07,-1,-0.0006565297292901683,-0.0003847696058585222,-0.00710779925530498,0.005202986456080688,0.993732151280383
2017-03-09,-1,-0.0008985461196350864,-0.0005687585293232703,-0.00710779925530498,0.0033694870931190476,0.9937353701768951
2017-03-13,-1,-0.0008271692488432503,-0.0004990365348626027,-0.00710779925530498,0.0021677820509070607,0.993610720657576
2017-03-15,-1,-0.0009668045888004059,-0.0006370362076990804,-0.007564406519340287,0.0033694870931190476,0.9925948864939501
2017-03-17,-1,-0.0015602486687111014,-0.0011420410474042124,-0.007564406519340287,0.003980052165223602,0.9924404685020815
2017-03-21,-1,-0.002691632539848355,-0.0021194222625791066,-0.007156435297872732,0.004081382081168581,0.993182350118928
2017-03-23,-1,-0.002061067812064891,-0.0016070990772502737,-0.007156435297872732,0.008791274536277788,0.9925803141780027
2017-03-27,-1,-0.002661439488575953,-0.002129058853833331,-0.0062623263347991245,0.013113703430556612,0.9912921002007676
2017-03-29,-1,-0.0027333767578875505,-0.002180000649753891,-0.0062623263347991245,0.01259248607541814,0.9913865039184717
2017-03-31,-1,-0.0027984113405459896,-0.0022301266489959037,-0.0062623263347991245,0.01238205412637066,0.9914498183824643
2017-04-04,-1,-0.0026085207565058935,-0.0020895303201027044,-0.0062623263347991245,0.01238205412637066,0.9910948454398771
2017-04-06,-1,-0.0015068868929648135,-0.0012008994745796226,-0.00589906808034563,0.01238205412637066,0.991513119128294
2017-04-10,-1,-0.0009892479497758252,-0.0008216029614465424,-0.0027235386057547937,0.01238205412637066,0.9916403761822252
2017-04-12,-1,-0.0014021176906784884,-0.0011447853904401526,-0.002685430899985663,0.00797346916153115,0.9924386049512898
2017-04-17,-1,-0.0010694515042058226,-0.0008552534471643364,-0.002685430899985663,0.005744627435621355,0.9931159657925891
2017-04-19,-1,-0.0012620547568654534,-0.0010338343634331516,-0.002685430899985663,0.005744627435621355,0.9907143050480106
2017-04-21,-1,-0.0008717357407758246,-0.000683529909018113,-0.002685430899985663,0.005744627435621355,0.9909017436370805
2017-04-25,0,-3.7586127421946464e-05,7.41312968065661e-05,-0.002685430899985663,0.005744627435621355,0.9919529032673428
2017-04-27,1,0.001059320205971139,0.001176725430013939,-0.00298480867821564,0.005110001520010098,0.9924820016146105
2017-05-01,1,0.0004284610694798476,0.0004413729913197114,-0.00298480867821564,0.005110001520010098,0.9927606463667513
2017-05-03,1,0.0012546662501524686,0.0014642709090275728,-0.00298480867821564,0.005110001520010098,0.9922178908945294
2017-05-05,1,0.0011033905064130028,0.0012767145263019616,-0.005505695903630924,0.005110001520010098,0.9919912879403368
2017-05-09,1,0.0010753328552218265,0.0012398564619138853,-0.005792608582209075,0.006226697818359675,0.9907786175350037
2017-05-11,1,0.0012115250040771242,0.0014169745936077772,-0.005792302796131962,0.010106348933147855,0.9899196117909198
2017-05-15,1,0.0009067634839286921,0.0010446892409879784,-0.002984706749523269,0.010106348933147855,0.9900097340611496
2017-05-17,-1,-9.934719663481569e-05,-7.051285514772972e-05,-0.001638960551619501,0.010106348933147855,0.9918923129382224
2017-05-19,1,0.00016201915514873518,0.00021503327000693668,-0.001638960551619501,0.009185718710158879,0.9919499984796659
2017-05-23,1,0.0006767829098780668,0.000789215276448637,-0.0033575903915497645,0.008179674923457775,0.9925174967693986
2017-05-25,1,0.0004877449124505732,0.0005750938999231792,-0.003999842004996495,0.008179674923457775,0.9924449708564038
2017-05-30,1,0.00076387208806374,0.0009185473623883526,-0.0028556730682357456,0.009185718710158879,0.9924373434569325
2017-06-01,1,0.0010205649594812885,0.0011920545314613458,-0.0010577093986557477,0.009185718710158879,0.9930610719044952
2017-06-05,1,0.0006725004496592168,0.0007904629749782868,0.00117549447639458,0.01051784700936508,0.9926454215671019
2017-06-07,1,0.0010958018767606437,0.0012832263703573903,0.00117549447639458,0.009185718710158879,0.9933911938401575
2017-06-09,1,0.0013173253784750602,0.0014958905087619906,0.00117549447639458,0.007255233917180468,0.9943876911808552
2017-06-13,1,0.0010026722218599421,0.0010480962349627265,-0.0010577093986557477,0.006852801385498161,0.9941899107735317
2017-06-15,1,0.0011007575000372837,0.0011373759692548707,-0.001271471459564251,0.006293957582825057,0.9945741399353641
2017-06-19,1,0.0016614624320093851,0.0018005656828997995,-0.0028556730682357456,0.004709218101506945,0.9947735867008283
2017-06-21,1,0.0009357038407329497,0.0009811731469545454,-0.004272356514180578,0.004709218101506945,0.9901250734702302
2017-06-23,1,0.000621080895157618,0.0006330893753971654,-0.0022604854513718995,0.004709218101506945,0.9901850469069872
2017-06-27,1,0.0009937346519542358,0.0010234187172862117,-0.0037759691203817936,0.0039842782983207535,0.9906130825305081
2017-06-29,1,0.0015465792576491418,0.0016728985524937325,-0.005071239398951644,0.003104523873277574,0.9907968333751775
2017-07-03,1,0.0016852430745456616,0.0018165209152412316,-0.005071239398951644,0.0031201689151552506,0.9909965373505255
2017-07-06,1,0.001495014383961015,0.0016185984865865093,-0.0032678315828073815,0.002849356033984086,0.9918118136107026
2017-07-10,1,0.0020490582562906375,0.002286195688500952,-0.005071239398951644,0.0023184991043462043,0.9910069472431522
2017-07-12,1,0.0017419383060695139,0.0019272647908320317,-0.0032678315828073815,0.0031201689151552506,0.9912574025665674
2017-07-14,1,0.0018682065290143827,0.002079585799351299,-0.005105474516336214,0.0031201689151552506,0.9900391149705557
2017-07-18,1,0.0015298951007497316,0.0016864731961887302,-0.0032678315828073815,0.004181280295049901,0.9898423008597327
2017-07-20,-1,-0.001238035977568576,-0.001049191631940681,-0.0027567820130168104,0.005216866773700835,0.9932639771079131
2017-07-24,-1,-0.0008077713878534341,-0.0006969704225007604,-0.0027567820130168104,0.005677081784386036,0.9933198275999887
2017-07-26,-1,-0.0009212988070288592,-0.0007871360364194095,-0.0017891357135448136,0.006003231004532357,0.9927409162732524
2017-07-28,-1,-0.001190598188433414,-0.0010203175986950035,-0.0006005898150445984,0.006253942953479279,0.9924942110918141
2017-08-01,-1,-0.0007107464969013965,-0.000610928619847811,-0.002286848566297511,0.005802431432615258,0.9926978140493486
2017-08-03,-1,-0.0006743821921508047,-0.0005867419977362199,-0.003128601004881806,0.005802431432615258,0.9925412354465669
2017-08-07,-1,-0.000639118975433706,-0.000549729260336102,-0.003128601004881806,0.005677081784386036,0.9918934996399761
2017-08-09,-1,-0.0004531003405441778,-0.0003728563208236881,-0.003128601004881806,0.005328012521781031,0.9922695714657093
2017-08-11,-1,-0.0015790195298692447,-0.0013316992066317924,-0.0011611833619554212,0.006766717649433172,0.9911206222444531
2017-08-15,-1,-0.0010270097579050557,-0.0008510346722240309,-0.003128601004881806,0.006011794033070772,0.990772667112613
2017-08-17,-1,-0.0017275384850105955,-0.0014451744543773277,-0.003128601004881806,0.005788648316451456,0.9917877364255476
2017-08-21,-1,-0.0014241819788578013,-0.0011910174152653368,-0.003128601004881806,0.006011794033070772,0.9917772038929017
2017-08-23,-1,-0.000934848051538959,-0.0007651111950358797,-0.003128601004881806,0.006188339337818998,0.9914317829548791
2017-08-25,-1,-0.0008881046763509993,-0.0007187679617925039,-0.004843720212475954,0.00614698998932759,0.9911179335667849
2017-08-29,-1,-0.0012255082868510513,-0.0010189879584352967,-0.0031041738580667054,0.008049979304758098,0.9902416616053146
2017-08-31,-1,-0.001491624662689981,-0.0012366495807915002,-0.0011558734750028584,0.008049979304758098,0.9901213542171834
2017-09-05,-1,-0.0020736408075748302,-0.0017551841263083005,-0.0002972989468961149,0.008049979304758098,0.9910303676772758
2017-09-07,-1,-0.0018028913974551426,-0.0015275174634462529,-0.002047770315691203,0.012547310521837204,0.990439873683448
2017-09-11,-1,-0.0009386803461037097,-0.0007527960141188746,-0.004770438772030652,0.0062987566814364715,0.9921760347702216
2017-09-13,-1,-0.0012091910613189721,-0.0010136600687862343,-0.002047770315691203,0.006618394965051712,0.9929578133813882
2017-09-15,-1,-0.0007380307628043566,-0.0006503507779179197,-0.0039059081490175206,0.006618394965051712,0.9930996030598053
2017-09-19,-1,-0.00046107904638724315,-0.0004140596883672334,-0.005129449361167301,0.006323224439898732,0.9925849710182796
