JNU-Tangyin/eata/results/Batch4_SP500/Batch4_SP500-RL.csv
Date,Action,Predicted_Q25,Predicted_Q75,Actual_Q25,Actual_Q75,RL_Reward
2010-12-14,0,0.0,0.0,-0.007742797450411554,0.00802471242736774,0.9906812913522154
2010-12-16,0,0.0,0.0,-0.007742797450411554,0.00802471242736774,0.9905756474442474
2010-12-20,0,0.0,0.0,-0.011559223057645769,0.007895758449400698,0.9892784681693787
2010-12-22,1,0.3679802509591622,0.3679972928842128,-0.0102330222579844,0.007150082300295971,0.7286450854772312
2010-12-27,0,0.0,0.0,-0.007509804256787135,0.007130493397496409,0.9907828045051902
2010-12-29,0,0.0,0.0,-0.007396419595549219,0.007715626182686431,0.9902837564247425
2010-12-31,-1,-0.0007336199673112958,-0.0006112930745624235,-0.007396419595549219,0.007715626182686431,0.989455184369773
2011-01-04,0,0.0,0.0,-0.0061570199276083995,0.007715626182686431,0.9909096308790976
2011-01-06,0,0.0,0.0,-0.0061570199276083995,0.0096507939570049,0.9884975022703477
2011-01-10,0,0.0,0.0,-0.004576228228149274,0.014269107866213753,0.9880277796285243
2011-01-12,-1,-0.0007645693589775001,-0.0007022400909093172,-0.004576228228149274,0.015846674911403628,0.9838793029507438
2011-01-14,-1,-0.0012266836485439981,-0.0010519195242286864,-0.004576228228149274,0.015846674911403628,0.9845198246142793
2011-01-19,-1,-0.002632419728677289,-0.00223432703163792,-0.003932056594881337,0.015846674911403628,0.9854286257671536
2011-01-21,0,0.0,0.0,-0.002955914021808436,0.01666583009455092,0.984907832066675
2011-01-25,0,0.0,0.0,-0.005331164116642058,0.01666583009455092,0.9831730551461473
2011-01-27,0,0.0,0.0,-0.003698052418448545,0.01666583009455092,0.9829643243410734
2011-01-31,-1,-0.0017285885810407581,-0.001312483969478783,-0.003698052418448545,0.014523325343378541,0.9834945261659905
2011-02-02,0,0.0,0.0,-0.003698052418448545,0.01666583009455092,0.9828223445200637
2011-02-04,0,0.0,0.0,-0.006323664936750362,0.013213005297206839,0.9846867549349713
2011-02-08,1,0.0007254231855467396,0.001055618968862932,-0.006323664936750362,0.013213005297206839,0.9854745748302551
2011-02-10,1,0.001944038834310608,0.0020257719905622026,-0.00944327384757547,0.012513995701637097,0.9886704310996426
2011-02-14,0,0.0,0.0,-0.01032020305167056,0.012513995701637097,0.9873737739618761
2011-02-16,0,0.0,0.0,-0.01090611235460521,0.012513995701637097,0.9871234114338235
2011-02-18,0,0.0,0.0,-0.014258421523539748,0.012513995701637097,0.985783552634792
2011-02-23,0,0.0,0.0,-0.010143479511396564,0.012513995701637097,0.9871221828466749
2011-02-25,-1,-4.947677680251367e-08,-4.751118396484664e-08,-0.010143479511396564,0.009099809249919284,0.9879680818389516
2011-03-01,1,0.000991034273014373,0.0010293220878818713,-0.00944327384757547,0.009692410677725537,0.9875360352182333
2011-03-03,1,0.0011892856329421115,0.0011983590466178172,-0.009712963764215866,0.00895826201442635,0.9873550339352337
2011-03-07,1,0.000940194190561723,0.0009726045441203527,-0.009712963764215866,0.011540231597476636,0.9865629988154158
2011-03-09,0,0.0,0.0,-0.010143479511396564,0.01078036242020335,0.9858063467169671
2011-03-11,0,0.0,0.0,-0.011970522993913811,0.00895826201442635,0.9857747513638417
2011-03-15,0,0.0,0.0,-0.009839116762798314,0.00895826201442635,0.9869123416853184
2011-03-17,0,0.0,0.0,-0.00912432256108278,0.01078036242020335,0.9861661487564163
2011-03-21,0,0.0,0.0,-0.00912432256108278,0.00895826201442635,0.9879569149532815
2011-03-23,-1,-0.0031625049177924935,-0.0026260609295748814,-0.004518692987123583,0.01078036242020335,0.9864334265162918
2011-03-25,-1,-0.0019704849201843248,-0.0015976339469227117,-0.0065261650366958785,0.01078036242020335,0.9866797653402891
2011-03-29,0,0.0,0.0,-0.006648810857765386,0.01024965863536185,0.988048493918037
2011-03-31,0,0.0,0.0,-0.0057868867540279674,0.009520071274697589,0.988473618919679
2011-04-04,0,0.0,0.0,-0.009918798677535045,0.00803791217946348,0.9890488543754098
2011-04-06,0,0.0,0.0,-0.006866737882948443,0.008869214952783217,0.9895911815682197
2011-04-08,0,0.0,0.0,-0.0057868867540279674,0.008869214952783217,0.9906122874612003
2011-04-12,-1,-0.001144628528204946,-0.000984328712960195,-0.006048578510478752,0.009520071274697589,0.9896616151585965
2011-04-14,1,5.364308225189071e-05,6.693549369155081e-05,-0.006994103991693479,0.009520071274697589,0.9898296352829127
2011-04-18,-1,-0.00048601349509620864,-0.00041751355112805183,-0.007035098849199798,0.009520071274697589,0.9902246682153464
2011-04-20,1,0.0009298367174459275,0.001068192054634516,-0.007035098849199798,0.01096855712923152,0.9899053613852344
2011-04-25,1,0.0007592313772781282,0.0008848405838260561,-0.009440725938986254,0.01096855712923152,0.9878727686255309
2011-04-27,1,0.001376453383333136,0.0015586657803414263,-0.0099070144223606,0.007900769574010624,0.9835109384988657
2011-04-29,1,0.0022016995096142532,0.002358466774925439,-0.0099070144223606,0.016740334238516924,0.9794507822412426
2011-05-03,0,0.0,0.0,-0.008322729457516321,0.016740334238516924,0.9785605230172953
2011-05-05,0,0.0,0.0,-0.008322729457516321,0.016835843223200572,0.978411595960562
2011-05-09,0,0.0,0.0,-0.009908785073354447,0.016835843223200572,0.977755392296266
2011-05-11,0,0.0,0.0,-0.011546343081318161,0.016688278226512823,0.9772594727607411
2011-05-13,1,0.0018827399228042508,0.002046509491595814,-0.013672845823896626,0.015627774559335523,0.9775802419074436
2011-05-17,1,0.001247105367418781,0.0013405634423950404,-0.016210305897573826,0.015984734548711486,0.9768237160170012
2011-05-19,1,0.0015754837210107161,0.001679879291773661,-0.016210305897573826,0.014850165407077988,0.977204356586689
2011-05-23,1,0.00045860250725352457,0.0004976192556627972,-0.012392163105877228,0.015984734548711486,0.9783544315012249
2011-05-25,-1,-0.0016441265289471236,-0.001355490894839244,-0.006598172843959104,0.015984734548711486,0.9824649176655402
2011-05-27,0,0.0,0.0,-0.012392163105877228,0.01415236203504035,0.98647722586077
2011-06-01,0,0.0,0.0,-0.006598172843959104,0.014850165407077988,0.9868042591075211
2011-06-03,0,0.0,0.0,-0.006586170140318586,0.01415236203504035,0.986606788980999
2011-06-07,0,-5.7849099774685375e-05,0.00010789044738598912,0.0009063701056460805,0.01415236203504035,0.9869332913377218
2011-06-09,-1,-0.0025400462588294316,-0.0019602882092632744,0.0009063701056460805,0.01415236203504035,0.986247119703396
2011-06-13,-1,-0.004440036668951956,-0.0035400035066777166,-0.00270368885006883,0.01415236203504035,0.9856642721367891
2011-06-15,-1,-0.005147881486557467,-0.0041180207580513856,0.001674022025583234,0.013432051708070984,0.986079331271322
2011-06-17,0,0.0,0.0,-0.0018726923466412411,0.012229779832071264,0.9895171085693006
2011-06-21,0,0.0,0.0,-0.0018726923466412411,0.009939320877076361,0.9896726013014673
2011-06-23,0,0.0,0.0,-0.0018726923466412411,0.012229779832071264,0.9892961120235427
2011-06-27,-1,-0.001742047385571141,-0.0013641911241714527,-0.002701219229008729,0.012229779832071264,0.9896298914858966
2011-06-29,-1,-0.0006031139230494182,-0.00039549975839665906,-0.005290010590566228,0.012229779832071264,0.9891659634033875
2011-07-01,1,0.0008154356854103351,0.0008554606384704243,-0.005290010590566228,0.005207898923900662,0.9900220636980369
2011-07-06,1,0.002505332433531166,0.0028260125307034718,-0.006666586291127461,0.006318609080146485,0.9861132899722421
2011-07-08,1,0.0026229587802058018,0.002949022358399391,-0.006666586291127461,0.006318609080146485,0.9826266893343841
2011-07-12,1,0.001636688148800671,0.001820069407256259,-0.006666586291127461,0.01504902893487952,0.9777643801502367
2011-07-14,1,0.0020948957157890177,0.00236433283343508,-0.006666586291127461,0.02357928217124218,0.9739743562218921
2011-07-18,1,0.0013127416304166673,0.0013999879197672724,-0.006666586291127461,0.0276762980018556,0.9707115724043541
2011-07-20,1,0.0022513564993194616,0.0025007947986686947,-0.023521131770227154,0.026132902519739515,0.9694625613212035
2011-07-22,1,0.0023039009295923196,0.002539118942360885,-0.035315793458190164,0.026132902519739515,0.9655759986692066
2011-07-26,1,0.0020589172204251395,0.002288764980698426,-0.035315793458190164,0.03701932108111016,0.9628538207730356
2011-07-28,1,0.0014929592367360716,0.0016177887326641474,-0.032448321451062564,0.03701932108111016,0.9630886773134731
2011-08-01,1,0.0016688353573442918,0.001841704787626108,-0.032448321451062564,0.03701932108111016,0.9613332269944372
2011-08-03,1,0.00047264401252024134,0.0004919802855378561,-0.02720770108132168,0.03701932108111016,0.9647692497820232
2011-08-05,-1,-0.0012710539287138938,-0.0010363960603897238,-0.02720770108132168,0.03301937084322844,0.9677455431445495
2011-08-09,-1,-0.002590834767025382,-0.002182192113669134,-0.023263159157345253,0.03301937084322844,0.9715024496357448
2011-08-11,-1,-0.00019127954862475168,-3.712035530837698e-05,-0.024979556817812346,0.019332986453483705,0.9746291112884926
2011-08-15,1,0.0019138960460678635,0.002007417538888226,-0.024979556817812346,0.018012255009968427,0.9766165674394787
2011-08-17,0,0.0,0.0,-0.0135199938671689,0.027174974266203807,0.9758144313753424
2011-08-19,0,0.0,0.0,-0.003983644800811955,0.027174974266203807,0.9792547042034885
2011-08-23,1,0.0018986131962552564,0.0020359711308140056,-0.006974235066532698,0.0225891257796859,0.9816264349327721
2011-08-25,1,0.0009597852477783956,0.001026974343763137,-0.006974235066532698,0.0225891257796859,0.9815249589383459
2011-08-29,1,0.0019266839760318224,0.0020772585080172015,-0.006974235066532698,0.020114073230688825,0.983426685156214
2011-08-31,1,0.0017522729205765451,0.001860478049281853,-0.022068610112166202,0.020114073230688825,0.9806239614580315
2011-09-02,0,0.0,0.0,-0.024789900144382843,0.020114073230688825,0.977305009859175
2011-09-07,0,0.0,0.0,-0.024789900144382843,0.020114073230688825,0.976971404746668
2011-09-09,1,0.0008360748697607968,0.0008701032954434365,-0.02253567732227918,0.0225891257796859,0.9753939018600414
2011-09-13,1,0.0025558658487084863,0.0028652771128657977,-0.02253567732227918,0.02271316044070718,0.9753733948693587
2011-09-15,1,0.004277113071292414,0.004810790111202369,-0.02253567732227918,0.014884615790629507,0.977840846120685
2011-09-19,1,0.004634365180284374,0.0052207764891154685,-0.026305714867863268,0.014197869648534965,0.9769642258995276
2011-09-21,1,0.0030245357121572785,0.0033668847496567036,-0.026305714867863268,0.017633581275563665,0.9759757236672717
2011-09-23,0,0.0,0.0,-0.026305714867863268,0.01939216142789895,0.9752657599492556
2011-09-27,0,0.0,0.0,-0.026305714867863268,0.027064201393056604,0.9726606914463215
2011-09-29,0,0.0,0.0,-0.014227448859647175,0.030449949891001034,0.9735817543919612
2011-10-03,0,0.0,0.0,-0.004464986368483671,0.030449949891001034,0.9766958976538977
2011-10-05,0,0.0,0.0,-0.00964883195146781,0.027064201393056604,0.9782935073474092
2011-10-07,1,0.22951943981913348,0.23992613735866491,-0.01134451323748666,0.0198672063748727,0.8136733912853532
2011-10-11,1,0.0030391461573888536,0.0034267192239782747,-0.01035939637638364,0.017105183449127044,0.9825197716169408
2011-10-13,1,0.002361109961828631,0.0025602810646351863,-0.015166718483016444,0.017105183449127044,0.979773740157082
2011-10-17,1,0.00032253531386687367,0.0005529920967615735,-0.01035939637638364,0.020203267456740885,0.980376532565073
2011-10-19,1,0.001828756257723484,0.00194440969055931,-0.01035939637638364,0.015026910265454349,0.9818460707420762
2011-10-21,1,0.002454322825642693,0.0025748246382706116,-0.015179655270992853,0.011791451279528005,0.9818435117894522
2011-10-25,0,0.0,0.0,-0.015179655270992853,0.009151721555552347,0.9843207735016457
2011-10-27,1,0.003724278400627768,0.004001025685799368,-0.02045055477838543,0.005076310068380271,0.9838042515562263
2011-10-31,0,0.0,0.0,-0.021252618186907234,0.005076310068380271,0.9831801810596329
2011-11-02,0,0.0,0.0,-0.021252618186907234,0.008532576006957022,0.9834060984142482
2011-11-04,0,0.0,0.0,-0.021252618186907234,0.009846899969497544,0.9817890352356615
2011-11-08,1,0.0016865758993686057,0.0018014665106890603,-0.021252618186907234,0.008827197778571706,0.9816511402242443
2011-11-10,1,0.0007387254881305563,0.0009167421208998278,-0.020387412906943347,0.008823034033259652,0.9836988302271564
2011-11-14,1,0.0015625884632402144,0.001657024790414745,-0.021252618186907234,0.006437821412627314,0.9827785931681107
2011-11-16,0,-0.00018825556240338322,0.00014864528502437344,-0.020387412906943347,0.008612525005191343,0.9834891122530334
2011-11-18,-1,-0.0007286277889179823,-0.0004006677346003973,-0.020387412906943347,0.008612525005191343,0.9840124631871855
2011-11-22,-1,-0.001188465146702967,-0.0008506155878261155,-0.016367445322254502,0.009067044773274668,0.9846464875276583
2011-11-25,0,0.0,0.0,-0.01386597450044073,0.009700769909606763,0.9841146121906001
2011-11-29,0,0.0,0.0,-0.013502630872369553,0.009639267741115636,0.9868361445052761
2011-12-01,0,0.0,0.0,-0.013502630872369553,0.009047276734486681,0.9875282611869001
2011-12-05,1,0.0013425370777361602,0.00140256102073835,-0.013502630872369553,0.006519158325965653,0.9870735812990065
2011-12-07,1,0.0010068541681061015,0.0010108131624281581,-0.013502630872369553,0.006519158325965653,0.9868792345603677
2011-12-09,1,0.0008910168752252035,0.0009244868932511331,-0.011065845464473204,0.009047276734486681,0.9860043100270488
2011-12-13,0,0.0,0.0,-0.00781339663038024,0.009047276734486681,0.9873610964910805
2011-12-15,0,0.0,0.0,-0.00781339663038024,0.007324286188207085,0.9877672753328444
2011-12-19,-1,-0.001893420460391479,-0.0015837196616975877,-0.005736357021701296,0.009641465793242803,0.9880785848630599
2011-12-21,-1,-0.0013410952134540295,-0.0010965506783134364,-0.006689141516742721,0.00734615251897641,0.9882982693352789
2011-12-23,-1,-0.0012932864651850854,-0.0010136518184872068,-0.006689141516742721,0.007380659581979747,0.9877107264132061
2011-12-28,-1,-0.002418070362638968,-0.0019563741628299608,-0.006689141516742721,0.007038609888026213,0.9880708473857496
2011-12-30,-1,-0.0030410456457047523,-0.002460897119779448,-0.006689141516742721,0.007038609888026213,0.9875950581033155
2012-01-04,-1,-0.0011809558117387411,-0.0009027222598395181,-0.006084762978727976,0.007038609888026213,0.989097087643365
2012-01-06,-1,-0.0002611352602559891,-0.0001982596964116494,-0.0054763645482583875,0.010065873617324679,0.9883239562226189
2012-01-10,-1,-0.00024267506572527736,-8.278316600962045e-05,-0.0054763645482583875,0.010065873617324679,0.9861040710088221
2012-01-12,-1,-0.0024815991691552134,-0.0019245053588144165,-0.003906679397278329,0.010065873617324679,0.9862680633702297
2012-01-17,-1,-0.0013650935653858709,-0.001114599729402167,-0.0015394536066207143,0.012919753413813696,0.9863138389989871
2012-01-19,-1,-0.0009155286638028829,-0.00065716083575349,-0.002477935401832704,0.011005537549570496,0.98699589400698
2012-01-23,-1,-0.0002109751237795557,-0.00012841253907625342,-0.002477935401832704,0.011005537549570496,0.9869664724540808
2012-01-25,1,0.0005416124685019693,0.0005533788670001904,-0.004052081196672886,0.010186566221285172,0.9881593526235064
2012-01-27,-1,-0.00016145023093588147,-2.3385441371866417e-05,-0.002477935401832704,0.010186566221285172,0.9886604462587302
2012-01-31,1,0.0005526491716810846,0.0005600421806119479,-0.00300805147813082,0.010186566221285172,0.9888811164601641
2012-02-02,-1,-0.0004829894999421467,-0.0003055901959102618,-0.00300805147813082,0.010186566221285172,0.9881135198551588
2012-02-06,1,0.00116605236835952,0.0012586569470014017,-0.0057143033268146565,0.007454803870242445,0.9877704378877017
2012-02-08,1,0.002662291413748443,0.0030171623365044015,-0.0057143033268146565,0.007454803870242445,0.9913814332438693
2012-02-10,1,0.003440129715351254,0.003905750044108505,-0.0057143033268146565,0.010186566221285172,0.9908386427832525
2012-02-14,1,0.002927953764190424,0.0032508320759451073,-0.006476819756849171,0.010186566221285172,0.990592797627142
2012-02-16,1,0.0029510892279212943,0.0033246281901511635,-0.0057143033268146565,0.007836662113557479,0.9912068497597286
2012-02-21,1,0.0026013144019210216,0.0029104652585477645,-0.0057143033268146565,0.007836662113557479,0.9915616217710197
2012-02-23,1,0.002056118124071458,0.0022120008906560975,-0.005693341503255561,0.006704711314626453,0.9917767916113787
2012-02-27,1,0.0006208253287440784,0.0007144652376360301,-0.006204595333521523,0.008453290902976892,0.9910219438984719
2012-02-29,0,0.0,0.0,-0.00667906551515036,0.008453290902976892,0.9906630775476772
2012-03-02,0,0.0,0.0,-0.006204595333521523,0.005422462830196012,0.992072326530604
2012-03-06,0,0.0,0.0,-0.005805309970965728,0.005901703674096315,0.993511955155527
2012-03-08,0,0.0,0.0,-0.006204595333521523,0.005901703674096315,0.9928569745334632
2012-03-12,0,0.0,0.0,-0.007475166223910916,0.0018356945519706785,0.9916447808611024
2012-03-14,0,0.0,0.0,-0.006740107608787147,0.0030329698362473274,0.9920510294634282
2012-03-16,0,0.0,0.0,-0.0075722647528883285,0.0044761840788614645,0.9915468392814452
2012-03-20,0,0.0,0.0,-0.0075722647528883285,0.005520165051517743,0.9912264326434161
2012-03-22,0,0.0,0.0,-0.007986954961924763,0.00571625216186066,0.9899656090085673
2012-03-26,0,0.0,0.0,-0.009414406422066965,0.005520165051517743,0.9891349673880055
2012-03-28,0,0.0,0.0,-0.009414406422066965,0.007472186474396531,0.987744859577754
2012-03-30,1,0.001404159871016766,0.0015814741746667837,-0.009414406422066965,0.011541897613796774,0.9873999869733071
2012-04-03,1,0.0017054350799036088,0.0019366093650083935,-0.009414406422066965,0.012250570470392871,0.9863310983788947
2012-04-05,1,0.001886826557549483,0.0020891303908096874,-0.015563680155338858,0.011541897613796774,0.9853680509802423
2012-04-10,1,0.0013269551966893366,0.0014859574075305137,-0.015563680155338858,0.011541897613796774,0.9861303433025687
2012-04-12,1,0.0012171801324451174,0.0013313244532855886,-0.016269088800168093,0.011541897613796774,0.9849572629589737
2012-04-16,1,0.0006494114736004639,0.0006521575174329049,-0.018771162022328737,0.012250570470392871,0.984149929432134
2012-04-18,1,0.0005326077494157885,0.0005838482455307798,-0.01994504938621676,0.011541897613796774,0.9824539859861099
2012-04-20,0,-0.0001246026959381949,3.9964153384515564e-05,-0.02017038555765609,0.0037953626981983564,0.9815718135084437
2012-04-24,-1,-0.001231394849554381,-0.000910032430287557,-0.01884627407947518,0.01499364093733827,0.9808219749032012
2012-04-26,0,0.0,0.0,-0.01884627407947518,0.0037953626981983564,0.9820557368056573
2012-04-30,0,0.0,0.0,-0.01884627407947518,0.009164451396386105,0.9818198484041106
2012-05-02,0,0.0,0.0,-0.019993414667460838,0.002707060724326833,0.9820487362805672
2012-05-04,0,0.0,0.0,-0.019993414667460838,0.008022654464599734,0.9816349181164324
2012-05-08,0,0.0,0.0,-0.01884627407947518,0.009826367186209405,0.9824119350335206
2012-05-10,0,0.0,0.0,-0.01884627407947518,0.009826367186209405,0.9832974491771675
2012-05-14,0,0.0,0.0,-0.019993414667460838,0.009510523574288924,0.9829020876691049
2012-05-16,0,0.0,0.0,-0.019460430582677195,0.012535527375055559,0.983297757976074
2012-05-18,0,0.0,0.0,-0.006924491032538156,0.014286620827235714,0.9846865832317232
2012-05-22,-1,-0.0050574764051822445,-0.004311024135363012,-0.006924491032538156,0.012535527375055559,0.986047426009905
2012-05-24,-1,-0.004332739066003476,-0.0036741990734424903,-0.00986568016150069,0.012535527375055559,0.9852092638075014
2012-05-29,-1,-0.003070261877745434,-0.0025880421389889675,-0.015042665030284064,0.009510523574288924,0.9861046741727859
2012-05-31,-1,-0.004039155397896346,-0.003421823272182021,-0.015042665030284064,0.009510523574288924,0.9859944091824236
2012-06-04,-1,-0.004103863229980999,-0.0035307597658674065,-0.010969768498974382,0.012535527375055559,0.9869720256691563
2012-06-06,-1,-0.0040888543649964405,-0.0034916995414677925,-0.010969768498974382,0.016636305619660965,0.9853592973642283
2012-06-08,-1,-0.0046221528925095515,-0.003920420243479354,-0.015397623525272408,0.016636305619660965,0.9846049317172243
2012-06-12,-1,-0.004159411473734053,-0.0035728525660092044,-0.015397623525272408,0.016636305619660965,0.984431935997068
2012-06-14,-1,-0.004503945941938235,-0.0038591299811060855,-0.013801537918646157,0.016691682650072613,0.9842645103619593
2012-06-18,-1,-0.0033234069408813287,-0.002874109670551935,-0.013801537918646157,0.010616835047167966,0.9849647883907626
2012-06-20,-1,-0.002842667253376935,-0.002447628966726504,-0.013801537918646157,0.018213446851578843,0.9823633402309363
2012-06-22,-1,-0.004011712924617133,-0.003480157512845863,-0.013801537918646157,0.018213446851578843,0.9823154998529373
2012-06-26,-1,-0.004232753687559413,-0.0036761147124084502,-0.014156168821927982,0.018213446851578843,0.9819994820514503
2012-06-28,-1,-0.004226254601178463,-0.003728594561339458,-0.013801537918646157,0.021999434398507427,0.9810060598596212
2012-07-02,0,0.0,0.0,-0.014156168821927982,0.018213446851578843,0.9816493193402925
2012-07-05,0,0.0,0.0,-0.015035512491236065,0.007583725252721557,0.9826405145961147
2012-07-09,-1,-0.0021140455742873,-0.001970113905800448,-0.01416195433708789,0.0205252340778165,0.9810578540002561
2012-07-11,0,0.0,0.0,-0.01380346642369946,0.022378220301399722,0.9815880275943586
2012-07-13,0,0.0,0.0,-0.01416195433708789,0.017939105399925114,0.9822141793901499
2012-07-17,0,0.0,0.0,-0.01416195433708789,0.019182793027185268,0.981399182056728
2012-07-19,0,0.0,0.0,-0.01416195433708789,0.013486473624871733,0.9847111791362302
2012-07-23,-1,-0.00034143907575667255,-0.0002698163214156636,-0.01416195433708789,0.019182793027185268,0.983234735097795
2012-07-25,-1,-0.000826599489301487,-0.0007830031904291139,-0.011714997861800799,0.019182793027185268,0.9838215470404641
2012-07-27,0,0.0,0.0,-0.011714997861800799,0.019182793027185268,0.9840829204805656
2012-07-31,0,0.0,0.0,-0.01010076067726126,0.019182793027185268,0.9848974500018804
2012-08-02,0,0.0,0.0,-0.006959278266548594,0.019182793027185268,0.9857847814402664
2012-08-06,0,0.0,0.0,-0.009512445115356327,0.010778800189440997,0.988432158548605
2012-08-08,1,0.0014230943849807011,0.0018073627734776208,-0.009512445115356327,0.010778800189440997,0.9881642440282792
2012-08-10,1,0.001377865320602569,0.0017453565158309788,-0.006959278266548594,0.011374543498651187,0.9887481891202743
2012-08-14,0,0.0,0.0,-0.009512445115356327,0.011374543498651187,0.9877515527221453
2012-08-16,0,0.0,0.0,-0.009512445115356327,0.014321500538911435,0.9865606648115107
2012-08-20,0,0.0,0.0,-0.009512445115356327,0.011374543498651187,0.9885540535688193
2012-08-22,0,0.0,0.0,-0.00992474359517137,0.011170907536545451,0.9881938059937747
2012-08-24,0,0.0,0.0,-0.011218589635517001,0.006402594132352665,0.9888349670136838
2012-08-28,0,0.0,0.0,-0.014069509992676352,0.006402594132352665,0.9883995852805811
2012-08-30,0,0.0,0.0,-0.014069509992676352,0.007821799673923817,0.9883644516296755
2012-09-04,0,0.0,0.0,-0.014069509992676352,0.011071315789564804,0.9882795348806642
2012-09-06,0,0.0,0.0,-0.007165060708061242,0.011071315789564804,0.988923027923378
2012-09-10,0,0.0,0.0,-0.00955794950747206,0.007821799673923817,0.9893100136397541
2012-09-12,0,0.0,0.0,-0.009371890710492404,0.007821799673923817,0.9900918539115292
2012-09-14,0,0.0,0.0,-0.009371890710492404,0.0037985655899652492,0.9910638244150579
2012-09-18,0,0.0,0.0,-0.005667047821952376,0.008121086412451965,0.9894371492613543
2012-09-20,0,0.0,0.0,-0.004903272290509799,0.008281806025774632,0.9899522844684604
2012-09-24,0,0.0,0.0,-0.005768610027035465,0.008281806025774632,0.9891971491051165
2012-09-26,0,0.0,0.0,-0.005768610027035465,0.008281806025774632,0.9886917604749496
2012-09-28,0,0.0,0.0,-0.008014963314067933,0.008281806025774632,0.9886385027812427
2012-10-02,0,0.0,0.0,-0.008014963314067933,0.008606392778329247,0.987401834952004
2012-10-04,0,0.0,0.0,-0.008014963314067933,0.008441348343912568,0.9880552362244138
2012-10-08,-1,-0.0008759605087049524,-0.0007721275124652361,-0.009326917403197141,0.008441348343912568,0.987183160964099
2012-10-10,-1,-0.0005609555771391829,-0.0005241195227422611,-0.009456136763249608,0.00734652612556486,0.986232976959484
2012-10-12,0,0.0,0.0,-0.009456136763249608,0.00734652612556486,0.9860644498787718
2012-10-16,0,0.0,0.0,-0.014892021273252294,0.005234449615841215,0.9875376731037693
2012-10-18,0,0.0,0.0,-0.014892021273252294,0.006758103573860162,0.9859771717431466
2012-10-22,0,0.0,0.0,-0.005737393961385642,0.006758103573860162,0.9875186547741059
2012-10-24,0,0.0,0.0,-0.005191423283835952,0.0083058850706329,0.9875549558027812
2012-10-26,0,0.0,0.0,-0.0013686751451819498,0.01034566492145284,0.9870911197915198
2012-11-01,0,0.0,0.0,-0.007668756013971916,0.007392875766373586,0.9875111811603244
2012-11-05,0,0.0,0.0,-0.014603815046202503,0.005234449615841215,0.9871528178517255
2012-11-07,0,0.0,0.0,-0.01189831277922196,0.006509811044046215,0.9878842707174895
2012-11-09,-1,-0.0009692389744189082,-0.0007712120908004799,-0.01189831277922196,0.00756100748119106,0.988254706484501
2012-11-13,-1,-0.0004257962740445569,-0.00031603603588092877,-0.014603815046202503,0.01024286789436961,0.9869401705349993
2012-11-15,-1,-0.0016889913165577253,-0.0013785628504682423,-0.011927930055032038,0.01024286789436961,0.9871349750656916
2012-11-19,-1,-0.0005800711162752441,-0.00037532311215252435,-0.011927930055032038,0.009239743919388201,0.9880345297687507
2012-11-21,-1,-0.0013389851522090173,-0.000992941371340134,-0.012797894380978177,0.009239743919388201,0.9872948705353289
2012-11-26,-1,-0.00042736761972642014,-0.00022517358014733724,-0.012797894380978177,0.007226632822863923,0.9885054181359335
2012-11-28,1,0.0011388749491271814,0.0012013463524617955,-0.014603815046202503,0.007226632822863923,0.9868687896505004
2012-11-30,0,0.0,0.0,-0.011784976331499627,0.009239743919388201,0.987314618333386
2012-12-04,0,0.0,0.0,-0.011465370947040837,0.01439331935226359,0.9859981154799061
2012-12-06,0,0.0,0.0,-0.009598173359586265,0.01439331935226359,0.9855561221158783
2012-12-10,0,0.0,0.0,-0.007221964848343315,0.01486051896535739,0.9858957377112176
2012-12-12,0,0.0,0.0,-0.007221964848343315,0.01486051896535739,0.9867399533584253
2012-12-14,-1,-0.0011871666137766846,-0.0008216626165724319,-0.0025526298292880174,0.01486051896535739,0.987263449083146
2012-12-18,-1,-0.0012718072153351523,-0.0008519326907727883,-0.001191952992516859,0.014035351809862633,0.9882702646171544
2012-12-20,-1,-0.001599556965542885,-0.0012604741100893445,-0.0014339828466120531,0.014035351809862633,0.9882375648806764
2012-12-24,-1,-0.0024160212588508465,-0.0019322228334147577,-0.0033153862996624798,0.014035351809862633,0.9873619271223429
2012-12-27,-1,-0.0026568053205329074,-0.002095502218015308,-0.0033153862996624798,0.014035351809862633,0.9879504918399088
2012-12-31,-1,-0.0012246644514522832,-0.0008646770784650844,-0.0036698635786315023,0.01348929792002701,0.9895391971943583
2013-01-03,1,0.0002142902763681679,0.0003664611079486086,-0.005919791884719271,0.008760737694847347,0.9902737554946908
2013-01-07,1,0.0012659352454620519,0.0012838483542220729,-0.005919791884719271,0.007399801027745324,0.9905207547242234
2013-01-09,1,0.0025481986071181025,0.002726070926624519,-0.005919791884719271,0.008760737694847347,0.9879662816834242
2013-01-11,1,0.002465788555265849,0.0026295795389453093,-0.005312938620256518,0.007399801027745324,0.9884403505582726
2013-01-15,1,0.0033860405131138885,0.003747437886363169,-0.00585132535202159,0.007399801027745324,0.9876588171311788
2013-01-17,1,0.003678902193430801,0.004087354229999111,-0.00585132535202159,0.00700182385630241,0.9874785003775068
2013-01-22,1,0.0031535915040447693,0.003514989844043725,-0.00585132535202159,0.00700182385630241,0.9875071233231995
2013-01-24,1,0.002943423520703044,0.0032644565139514758,-0.00585132535202159,0.005861784382443822,0.987238732886419
2013-01-28,1,0.003656166693662895,0.00404094897679205,-0.00585132535202159,0.005861784382443822,0.9877984545565949
2013-01-30,0,0.0,0.0,-0.00585132535202159,0.007025503375289673,0.9879076486639536
2013-02-01,0,0.0,0.0,-0.0034192315473510083,0.007025503375289673,0.9893704402758451
2013-02-05,1,0.0019590126912280253,0.0022409846032200123,-0.0034192315473510083,0.007025503375289673,0.9898819518687973
2013-02-07,1,0.0033636482845445966,0.003744510485198394,-0.0034192315473510083,0.004403719823223183,0.9928730826642824
2013-02-11,1,0.0035313969784888924,0.003994502007394899,-0.005697628497247408,0.004403719823223183,0.992267719010433
2013-02-13,0,0.0,0.0,-0.006035385103559051,0.004403719823223183,0.9926574310963743
2013-02-15,1,0.003349134626589583,0.0037377475381242735,-0.011016470285563105,0.003206682230713904,0.9914170539479293
2013-02-20,1,0.002490900350148249,0.0027360584204989165,-0.011016470285563105,0.003206682230713904,0.9914897754413751
2013-02-22,1,0.0015177540129702365,0.0015935945902351006,-0.01087121709464837,0.002406417790833701,0.9920059990465566
2013-02-26,0,0.0,0.0,-0.008619692140750168,0.0016511622349156567,0.9928195250298326
2013-02-28,0,0.0,0.0,-0.008619692140750168,0.0016511622349156567,0.9930436680889813
2013-03-04,0,0.0,0.0,-0.01087121709464837,0.0016511622349156567,0.9922139955899324
2013-03-06,0,0.0,0.0,-0.01087121709464837,0.0023762718499913023,0.9925709613301398
2013-03-08,1,0.0017653194142903707,0.0019073003768841298,-0.01087121709464837,0.004861988142871989,0.9916924693298355
2013-03-12,1,0.0007217620720009708,0.000739321758105699,-0.008619692140750168,0.00518584514639277,0.99219274246602
2013-03-14,1,0.001588809504636859,0.0018166009301554293,-0.007005198589988536,0.0057251262663263365,0.9916815845323019
2013-03-18,1,0.000651843661324556,0.0007628732404890649,-0.005597325549852148,0.0057251262663263365,0.9918882165592082
2013-03-20,0,0.0,0.0,-0.006129159179238946,0.00518584514639277,0.9921885106960351
2013-03-22,0,0.0,0.0,-0.006129159179238946,0.0057251262663263365,0.9913354149226039
2013-03-26,-1,-0.0005126793957176252,-0.00044711102073102517,-0.005966724622148196,0.007981339707671188,0.9899707751914774
2013-03-28,1,0.00017722019101757994,0.0001831368136468372,-0.005966724622148196,0.007981339707671188,0.9896418987468719
2013-04-02,-1,-0.0001688501875380198,-0.00012790885977625392,-0.005321059656458491,0.011483839261371106,0.9889756504087771
2013-04-04,-1,-0.0004650820310363547,-0.00033011580855957527,-0.0061354324903024155,0.011483839261371106,0.9884034323407613
2013-04-08,-1,-0.0011540813127168318,-0.0008876341967745967,-0.0061354324903024155,0.011483839261371106,0.987822915069066
2013-04-10,-1,-0.0002564660415926403,-0.00010863682248166026,-0.0061354324903024155,0.011483839261371106,0.9876759748969041
2013-04-12,-1,-0.0005227434535795386,-0.0003020417488852587,-0.007788161934977087,0.00993999998736781,0.9877614896019979
2013-04-16,-1,-0.00038043450430741974,-0.0002482166846530359,-0.006714771722817668,0.01177637717240516,0.987708616851864
2013-04-18,-1,-0.001458913047225988,-0.0011986932039309622,-0.005961237599199275,0.01177637717240516,0.9879165434319342
2013-04-22,-1,-0.0014612176124264484,-0.001229716377853338,-0.002765497151283678,0.012723419219337256,0.9886766255751505
2013-04-24,1,0.0004804489931534942,0.0005279599456601154,-0.005961237599199275,0.012723419219337256,0.9897503809057228
2013-04-26,1,0.0005929899555753366,0.0006090948366551238,-0.008294941084860296,0.010255680669678508,0.9889712785133556
2013-04-30,1,0.0015559566867682432,0.0016292100984526133,-0.00963788074754272,0.009367225990576586,0.9893803602327267
2013-05-02,1,0.0003413425240208416,0.0004309064356505998,-0.009561675791306703,0.009367225990576586,0.9900543633389495
2013-05-06,1,0.0007349013739566528,0.0008080360805016138,-0.009561675791306703,0.004739747160806074,0.9905934552132025
2013-05-08,0,0.0,0.0,-0.010001172466881588,0.004083938930626001,0.9908785234788255
2013-05-10,0,0.0,0.0,-0.010001172466881588,0.004083938930626001,0.9912924421949226
2013-05-14,0,0.0,0.0,-0.010544929007658042,0.0033523759966460126,0.9914138967615792
2013-05-16,0,0.0,0.0,-0.01031631413894999,0.004083938930626001,0.991036922886603
2013-05-20,1,0.0007430259840880822,0.0008321096479627221,-0.01031631413894999,0.005602345479097613,0.9899839989607613
2013-05-22,1,0.0007344800461096227,0.0008309498699324317,-0.012071376590363407,0.004083938930626001,0.9886948458307715
2013-05-24,0,-4.6241293231343754e-05,0.00012552370726380633,-0.00817806577009088,0.004083938930626001,0.990306872389538
2013-05-29,0,-5.9676129261501665e-05,4.3842481346684345e-05,-0.00740257670871588,0.005602345479097613,0.9907620106473646
2013-05-31,1,0.0001693238214603831,0.0002007442368325697,-0.007294558698257881,0.008290715414736877,0.9903936180352173
2013-06-04,1,0.0006732912202859601,0.0007492903027733445,-0.007310589698287417,0.008290715414736877,0.9903011531149221
2013-06-06,1,0.0003864049177600289,0.00042375324783175796,-0.007285361748247293,0.008290715414736877,0.9909194358735104
2013-06-10,1,0.0006881300768831751,0.0007788158640228584,-0.007285361748247293,0.010246685465643765,0.9904260082442214
2013-06-12,1,0.00013827279535078704,0.0001719992805614474,-0.0037852768714562186,0.01193087525857189,0.989744072796546
2013-06-14,-1,-2.2888471086607157e-05,-2.1752090952310846e-06,-0.003818726131487867,0.011681298365346121,0.9901947526261271
2013-06-18,1,0.0011870326242058005,0.0013293103819607154,-0.006389581274492482,0.009609474799176735,0.9909234517393746
2013-06-20,1,0.0004310483951878478,0.0005137593869281366,-0.00431304951239592,0.009609474799176735,0.9928274406095214
2013-06-24,1,0.00011331157622216471,0.00013926560361694317,-0.0037283376085190585,0.009609474799176735,0.9928053394445119
2013-06-26,-1,-0.00044863303346745953,-0.0003403529541700102,-0.00431304951239592,0.008464096077636183,0.9929428148646828
2013-06-28,1,0.0007757088773960262,0.0008642997890530581,-0.00431304951239592,0.008464096077636183,0.9933852610865916
2013-07-02,1,0.0009235776780107284,0.0010551200455635973,-0.003915107413737158,0.008464096077636183,0.9934224529910787
2013-07-05,1,0.0009922613511192818,0.0011219366083605718,-0.003915107413737158,0.009516839139749803,0.9922357349861918
2013-07-09,1,0.0014273827937258759,0.0015974337077312526,-0.003915107413737158,0.007646444486471222,0.992921216982174
2013-07-11,1,0.0019562540986239555,0.002204789144606488,-0.00431304951239592,0.007186707422537715,0.9887561669084115
2013-07-15,1,0.0014182298773166052,0.0015659865225798692,-0.00438241224392019,0.007186707422537715,0.988725771300926
2013-07-17,1,0.0006358119765776955,0.0006598638087737879,-0.003915107413737158,0.007186707422537715,0.9889014417903418
2013-07-19,1,0.0006306047533700108,0.0006379491143840176,-0.005047929463163103,0.0070473173505275315,0.9881287181107828
2013-07-23,1,0.000985172490450788,0.0010717240466534771,-0.00668362090202811,0.007147738288238142,0.987633542518232
2013-07-25,1,0.0008657224577823376,0.0009453448135917882,-0.006124830534737078,0.007147738288238142,0.9877701171604869
2013-07-29,1,0.0012608772654844553,0.0014189394040307404,-0.008770398246578102,0.006577984865700109,0.9878091187628448
2013-07-31,1,0.0015251678519906339,0.001714943561413068,-0.01012345531999836,0.005777786662007319,0.9866575260333682
2013-08-02,1,0.0020952997922268064,0.002324836568372616,-0.01012345531999836,0.0030729725528914342,0.9875434144889342
2013-08-06,1,0.002031361201965655,0.0022417067703884245,-0.01012345531999836,0.0030729725528914342,0.9871640315289473
2013-08-08,1,0.0018123877146322697,0.0019487548619677286,-0.008770398246578102,0.00262253896248652,0.9921017800520084
2013-08-12,1,0.0019636548633043278,0.0021287702690028078,-0.01012345531999836,0.00262253896248652,0.9916661429528716
2013-08-14,1,0.0013819705455146573,0.0014380638224242705,-0.008979529449826426,0.003029588277924941,0.9919694677174388
2013-08-16,1,0.0003972595264379124,0.0004813159535387439,-0.004986115896785653,0.003965348382554038,0.9925200289461346
2013-08-20,1,0.0005107023701236288,0.0005657411023035496,-0.004530345021252326,0.003965348382554038,0.9929376047329095
2013-08-22,1,0.00028218046572018544,0.00038159554608568035,-0.004986115896785653,0.003965348382554038,0.9928326168214504
2013-08-26,0,-6.797259125734052e-05,5.9371714934228854e-05,-0.004986115896785653,0.003965348382554038,0.992790802373952
2013-08-28,-1,-0.0008874309673089504,-0.0006617227519237158,-0.004986115896785653,0.005196065395859172,0.9927777499056699
2013-08-30,-1,-0.0006617053183954301,-0.0004900989369288973,-0.005202253920037805,0.005196065395859172,0.9928442933038643
2013-09-04,-1,-0.00032503096341397785,-0.00020367112923532643,-0.005469918304749014,0.0038351955576545584,0.9931257742090056
2013-09-06,-1,-0.0009275595766466044,-0.0007089453173187969,-0.005469918304749014,0.005196065395859172,0.9926484562444232
2013-09-10,-1,-0.001940243642253133,-0.0015652045833347708,-0.005639225891193748,0.005196065395859172,0.9920248645770448
2013-09-12,-1,-0.002124509448044312,-0.0017035810188200584,-0.005639225891193748,0.0077439880584415375,0.9915767762465376
2013-09-16,-1,-0.0007413039162364832,-0.000536224479183055,-0.007666342962269335,0.004058140368682224,0.9923327181195294
2013-09-18,-1,-0.0001021776816427763,-8.510333266212517e-06,-0.013379407695125002,0.0016269886951141839,0.9921215742366571
2013-09-20,1,0.00029352732269710604,0.0002950421555449066,-0.013379407695125002,0.0077439880584415375,0.9908065681323995
2013-09-24,-1,-0.00063107863117391,-0.0004839575432052811,-0.007483004883679311,0.009411165771568576,0.990631416642272
2013-09-26,-1,-0.0001145747898602898,-6.06858700173534e-05,-0.007666428954527187,0.0077439880584415375,0.9911873169459726
2013-09-30,1,0.00014329414752450973,0.00015884319251519287,-0.007666428954527187,0.0077439880584415375,0.9912641181187444
2013-10-02,1,4.0994790557263025e-05,4.39749894611122e-05,-0.004809842058823692,0.0077439880584415375,0.9910698606915719
2013-10-04,1,0.0005918886316945188,0.000675165928005427,-0.008787998785857433,0.0077439880584415375,0.9906237169736409
2013-10-08,-1,-0.0008130744381558473,-0.0007009602287514631,-0.0015579436746650708,0.008410723152526733,0.9914085990357092
2013-10-10,1,2.4081911788433196e-05,4.4329126042735163e-05,-0.0030953829130703275,0.010508624677649079,0.9875711498137403
2013-10-14,-1,-0.00040810876909955186,-0.0003554937377314934,-0.002610009476700022,0.010508624677649079,0.9878367274907034
2013-10-16,-1,-0.0013393956753208452,-0.0011590862194271578,-0.002610009476700022,0.014759953018756156,0.9867153958127169
2013-10-18,-1,-0.0006963942163771707,-0.0005565875371047432,-0.004551835893937024,0.007838410631047083,0.9881894041303704
2013-10-22,-1,-0.00042606015327095525,-0.00029386355366765394,-0.005356008995665865,0.005336631844843011,0.9883563923126493
2013-10-24,-1,-0.0007441675111590178,-0.0005855240394190617,-0.005356008995665865,0.005336631844843011,0.9887867369983816
2013-10-28,-1,-0.0009296641202561035,-0.0007311002561922989,-0.005356008995665865,0.007838410631047083,0.9878866530019809
2013-10-30,-1,-0.0004643256361356448,-0.0003297746430558161,-0.0059977494724941655,0.005868679880589462,0.988254969023741
2013-11-01,-1,-0.0005395689089926853,-0.000355919874210392,-0.0059977494724941655,0.004829526856380017,0.9889659639891429
2013-11-05,0,-6.687010985723433e-05,6.144271564967378e-05,-0.0059977494724941655,0.0034382355396464603,0.9892723388102057
2013-11-07,1,1.4887942964633726e-05,7.353853908821507e-05,-0.0059977494724941655,0.002951638983284822,0.9936249717767622
2013-11-11,-1,-0.0006212198751070304,-0.00043778110771814597,-0.006131581123838659,0.0029029706625795628,0.9937135250790777
2013-11-13,0,-1.3026056936998594e-05,0.00011499853992433365,-0.006101432297537909,0.0029029706625795628,0.9944850443057356
2013-11-15,0,-9.423548357740573e-05,3.7682889952823006e-05,-0.006101432297537909,0.0029029706625795628,0.9941614380593945
2013-11-19,-1,-0.000299813268484126,-0.00018225271952088627,-0.006101432297537909,0.00372924326328278,0.9938955188605296
2013-11-21,-1,-0.0008491327711496643,-0.0006517336685558036,-0.006101432297537909,0.00372924326328278,0.9937708086666237
2013-11-25,1,0.00012478228209424733,0.0001935051839394233,-0.006101432297537909,0.00372924326328278,0.9942545017483115
2013-11-27,1,0.00023318429686369673,0.00025148194532081643,-0.005488892703503709,0.00372924326328278,0.9945342964406155
2013-12-02,1,0.0005900592933717265,0.0006650976295369274,-0.004087827813524228,0.0028824223433530126,0.9949754417722995
2013-12-04,1,0.00033152633745569453,0.00035155348590284563,-0.004405740112012954,0.004068137677403963,0.9945186622150255
2013-12-06,-1,-0.0005587418845884803,-0.0004336513255863705,-0.004405740112012954,0.004749752516487192,0.9940164792267459
2013-12-10,-1,-0.0005036456995936576,-0.00039647518992066814,-0.00449414279786557,0.004749752516487192,0.9934674203811327
2013-12-12,-1,-9.51963797459981e-05,-4.396229763302295e-05,-0.0068202257567635365,0.004638676981581726,0.9920958854462991
2013-12-16,1,0.00029350775424400057,0.00031013042383093686,-0.0068202257567635365,0.0037622927611893077,0.992588608807134
2013-12-18,1,0.0007610713664160994,0.0008186928959135957,-0.00785001354574412,0.003347926935973943,0.9919515904092907
2013-12-20,1,0.0004755422695660922,0.0005139002446135363,-0.007543502404190478,0.003347926935973943,0.9917677345562632
2013-12-24,1,0.0013310996872356875,0.0015523321317331877,-0.008123195861501934,0.0023893909177368413,0.9911888694770654
2013-12-27,1,0.001514946482823179,0.0017797344428130708,-0.008123195861501934,0.0023893909177368413,0.9908692959944961
2013-12-31,1,0.0018574038983082053,0.002210617856970359,-0.008331917448002081,0.003347926935973943,0.989552874969669
2014-01-03,1,0.001975065772039532,0.0023455631259296644,-0.010880376413208524,0.0006781154995593185,0.9887011433511573
2014-01-07,1,0.001460020030347765,0.001739697304871459,-0.011728913248718005,0.0006781154995593185,0.9879350157867601
2014-01-09,1,0.0007562526879219542,0.0008211626395921885,-0.008797818580158098,0.00344862914244249,0.9870160586985562
2014-01-13,-1,-0.00015360735824852128,-0.00010821172984832849,-0.008002760778181163,0.00344862914244249,0.9887905270581269
2014-01-15,1,0.000490439842150002,0.0005315648317834053,-0.008797818580158098,0.005033996531637162,0.9874870350904845
2014-01-17,-1,-0.000559985019522941,-0.00044484518873331714,-0.008002760778181163,0.01015783048448786,0.9884176111520313
2014-01-22,-1,-0.0014658146412692436,-0.0012246497713074254,-0.007833473935711252,0.01015783048448786,0.9891061080069218
2014-01-24,-1,-0.002082288517082871,-0.0017669744109337238,-0.007833473935711252,0.01015783048448786,0.9889513317269836
2014-01-28,-1,-0.002076330901712912,-0.0017737124217387633,-0.007833473935711252,0.011337995802208704,0.9880201369975848
2014-01-30,-1,-0.0017781990345946811,-0.0014885742965051966,-0.005248467012206451,0.01015783048448786,0.9891909403624775
2014-02-03,-1,-0.0032033736668115233,-0.002720114587985097,-0.00417617933106071,0.01048482155276114,0.9892821854280168
2014-02-05,-1,-0.005445173201064377,-0.0047167007368418565,-0.0032957481979561517,0.01048482155276114,0.989547540508424
2014-02-07,-1,-0.0020685446990748417,-0.0017750237324929527,-0.0032957481979561517,0.010092913620231594,0.9928507423260959
2014-02-11,-1,-0.0015867302290610158,-0.0013663890166154854,-0.003366472450729553,0.006724343641349992,0.9929209862966437
2014-02-13,-1,-0.0016832701238856515,-0.001442767044949971,-0.003366472450729553,0.004893309365866722,0.9929890936862346
2014-02-18,-1,-0.001743643601292076,-0.0014842462135745,-0.00228311692114037,0.006352614376121045,0.9927682087988439
2014-02-20,-1,-0.0014530207703483834,-0.0012380583058461884,-0.004515983949590506,0.006352614376121045,0.9922881041534075
2014-02-24,-1,-0.0012641104253142117,-0.0010588667622770038,-0.004931295153913243,0.005623721579099653,0.99244881881677
2014-02-26,-1,-0.0008894811846082871,-0.0007277849433893267,-0.005370386309851389,0.004251662230149228,0.9922152340758674
2014-02-28,-1,-0.0006887942962221175,-0.0005774693679202459,-0.005370386309851389,0.0053049066532801946,0.9918261390388612
2014-03-04,-1,-0.0012676816891622,-0.0010206053147850417,-0.005273139438769508,0.008253168871087815,0.9907462913500681
2014-03-06,-1,-0.0008858637938406267,-0.0007135769258157752,-0.005273139438769508,0.008253168871087815,0.9909477014028958
2014-03-10,-1,-0.0006558550923752089,-0.0004939182694377762,-0.013280783586873785,0.005158880885362738,0.9895825545986638
2014-03-12,-1,-0.0014724274427186006,-0.0011923263599482301,-0.008673631219467424,0.008253168871087815,0.9896437768349162
2014-03-14,-1,-0.0013989203251826535,-0.0011773501973722394,-0.008673631219467424,0.008253168871087815,0.9896915203822165
2014-03-18,-1,-0.00011156182477083156,-6.94618427808519e-05,-0.008673631219467424,0.005641187241329508,0.9901618415873281
2014-03-20,-1,-0.0012416914768849843,-0.00104363360932623,-0.004949498287379011,0.005641187241329508,0.9909398918277769
2014-03-24,-1,-0.0014151287904503613,-0.0012024926011287148,-0.0043577206133571505,0.006118620537222205,0.9909897094051902
2014-03-26,-1,-0.0018640461980258326,-0.001616103579252914,-0.0043577206133571505,0.006118620537222205,0.9916215189794914
2014-03-28,-1,-0.0007250743254064024,-0.0006346907187223232,-0.007397770366329654,0.005629651245353768,0.9912390033177363
2014-04-01,1,0.0005272382402492491,0.0006085063855180372,-0.007397770366329654,0.005121547777794684,0.9920432513902588
2014-04-03,-1,-0.00014545604663563196,-0.00012165864504301795,-0.007397770366329654,0.005685992422304382,0.9913382930085556
2014-04-07,-1,-0.001337123702267643,-0.0012478604890070366,-0.006275385319414999,0.0056880644112062735,0.9926352289782673
2014-04-09,-1,-0.0001705735062712249,-7.129959671929343e-05,-0.0071006036323089695,0.005546319045624319,0.9926402814767809
2014-04-11,-1,-0.0006460778637883879,-0.000630881312527249,-0.008939715543752835,0.005546319045624319,0.992402069442859
2014-04-15,-1,-0.00043321479338025745,-0.00041174932639531723,-0.009843005997957791,0.005546319045624319,0.9918267232689967
2014-04-17,-1,-0.000799321951220796,-0.0007676586835886099,-0.009843005997957791,0.0056880644112062735,0.9913393811819354
2014-04-22,-1,-0.00017649927622689663,-8.995939756803158e-05,-0.009843005997957791,0.006197751154475779,0.991090742582543
2014-04-24,-1,-0.00018927030056247065,-0.0001187257809756699,-0.009843005997957791,0.007407031342736829,0.9911074336939761
2014-04-28,-1,-0.0010981593936802638,-0.0010571908173343256,-0.006789367045222727,0.007407031342736829,0.9913847907195306
2014-04-30,-1,-0.0006357006330971742,-0.0006159481217722653,-0.006558001517503274,0.007407031342736829,0.9916026743304509
2014-05-02,-1,-0.0002906596801510484,-0.00024701965442703027,-0.006558001517503274,0.005435850345041606,0.992644194574009
2014-05-06,-1,-0.0003987730490543871,-0.0003607383367837477,-0.005091910496090427,0.007165974189926963,0.9927772623058478
2014-05-08,-1,-0.0007793279861616218,-0.0007725458640277176,-0.005091910496090427,0.007165974189926963,0.9927820155038372
2014-05-12,-1,-0.0007804012102313154,-0.0007534843030377877,-0.0025772407255446423,0.007165974189926963,0.9937686941472327
2014-05-14,-1,-0.0005347026123721501,-0.0004490038304129984,-0.004395899237324065,0.005838943741128623,0.9944803911469347
2014-05-16,1,2.3706553040524908e-05,0.00016017630509714107,-0.004395899237324065,0.005440446265000341,0.99497764578588
2014-05-20,1,0.00020849894011241722,0.0003867383863687368,-0.003700113698603163,0.005965272190489431,0.9947407300545245
2014-05-22,1,0.0006745805121475792,0.0009186992529438156,-0.004409167770876067,0.005970481761542117,0.9944079990269106
2014-05-27,1,0.0010000147177392843,0.0012968217928876358,-0.004409167770876067,0.0072336115214449975,0.9942847506851227
2014-05-29,1,0.0011720225116846161,0.0014996963207570908,-0.004409167770876067,0.007330284352790991,0.9938013531467366
2014-06-02,1,0.0011841792750321178,0.0015123383118965752,-0.004409167770876067,0.007659361554144645,0.993031390999519
2014-06-04,1,0.0014788261540054077,0.0018227401925744778,-0.004409167770876067,0.007600008530410709,0.9933392527537697
2014-06-06,1,0.0011948313748373026,0.0014086679238481392,-0.004409167770876067,0.008490796552641424,0.9929117002526816
2014-06-10,1,0.0009731732764403036,0.0012003767194756387,-0.005200800244335415,0.008632508125684748,0.9924145680137529
2014-06-12,1,0.00017371652644429143,0.00024491342670506286,-0.005473093472907259,0.008632508125684748,0.9916404433031046
2014-06-16,1,2.4467330741777832e-05,5.074355548259902e-05,-0.005473093472907259,0.008632508125684748,0.9917440221855
2014-06-18,1,0.0003542163989578066,0.00039675624032029264,-0.005595053892329966,0.007622270996048333,0.9921871152845125
2014-06-20,1,0.00022427992538127852,0.00024681957544660737,-0.005291615100200724,0.0062149659721031265,0.9929923240971669
2014-06-24,1,0.0005367109240027677,0.0006131201962832366,-0.005291615100200724,0.0062149659721031265,0.9932439111615168
2014-06-26,0,-6.874664617544901e-05,1.8304023807460743e-06,-0.005291615100200724,0.006601661132735567,0.992961295380221
2014-06-30,1,0.0005660165819628455,0.00067910575921631,-0.005595053892329966,0.0038480948946670503,0.9935299961644468
2014-07-02,1,0.0016485891176790143,0.0018077433083362269,-0.006148970553606947,0.003996214854755768,0.9923833765111536
2014-07-07,1,0.0016638048296541313,0.0018240266921889271,-0.006734302169844539,0.003996214854755768,0.9921463041108781
2014-07-09,1,0.0018818905675073974,0.0020742380185380218,-0.006161422422252809,0.002350556668972875,0.9930019538643021
2014-07-11,1,0.0009880816500427096,0.0010639326070062361,-0.005198318999812899,0.006807717862137137,0.9932713028855488
2014-07-15,1,0.0009601367853340687,0.0010383180127005738,-0.005198318999812899,0.00824153176234234,0.9928480238298589
2014-07-17,1,0.0006904662444969051,0.000745695396414678,-0.0007371499821536696,0.00824153176234234,0.9929209541185793
2014-07-21,1,0.0011202986089922985,0.001259891126637205,-0.0007371499821536696,0.009722647442392506,0.9926871594760148
2014-07-23,1,0.001459482273626055,0.0016236352576756094,-0.0007371499821536696,0.011177414846013579,0.9922000370482813
2014-07-25,1,0.0014288799919572673,0.0016077109900426005,3.5991111057034854e-06,0.010220518874095495,0.9932318174685597
2014-07-29,1,0.0011441975953134277,0.0012882898852173297,3.5991111057034854e-06,0.010220518874095495,0.9933362625149204
2014-07-31,1,0.0008511087292120809,0.0009824935602351678,3.5991111057034854e-06,0.010220518874095495,0.994234364663207
2014-08-04,1,0.0010989700944106693,0.001231103142913985,0.0006961831363260019,0.008407488906243335,0.9951744645204064
2014-08-06,1,0.0008044703491855745,0.0008615786518229591,3.5991111057034854e-06,0.010220518874095495,0.9938869773724118
2014-08-08,1,0.0017084382105713352,0.0019421301505835923,-0.0008441026410856139,0.00682479267038271,0.9949075178723394
2014-08-12,1,0.001516478371728463,0.0016783353587793049,-0.0008441026410856139,0.006134882798730915,0.9950839008843454
2014-08-14,1,0.00150211164367352,0.0016487005650750405,-0.0008441026410856139,0.006134882798730915,0.994969169831445
2014-08-18,1,0.0013844366149772611,0.0014677184725383193,-0.002663283158165296,0.006134882798730915,0.9941652262777863
2014-08-20,1,0.0027142220998738493,0.0029884981952140923,-0.002663283158165296,0.0037098097885677715,0.9950559753754462
2014-08-22,1,0.002932784150542809,0.003315899665804093,-0.004600594487414228,0.0037098097885677715,0.9940133594210063
2014-08-26,1,0.0030263217333601007,0.003389715715935348,-0.004600594487414228,0.0037098097885677715,0.9935447852108439
2014-08-28,1,0.0017054921916687463,0.0018243266078913916,-0.005778132531712872,0.0037953435991149803,0.9931928901252506
2014-09-02,1,0.0019475595958591894,0.0021319130710729097,-0.005778132531712872,0.003342214941678591,0.9928282241698753
2014-09-04,1,0.0018069476453566353,0.0019174754284213972,-0.008218216737180883,0.003342214941678591,0.9925164380311708
2014-09-08,1,0.0019281987124380813,0.002069340486234276,-0.009257281031308847,0.003342214941678591,0.991721589338736
2014-09-10,1,0.0021286570202465587,0.0022726614579668476,-0.009257281031308847,0.0015323816873391973,0.990765073535048
2014-09-12,1,0.0018163291167709525,0.0019240691930759958,-0.012876370334490623,0.0010114062839556483,0.9895811640952598
2014-09-16,1,0.0015594328038984698,0.0016256413487958882,-0.012876370334490623,0.0010114062839556483,0.9899973707369536
2014-09-18,1,0.0009734094777518923,0.0010302277094751957,-0.012876370334490623,0.0010680934973987593,0.9898002229482374
2014-09-22,1,0.00019202942880245944,0.0003500406303395851,-0.012603363009135983,0.0020436251946655344,0.9902799234727578
2014-09-24,1,5.2002517769333967e-05,0.00019060036327551397,-0.009774429024476533,0.004789757078841462,0.9896447261559544
2014-09-26,-1,-0.00036204999971778894,-0.00015496292066113112,-0.008488992588021178,0.004364592758306423,0.9903171657528902
2014-09-30,-1,-0.0010928630530299094,-0.000771660206836272,-0.008488992588021178,0.006066305132705276,0.9902883015100099
2014-10-02,-1,-0.0003360150795206231,-0.00012347768724091704,-0.008045702721683751,0.006066305132705276,0.9900395182016226
2014-10-06,-1,-0.001221331114658291,-0.000902901239222119,-0.007665560529470622,0.006066305132705276,0.9902514648878532
2014-10-08,-1,-0.0006097908994054548,-0.00038574749757277615,-0.007985706482638993,0.005570223804048816,0.9908396564342858
2014-10-10,-1,-0.0020045979255556732,-0.0016228093465264156,-0.005928254308249092,0.00627606351617346,0.9895352626846758
2014-10-14,-1,-0.00258429945637776,-0.0021517586509926957,-0.005928254308249092,0.00627606351617346,0.9898102945721027
2014-10-16,-1,-0.0023574862545594627,-0.0019724542175504267,-0.005150555521620554,0.007866398508459622,0.9895979370425951
2014-10-20,-1,-0.002599552287426105,-0.0021794163757145233,-0.003981728154112067,0.010509131221630023,0.9892541155344603
2014-10-22,-1,-0.0017234072840664842,-0.0014054410969246095,-0.0032348239836278306,0.010509131221630023,0.9896949706418198
2014-10-24,-1,-0.0015455683221654646,-0.0012742655658543175,-0.00016533991703580387,0.010509131221630023,0.9899470402396601
2014-10-28,-1,-0.0015844779889259094,-0.0012946764058453936,0.0012078827418744408,0.010509131221630023,0.989546902423743
2014-10-30,-1,-0.0002769080384588392,-0.00013962816140888955,-0.000279286693934449,0.010509131221630023,0.9909082564941194
2014-11-03,-1,-0.0007903841793046419,-0.0005662955859927734,-0.0033059908517735904,0.010509131221630023,0.9902633449117506
2014-11-05,-1,-0.001069798229430664,-0.0008137500516353021,-0.001271244496639668,0.011892443257836118,0.9900096518208151
2014-11-07,1,0.0014804384777323044,0.0015667620474710442,-0.0016803811777684322,0.008056916319621896,0.9932527325880982
2014-11-11,1,0.0006669277498812363,0.0006943561779619812,-0.0016803811777684322,0.008056916319621896,0.9931745774558441
2014-11-13,1,0.0013309035015131232,0.0014174181160265444,-0.0016803811777684322,0.007110190624970881,0.9934659826565094
2014-11-17,1,0.0017013916234649732,0.0018178891658869297,-0.0035871554049341,0.005178141372637595,0.992585561476572
2014-11-19,1,0.0027714732581754827,0.0030772622287112907,-0.0035871554049341,0.007110190624970881,0.9923506126623775
2014-11-21,1,0.002818315957622109,0.0031362087981205754,-0.0051119822185294005,0.0073991005392926995,0.9916671572459157
2014-11-25,1,0.0033098553061016046,0.003692620797140695,-0.0051119822185294005,0.0077887595841248485,0.9912333810545364
2014-11-28,1,0.003788647736359568,0.004242713212533012,-0.0051119822185294005,0.0077887595841248485,0.9918681397115505
2014-12-02,1,0.0023556904020922875,0.0025587831770064753,-0.004058187384950227,0.0077887595841248485,0.9925102777190781
2014-12-04,1,0.0027537022376221583,0.002996050555713029,-0.009098053981353996,0.005353909703054842,0.9910648133410322
2014-12-08,1,0.002205712487235871,0.0023484420431431298,-0.010132234804085493,0.0077887595841248485,0.9891335871067921
2014-12-10,1,0.0014861469937922987,0.0015359389466428422,-0.010132234804085493,0.0077887595841248485,0.9891199317043609
2014-12-12,1,0.001853527773134724,0.0019733468238291073,-0.010132234804085493,0.0077887595841248485,0.988541699012788
2014-12-16,1,0.0006361681398651094,0.0006734822454099935,-0.010132234804085493,0.0077887595841248485,0.9889286706932476
2014-12-18,1,0.0012019474506856,0.0012100328991720777,-0.010852538389535064,0.0039029430092611984,0.9890910293662644
2014-12-22,1,0.0006290330624402685,0.0007277489244065675,-0.010852538389535064,0.005064505140413232,0.989466492231325
2014-12-24,1,0.0014782860050652786,0.0014820748749034252,-0.011358814112708514,0.003655413829550842,0.9894918904872014
2014-12-29,1,0.001811536299040763,0.001860833216741208,-0.011358814112708514,-0.00011067240063111013,0.9887782163763414
2014-12-31,1,0.001654516824303713,0.0017315873473766315,-0.012656099404916497,0.0031811948127804294,0.987412379489387
2015-01-05,1,0.0003143825321704445,0.0003804149978493183,-0.011085852837894076,0.006021458302904245,0.9887922112124502
2015-01-07,1,0.0005355577429155118,0.0005653022037389898,-0.011085852837894076,0.006021458302904245,0.9853159951459298
2015-01-09,1,9.497049951478933e-05,0.00015647770949190308,-0.013164782381773488,0.006021458302904245,0.9842089234002943
2015-01-13,-1,-4.292378974295896e-05,-6.682806145140213e-06,-0.013164782381773488,0.006021458302904245,0.9845023443720389
2015-01-15,-1,-0.0008815120556644347,-0.0007500942979110274,-0.011085852837894076,0.006021458302904245,0.9852820831308466
2015-01-20,-1,-0.0012147358622420234,-0.0010367594612151543,-0.010944838917530328,0.007727763701066809,0.985449294917914
2015-01-22,-1,-0.0005634848884063843,-0.00046319668440682595,-0.010944838917530328,0.006197523600191361,0.9851982382453114
2015-01-26,-1,-0.0007792330824841915,-0.0006602399360673001,-0.008464292371336593,0.006197523600191361,0.9855705462817614
2015-01-28,-1,-0.0012460440209868364,-0.0010995672281569908,-0.007001116722288543,0.006197523600191361,0.9859006208982318
2015-01-30,-1,-0.0010424525846104444,-0.0009212107938764069,-0.005125601112540495,0.004910922156837703,0.9876244423769606
2015-02-03,1,0.00022703004219619822,0.0002862446226226994,-0.007221586530400018,0.004188975426794089,0.9877506001610096
2015-02-05,-1,-0.0022772256665131866,-0.002030244904903033,-0.007221586530400018,0.002908889707298337,0.992660436829845
2015-02-09,-1,-0.0039508477389326325,-0.003500371729109351,-0.007001116722288543,0.004188975426794089,0.9933122807466158
2015-02-11,-1,-0.003961554626822834,-0.0035144639397348496,-0.007021617545360866,0.004678206381761675,0.9915422532911546
2015-02-13,-1,-0.004314163133248021,-0.0037953369451950636,-0.007021617545360866,0.0042063481076847035,0.9919187800695483
2015-02-18,-1,-0.004108713251018263,-0.0035929816634189798,-0.007021617545360866,0.0042063481076847035,0.9913158822966419
2015-02-20,-1,-0.0034872033106640426,-0.003030433480931167,-0.007021617545360866,0.0029451967084962926,0.9919573384028358
2015-02-24,-1,-0.003875939559403706,-0.003364616195628783,-0.007021617545360866,0.00423592072057777,0.9915237179601447
2015-02-26,-1,-0.003621888277667773,-0.0031700955803169823,-0.006844854284902529,0.00423592072057777,0.9916776136223074
2015-03-02,-1,-0.003757977180682404,-0.0032580635773429767,-0.006844854284902529,0.004348583794062529,0.9915795861863108
2015-03-04,-1,-0.004283018434173795,-0.0037487463797051448,-0.005992495838108202,0.005648045860617863,0.9915932888249326
2015-03-06,-1,-0.005896508475891869,-0.005108758761946389,-0.005717696804920651,0.008282752148358023,0.9895403464644841
2015-03-10,-1,-0.006715080514095967,-0.005805295756070755,-0.0048902696809427345,0.009329205595168803,0.9890336976365887
2015-03-12,-1,-0.006386681749634032,-0.0055175098124065035,-0.0048902696809427345,0.008282752148358023,0.990399117717271
2015-03-16,-1,-0.00664448315035935,-0.0057462540603469125,-0.0048902696809427345,0.008282752148358023,0.9902600292054555
2015-03-18,-1,-0.005290577321573075,-0.004587430404030682,-0.004624493545901232,0.006410919427819704,0.991976141700847
2015-03-20,-1,-0.004928743636162296,-0.004271392877300146,-0.005717696804920651,0.008282752148358023,0.9905031356462575
2015-03-24,-1,-0.004578907545915884,-0.0039730710369263325,-0.005992495838108202,0.008282752148358023,0.9907353309816269
2015-03-26,-1,-0.004036320460896176,-0.003550098753860286,-0.005717696804920651,0.008282752148358023,0.9903759754271582
2015-03-30,-1,-0.003951701412194603,-0.0034738949165514267,-0.005913618095444267,0.0076702976843552005,0.9908632779622414
2015-04-01,-1,-0.003794108228481351,-0.003328695914093293,-0.005940932303450803,0.006206767939818764,0.9914486015965548
2015-04-06,-1,-0.0011510862470790223,-0.0010879789028425291,-0.005940932303450803,0.004096224411917493,0.9921386045011581
2015-04-08,-1,-0.0010809351787293999,-0.0010002518322965862,-0.0062804749798838645,0.003302733952058541,0.9921794785847786
2015-04-10,-1,-0.0010894755698261033,-0.0010310738362549403,-0.005940932303450803,0.002543151207420653,0.9929510576095606
2015-04-14,-1,-0.0008099278888419193,-0.0008035415694488157,-0.0062804749798838645,0.002543151207420653,0.9925216581393249
2015-04-16,-1,-0.00035273794166968466,-0.00024229044602096667,-0.0067391872688384305,0.002543151207420653,0.9902965324331217
2015-04-20,-1,-0.00026019155701726814,-0.0001328632773278607,-0.0062804749798838645,0.002543151207420653,0.9919714965556216
2015-04-22,1,3.6932497830471337e-05,0.0002374248169968394,-0.0062804749798838645,0.003053846773417872,0.9915217858571265
2015-04-24,1,0.00034519009982663415,0.0006166492374112332,-0.005940932303450803,0.003053846773417872,0.9916032348396737
2015-04-28,-1,-0.00022706304841128687,-7.097108706395047e-05,-0.0070672090330394345,0.003053846773417872,0.9904239720126872
2015-04-30,0,-0.00010948478379112442,8.202591035030501e-05,-0.01071710475052582,0.006655184504388631,0.9890469030881747
2015-05-04,1,0.0005926757625558398,0.0008833436259878186,-0.01071710475052582,0.00959763230521686,0.988372466360592
2015-05-06,1,3.635330361965311e-07,0.00019028056912199836,-0.005941785494963943,0.010838891605583061,0.9883773547692698
2015-05-08,1,0.00039448493394103666,0.0006589287403012321,-0.006339082506941434,0.010838891605583061,0.988379026354488
2015-05-12,-1,-0.0001784541706614884,-3.8159733008180045e-05,-0.005004133309798967,0.010838891605583061,0.9885482952606282
2015-05-14,1,9.709112751200106e-05,0.0003269063237636917,-0.004489744548243081,0.00959763230521686,0.9907934166988047
2015-05-18,1,0.0003901534447472751,0.0006640694075185172,-0.005004133309798967,0.006260100229840068,0.9910067244029531
2015-05-20,1,0.0007006923066307661,0.0010576261287567662,-0.00409428887258396,0.00965363878193737,0.9902017611431851
2015-05-22,1,0.0014785342767414426,0.001971678561597625,-0.005004133309798967,0.006279161164463109,0.990142922129883
2015-05-27,1,0.00043977697533569503,0.0007856916851409848,-0.005004133309798967,0.006279161164463109,0.9911632937448404
2015-05-29,1,0.0004881234385858635,0.0007808039446856838,-0.005004133309798967,0.005126584779983977,0.9922774698805159
2015-06-02,1,0.001892266561352903,0.0023913230561078817,-0.007459182913113937,0.0024229355674669217,0.9921796133273456
2015-06-04,1,0.002113966190450902,0.0026171366282619303,-0.007459182913113937,0.003164613183083521,0.9918950604176545
2015-06-08,1,0.001849790984249625,0.002297274294456325,-0.009342295997066534,0.005126584779983977,0.9912114847369886
2015-06-10,1,0.0014081375038251694,0.001766099298542466,-0.010809930650785499,0.005126584779983977,0.9897528023020625
2015-06-12,1,0.0013835998770369551,0.0017326796128187473,-0.010809930650785499,0.005828074936990325,0.98818239295002
2015-06-16,1,0.0015278171238915876,0.0019270432599209583,-0.011659544031926771,0.006980222330610729,0.9874366083687091
2015-06-18,1,0.002568698578685602,0.003095617177310431,-0.014234442074637144,0.005828074936990325,0.9881597879415981
2015-06-22,1,0.002273982774232956,0.0027318252262516452,-0.014234442074637144,0.005828074936990325,0.9883224101278757
2015-06-24,1,0.002080633022613892,0.0025215849793174825,-0.01220808974999894,0.005828074936990325,0.9883722420955242
2015-06-26,1,0.0028232804871280706,0.003451284631669982,-0.015439562995909258,0.005828074936990325,0.9872588349381639
2015-06-30,1,0.0002789568228843192,0.0003857831053765384,-0.014761288057625041,0.006980222330610729,0.9888088203535562
2015-07-02,1,0.0002739875423817986,0.0003077439573009579,-0.014761288057625041,0.0036387249680497136,0.989079395731196
2015-07-07,-1,-0.0001744357794752359,-0.0001359908684010248,-0.014761288057625041,0.002590555343165972,0.9893592050813894
2015-07-09,-1,-0.001425991284476411,-0.0012403099542283532,-0.014607715287707088,0.002590555343165972,0.9901716443107944
2015-07-13,-1,-2.7234766706263325e-05,-2.22969818676241e-05,-0.014607715287707088,0.0017939850229637788,0.991674050535269
2015-07-15,-1,-5.4950183497299326e-05,-1.752465016882079e-05,-0.013227922821645394,0.0005811851016972085,0.9920013694058574
2015-07-17,-1,-0.0005709979407310688,-0.000529302506734671,-0.011403850231595365,0.0005811851016972085,0.9925349820888228
2015-07-21,-1,-0.0007580195714097051,-0.0006875936069355824,-0.011403850231595365,0.0005811851016972085,0.9924018577744412
2015-07-23,-1,-0.0010688573155346315,-0.0009720028455020826,-0.013306545515144767,0.0005811851016972085,0.9911897723341143
2015-07-27,-1,-0.0024319286024334897,-0.00214997285884698,-0.013330118143216623,0.0005811851016972085,0.9906617277184325
2015-07-29,-1,-0.0022713404684106546,-0.001945176350216034,-0.016013258239628066,0.00018405299170542625,0.9896004064189543
2015-07-31,-1,-0.003249910035042938,-0.002797727330691874,-0.016013258239628066,0.00089439014649672,0.988333825837659
2015-08-04,-1,-0.002063973118353376,-0.001766679461037603,-0.016013258239628066,0.0027362214482759936,0.9877177549221018
2015-08-06,-1,-0.0036319608235750433,-0.003138253141955427,-0.014664943210922033,0.0069837651093731,0.98757378153209
2015-08-10,-1,-0.002708654539663264,-0.0023697823489069987,-0.018387605746293115,0.01066455727634925,0.9860961052914206
2015-08-12,-1,-0.0031956174030219643,-0.00281362856935708,-0.019930187434081786,0.01066455727634925,0.9858101443208941
2015-08-14,-1,-0.0029937592850909486,-0.0026467110447010974,-0.019930187434081786,0.01066455727634925,0.9853190750455604
2015-08-18,-1,-0.0034739240920110205,-0.003048633070873685,-0.019930187434081786,0.015916781613000607,0.9823842205577272
2015-08-20,-1,-0.004248619569808983,-0.003746462196336716,-0.019930187434081786,0.015916781613000607,0.9819405390484532
2015-08-24,-1,-0.0054258142854473,-0.004850256674348109,-0.01676619444152584,0.016723886565582945,0.9822170845087075
2015-08-26,-1,-0.00389796410243919,-0.0035116421567169907,-0.01676619444152584,0.015916781613000607,0.9828660144263183
2015-08-28,-1,-0.0025437981907978943,-0.0023266836707531466,-0.01835842374340561,0.011175451558223932,0.9834182608858989
2015-09-01,-1,-0.0029262320380092407,-0.002644728279068184,-0.01676619444152584,0.014170124767345988,0.9795746583735564
2015-09-03,-1,-0.002744053176502115,-0.0024879101790104023,-0.01676619444152584,0.012012251353216895,0.9799414403404075
2015-09-08,-1,-0.002559542362012145,-0.0023326825245653477,-0.014257471808993085,0.011932095943458827,0.9803743848761365
2015-09-10,-1,-0.0029503186896802885,-0.0026942267962888128,-0.011948436394279198,0.016440057923050675,0.9798552707754475
2015-09-14,-1,-0.0031979795802733364,-0.0029107019933314452,-0.010656409745341718,0.016440057923050675,0.9806217771678041
2015-09-16,-1,-0.0010554274093655036,-0.0010174051570854695,-0.011948436394279198,0.0077616233358764756,0.9828073570249983
2015-09-18,-1,-0.0019099051186212657,-0.0017590872498439438,-0.011595277903498628,0.0077616233358764756,0.9844331043657664
2015-09-22,-1,-0.0014916467443918844,-0.0013764530603187339,-0.011595277903498628,0.006180141080331092,0.985359639635313
2015-09-24,-1,-0.0012410382714321204,-0.0011883904194845813,-0.011595277903498628,0.006180141080331092,0.9856739034083114
2015-09-28,-1,-0.0025071880452370286,-0.0022854633839126384,-0.011595277903498628,0.006180141080331092,0.9862502830463525
2015-09-30,-1,-0.0002431295392315057,-0.00018308799403417658,-0.012243014706105906,0.004943435795079871,0.9908827302206229
2015-10-02,-1,-0.00020638797308306987,-0.000156143908086271,-0.012243014706105906,0.0041427724229623625,0.9907666432555473
2015-10-06,1,0.00010970911572745896,0.00021366232362442472,-0.012243014706105906,0.002668418127019073,0.9903678106110834
2015-10-08,1,0.0005098436406746913,0.000673656771097292,-0.012243014706105906,0.002668418127019073,0.9868262937700696
2015-10-12,-1,-0.0007055757426557719,-0.0007003335508596874,-0.013275816665123022,0.0041427724229623625,0.983599498743866
2015-10-14,-1,-0.0007831231400008565,-0.0007606236391911728,-0.013559093237502874,0.0041427724229623625,0.9810223433001549
2015-10-16,-1,-0.001915481856435597,-0.001764545715064252,-0.01894196613712564,0.0041427724229623625,0.9797686634346379
2015-10-20,-1,-0.001245032926934905,-0.001203319546821579,-0.01894196613712564,0.004869073730644178,0.9792607613721753
2015-10-22,-1,-0.0006984189182652737,-0.0006010812129433482,-0.01894196613712564,0.004912137108028687,0.9789547932009268
2015-10-26,-1,-0.0010521615398961662,-0.0009664597732053058,-0.014109760860636606,0.011143896592878592,0.9786967257541581
2015-10-28,-1,-0.0011759766325803948,-0.0011098494455549892,-0.0128758003386544,0.011143896592878592,0.9786869521713346
2015-10-30,-1,-0.0015106363863843742,-0.001491778550185068,-0.011430502600809113,0.011143896592878592,0.9790120343483444
2015-11-03,-1,-0.0004035873929346611,-0.00023335386211283398,-0.011430502600809113,0.00780076030251044,0.9800912232026665
2015-11-05,1,0.0008186841642238554,0.0011449094503731968,-0.014606072923589777,0.007268414050054619,0.9833489498748281
2015-11-09,1,0.002411924728215699,0.0030246894313406382,-0.011430502600809113,0.005526099390922056,0.9855981304597818
2015-11-11,1,0.0005758729709892036,0.0009456918176986265,-0.011430502600809113,0.005526099390922056,0.9882323041230164
2015-11-13,-1,-0.0004039930396238497,-0.00017125812408086243,-0.010900274140260572,0.005526099390922056,0.9890953208482975
2015-11-17,-1,-0.0003823454386473346,-0.00014933823150599032,-0.010479814092637981,0.007384592331476526,0.9887666635445412
2015-11-19,1,0.00012982699857421451,0.0003833549933588287,-0.011389134653018732,0.005526099390922056,0.9883814646286339
2015-11-23,1,0.0014910210938500305,0.001969357488350267,-0.011389134653018732,0.004968206349092393,0.9884251556850027
2015-11-25,1,0.0014084493329367467,0.0018725783255557496,-0.011389134653018732,0.005526099390922056,0.9875039286039605
2015-11-30,1,0.0006226829219527558,0.00091863855816411,-0.010479814092637981,0.008059493799326736,0.9872833503583005
2015-12-02,1,0.0018314178202301727,0.0023753339358509647,-0.011060107643400605,0.0031105096199921024,0.9860720629744155
2015-12-04,1,0.0005724690830747408,0.0009312601858762946,-0.01037669161462848,0.003250399361455922,0.9883037394996279
2015-12-08,1,0.00012799113013135398,0.0004164165411639966,-0.013635397696383441,0.003250399361455922,0.9865261442601496
2015-12-10,-1,-0.0006221517077252174,-0.0004325651101738546,-0.012426429722814854,0.003250399361455922,0.9866942642951252
2015-12-14,-1,-0.0011945399403066903,-0.0010969204554352428,-0.012426429722814854,0.011017764650208088,0.9856599080988877
2015-12-16,-1,-0.0007567520897682094,-0.000641746971434652,-0.012426429722814854,0.0011831486538946008,0.9865084180076498
2015-12-18,-1,-0.0012245401723254517,-0.0011410877173800376,-0.010750740209372101,0.007926743625524438,0.9869268778855672
2015-12-22,-1,-0.0012590427747048005,-0.0011800894257503643,-0.010750740209372101,0.010828654882396267,0.9861313781863567
2015-12-24,-1,-0.0008420927689045568,-0.0007356179924069616,-0.010750740209372101,0.010828654882396267,0.9863753275133553
2015-12-29,-1,-0.0008450552569439837,-0.0007936731520870557,-0.010750740209372101,0.009988697074847983,0.98664441704774
2015-12-31,-1,-0.0015477723807613502,-0.0015375187387090838,-0.006890778679381021,0.012794560801892427,0.9862665865305268
2016-01-05,-1,-0.001962081183615235,-0.0018735272672878525,-0.006855560891678054,0.019093368613531295,0.984703126682954
2016-01-07,-1,-0.0027789884262219003,-0.0025272005403994997,-0.006855560891678054,0.019093368613531295,0.9812263627224931
2016-01-11,-1,-0.003664476838933356,-0.0033131634011496877,-0.009024190388749534,0.019093368613531295,0.980384734608263
2016-01-13,-1,-0.00425171385329541,-0.003779748483791678,-0.0084416399195903,0.013071796999521835,0.9815067820829755
2016-01-15,-1,-0.005197785448422678,-0.004548396330623691,-0.0084416399195903,0.021021917350424888,0.9783525727349136
2016-01-20,-1,-0.004399218052810901,-0.0038329590324844144,-0.0084416399195903,0.018069132138977748,0.9795185141136132
2016-01-22,-1,-0.002563496918329834,-0.002269275428414243,-0.0085490516636676,0.018069132138977748,0.9796575181587542
2016-01-26,-1,-0.0023217271626854562,-0.0020295010087364243,-0.013795409279159843,0.012087535262372788,0.9803027024111401
2016-01-28,-1,-0.0016839824125706136,-0.0015038806882674781,-0.013795409279159843,0.017437885477993104,0.9794494842890713
2016-02-01,-1,-0.0008585032775884022,-0.0007811747218121746,-0.013795409279159843,0.017437885477993104,0.9790632250117544
2016-02-03,-1,-0.0002504150706947737,-0.0002172244821912319,-0.013795409279159843,0.01351374346469817,0.9797777783627062
2016-02-05,-1,-0.004509921860234226,-0.003966234447360523,-0.007553865602257111,0.015884563359701724,0.9836842136595549
2016-02-09,-1,-0.00449553163671871,-0.004045364311630964,-0.004993640012426418,0.015884563359701724,0.9844019357457517
2016-02-11,-1,-0.005345043259525438,-0.0047391334721559545,-0.004993640012426418,0.017437885477993104,0.9837423077942742
2016-02-16,-1,-0.0030602518319675165,-0.0027387060064915595,-0.006959737189013306,0.014848028683245213,0.9871229438723539
2016-02-18,-1,-0.002920380948707523,-0.002604071673322456,-0.009858168678226848,0.014848028683245213,0.9863984513095696
2016-02-22,-1,-0.002800238959732736,-0.002441669740950836,-0.009858168678226848,0.014440139251817146,0.9869256973243755
2016-02-24,-1,-0.0019113056609002766,-0.0018056871136121685,-0.011951468109155443,0.014440139251817146,0.9863652350061648
2016-02-26,-1,-0.0015558765100128647,-0.0014831315923982667,-0.010169082869424027,0.013120614530311396,0.9874556951935701
2016-03-01,0,-2.1076719304063062e-05,0.00014983892708517448,-0.010169082869424027,0.011809606860825212,0.9892461295330285
2016-03-03,1,0.0009227974370924548,0.001241843646340664,-0.010169082869424027,0.010679569468985102,0.9896237342374159
2016-03-07,1,0.0021984370140604647,0.002691241664199876,-0.013416301245736598,0.009504489264398772,0.9888513182675749
2016-03-09,1,0.00154570243604349,0.0019247846738536755,-0.013416301245736598,0.010391547772950873,0.9876116867382556
2016-03-11,1,0.0018588064982202495,0.0022531612004779203,-0.015293344514960443,0.009504489264398772,0.9867562121053436
2016-03-15,1,0.0016354643268615588,0.0020124121560974356,-0.015293344514960443,0.010391547772950873,0.9860612689672213
2016-03-17,1,0.0014931629581352228,0.0018347529711006116,-0.011928813692101416,0.010391547772950873,0.9860056678429708
2016-03-21,1,0.0018618151245848808,0.002206471935724614,-0.011928813692101416,0.008194886590431659,0.9862691089228627
2016-03-23,1,0.000639795100736199,0.0007993602239063516,-0.008315476640870328,0.008194886590431659,0.9877221192158128
2016-03-28,1,0.000653464459734966,0.000792920940550872,-0.008315476640870328,0.00768025476828435,0.9880743745007963
2016-03-30,1,0.0013237743981505843,0.0016105447394897925,-0.008315476640870328,0.00768025476828435,0.9878325781635187
2016-04-01,1,0.0030831245638529288,0.003807931230081031,-0.009339209965194793,0.006593894976607157,0.9872793612184988
2016-04-05,1,0.002577459214470976,0.003302880817121016,-0.008700790758097364,0.00768025476828435,0.9880265477359537
2016-04-07,1,0.0017759508654105842,0.0022595762709837356,-0.009339209965194793,0.006593894976607157,0.9883777438799392
2016-04-11,-1,-0.0004728100800419619,-0.00038262331629797806,-0.008700790758097364,0.006593894976607157,0.9904140432259634
2016-04-13,1,0.0007272763829413857,0.0009771156038029844,-0.009965294205488535,0.0026454607279421264,0.9886716633390291
2016-04-15,1,0.001317379394207782,0.0016695022143867375,-0.009965294205488535,0.0026454607279421264,0.9878596250166166
2016-04-19,1,0.0019734013035729117,0.0024639442692705525,-0.009965294205488535,0.004754961386425541,0.9869306989172437
2016-04-21,1,0.001872831319186484,0.002348311532542914,-0.009965294205488535,0.0072137757636941535,0.9871595427892065
2016-04-25,1,0.0018261760243871846,0.002282613961329608,-0.009965294205488535,0.011718568107403914,0.9857161680315478
2016-04-27,1,0.0023001935019047585,0.0028464654762216496,-0.009965294205488535,0.011718568107403914,0.985625234427247
2016-04-29,1,0.0013693381761396152,0.001731838205029488,-0.009965294205488535,0.011718568107403914,0.9864076091610646
2016-05-03,1,0.0014999915482752386,0.001845002656966929,-0.009965294205488535,0.011718568107403914,0.9872720696325099
2016-05-05,1,0.0003115031393777586,0.00047052032884150176,-0.002708975127583036,0.011834712981368161,0.9876891362679511
2016-05-09,-1,-0.0003186706411113779,-0.00029255817676221923,-0.002708975127583036,0.011834712981368161,0.986527101872538
2016-05-11,-1,-0.001423807919563342,-0.0013555216967596226,0.0011354160761918924,0.011996131086423145,0.9876510768046071
2016-05-13,-1,-0.001534762003412059,-0.0014128850013257806,-0.001489308328100133,0.011834712981368161,0.9887240174248384
2016-05-17,-1,-0.0006522975230754016,-0.0006366755770615621,-0.0035392846598738346,0.011834712981368161,0.9876163723954423
2016-05-19,-1,-0.0001248002012227121,-4.9359524649404446e-05,-0.004443707623050345,0.011996131086423145,0.9872534064228546
2016-05-23,1,0.0009414589470187935,0.0011668206482489613,-0.004443707623050345,0.010557177952028731,0.988704679859105
2016-05-25,1,0.001039489625349838,0.0012495933458050701,-0.006396927029244523,0.010557177952028731,0.9884392308224238
2016-05-27,1,0.0010053997787190492,0.0012065225550121788,-0.011351482465711691,0.010557177952028731,0.9834521713959256
2016-06-01,1,0.0006549172920477891,0.0007263088299720104,-0.011351482465711691,0.009688878150055749,0.9833546641394914
2016-06-03,1,0.00031545841340816487,0.0003322664711717006,-0.011006887341255127,0.009675690410569562,0.9836078811731982
2016-06-07,-1,-0.0001585157402644236,-8.625345281893133e-05,-0.010195464951678515,0.010043609873792244,0.9832612936844015
2016-06-09,1,3.0066254792955567e-05,0.0001050269653825686,-0.010195464951678515,0.011621876955961834,0.9830663647047796
2016-06-13,-1,-8.24844420005628e-05,-3.4037665044248566e-05,-0.006396927029244523,0.017601458611941227,0.9814833829960313
2016-06-15,1,0.0005522771498562888,0.0006343574083505,-0.0017848942427387362,0.016566793340850205,0.9845028164394715
2016-06-17,1,0.001032654670194847,0.001204333437624359,-0.00043071237648575764,0.011621876955961834,0.9857173450927874
2016-06-21,1,0.0015580695471023212,0.0018082842617196287,-0.0012866850646913951,0.01347243609528739,0.9857990700434116
2016-06-23,1,0.001788923529087578,0.0020949134369516354,-0.0031006149198555704,0.01347243609528739,0.9859632058181319
2016-06-27,-1,-0.0006086704332161983,-0.0005977460616374381,-0.00043071237648575764,0.01347243609528739,0.9892067133090706
2016-06-29,1,0.0018970435431087795,0.001973924074352926,-0.0031006149198555704,0.01347243609528739,0.9886559989630126
2016-07-01,1,0.0016161460690591479,0.0016282824781626327,-0.0037678252807728132,0.01347243609528739,0.9883411103041196
2016-07-06,1,0.00021077950807659005,0.00044651311944920254,-0.004580244489732713,0.012348132335548956,0.9876264666974794
2016-07-08,1,0.0037985356066690314,0.004176583089624269,-0.004580244489732713,0.012348132335548956,0.9875820575895868
2016-07-12,1,0.004913334106795959,0.005437872026472136,-0.006485337567118367,0.009580405452710768,0.9886273952326422
2016-07-14,1,0.002677707673384764,0.002952129427707406,-0.006485337567118367,0.012348132335548956,0.9830771804827151
2016-07-18,1,0.002401989701136374,0.002619088155385559,-0.006485337567118367,0.012348132335548956,0.9825797199851802
2016-07-20,1,0.0025810189233539485,0.0028229845988995586,-0.008766098428078017,0.0120165943419274,0.9823499917678401
2016-07-22,1,0.002664106673630714,0.0029648402309932027,-0.006654868597343825,0.0120165943419274,0.9828219712437017
2016-07-26,1,0.003224446021238294,0.0036267212383994845,-0.008446457148175485,0.010814352310126478,0.9826253011180536
2016-07-28,1,0.0021624760546246355,0.0024533358217363205,-0.007465833762588498,0.010814352310126478,0.9837980618331575
2016-08-01,1,0.0022675555013631533,0.0025505926979237804,-0.007465833762588498,0.009870331978359794,0.9840543471782751
2016-08-03,1,0.0015771142703249461,0.001785415667696669,-0.008233040855611181,0.009870331978359794,0.9852670041566327
2016-08-05,1,0.002131536189538824,0.002394141535982845,-0.008233040855611181,0.004474263847674776,0.9861968526860605
2016-08-09,1,0.0017774413724532577,0.001992906922456129,-0.007465833762588498,0.009223219144055484,0.9856148161041197
2016-08-11,1,0.0035071924172486524,0.003973867589051375,-0.00911161180065993,0.0009479975430570574,0.9891583587599238
2016-08-15,1,0.0031430836729675104,0.0035031587162258904,-0.011397354231055286,0.0009479975430570574,0.9888870927875454
2016-08-17,1,0.0026675713933081054,0.0029728111454001287,-0.00911161180065993,0.0029166007066872652,0.9897161675997651
2016-08-19,1,0.0031136024932566127,0.0034843274738065987,-0.00911161180065993,0.00014544364902720455,0.9894160636410338
2016-08-23,1,0.003039399728416806,0.0034054386543539887,-0.011339002709168208,0.00014544364902720455,0.9895898138467557
2016-08-25,1,0.0018602909976363977,0.0020083630152521893,-0.009267246352679937,0.000938091486915436,0.9909039551537301
2016-08-29,1,0.0016049058798950902,0.0017165934960222094,-0.012120642424176369,0.003040616256819329,0.9893920982706754
2016-08-31,1,0.0003356232446978023,0.00043684587524340016,-0.008176951129465574,0.004956248850612759,0.9903836695176104
2016-09-02,1,0.0007153914075032399,0.0007237904174986298,-0.008176951129465574,0.009753936110171581,0.9896930392202421
2016-09-07,1,0.001262063624770121,0.001338104420560285,-0.008176951129465574,0.004956248850612759,0.9903257275813363
2016-09-09,0,-9.903020642542412e-05,9.982137012065607e-06,-0.005623551364020434,0.010707606640587486,0.9909813506160517
2016-09-13,-1,-0.0003660728030985697,-0.00021876836676476595,-0.005623551364020434,0.009939354836662383,0.991223332194142
2016-09-15,-1,-0.00014648004979959814,-3.8643807111273854e-05,-0.006129397599662398,0.009939354836662383,0.9904447869535042
2016-09-19,-1,-0.0003728121389040556,-0.00023808473218197678,-0.007707243368132416,0.009939354836662383,0.9893192897168813
2016-09-21,-1,-0.0010393205557691298,-0.0007789290637881268,-0.006129397599662398,0.011878878207992417,0.9892028491523055
2016-09-23,-1,-0.0005317771055042642,-0.0003656860057171371,-0.010513944867065018,0.011878878207992417,0.9885631816024203
2016-09-27,-1,-0.0017177428087770759,-0.0013561213194896071,-0.008392319801478677,0.014031021153790098,0.9894732810447174
2016-09-29,-1,-0.001323547322827318,-0.0010182369928179722,-0.008392319801478677,0.007945070290573638,0.9901889303844864
2016-10-03,-1,-0.002624564756159151,-0.0020355257020480896,-0.008392319801478677,0.004977252245527592,0.9910321996226619
2016-10-05,-1,-0.0034750522842837556,-0.002763609185873161,-0.009300955951966842,0.005786081695070961,0.9906330970965445
2016-10-07,-1,-0.0019102825679318126,-0.0014338869208578924,-0.009300955951966842,0.004899684278272961,0.9917761675057682
2016-10-11,-1,-0.002178563085636215,-0.0016889964235622867,-0.009145601867991605,0.004899684278272961,0.9916241708206087
2016-10-13,-1,-0.002335592987826994,-0.0018720055514298267,-0.00821361696599474,0.010441540032042687,0.9888806230591344
2016-10-17,-1,-0.002965727368717131,-0.002486170670668802,-0.003660508737628125,0.012864028607075584,0.9869319970213041
2016-10-19,-1,-0.002290917876236618,-0.0018503395027321698,-0.00821361696599474,0.012972795437119568,0.9871235375547027
2016-10-21,-1,-0.002833835945308759,-0.0023598345551294813,-0.003660508737628125,0.01430491557221238,0.9856948560862719
2016-10-25,-1,-0.002285284534685095,-0.0018976218299164753,-0.001481584374285358,0.01430491557221238,0.985562812394221
2016-10-27,-1,-0.0019821472316253713,-0.001625775952125859,-0.004613471770253223,0.01430491557221238,0.9854655945094725
2016-10-31,-1,-0.0011865871225375676,-0.0009756501264339627,-0.009462764546751332,0.01430491557221238,0.9844785537338053
2016-11-02,-1,-0.002224946258660563,-0.0018352481119354714,-0.010414417917881995,0.01430491557221238,0.9834197545353695
2016-11-04,-1,-0.0017222746115364905,-0.0014132825505433302,-0.010414417917881995,0.016897918720778584,0.9820815109630069
2016-11-08,-1,-0.0012776029913565902,-0.001043537141727276,-0.010414417917881995,0.016897918720778584,0.982099510722933
2016-11-10,1,0.0006303331391557694,0.0006360032244228862,-0.010414417917881995,0.014203308518969334,0.9855402551597588
2016-11-14,1,0.0024858899109702123,0.0027357530812926,-0.01109222295943279,0.0132408002267768,0.9850780047786396
2016-11-16,1,0.0008603133501978247,0.0009770118866713655,-0.01971312570766632,0.0052059427977892495,0.9833963579486359
2016-11-18,1,0.0003560019461000769,0.0005159902984012759,-0.01971312570766632,0.0014840365953301142,0.9837642351942584
2016-11-22,1,0.0018754719098830384,0.0019146248996781837,-0.01971312570766632,-0.0005747519093451392,0.9839625758013499
2016-11-25,1,0.0011949377358015925,0.0012344904340189033,-0.021156000376454934,-0.0005747519093451392,0.9833008959650793
2016-11-29,1,0.00035988683790397707,0.00044357518049100184,-0.020131564314987783,0.00020330348551676313,0.9849766803998021
2016-12-01,1,0.00013927698192020568,0.0001516514033479368,-0.016795435260909836,0.002643278706889016,0.986353866163267
2016-12-05,1,0.0014859926397871675,0.0016547601462659945,-0.016795435260909836,0.00020330348551676313,0.9872452050415863
2016-12-07,1,0.001693976409296842,0.0018906897242407469,-0.017836729184277828,-0.00010678710743609583,0.9868808828062231
2016-12-09,1,0.0017919489874188123,0.0020207504165928487,-0.017836729184277828,-0.00010678710743609583,0.9858792776855413
2016-12-13,1,0.00012685502029617863,0.00014067315976554648,-0.016283795982165578,-0.0009154350022050847,0.9883265250645101
2016-12-15,-1,-0.00197675139806458,-0.0017528875034254169,-0.01484080465343497,0.0007753448762397559,0.9904121062701039
2016-12-19,-1,-0.0040268893764217936,-0.0034861382600629076,-0.012682559378741158,0.0007753448762397559,0.9917119488783712
2016-12-21,-1,-0.0036876144922660197,-0.0032092655644835083,-0.012682559378741158,0.005106870194681878,0.9909092027302968
2016-12-23,-1,-0.0060331065802861515,-0.005212113755035705,-0.004790928675295757,0.007915393105930535,0.9900569947664026
2016-12-28,-1,-0.0048203503088393145,-0.004201746333546582,-0.012282306243791879,0.007915393105930535,0.990106382942517
2016-12-30,-1,-0.0051637653446248155,-0.0044979303498419235,-0.012282306243791879,0.005984142568218661,0.9899653190908771
2017-01-04,-1,-0.0030648494963237583,-0.00282746776708086,-0.013075847630751439,0.005984142568218661,0.9855730980455933
2017-01-06,-1,-0.003582910387561155,-0.003307103232544588,-0.012282306243791879,0.005984142568218661,0.9858216502914993
2017-01-10,-1,-0.004027336486672587,-0.003676927605903592,-0.012042005560145005,0.005991198236828279,0.9855717804983753
2017-01-12,-1,-0.004179472280410567,-0.003847702006531412,-0.008386712002633632,0.008248309003117398,0.9843961503932219
2017-01-17,-1,-0.0022680224062405475,-0.002172567716366684,-0.008386712002633632,0.00662933380471656,0.9864673057763265
2017-01-19,-1,-0.0031778204145557383,-0.002945146682680657,-0.007600422004435008,0.00662933380471656,0.9865804453255806
2017-01-23,-1,-0.0025041311917635193,-0.0023421147008274956,-0.007600422004435008,0.005555456134480669,0.9873692586961805
2017-01-25,-1,-0.0021159770921935946,-0.0019505670873028976,-0.007600422004435008,0.004880394803438423,0.9880946556947781
2017-01-27,-1,-0.003584424534518145,-0.003244703981045287,-0.0044550967460414625,0.006373528533234838,0.9884150213574254
2017-01-31,-1,-0.0027249832214590913,-0.0025254099050288276,-0.005748836004253529,0.006965034618164288,0.9880673002293563
2017-02-02,-1,-0.00685500097520543,-0.006096294898466867,-0.0044550967460414625,0.006965034618164288,0.9909360976214173
2017-02-06,-1,-0.006640303893801939,-0.005910375518834282,-0.004460525389627294,0.006965034618164288,0.9913552818153379
2017-02-08,-1,-0.005874666523123376,-0.005233866335684171,-0.004460525389627294,0.006965034618164288,0.9918281878536769
2017-02-10,-1,-0.004545300261334305,-0.004063320161765163,-0.006173847541951123,0.006965034618164288,0.9933604615904069
2017-02-14,-1,-0.004649008963585273,-0.0041438497069559,-0.006173847541951123,0.007170673793997825,0.9922365446048358
2017-02-16,-1,-0.004816791357216516,-0.004314518095917687,-0.004587911438627391,0.007170673793997825,0.9922665579357929
2017-02-21,-1,-0.005241606794956074,-0.004656371316233608,-0.007760499862625799,0.007170673793997825,0.9914395719065665
2017-02-23,-1,-0.004248533653431546,-0.00382085000379707,-0.007760499862625799,0.007437037977470751,0.9912976523182996
2017-02-27,-1,-0.003073905726505572,-0.002813757888183317,-0.007760499862625799,0.007967798986155277,0.9913969721511964
2017-03-01,-1,-0.002746535360659616,-0.00250609976088238,-0.007760499862625799,0.009624283619190786,0.9906911064304723
2017-03-03,-1,-0.0022758969044317547,-0.0021630754882615783,-0.007760499862625799,0.009624283619190786,0.9907815931312622
2017-03-07,-1,-0.002526070135586023,-0.0023764704288642743,-0.008962664456940307,0.009624283619190786,0.989008577466982
2017-03-09,-1,-0.0026227858240227206,-0.002418086142228598,-0.005357112545421865,0.013426687832491058,0.988191581315682
2017-03-13,-1,-0.00312652864068488,-0.0028186689610865483,-0.0063706868759357375,0.01503468976927159,0.987334739147808
2017-03-15,-1,-0.001604702375096548,-0.001516626102785946,-0.0063706868759357375,0.013426687832491058,0.9885094011480965
2017-03-17,-1,-0.002377316594148597,-0.002156359600275449,-0.012858616678512107,0.013426687832491058,0.9875653661047539
2017-03-21,-1,-0.003291586858282576,-0.0029937533068994412,-0.004032845152428198,0.013426687832491058,0.9880472146252599
2017-03-23,-1,-0.0025190940720730476,-0.0023170614413642538,-0.006915051708479215,0.011795517629252761,0.9886657891742515
2017-03-27,-1,-0.0015950886660506978,-0.0015125429942491673,-0.006915051708479215,0.012785286260475388,0.9882943176045607
2017-03-29,-1,-0.00028731249958550596,-0.00021080252806284479,-0.006915051708479215,0.01106900636077039,0.988584644457989
2017-03-31,-1,-0.0006419531937002468,-0.0005894029535638161,-0.010737891045645924,0.01106900636077039,0.9875451446080138
2017-04-04,-1,-0.002261919873501321,-0.0021317885699876026,-0.01043441076473306,0.012785286260475388,0.9883282448388708
2017-04-06,1,0.0006630906291886394,0.0010284677996224671,-0.01043441076473306,0.01106900636077039,0.9889682034286748
2017-04-10,1,0.0017966701536734552,0.0024285045066715916,-0.006915051708479215,0.01106900636077039,0.9895757588809339
2017-04-12,1,0.0020259100354570398,0.002704957464553657,-0.011639061382144928,0.01106900636077039,0.9869856563048841
2017-04-17,1,0.002047292458344214,0.002718597756403367,-0.011639061382144928,0.009571990289577779,0.9862512953110065
2017-04-19,1,0.0030416428982197553,0.003940505452216151,-0.016437580896208615,0.009571990289577779,0.9840426179486776
2017-04-21,1,0.0024698748468407286,0.0032450879187981454,-0.019280245922196723,0.009571990289577779,0.9824333792364253
2017-04-25,1,0.00290784967023165,0.0036803824275952316,-0.019280245922196723,0.006306127436525802,0.9815562834758242
2017-04-27,1,0.0032010805717360927,0.003940087429204807,-0.019280245922196723,0.0003994822835724717,0.9809320462175357
2017-05-01,1,0.0026544727793308244,0.0034197818886885453,-0.016778535365984743,0.0029436485319070853,0.9822262226524354
2017-05-03,1,0.003322672416092758,0.004199895726726823,-0.016778535365984743,0.006121138205282879,0.9822569064620872
2017-05-05,1,0.004618644063265911,0.005675881246504424,-0.016778535365984743,0.0003994822835724717,0.9818090560531023
2017-05-09,1,0.004756270621998162,0.0057335637233310545,-0.016778535365984743,0.0002900685155411908,0.9822866908950396
2017-05-11,1,0.0012522429388714285,0.0016133934101877562,-0.015388849972766112,0.0016861550785516367,0.9870349993151618
2017-05-15,-1,-0.00015162373239950002,-4.23814187041739e-05,-0.015088252028788258,0.0023789632077967984,0.9887147832402333
2017-05-17,-1,-0.0018037282287033949,-0.0017128544042534887,-0.006789483123796027,0.007122464721251425,0.9900816853060113
2017-05-19,-1,-0.0047896192544879005,-0.004272560199428389,-0.006226347999048744,0.0073435750047476205,0.9909463211614723
2017-05-23,-1,-0.004869890614970214,-0.004376807620636481,-0.005102045964265747,0.0073435750047476205,0.9908549363119211
2017-05-25,-1,-0.0053895272920289495,-0.004845998321364351,-0.002705351606767145,0.009429501244738313,0.9894687803137371
2017-05-30,-1,-0.004411283910002395,-0.003990827888568176,-0.0006144671709547422,0.007499028242078039,0.9906146650693347
2017-06-01,-1,-0.003458843087189149,-0.003122170088537123,-0.000814812343674175,0.007177738360631174,0.9924021282697155
2017-06-05,-1,-0.0037490207128007386,-0.0033685330001359394,-0.000205821462335029,0.007499028242078039,0.9910807203758115
2017-06-07,-1,-0.003973716770514488,-0.003540313341919905,-0.0019124367459088724,0.007499028242078039,0.9888591508102691
2017-06-09,-1,-0.00221717257444554,-0.0020676223670541656,-0.0019124367459088724,0.007499028242078039,0.9889516023305374
2017-06-13,-1,-0.0026238428744136486,-0.002392229154421505,-0.007480925582931092,0.007499028242078039,0.9888125598748256
2017-06-15,-1,-0.0011915093936601027,-0.0011687569749169815,-0.007575756582286432,0.007177738360631174,0.9896490431367435
2017-06-19,-1,-0.000725763690717617,-0.0006441565088403157,-0.007634202562896299,0.007710410377130734,0.9891607465961
2017-06-21,-1,-0.0016657568173477375,-0.0015553357958895295,-0.007000251448101025,0.01099614243273919,0.98834960291789
2017-06-23,-1,-0.0002409767112955561,-0.0001477104840719564,-0.007634202562896299,0.01099614243273919,0.9882043609688934
2017-06-27,-1,-0.002068349663764338,-0.0017930421725207116,-0.007634202562896299,0.012185968640625443,0.9865933157801713
2017-06-29,-1,-0.0015545320050164217,-0.0013625489415205667,-0.007634202562896299,0.013100126581788458,0.9862191569540351
2017-07-03,-1,-0.00036335905355373854,-0.0003382499381810453,-0.007634202562896299,0.011810150947724966,0.9869433853507118
2017-07-06,-1,-0.002262400502047333,-0.002064932639198425,-0.0054123369444833164,0.011810150947724966,0.9890059524473166
2017-07-10,-1,-0.0008193345759466216,-0.000789309785006649,-0.0054123369444833164,0.011810150947724966,0.9891560600957259
2017-07-12,-1,-0.0016833909804078702,-0.0015042313232091465,-0.004424242586984869,0.013339310451747003,0.9840250194121958
2017-07-14,-1,-0.0015942922276005957,-0.0014217855410272305,-0.004424242586984869,0.013339310451747003,0.9830686947448893
2017-07-18,-1,-0.0009298079685205374,-0.000849808371417077,-0.003245755195152276,0.012795809797385982,0.9838699668171954
2017-07-20,1,0.0004291075100698535,0.000556069342923847,-0.004424242586984869,0.01325938944815603,0.9843064085062295
2017-07-24,1,0.00026501022578552383,0.00039667564683127076,-0.004424242586984869,0.012795809797385982,0.9852023382759425
2017-07-26,1,0.0009944474342327414,0.0011962469653456242,-0.0055564259819482174,0.011526276473398264,0.986224093012579
2017-07-28,1,0.0011554719228707064,0.0013622338126106233,-0.004065054389672052,0.01325938944815603,0.9857159161072482
2017-08-01,1,0.0016095388744019686,0.0018921179096329879,-0.005325446070355044,0.01325938944815603,0.9856407366846577
2017-08-03,1,0.0017399304124608786,0.002037266956919191,-0.005325446070355044,0.01325938944815603,0.985678767693726
2017-08-07,1,0.0032352556627061914,0.0037826566671227352,-0.005325446070355044,0.01325938944815603,0.9861032112918535
2017-08-09,1,0.0033120993889622797,0.003851561683186998,-0.005325446070355044,0.012051486385673615,0.9902419311883703
2017-08-11,1,0.0013125652576405722,0.0014981134600119375,-0.0008883162654545829,0.014140800084750042,0.9904609976520918
2017-08-15,1,0.002278113861469943,0.0026347877968589672,-0.007693473905172653,0.014140800084750042,0.9902513941652539
2017-08-17,1,0.0027918462037981357,0.0032526917263633894,-0.005473922710685513,0.012434743171715543,0.991193769388555
2017-08-21,1,0.003266570367087919,0.0038680392408445862,-0.005392534112493417,0.012434743171715543,0.9913702671415557
2017-08-23,1,0.002741873200965588,0.003232615851108535,-0.0072557493977063545,0.012434743171715543,0.9903500752127674
2017-08-25,1,0.0030903368236913304,0.003536594781507605,-0.0072557493977063545,0.00993980288930977,0.991099749685658
2017-08-29,1,0.0037315272331003547,0.004351220309222215,-0.0072557493977063545,0.00993980288930977,0.9913843547484107
2017-08-31,1,0.004156819710593089,0.004827193341046182,-0.0072557493977063545,0.006385036285099861,0.9907707715499084
2017-09-05,1,0.004765958666978785,0.005502237804810068,-0.0072557493977063545,0.005926467471515094,0.990602404484766
2017-09-07,1,0.004275850715692576,0.004939707326757404,-0.006578406626013606,0.005926467471515094,0.9918053339042353
2017-09-11,1,0.005703756427056589,0.006553691735285598,-0.007894738031587774,0.0022220742922902013,0.990356630265322
2017-09-13,1,0.0047652312971298745,0.005454979901947429,-0.0072557493977063545,0.002725501525573086,0.9908428375004127
2017-09-15,1,0.005228394641603309,0.006027923778948424,-0.0072557493977063545,0.002725501525573086,0.9902940129732892
2017-09-19,1,0.005658327795351423,0.006561753233069805,-0.006578406626013606,0.002725501525573086,0.9902416758550907
2017-09-21,1,0.003752606434687877,0.004316384052649583,-0.005312364337714997,0.003653185579733642,0.9923127327561204
2017-09-25,1,0.003976907379603033,0.00455441967885503,-0.006787451142968328,0.005926467471515094,0.9899303136931532
2017-09-27,1,0.004835344680665168,0.00559246113757964,-0.006787451142968328,0.010931720638849608,0.9890627141659366
2017-09-29,1,0.0048277126556968385,0.00563784542728655,-0.006794122826234752,0.010931720638849608,0.9891769097423345
2017-10-03,1,0.0038476517765363835,0.004416120109625374,-0.008170347746274793,0.010931720638849608,0.9883568121645201
2017-10-05,1,0.0031957410444140907,0.0035918405776232095,-0.008170347746274793,0.011983870216272598,0.9878045858571884
2017-10-09,1,0.0014430224316257798,0.0015250380666321848,-0.008170347746274793,0.011983870216272598,0.9874390045641532
2017-10-11,0,-5.8763288213725976e-05,0.00011531288179145779,-0.008170347746274793,0.011983870216272598,0.9870428211048348
2017-10-13,-1,-0.0006950296052869516,-0.00040961741147121163,-0.008170347746274793,0.011983870216272598,0.9865096682020807
2017-10-17,-1,-0.0008783516952682183,-0.0005404870405758867,-0.008170347746274793,0.010714134793633716,0.9867402109248885
2017-10-19,-1,-0.0007548799233726379,-0.0004423845962692615,-0.00705840978554741,0.010736339481711994,0.9869790308793956
2017-10-23,1,0.0006375129135434447,0.0007499758439304689,-0.003003023995830188,0.008484168221816784,0.9891930074782609
2017-10-25,1,0.001056953050626604,0.0011342775930401814,-0.003003023995830188,0.00792012521169639,0.9891645324171605
2017-10-27,1,0.0005747096193424007,0.000718967546384597,-0.0020160388261983462,0.00849167927438164,0.9888362198196259
2017-10-31,1,6.374918409695577e-05,0.00025434218949292413,-3.298640879027088e-05,0.010235768601846326,0.9891714917541511
2017-11-02,1,0.0005678853769584127,0.0007082052791495208,0.0001456210895220634,0.00849167927438164,0.9901447564650311
2017-11-06,-1,-0.0004649454074447143,-0.00022609854294798615,0.0011470025982547698,0.010235768601846326,0.9876296502906595
2017-11-08,-1,-0.0015574252024759048,-0.0011796457679707473,0.00321170767254665,0.01495899251442063,0.9866528662540761
2017-11-10,-1,-0.0014535901197145666,-0.0010695674171761586,0.0011470025982547698,0.01644778392826367,0.9858711958258773
2017-11-14,-1,-0.0009742549108557117,-0.0006759566480154437,-0.0020160388261983462,0.01644778392826367,0.9842584506975028
2017-11-16,-1,-0.0006397001433371885,-0.00038690576528481154,-0.00615209651157335,0.01644778392826367,0.9844389052256045
2017-11-20,-1,-0.00032616742017864246,-0.00011211764450794312,-0.007493448680910738,0.018947395237311326,0.9838500633699587
