JNU-Tangyin/eata/results/Batch4_SP500/Batch4_SP500-ECL.csv
Date,Action,Predicted_Q25,Predicted_Q75,Actual_Q25,Actual_Q75,RL_Reward
2010-12-14,0,0.0,0.0,-0.0025946604576164746,0.003507418902796592,0.994844361997405
2010-12-16,1,3.2137818518755684e-05,7.935975661760007e-05,-0.004465159698268267,0.0029813409688218867,0.9953655843798147
2010-12-20,1,0.0007732287520422422,0.0008448623680387475,-0.004465159698268267,0.0029813409688218867,0.9949322409589314
2010-12-22,1,0.0007880485427030286,0.0008734102401895264,-0.004465159698268267,0.003507418902796592,0.994429131286606
2010-12-27,1,0.000924152945476997,0.0010460395651637814,-0.0055746828628551685,0.004709395700068624,0.9939213507358329
2010-12-29,1,0.0007946349937007761,0.0008803663920971585,-0.007378133288337089,0.00518943627818769,0.9931748914294423
2010-12-31,1,0.0007329283573437985,0.000797675021839257,-0.008230280022514531,0.006329288671324978,0.9922586329261054
2011-01-04,-1,-0.0004566968493621456,-0.0003291125550439387,-0.008230280022514531,0.0088978454047893,0.9916540778364733
2011-01-06,-1,-0.0008621053689222989,-0.0006699870414742764,-0.008230280022514531,0.0088978454047893,0.9917307922721128
2011-01-10,-1,-0.0008223152419912598,-0.0006492068146261997,-0.008230280022514531,0.0088978454047893,0.9921156266387068
2011-01-12,-1,-0.0012214659104240312,-0.0009709482076872862,-0.008230280022514531,0.0088978454047893,0.9920161007212722
2011-01-14,0,0.0,0.0,-0.008284719684257596,0.0088978454047893,0.9919128925757805
2011-01-19,0,0.0,0.0,-0.008284719684257596,0.008829312953598465,0.9921978808716132
2011-01-21,0,0.0,0.0,-0.01024819336974706,0.008829312953598465,0.9879485756802087
2011-01-25,0,0.0,0.0,-0.011569021110122998,0.008829312953598465,0.9872020210267594
2011-01-27,0,0.0,0.0,-0.011569021110122998,0.008829312953598465,0.98687630951947
2011-01-31,1,0.0009725032010611727,0.0011151448537503308,-0.010629219070906653,0.008658111512073373,0.9873708966151922
2011-02-02,1,6.131653087053805e-05,7.709997199168987e-05,-0.0053893674361400554,0.008658111512073373,0.9879655053323609
2011-02-04,1,0.000146323401077449,0.0001486309163463451,-0.012737899924668854,0.008658111512073373,0.9865522397325991
2011-02-08,1,0.0002641151280650359,0.00029548987811886236,-0.012737899924668854,0.009257362329121875,0.9858818730069476
2011-02-10,1,0.00023614504408480227,0.0002819275118802433,-0.011180786872302001,0.009641435611901417,0.9859612025682897
2011-02-14,1,3.7219976665050684e-05,7.036412579941134e-05,-0.007453531460439049,0.009641435611901417,0.9865512223711015
2011-02-16,1,0.0005147704193549131,0.0006351717214954282,-0.011180786872302001,0.009169890914175576,0.9860517256210263
2011-02-18,1,0.00018950859473158482,0.00025203049721165605,-0.0075901636097346695,0.009169890914175576,0.9898741685841739
2011-02-23,0,0.0,0.0,-0.006510640365897398,0.011509505751322573,0.9905352214005629
2011-02-25,-1,-0.000611147690712077,-0.0005844390815584479,-0.004400932291833199,0.009169890914175576,0.9914588774383971
2011-03-01,1,0.00034947890650156887,0.0005214066689255599,-0.004400932291833199,0.00830430512493141,0.991877505643952
2011-03-03,1,0.0006687999379261931,0.0008595755759515918,-0.0028709481202493286,0.00830430512493141,0.9918882961169331
2011-03-07,-1,-0.0005637492583043996,-0.0005213592303266134,9.877249850944581e-05,0.01087924684722873,0.9923460009997191
2011-03-09,-1,-0.00021424636124329864,-0.00011678022211071852,9.877249850944581e-05,0.008205129467938312,0.9928422209210702
2011-03-11,1,0.0006991338667625915,0.0009097569258844774,-0.0010224680988043296,0.0068954321016409924,0.9939996577611168
2011-03-15,1,0.000718739876613354,0.000905221827789401,-0.004452409127360689,0.0068954321016409924,0.9933799552366209
2011-03-17,1,7.583062435043001e-06,0.00012372274114508193,-0.002322226539024792,0.0068954321016409924,0.9940295599975332
2011-03-21,-1,-0.00013801214915686185,-0.00012505372244700792,-0.0040121483993676476,0.0068954321016409924,0.9943380348809344
2011-03-23,1,0.0004443265935670151,0.0005025740723237651,-0.0040121483993676476,0.0068954321016409924,0.994506783976345
2011-03-25,0,0.0,0.0,-0.0040121483993676476,0.007340821771487009,0.9941232951786391
2011-03-29,0,0.0,0.0,-0.004452409127360689,0.008073203536800615,0.993262040040741
2011-03-31,0,0.0,0.0,-0.004452409127360689,0.006979640167776722,0.9940037605809493
2011-04-04,0,0.0,0.0,-0.005095144097791796,0.005461851174857624,0.9941439580580003
2011-04-06,0,0.0,0.0,-0.005390318695673365,0.0033887536555694446,0.9941765953617607
2011-04-08,0,0.0,0.0,-0.004548546689411865,0.005666453108896782,0.993729320160417
2011-04-12,0,0.0,0.0,-0.0042904850975454675,0.005666453108896782,0.993578004191214
2011-04-14,0,0.0,0.0,-0.0042904850975454675,0.008073203536800615,0.9927212512940318
2011-04-18,1,0.0004974797347380951,0.0005223752351065417,-0.005606713896263715,0.005666453108896782,0.9925367063160815
2011-04-20,1,0.0008252087284841038,0.0009037214463125325,-0.005606713896263715,0.005666453108896782,0.9915802988537326
2011-04-25,1,0.0009162956255216585,0.000961905923186145,-0.005840106036702333,0.005100487507933779,0.9915388607745812
2011-04-27,0,0.0,0.0,-0.005840106036702333,0.005100487507933779,0.9924413834978305
2011-04-29,0,0.0,0.0,-0.005840106036702333,0.006097646626811872,0.9918890444623636
2011-05-03,0,0.0,0.0,-0.0067145348781087605,0.008679120132755009,0.9910176471445836
2011-05-05,1,0.0005221798127085505,0.0005361553378554234,-0.004598774223591427,0.008679120132755009,0.9914586322256448
2011-05-09,0,0.0,0.0,-0.004598774223591427,0.006097646626811872,0.9916685330701491
2011-05-11,0,0.0,0.0,-0.004598774223591427,0.008812776935969335,0.9913118062551326
2011-05-13,0,0.0,0.0,-0.004598774223591427,0.006097646626811872,0.9917230085109481
2011-05-17,0,0.0,0.0,-0.004263217255847074,0.009072429241871708,0.9913660621656962
2011-05-19,1,0.0022469404958685947,0.002540318071361544,-0.006138089947052717,0.006097646626811872,0.9921580769194646
2011-05-23,1,0.002207030321890043,0.002496220782954192,-0.005131419043819655,0.008833058434230519,0.9921094719422667
2011-05-25,1,0.0025306507125221044,0.002864534740543778,-0.006787760362988598,0.006750520189389961,0.9919158167034531
2011-05-27,1,0.001777271830525712,0.001988176470638545,-0.006787760362988598,0.0045969089368311546,0.9923590223295923
2011-06-01,1,0.0018087986800267113,0.0020156010334529953,-0.004904632206609047,0.004792728623691907,0.9932005623854822
2011-06-03,1,0.001608283622541365,0.0017815903525532346,-0.004904632206609047,0.007392262451968303,0.9924256353880827
2011-06-07,0,0.0,0.0,-0.006529235754939662,0.007392262451968303,0.9920313024053615
2011-06-09,0,0.0,0.0,-0.004894052949662938,0.005438464219021092,0.9931103055063257
2011-06-13,1,0.0014191003723632086,0.0015689177830092071,-0.004894052949662938,0.005438464219021092,0.9932352954123115
2011-06-15,1,0.0017753183669384442,0.0019736083522063396,-0.006529235754939662,0.005007973676591546,0.9936663433823192
2011-06-17,1,0.0011584214944669036,0.001269150616223053,-0.004308245771008921,0.005007973676591546,0.9938222774986991
2011-06-21,1,0.0016070123736816925,0.0017782057986622966,-0.006529235754939662,0.004796059965799063,0.9905568344427227
2011-06-23,0,0.0,0.0,-0.004308245771008921,0.005448458245342559,0.9889706987881569
2011-06-27,0,0.0,0.0,-0.009311928614256207,0.005448458245342559,0.987159298871332
2011-06-29,0,0.0,0.0,-0.011209865066658714,0.004498927043523534,0.9870681260968992
2011-07-01,0,0.0,0.0,-0.011209865066658714,0.00128461244651034,0.9880386658905922
2011-07-06,0,0.0,0.0,-0.013143619690658545,0.0013464084963308504,0.9863369712734003
2011-07-08,0,0.0,0.0,-0.015803017686417953,3.295088232182922e-05,0.9847476741002424
2011-07-12,1,0.001196400742107535,0.001288638887563739,-0.020417723409945982,0.004498927043523534,0.9806608815173153
2011-07-14,1,0.0010623051319112362,0.0011321425865185998,-0.02210012732978043,0.004971398759450612,0.978020155814331
2011-07-18,1,0.00016272161634516295,0.00026519728571749253,-0.02210012732978043,0.008191650996423064,0.978433238040954
2011-07-20,-1,-0.001610684615596233,-0.001312325655918709,-0.020417723409945982,0.006198131656762043,0.9822586737505936
2011-07-22,-1,-0.0008299440893754544,-0.0006189926832208055,-0.02210012732978043,9.656258636861156e-05,0.9818365174016785
2011-07-26,-1,-0.0019314085303930282,-0.0016094945509856108,-0.016989266406056473,0.014183733053612813,0.9791815961761535
2011-07-28,-1,-0.0032691280822989164,-0.0027298706082616985,-0.016861301825835614,0.01569973974396786,0.9789092258176498
2011-08-01,-1,-0.003437348664688573,-0.0028839470767622246,-0.016861301825835614,0.022683002109432023,0.9762500015012859
2011-08-03,-1,-0.002880350501690933,-0.0024316800939229322,-0.009462004623560998,0.02259626838242753,0.9771248603895046
2011-08-05,-1,-0.00413037100590208,-0.0035391679840790762,-0.014257896012377919,0.02259626838242753,0.9767311748594382
2011-08-09,-1,-0.00530101451964113,-0.0045342498887712065,-0.006062144583789708,0.021638120599779057,0.9787241332897942
2011-08-11,-1,-0.004656083184856984,-0.003999825207051243,-0.014257896012377919,0.016197874574047512,0.9801765179216174
2011-08-15,-1,-0.004115745445046373,-0.003544176629189189,-0.014257896012377919,0.016197874574047512,0.9805606065166277
2011-08-17,-1,-0.00464385202251164,-0.004012956636271478,-0.01004956160924997,0.01987813109120617,0.9794371152639613
2011-08-19,-1,-0.005735506319013336,-0.004994808620064224,-0.009170499684259049,0.01987813109120617,0.9800076996440409
2011-08-23,-1,-0.0015563758663205258,-0.0013396716007138538,-0.011863831659598555,0.014240064563773183,0.9850592674952469
2011-08-25,-1,-0.0012911111710626434,-0.0011216141121132687,-0.014734221942572116,0.011979891462571383,0.9849078785807461
2011-08-29,1,0.0005042607158134614,0.0005522408507798389,-0.014734221942572116,0.011979891462571383,0.9855384474890406
2011-08-31,1,0.0009269004855832234,0.0010226557455317792,-0.016751570731949827,0.007416568718654184,0.9848395743424576
2011-09-02,-1,-0.00046322635223946233,-0.0003609566103766396,-0.0157684616125165,0.007416568718654184,0.9853771558700875
2011-09-07,1,0.0003500564334001083,0.00036851319726436966,-0.0157684616125165,0.012366091162571709,0.9841779114380735
2011-09-09,-1,-0.001495884346775733,-0.0012693663386341134,-0.010598801933062183,0.012366091162571709,0.9861922191959145
2011-09-13,-1,-0.001123605262776859,-0.0009587810181310026,-0.010598801933062183,0.01691294360299384,0.9851214721627318
2011-09-15,-1,-8.72665431830278e-05,-6.492061912942357e-05,-0.010598801933062183,0.011685615339385261,0.9858267842629326
2011-09-19,1,9.066545306215669e-05,0.00011918991163923199,-0.009307214561946565,0.011685615339385261,0.9861394230305486
2011-09-21,-1,-0.0007497401612230805,-0.0006714378352108701,-0.008481111200954287,0.0167229601039092,0.9863132268239594
2011-09-23,-1,-0.0016119880055940066,-0.0014193492176335335,-0.004073120797907843,0.0167229601039092,0.9864689359166787
2011-09-27,-1,-0.00043082277838208804,-0.0003598856646304776,-0.008481111200954287,0.01099108438861058,0.9869282476426273
2011-09-29,-1,-0.0011897609023701719,-0.0010566146770674143,-0.004073120797907843,0.017164674516901894,0.9861559623360787
2011-10-03,-1,-0.0022154420124096933,-0.001950144523445601,-0.002895181837655029,0.017164674516901894,0.9859738143450664
2011-10-05,-1,-0.00027046520651892664,-0.00023232453690654332,-0.004801141137339213,0.014375554721529146,0.9861843431284326
2011-10-07,-1,-0.0008546295342379065,-0.0007276891086051803,-0.004801141137339213,0.017164674516901894,0.9849798581697682
2011-10-11,1,0.0007268746791057015,0.0008355919586454427,-0.004801141137339213,0.014375554721529146,0.9861766466611299
2011-10-13,1,0.0010063758321348982,0.0011565307098984515,-0.008858671420823864,0.01690348436500852,0.9840050234687464
2011-10-17,1,0.0008214063202152007,0.0009586474969133398,-0.009949913312282111,0.017172541651389792,0.9827573453937608
2011-10-19,1,0.001469106933735095,0.0017198099836994553,-0.01114729524173323,0.01690348436500852,0.9830630722437985
2011-10-21,1,0.0018992542174523903,0.0022080430668722046,-0.013297659698178583,0.01690348436500852,0.9829304710220086
2011-10-25,1,0.0011472091597828976,0.0013538666445955003,-0.013297659698178583,0.01690348436500852,0.9836054304004873
2011-10-27,1,0.002561392827094563,0.002952646417822594,-0.013297659698178583,0.012797692078582248,0.9843728554032516
2011-10-31,1,0.0018031467336689954,0.002106752142554058,-0.011146599781150943,0.016044438267089865,0.9843811223048741
2011-11-02,1,0.0018972849537344952,0.002197115921244233,-0.011146599781150943,0.016044438267089865,0.984611393666681
2011-11-04,1,0.00247136091140662,0.0028679817706518287,-0.011517300810715517,0.012797692078582248,0.9856212014707196
2011-11-08,1,0.0026948668157691846,0.0030911260621675554,-0.011517300810715517,0.00869174962900885,0.985796368321503
2011-11-10,0,0.0,0.0,-0.010073480322136969,0.006918181337525257,0.9885623158715653
2011-11-14,0,0.0,0.0,-0.011085860277690856,0.004550869586370347,0.9892637717214122
2011-11-16,0,0.0,0.0,-0.010824988606303727,0.005328700258036762,0.9891509947952472
2011-11-18,1,0.0021516034391618486,0.002516120306657925,-0.010824988606303727,0.006454827435880891,0.988939206240048
2011-11-22,1,0.0019433279340521318,0.002319691071511308,-0.010613912682246365,0.009515010465362055,0.9886739203899619
2011-11-25,1,0.002236427563899763,0.002647905755919788,-0.010613912682246365,0.009070003442068604,0.9893434160834776
2011-11-29,1,0.0030825352690872663,0.0036046209501238687,-0.010824988606303727,0.007271132318753545,0.990173381556498
2011-12-01,1,0.0028766033712399153,0.003349827915072944,-0.010613912682246365,0.007271132318753545,0.991912892295429
2011-12-05,0,0.0,0.0,-0.0052025457961146285,0.007271132318753545,0.9915227890817463
2011-12-07,0,0.0,0.0,-0.0022324470566869098,0.007271132318753545,0.9918163600334705
2011-12-09,0,0.0,0.0,-0.0019923220549017216,0.006182705720506918,0.9917723964498112
2011-12-13,0,0.0,0.0,0.002151746135076917,0.007754590443979706,0.9920868958903153
2011-12-15,1,0.0009764208974770362,0.0010449125557396445,0.0012462139999474245,0.007754590443979706,0.9933340798962479
2011-12-19,1,0.0004223316044276392,0.00045459319630521014,0.0012462139999474245,0.008641858565916009,0.9928178462823114
2011-12-21,0,0.0,0.0,0.0007705272440424961,0.006391430081821482,0.9941797506862694
2011-12-23,0,0.0,0.0,0.00016766064262319373,0.006391430081821482,0.9943320453898832
2011-12-28,0,0.0,0.0,-0.0008243045269290193,0.00613784875237406,0.9948913587656715
2011-12-30,0,0.0,0.0,-0.0011298361976038484,0.004754380534300017,0.995664748103173
2012-01-04,1,0.0007276938780159418,0.0009011536852228401,-0.001862768895482771,0.004754380534300017,0.9958777773121544
2012-01-06,1,0.0008486031093794372,0.0009890792923056373,-0.0022432320086770013,0.00613784875237406,0.9949316423209761
2012-01-10,1,0.0006050917078966026,0.0008032008589734408,-0.0022432320086770013,0.006683054964402076,0.9950020212683911
2012-01-12,0,0.0,0.0,-0.003521186070514687,0.003144661201077551,0.99509905133095
2012-01-17,0,0.0,0.0,-0.003521186070514687,0.003889066460747238,0.9949248431164487
2012-01-19,0,0.0,0.0,-0.0030639844206042173,0.004157553282862285,0.9954513931547949
2012-01-23,0,0.0,0.0,-0.0032738722492078954,0.004157553282862285,0.9954013317759187
2012-01-25,0,0.0,0.0,-0.0032738722492078954,0.004157553282862285,0.9955006101245164
2012-01-27,0,0.0,0.0,-0.002517093916647082,0.0044574652186634076,0.9953810829169357
2012-01-31,0,0.0,0.0,-0.0032738722492078954,0.0044574652186634076,0.9936281835453249
2012-02-02,0,0.0,0.0,-0.003521186070514687,0.0044574652186634076,0.9933063308835451
2012-02-06,0,0.0,0.0,-0.0032738722492078954,0.004157553282862285,0.9941652823528724
2012-02-08,1,0.0029419031002239464,0.00307289255260017,-0.0032738722492078954,0.0038061895167497053,0.9936653659903889
2012-02-10,1,0.002123791320544441,0.002131182846690392,-0.0026975350854920085,0.004157553282862285,0.9939842516291061
2012-02-14,1,0.0013389749190502677,0.0014779086971617977,-0.0032997442895542576,0.0044574652186634076,0.9936956389078716
2012-02-16,0,0.0,0.0,-0.0032997442895542576,0.003829748774621903,0.9942032400579075
2012-02-21,0,0.0,0.0,-0.0027636988871524476,0.004297011589062786,0.9941217009796556
2012-02-23,1,0.00048646414668560646,0.0006135382732558908,-0.003987546095987853,0.0027927541760847455,0.9940834522294775
2012-02-27,1,5.939065297614818e-05,0.00027427171619479897,-0.003987546095987853,0.004168759731820302,0.9933462659745099
2012-02-29,-1,-0.00039330751659792293,-0.00018656422653706858,-0.0027636988871524476,0.004168759731820302,0.9952171753299681
2012-03-02,-1,-0.0008284164959166259,-0.0005572219231007511,-0.0023750514611769334,0.004233037925320834,0.9954385903298412
2012-03-06,-1,-0.00048808105630871227,-0.00029345531759287515,-0.002266624417718017,0.004458512462548261,0.9950240393821184
2012-03-08,-1,-0.0005154955959208989,-0.00032026006994788586,-0.002619897063637976,0.004458512462548261,0.9944848723999126
2012-03-12,-1,-0.0007532750161809492,-0.0005211271700300002,-0.003636806960418987,0.004233037925320834,0.993945806918674
2012-03-14,-1,-0.00043295615019358204,-0.000252731391096128,-0.002758468329521388,0.004458512462548261,0.9932214336570667
2012-03-16,-1,-0.0002709896823136549,-0.00011797820988757772,-0.003560838279649803,0.004458512462548261,0.9931701209441631
2012-03-20,0,0.0,0.0,-0.003560838279649803,0.00483964057227185,0.992759536335575
2012-03-22,0,0.0,0.0,-0.003131090782866752,0.00483964057227185,0.9929615062963788
2012-03-26,0,0.0,0.0,-0.003131090782866752,0.0032898411198351543,0.9941314888024457
2012-03-28,0,0.0,0.0,-0.0029303422341174466,0.004893584137801455,0.9936498194973934
2012-03-30,0,0.0,0.0,-0.0029303422341174466,0.006965769114630183,0.993123663790209
2012-04-03,0,0.0,0.0,-0.003131090782866752,0.006965769114630183,0.9929576585518409
2012-04-05,1,0.0001720915384967268,0.00022010896000412361,-0.003131090782866752,0.006965769114630183,0.993015204394948
2012-04-10,-1,-0.0005678842480352042,-0.0004416330668670599,-0.0021616175360127552,0.009555091101389676,0.9930903050970963
2012-04-12,1,0.00012611910688170548,0.00018903090567317922,-0.0029303422341174466,0.005684407359763164,0.9943685518820382
2012-04-16,0,0.0,0.0,-0.0029303422341174466,0.005684407359763164,0.994228132878515
2012-04-18,-1,-0.0003053007210006305,-0.00013575928562422707,-0.0029303422341174466,0.004789293295227044,0.9947507293249173
2012-04-20,0,0.0,0.0,-0.0030559590990656576,0.004789293295227044,0.9932741200566956
2012-04-24,0,0.0,0.0,-0.00229670460342306,0.007695021318539737,0.9919605869780168
2012-04-26,0,0.0,0.0,-0.00229670460342306,0.006105157432915092,0.9923893781440682
2012-04-30,0,0.0,0.0,-0.003940933434560265,0.004912150733125575,0.9925254852662339
2012-05-02,1,0.0005065374498116854,0.0005591583543344729,-0.007505189342944679,0.0030136707913925535,0.992325809628703
2012-05-04,1,0.0002958039469515725,0.0003598752022542224,-0.007505189342944679,0.004885828080441383,0.9916069924525291
2012-05-08,1,0.00042203383674274957,0.000508761735265148,-0.007505189342944679,0.005678814564318255,0.990761005054359
2012-05-10,1,4.735996109303195e-05,0.00020456648722230904,-0.007505189342944679,0.006122784179788411,0.9898803281033428
2012-05-14,-1,-0.0004630082235257477,-0.00023058850476653748,-0.009297278273691442,0.00828757017355099,0.9887212216313681
2012-05-16,1,0.00028884773136253424,0.00037727361667250057,-0.009297278273691442,0.009718518768715434,0.9884050002752842
2012-05-18,-1,-0.0003851171752075117,-0.00023733622072166972,-0.006230479954420981,0.009718518768715434,0.9897023114571974
2012-05-22,1,0.00023682642893745618,0.0003291605286482675,-0.009297278273691442,0.006632076199435531,0.9902556397760648
2012-05-24,1,0.0006362876326724487,0.0006500690460665525,-0.01012721820173516,0.009718518768715434,0.9883826003193059
2012-05-29,1,0.00027363886133780597,0.00032408243429879414,-0.009297278273691442,0.009718518768715434,0.9882983167436813
2012-05-31,-1,-0.0002581591264726099,-0.0001503864241367431,-0.0054814759754167035,0.009718518768715434,0.988805543635388
2012-06-04,-1,-0.00046937639521898967,-0.0003463549982773577,-0.0041167204436123464,0.012093350817315433,0.9884466730983219
2012-06-06,1,0.001083014651981436,0.001174693274124125,-0.005011366879269833,0.009718518768715434,0.9904636033701455
2012-06-08,1,0.0014284365639546947,0.0015539997423009639,-0.0054814759754167035,0.00629656410317681,0.990965666588271
2012-06-12,1,0.0014714894232035714,0.0016114984346046418,-0.0054814759754167035,0.004382724732838586,0.9917500455436631
2012-06-14,1,0.0014877552566519724,0.0016339440722536293,-0.005238399514136528,0.004263335868299979,0.9922225292629661
2012-06-18,1,0.0015196349493463762,0.0016837578311273045,-0.005238399514136528,0.005466197130709173,0.9917636579494249
2012-06-20,1,0.0010567057140070737,0.0011424591223768894,-0.004899730985605014,0.004263335868299979,0.992432104109895
2012-06-22,1,0.0012648396826607853,0.001375224118767917,-0.005238399514136528,0.003602108164476087,0.9934846078882746
2012-06-26,1,0.0011667529294355377,0.0012582912990063268,-0.005390173649474681,0.002947672387770932,0.9931677766800103
2012-06-28,1,0.0012633948431066532,0.0013853210837237635,-0.005390173649474681,0.0039632656304329494,0.9923592837049474
2012-07-02,1,0.0019232416588260116,0.0021497975994586686,-0.0073827812840621815,0.003408853266350137,0.9910226628322608
2012-07-05,1,0.0013896053628820698,0.0015365247135963305,-0.009492755524440476,0.0042014844766667375,0.9896462290953295
2012-07-09,1,0.0010754180152162817,0.0011756112882744276,-0.0073827812840621815,0.006226560828520029,0.9896517814981126
2012-07-11,1,0.0009586854688483349,0.0010576298159642222,-0.0057950178772220905,0.006226560828520029,0.990055435642889
2012-07-13,1,0.0009796213636588224,0.0010695703722034338,-0.0057950178772220905,0.009094518005978196,0.9895516557172138
2012-07-17,1,0.001233900743321854,0.001366380565782291,-0.005991594646323686,0.006306495986677065,0.9896058013466454
2012-07-19,1,0.0011823707219948162,0.0013194230417256211,-0.005991594646323686,0.00978742980143045,0.9885344087542176
2012-07-23,1,0.00013490700363108678,0.00019112550288862652,-0.004718178135283145,0.00978742980143045,0.988996689945761
2012-07-25,-1,-0.00046945679148151367,-0.0003339246032576326,-0.004452149915149317,0.0130616720022961,0.9884654236875962
2012-07-27,0,0.0,0.0,-0.004718178135283145,0.0072281072725390964,0.98925903769847
2012-07-31,0,0.0,0.0,-0.00507660712785002,0.004836052221794521,0.9908059235557156
2012-08-02,0,0.0,0.0,-0.00507660712785002,0.004836052221794521,0.9917406963657518
2012-08-06,0,0.0,0.0,-0.00602925397216913,0.00231113006405277,0.9920310536953731
2012-08-08,-1,-0.001204454422953181,-0.000980627722888516,-0.00602925397216913,0.005783756092721504,0.9912804637178951
2012-08-10,-1,-0.0005164417611445795,-0.00038181707724742163,-0.007759358969664937,0.004704610256497661,0.991446035397272
2012-08-14,-1,-0.0010143523480023724,-0.000813180969631717,-0.007759358969664937,0.004704610256497661,0.9915674315411315
2012-08-16,1,0.0004106047135407712,0.00041095480964013965,-0.008972838654013687,0.002385466850506609,0.9915964377060303
2012-08-20,-1,-0.00036758425845633994,-0.0002625125696933474,-0.007759358969664937,0.002385466850506609,0.991964355488559
2012-08-22,1,0.0004028724495686654,0.00041939605173660897,-0.007759358969664937,0.0006188196094022045,0.9929105026586578
2012-08-24,-1,-0.00017682706448746493,-0.00010324959261110472,-0.0071764121037308165,0.005177532845298885,0.9929948521678656
2012-08-28,-1,-0.0009119281249796164,-0.0007361957653314504,-0.0071764121037308165,0.00613916688515005,0.9931888856097694
2012-08-30,-1,-0.0017540988561523755,-0.0014468852979519847,-0.00511904099235529,0.007158933879380724,0.9931774010819385
2012-09-04,-1,-0.0013245593677915068,-0.0011166588991931184,-0.004310099321520309,0.007158933879380724,0.9934672120692758
2012-09-06,0,0.0,0.0,-0.0049601206626577144,0.00630824076623751,0.9938921734821171
2012-09-10,0,0.0,0.0,-0.004310099321520309,0.00630824076623751,0.9944682106342518
2012-09-12,0,0.0,0.0,-0.0049601206626577144,0.00630824076623751,0.9938790323819131
2012-09-14,0,0.0,0.0,-0.004310099321520309,0.00630824076623751,0.9930339329198722
2012-09-18,0,0.0,0.0,-0.0025380483323647032,0.008357015862315156,0.9915393088701527
2012-09-20,0,0.0,0.0,-0.0025380483323647032,0.00862451262101719,0.9908031085707607
2012-09-24,1,8.288568520808796e-05,0.0001655341073587735,-0.0049601206626577144,0.009185785708662018,0.9905313695301222
2012-09-26,-1,-0.00040847863283837864,-0.0002496562382099674,-0.0049601206626577144,0.009185785708662018,0.990941871956579
2012-09-28,1,0.00029991769140660495,0.0003416998498070961,-0.003564265516215958,0.007841937953283556,0.9914167356023733
2012-10-02,1,0.00016811599874862204,0.00023077093181546435,-0.003564265516215958,0.009185785708662018,0.9907138344716662
2012-10-04,0,-7.025931173115741e-05,4.320831022119713e-05,-0.0028011831281458195,0.009185785708662018,0.9911002767406416
2012-10-08,0,-7.395787825267424e-05,3.3606324526816434e-05,-0.00423138592702435,0.009185785708662018,0.9902039027370947
2012-10-10,-1,-0.001399270199859945,-0.0010867704493729812,-0.0028011831281458195,0.009185785708662018,0.9904719367101524
2012-10-12,1,0.00040789927921705733,0.0004565591276232639,-0.0037846733840245345,0.00882696868393382,0.9923364518829978
2012-10-16,1,0.0014428414044795708,0.0015306075748254154,-0.006292354518585519,0.006563490535604043,0.9930752232538987
2012-10-18,1,0.0015342290211014058,0.001605002577444595,-0.006292354518585519,0.00551320733655993,0.9929136897708714
2012-10-22,1,0.0009750698404564957,0.0010087885090299554,-0.006292354518585519,0.004729148455896619,0.9933413733153299
2012-10-24,1,0.0003642199882648493,0.0004872415933778795,-0.006292354518585519,0.00551320733655993,0.9931633256074374
2012-10-26,1,0.0010251764754593547,0.001144879113920999,-0.006292354518585519,0.007025531528995878,0.9927664716958942
2012-11-01,1,0.0018172239260014597,0.0019815908674255937,-0.006292354518585519,0.007025531528995878,0.9930380772415
2012-11-05,1,0.001676002838105731,0.0018135756511731143,-0.006749428101425982,0.007025531528995878,0.9926267480408937
2012-11-07,1,0.0015081042534398521,0.0016428835361186707,-0.006749428101425982,0.00716582528421864,0.9923098146820878
2012-11-09,1,0.0012583729130621723,0.0013558595297436672,-0.007699243815829245,0.00716582528421864,0.9921335174293979
2012-11-13,1,0.0007970502233716659,0.0008165411906866826,-0.008031131981980539,0.007432736236258439,0.9908089577040066
2012-11-15,1,0.0006804832977673758,0.0006902684726087488,-0.007699243815829245,0.007432736236258439,0.9915578563341917
2012-11-19,1,0.001123515828228378,0.001190259255673991,-0.007699243815829245,0.00828723863934514,0.9917143818463825
2012-11-21,1,0.0009160008908322489,0.000950819928136654,-0.0036168115622717935,0.00828723863934514,0.9919494342853183
2012-11-26,1,0.0014679706541410316,0.0017012550775582845,-0.0036401360143502605,0.008734375209421708,0.9917620352844266
2012-11-28,1,0.0018157390090194267,0.0020916163610145443,-0.004647653865979654,0.0070865811851999055,0.9921422048562822
2012-11-30,1,0.0020138955465480255,0.0023007727869865276,-0.008164647662330458,0.0070865811851999055,0.9912474290417933
2012-12-04,0,0.0,0.0,-0.005043084356245467,0.008734375209421708,0.9899105780981337
2012-12-06,0,0.0,0.0,-0.004218452994205718,0.0070865811851999055,0.9907804174298994
2012-12-10,0,0.0,0.0,-0.004218452994205718,0.0070865811851999055,0.9909510397791856
2012-12-12,0,0.0,0.0,-0.0038673590062950495,0.0064769173479688495,0.9922787741407872
2012-12-14,0,0.0,0.0,-0.0038673590062950495,0.0064769173479688495,0.9922927760600185
2012-12-18,0,0.0,0.0,-0.004136174547707275,0.004027579908207699,0.9927114241545304
2012-12-20,0,0.0,0.0,-0.004136174547707275,0.005101846798778153,0.9924915917259977
2012-12-24,0,0.0,0.0,-0.004136174547707275,0.003681827336695154,0.9931440671959311
2012-12-27,0,0.0,0.0,-0.004999131721236895,0.003919034449816697,0.9926234749798538
2012-12-31,0,0.0,0.0,-0.004999131721236895,0.003452888270474247,0.9935151132253265
2013-01-03,0,0.0,0.0,-0.004999131721236895,0.003452888270474247,0.9942249560283708
2013-01-07,0,0.0,0.0,-0.005482792701470396,0.003919034449816697,0.9936017876487974
2013-01-09,1,0.002278191413705728,0.002485697780951608,-0.005482792701470396,0.003919034449816697,0.9935656619320421
2013-01-11,1,0.0015910829827246763,0.0017551923253568817,-0.005424223678814158,0.005101846798778153,0.9932938301324907
2013-01-15,1,0.0021010357814178686,0.0023326205292212667,-0.005424223678814158,0.005698243294646406,0.9931931816285229
2013-01-17,1,0.0017684441145673815,0.0019641980002625017,-0.005424223678814158,0.0052596381598655016,0.9934857667955128
2013-01-22,1,0.001765477075479889,0.0019379415108556103,-0.008083174441349244,0.0052596381598655016,0.9929665686038368
2013-01-24,1,0.0008579172080785933,0.0008817312417500123,-0.008083174441349244,0.005646328919159904,0.9925118942240555
2013-01-28,1,0.0005449831729176164,0.0005820284711898812,-0.008083174441349244,0.007219699317886016,0.9898672471027966
2013-01-30,1,0.00019128947546026874,0.0002834965765330825,-0.008083174441349244,0.010567175402256731,0.9889855388519885
2013-02-01,1,0.0014386542369437985,0.0015358566414913654,-0.008083174441349244,0.0078062909593941835,0.9898436076116286
2013-02-05,1,0.0009974336011241737,0.001024428142273532,-0.0055203405142605,0.00657770529489774,0.990523266236182
2013-02-07,1,6.395600489929743e-05,0.0001899420025983158,-0.0015304932385564836,0.00657770529489774,0.9906953204778255
2013-02-11,1,0.00043366026553464206,0.0005027147121014594,0.0013773089272520228,0.007403420042345617,0.9908938236032142
2013-02-13,1,0.0004541980784516279,0.0005426659923749782,-3.55069305980395e-05,0.007403420042345617,0.990972175052106
2013-02-15,1,0.0004833552939899895,0.0005721851923027373,-0.005459118316920055,0.007403420042345617,0.9905137710208295
2013-02-20,1,0.0003857202505759462,0.0004674346513285377,-0.0013885061202062099,0.007403420042345617,0.991040834982791
2013-02-22,1,0.00036257557126614134,0.0004766817314473895,-0.0013885061202062099,0.00733898921650899,0.9913628804861605
2013-02-26,1,0.0008063583361759369,0.0008776636374529517,-0.0013885061202062099,0.006511024069270058,0.9940919773362863
2013-02-28,1,0.0012028787967137745,0.0012250423165147007,-0.0013885061202062099,0.006511024069270058,0.9941236563305976
2013-03-04,1,0.0017178209666826893,0.001753895241222851,-0.004670680328545677,0.00668571634937314,0.99375635595749
2013-03-06,1,0.0014887770072373376,0.001491986188859408,-0.006719010626260382,0.00668571634937314,0.9933923198013616
2013-03-08,1,0.0010710074296864866,0.001140078518630439,-0.006719010626260382,0.007927496882654863,0.9927892067604122
2013-03-12,1,0.0022850110891662603,0.0024259231908429655,-0.006719010626260382,0.006932021885592786,0.9923816115775861
2013-03-14,1,0.0028300347926714406,0.0030938024974630747,-0.007129400864608177,0.007901927417980641,0.9919143276186633
2013-03-18,1,0.0024011952313123396,0.0026343958511434317,-0.007129400864608177,0.00821513189101343,0.991013633817768
2013-03-20,1,0.002494501536201398,0.002706235580067217,-0.007129400864608177,0.00821513189101343,0.9905401738077168
2013-03-22,1,0.001919986023443507,0.0020433997233040772,-0.007129400864608177,0.009018913898367235,0.9903874949197775
2013-03-26,1,0.001624472553927669,0.0017282702156583586,-0.006501715248215002,0.009357973341730294,0.9902833118367685
2013-03-28,1,0.002447006090258355,0.002696304513966208,-0.006785262482878423,0.008935865919154962,0.9912119966862044
2013-04-02,1,0.0023543219044629706,0.0025627755764799903,-0.00607222496496165,0.009357973341730294,0.9912754322415372
2013-04-04,1,0.0018265389835469869,0.001964372461776975,-0.004787728882899771,0.009357973341730294,0.9913135860176566
2013-04-08,1,0.0016636609961463167,0.0017514109276553626,-0.004378025516640896,0.009971849411684353,0.991120972925432
2013-04-10,1,0.002401709533938939,0.0025709354627847306,-0.004378025516640896,0.009971849411684353,0.9911653820255478
2013-04-12,1,0.0016865380309699816,0.0017087496120725308,-0.003674254185340992,0.009971849411684353,0.9917211089995794
2013-04-16,0,0.0,0.0,-0.0029753427693310994,0.009971849411684353,0.99303030091135
2013-04-18,0,0.0,0.0,-0.0028760618777946985,0.01114500982658869,0.9921889084675947
2013-04-22,0,0.0,0.0,-0.003674254185340992,0.010757164193596987,0.9921292282683726
2013-04-24,0,0.0,0.0,-0.003674254185340992,0.011105022477419332,0.99144252216854
2013-04-26,0,0.0,0.0,-0.0029191461943368444,0.011105022477419332,0.9920030933020743
2013-04-30,0,0.0,0.0,-0.003674254185340992,0.010664871059254576,0.9923752112513912
2013-05-02,0,0.0,0.0,-0.007804277477613293,0.010664871059254576,0.9917003112967542
2013-05-06,1,0.0025587430001250563,0.0027347868141869313,-0.009141286489150111,0.009532721900462933,0.9909881107119636
2013-05-08,1,0.0024915726778734076,0.002598559551617061,-0.01107961799012587,0.007507402245218778,0.9912864248563374
2013-05-10,1,0.0023039569182025303,0.0024015189865915837,-0.01107961799012587,0.008185080485625166,0.9911654522547431
2013-05-14,1,0.0028282296045270897,0.003019798193708412,-0.01107961799012587,0.007171099151108137,0.9906477278853828
2013-05-16,1,0.002632475438643491,0.002796965814200608,-0.0109006521080408,0.0066646445384536636,0.9911693233050489
2013-05-20,1,0.0023377234374550486,0.0024585123044056807,-0.00914826263011045,0.0066646445384536636,0.9909839035036061
2013-05-22,1,0.0016625355764962962,0.0016754292405271732,-0.010962540332820504,0.006182859343195175,0.9907804210605052
2013-05-24,1,0.0018337460205049897,0.00187689885038874,-0.010962540332820504,0.006182859343195175,0.9908635872940259
2013-05-29,1,0.0020473850168528764,0.0021618582535580717,-0.00914826263011045,0.0066646445384536636,0.990701452371559
2013-05-31,1,0.0013839502398824257,0.0014327033094063348,-0.008545961044189114,0.0066646445384536636,0.9911633248995748
2013-06-04,1,0.0012306495540056323,0.001269346144687821,-0.006616344079509112,0.0066646445384536636,0.9912458775261962
2013-06-06,1,0.0010278858101372156,0.0011125044672890567,-0.004100022407415985,0.006879869660702059,0.9916434468070426
2013-06-10,1,0.0009554997964436546,0.0010445398939304671,-0.004100022407415985,0.006879869660702059,0.9911007152674939
2013-06-12,1,0.0006716478511379628,0.0007925566303158723,-0.0028782406886452058,0.00922937141169153,0.9912137758838441
2013-06-14,1,0.0006157421521485334,0.0007262210161787591,-0.0026336896077410175,0.00922937141169153,0.9915059441539856
2013-06-18,1,0.001400125694230622,0.0014208047532428838,-0.0026336896077410175,0.006496005120084527,0.9927863541558417
2013-06-20,0,-0.00019132590929420927,4.818801469641228e-05,0.0008244680489920117,0.009361778889515025,0.9930442146722904
2013-06-24,-1,-0.00031424154078106483,-2.3762481684860056e-05,0.0031933585601898427,0.009553378167188906,0.9924855873905581
2013-06-26,1,0.0010253737666656806,0.001128439461337055,-0.001728890529866775,0.009230212703497689,0.9934877876094216
2013-06-28,1,0.00041555925211004727,0.0005870314910731082,-0.001728890529866775,0.009230212703497689,0.9929539373514934
2013-07-02,1,0.0004511889549361505,0.0006473466233674459,-0.0019915954750481723,0.009230212703497689,0.992040046482404
2013-07-05,1,0.0006924565645583716,0.0008601604908413283,-0.002237373273382538,0.009553378167188906,0.9914384562130749
2013-07-09,1,0.001467891176492667,0.0015386957263232646,-0.0048195913334192755,0.009553378167188906,0.991485064233302
2013-07-11,1,0.0018843945933115988,0.0019075929100779336,-0.0048195913334192755,0.009230212703497689,0.9917684660402942
2013-07-15,1,0.0017381988974569313,0.0018004607243331848,-0.0048195913334192755,0.009230212703497689,0.991765329827377
2013-07-17,1,0.001758126039655744,0.0018187355279519766,-0.0048195913334192755,0.009230212703497689,0.9918019225524095
2013-07-19,1,0.0026009796412858888,0.0026537828126419116,-0.006640370793996634,0.004209116742090142,0.9913529388600079
2013-07-23,1,0.002874341096319054,0.002990375771464149,-0.007409725554916732,-0.0009930786874851197,0.9907943032087155
2013-07-25,1,0.002186363088605975,0.0022574570441707877,-0.006136321657260355,0.0017149997065214785,0.991647401813288
2013-07-29,1,0.001814734211828394,0.001824375271363593,-0.005254009832003956,0.004899778768275597,0.9924576988458188
2013-07-31,1,0.0019376815993713582,0.0019439295767247225,-0.005254009832003956,0.0028739350708120214,0.9930348889274168
2013-08-02,1,0.002613634377545157,0.0027231103179193024,-0.005254009832003956,0.0028739350708120214,0.9934163562306393
2013-08-06,1,0.0021787746987090247,0.0022405209338625057,-0.0036818859551078584,0.004899778768275597,0.9937040108415071
2013-08-08,1,0.001562243389899424,0.0015908635907283262,-0.005254009832003956,0.004899778768275597,0.9935587575198903
2013-08-12,1,0.0014637753646042024,0.0014989118487377653,-0.005254009832003956,0.009031441258267926,0.9926066174041563
2013-08-14,1,0.0012362910965237367,0.0012942158280084015,-0.005254009832003956,0.009031441258267926,0.9924551161790465
2013-08-16,1,0.00041121994894836053,0.0005782960559142596,-0.0034688903394900178,0.009887180544582912,0.9924529299869003
2013-08-20,1,0.0003567643218324326,0.0005156826535286684,-0.0031807105390226896,0.0116038664673166,0.9913836901020567
2013-08-22,1,0.0005228638234670412,0.0006622258756353962,-0.0034688903394900178,0.0116038664673166,0.9913867449638812
2013-08-26,1,0.00019833805655473008,0.00033181142805739617,-0.0034688903394900178,0.0116038664673166,0.9916835125213435
2013-08-28,-1,-0.0005273337071591021,-0.00030936781454173545,-0.0031807105390226896,0.0116038664673166,0.9923752512971492
2013-08-30,1,0.00012622096177346878,0.00022421219499142681,-0.0034688903394900178,0.0116038664673166,0.9921737227684742
2013-09-04,1,0.0008926584984418834,0.000907213451996641,-0.0034688903394900178,0.007328589546092668,0.9930446638693767
2013-09-06,1,0.00029503722932102273,0.0003955267732041304,-0.002322413704612183,0.008440091395334148,0.9919873011811475
2013-09-10,1,0.0010140471249848234,0.0010470761630502847,-0.0042728900433133,0.006791527372518551,0.9920117646296529
2013-09-12,1,0.0014642895062331534,0.0015205727880396318,-0.0042728900433133,0.007325186736066683,0.991572672740508
2013-09-16,1,0.001634585163486326,0.0017168349248910925,-0.0042728900433133,0.007325186736066683,0.9915740591469274
2013-09-18,1,0.0021075063898849285,0.002239206774420027,-0.004471083484740514,0.007325186736066683,0.9917092370361398
2013-09-20,1,0.001955383943958578,0.0021023559209004433,-0.001001500620565662,0.008529117486963772,0.9917249037333676
2013-09-24,1,0.0017970137981152007,0.0019100053540741973,-0.004925273985182756,0.011881167154894675,0.9905750465801609
2013-09-26,1,0.0021326038047208735,0.0023069686991647473,-0.008798550244441494,0.012103456952979732,0.9896374820892782
2013-09-30,1,0.0022078287446177717,0.0024206946926438053,-0.008798550244441494,0.012103456952979732,0.9894832233091821
2013-10-02,1,0.0024236638027937776,0.0026534510291615202,-0.009654849633887037,0.013188302781209135,0.9873690465582469
2013-10-04,1,0.0024926704037490067,0.0027535020491826438,-0.008798550244441494,0.012103456952979732,0.9884774199857425
2013-10-08,1,0.0016091829722715194,0.0017539572233849165,-0.006679556293556343,0.012103456952979732,0.9892808154254269
2013-10-10,1,0.0021312095240360795,0.002339593507660919,-0.008798550244441494,0.011881167154894675,0.9888590681881367
2013-10-14,1,0.0024669103823466527,0.00270122195928989,-0.008798550244441494,0.01284075019452418,0.988394892886639
2013-10-16,1,0.002641034469766474,0.002885713148556675,-0.006679556293556343,0.010576620167502037,0.9897168987382439
2013-10-18,1,0.0027865011463921205,0.003018090257266014,-0.006679556293556343,0.007761426276639111,0.9898773644454204
2013-10-22,1,0.00251981847505044,0.002670988688720081,-0.005521824616329146,0.005804810095968023,0.990373885073201
2013-10-24,1,0.0025162513265963066,0.002660282809017763,-0.005100871193320278,0.005804810095968023,0.9912358181444009
2013-10-28,1,0.001680444792559192,0.0016956595529264954,-0.005100871193320278,0.005804810095968023,0.9917013374751987
2013-10-30,1,0.002541085700325579,0.00267350394889267,-0.005100871193320278,0.005804810095968023,0.9929273571923249
2013-11-01,1,0.00206162291677578,0.0021089023460444663,-0.005521824616329146,0.005804810095968023,0.9927511810733769
2013-11-05,1,0.0016783278739908117,0.001698241813139437,-0.006291730457158471,0.005804810095968023,0.9919538036431779
2013-11-07,1,0.001832245255861228,0.001887787918683215,-0.005100871193320278,0.005804810095968023,0.9918244071652406
2013-11-11,1,0.001404206567817905,0.0014704653538793822,-0.005441923196284934,0.004468283252172337,0.9926480089703127
2013-11-13,1,0.0011993597263762453,0.0012990079008706654,-0.007314886466052438,0.0028272713219452267,0.9918229377230213
2013-11-15,1,0.0018817594220302042,0.0018992310437402782,-0.007314886466052438,0.00044486185202652324,0.9914157397704748
2013-11-19,1,0.0010699929428412231,0.0011728968420524062,-0.007314886466052438,0.0009875691201718943,0.9914932302677597
2013-11-21,1,0.0013551411179141097,0.0014142612858128647,-0.009224201832155809,0.0009875691201718943,0.9905762669506115
2013-11-25,1,0.0008642556661550098,0.0009849432315244034,-0.0074194555428729065,0.003030814922966282,0.9910645951700918
2013-11-27,1,0.0013069811542293535,0.0013440007081921708,-0.005187806607849113,0.0009875691201718943,0.9916885557507481
2013-12-02,1,0.0010125513781176348,0.001061557854012623,-0.004075688429112113,0.0008809330402999973,0.9923385245570248
2013-12-04,1,0.00018258022168609348,0.0003149387335729788,-0.004056709732456081,0.001323576484380247,0.9935488479016529
2013-12-06,1,0.001055379450356764,0.0010678812191727135,-0.004622371263955789,0.001323576484380247,0.9933721669433309
2013-12-10,1,0.0010753573248661991,0.0010959141546128947,-0.004056709732456081,0.0066346594182625715,0.9930861608497813
2013-12-12,1,0.0004973024236450136,0.0005228681834202558,-0.0037353265050755475,0.0066346594182625715,0.9930389418079937
2013-12-16,-1,-0.00016733153288139938,-3.8832730438712645e-05,-0.0037353265050755475,0.007943734082366174,0.992525984113227
2013-12-18,1,8.891617560411537e-05,0.00021936484021398378,-0.0037353265050755475,0.007881699211349812,0.9930107334065545
2013-12-20,1,3.195990160355719e-05,0.000171286273579635,-0.0030156007183034556,0.0066346594182625715,0.9939367665011211
2013-12-24,1,0.0005004539574383137,0.0005626821551503711,-0.005153874512726122,0.004745444621309079,0.9920322035234492
2013-12-27,1,0.00015997930955935654,0.00026760154176438337,-0.0061552531895573475,0.007881699211349812,0.9915209515838265
2013-12-31,0,-0.00015657711989725437,6.328639931603582e-07,-0.0061552531895573475,0.007881699211349812,0.9913318208990822
2014-01-03,-1,-0.0004770053409302996,-0.0002749880365303958,-0.00904933143415815,0.007881699211349812,0.9903116555468265
2014-01-07,-1,-0.0007345125013182453,-0.0005062402102678477,-0.0061552531895573475,0.007085702592487208,0.9910034308538419
2014-01-09,-1,-0.0006064548722251124,-0.000363071653770257,-0.0061552531895573475,0.00619831814792025,0.9913223045663592
2014-01-13,-1,-0.0016908498571240457,-0.0012946643400914828,-0.0036417439072124365,0.0069664169204820435,0.9918768346580157
2014-01-15,-1,-0.0014410612954900758,-0.001087459167740906,-0.00287314222159006,0.0069664169204820435,0.9921039994618776
2014-01-17,-1,-0.0012158943271737685,-0.0008981983417655791,-0.0027159103095056444,0.0069664169204820435,0.9921570394510627
2014-01-22,-1,-0.0019427062762040707,-0.0015021780806415731,-0.0036417439072124365,0.0069664169204820435,0.9916423207409959
2014-01-24,-1,-0.003519494752428403,-0.0029018993062120734,-0.001401124551934287,0.0069664169204820435,0.9922693051787262
2014-01-28,-1,-0.0029391918040367077,-0.0024275430834884816,-0.0007541317007217132,0.007484179742069952,0.9916837196374121
2014-01-30,-1,-0.002915227675303883,-0.0023830265006390947,-0.0007541317007217132,0.008173020829586675,0.9911201343617543
2014-02-03,-1,-0.003389705567491342,-0.0028535680614036234,0.0020902286286108938,0.00881018446281149,0.9906119522925078
2014-02-05,-1,-0.0028340896627553434,-0.0023738574565515657,0.0012981764658557252,0.00881018446281149,0.9915365436528394
2014-02-07,-1,-0.002349354271340971,-0.0019586181905542803,-0.00030622167688759005,0.00881018446281149,0.9922405881573491
2014-02-11,-1,-0.0013781798466845111,-0.0011416587927834982,-0.0007541317007217132,0.009793973244254007,0.9928357792240597
2014-02-13,-1,-0.0012840915383552178,-0.0010412953751643434,-0.0013738504784955863,0.008636809835890593,0.9928302318454608
2014-02-18,-1,-0.0010008860110360175,-0.0007938787411678271,-0.0013738504784955863,0.009793973244254007,0.99254921319793
2014-02-20,-1,-0.001326419107585886,-0.0010935898870065106,-0.0007749178440806721,0.009793973244254007,0.9921078146780795
2014-02-24,-1,-0.0012611925234460404,-0.0010281962063975175,-0.0033084265262490415,0.009793973244254007,0.9918103962928905
2014-02-26,0,-4.2825980936357774e-05,3.662134279593584e-05,-0.006265719763015872,0.0073447848266238085,0.992376778782551
2014-02-28,1,0.0006624250931259147,0.0006663010295493343,-0.007964611733137087,0.004858918524694252,0.9929738345460969
2014-03-04,1,0.0006544514671247196,0.0007089584834904162,-0.007964611733137087,0.00622086630358239,0.9927477910793973
2014-03-06,1,0.0010066027170196473,0.0010275834056347093,-0.007964611733137087,0.00622086630358239,0.9927991010106864
2014-03-10,1,0.0013701726794722075,0.00147313381686911,-0.009841399337358316,0.00622086630358239,0.9913115321463332
2014-03-12,1,0.0016510649862603356,0.0018097107129168748,-0.009841399337358316,0.00622086630358239,0.9908636514089271
2014-03-14,1,0.0012658730776983337,0.0014056057980558804,-0.011867176294654943,0.00622086630358239,0.9902034538829216
2014-03-18,1,0.0018885641546785084,0.002124074942875816,-0.011867176294654943,0.00622086630358239,0.9900791480289209
2014-03-20,1,0.0018393275575794362,0.0020799569768408925,-0.011867176294654943,0.006478060157472153,0.9899659868092413
2014-03-24,1,0.001398844225852697,0.001544564600918195,-0.011867176294654943,0.006428457216548328,0.9902884588903441
2014-03-26,1,0.001008355378417232,0.0011664924144773664,-0.007598336618951226,0.006428457216548328,0.9910787973032879
2014-03-28,1,0.000618651971033816,0.0007116848751759156,-0.007639833442722592,0.006428457216548328,0.9909055242339792
2014-04-01,1,0.0013208233097342281,0.0014984133508572995,-0.007639833442722592,0.004551290132150883,0.991383476245508
2014-04-03,1,0.0012897287530364602,0.0014481574280066996,-0.007639833442722592,0.003818999685247365,0.991420241995728
2014-04-07,1,0.00045707494530647754,0.0005325293899410413,-0.006042380513560076,0.005897674797852597,0.9924087566735877
2014-04-09,1,0.0009797383854533972,0.0011299795670823287,-0.006223676907571769,0.005897674797852597,0.9928109920413127
2014-04-11,1,9.927833270194323e-05,0.00015949594591073746,-0.005182274992072547,0.007242993741595148,0.9941111933902611
2014-04-15,1,0.000505748552248602,0.0006004278145764945,-0.005182274992072547,0.005322985053108155,0.9946607856688597
2014-04-17,1,0.0014091310640837332,0.001639499948060688,-0.005182274992072547,0.002609206426759296,0.9952575260754797
2014-04-22,1,0.0010869056276840866,0.0012562588438391872,-0.0049719621790448336,0.0036274364369992176,0.9948694750884626
2014-04-24,1,0.0007920929250525505,0.0009323551472682685,-0.004086913468330788,0.005465145898333335,0.9948818003496565
2014-04-28,1,0.00018080135444537455,0.00021677960519679606,-0.0035623339789245066,0.006456485805658701,0.9948739542378722
2014-04-30,-1,-0.0003690304287142245,-0.0002954645761802307,-0.0035623339789245066,0.006456485805658701,0.9946860617614852
2014-05-02,1,5.017239876867657e-05,6.791240615783216e-05,-0.0035623339789245066,0.006456485805658701,0.9945135091132563
2014-05-06,-1,-0.00013643162581599842,-0.00011918358150126394,-0.001911743353622306,0.006456485805658701,0.9948716038506376
2014-05-08,-1,-0.0005673431171397795,-0.00046006823890450913,-0.0014394905731914404,0.005955422333485725,0.9951006463156044
2014-05-12,-1,-0.00036236257819145925,-0.00026458156383934794,-0.0018845427584132223,0.005295668230345144,0.9955915113939232
2014-05-14,1,0.0002556721727706062,0.0002656735508115998,-0.0035623339789245066,0.005295668230345144,0.9951612843526033
2014-05-16,1,0.00015282826991350263,0.00015342118912384218,-0.0035689015088181003,0.005295668230345144,0.9950905183067321
2014-05-20,1,0.000496116960472396,0.000553446038558167,-0.0028525531836642894,0.005275906306608062,0.9956742496190947
2014-05-22,1,0.000617811591567432,0.0006809213469395076,-0.001972312609857841,0.004960103213416848,0.9961956572428655
2014-05-27,1,0.0009491172247278355,0.0010502919260356842,-0.003409007168094976,0.003249223805737958,0.9958646615399283
2014-05-29,1,0.0008474293118930951,0.0009258784148506326,-0.0027992550700899144,0.002581338184175315,0.9961947728657304
2014-06-02,1,0.0008509884104602103,0.0009123668128450654,-0.0027992550700899144,0.0033055428346339894,0.9947105743860902
2014-06-04,1,0.0014240863727654452,0.0015949737476362378,-0.003409007168094976,0.002581338184175315,0.9944370346937481
2014-06-06,1,0.0011391057614620374,0.0012290173086960572,-0.003409007168094976,0.0019096538127017363,0.9945425217666659
2014-06-10,1,0.001076808203991515,0.0011671984743032186,-0.003409007168094976,0.0019096538127017363,0.9946883705073509
2014-06-12,1,0.0005382266183875249,0.0005668813090040066,-0.0030657245919592565,0.0019096538127017363,0.9953057385015429
2014-06-16,1,0.00017070669506519438,0.00019853529837258576,-0.0025142173597377275,0.0026766931189317698,0.9954061161980018
2014-06-18,-1,-0.0006927403993992687,-0.00047685554234480783,-0.0030657245919592565,0.0026766931189317698,0.995395125121841
2014-06-20,-1,-0.000594428300074203,-0.00039640859604787415,-0.003438833796458667,0.002778467773903945,0.9948901574377716
2014-06-24,-1,-0.0010313506697336686,-0.0007992982844212911,-0.0025142173597377275,0.003177711092005426,0.9951307722689968
2014-06-26,-1,-0.0018466631996467624,-0.00145510038232421,-0.0025142173597377275,0.003275373754464423,0.9947816886776317
2014-06-30,0,-6.893072525589454e-05,9.759059398054438e-05,-0.0031920757849888373,0.003177711092005426,0.9963583321148611
2014-07-02,-1,-0.00024940952210078917,-7.844999976276603e-05,-0.003956020805563634,0.003177711092005426,0.9962562109952963
2014-07-07,-1,-0.00019512933968521908,-5.198173436722945e-05,-0.003956020805563634,0.003275373754464423,0.9957765707312113
2014-07-09,0,-9.153991610309819e-05,2.341971589295169e-05,-0.004634296343019411,0.0036538299306514916,0.9950642201839283
2014-07-11,-1,-0.00025916363125824053,-0.00013742538566959326,-0.0059296233434002876,0.00400713583780454,0.9944819476763372
2014-07-15,-1,-0.0004102781395795014,-0.0002437427963542006,-0.0059296233434002876,0.004417114447330772,0.9943555561594534
2014-07-17,-1,-0.0004906739326181516,-0.0003212540588443647,-0.005137997601178972,0.005936564713211778,0.993849612403308
2014-07-21,0,-4.451802453286143e-05,1.324462479719579e-05,-0.0029584256422565897,0.00621735521082335,0.9939468843085539
2014-07-23,1,0.0006327959586939296,0.0007057283810718961,-0.0029584256422565897,0.00621735521082335,0.9941968008773602
2014-07-25,1,0.0011702951307519826,0.0013544289723719355,-0.0029584256422565897,0.00621735521082335,0.9944307603556203
2014-07-29,1,0.0009357037172260239,0.001092502471451711,-0.001478537735900829,0.006741858898493989,0.99469138885197
2014-07-31,1,0.0005483072978621175,0.0006608914489137206,-0.0010106335146931296,0.006741858898493989,0.9947437658399644
2014-08-04,1,0.0009434525344675687,0.0011192554470566692,-0.0010106335146931296,0.00621735521082335,0.9952628608901996
2014-08-06,1,0.0004134866006591506,0.0004767600214095598,8.486089006594887e-05,0.005961128040994126,0.995763745865526
2014-08-08,1,0.0008454534481599524,0.0010035760925403044,0.0006365663778299917,0.005510156504078712,0.9965998553956691
2014-08-12,1,0.001095123180160067,0.0012792517387076362,8.486089006594887e-05,0.004168426932481556,0.9965197008889497
2014-08-14,1,0.0017281647426456424,0.0019914473433916523,-0.0005685176574128782,0.0037175337644193814,0.9969443558659044
2014-08-18,1,0.0016224862441091457,0.001810216804674012,-0.0010106335146931296,0.0037175337644193814,0.9967707328536088
2014-08-20,1,0.0014932083341729504,0.001642608185747972,-0.0005685176574128782,0.005030656813531931,0.9965703340535425
2014-08-22,1,0.0019113308053824542,0.002166488549292021,-0.0006969579200562384,0.005030656813531931,0.9962555700708675
2014-08-26,1,0.0023272696320978782,0.002643314544173217,-0.0019331568450148477,0.005030656813531931,0.9959724954713556
2014-08-28,1,0.0014127566672953213,0.0015341664381556984,-0.0019331568450148477,0.0057256681412533785,0.9951974988786604
2014-09-02,1,0.0016818855864832376,0.0018672970867010886,-0.0036190042488276567,0.0057256681412533785,0.9945631825718051
2014-09-04,1,0.001001157791566807,0.0010163952123394232,-0.005061616425530563,0.0057256681412533785,0.9934352712147324
2014-09-08,1,0.0014523692909545714,0.0015612560447058528,-0.006946293042187622,0.006834533842500906,0.9925399128304996
2014-09-10,1,0.0016060067123810822,0.0017811899054684663,-0.007509741367150401,0.007240124267629459,0.9916591271560932
2014-09-12,1,0.0016894588765690127,0.0018605625913205156,-0.012555374036397168,0.007240124267629459,0.989992402056561
2014-09-16,1,0.0015520483000296228,0.0016755295911851109,-0.013155862781363659,0.005792574422972496,0.9893885671295058
2014-09-18,1,0.0017297081696686985,0.00183761802341181,-0.014478783043936783,0.004776915321961719,0.9888575149208907
2014-09-22,1,0.0014407507384623995,0.0015018886839381247,-0.014478783043936783,0.007512610323820602,0.9875533045360686
2014-09-24,1,0.0013923105624231904,0.0014368999090613955,-0.014478783043936783,0.008945595505053049,0.9868012372903404
2014-09-26,1,0.0008256471801642235,0.0008615279351522924,-0.013155862781363659,0.006971756086518243,0.9881256957452352
2014-09-30,1,3.5405259504743504e-05,0.0001616609250127655,-0.014478783043936783,0.006971756086518243,0.9880927715861321
2014-10-02,-1,-0.0004054703946191859,-0.00024585196014560533,-0.014478783043936783,0.004296270436613646,0.9881450307233578
2014-10-06,-1,-0.0002992428493603486,-0.0001638565854232846,-0.014478783043936783,0.005096193903002334,0.9874403231877229
2014-10-08,-1,-0.0004257995258343064,-0.0002667227577200553,-0.013185514191516123,0.0038551809234556493,0.988059367943207
2014-10-10,-1,-0.0019424967644156178,-0.0016216493646447113,-0.007648785227149723,0.01096280946703885,0.9887290273844661
2014-10-14,-1,-0.0027014682979261493,-0.0023064355803898034,-0.003632855067121051,0.01096280946703885,0.9889972700658752
2014-10-16,-1,-0.0030245927020124373,-0.0026177656874676308,-0.0008466399050273291,0.01096280946703885,0.9892513107078003
2014-10-20,-1,-0.001132382316199161,-0.0009462405354515984,-0.003125062063849827,0.002872968200286067,0.9920773542594907
2014-10-22,-1,-9.479715436222004e-05,-3.5525301452829614e-05,-0.0026630533316699804,0.002872968200286067,0.9931673149459717
2014-10-24,1,0.00020564143733120094,0.00021304078363599781,-0.0026630533316699804,0.005824089868033935,0.9927490133015323
2014-10-28,-1,-0.0005524821541001157,-0.0004631246191306911,-0.0026630533316699804,0.005824089868033935,0.993087210822352
2014-10-30,-1,-0.0015036013954955283,-0.0012982411984391905,-0.0026630533316699804,0.005824089868033935,0.9917766147721784
2014-11-03,-1,-0.0012395286070969755,-0.001029839317986455,-0.0026630533316699804,0.005824089868033935,0.9906822437247869
2014-11-05,-1,-0.0012772907078760784,-0.0010497137003808417,-0.0008820742996173173,0.005824089868033935,0.989866159427381
2014-11-07,-1,-0.0003342285950688929,-0.00022847470358845166,-0.0045504348435391195,0.0023076924379724197,0.9886373018900042
2014-11-11,-1,-0.00021176166040256497,-0.00012231414493031948,-0.005769019000142183,0.004128262581092994,0.9874685384085621
2014-11-13,-1,-0.0005946376126321002,-0.00042807132487389035,-0.009489995248282035,0.0053007889879661645,0.986327048380109
2014-11-17,-1,-0.0009391457350668373,-0.0007341248802839557,-0.009489995248282035,0.0053007889879661645,0.9862715581003556
2014-11-19,1,0.0003894134034771888,0.0004232539235226372,-0.009489995248282035,0.008600148796880595,0.9848838525596936
2014-11-21,1,0.000691028129526511,0.0007480251044383563,-0.009489995248282035,0.009358070407781232,0.9847604906032691
2014-11-25,1,0.00019483096181626742,0.00021076924495796187,-0.006468119551612331,0.009358070407781232,0.9848047491725584
2014-11-28,-1,-0.00163638286239073,-0.0014055802369576775,-0.004531344762651314,0.009358070407781232,0.9867672793199617
2014-12-02,-1,-0.002838863589326563,-0.0024558829017605798,-0.005309476927015169,0.006411472379007162,0.9889457223377538
2014-12-04,-1,-0.0012871274685919113,-0.001097915626008581,-0.008283179756891244,0.004545606675951238,0.9894156686993169
2014-12-08,-1,-0.003612838172862054,-0.0031486900100932465,-0.008283179756891244,0.006411472379007162,0.9897487062232333
2014-12-10,-1,-0.0035209987922972356,-0.0030582193080632347,-0.00848606724456511,0.006411472379007162,0.9893926403255673
2014-12-12,-1,-0.004097545298921168,-0.003581282693208532,-0.006000020727296663,0.00905450679749924,0.9897042157018096
2014-12-16,-1,-0.004119172381293388,-0.0036149115090242726,-0.006592159010201911,0.00905450679749924,0.9895714099166787
2014-12-18,-1,-0.0026500630775404405,-0.002305296150618021,-0.006592159010201911,0.007230791894706318,0.9905536847302575
2014-12-22,-1,-0.002297515728460869,-0.0019698570919212143,-0.006592159010201911,0.012144495448787356,0.9894556317813948
2014-12-24,-1,-0.0019548259533966688,-0.0016826653086463366,-0.006592159010201911,0.012144495448787356,0.9890616890768511
2014-12-29,-1,-0.0021986962260592494,-0.0018904946881718107,-0.00848606724456511,0.012144495448787356,0.9878569632954657
2014-12-31,-1,-0.0030340577088108413,-0.002633651685398486,-0.005986702977657545,0.012144495448787356,0.9880653122560801
2015-01-05,-1,-0.003799965120087674,-0.0033293420425984286,-0.005802622988148813,0.014194638612865408,0.9876534950316056
2015-01-07,-1,-0.00385051359387368,-0.0034142176438477457,-0.005802622988148813,0.014329601951778376,0.988143236452121
2015-01-09,-1,-0.00297787660529426,-0.0026730855464201933,-0.005666090988204441,0.012144495448787356,0.9891848444076448
2015-01-13,-1,-0.0025187233527603184,-0.0022771370017451616,-0.00523149698747997,0.011585321774826698,0.9888719292759505
2015-01-15,-1,-0.002910183843495264,-0.0026268466380589815,-0.0031753508972113204,0.01352752214074203,0.9878107176831934
2015-01-20,-1,-0.0016978598288737712,-0.001582029208131993,-0.0031753508972113204,0.011414300567954276,0.9891353667145448
2015-01-22,-1,-0.0001767090347460913,-0.0001127796384398819,-0.0031753508972113204,0.009325833220117201,0.9909985994850454
2015-01-26,1,0.0001784866023185873,0.00029751412623629304,-0.0032851283307960308,0.009325833220117201,0.9907027547640578
2015-01-28,-1,-0.0009350358775937042,-0.000917638076475187,8.96678547284855e-05,0.010962241531011234,0.9903501315513078
2015-01-30,-1,-0.0006060270787224735,-0.0005628107013027292,8.96678547284855e-05,0.010962241531011234,0.9907575038680659
2015-02-03,1,0.0001845483459139871,0.00031852079388405656,0.0003144094532280075,0.009325833220117201,0.99246505709481
2015-02-05,1,0.0005177037427004158,0.0007135483393457123,0.0003144094532280075,0.00801680801832375,0.9932104473733828
2015-02-09,1,0.0010094450124127742,0.0012855746782198508,-0.00031082590885572964,0.009325833220117201,0.9928171892456612
2015-02-11,1,0.002041343639426198,0.002483910296702545,-0.0015874245321396533,0.008349147408709668,0.993173899005891
2015-02-13,1,0.0028425574348141434,0.00338862107741793,-0.003858868190782145,0.0062862587662745025,0.9930824262464505
2015-02-18,1,0.0029119512261960388,0.003474680148187451,-0.005805682983787521,0.0076937104620241805,0.9924602245560854
2015-02-20,1,0.0030785105266098946,0.0036436000010406783,-0.0063395478508744135,0.007180272001345111,0.9921873395087286
2015-02-24,1,0.0029710426162006167,0.0034892914761597334,-0.006460766666200698,0.005337499553210027,0.9923183014048841
2015-02-26,1,0.0036760738682641214,0.00425537121420028,-0.006460766666200698,0.004168904602501249,0.9929895057990014
2015-03-02,1,0.003590328625390214,0.0041592557257445545,-0.006460766666200698,0.0048804132304372215,0.9932727352817582
2015-03-04,1,0.003618276701467543,0.004190760235010704,-0.007374739002137432,0.0048804132304372215,0.9926309077294898
2015-03-06,1,0.0023500528745900246,0.0026687881583473795,-0.006429937071837881,0.0051396175836054825,0.9934509154915787
2015-03-10,1,0.0019165680456771296,0.002127585752806479,-0.006004060811199352,0.0051396175836054825,0.9940927765852894
2015-03-12,1,0.0017983323192517667,0.0019572563894590385,-0.006004060811199352,0.004584948471449609,0.9945638662376056
2015-03-16,1,0.002332122528236181,0.002652523193953816,-0.006004060811199352,0.004584948471449609,0.9947517736542075
2015-03-18,1,0.002889655952783344,0.0033312565665838227,-0.004169742314440448,0.004584948471449609,0.9952104090693452
2015-03-20,1,0.002752522420593039,0.003180091453258869,-0.0042101485862158766,0.00517022871137535,0.994616841929477
2015-03-24,1,0.001844262645047605,0.0021096442298499042,-0.0017988616008434539,0.00517022871137535,0.9953048841451463
2015-03-26,1,0.0015916573976854863,0.0017768808734419743,-0.002264379160050911,0.00517022871137535,0.9950252199313627
2015-03-30,1,0.0020158364688443575,0.00229066969407943,-0.0026364056713730462,0.004940724608922586,0.9936814176712161
2015-04-01,1,0.001621044281118246,0.0018486788463102377,-0.002264379160050911,0.006358356035909812,0.9927771744459984
2015-04-06,1,0.002276244141583497,0.002628353989529063,-0.002264379160050911,0.006358356035909812,0.9925379738360867
2015-04-08,1,0.002519175978298407,0.002908254833392956,-0.0037415727392850974,0.004940724608922586,0.9919847832926972
2015-04-10,1,0.0028117101524470414,0.003240854587903865,-0.0037415727392850974,0.0070725598898703675,0.9913807313054146
2015-04-14,1,0.0025984211956439265,0.0029835481760214786,-0.004378707735975321,0.0070725598898703675,0.9912459105452299
2015-04-16,1,0.0029377950489829427,0.003385831765756047,-0.004378707735975321,0.007261633795145902,0.9908406662492597
2015-04-20,1,0.0029235173712832303,0.0033938179308001535,-0.0023247671746528856,0.0054354364143057434,0.9915611584262268
2015-04-22,1,0.0026863895265186125,0.003104214695212355,-0.0022645292971328313,0.0054354364143057434,0.9915374014207962
2015-04-24,1,0.0016312991786229215,0.0018236713153820566,-0.0034243655617586547,0.0054354364143057434,0.9916152054939611
2015-04-28,1,0.00035575287316024574,0.0003819260076354301,-0.0034243655617586547,0.005884604046510674,0.9922882686283462
2015-04-30,1,0.0005908603017504984,0.000653714950385896,-0.0016182243230378683,0.0050858636022630055,0.9937677947463192
2015-05-04,1,9.670647072883889e-05,0.00018703880340403334,-0.0016182243230378683,0.0050275025937826685,0.994217474763422
2015-05-06,-1,-0.00036105397683352765,-0.00022263218991553458,-0.0016182243230378683,0.005359948209026926,0.9936707041401671
2015-05-08,0,-0.00013790884978757766,1.2639801343902041e-05,-0.0026429651463292132,0.004284142701237803,0.9945311918145391
2015-05-12,-1,-0.0008505657258193279,-0.0005998037279642236,-0.0016182243230378683,0.0050275025937826685,0.9941414155645614
2015-05-14,1,0.0005922168310455149,0.0006133348312535447,-0.0026429651463292132,0.0036987523737385926,0.9945947209074566
2015-05-18,1,0.0007337663498052132,0.0007522393898397729,-0.003393395180963554,0.0043014239728930755,0.9943379351884838
2015-05-20,1,0.0006376645000510504,0.0006462667522506137,-0.003393395180963554,0.005191740070237125,0.9933985797803506
2015-05-22,1,0.000374178524975814,0.0004074417809025718,-0.0018114228408172557,0.005191740070237125,0.9936479178083082
2015-05-27,-1,-0.0004084153382180913,-0.00024551305653856245,-0.003393395180963554,0.0050427306986453296,0.9938514055664261
2015-05-29,-1,-0.0009638296272604949,-0.0006932142105970384,-0.003393395180963554,0.0050427306986453296,0.9938383835234198
2015-06-02,-1,-0.0011173859113473715,-0.0008006618991805882,-0.0037801468706484837,0.004835885090908574,0.9931181545888109
2015-06-04,-1,-0.0015738823256360491,-0.0012134009576748967,-0.003482970244200466,0.0021246316383026157,0.9941581511699831
2015-06-08,-1,-0.0017598063413093927,-0.0013792754662322157,-0.0036669092872280355,0.0030715235808719543,0.9938023163419691
2015-06-10,-1,-0.0014931426354596535,-0.001122774055764153,-0.0052656294407361845,0.0015553312520578768,0.9941451962893875
2015-06-12,-1,-0.0016455882971394998,-0.0012858874750034386,-0.0036669092872280355,0.004835885090908574,0.9932714149765738
2015-06-16,-1,-0.0009085009513516817,-0.0006960526727266741,-0.0036669092872280355,0.0048733496447381204,0.9932084110629121
2015-06-18,0,-6.471770117400872e-05,4.3514623309636195e-05,-0.0052656294407361845,0.0015553312520578768,0.99350374329269
2015-06-22,-1,-0.0006651590357403639,-0.00043533182114101224,-0.0052656294407361845,0.0011722046269153664,0.9938029805070527
2015-06-24,-1,-0.0011865205126790138,-0.0008933320932001929,-0.005689311435565374,0.0011722046269153664,0.9939020624539151
2015-06-26,-1,-0.0010350582336791409,-0.000789486690319293,-0.008651994800658801,0.0011722046269153664,0.9928305399365185
2015-06-30,-1,-0.002015689822537696,-0.0016468369336356163,-0.0068136797774508845,0.004008896277262957,0.9908403789858409
2015-07-02,-1,-0.0020067490854404463,-0.0016505386673908602,-0.0068136797774508845,0.00720506174654369,0.9906055975611234
2015-07-07,-1,-0.0018191284547465403,-0.001518722071945139,-0.005689311435565374,0.00720506174654369,0.990880736895925
2015-07-09,-1,-0.0018630646256282573,-0.0015952857906855523,-0.0047957728032778655,0.009496756685847908,0.9907426219249483
2015-07-13,-1,-0.0008514708311949463,-0.0007007614691962953,-0.005689311435565374,0.00720506174654369,0.9904381292001363
2015-07-15,-1,-0.0004041506125249684,-0.00032086169791637484,-0.00671628363864712,0.0023453845727925073,0.9902043104412861
2015-07-17,-1,-0.0008919751257156531,-0.0007586880511423703,-0.005844629530995379,0.007675202292609751,0.9904918864694785
2015-07-21,-1,-0.000357899636536758,-0.00033382399908552733,-0.005844629530995379,0.007675202292609751,0.9902608072834881
2015-07-23,-1,-0.0007729245639627129,-0.0006988635766031139,-0.008001096052724845,0.007675202292609751,0.9895474214711116
2015-07-27,-1,-0.0017897933115335806,-0.0016049013724694847,-0.008001096052724845,0.007675202292609751,0.9877923125582538
2015-07-29,1,0.00029212097139140193,0.0003313213671545652,-0.008080996969063722,0.003255603506034052,0.9891444235988562
2015-07-31,1,0.0004165176305362735,0.00047472040807000724,-0.008080996969063722,0.006286873552104109,0.9877868897091032
2015-08-04,1,0.00041952423364618715,0.0004907541192630586,-0.01315389699158014,0.006286873552104109,0.9857548632404943
2015-08-06,1,0.0005273105952587527,0.0006031978681483771,-0.01315389699158014,0.008506229732710919,0.9850056464574434
2015-08-10,1,0.0006056269466521617,0.0006977946644367082,-0.013838014305459816,0.008506229732710919,0.9848019602281636
2015-08-12,1,0.00024401063518825338,0.0002828695802855283,-0.013838014305459816,0.012250428040486984,0.9846271459287428
2015-08-14,1,0.00033722426059172946,0.00036722253555803184,-0.013838014305459816,0.010347180063763476,0.9844812022243369
2015-08-18,1,0.00027760132056982995,0.0003074034063639704,-0.013838014305459816,0.01801760661896626,0.9827364514968779
2015-08-20,-1,-0.00038360972691993297,-0.0003383440106351448,-0.010283622013522262,0.01801760661896626,0.9837368402464524
2015-08-24,-1,-0.00226988358209487,-0.0019915395710913032,-0.00897157000068334,0.01801760661896626,0.9858202262745982
2015-08-26,-1,-0.001756339090921745,-0.0015521217345040314,-0.00897157000068334,0.013325992388875326,0.9865861706295116
2015-08-28,-1,-0.0006406662376291876,-0.0005755659828834284,-0.010283622013522262,0.0088647511821737,0.9872179039139883
2015-09-01,-1,-0.0017024923347801414,-0.0015264989325538953,-0.007727379129722055,0.012020363205148512,0.9880368837409763
2015-09-03,-1,-0.0007898768649430811,-0.0007194620936960665,-0.007727379129722055,0.013574905354217187,0.9878352454175005
2015-09-08,-1,-0.0007105576342646046,-0.000659955667322397,-0.004905167451978542,0.012784352277206824,0.9884698900809313
2015-09-10,-1,-0.00029897220823958226,-0.00029045047639212143,-0.004905167451978542,0.012784352277206824,0.9879939498329802
2015-09-14,-1,-0.0006578318424157312,-0.0006073643556987476,-0.0005770447672025515,0.012784352277206824,0.988467230754335
2015-09-16,1,0.0004227055377770087,0.0005033724913598185,-0.0013929226913471262,0.012533780546170034,0.9902626248816913
2015-09-18,-1,-0.0001257069295764713,-0.00010277693491213936,-0.0001186956542402341,0.012533780546170034,0.9902430500219106
2015-09-22,-1,-0.0006858618347841323,-0.0005863293279280957,-0.0001186956542402341,0.012533780546170034,0.9897960164162531
2015-09-24,-1,-0.0004491141531138195,-0.0004016075802570685,-0.0001186956542402341,0.012784352277206824,0.9887366110076319
2015-09-28,-1,-0.0014734904135626664,-0.0012896587799783536,-0.0007878818665563583,0.012784352277206824,0.9893529851010852
2015-09-30,-1,-0.00047230358771423815,-0.00043348343395374145,-0.0034045905987180177,0.012767370524639454,0.9900191451052466
2015-10-02,1,0.0004150249440613242,0.0004707546518417547,-0.0034045905987180177,0.009366859901382493,0.991999936257123
2015-10-06,1,0.0012570861536105285,0.001455086000314062,-0.0037240433778159944,0.00901108579617972,0.9914907995788419
2015-10-08,1,0.0019683250723357406,0.002259110350687075,-0.005679253198519643,0.003695768579113139,0.9915071767041742
2015-10-12,1,0.0019051070057364877,0.002182409158068861,-0.009652013144666488,0.003695768579113139,0.990802454279065
2015-10-14,1,0.0020015558727764877,0.002286275526544782,-0.009652013144666488,0.003695768579113139,0.9910056602458555
2015-10-16,1,0.0020055840505164998,0.0022782574189311473,-0.012402044368903329,0.004862236474514493,0.9895993207271593
2015-10-20,1,0.0014591168465161596,0.0016605922762576864,-0.009652013144666488,0.004862236474514493,0.9908131707650554
2015-10-22,1,0.001782243147770428,0.002038468096770574,-0.005679253198519643,0.004862236474514493,0.9917095167977726
2015-10-26,1,0.0013515810042529954,0.0015282561607043972,-0.0047940487279824195,0.00911368531323928,0.9917243393725801
2015-10-28,1,0.0012730324818953204,0.001432186677256427,-0.004060612854081814,0.005033058634878289,0.9922087615443775
2015-10-30,1,0.0016054954166641027,0.0018331652686789427,-0.004060612854081814,0.004928955545561543,0.9922695786791577
2015-11-03,1,0.0013620214573345022,0.0015389269106704194,-0.004060612854081814,0.0035923959688369663,0.993436636965698
2015-11-05,1,0.0008647491875731464,0.0009771243323547078,-0.004060612854081814,0.00561647306415694,0.9936058626206252
2015-11-09,1,0.000807851497403551,0.0009473884368472094,-0.005965672177434718,0.00561647306415694,0.9931318307634771
2015-11-11,1,0.0011576386874337149,0.001349166797880821,-0.006565445034649087,0.004455948237450717,0.9930503143479252
2015-11-13,1,0.0008009397655399636,0.0009273601548154013,-0.006565445034649087,0.004455948237450717,0.9924723652558877
2015-11-17,1,0.000807872910759031,0.0009282575915826726,-0.006565445034649087,0.011183129959335346,0.9908232622087098
2015-11-19,1,0.0007453670453932322,0.0008211957073684861,-0.008500601633619861,0.006518535866181698,0.9893287190640261
2015-11-23,1,0.0010152425215500848,0.0011214085531476587,-0.008500601633619861,0.0066454293853960705,0.9892320927033902
2015-11-25,1,0.0007810035143244067,0.0008452085588388422,-0.008500601633619861,0.010729601795360293,0.9883873114255819
2015-11-30,1,0.0005671133608050862,0.0005779139545378933,-0.008500601633619861,0.010729601795360293,0.9879878945260567
2015-12-02,1,0.0007849988976049513,0.0008664891607894772,-0.008622965625252282,0.010729601795360293,0.9877256987131542
2015-12-04,1,0.0009835514164745717,0.0011019408823489596,-0.010953302083494685,0.0086252678809366,0.9876023037657273
2015-12-08,1,9.13287644601939e-05,0.00011458697620355516,-0.017885297591855052,0.0086252678809366,0.9854761110332199
2015-12-10,-1,-8.306615559521772e-05,-3.626693734521888e-05,-0.017885297591855052,0.0086252678809366,0.9856068886833409
2015-12-14,-1,-0.0008801738096686474,-0.0007231661431642433,-0.017885297591855052,0.008604122905435944,0.98606989181851
2015-12-16,-1,-0.0003034466904988417,-0.00017612669087232585,-0.02151986087385688,0.005987582992460303,0.9859891746669959
2015-12-18,-1,-0.0005072766790882274,-0.000443545483882754,-0.010953302083494685,0.005987582992460303,0.9880277325408667
2015-12-22,-1,-1.3473376594313534e-05,-1.2981329663382936e-05,-0.010953302083494685,0.00472545615804024,0.9869443748105876
2015-12-24,1,0.00019628931768597794,0.0002172345735027987,-0.01648925528837062,0.00472545615804024,0.9868850896371423
2015-12-29,1,0.00041133789927274075,0.000472332486003907,-0.01648925528837062,0.004839922447838206,0.9861685323806071
2015-12-31,1,5.127111040027994e-05,6.820556126729962e-05,-0.01648925528837062,0.008947521774829837,0.9850596031059023
2016-01-05,-1,-0.0004359663835461839,-0.000378429167151186,-0.01770077638237123,0.010853176778096045,0.983894135727499
2016-01-07,-1,-0.0019038637560912749,-0.0016909954384140282,-0.013842841768028058,0.012999296322395586,0.9850775243343128
2016-01-11,-1,-0.002159461352052414,-0.0019133992087509088,-0.01770077638237123,0.01669469232296604,0.9828074549516652
2016-01-13,-1,-0.0030723472788066006,-0.002684752371550237,-0.01770077638237123,0.01669469232296604,0.9829991266810809
2016-01-15,-1,-0.00455921065847843,-0.0039044506712940007,-0.013842841768028058,0.01980700651078462,0.9820593245403758
2016-01-20,-1,-0.0043320021072967285,-0.003721215929630057,-0.013842841768028058,0.01980700651078462,0.9812914212706935
2016-01-22,-1,-0.0029490590353489204,-0.0025521586126057644,-0.013842841768028058,0.017949096271716133,0.9823646162082034
2016-01-26,-1,-0.003969032773199979,-0.003388811253668427,-0.015518417278324793,0.019176078854675427,0.9791620257926619
2016-01-28,-1,-0.0035103624733694517,-0.0030279140904967607,-0.013979779091135564,0.020503085394260975,0.9780588960738684
2016-02-01,-1,-0.002584163428925006,-0.002205746643288521,-0.02338952647751885,0.020503085394260975,0.9768490861509929
2016-02-03,-1,-0.0022787166721336197,-0.0019617758029468716,-0.014364610732554161,0.019176078854675427,0.978234126034135
2016-02-05,-1,-0.0028352828525821617,-0.002433000973704383,-0.010971473842814002,0.019176078854675427,0.9797254936068506
2016-02-09,-1,-0.0016519100127823367,-0.0014524320689810518,-0.010971473842814002,0.01611858750684838,0.9818098493918658
2016-02-11,-1,-0.002902438014236258,-0.002545094348718683,-0.00955525409486775,0.01611858750684838,0.9820176401625318
2016-02-16,-1,-0.0015390328074145739,-0.0013204784731365542,-0.010971473842814002,0.010851984432565987,0.9829622968377648
2016-02-18,-1,-0.0015604258101234794,-0.0013350895011383134,-0.009613696305876076,0.015755471150666462,0.9821828530469876
2016-02-22,-1,-0.002288401895457655,-0.001935073213563823,-0.005396519127309142,0.015755471150666462,0.9819070602018863
2016-02-24,-1,-0.0034924478081582153,-0.003032392678848988,-0.003876094268298144,0.014667705997199874,0.9850794627457701
2016-02-26,-1,-0.0014509002445026696,-0.0012901697934160103,-0.003876094268298144,0.010380562082034223,0.9873793850649673
2016-03-01,-1,-0.0009830302873044018,-0.0009174455212892862,-0.0013014526103019444,0.010073503733951758,0.9898982854746058
2016-03-03,-1,-0.0005828996883036765,-0.0005529949896006371,-0.0013014526103019444,0.010073503733951758,0.9900924225045026
2016-03-07,-1,-0.00029703546236583964,-0.00022461863730945708,-0.0035345305309973985,0.009846254327771121,0.9904491204873087
2016-03-09,-1,-0.000544764726395137,-0.0004906446266040815,-0.0035345305309973985,0.009846254327771121,0.9899396542798101
2016-03-11,1,0.00020930917791436876,0.00037667442401131,-0.0035345305309973985,0.008840657214642066,0.9908171386046003
2016-03-15,-1,-0.0005839298618856995,-0.0005528615547983615,-0.00183103830622852,0.009654716123279415,0.9912914242306365
2016-03-17,1,0.0006183148539227454,0.0008271759588961309,-0.0032641829570487254,0.008840657214642066,0.992812707968905
2016-03-21,1,0.0008586462187438897,0.0010887300674916663,-0.0032641829570487254,0.008840657214642066,0.992951866109855
2016-03-23,1,0.0011684013679849553,0.0014417626104078337,-0.0032641829570487254,0.008249104236697778,0.9935600335145537
2016-03-28,1,0.0014696421548517588,0.0017960799993179827,-0.0040003675482512754,0.008333284547967754,0.9931895377422822
2016-03-30,1,0.0019570770297715426,0.0023480748194290293,-0.0040003675482512754,0.00815588336032487,0.9936217302110765
2016-04-01,1,0.0016636533234696714,0.0019815393560585455,-0.0040003675482512754,0.00815588336032487,0.993505784757957
2016-04-05,1,0.001195778759466414,0.0014282581658029733,-0.004134610224470645,0.00815588336032487,0.9933913580566147
2016-04-07,1,0.0012988136624678959,0.0015692451555230583,-0.0040003675482512754,0.00815588336032487,0.9937342271191836
2016-04-11,1,0.0013750483951961707,0.0016417929728397682,-0.004134610224470645,0.008691923381493931,0.992671960025706
2016-04-13,1,0.0020747951222692238,0.0024389280145621973,-0.004443334569736198,0.0076599504208914836,0.9926261510029258
2016-04-15,1,0.0024321888360216127,0.0028601650922001286,-0.004945998196496655,0.006329406434369453,0.9926123464535246
2016-04-19,1,0.0028809110306135064,0.003391115478658409,-0.006006877103630194,0.00652277751793724,0.9914229944294884
2016-04-21,1,0.0026624033916793377,0.003137556750648644,-0.006810205205690558,0.00652277751793724,0.9914294260987271
2016-04-25,1,0.0027927260124510785,0.00328737950721381,-0.006810205205690558,0.005103273802150176,0.9918358721403968
2016-04-27,1,0.002974460422488508,0.0034870563883228553,-0.006810205205690558,0.007166391054183349,0.991246918949397
2016-04-29,1,0.0026666358731606402,0.0031475246334750043,-0.006006877103630194,0.007166391054183349,0.9919583801706742
2016-05-03,1,0.002008004014883642,0.0023626030005602467,-0.0056372142572595684,0.011739028419674932,0.9919382600292623
2016-05-05,1,0.0022976991657507476,0.00268420404931818,-0.0056372142572595684,0.006345127924680306,0.9925761332036674
2016-05-09,1,0.0020798645940652716,0.002403081159415339,-0.0031777371225885946,0.006974844140675032,0.9935116403938661
2016-05-11,1,0.002847068470450637,0.0033323194483521022,-0.003588119908099997,0.005776744404338793,0.9938079323213408
2016-05-13,1,0.002010402498232095,0.002308364901709627,-0.0049160793200725365,0.005776744404338793,0.9937173135272586
2016-05-17,1,0.002430158348205369,0.002807996760317242,-0.0049160793200725365,0.0050308208748480205,0.9944752665870975
2016-05-19,1,0.002403675707526218,0.002797591299780759,-0.004861483228627006,0.005763111987538651,0.9945242679340762
2016-05-23,1,0.002625323786038264,0.0030566343902110895,-0.004861483228627006,0.005763111987538651,0.9945738219238132
2016-05-25,1,0.0027073048059579833,0.0031190525374672354,-0.004861483228627006,0.005763111987538651,0.9946666194221057
2016-05-27,1,0.0024048269025691267,0.002753153398710708,-0.006260450937896475,0.005763111987538651,0.9921124113654964
2016-06-01,1,0.0013698103509229074,0.0014681713722662965,-0.00608880010204407,0.006084469094426505,0.9922600719305413
2016-06-03,1,0.0012353226770470819,0.0013012813428916077,-0.00608880010204407,0.006297525175714202,0.9916799489643262
2016-06-07,1,0.0013360287107722325,0.0013905847537333167,-0.006260450937896475,0.006084469094426505,0.9917735649271703
2016-06-09,1,0.0011708817166919295,0.001185916331591587,-0.006096662663559886,0.006256627925313774,0.9916008503241386
2016-06-13,1,0.0006317927739455377,0.0006875991339768892,-0.002845605597895927,0.007629402580020165,0.9917417904459005
2016-06-15,1,0.0007601521115984214,0.0007730039018703488,-0.0010748699113149107,0.007629402580020165,0.9917895665193834
2016-06-17,1,0.0004721407112063844,0.000535418174621305,-0.001996738984794967,0.007629402580020165,0.9919053980385326
2016-06-21,1,0.0005242181645388128,0.0005891284265194813,-0.001996738984794967,0.007629402580020165,0.9920253678806138
2016-06-23,1,0.001342589686171001,0.0014276477584286766,-0.002791348831427673,0.006120382667740032,0.992333569373396
2016-06-27,-1,-0.00043880552071612604,-0.00029802604853705703,-0.001816132528032481,0.006120382667740032,0.9949186470794139
2016-06-29,0,-4.446734367836758e-05,6.516933383128565e-05,-0.002096918187907243,0.0024149564210381265,0.9956449533267357
2016-07-01,1,0.0005537193780399116,0.0005755772299417133,-0.002791348831427673,0.002233349823664903,0.9958737702211994
2016-07-06,-1,-0.0005058444758925792,-0.00029641087165959703,-0.002791348831427673,0.0026313525194529694,0.994569745971787
2016-07-08,1,0.000689482016237162,0.000696781579175027,-0.002791348831427673,0.0033843337872101068,0.9944522510137037
2016-07-12,1,0.0008814551342052475,0.0009122288994526671,-0.003394353611609276,0.0033843337872101068,0.9945515511113913
2016-07-14,1,0.0009334399625320318,0.0009543090970979653,-0.003394353611609276,0.0026313525194529694,0.9947490016309898
2016-07-18,-1,-0.00047578295743675207,-0.00024100507160012565,-0.003394353611609276,0.0026313525194529694,0.9951323441967463
2016-07-20,1,5.150670602562939e-05,0.0001664508101314319,-0.003647406550178202,0.0026313525194529694,0.9949787763025377
2016-07-22,-1,-0.00015368291272587864,-3.4319692071461006e-06,-0.003647406550178202,0.0026135110415945184,0.9951003602254006
2016-07-26,-1,-0.00047793887308892767,-0.0002771187516352276,-0.003910916039828106,0.0031669739019179774,0.9947961207125239
2016-07-28,-1,-0.0006438003077229487,-0.0004300649939796876,-0.003910916039828106,0.003517311858972178,0.9941387270960782
2016-08-01,-1,-0.0012513164294076476,-0.0009327401323245029,-0.003647406550178202,0.004131364277683496,0.9938982480029325
2016-08-03,-1,-0.00022741703042804143,-5.1754881588893297e-05,-0.003647406550178202,0.003517311858972178,0.9960968082167964
2016-08-05,-1,-0.00048792311230942405,-0.0002349851025602556,-0.003647406550178202,0.0031669739019179774,0.996173585488203
2016-08-09,1,0.00011911824705939842,0.00023884663918367254,-0.003728456096948982,0.0025465148473486792,0.9962044770642549
2016-08-11,1,0.00029320242245885897,0.0003827312342206536,-0.004536589047992792,0.002184960456705803,0.9946552968231155
2016-08-15,1,0.00022853622588193392,0.0003133387471124442,-0.004990851542841914,0.0031669739019179774,0.9934191077532539
2016-08-17,1,0.00010322495966567712,0.00019714509169920885,-0.004990851542841914,0.0036850278735311892,0.993367769801926
2016-08-19,1,0.0004661230697347576,0.0004919474200058681,-0.006639022471061184,0.0036850278735311892,0.9930811600048297
2016-08-23,1,0.00033005945003506873,0.0003726247868996754,-0.006639022471061184,0.005439096776186933,0.9928414443432823
2016-08-25,1,7.566318410585893e-05,0.0001672645805643166,-0.003787682122776223,0.0048811886972591634,0.9933825492682474
2016-08-29,1,0.00017059011448344576,0.0002657872876859006,-0.003787682122776223,0.0048811886972591634,0.9933436264105753
2016-08-31,0,-4.666738610585407e-05,6.777743361276065e-05,-0.0033745482741749985,0.006043616050888755,0.9929804811627335
2016-09-02,1,0.000610993721913517,0.0006112773970243348,-0.00477719458541035,0.0061643054887080585,0.9925516945660772
2016-09-07,1,0.00032091330584312766,0.00034445017982131604,-0.00477719458541035,0.0061643054887080585,0.9926915358740848
2016-09-09,-1,-0.0006949673791261737,-0.0005654051508528764,-0.00477719458541035,0.0061643054887080585,0.9936254993982925
2016-09-13,-1,-0.0011778146329998694,-0.0009803706441630152,-0.00477719458541035,0.0048811886972591634,0.9944117494004552
2016-09-15,-1,-0.0009772088965543109,-0.000808269723378891,-0.00477719458541035,0.004683643286607346,0.994699679194308
2016-09-19,-1,-0.0009782177954751397,-0.0008212416188617848,-0.003872651553344612,0.004683643286607346,0.994934553615686
2016-09-21,-1,-0.0010375220752287793,-0.000849126767721209,-0.003872651553344612,0.0027802076343262368,0.9952842212676267
2016-09-23,-1,-0.0011708953088575415,-0.0009455850064260914,-0.00477719458541035,0.001973814055489927,0.9952898163272117
2016-09-27,-1,-0.0006732616854417242,-0.0005283069967082024,-0.005154321747858289,0.001973814055489927,0.9949065649206144
2016-09-29,-1,-0.0004156142674416463,-0.0003053722265568031,-0.005276665083891383,0.0007867930730497436,0.9952532373658052
2016-10-03,-1,-0.00016641499772119528,-9.891802998306126e-05,-0.005815046351482917,0.0006195447345271328,0.9953528728056317
2016-10-05,-1,-0.000616069452803555,-0.000486382086473647,-0.005815046351482917,0.0006195447345271328,0.9950164995516402
2016-10-07,-1,-0.0007483631273865791,-0.0006168876727234759,-0.005815046351482917,-2.302661175541902e-05,0.9953770212591875
2016-10-11,-1,-0.0014219995496081701,-0.001200570304250457,-0.005276665083891383,0.001385057931105905,0.9950399384368157
2016-10-13,-1,-0.0013875257573386865,-0.001178289160225039,-0.005276665083891383,0.0032930304371699822,0.9938610949568667
2016-10-17,-1,-0.0012660345819839516,-0.0010950123693966472,-0.005815046351482917,0.0032930304371699822,0.9931797580325117
2016-10-19,-1,-0.001156817136319012,-0.0009961930851925956,-0.005815046351482917,0.0058222527489995785,0.9930115863675975
2016-10-21,-1,-0.0014064797186190015,-0.0012198417199004146,-0.005508944758614178,0.0058222527489995785,0.9931268710672089
2016-10-25,-1,-0.0012857940424037214,-0.0011175464336986847,-0.004885944509077716,0.0058222527489995785,0.9928120131075202
2016-10-27,-1,-0.0011986369642556522,-0.0010688867545400943,-0.004637810275047035,0.0058222527489995785,0.9928558491590328
2016-10-31,-1,-0.0013774604407340368,-0.0012282310752151345,-0.004246255805602887,0.0058222527489995785,0.9931465233848895
2016-11-02,-1,-0.002192167465288719,-0.0019305189750276615,-0.0029621859834964297,0.007403509697066022,0.9926943382593135
2016-11-04,-1,-0.0026400000688543293,-0.0023182403687648408,-0.0016062878539097854,0.010686532155748857,0.9915018745843139
2016-11-08,-1,-0.0017051859331012366,-0.0014941886696500568,-0.0029621859834964297,0.010686532155748857,0.9918628465247418
2016-11-10,-1,-0.0007924506124396948,-0.0007002112791456436,-0.0029621859834964297,0.006910310399521266,0.992498679540274
2016-11-14,-1,-0.0012187926761118126,-0.0010999439718942527,5.639517003338949e-06,0.007593083880225663,0.9923734930792432
2016-11-16,-1,-0.0022569988498630645,-0.0019185174464860868,-0.0016062878539097854,0.00808195719808288,0.9915999579300899
2016-11-18,-1,-0.001970693258548758,-0.0017031338761636853,-0.0016062878539097854,0.00808195719808288,0.9911172107927052
2016-11-22,-1,-0.0008129303408421826,-0.0007144308539554351,-0.004108892961779636,0.007593083880225663,0.9920904559110824
2016-11-25,-1,-0.000910660954163985,-0.0007846688341904546,-0.007080629962371066,0.007593083880225663,0.9919405667289881
2016-11-29,-1,-0.0007096262390533146,-0.000629642709823839,-0.008932804511293857,0.007593083880225663,0.9914233648622933
2016-12-01,1,0.00018235833847859303,0.0002302389645181265,-0.008932804511293857,0.006910310399521266,0.9920912313005243
2016-12-05,1,0.0003810123368695762,0.0004729680075126742,-0.007080629962371066,0.006798946978225252,0.9928668926776851
2016-12-07,1,0.00034035673338999944,0.0004113387363866894,-0.004755655760227199,0.006448700190830313,0.9941531151505948
2016-12-09,1,0.0007828674149996109,0.0009068868798846764,-0.006962355477395632,0.004385437618988893,0.9943195046000161
2016-12-13,1,0.0012595006622946837,0.001445687632839181,-0.006962355477395632,0.0029756778448490236,0.9946779840306915
2016-12-15,1,0.0011527354474490487,0.001319300065700798,-0.004755655760227199,0.0026363221474259763,0.9954499585824291
2016-12-19,1,0.0006201916963102635,0.0007046910739775297,-0.002883914858167071,0.0028499312548685416,0.9960858027793221
2016-12-21,1,0.00018359514885898356,0.00020157654074119192,-0.0027897910591898104,0.0034118890625587294,0.9960256428222641
2016-12-23,1,0.0004643843816982653,0.0005700633925312745,-0.00200015589285099,0.004515640506437445,0.9952196592928734
2016-12-28,1,0.00047511477370243047,0.0006068328375682637,-0.00200015589285099,0.004515640506437445,0.9951639269376378
2016-12-30,1,0.0002941559066263695,0.0004047069913894801,-0.0015983769404433043,0.004515640506437445,0.994858864405621
2017-01-04,1,0.0008631981725660887,0.0010574773849927855,-0.0023323120746904296,0.0034403388290020253,0.9950867880972394
2017-01-06,1,0.0008652257430155832,0.0010531144148936435,-0.0040195251816423526,0.00405023252556848,0.9946351548592446
2017-01-10,1,0.0005107540676660687,0.000645173695281066,-0.0023323120746904296,0.004517821304713515,0.9948576969303953
2017-01-12,1,0.0008566347699306497,0.0010471222913298085,-0.0023323120746904296,0.004669076904518345,0.9949540025220301
2017-01-17,1,0.0008922603740830213,0.001087635050713514,-0.0023323120746904296,0.005021531668171601,0.9944645287485692
2017-01-19,1,0.0009865182712980856,0.0011974662431933,-0.0016759170796504547,0.005021531668171601,0.9944825262039845
2017-01-23,1,0.0013277026244850776,0.0016033874987136044,0.00024095985419683675,0.005021531668171601,0.9949714280776476
2017-01-25,1,0.002075669448257258,0.0024338994526189118,-0.003251294788255543,0.004601260739302033,0.9955405234212396
2017-01-27,1,0.0019704656490023642,0.00233578773801265,-0.003251294788255543,0.0046883211329468676,0.994548977468486
2017-01-31,1,0.001445923963137898,0.001719501689527276,-0.0014198402818548514,0.005021531668171601,0.9944223755994083
2017-02-02,1,0.0008272199421717674,0.0009476449890676934,-0.0014198402818548514,0.0046883211329468676,0.9943880040434013
2017-02-06,1,0.0004977525863810104,0.0005547041028818774,-0.001817405619257637,0.0046883211329468676,0.9946402499321402
2017-02-08,1,0.0007403194286940218,0.0008377271804955377,-0.002729487450862679,0.0046883211329468676,0.9944269314971452
2017-02-10,1,0.0008837831196903549,0.0009907937146265216,-0.002729487450862679,0.004574239751476587,0.994353958099551
2017-02-14,1,0.0014032902629688548,0.0015927778027390134,-0.0036206944517011906,0.004535275371120157,0.9937338240497129
2017-02-16,1,0.0015712028459308296,0.0017908229888817292,-0.0036206944517011906,0.004270669690786894,0.9938088697590605
2017-02-21,1,0.0018381796901798552,0.0021061685064649163,-0.006274191546344936,0.0023642748441015994,0.9932671637252659
2017-02-23,1,0.0016121908925560901,0.0018634832610820644,-0.0035882294890381534,0.0023642748441015994,0.9938748169026754
2017-02-27,1,0.0019537240239172206,0.0022557284806281963,-0.0027436185962752928,0.0018832925845959814,0.9952181477696379
2017-03-01,1,0.0023066688622827803,0.002635264204051255,-0.0027436185962752928,0.0018832925845959814,0.9953774577402107
2017-03-03,1,0.0019429175264608239,0.002204732737137303,-0.002354212341722375,0.0027421368678928544,0.9958269739241487
2017-03-07,1,0.0014589798172155938,0.001622664273404708,-0.002379165141356001,0.00421588496096165,0.9958103605750607
2017-03-09,1,0.0010971570864608737,0.0012078065495315716,-0.001937494286446874,0.00421588496096165,0.9961448581990467
2017-03-13,1,0.001221837890289308,0.0013344034433633075,-0.001937494286446874,0.003360160713561462,0.9962073158788468
2017-03-15,1,0.0013965047442176443,0.0015376542135351235,-0.001937494286446874,0.0024568954520927918,0.9967875259239651
2017-03-17,1,0.0011648074867881715,0.0012539094796604044,-0.002379165141356001,0.003360160713561462,0.9964243678362079
2017-03-21,1,0.0007821604465075973,0.0008214029541382746,-0.001711056306125483,0.0034711441298657343,0.9968806935162798
2017-03-23,1,0.0005347549194056776,0.0005472968391991507,-0.001711056306125483,0.004353186473446516,0.996669154547667
2017-03-27,1,0.0002600939909718047,0.0003182724077830215,-0.0013074880999248794,0.0049853607549954024,0.9961924584505545
2017-03-29,0,-8.098823298464963e-05,5.3986881084917165e-05,-0.0013074880999248794,0.004603439817249713,0.9961010539664013
2017-03-31,-1,-0.00031649994783886656,-0.00012822766922878726,-0.001711056306125483,0.004556583529685512,0.9961449739292888
2017-04-04,1,4.2057110935025835e-05,0.00013730656423075713,-0.001711056306125483,0.004556583529685512,0.9950440077397497
2017-04-06,1,0.00041953207710592643,0.00043433240914035777,-0.0013074880999248794,0.0049853607549954024,0.9949896093712328
2017-04-10,1,0.00013839134348512475,0.0002165095153223345,-0.002298107852518649,0.004591822555482947,0.9948476233980018
2017-04-12,0,-6.086521645296076e-05,3.335928009742735e-05,-0.001431474297443037,0.005112410324315906,0.9947475821838001
2017-04-17,-1,-0.0001146704803197088,-4.211679702167384e-06,-0.0013243888487119296,0.005112410324315906,0.9949302609841064
2017-04-19,1,0.00021735256600573274,0.0002632605396649667,-0.0018430691532645939,0.005112410324315906,0.9947626518689943
2017-04-21,1,0.00030722267488257865,0.0003415040088636179,-0.0018430691532645939,0.004613155047411147,0.9948499362694113
2017-04-25,1,0.0006931217139178586,0.0006988461783685441,-0.0018430691532645939,0.0043227431480047694,0.9953982321588096
2017-04-27,1,0.001133332272056941,0.0012248765545559601,-0.0018430691532645939,0.005318302738045921,0.9951149432454897
2017-05-01,1,0.0010420972035532438,0.0011191670675737098,-1.950224541141625e-05,0.005809837344021419,0.994887577344087
2017-05-03,1,0.00015662869917764893,0.00018955575672880199,0.0007863963504483385,0.0072064779224216445,0.9953224180478125
2017-05-05,1,0.0005566958080486743,0.0005952392424920226,-1.950224541141625e-05,0.0072064779224216445,0.9954122327526186
2017-05-09,1,0.0005430161371921156,0.0006030092726408585,0.0007863963504483385,0.0072064779224216445,0.9956324207881678
2017-05-11,1,0.0007148732591851297,0.0007942080413865537,0.00021423586407431504,0.0072064779224216445,0.9954218023030901
2017-05-15,1,0.0006107129443107018,0.0006547234528335353,6.840695461696753e-05,0.007631321287925769,0.9950108453169588
2017-05-17,1,0.0002069068520217326,0.00023196805538265887,-0.000747878941148529,0.007631321287925769,0.9949702077194946
2017-05-19,1,0.00022039821849117655,0.00025376698409969274,-0.000747878941148529,0.007631321287925769,0.9949739348281131
2017-05-23,1,0.0002565943680542357,0.0002953171221393445,-0.003919740096468484,0.007631321287925769,0.9944022054666225
2017-05-25,1,0.0005941095049006116,0.0006081314445913015,-0.003919740096468484,0.0048524877897838155,0.9950252002800402
2017-05-30,1,0.0009893051140960722,0.001043593278157973,-0.003919740096468484,0.003437184932413593,0.9951940585450286
2017-06-01,1,0.0013623081670585421,0.001464635169593568,-0.0045787943897899665,0.002853864290329301,0.9948926858254807
2017-06-05,1,0.0010996092462556748,0.0011480896694590717,-0.003919740096468484,0.002853864290329301,0.9949415090532431
2017-06-07,1,0.0010567551583082761,0.001107192513032331,-0.0045787943897899665,0.002853864290329301,0.9945969898503155
2017-06-09,1,0.0010260559099095963,0.0010687648480002068,-0.004357365339020642,0.002853864290329301,0.9949144069524869
2017-06-13,1,0.001089994839313162,0.001139320753301737,-0.003860309355666032,0.002853864290329301,0.9951395529898848
2017-06-15,1,0.0008931703962992241,0.0009218885815704266,-0.003860309355666032,0.0032415755538972102,0.9948630078081057
2017-06-19,1,0.001305255797120005,0.0014289997502685444,-0.004182547882709578,0.0028829433468508863,0.9947472445642654
2017-06-21,1,0.0005882439147773142,0.0006005973440773685,-0.004182547882709578,0.0036291239203621655,0.9952887553497399
2017-06-23,1,0.00025126256167297184,0.0002939330306947318,-0.004350858107162948,0.004530057511062766,0.9949110629978342
2017-06-27,1,0.00019888033619337684,0.00024684511210643545,-0.004350858107162948,0.00464698216538652,0.9946443113897981
2017-06-29,0,-1.876284860496849e-05,6.346161046265957e-05,-0.004350858107162948,0.004530057511062766,0.9953299073370355
2017-07-03,1,0.0002957833880755214,0.00033763431159994015,-0.004350858107162948,0.0036291239203621655,0.9956521949924936
2017-07-06,1,0.00016923203370295152,0.0002199436395889209,-0.004182547882709578,0.004530057511062766,0.9955385219686407
2017-07-10,1,0.0002908606159209229,0.0003114808454027113,-0.004235471391654337,0.004530057511062766,0.9954315198912695
2017-07-12,1,0.0004931363290801097,0.0004995402526021068,-0.00457132989101117,0.004530057511062766,0.9952075235119537
2017-07-14,1,0.00047086147178502873,0.00048047527675936647,-0.00457132989101117,0.0027213703010609803,0.9948197590223367
2017-07-18,1,0.00018361622522380282,0.00022664355854377607,-0.00457132989101117,0.004530057511062766,0.9944543689953003
2017-07-20,1,0.00024259193118693646,0.000260513487753535,-0.004912515605575199,0.005025838827935454,0.9935912221688027
2017-07-24,1,0.00035052435892214684,0.000364903909374548,-0.0037285946960357117,0.00329991942516894,0.9940114922160177
2017-07-26,1,0.0003199484424267831,0.000321742983754625,-0.004898320399773493,0.003742179485142073,0.993829389765259
2017-07-28,1,0.0001043981987050579,0.00013443179400761553,-0.00391164750322495,0.006156288769476802,0.9937166839414824
2017-08-01,-1,-0.00016842694913630411,-9.476334195125769e-05,-0.004697104044989081,0.006156288769476802,0.9935799129718607
2017-08-03,1,0.0001487167506232316,0.00017665229427593523,-0.004697104044989081,0.006156288769476802,0.9932839152517552
2017-08-07,1,3.97013983928593e-05,7.808470500674017e-05,-0.0037026886472429957,0.006156288769476802,0.9934385099985676
2017-08-09,1,8.845140011237289e-05,0.00012292017294598966,-0.0037026886472429957,0.005029108991620297,0.9930153174101212
2017-08-11,-1,-0.0006534775140961346,-0.0005188218107558093,-0.0037026886472429957,0.005029108991620297,0.9933811252677905
2017-08-15,-1,-0.0004247603041235984,-0.00031379590360286567,-0.004353288664929208,0.003626322458775472,0.9938429754883396
2017-08-17,-1,-0.0006904111029645327,-0.0005455776504626375,-0.0036577364725503565,0.003626322458775472,0.9944649297271131
2017-08-21,-1,-0.0006011522757702885,-0.00047307428150789884,-0.004053071877337541,0.003626322458775472,0.9943443175250484
2017-08-23,-1,-0.00048775616102375205,-0.0003773304350955123,-0.0035726482682506807,0.0029465256619699356,0.9948984180079437
2017-08-25,-1,-0.0005092376501904699,-0.0003917312551645227,-0.00352386166060755,0.0028898326273871606,0.9950829896330388
2017-08-29,-1,-0.0005831382231850806,-0.0004562388678586462,-0.004053071877337541,0.0019217304065365147,0.9945493947221218
2017-08-31,1,1.1077639370323005e-05,6.331181999879513e-05,-0.004507657644028878,0.0017881942545070807,0.9951697958239002
2017-09-05,-1,-0.00019786139470640392,-0.00010659258281636502,-0.004507657644028878,0.0017881942545070807,0.9946606810164701
2017-09-07,-1,-0.0005923221544691794,-0.00045747174289592044,-0.004053071877337541,0.0017881942545070807,0.9952567780223219
2017-09-11,-1,-0.001004678981297801,-0.0008240152770205892,-0.0015086224515254967,0.0018909094184947504,0.9955007601672378
2017-09-13,-1,-0.0010691059956854357,-0.0008855716700682111,-0.0007992073545430612,0.0024892241712988583,0.9954452557111568
2017-09-15,-1,-0.0004006326213907821,-0.000318028786924961,-0.0007992073545430612,0.0024892241712988583,0.9957321592517977
2017-09-19,-1,-0.0003260902390852953,-0.0002653678494491654,-0.0007992073545430612,0.002758191117602037,0.9952019463838867
2017-09-21,-1,-0.00031507747885622733,-0.0002532978030006473,-0.0021241477401825436,0.002758191117602037,0.9949694233300334
2017-09-25,-1,-0.000891512545374324,-0.0007054720624130343,-0.002405906087606554,0.0032251458074355585,0.994678794798714
2017-09-27,-1,-0.001504628708518549,-0.001258960810597948,-0.00122424273424946,0.0032251458074355585,0.9951199648424801
2017-09-29,-1,-0.0017904365549374344,-0.0014983022456705845,-0.00122424273424946,0.0032251458074355585,0.995026390069513
2017-10-03,-1,-0.0010333373782080257,-0.0008457548113210687,-0.0020550443513181645,0.001980565067262477,0.9958046792470674
2017-10-05,-1,-0.0006511062938078117,-0.0005137567780127502,-0.0020550443513181645,0.001980565067262477,0.9960778148731821
2017-10-09,-1,-0.0007599925524854946,-0.000596146513669037,-0.0020550443513181645,0.0030220989715251828,0.9959395326253395
2017-10-11,-1,-0.000549807481975883,-0.00041909361864666346,-0.004488678190214628,0.001748303468402229,0.9957348615186837
