JNU-Tangyin/eata/results/Batch4_SP500/Batch4_SP500-WHR.csv
Date,Action,Predicted_Q25,Predicted_Q75,Actual_Q25,Actual_Q75,RL_Reward
2010-12-14,1,0.0,0.0038914842127870507,-0.005261919175975155,0.006373908510982446,0.992519930403479
2010-12-16,1,0.007282498334881416,0.008424142001705458,-0.005913962381338378,0.006373908510982446,0.9891061411986503
2010-12-20,1,0.00617765234357328,0.007105439703162264,-0.011128013815347108,0.0056049547750749665,0.9889782026805194
2010-12-22,0,0.0,0.0,-0.011128013815347108,0.006849467880104118,0.9899353283342399
2010-12-27,0,0.0,0.0,-0.011128013815347108,0.006849467880104118,0.9896138590822925
2010-12-29,1,0.006605504693954149,0.007575635156165784,-0.011128013815347108,0.009422120626921247,0.9875560101193375
2010-12-31,1,0.004414172229982907,0.005093289183441372,-0.014388227259421089,0.009422120626921247,0.9854675809434773
2011-01-04,0,0.0,0.0,-0.014558251342543791,0.007609565801901185,0.9858840134241327
2011-01-06,0,0.0,0.0,-0.012195644615014453,0.009422120626921247,0.9858713854360405
2011-01-10,0,0.0,0.0,-0.012195644615014453,0.009422120626921247,0.9858750960529394
2011-01-12,0,0.0,0.0,-0.012195644615014453,0.009422120626921247,0.9861046352387967
2011-01-14,1,0.002356336505421583,0.0023663860486499775,-0.012188878732685279,0.008228706752126634,0.9865930847280527
2011-01-19,1,0.0005529565715703655,0.0007833708127363594,-0.011151014659303815,0.008228706752126634,0.9868523531866293
2011-01-21,1,0.0016096260160904014,0.0017296070086773594,-0.011151014659303815,0.00378896047955787,0.9878740886152311
2011-01-25,1,0.002285834658966533,0.0023621290847995018,-0.014537953695556272,0.00378896047955787,0.9866346047161032
2011-01-27,1,0.004165611388450955,0.0045244288742494415,-0.014537953695556272,0.0022871296618114942,0.986653978671624
2011-01-31,1,0.0006462568552111551,0.0007941733889879482,-0.0099489477106094,0.00378896047955787,0.9896007412386327
2011-02-02,0,0.0,0.0,-0.007720104117342596,0.006322863369395177,0.9894505144596483
2011-02-04,0,0.0,0.0,-0.0099489477106094,0.0026913922597818773,0.9896512948789381
2011-02-08,0,0.0,0.0,-0.0099489477106094,0.006980122163530108,0.9879764158258284
2011-02-10,1,0.0006888024947322767,0.0006903727876276261,-0.015093647223094673,0.006980122163530108,0.9872429292058673
2011-02-14,0,0.0,0.0,-0.016339500904278954,0.006980122163530108,0.9870960089034164
2011-02-16,-1,-0.0013841964725496655,-0.0010687182997774455,-0.016339500904278954,0.006980122163530108,0.9875517181890462
2011-02-18,-1,-0.0014999223901551167,-0.001173263109964337,-0.016339500904278954,0.010492432418606321,0.986830900884698
2011-02-23,-1,-0.0022547575105044985,-0.001897583962212778,-0.011427947436617346,0.010492432418606321,0.9872720378132889
2011-02-25,-1,-0.00234548891266981,-0.0019473607418631612,-0.011427947436617346,0.009786209065946525,0.9869773167442552
2011-03-01,-1,-0.0024185365802768554,-0.002069687347700798,-0.008773436012036452,0.007854254368176992,0.9883862767741785
2011-03-03,-1,-0.0008082451850032735,-0.000672441500672227,-0.008773436012036452,0.009786209065946525,0.9875200159930839
2011-03-07,-1,-0.0014531324542092464,-0.001284679555272839,-0.008773436012036452,0.009786209065946525,0.9876416654426958
2011-03-09,1,0.0006616343030379098,0.0007586714928183424,-0.008773436012036452,0.00822296048967935,0.9895960674845137
2011-03-11,1,0.0007753674666833256,0.0009286898627012749,-0.008773436012036452,0.0074803820246388,0.9899902629265017
2011-03-15,-1,-0.0003989408316980043,-0.00038014376097120336,-0.005624130403532616,0.00822296048967935,0.9900679673551771
2011-03-17,-1,-0.0012720947690990645,-0.0011665079322559966,-0.003837261123429002,0.00822296048967935,0.9906652240337132
2011-03-21,-1,-0.0006932289968181709,-0.0006286197892073505,-0.005624130403532616,0.00822296048967935,0.9907235464909555
2011-03-23,-1,-0.0034622011087960163,-0.0028614800396571777,-0.003837261123429002,0.00984062309972451,0.9902141317077585
2011-03-25,-1,-0.003454967039695692,-0.0027984789691221017,-0.003837261123429002,0.011598377976056628,0.9904863414062012
2011-03-29,-1,-0.003062303120893857,-0.0025158046809737357,-0.0032768018689487127,0.011598377976056628,0.9899545805497103
2011-03-31,1,6.390478946966482e-05,0.00017051746121510302,-0.005914858474204235,0.008134713076483044,0.9916775656560032
2011-04-04,-1,-0.0015273995334078203,-0.0011235480770206,-0.005914858474204235,0.007751216566950651,0.9916085619509784
2011-04-06,-1,-0.00219764384393268,-0.0017013234795954207,-0.006127816766971777,0.007751216566950651,0.9915437031059565
2011-04-08,-1,-0.0038603121301940984,-0.0031351569316012714,-0.006127816766971777,0.007751216566950651,0.9911214451614804
2011-04-12,-1,-0.0033226139305027763,-0.0026298525362039842,-0.007537573985341745,0.007751216566950651,0.9917529857459052
2011-04-14,-1,-0.0024141827603015443,-0.0018919239955913602,-0.007537573985341745,0.011458861403373795,0.9905096616586866
2011-04-18,-1,-0.0034138205835876003,-0.0026977500298813652,-0.009332362279133652,0.00970598242549312,0.9904400799155435
2011-04-20,-1,-0.0025857730906484683,-0.00198161203196869,-0.010500204077155881,0.007751216566950651,0.9909245770425861
2011-04-25,-1,-0.0030591704339439116,-0.0023298093151915837,-0.01301648383051861,0.007288015514471232,0.9906091364925377
2011-04-27,-1,-0.00026101559308055,-3.342200696785833e-05,-0.01301648383051861,0.0017284473211739593,0.9892892392037302
2011-04-29,1,1.319689382791068e-05,6.849672601580599e-05,-0.010500204077155881,0.00761162757626839,0.9899570783354623
2011-05-03,-1,-0.0011634761341303159,-0.0009634228896831323,-0.010500204077155881,0.009005508173830565,0.9897664323777424
2011-05-05,-1,-0.0006408552005312874,-0.0005639390161132037,-0.013257844690082586,0.009005508173830565,0.9868394820150203
2011-05-09,-1,-0.00011803518405472589,-6.70430512488335e-05,-0.015376957354881043,0.009005508173830565,0.9863840777220962
2011-05-11,1,0.0005615888505727705,0.0007519392422222719,-0.015376957354881043,0.004261228284991836,0.9867844975964148
2011-05-13,1,0.0017540619942758048,0.0020770997387136256,-0.017494487830951207,0.0006004606602021029,0.9862181954232269
2011-05-17,1,0.0009905330685903145,0.0012537401489234692,-0.015376957354881043,0.004261228284991836,0.9870028711922397
2011-05-19,1,0.0004899745532260438,0.0007023716401231587,-0.015376957354881043,0.009397935873963204,0.9864547894543861
2011-05-23,-1,-0.0007773433223286784,-0.0007373946337135173,-0.011850528971978688,0.009752733899504939,0.9865732971208426
2011-05-25,-1,-0.00016004017519268243,-6.802056768012233e-05,-0.011850528971978688,0.009397935873963204,0.9869713925655464
2011-05-27,0,0.0,0.0,-0.013517261634909888,0.009397935873963204,0.9866903119467796
2011-06-01,0,0.0,0.0,-0.011447135414653604,0.009752733899504939,0.9859516249757966
2011-06-03,-1,-0.0010207151342636125,-0.000920737038396691,-0.0069268600648420674,0.011389500447311228,0.9873838539945125
2011-06-07,0,0.0,0.0,-0.010569720530999478,0.011389500447311228,0.9878390526213803
2011-06-09,0,0.0,0.0,-0.01079033794032594,0.013571577099835289,0.9869217858593986
2011-06-13,0,0.0,0.0,-0.01079033794032594,0.013571577099835289,0.9866675617615723
2011-06-15,0,0.0,0.0,-0.010933309577088463,0.013571577099835289,0.9867013660885255
2011-06-17,0,0.0,0.0,-0.010933309577088463,0.011039221886823507,0.9876827227754815
2011-06-21,0,0.0,0.0,-0.010933309577088463,0.0082726476856035,0.9882424282221346
2011-06-23,0,0.0,0.0,-0.011527038593679501,0.0082726476856035,0.9870701192515536
2011-06-27,0,0.0,0.0,-0.010933309577088463,0.0082726476856035,0.987282383009156
2011-06-29,0,0.0,0.0,-0.011527038593679501,-0.0016952177868857202,0.9885981739607094
2011-07-01,0,0.0,0.0,-0.014802429031538033,-0.003375904554723117,0.9882204441238327
2011-07-06,0,0.0,0.0,-0.016771326017327608,-0.0027972933834704153,0.9860301530901343
2011-07-08,-1,-0.0003986840545588305,-0.0003332627866972412,-0.01951276323946049,-0.0027972933834704153,0.9845337827560388
2011-07-12,-1,-0.0006571923874909123,-0.0005412275614867776,-0.01951276323946049,-0.0016952177868857202,0.9807290309998821
2011-07-14,-1,-0.0015466533701424853,-0.0013397619171913596,-0.023613570648681897,0.00033092240328273965,0.9770193586000296
2011-07-18,-1,-0.002951929711951479,-0.002521774028792675,-0.023613570648681897,0.014673785514976254,0.9760386940960225
2011-07-20,-1,-0.0026873680779485316,-0.00230239467257071,-0.03492277837661729,0.014673785514976254,0.9743540346353596
2011-07-22,-1,-0.004797803092457326,-0.004138981566938378,-0.03492277837661729,0.014673785514976254,0.9740444671564864
2011-07-26,-1,-0.004456619787444639,-0.0039033153633973787,-0.03492277837661729,0.01863358791956303,0.9724426545073109
2011-07-28,-1,-0.0058279836909053764,-0.005057954238603267,-0.03492277837661729,0.021635147979581354,0.971079753401343
2011-08-01,-1,-0.0059611328979865975,-0.005286184707869132,-0.03492277837661729,0.026078091807518508,0.9674503730760233
2011-08-03,-1,-0.0068494795246927965,-0.006097837254951302,-0.028092227115309662,0.024123517463155553,0.9694113767764866
2011-08-05,0,0.0,0.0,-0.032586837910438746,0.021635147979581354,0.9686032456000723
2011-08-09,-1,-0.00758255183479486,-0.006701266619688789,-0.032586837910438746,0.021635147979581354,0.9722991292783867
2011-08-11,0,0.0,0.0,-0.032586837910438746,0.019088439777709226,0.9725241931600278
2011-08-15,0,0.0,0.0,-0.032586837910438746,0.018139640030494557,0.9732936542797206
2011-08-17,0,0.0,0.0,-0.02818919898216525,0.018139640030494557,0.9746926168775824
2011-08-19,0,0.0,0.0,-0.026341516132209072,0.018139640030494557,0.976233030128304
2011-08-23,0,0.0,0.0,-0.028367734071062682,0.0176894124130944,0.9753974714989875
2011-08-25,-1,-0.005131113215168811,-0.004662157589853401,-0.02918828959458218,0.0176894124130944,0.9747949521047404
2011-08-29,-1,-0.003842941578483708,-0.0035317725857639394,-0.02918828959458218,0.01762520275762746,0.9758781141714394
2011-08-31,-1,-0.0027652953961825474,-0.0025741405400273435,-0.03312489889344761,0.01636082947987708,0.97371797655778
2011-09-02,-1,-0.0045546125856088205,-0.004158102006211599,-0.028475695595754684,0.01636082947987708,0.9749619911126617
2011-09-07,0,0.0,0.0,-0.028343214057087552,0.01762520275762746,0.9716063049457105
2011-09-09,-1,-0.0056929703614099336,-0.005185105115144771,-0.028343214057087552,0.018463367569191827,0.9729323144088218
2011-09-13,-1,-0.004815706139852764,-0.004443628444728613,-0.028343214057087552,0.025100534109620744,0.971451238361766
2011-09-15,-1,-0.0038850627916209883,-0.003643068223524058,-0.028343214057087552,0.03248423715477871,0.9708256986381969
2011-09-19,0,0.0,0.0,-0.028475695595754684,0.03248423715477871,0.9687954641028128
2011-09-21,0,0.0,0.0,-0.024435170607886678,0.03248423715477871,0.9711455082267705
2011-09-23,0,0.0,0.0,-0.01682454801432686,0.03248423715477871,0.9727730150899022
2011-09-27,0,0.0,0.0,-0.024435170607886678,0.0300644604367618,0.9728617642723183
2011-09-29,0,0.0,0.0,-0.01682454801432686,0.03101411070716976,0.9733639870797522
2011-10-03,0,0.0,0.0,-0.015828404481885397,0.03101411070716976,0.970173831989944
2011-10-05,0,0.0,0.0,-0.01865323911374979,0.024792916114687133,0.9737066734744286
2011-10-07,0,-0.0008926899654923242,0.0,-0.01567550813530537,0.024792916114687133,0.9758612096282449
2011-10-11,-1,-0.0006290966832298269,-0.00030193597872880517,-0.01567550813530537,0.020355160089489465,0.976035602678918
2011-10-13,-1,-0.000339030402673788,-2.4146020685014203e-05,-0.013912138086624348,0.018981223496233657,0.9771095356193267
2011-10-17,-1,-0.0007407017458045835,-0.00043325149321412325,-0.012950723556328609,0.020355160089489465,0.9784140421033494
2011-10-19,0,0.0,0.0,-0.015616099176282542,0.020355160089489465,0.9770385104113798
2011-10-21,0,0.0,0.0,-0.01865323911374979,0.01774429534943703,0.9775219195166135
2011-10-25,0,0.0,0.0,-0.01865323911374979,0.01533186831465768,0.9778333882149293
2011-10-27,1,0.0019715829950713868,0.002510226201820882,-0.02175919754303548,0.012177396761806354,0.9784924002637049
2011-10-31,-1,-0.0015876395084732531,-0.00152816587776185,-0.020082218368576397,0.013710804497636241,0.9814127788995027
2011-11-02,-1,-0.0014566895956564386,-0.0013997470679460347,-0.017197974777689178,0.013710804497636241,0.9807583312268223
2011-11-04,-1,-0.0007818931433092667,-0.000627929329357675,-0.017197974777689178,0.01251290025364259,0.9807786715761855
2011-11-08,1,0.000928240495657802,0.0013771587750446748,-0.017197974777689178,0.009791779915864215,0.9809479900232562
2011-11-10,1,0.0015615563201054942,0.002149177695084332,-0.01829397650618737,0.009791779915864215,0.9803317853054696
2011-11-14,1,0.0020132351759840923,0.0026584031464920574,-0.026046135307515313,0.007811708213757123,0.9800566581624354
2011-11-16,1,0.0010388776171716685,0.0015479387333809796,-0.023444773789911232,0.007811708213757123,0.9807988448290316
2011-11-18,1,0.001382469275454979,0.0020276364751371572,-0.023444773789911232,0.006845961174435229,0.9810388344053987
2011-11-22,1,0.0005614249086087141,0.0011608462660487539,-0.017832952711892343,0.013574860661461094,0.980283486653997
2011-11-25,-1,-0.0005121378739142883,-7.453333641512568e-05,-0.014280265953043051,0.01967567070095366,0.9801974686852278
2011-11-29,0,0.0,0.0,-0.014280265953043051,0.014208112535157304,0.9786167256041668
2011-12-01,0,0.0,0.0,-0.014280265953043051,0.014208112535157304,0.9799413081806936
2011-12-05,1,0.001961106447110102,0.002642713385527493,-0.014280265953043051,0.01967567070095366,0.9795109132065496
2011-12-07,1,0.002010991033417679,0.002690287768085531,-0.016260306934382573,0.020383471078975077,0.9786002454740733
2011-12-09,1,0.0024563537360391347,0.003211963131801945,-0.009897348677527944,0.020950363937244126,0.9783567211145752
2011-12-13,1,0.0007442759672959833,0.001206972865892364,-0.0034256978761148657,0.020950363937244126,0.9798262486266412
2011-12-15,1,0.0002293156128505931,0.0006144201512690746,-0.008195170835418956,0.020950363937244126,0.9789428247769538
2011-12-19,-1,-0.000641950099410579,-0.00039093724949394184,-0.0013406263713415583,0.02679689999124131,0.9746268826561477
2011-12-21,1,0.0015034007364009556,0.0019868068351322527,-0.008195170835418956,0.023389417297960225,0.9779761237018139
2011-12-23,1,0.0026956463223082802,0.0033274944459783136,-0.008195170835418956,0.020950363937244126,0.9794335879277433
2011-12-28,0,-8.367039992596722e-05,0.0001773092992648468,-0.005323888395907565,0.020950363937244126,0.9826745661321733
2011-12-30,-1,-0.0002961150856391414,-0.00020680202522612985,-0.010313886043449958,0.020894061546557912,0.9823717787741132
2012-01-04,1,0.001054116564506164,0.0013562254176728969,-0.010313886043449958,0.02679689999124131,0.9773895800398522
2012-01-06,1,0.001983906841749034,0.0024832342065580675,-0.005323888395907565,0.029435760241578582,0.9753621812769824
2012-01-10,1,0.0024139316182595245,0.0028585289326097385,-0.007444752577495519,0.029435760241578582,0.9768406866123241
2012-01-12,1,0.0017365280300273905,0.001993495651747678,-0.008807984998283981,0.029435760241578582,0.9760348452292351
2012-01-17,1,0.000480579392566269,0.0006136954186646473,-0.004951271908687103,0.029435760241578582,0.9765304954018118
2012-01-19,1,0.0034912189514835074,0.00398675309561276,-0.007444752577495519,0.02094916820905233,0.9795427465272851
2012-01-23,1,0.004161707563790992,0.00491599018026252,-0.006202760646846802,0.02094916820905233,0.9808488176313369
2012-01-25,1,0.004830026798782876,0.005673249073799331,-0.007180602473865389,0.02094916820905233,0.9803571716629331
2012-01-27,1,0.003517940937227485,0.0040653634500046965,-0.006202760646846802,0.027919062234654006,0.977684642874706
2012-01-31,1,0.0033085339859732187,0.0038093016189479044,-0.006202760646846802,0.027919062234654006,0.9782035137430521
2012-02-02,1,0.0063138088668191605,0.007059759601611827,-0.007180602473865389,0.013498122736898687,0.9830879271869232
2012-02-06,1,0.008922711506877875,0.010034376754578217,-0.007533643764218338,0.006065076301194238,0.9840731691950554
2012-02-08,1,0.008662761108480885,0.009772540711273876,-0.007533643764218338,0.0081454647638248,0.9849519075856483
2012-02-10,1,0.008083156842187276,0.009055045343810735,-0.006311227030437134,0.010857884536765852,0.9848588054519458
2012-02-14,1,0.007352375729405499,0.00809568468528436,-0.006311227030437134,0.010857884536765852,0.9846986663084728
2012-02-16,1,0.006497833906795114,0.007137050981308315,-0.006311227030437134,0.006875546887191927,0.9860423984828691
2012-02-21,1,0.00664278304251335,0.007383968098739806,-0.005300278117900138,0.010857884536765852,0.9859406023266288
2012-02-23,1,0.0060499879300467425,0.006632953365001247,-0.005327920257482091,0.006875546887191927,0.9858724508277921
2012-02-27,1,0.006700686087911422,0.0072683433361533725,-0.005327920257482091,0.006871760014080296,0.9879233134153488
2012-02-29,1,0.007401485196526461,0.008259128256762843,-0.010893437652485495,0.006871760014080296,0.9865849092395395
2012-03-02,1,0.006186558354332677,0.006814724824144655,-0.0058570180216065346,0.009835898329886125,0.9884591115087685
2012-03-06,1,0.006539393759210653,0.007307435603482535,-0.010893437652485495,0.009835898329886125,0.9877288754905413
2012-03-08,1,0.006566813674318916,0.00733782736663154,-0.010893437652485495,0.010184930898372004,0.9874871368207472
2012-03-12,1,0.0060189747796325875,0.006638760071435275,-0.013026803333496267,0.006624767283436382,0.9852465194912924
2012-03-14,1,0.007004956072248066,0.0077850777588626815,-0.013026803333496267,0.005454548324882707,0.9854105384242854
2012-03-16,1,0.006464396116276366,0.007224130572504343,-0.012531746460581594,0.005364344444641168,0.9860575644032812
2012-03-20,1,0.006548698238948405,0.007282729098060368,-0.014826562228393288,0.003340729911042895,0.9827514168203261
2012-03-22,1,0.007681163668988944,0.008653485680524419,-0.017056915553617852,0.003340729911042895,0.9811602447858384
2012-03-26,1,0.00658452236396554,0.007201393877734277,-0.017056915553617852,0.005249175109634501,0.9814960283208685
2012-03-28,1,0.005377925025504817,0.005824768399924177,-0.019065397631450084,0.00924339759422221,0.9800689052065008
2012-03-30,1,0.005829545109600574,0.006351368925274978,-0.022868079657105418,0.0025948049617890343,0.9781576493386548
2012-04-03,1,0.004948415584476599,0.005396423124590197,-0.022868079657105418,0.009853060888400465,0.9800591967422885
2012-04-05,1,0.005034411387469547,0.005473022104689215,-0.026064361528622446,0.0033238421005221458,0.9779974214348518
2012-04-10,1,0.0027456046317537765,0.002886290811167788,-0.022868079657105418,0.004831827377047693,0.9819652711747189
2012-04-12,1,0.0027561381569786584,0.002818536540250314,-0.022868079657105418,0.0018917084731328625,0.9822807574738492
2012-04-16,1,0.0015410310951788778,0.0016670324452289272,-0.023198538480176015,0.004831827377047693,0.9815829021203847
2012-04-18,-1,-0.002296982892287588,-0.0016215159189382155,-0.017758803558497432,0.009388833415103662,0.98521860936817
2012-04-20,-1,-0.0044421270959183945,-0.0034343160271373364,-0.017758803558497432,0.009388833415103662,0.9838104177024112
2012-04-24,-1,-0.0035237727918324886,-0.0026148527041998672,-0.017758803558497432,0.005092432532935812,0.9846496769711229
2012-04-26,-1,-0.0034348700589951946,-0.0025975374003372434,-0.01372227754823911,0.0041714724355805585,0.9878885076514108
2012-04-30,0,0.0,0.0,-0.009414701168619744,0.010634876356064821,0.9852912838560579
2012-05-02,0,0.0,0.0,-0.01372227754823911,0.00740776859070226,0.9847499444367556
2012-05-04,0,0.0,0.0,-0.01021304136168335,0.00740776859070226,0.983459323945922
2012-05-08,0,0.0,0.0,-0.01021304136168335,0.016281382833341095,0.9809825589649578
2012-05-10,-1,-0.010531031718595108,-0.008678988338592928,-0.012829738941053135,0.016281382833341095,0.9789121052924107
2012-05-14,0,0.0,0.0,-0.012829738941053135,0.013930550197349987,0.9799900701090786
2012-05-16,0,0.0,0.0,-0.01457342804182393,0.013930550197349987,0.9792655734508992
2012-05-18,-1,-0.009924301223800587,-0.008318385634447608,-0.010213495120636564,0.01856359367849807,0.9786767881124963
2012-05-22,-1,-0.011940024231810138,-0.0098985769856724,-0.010213495120636564,0.021151587052454752,0.9774470239403378
2012-05-24,-1,-0.011611167638951437,-0.009652480132667963,-0.0205549933267491,0.021151587052454752,0.9757186210245377
2012-05-29,-1,-0.008436553110328857,-0.0068884872822640615,-0.023260891716281634,0.014857225132885937,0.9783813290652867
2012-05-31,-1,-0.009130695495924117,-0.00751636413939605,-0.023260891716281634,0.01856359367849807,0.9769941562512156
2012-06-04,-1,-0.011049735951448203,-0.009301223771751924,-0.01532800985501563,0.02056900431440848,0.9748672652643111
2012-06-06,-1,-0.00864213571110513,-0.007177935365623454,-0.01532800985501563,0.01856359367849807,0.9771612603954947
2012-06-08,-1,-0.00996138414984501,-0.008245553955963911,-0.016688426016970355,0.01856359367849807,0.9777098124484659
2012-06-12,-1,-0.008131112462110294,-0.006842929246923634,-0.015991825525308034,0.019321238365124907,0.9784101942871705
2012-06-14,-1,-0.009954964091970539,-0.008401803242874867,-0.008877797516106872,0.019321238365124907,0.9771409127265211
2012-06-18,-1,-0.008103378447249735,-0.00679943736218,-0.01368990227403809,0.021060288104271605,0.9786660167469458
2012-06-20,0,0.0,0.0,-0.01368990227403809,0.023075729458677002,0.977524964987991
2012-06-22,0,0.0,0.0,-0.008320547214130294,0.023075729458677002,0.9807189791739693
2012-06-26,-1,-0.006207284990399269,-0.005399612067707559,-0.008320547214130294,0.023972157799088387,0.9762430307588436
2012-06-28,-1,-0.004352250983179902,-0.003926361436933769,-0.008320547214130294,0.025305669149257328,0.9755031860588759
2012-07-02,0,0.0,0.0,-0.010468855725313145,0.023972157799088387,0.9788331862950729
2012-07-05,0,0.0,0.0,-0.010468855725313145,0.023972157799088387,0.9796708807814769
2012-07-09,0,0.0,0.0,-0.00857516483465819,0.025305669149257328,0.9784467364755434
2012-07-11,0,0.0,0.0,-0.006193953983465849,0.025305669149257328,0.9792634018063633
2012-07-13,0,0.0,0.0,-0.006749122103817026,0.025305669149257328,0.9795703294470415
2012-07-17,0,0.0,0.0,-0.005723567190642199,0.025305669149257328,0.9811305902843923
2012-07-19,0,0.0,0.0,-0.005723567190642199,0.015387603193905726,0.9833372730262002
2012-07-23,0,0.0,0.0,-0.005723567190642199,0.021121880023070513,0.9821632714258804
2012-07-25,0,0.0,0.0,-0.003624966037581847,0.017167122683133043,0.9867062990663791
2012-07-27,1,0.002608528018147366,0.0032924710414203983,-0.005723567190642199,0.011572374510680073,0.9894057289129777
2012-07-31,1,0.002487271207146937,0.0031749635614309224,-0.0032826972444219954,0.011572374510680073,0.989915913887954
2012-08-02,1,0.002923595848001345,0.0037244361682678756,-0.0032826972444219954,0.011572374510680073,0.9901054089869495
2012-08-06,1,0.004737347746764336,0.0058609536184868975,-0.0032826972444219954,0.011572374510680073,0.9913950159487264
2012-08-08,1,0.0051801931091268495,0.006320315428127058,-0.0043657042767660525,0.010965414037237112,0.9897804529564411
2012-08-10,1,0.005886204522522887,0.00715774914012661,-0.0032826972444219954,0.010965414037237112,0.9902281727710246
2012-08-14,1,0.005493032869977854,0.006697168611110254,-0.0032826972444219954,0.014759259041386592,0.9905449033145509
2012-08-16,1,0.006886873518781748,0.00832040101621501,-0.0032826972444219954,0.014759259041386592,0.9905491089446318
2012-08-20,1,0.006385010603469353,0.007701965697377906,-0.0032826972444219954,0.011539678656696715,0.9915968862146045
2012-08-22,1,0.007412491598397228,0.008909309234867005,-0.0043657042767660525,0.011539678656696715,0.9907736304025434
2012-08-24,1,0.006827025247439295,0.008181726404723874,-0.0016501138349481535,0.011539678656696715,0.9917016650735998
2012-08-28,1,0.007042145668026593,0.008464864692851681,-0.005065949586009074,0.011539678656696715,0.9897073207371606
2012-08-30,1,0.006128940626159807,0.00728086442923776,-0.0055500329126342545,0.014759259041386592,0.9890910187139448
2012-09-04,1,0.007080449593714536,0.008402300763944253,-0.0055500329126342545,0.014735538400751945,0.9884788795052266
2012-09-06,1,0.0075579698322081855,0.008909830188564886,-0.004425727628767283,0.013291385115476978,0.9899467145652232
2012-09-10,1,0.005824649350510866,0.006749507945609747,-0.004425727628767283,0.013291385115476978,0.9900136190624743
2012-09-12,1,0.006150467524952937,0.007069090348386604,-0.0055500329126342545,0.01180991382381322,0.9885231815394572
2012-09-14,1,0.007331691401486894,0.008465791186503636,-0.006206484089346969,0.009284101261925306,0.9883015130985257
2012-09-18,1,0.006470189618309526,0.007416775850064637,-0.006206484089346969,0.009551629025074783,0.9893352182812885
2012-09-20,1,0.006401187674214,0.007297575383155881,-0.004782654627842054,0.009551629025074783,0.9896216668795531
2012-09-24,1,0.006980704756069393,0.007982068363079218,-0.007246215209920066,0.009551629025074783,0.988450737364539
2012-09-26,1,0.004529275901704573,0.005105466011751856,-0.002229481234693647,0.013472171617291577,0.9869021532828253
2012-09-28,1,0.004925796668545566,0.005548868541433679,-0.0021492439841372295,0.01180991382381322,0.987795508995384
2012-10-02,1,0.004917482474354404,0.005501830114164876,-0.001381119489854798,0.013472171617291577,0.9865708451763137
2012-10-04,1,0.005062234109315264,0.005634334093058906,-0.0021492439841372295,0.012400383649252599,0.9854813957983715
2012-10-08,1,0.005357021450441061,0.005998019982268281,-0.003619448862379225,0.010499361506527154,0.9851045279494661
2012-10-10,0,0.0,0.0,-0.003985266585241173,0.010499361506527154,0.986158059254882
2012-10-12,0,0.0,0.0,-0.003619448862379225,0.010499361506527154,0.9869836027265665
2012-10-16,1,0.001956890833689473,0.0019911457107934967,-0.00535130931360155,0.00746445229264691,0.9857476072499671
2012-10-18,1,0.0031067481943103867,0.003330728328471305,-0.00535130931360155,0.01652835712279944,0.9849138341028196
2012-10-22,0,0.0,0.0,-0.003985266585241173,0.021140580848690485,0.9844722040154444
2012-10-24,0,0.0,0.0,-0.00535130931360155,0.017715719294603156,0.9877968095922306
2012-10-26,0,0.0,0.0,-0.0076814450223424684,0.021140580848690485,0.9866382687935518
2012-11-01,0,0.0,0.0,-0.0076814450223424684,0.007860239683248149,0.9889434366810417
2012-11-05,1,0.004656160064092573,0.004910388288601481,-0.0076814450223424684,0.007860239683248149,0.9877894343480407
2012-11-07,1,0.0038403684637243404,0.003918041971171766,-0.00906642730593728,0.007860239683248149,0.98687000487488
2012-11-09,1,0.003742037190109719,0.0038645958698458292,-0.00906642730593728,0.01682880600118196,0.9872372512763044
2012-11-13,1,0.003555569131372361,0.0036700395919277394,-0.00906642730593728,0.01750752007594568,0.9864757731646675
2012-11-15,1,0.0006731623059657293,0.0010108080757075992,-0.008101393135223043,0.01750752007594568,0.9880332512720135
2012-11-19,1,0.001213505778414618,0.0015201210918145058,-0.008101393135223043,0.014344838316752767,0.9888132078979442
2012-11-21,1,0.0020739105937425555,0.0022439534106354717,-0.008101393135223043,0.012745019725982874,0.9895227120490161
2012-11-26,1,0.002603975496463992,0.0026373606482905767,-0.008101393135223043,0.0062725211140315885,0.9898871629673229
2012-11-28,1,0.0032691679551023504,0.003345866258663708,-0.008571780172684536,0.0062725211140315885,0.9900821161899532
2012-11-30,1,0.002083053955352106,0.0022017136737329437,-0.008801667777579836,0.012745019725982874,0.9887436433227226
2012-12-04,1,0.0013358365502110204,0.0015488124559859748,-0.008732469110297972,0.013697424323176038,0.9870713706493628
2012-12-06,1,0.00039551860103913825,0.0007147840351130521,-0.008521675558098199,0.013697424323176038,0.9874296745664704
2012-12-10,1,0.0009765146591017811,0.0012208987259704647,-0.008521675558098199,0.012745019725982874,0.9876938839444219
2012-12-12,1,0.002230148300337775,0.002239976332389504,-0.008521675558098199,0.00883558690736455,0.9879480449162231
2012-12-14,1,0.0009735013894330898,0.001156408089999567,-0.008521675558098199,0.00883558690736455,0.9883547272749289
2012-12-18,1,0.0012356024476509598,0.0015193440396026278,-0.008732469110297972,0.006503587779977163,0.9865620887600134
2012-12-20,1,0.0016296369298996242,0.0017886343349204077,-0.009334042518043737,0.009272977408324872,0.9837279366994718
2012-12-24,1,8.96407702454334e-05,0.0004816255979696439,-0.008782777037921565,0.01718769917961555,0.9822021838070712
2012-12-27,0,-0.00016617851079623203,0.00029568867747195755,-0.010934828485093629,0.01718769917961555,0.9816884906755973
2012-12-31,0,0.0,0.0,-0.008755738645762517,0.01718769917961555,0.9821371012494463
2013-01-03,0,0.0,0.0,-0.010934828485093629,0.01718769917961555,0.9807715937351549
2013-01-07,1,0.001191584851570168,0.0014327240493986794,-0.009619484160734396,0.01718769917961555,0.9811185634656229
2013-01-09,1,0.0010487135017398985,0.001333106699583089,-0.013588486099526606,0.01718769917961555,0.979872175346557
2013-01-11,1,0.0010409289654098389,0.0012772261134745516,-0.013588486099526606,0.01718769917961555,0.9797976025107834
2013-01-15,1,0.0003976621434951934,0.0007294874486832722,-0.013588486099526606,0.023376797399368165,0.9786174879898819
2013-01-17,1,0.0014183380271563838,0.0016163583822163064,-0.010746064066612214,0.01718769917961555,0.9812212769920773
2013-01-22,0,-0.0001759251627322918,0.0002269365297589076,-0.010746064066612214,0.01400833336319781,0.9817875383561437
2013-01-24,1,0.0012421879865079201,0.0015076717340873867,-0.010746064066612214,0.005117323281683329,0.9829533976240394
2013-01-28,-1,-0.0005124363873253834,-3.603837188401724e-05,-0.010746064066612214,0.014318089790069797,0.9825323898049632
2013-01-30,1,0.000579770663263008,0.0009096870587345962,-0.010746064066612214,0.012923247493500463,0.9829097641450435
2013-02-01,1,0.0019288441991172115,0.0020758287551698893,-0.008445927692629716,0.013596402315367108,0.985164242833742
2013-02-05,1,0.0011570080136648832,0.0013964128252503122,-0.005187263618938905,0.01401392312199811,0.9853254110087518
2013-02-07,0,-1.5274256543650923e-05,0.00032197586931080016,-0.0034033251021698616,0.01509020362586632,0.9851701428305754
2013-02-11,1,0.0002588761978427231,0.0005106238201855274,-0.0032354217847243524,0.01509020362586632,0.9849323733176248
2013-02-13,1,0.0013920590922882506,0.0015329921936851456,-0.004561646296577921,0.013405576506185504,0.9864096643569175
2013-02-15,1,0.001622386074463624,0.0017133598860233253,-0.005598743164940899,0.013405576506185504,0.9852793898556643
2013-02-20,1,0.00010171751364882657,0.00035448669003197654,-0.004561646296577921,0.013405576506185504,0.987511139123732
2013-02-22,0,-0.0003138426831154153,7.843646519883614e-05,-0.005598743164940899,0.012983320937790742,0.9876088434372486
2013-02-26,0,-9.23838089215308e-05,0.0002586111971160617,-0.005440178902569762,0.012534052430940393,0.989563113832151
2013-02-28,1,0.0006961812267429365,0.0009486651314973322,-0.005440178902569762,0.012983320937790742,0.989075219181301
2013-03-04,1,0.0020869386207220987,0.0021652298867406166,-0.006932467049394691,0.010466342306521846,0.9891498168230559
2013-03-06,1,0.0024131622777881323,0.0024352386371311115,-0.011851316442990206,0.00603300989721685,0.9883981110195558
2013-03-08,1,0.0011503896077042922,0.0013911169095734565,-0.006932467049394691,0.009420048768426052,0.9895330106696324
2013-03-12,1,0.00094325331180416,0.0012374922751389036,-0.006932467049394691,0.009420048768426052,0.9890140441383547
2013-03-14,1,0.0004255249209394144,0.0007623419116682259,-0.00645677426228128,0.010172773750116494,0.9887406465540095
2013-03-18,0,-0.00019969341097167133,0.0001698384211653533,-0.00645677426228128,0.012287529332862387,0.9858080391611903
2013-03-20,0,0.0,0.0,-0.012022454703068935,0.012287529332862387,0.9843883080514587
2013-03-22,0,0.0,0.0,-0.00645677426228128,0.01460726139342455,0.9832064774675822
2013-03-26,1,0.0008102688854229609,0.0009274060625516823,-0.012022454703068935,0.017527303320157665,0.9811257594079149
2013-03-28,1,0.0029902476547870394,0.0032546872534080784,-0.016867777521836862,0.012287529332862387,0.9813173162423152
2013-04-02,0,0.0,0.0,-0.015507596179089906,0.012287529332862387,0.9821089997698002
2013-04-04,0,0.0,0.0,-0.01291211895545896,0.01628659251495572,0.9814280469848782
2013-04-08,1,0.0003713412228564697,0.0005383997040116035,-0.01291211895545896,0.021569467178678397,0.9812895264636422
2013-04-10,0,0.0,0.0,-0.01291211895545896,0.022511018256156742,0.980819967160038
2013-04-12,0,0.0,0.0,-0.01291211895545896,0.026049001252769835,0.9800601737372294
2013-04-16,1,0.0008322595278005801,0.0009398453088976686,-0.010495288665875041,0.02204138084610086,0.9832469859321163
2013-04-18,-1,-0.00018737790009030792,-1.1696650324061642e-05,-0.010495288665875041,0.02204138084610086,0.9841798272325264
2013-04-22,1,0.0015766545757447182,0.001604310544982683,-0.010495288665875041,0.020496546585504934,0.9852914202951746
2013-04-24,1,0.0020515177809360538,0.002168278493559138,-0.010495288665875041,0.015288559133170555,0.9867466034622212
2013-04-26,1,0.0008009707662335302,0.0008662885585110085,-0.009431961627680053,0.015931157910551715,0.9867075084694418
2013-04-30,0,0.0,0.0,-0.009431961627680053,0.015931157910551715,0.9864689594599056
2013-05-02,0,0.0,0.0,-0.00903941368184402,0.013807374752081507,0.9875103284513448
2013-05-06,0,0.0,0.0,-0.01052753764648573,0.011736144799190606,0.9867937040679118
2013-05-08,0,0.0,0.0,-0.011010507181867385,0.011736144799190606,0.9862240464447533
2013-05-10,0,0.0,0.0,-0.011010507181867385,0.013591200501742335,0.9865684532361764
2013-05-14,0,0.0,0.0,-0.012629814161676885,0.011735486579897677,0.9861395619349874
2013-05-16,0,0.0,0.0,-0.011532724462235104,0.013665399054571408,0.9844763396033135
2013-05-20,0,0.0,0.0,-0.011532724462235104,0.011735486579897677,0.9857641578551374
2013-05-22,0,0.0,0.0,-0.014963156293043726,0.01172969902936393,0.9835997453139063
2013-05-24,0,0.0,0.0,-0.018367522111478615,0.009586441497237344,0.981350459226177
2013-05-29,0,0.0,0.0,-0.018367522111478615,0.01172969902936393,0.9806179572379128
2013-05-31,-1,-0.0007410178650290665,-0.0006172844495885513,-0.018367522111478615,0.013665399054571408,0.9799425468202027
2013-06-04,0,0.0,0.0,-0.014574386846986137,0.013665399054571408,0.9809264487022398
2013-06-06,0,0.0,0.0,-0.01295898029219907,0.013497326725571652,0.9825733815216361
2013-06-10,0,0.0,0.0,-0.01295898029219907,0.007399270589371411,0.9832192251468646
2013-06-12,0,0.0,0.0,-0.011946474260362069,0.01508762043810814,0.9807811433663762
2013-06-14,0,0.0,0.0,-0.011946474260362069,0.012365368188780007,0.9826839590492997
2013-06-18,0,0.0,0.0,-0.01295898029219907,0.012365368188780007,0.9811825601160479
2013-06-20,-1,-0.0029375032750755233,-0.0024850169137902054,-0.010571446055230162,0.01508762043810814,0.9805931938591428
2013-06-24,-1,-0.006097982464001149,-0.0053622082796396684,-0.00827814382457773,0.020335731327418158,0.9819135313443371
2013-06-26,-1,-0.005348751341364777,-0.004743277857896557,-0.00827814382457773,0.01547163463293094,0.9833764288844077
2013-06-28,-1,-0.004841266294725012,-0.004270763844976079,-0.005632104771634198,0.012365368188780007,0.9843645948159122
2013-07-02,-1,-0.0050540473637862935,-0.004391635059294149,-0.005632104771634198,0.013328135162923678,0.9839157594204406
2013-07-05,-1,-0.005747714881416812,-0.004997556682619666,-0.004188327318716524,0.01808354918836867,0.9820770990232279
2013-07-09,-1,-0.004752081296790587,-0.004197625256651894,-0.004861429718627486,0.01808354918836867,0.9815860473235184
2013-07-11,-1,-0.0022469726789823767,-0.0019946802480424733,-0.004861429718627486,0.009318570493400114,0.9854847167627846
2013-07-15,-1,-0.0026231932329438892,-0.002254107040042408,-0.004861429718627486,0.009695832139139814,0.9853118406877939
2013-07-17,-1,-0.0037283400182513164,-0.0032651732752126523,-0.004861429718627486,0.009695832139139814,0.9857685735803947
2013-07-19,-1,-0.0018556243963815033,-0.0016188224856425594,-0.00476903842305066,0.00786839440935784,0.9898777934560039
2013-07-23,-1,-0.0009479051828384026,-0.0008573725036571027,-0.004770205191753583,0.00786839440935784,0.9897603122244871
2013-07-25,-1,-0.0008177833654376436,-0.0008142144931035714,-0.004770205191753583,0.009695832139139814,0.9874053692286466
2013-07-29,-1,-0.0002618371385900379,-0.00018086434009603953,-0.010161681202354365,0.009695832139139814,0.9867779252813803
2013-07-31,1,0.00041268785959554314,0.0005640246936810258,-0.014026125999081117,0.0073831367840935976,0.9865262582600778
2013-08-02,1,0.0014698838520063573,0.0017816856070116617,-0.014026125999081117,0.007189647290653035,0.987064717718319
2013-08-06,-1,-0.0005318233227352211,-0.0005068422956507561,-0.010161681202354365,0.007286418815686319,0.9878047205324643
2013-08-08,-1,-0.0004975137660520564,-0.00048319940639445565,-0.014026125999081117,0.008848780638946886,0.9867383357115345
2013-08-12,1,0.000370156442518961,0.0004848616530220352,-0.014026125999081117,0.011059687017508455,0.9854844910741364
2013-08-14,-1,-0.0006636883136789097,-0.0006153839302383704,-0.010161681202354365,0.011059687017508455,0.9856663645737515
2013-08-16,-1,-0.00029014802968621405,-0.00028222856627808945,-0.010161681202354365,0.01613388556272547,0.9838398832407601
2013-08-20,1,0.00042600338401338234,0.0005862691803386767,-0.008764109477719533,0.017728776933733564,0.9826254396395445
2013-08-22,1,0.000543828744106502,0.0006523227117998735,-0.008764109477719533,0.014782969323905359,0.9847968540585815
2013-08-26,-1,-0.0010065850525590643,-0.0008738047846279186,-0.008583823455395354,0.01572650028733597,0.9846139938222919
2013-08-28,-1,-0.001800410505681169,-0.001615931665754483,-0.006885669647544556,0.01572650028733597,0.9858465886654486
2013-08-30,-1,-0.0012061984023355094,-0.001143170553990634,-0.006395058793662955,0.01572650028733597,0.9863816887153604
2013-09-04,-1,-0.00011347524269464697,-2.6868118362491887e-05,-0.009179085264869699,0.014782969323905359,0.9860187638166142
2013-09-06,-1,-0.0007488549970779136,-0.0007122006545513402,-0.009179085264869699,0.013340397482398582,0.9868226653781205
2013-09-10,-1,-0.0005863190771228312,-0.0004749964645869233,-0.011802188963449329,0.004566975919724095,0.9870034105350745
2013-09-12,-1,-7.567041165149291e-05,-1.8588510151496343e-05,-0.011802188963449329,0.015347279574799437,0.9856083893922944
2013-09-16,1,0.0011780587625755297,0.0013973758393528994,-0.012846341957741002,0.008872990558767262,0.9840214088424059
2013-09-18,1,0.002880412782689297,0.0032277697631083887,-0.012846341957741002,0.006243135571862931,0.9854508911579931
2013-09-20,1,0.0019208412915593877,0.0021016102511073943,-0.012846341957741002,0.007285077495192115,0.9857508005642683
2013-09-24,1,0.002155065809261156,0.0023965143647726216,-0.016260023609078997,0.007285077495192115,0.981358535399138
2013-09-26,1,0.0020260032989354417,0.002303786033340284,-0.016260023609078997,0.008904186838611166,0.9804433783105824
2013-09-30,1,0.002340607017829267,0.0027248349582288368,-0.016260023609078997,0.008904186838611166,0.9804070468019037
2013-10-02,1,0.0017062485763868801,0.0020635994798626407,-0.013451850277655596,0.013439922707060242,0.980718308863022
2013-10-04,1,0.001435403235854242,0.0017707429541286973,-0.01237270611186694,0.013439922707060242,0.9808682174761415
2013-10-08,0,-6.96441007012137e-05,5.1380115294567905e-05,-0.010132392887820786,0.016475341359342803,0.9808916309333626
2013-10-10,1,0.0013919144072494412,0.0017300068851851891,-0.01237270611186694,0.008904186838611166,0.9814555551747873
2013-10-14,-1,-0.0016145612525381155,-0.0015511504262247593,-0.01237270611186694,0.009972751352250137,0.9837532727350828
2013-10-16,-1,-0.0003581461237381459,-0.00022880429379466567,-0.01237270611186694,0.009364774482815382,0.9839983819269197
2013-10-18,-1,-0.0005865049059461184,-0.000508178812239844,-0.01237270611186694,0.013958535459888646,0.9825583359951774
2013-10-22,1,0.0006342944360129561,0.0008728895635535099,-0.0097571119793085,0.010777056798937928,0.9878042818381473
2013-10-24,1,0.0003120049624961576,0.00042142757798638113,-0.009885420286754307,0.010777056798937928,0.9866071832429643
2013-10-28,1,0.00015953297516924092,0.00025919745112261395,-0.009885420286754307,0.010777056798937928,0.9867417026760517
2013-10-30,1,0.0007414786705326723,0.0009600235457976331,-0.008609041025325309,0.010777056798937928,0.9875739784647503
2013-11-01,1,0.00037296281115076506,0.00048790462458503375,-0.010705709871847588,0.010777056798937928,0.9869615851979433
2013-11-05,1,0.001282371431180684,0.0016213012196913653,-0.008609041025325309,0.009364774482815382,0.988380917587561
2013-11-07,1,0.0004210428973828058,0.0006551190135267368,-0.00648862340387871,0.010777056798937928,0.9885297601662658
2013-11-11,-1,-0.0017664104569884436,-0.0015892847182328745,-0.005396688137323636,0.011052876342298162,0.9888312000854265
2013-11-13,-1,-0.0032344014241023214,-0.0026801631362902284,-0.00648862340387871,0.011052876342298162,0.9880104497286245
2013-11-15,-1,-0.0018837844174611146,-0.0014834703271255582,-0.00648862340387871,0.00677150049394866,0.9900511523668803
2013-11-19,-1,-0.0020624697937050695,-0.0016777502321849184,-0.005396688137323636,0.0106366759783268,0.988146063261468
2013-11-21,-1,-0.0016506401260507906,-0.0013415906577947268,-0.005396688137323636,0.0106366759783268,0.9895767356346133
2013-11-25,-1,-0.0018732615424798425,-0.001505749961181785,-0.005396688137323636,0.0106366759783268,0.9893637289936413
2013-11-27,-1,-0.0017854645697252208,-0.0014219856558758532,-0.005519332160506073,0.008978322285536633,0.9897062646313703
2013-12-02,-1,-0.001195647418585865,-0.0010048491813469957,-0.0028378651603706085,0.008978322285536633,0.9909452486195315
2013-12-04,-1,-0.001212434450412693,-0.0010390282061697909,-0.0021824572115695176,0.008978322285536633,0.9906741356320047
2013-12-06,-1,-0.0017107160792739777,-0.001413442012692613,-0.0021824572115695176,0.007601176806745835,0.990943212934979
2013-12-10,-1,-6.231515505508112e-05,-3.401790756075193e-06,-0.0021824572115695176,0.008563924655025233,0.9907680798301858
2013-12-12,-1,-0.00039835430410265366,-0.00032174810186805925,-0.00529930833984309,0.008563924655025233,0.9904168276226072
2013-12-16,-1,-0.0005288210186141051,-0.0004128892151014551,-0.00529930833984309,0.010803325691586683,0.9895336688002409
2013-12-18,1,0.0009959600177453897,0.0010848058828237053,-0.007497141397805392,0.00904182457156788,0.9906658740419506
2013-12-20,1,0.0010928813696972667,0.0012329553741386669,-0.014240463524826791,0.008563924655025233,0.9901160167987596
2013-12-24,1,0.0018851739817695953,0.0021847212073003346,-0.015082275231725728,0.00904182457156788,0.9872308778408283
2013-12-27,1,0.0009607582336358527,0.0010290031004679917,-0.016135472004785316,0.009469401286628846,0.9862977436298255
2013-12-31,1,0.0010933941780541792,0.00120506394249607,-0.01827771508223181,0.009469401286628846,0.9823370946272386
2014-01-03,1,0.0011273009556797189,0.0013111446945952097,-0.02002679001381976,0.009469401286628846,0.9801015401685601
2014-01-07,1,0.0002578426398861922,0.0002888035346515681,-0.02002679001381976,0.010271674984651848,0.9793826315184151
2014-01-09,1,0.001288056184013926,0.0014687339139463405,-0.02002679001381976,0.012334717429486417,0.9784749124028642
2014-01-13,1,0.00011121044767400049,0.0001426126708320941,-0.01827771508223181,0.012334717429486417,0.9797215911812185
2014-01-15,1,0.001230561790362395,0.0014443118081567921,-0.01827771508223181,0.009947328283023625,0.9807872220619357
2014-01-17,1,0.0005085097329223149,0.0005732352024333223,-0.01827771508223181,0.009947328283023625,0.9812075330257429
2014-01-22,-1,-0.00175063277389298,-0.001480691102674704,-0.014228012483606481,0.011468702584436963,0.9812832862863845
2014-01-24,-1,-0.003410027722344852,-0.0029413083572008853,-0.011934635864029645,0.011305820288263109,0.9827620012180107
2014-01-28,-1,-0.0032460619438322764,-0.0028421872262232744,-0.004098916322547632,0.012095496990362003,0.9835177740448576
2014-01-30,-1,-0.007585874113171413,-0.00667330738490954,-0.0011665003944204928,0.01598131297273947,0.983427158679424
2014-02-03,-1,-0.00821019478058994,-0.007296333223539205,-0.0011665003944204928,0.019152800418193942,0.9843752207866255
2014-02-05,-1,-0.007232379798753626,-0.006413795135829155,-0.001235947618721711,0.015970649657015105,0.9858613394118572
2014-02-07,-1,-0.004772549160356507,-0.0043148077738462964,-0.0021793739118393233,0.011623215532607565,0.9896803016939716
2014-02-11,-1,-0.0029114797241595286,-0.0027722620688832894,-0.004264797703731877,0.011623215532607565,0.9910678822245225
2014-02-13,-1,-0.00277918891533907,-0.0026400708219083795,-0.009131420279839516,0.011623215532607565,0.9906296170522573
2014-02-18,-1,-0.0029996782185762127,-0.002847626244397166,-0.004264797703731877,0.01349664280193363,0.9895189842389644
2014-02-20,-1,-0.002366480890612534,-0.002284574520334467,-0.004264797703731877,0.011623215532607565,0.9907816963856014
2014-02-24,-1,-0.0016447072688607785,-0.001642348223820798,-0.009131420279839516,0.009772795404932335,0.9913130913855024
2014-02-26,-1,-0.001813110734191875,-0.0017389624548664814,-0.010203182474728989,0.010239844008789545,0.9902837222360816
2014-02-28,-1,-0.0014555684631413694,-0.0014008453620301888,-0.010203182474728989,0.010239844008789545,0.9897671524445896
2014-03-04,-1,-0.0020365043942032306,-0.0018403272358929685,-0.009131420279839516,0.013965558882408373,0.9889280849214459
2014-03-06,-1,-0.0008149544852303318,-0.0008015468370064796,-0.009131420279839516,0.011181041547018726,0.9894024332810336
2014-03-10,-1,-0.0031932133481737436,-0.0028012979456992215,-0.00937330425087,0.011181041547018726,0.9882344382095367
2014-03-12,-1,-0.0030473218245833725,-0.00271600771122519,-0.008124407401153635,0.014840649295479985,0.9874957979648762
2014-03-14,-1,-0.003544900279684681,-0.0031549393554912526,-0.008124407401153635,0.014840649295479985,0.9873097512212986
2014-03-18,-1,-0.0017508671831024476,-0.0016146363178709555,-0.008124407401153635,0.014840649295479985,0.9879182144552037
2014-03-20,-1,-0.0018175746603895804,-0.0016982793182757547,-0.006674641935303033,0.017208570120040317,0.9870575189342483
2014-03-24,-1,-0.00248694375126873,-0.0022778388239655376,-0.004267795224237041,0.017208570120040317,0.9870624204503182
2014-03-26,-1,-0.0024030629390403863,-0.0022195946715148256,-0.004267795224237041,0.015260067918424384,0.9880292357010994
2014-03-28,-1,-0.0010721188861505812,-0.0010557569582132387,-0.006567524772029604,0.00906790482976434,0.9893865879185837
2014-04-01,1,0.0004680422437363177,0.0006552624092547384,-0.006798619533530277,0.005524453737175396,0.991025819563399
2014-04-03,-1,-0.00011583317465576392,-6.704921922317974e-05,-0.007263318822026332,0.005524453737175396,0.9906327232643141
2014-04-07,-1,-0.0018933684066459035,-0.0017137989799668168,-0.006941967332206046,0.005524453737175396,0.9908811685696289
2014-04-09,-1,-0.0007986648769765407,-0.0007782943284259314,-0.006941967332206046,0.005524453737175396,0.9908856039904729
2014-04-11,-1,-0.0007167351185570774,-0.0006351858149000792,-0.006567524772029604,0.007356969561376999,0.9902916864393269
2014-04-15,1,3.7767588353571665e-06,0.00016445406096927642,-0.007917125218061628,0.005524453737175396,0.988117136443343
2014-04-17,1,0.0004955549767698141,0.0007330110626491926,-0.007917125218061628,0.005524453737175396,0.9887775647147736
2014-04-22,1,0.0009407645233606443,0.001254669522058876,-0.007917125218061628,0.005524453737175396,0.9884212515347699
2014-04-24,1,0.001089189214696367,0.0014406870438531704,-0.007439521972164876,0.005416658967182134,0.9888158505074829
2014-04-28,1,0.0007198523550603951,0.0009768420928343794,-0.00920312554507241,0.007032522798806284,0.9877393517843569
2014-04-30,1,0.0005562154470944754,0.0007836217303729837,-0.007439521972164876,0.004563018454339529,0.9885358474531248
2014-05-02,1,0.0006148652321058819,0.0008721626486220863,-0.005841482307193023,0.004563018454339529,0.9888482956430686
2014-05-06,1,0.00019099915316666963,0.000418539140530124,-0.005841482307193023,0.004563018454339529,0.9892717908193375
2014-05-08,1,0.00041265952271452467,0.0006399667414174205,-0.004407572261667426,0.006287800693572799,0.9894930734731806
2014-05-12,1,0.0015338011420930485,0.0019250260766833758,-0.008843713930037137,0.006287800693572799,0.9896655298192872
2014-05-14,-1,-0.0007645048275472978,-0.0005907150953106344,-0.008843713930037137,0.006287800693572799,0.9918494577918637
2014-05-16,0,-0.00019419268155303963,5.280545964387391e-05,-0.008843713930037137,0.003994608997429422,0.99246291577528
2014-05-20,0,-0.0001546954268543359,0.0001233293273695561,-0.005676075686177547,0.006287800693572799,0.9922302278739505
2014-05-22,1,0.0003787020408303071,0.0007356945396341421,-0.005956423659329486,0.0032469930684874736,0.992330587242159
2014-05-27,0,-7.971394653790071e-05,0.0002268560873989378,-0.0032248402227731485,0.002556244912070166,0.9937499351796834
2014-05-29,1,0.00010935781259762258,0.0004470077408808119,-0.004211747553938816,0.002556244912070166,0.9935922394821753
2014-06-02,1,0.0001403257616030874,0.0004605072423777116,-0.004211747553938816,0.003856601701561008,0.9933782693479319
2014-06-04,1,0.0004165669625996976,0.0008394926475971648,-0.004211747553938816,0.005635555348786674,0.992599285923547
2014-06-06,1,0.0005426863772985588,0.0009212012594618144,-0.007585674785522571,0.003856601701561008,0.9917251410586879
2014-06-10,1,0.0010605934111519836,0.0015692589208921256,-0.007585674785522571,0.003856601701561008,0.9914021090145323
2014-06-12,0,-1.9055474627080503e-05,0.0003192951099730147,-0.004211747553938816,0.006900224796221144,0.9920238817280437
2014-06-16,-1,-0.0004676058940729155,-0.0002625754055931702,-0.007323869385854944,0.006900224796221144,0.9913858321651722
2014-06-18,-1,-0.000754822966656907,-0.0006625343980155703,-0.0105630060591474,0.004925473879224445,0.9913054917727914
2014-06-20,-1,-0.0009327929771069257,-0.0008826068488658106,-0.0105630060591474,0.00563999088256963,0.9909379950955982
2014-06-24,-1,-0.003617050402467229,-0.003056716540887636,-0.0105630060591474,0.011912094536348965,0.9889829041603188
2014-06-26,-1,-0.004983429585434284,-0.004245010945187476,-0.0105630060591474,0.013669674972361438,0.9873257195704793
2014-06-30,-1,-0.0037365574875175603,-0.003171154378478883,-0.011348833623620807,0.013669674972361438,0.9876872778942528
2014-07-02,-1,-0.0027734597064350687,-0.002405569885763046,-0.011428623546879287,0.01199305010140579,0.9883837781296678
2014-07-07,-1,-0.002642477937027453,-0.0023078992307878137,-0.010563417424617923,0.01199305010140579,0.9886783897514287
2014-07-09,-1,-0.0022522282128975292,-0.001975845480120932,-0.010641973251464834,0.011942161182937575,0.988925601803875
2014-07-11,-1,-0.0029365017465571262,-0.0025446438304692924,-0.010641973251464834,0.013324943197509253,0.9870122341357899
2014-07-15,-1,-0.0024447464552033874,-0.002139554090550294,-0.011989402598789965,0.013324943197509253,0.9872756140605131
2014-07-17,-1,-0.002333431127198855,-0.0020712998283085498,-0.00958812424360421,0.013669674972361438,0.9864438086221546
2014-07-21,-1,-0.0016612577614181384,-0.001490651174393987,-0.010645111817627919,0.013669674972361438,0.986153786674254
2014-07-23,-1,-8.904388967068621e-05,-4.027116308995737e-05,-0.010645111817627919,0.013324943197509253,0.9868077444122917
2014-07-25,1,0.0006749149665444564,0.0008379988689885017,-0.012122082676791095,0.012463610219035498,0.9873490630180934
2014-07-29,0,-1.945906771861505e-05,7.376630498099793e-05,-0.010364226938925017,0.012463610219035498,0.9878520726924209
2014-07-31,-1,-0.0007391385705259583,-0.0007233759896556637,-0.008493268282387563,0.012463610219035498,0.9883637922619178
2014-08-04,-1,-0.00022495206080860175,-0.00019688939373208405,-0.008493268282387563,0.00817647951419421,0.9892729360542742
2014-08-06,-1,-0.000500556934177863,-0.0004676327592585718,-0.004185241618218269,0.005863108125221515,0.9902257853102451
2014-08-08,1,0.0005480582541242281,0.0007114082461814064,-0.004185241618218269,0.005308727481143832,0.9925651313952467
2014-08-12,-1,-0.00030972361408112983,-0.0002808147992769532,-0.0026929574662942924,0.005863108125221515,0.9920577858117754
2014-08-14,1,0.0004027418501885356,0.0004927532761823429,-0.008079140250314538,0.005308727481143832,0.9931834791866616
2014-08-18,1,0.00032334982302436986,0.000392192445985131,-0.004799408516704273,0.005308727481143832,0.99373383807261
2014-08-20,1,0.0015480857609101572,0.00185041165215972,-0.004799408516704273,0.005006139260016841,0.9941274825681091
2014-08-22,1,0.0016273037274664602,0.0020195919168326778,-0.004799408516704273,0.005863108125221515,0.9936151037612025
2014-08-26,1,0.0016594642583294679,0.0020549248362837056,-0.004613767740086374,0.005895893062931067,0.9935603895937017
2014-08-28,1,0.0010229149997621546,0.0012416436689573853,-0.007522217920460839,0.00536371658462402,0.9926018968636676
2014-09-02,1,0.0016393081269969018,0.00198252440710081,-0.009655071980333944,0.00536371658462402,0.9908794201322303
2014-09-04,1,0.0014273275591709534,0.001716774825190384,-0.0127144217537923,0.007406942551490428,0.989295518383836
2014-09-08,1,0.0015210689466147922,0.0018755485347273244,-0.009655071980333944,0.007406942551490428,0.9898532194499483
2014-09-10,1,0.0019175655257886728,0.0023449442665481003,-0.012600913925563057,0.007406942551490428,0.9896618648047634
2014-09-12,1,0.0017965502164519797,0.0022267275871361457,-0.013045678115640058,0.007406942551490428,0.9890219559978765
2014-09-16,1,0.002004291527396955,0.0024627503062119695,-0.013045678115640058,0.009208313717187845,0.9877114704875019
2014-09-18,1,0.0020475947919306224,0.0025176489332496502,-0.013045678115640058,0.009208313717187845,0.9871222728568196
2014-09-22,1,0.002239710007997821,0.002707665757832452,-0.012600913925563057,0.011255869368248392,0.986161495272059
2014-09-24,1,0.0023159329395589833,0.0027677754343164145,-0.012600913925563057,0.013126971801460056,0.9859896042327114
2014-09-26,1,0.0013678768983649194,0.0016538082641044606,-0.011659909829917717,0.013703342811529736,0.9860381999931448
2014-09-30,1,0.00035247708652635327,0.0005403888474373756,-0.006173520039104935,0.016139418565942736,0.9840387194215889
2014-10-02,1,0.0004058926351214224,0.0006827900484835073,-0.0048674567289228275,0.016139418565942736,0.9853059276034916
2014-10-06,-1,-0.001559203919581322,-0.0014151221242575003,-0.0048674567289228275,0.016139418565942736,0.9843669125263635
2014-10-08,-1,-0.0011086831552572455,-0.0010410598935311367,-0.002270183343869639,0.016139418565942736,0.9855207425872489
2014-10-10,-1,-0.0022212860801783607,-0.0020049142459145804,0.0007383238552617843,0.016139418565942736,0.9849634409187995
2014-10-14,-1,-0.0005406749398304458,-0.0005384104841742209,0.0007383238552617843,0.013962172781833796,0.986760703443335
2014-10-16,-1,-0.000990376899556435,-0.0008989931719956728,0.0007383238552617843,0.013531857678384785,0.9876550931859227
2014-10-20,1,0.0003446157250641182,0.00041490349117834625,0.0005214156124458671,0.01192427333491382,0.9897738235304446
2014-10-22,1,0.0005256417095438836,0.0006248680849248343,0.0007383238552617843,0.01192427333491382,0.9896637832507997
2014-10-24,1,0.0013106559238138795,0.0014743939597329696,0.0007383238552617843,0.011650340948064792,0.9903174503914247
2014-10-28,1,0.0038361798814806882,0.004377117757358368,0.0007383238552617843,0.010012915388458662,0.994339495386925
2014-10-30,1,0.004115850164669895,0.0046781496682134095,0.0005214156124458671,0.010012915388458662,0.9940161485601106
2014-11-03,1,0.003572480252997455,0.003969216840816357,-0.0014581448199683601,0.010012915388458662,0.9934165657685979
2014-11-05,1,0.003433815275007199,0.003805039244799862,-0.003514674540919433,0.011650340948064792,0.9921636712454704
2014-11-07,1,0.004092657208160149,0.004567769248507978,-0.004349590199299939,0.0101504408079938,0.9918393872171067
2014-11-11,1,0.0035338021189283927,0.003913240131482405,-0.004349590199299939,0.0101504408079938,0.9914420346001603
2014-11-13,1,0.003421555444799124,0.00377931639625963,-0.005864914867790788,0.0101504408079938,0.9904012667199963
2014-11-17,1,0.003167164096501027,0.0034686404913071367,-0.005864914867790788,0.0101504408079938,0.9884374441250864
2014-11-19,1,0.004638210135460942,0.00507505252137698,-0.005864914867790788,0.009648160774567437,0.9852094564961869
2014-11-21,1,0.005184308187140419,0.005701402114545362,-0.005864914867790788,0.007015074708381005,0.9850720386049923
2014-11-25,1,0.005114001200619285,0.005604978942411586,-0.005864914867790788,0.007015074708381005,0.985093125071898
2014-11-28,1,0.00517100605778527,0.005685125026270126,-0.004627826628020108,0.006611344899084394,0.9858697825395029
2014-12-02,1,0.00457478534395568,0.004994773884577181,-0.004627826628020108,0.006611344899084394,0.9866117052466233
2014-12-04,1,0.00482306577136237,0.005251616267266968,-0.0060755809940517425,0.005013407222075992,0.9863242633750483
2014-12-08,1,0.004034196376577157,0.0043239947288667945,-0.005173104650429854,0.006611344899084394,0.9859560934738975
2014-12-10,1,0.003279574413100254,0.0034787528496556357,-0.0038626425199785406,0.007204687660552361,0.9862122592672665
2014-12-12,1,0.0035249977141548153,0.0037667017992729316,-0.0038626425199785406,0.008504793056665546,0.9866918508258715
2014-12-16,1,0.002343630290698574,0.0024821265117730834,-0.0038626425199785406,0.0073479460047179875,0.9886558499114064
2014-12-18,1,0.005183993978100713,0.00562671806847095,-0.00510784681603845,0.006848710632644291,0.9905067186470515
2014-12-22,1,0.004432062437871113,0.0047168328277417855,-0.004823898284128859,0.007436861972941338,0.9907187432209266
2014-12-24,1,0.004722145448503247,0.005080778813668563,-0.004823898284128859,0.009171495716166104,0.9905899239233902
2014-12-29,1,0.0046730338670799235,0.005016001452917151,-0.006429917723273412,0.009171495716166104,0.989891384240981
2014-12-31,1,0.004748417572507287,0.0051301666718693816,-0.008056871942880808,0.010453725508670639,0.9884161951907015
2015-01-05,1,0.0031067311594463304,0.0032168064435368297,-0.006429917723273412,0.010453725508670639,0.989438292883214
2015-01-07,1,0.003345395922804514,0.0036005961523829103,-0.006429917723273412,0.010453725508670639,0.9869040312601134
2015-01-09,1,0.003975740028282111,0.004304274401982786,-0.008853771163722704,0.01027816725318809,0.9865294650716313
2015-01-13,1,0.004059557121225475,0.004434431986344582,-0.007292074778506711,0.01027816725318809,0.9868659892482112
2015-01-15,1,0.0032576486232058794,0.003490579852430823,-0.003186327016952953,0.010453725508670639,0.9868266855427203
2015-01-20,1,0.0034804100406127985,0.0037296911868161886,-0.0028330481054458043,0.01027816725318809,0.9880293192286075
2015-01-22,1,0.003711934066118687,0.0039930285167325,-0.0028330481054458043,0.009069635815616605,0.9882906576213161
2015-01-26,1,0.004143464035431731,0.004482659277539098,-0.0028330481054458043,0.0060389142178813296,0.9883487790966052
2015-01-28,1,0.003459143977853866,0.0037032555000718254,-0.002205385022957625,0.0060389142178813296,0.9885777197575073
2015-01-30,1,0.0026111301625105837,0.0027109856588806154,-0.0020799232508077266,0.0060389142178813296,0.9896658474618215
2015-02-03,1,0.0029245808786701527,0.003070622807068688,-0.0041198512990564574,0.0046101877398696395,0.9890054589578384
2015-02-05,1,0.003890477809201701,0.004126825328945229,-0.0041198512990564574,0.002091618395977854,0.9905440000103611
2015-02-09,1,0.0027629178396589354,0.0028424822852532537,-0.0041198512990564574,0.0046101877398696395,0.9912262683784353
2015-02-11,1,0.002936149220061456,0.0030475972748403727,-0.0049481649507760635,0.0046101877398696395,0.9895302412762164
2015-02-13,1,0.0034923310806517878,0.003660041586184204,-0.00709626410856804,0.0046101877398696395,0.989797325512757
2015-02-18,1,0.0030921984657798192,0.003198361162072928,-0.009011853445442657,0.0052232447636321525,0.9894786204854421
2015-02-20,1,0.0024479704295729877,0.0024760790913941418,-0.010578579225826674,0.006587137140676325,0.9877759817102562
2015-02-24,1,0.0012567421094910117,0.001510765824700526,-0.010578579225826674,0.00671066928213982,0.9879980701404022
2015-02-26,1,4.5094482171451934e-05,0.0004915671659695474,-0.01424940640661391,0.010100117493326215,0.9872752876877378
2015-03-02,1,8.458195937865618e-05,0.0005363440385616649,-0.01424940640661391,0.010380939203929875,0.9869703148487092
2015-03-04,-1,-0.0010619733295532008,-0.0004652678003696669,-0.010933288422678223,0.010380939203929875,0.9874656321136249
2015-03-06,-1,-0.003959346655553014,-0.0029624287716109705,-0.009011853445442657,0.010380939203929875,0.9887662167082162
2015-03-10,-1,-0.0037936500874063066,-0.002845271023470476,-0.009011853445442657,0.010100117493326215,0.9892126050667768
2015-03-12,-1,-0.004567054599246493,-0.003536848235497463,-0.008245454805073715,0.006708994525939479,0.9909850001935867
2015-03-16,-1,-0.004015647474860742,-0.0031372812145710736,-0.008241286266626317,0.009756209736747862,0.990859121308934
2015-03-18,-1,-0.00408752449929848,-0.003197978620100058,-0.008241286266626317,0.0065949168591468085,0.9910319095120993
2015-03-20,-1,-0.0037748309245901387,-0.002968623283446525,-0.008241286266626317,0.0065949168591468085,0.9913508610778514
2015-03-24,-1,-0.0022000020707965344,-0.001695556400453158,-0.008917432319335008,0.006215761976370034,0.9910224635582046
2015-03-26,-1,-0.0022057959288517897,-0.0017339255895108645,-0.008241286266626317,0.006215761976370034,0.9908890881502379
2015-03-30,-1,-0.0011094209291846202,-0.000800091535304333,-0.008917432319335008,0.0036638559576804026,0.9881031479367434
2015-04-01,-1,-0.00034867439335110396,-7.062140998295632e-05,-0.012598101432658226,0.0008749744253847354,0.9861179826557126
2015-04-06,-1,-0.0003174670671514733,-6.490364273512331e-05,-0.012598101432658226,0.00521836968843438,0.985235204298696
2015-04-08,-1,-0.001256518225821052,-0.0008735412919182084,-0.009694644464190041,0.00521836968843438,0.9863827033348133
2015-04-10,-1,-0.0016438624831593045,-0.0012085459631874015,-0.009694644464190041,0.011518786142588212,0.9846790583417687
2015-04-14,-1,-0.0015699189108913348,-0.001146026971428215,-0.009694644464190041,0.009660208399495869,0.9850717353287605
2015-04-16,-1,-0.00197958889853204,-0.00154644128841484,-0.005673625757950022,0.010841591428997465,0.9851917523538342
2015-04-20,-1,-0.0008512204486664844,-0.0005737735753610138,-0.005328604124423582,0.007557822755665932,0.9862968517992674
2015-04-22,-1,-0.0015839205958457939,-0.0012275784891740873,-0.004547799924432782,0.007557822755665932,0.9863917551805255
2015-04-24,-1,-0.0004932497631545021,-0.0002734983410093749,-0.004397241449246421,0.007557822755665932,0.9872682199102484
2015-04-28,-1,-0.001370112781696699,-0.0010302334478764783,-0.004397241449246421,0.007557822755665932,0.9899778146931494
2015-04-30,-1,-0.0025523554310744835,-0.002091841392902004,-0.0040450158015238715,0.007557822755665932,0.991036394957172
2015-05-04,-1,-0.0015348562539109544,-0.0011770609672575227,-0.0040450158015238715,0.007557822755665932,0.9913870261135398
2015-05-06,-1,-0.0024474151194148934,-0.0019399448320829085,-0.004210577185086136,0.007557822755665932,0.9908327659031163
2015-05-08,-1,-0.0016934546978358092,-0.001252687662665926,-0.0053349019368533574,0.006843332787714934,0.9924620562577928
2015-05-12,-1,-0.002091248338008613,-0.0015600645224329744,-0.006934737707547144,0.006843332787714934,0.9914860832280278
2015-05-14,1,0.000534065834274745,0.0005880860709743068,-0.006934737707547144,0.005762403388141008,0.9916968006821516
2015-05-18,1,0.00047605829408677545,0.0005342038469171581,-0.007654821309867606,0.005762403388141008,0.9917153525274826
2015-05-20,1,0.0003891789300214316,0.0004590727833664939,-0.007654821309867606,0.007351417335144267,0.9914785459891825
2015-05-22,1,0.0007527380820505139,0.0007740364490493314,-0.01113981418356918,0.005762403388141008,0.9913889310407298
2015-05-27,1,3.557353469095157e-05,0.00015086922911558965,-0.01113981418356918,0.005762403388141008,0.9919598591853181
2015-05-29,-1,-0.0012371041204081942,-0.0009426737126944305,-0.01113981418356918,0.005762403388141008,0.9916699265519008
2015-06-02,1,2.4324770648539496e-05,0.0001396719511028696,-0.01271612444073422,0.0023465246623509883,0.9912200398150934
2015-06-04,1,0.00021556032650997707,0.000279286145751627,-0.01271612444073422,0.0017278555203736642,0.9907670459573604
2015-06-08,-1,-0.0008287823330972769,-0.000617259336247929,-0.012134443252273464,0.0023465246623509883,0.9908138111245695
2015-06-10,-1,-0.0004732416498705159,-0.00030325041250312863,-0.010945920454082261,0.0017278555203736642,0.9919668780554807
2015-06-12,-1,-0.00035151263177047464,-0.0002153299199299001,-0.010945920454082261,0.002685677785589031,0.9908920939269483
2015-06-16,-1,-0.0004567799972575411,-0.00032885978034618305,-0.011986949506185304,0.0027159052666495573,0.9907410655398462
2015-06-18,1,0.0003131597579443801,0.00032982042053672007,-0.012734269394075352,0.0017278555203736642,0.990015150352516
2015-06-22,-1,-0.0006768198721698597,-0.0005215896138285427,-0.012734269394075352,0.0017945447835148324,0.9886685128084235
2015-06-24,-1,-0.0013641926565866607,-0.0011433470128003193,-0.011986949506185304,0.0055417428124251294,0.9857383493348321
2015-06-26,-1,-0.0013003204870137477,-0.0011122267828242304,-0.013946336948711741,0.0055417428124251294,0.9849415517467681
2015-06-30,-1,-0.0011357369647822023,-0.0010269364278093296,-0.011986949506185304,0.012304411349816443,0.9840322222056889
2015-07-02,-1,-0.0016120926900702955,-0.0014222570789273093,-0.008749274474428376,0.012304411349816443,0.9847511435964282
2015-07-07,-1,-0.000857969169691947,-0.000782527708436816,-0.010529194039552065,0.007371066635211169,0.9849432034811784
2015-07-09,-1,-0.0007880182583317127,-0.0007579753287547657,-0.013946336948711741,0.007371066635211169,0.9838993718275041
2015-07-13,1,3.850394470189978e-06,7.292363898536567e-05,-0.013946336948711741,0.007371066635211169,0.9838285959876986
2015-07-15,-1,-0.00013105123371303376,-6.767900034823477e-05,-0.018693515501014658,0.008645342777632369,0.9832443459850747
2015-07-17,-1,-0.0007851756529836824,-0.0007698385810918427,-0.012066646842848099,0.012410348774959206,0.9833637072622755
2015-07-21,-1,-0.00041042983148811325,-0.0003840303348619059,-0.007121320267874748,0.012410348774959206,0.9842620743657157
2015-07-23,1,0.00178594221735753,0.002114660092201296,-0.008489292864628493,0.010597975603941372,0.9872461274979457
2015-07-27,1,0.00031221940307043713,0.00044840081772814784,-0.008489292864628493,0.010597975603941372,0.9852057853948109
2015-07-29,1,0.001827416484461328,0.0020087093635497823,-0.008489292864628493,0.00913019360441292,0.9859955327526297
2015-07-31,1,0.0019234076430569365,0.002152193939625473,-0.010591327648048805,0.009919460576905622,0.9851201524704718
2015-08-04,1,0.0016653820003492044,0.0018584534517916813,-0.014267557916616776,0.009919460576905622,0.9835198382252173
2015-08-06,1,0.0006488982629914177,0.0006966172613927992,-0.009177989841746446,0.011521233131308076,0.9827379090999573
2015-08-10,1,0.0016844158558514239,0.0018660389204656958,-0.009832438229866966,0.010472286738757507,0.9831385287297326
2015-08-12,1,0.0015745062760818657,0.0017296702086975278,-0.009832438229866966,0.010472286738757507,0.9832377929591628
2015-08-14,1,0.0017905761737341285,0.0019514088313275333,-0.010018456226050234,0.00913019360441292,0.9835549288222569
2015-08-18,1,0.0024180390787569683,0.0026618512580898236,-0.010018456226050234,0.00913019360441292,0.983072967260166
2015-08-20,1,0.0022947812555887083,0.002554745445154787,-0.013945723883296814,0.006657551011020033,0.9825390465169401
2015-08-24,1,0.0011457430446378761,0.0012527378041327327,-0.010018456226050234,0.006657551011020033,0.9850459833428591
2015-08-26,1,0.0016669209687203662,0.0018383830115887238,-0.010050302606706106,0.004179937578320457,0.9851812648224691
2015-08-28,1,0.0013867853566323454,0.0014945320388332238,-0.011785859819676989,0.0026212297473294736,0.9835499967243135
2015-09-01,-1,-0.00032301558433068384,-0.0002210273507074846,-0.010271571531445839,0.004179937578320457,0.9853853194733558
2015-09-03,1,0.001118946011213314,0.001201836206680049,-0.010271571531445839,0.004179937578320457,0.9867580724377899
2015-09-08,1,0.0010559111005272379,0.0010866284143015632,-0.011809790386505899,0.004179937578320457,0.9846781505621554
2015-09-10,1,0.0008017309155989532,0.0008464654349464835,-0.010271571531445839,0.007320839516111268,0.9840677922263558
2015-09-14,1,0.0004039117241099116,0.00044798663004333054,-0.010333999226441057,0.007320839516111268,0.984237145330871
2015-09-16,1,0.001962573373182447,0.002166830304349671,-0.014727706596127198,0.0039920138556841745,0.9835250186938975
2015-09-18,1,2.511130713213923e-05,6.2971046761894e-05,-0.011809790386505899,0.012707948943034864,0.983605986127304
2015-09-22,-1,-0.0014935075410778661,-0.001217307610024821,-0.010333999226441057,0.012707948943034864,0.9851914494757342
2015-09-24,-1,-0.0006530594291630218,-0.0005304959688778089,-0.011809790386505899,0.014292109140513442,0.9825170036285076
2015-09-28,-1,-0.003146721658223681,-0.0027187349362252297,-0.011809790386505899,0.0172135096539294,0.9796705318317828
2015-09-30,-1,-0.003540559398484265,-0.0031886391890366614,-0.010390302970892287,0.02268441980007925,0.977977243018784
2015-10-02,-1,-0.0029305926587502047,-0.0026651396594244443,-0.012917642697088193,0.02433068929180728,0.9765524786006313
2015-10-06,-1,-0.0014492788061107262,-0.0013883992940226912,-0.011329244048120888,0.02268441980007925,0.9791629609345479
2015-10-08,-1,-0.000142725531096335,-3.813455824887432e-05,-0.014788336114867951,0.021403558510987738,0.9804438742500604
2015-10-12,-1,-0.0002360747885751536,-0.00013479286455139814,-0.014788336114867951,0.021403558510987738,0.9800389388611019
2015-10-14,-1,-0.0014506841515666408,-0.001425399511807829,-0.008036455791130414,0.021403558510987738,0.9810464768266817
2015-10-16,-1,-0.00038892909244690884,-0.0003127115262951966,-0.014788336114867951,0.01575798587523435,0.9804949502919252
2015-10-20,-1,-0.0008587851854543146,-0.0008373033058352987,-0.014788336114867951,0.023587229008167974,0.9787734403785853
2015-10-22,1,0.0005275158559887437,0.0007396039889088676,-0.014065138888920206,0.018319667467404363,0.9813402508789741
2015-10-26,-1,-0.0007548140022658224,-0.0007084703244324611,-0.008036455791130414,0.016127305537576193,0.9851153193051241
2015-10-28,1,0.0006129828191976953,0.0008102553414880496,-0.008036455791130414,0.01330275926071966,0.9873651670085782
2015-10-30,1,0.0009062852299022058,0.0011627795501835268,-0.008036455791130414,0.012999382392155392,0.9883692928772767
2015-11-03,1,0.0013325021920831456,0.0016471113053359034,-0.011980971606197748,0.012999382392155392,0.9880656135899819
2015-11-05,1,0.0006856911697408081,0.0009006488901909786,-0.011980971606197748,0.01330275926071966,0.9867697950240137
2015-11-09,1,0.0005775464524070693,0.0008159317408662374,-0.012134981623526754,0.01330275926071966,0.9869665372578658
2015-11-11,1,0.001121559874286742,0.001406402524313824,-0.01628899168660302,0.013104870470981926,0.9848421331089234
2015-11-13,-1,-0.0007707379398088684,-0.0007422704230511819,-0.01426263021007015,0.013104870470981926,0.9852568178511041
2015-11-17,1,0.00022520088518589724,0.00034391808820091144,-0.01426263021007015,0.01115805339466367,0.9843393924049204
2015-11-19,1,0.0006136701280127634,0.0007306311566639055,-0.021103162521386082,0.008492647280661639,0.9815169190398022
2015-11-23,1,0.0010478097301257375,0.0011952087369296494,-0.021103162521386082,0.0064073883769885705,0.9813364478135951
2015-11-25,1,0.0017188126473435183,0.001972530855773954,-0.021103162521386082,0.0064073883769885705,0.9805918466663766
2015-11-30,1,0.0005684289986630014,0.0006503029643496251,-0.01605405225017232,0.007239437347995753,0.9814790300228959
2015-12-02,1,0.0009974855375882805,0.0011907395899978784,-0.01605405225017232,0.007239437347995753,0.9810840217612197
2015-12-04,1,0.0008108212544061377,0.0009610503375130983,-0.01605405225017232,0.007239437347995753,0.9815877950703273
2015-12-08,-1,-0.00019829619679562373,-0.0001659610441071349,-0.022441145186536098,0.007239437347995753,0.9800589902384073
2015-12-10,-1,-0.0018904532180470707,-0.0016629090959947167,-0.020820612521324028,0.007239437347995753,0.9826596927910312
2015-12-14,-1,-0.0008742109302198505,-0.0008314241590504167,-0.022441145186536098,0.007239437347995753,0.9823753607383887
2015-12-16,1,0.0005055910959831458,0.000577449374671312,-0.025239956820985336,0.003822145576849436,0.9815086670722669
2015-12-18,-1,-0.0009224487100519916,-0.000877147946494295,-0.016772800700934964,0.008017103385296863,0.9835969649553139
2015-12-22,1,0.0004638934653328088,0.0005727435232534987,-0.016772800700934964,0.008017103385296863,0.9837221895187358
2015-12-24,1,0.0007889941211570768,0.000909800467046382,-0.016772800700934964,0.007778816884510186,0.9843649482394948
2015-12-29,1,0.0004582357542366941,0.0004778227941310816,-0.016772800700934964,0.0031138536944524675,0.9841511248885642
2015-12-31,1,0.00020157389371694038,0.00024746406498768795,-0.016772800700934964,0.007875340538227776,0.9841294220369887
2016-01-05,-1,-0.0007069951656877496,-0.0006276329098875829,-0.017350480076539124,0.010286618930272365,0.9835505481678474
2016-01-07,-1,-0.001601967149660728,-0.001466342676478641,-0.014043585388958123,0.018707640468921007,0.9835996757530096
2016-01-11,-1,-0.0015945427166325732,-0.0015256709985386075,-0.014043585388958123,0.018707640468921007,0.983010207673457
2016-01-13,-1,-0.002810444399331487,-0.0025901688092970798,-0.015302314930526487,0.018707640468921007,0.9821513059315653
2016-01-15,-1,-0.004790396281803823,-0.004320391653177486,-0.014043585388958123,0.019406722558866312,0.9828140560055574
2016-01-20,-1,-0.0037452573900329912,-0.0034207446321457584,-0.014043585388958123,0.019406722558866312,0.9827269282233922
2016-01-22,-1,-0.0028498534558450547,-0.0026356081114440643,-0.014043585388958123,0.019628539442198313,0.9814688518107735
2016-01-26,-1,-0.0037430288693570688,-0.003366152096774159,-0.014043585388958123,0.019628539442198313,0.9804759798125979
2016-01-28,-1,-0.003428063341076028,-0.0031622544742453793,-0.0006157432850483319,0.019628539442198313,0.9797105978328462
2016-02-01,-1,-0.002128039803321552,-0.0020322117250009784,-0.0006157432850483319,0.019628539442198313,0.9805404949321919
2016-02-03,-1,-0.0023282357755233796,-0.0021750175928033984,0.0017129508883232999,0.017956017573367167,0.9820499513034394
2016-02-05,-1,-0.0016474218632537238,-0.0015737137377636965,0.0017129508883232999,0.017956017573367167,0.98314766428161
2016-02-09,-1,-0.0006912468670890713,-0.000558022744230199,-0.0008005874314759065,0.017956017573367167,0.9850069907477795
2016-02-11,-1,-0.0031638806970870816,-0.002957180473740822,0.0029723232935235586,0.019082253222533107,0.9839768209054149
2016-02-16,-1,-0.001993728544282998,-0.001867886717506687,0.0029723232935235586,0.017385100826250163,0.9856220372225939
2016-02-18,-1,-0.000648236256258977,-0.0006192455749380965,0.0029723232935235586,0.017385100826250163,0.9859534912695602
2016-02-22,-1,-7.657978080042205e-05,-4.8733243364801926e-05,-0.00025221754370024715,0.014839070592070902,0.988463015637727
2016-02-24,1,0.000748391935005332,0.0008408618067674743,-0.0018860167371159845,0.014839070592070902,0.9890342940413178
2016-02-26,1,0.0015839672718409741,0.001803955365143657,-0.0018860167371159845,0.01400195129610068,0.9896568017684245
2016-03-01,1,0.0029685133187739026,0.003434159724666676,-0.0018860167371159845,0.01162567088992051,0.9903403893581976
2016-03-03,1,0.0037947978136304693,0.004450969301486952,-0.0015909232995270175,0.016566489919266573,0.9897635535396989
2016-03-07,1,0.00385778763146782,0.004499592619039351,-0.0016757241608985661,0.014578104686889342,0.9903431812198938
2016-03-09,1,0.002773078824416998,0.0031596551165209014,-0.0016757241608985661,0.014578104686889342,0.9899645445431756
2016-03-11,1,0.0047423635920457955,0.0054710985457752355,-0.0016757241608985661,0.012423423055874926,0.9918566027883716
2016-03-15,1,0.005361691440872878,0.006150975988241484,-0.0016757241608985661,0.011727553345180369,0.9921041379716604
2016-03-17,1,0.00692488440442107,0.00799988808124967,-0.002010531709105982,0.009456012805212717,0.9925957567600794
2016-03-21,1,0.006493345263212156,0.007229551144260469,-0.0016757241608985661,0.011054955031993295,0.9922485166469461
2016-03-23,1,0.0067464212084166605,0.007618973039732298,-0.0026899991120079175,0.011054955031993295,0.9921972014903154
2016-03-28,1,0.007023614318927443,0.007937596347859252,-0.005620907181799523,0.00965935326748052,0.991500801380561
2016-03-30,1,0.007293973150760712,0.008137166200869638,-0.0066273118672667015,0.00965935326748052,0.9892132965349376
2016-04-01,1,0.007788452704540902,0.008649554763860035,-0.007307083403319709,0.0054622647051347185,0.9878277341116438
2016-04-05,1,0.0066268325786490775,0.007295362974916094,-0.0066273118672667015,0.007174297296990414,0.9890666274348505
2016-04-07,1,0.006722520027978047,0.00743642042237813,-0.0066273118672667015,0.006999960689665439,0.9890543666765359
2016-04-11,1,0.006030902931327482,0.006542431623474681,-0.007307083403319709,0.0033283865097748938,0.9887219214150504
2016-04-13,1,0.0071814773554140544,0.007920522580587952,-0.008943612827085001,0.0016693385292193004,0.986318020127677
2016-04-15,1,0.007070524434082528,0.007829331542934232,-0.009250384680714078,0.0011735147141020258,0.9855997170821788
2016-04-19,1,0.007738376076087796,0.008619853485001492,-0.009250384680714078,0.0009207886374825542,0.9850787379559723
2016-04-21,1,0.007369869776867329,0.008225044857708206,-0.011329832030749677,0.002777362164216358,0.98543125958245
2016-04-25,1,0.006284737594868788,0.006924397688600264,-0.011329832030749677,0.0029565180513668144,0.9863214723789023
2016-04-27,1,0.005353284087620585,0.005853115715486218,-0.009250384680714078,0.004683270477197715,0.9874393053961875
2016-04-29,1,0.0047611981732388845,0.005171841842532182,-0.009250384680714078,0.007879224462767245,0.9880803778894818
2016-05-03,1,0.004640363120839054,0.004991409965581501,-0.009250384680714078,0.004683270477197715,0.9885269605296841
2016-05-05,1,0.004124671527716672,0.004299738529834896,-0.00776572669820889,0.003653039030083834,0.9887181451160318
2016-05-09,1,0.002803540987208342,0.0028747022332923262,-0.00705696508805846,0.0075283431295960195,0.989043995098228
2016-05-11,1,0.0034154280403876497,0.0035471391684935545,-0.00705696508805846,0.007638633351456425,0.9896552321783942
2016-05-13,1,0.0011806198068109782,0.0014650096694244124,-0.007447985886324353,0.007638633351456425,0.989795655933833
2016-05-17,1,0.0022991309364885797,0.002389066567288507,-0.007447985886324353,0.006460169674617242,0.9901163437253863
2016-05-19,1,0.002109668575744751,0.0022064854656890327,-0.007447985886324353,0.007261482551458316,0.9902805881661996
2016-05-23,1,0.0014961650291023657,0.001666163319562924,-0.00718781271341995,0.009151209804512922,0.9901239180222104
2016-05-25,1,0.002099523428842705,0.002253775451794197,-0.00718781271341995,0.007261482551458316,0.9919562934194204
2016-05-27,1,0.0010852112925136973,0.0012426245809415391,-0.008532141245100195,0.0061356060285920454,0.9862333945139286
2016-06-01,1,0.00020281930177084792,0.0005000900647286008,-0.008532141245100195,0.009151209804512922,0.9836604073485077
2016-06-03,-1,-0.0008475899139962027,-0.0003890461308728402,-0.008532141245100195,0.013119375892036563,0.9830117130137622
2016-06-07,-1,-0.0013485665028923166,-0.0007561200858555793,-0.010974319861416235,0.012675390736803722,0.9825355104521252
2016-06-09,-1,-0.001076956717594067,-0.0004961612759584819,-0.010974319861416235,0.012675390736803722,0.9823018544536698
2016-06-13,-1,-0.0022327079827471606,-0.0015389827521762182,-0.0014164440025004254,0.012675390736803722,0.9822237671157783
2016-06-15,-1,-0.0019410092514225844,-0.0013172072587282352,-0.0004714735328700852,0.012675390736803722,0.982546532384876
2016-06-17,-1,-0.0019389111635266794,-0.0013234504076777638,0.0018269862768705235,0.014476828306463865,0.9821413868546831
2016-06-21,-1,-0.0026668693129758086,-0.0019118680495382964,0.003100698549472818,0.015447591854097822,0.9807382499372824
2016-06-23,-1,-0.0022422687522009,-0.0015624863080825249,0.0018269862768705235,0.017009036766446745,0.9801104893121895
2016-06-27,-1,-0.005500427691269408,-0.004455968587253537,0.00341089595192219,0.017009036766446745,0.9834397073177366
2016-06-29,-1,-0.002860582817925271,-0.0021245086898130598,0.003101999685507791,0.014476828306463865,0.9877028599840264
2016-07-01,-1,-0.0022485376480917054,-0.0016053822776320194,0.0002761804164954984,0.014169069422515251,0.9891956210688975
2016-07-06,-1,-0.0037804718958600117,-0.0028634702627844556,-0.0003769004778564531,0.010456063912902661,0.9891517618428086
2016-07-08,-1,-0.0022260689931551145,-0.0015660570157486477,-0.0003769004778564531,0.008172415451687672,0.9910637382327262
2016-07-12,-1,-0.0013582662703718875,-0.0008479726145598559,-0.001264655414523478,0.007991684996814666,0.9922918520612498
2016-07-14,-1,-0.0006859220133825703,-0.0003386716099471448,-0.001525767484374382,0.007991684996814666,0.9919349806451868
2016-07-18,1,1.2349887742712498e-06,0.00024407861350484036,-0.00537140448643958,0.007378091505074406,0.9925054768483462
2016-07-20,1,0.0011569605562050376,0.0012429974630378056,-0.006012969989645584,0.002229504183342483,0.9929036332427136
2016-07-22,1,0.0020605635383298348,0.0021113185620645716,-0.006655471828154269,0.002229504183342483,0.9930256706032403
2016-07-26,1,0.0021913217094064975,0.0022539968429716077,-0.006655471828154269,0.0037432899157971715,0.9930486241119793
2016-07-28,1,0.0022427624380353586,0.0023089390943963704,-0.008454541701303952,0.0018276648528157695,0.9916914213661151
2016-08-01,1,0.001862400025645578,0.001870908627526122,-0.008454541701303952,0.001996462726128889,0.9921290421373052
2016-08-03,1,0.0019001098805627868,0.001958736281539979,-0.006925395239280505,0.001996462726128889,0.9924902940371271
2016-08-05,1,0.002213957362822528,0.002344955057439482,-0.006925395239280505,0.0018296267128961707,0.992203409457028
2016-08-09,1,0.0025358956537902422,0.0027996186899824074,-0.006925395239280505,0.0027123927920982595,0.9914418865916736
2016-08-11,1,0.002086087721092006,0.0022851871435292494,-0.009436598567229096,0.0027123927920982595,0.9879194681990389
2016-08-15,1,0.0014763259230551606,0.0015767323185572454,-0.010346416750517314,0.003871523836089752,0.9869715042426065
2016-08-17,1,0.001195805144711418,0.0012822132363538032,-0.012227820931109617,0.0047310000496944464,0.986908749072505
2016-08-19,1,0.0011724344421624009,0.00125194835181942,-0.014259227831080303,0.0038262431552331874,0.9869245394901849
2016-08-23,1,0.0021919402345923333,0.0024683904193057785,-0.014259227831080303,0.0027123927920982595,0.9863575000583253
2016-08-25,1,0.0010502922777744488,0.0011390732095258867,-0.013506775481998377,0.0038262431552331874,0.9870775281776168
2016-08-29,1,0.001117131938717856,0.0012105105128278112,-0.013506775481998377,0.006065158721413805,0.9860283035552599
2016-08-31,1,0.0009423050198738338,0.00103675518759658,-0.013506775481998377,0.006065158721413805,0.9860520558549412
2016-09-02,1,0.0011704504323389931,0.0013404727060070906,-0.013506775481998377,0.010474555650615199,0.9858215131624738
2016-09-07,1,0.0018004613960476636,0.0020402899019001134,-0.013506775481998377,0.010471985446672013,0.9862081976337748
2016-09-09,-1,-0.0007721977925018776,-0.0007033689553774289,-0.012281479037039151,0.011280081653206514,0.9894219327695409
2016-09-13,-1,-0.0005229490395047742,-0.00047094401014495215,-0.011842246420980291,0.010471985446672013,0.9905794066273063
2016-09-15,-1,-0.0006175113973609515,-0.0005468559641003645,-0.01016590295733825,0.010471985446672013,0.9914921879721437
2016-09-19,-1,-0.002535720802548278,-0.002219037534185046,-0.008846822377083051,0.011280081653206514,0.9915063508123826
2016-09-21,-1,-0.0024358825470631932,-0.002102576894179531,-0.005717565959140146,0.011280081653206514,0.9911643766672423
2016-09-23,-1,-0.002324818220090097,-0.002026609791174353,-0.003564609248497685,0.011280081653206514,0.9918722470335973
2016-09-27,-1,-0.0018124046386483045,-0.0016139581815941772,-0.003564609248497685,0.011280081653206514,0.987198627078875
2016-09-29,-1,-0.002452394512819806,-0.002088846203344233,-0.006263948806670061,0.011280081653206514,0.9864901130724874
2016-10-03,-1,-0.0023925787474429255,-0.0020012370453451386,-0.007924077909977456,0.011748792214281389,0.9859066785385565
2016-10-05,-1,-0.002326690152125937,-0.001915699172005354,-0.007924077909977456,0.008303538599372464,0.9862275433131735
2016-10-07,-1,-0.0024689094345221358,-0.0020629158722434084,-0.004970290943353215,0.007993189475123931,0.9867810337249114
2016-10-11,-1,-0.002746026603794369,-0.0022987494006054144,-0.0029063276416941425,0.01401937759341367,0.9853123767111694
2016-10-13,-1,-0.003145113445966744,-0.002624450416959816,-0.0029063276416941425,0.018185477329091825,0.9829447322300843
2016-10-17,-1,-0.00216726275271959,-0.0018322075860114336,-0.004970290943353215,0.018185477329091825,0.9835593061027663
2016-10-19,-1,-0.0011963890449472163,-0.000986628791576431,-0.00803260934138136,0.015219744565239675,0.9836077092539353
2016-10-21,-1,-0.0009473455277061947,-0.0007751406128913086,-0.012285448149093789,0.015219744565239675,0.9830960704502143
2016-10-25,-1,-0.003106258255477076,-0.0026664434832381735,-0.00803260934138136,0.014095128584540696,0.9872608506856277
2016-10-27,-1,-0.0029199112751802786,-0.0025357128685384624,0.0009156489613153437,0.014095128584540696,0.9876639271391374
2016-10-31,-1,-0.0021808945949508525,-0.0019019777100910216,0.0009156489613153437,0.012442465723216188,0.9882258900601891
2016-11-02,-1,-0.002633255581067432,-0.002260411368184554,-0.0018343382717193745,0.012442465723216188,0.9881939364721172
2016-11-04,-1,-0.0020397490715543935,-0.0017400310534118751,-0.0018343382717193745,0.015219744565239675,0.9869010274947004
2016-11-08,-1,-0.0009728682018488128,-0.0008023416600715567,-0.004389351579279136,0.015219744565239675,0.9876225817261419
2016-11-10,1,0.0004824376836342457,0.0004841243595892848,-0.007370073473631031,0.008912775118195207,0.9893216579690625
2016-11-14,1,5.4349274199673876e-05,9.791867597925363e-05,-0.004389351579279136,0.011812040097150207,0.9886547652160397
2016-11-16,-1,-0.002009609391909844,-0.00154332637426586,-0.007370073473631031,0.010948744047420056,0.9887417151276404
2016-11-18,-1,-0.0007184938451749863,-0.000499274310177226,-0.004389351579279136,0.010948744047420056,0.9896998210651546
2016-11-22,1,0.0003614157914761779,0.0004249628563526335,-0.004389351579279136,0.01503280042790151,0.9891138677255844
2016-11-25,1,0.000542105864359785,0.0005860741524412297,-0.004389351579279136,0.01503280042790151,0.989342141100688
2016-11-29,1,0.0006778549828042755,0.0006988437100175455,-0.0037769341034449054,0.01503280042790151,0.9898561962623434
2016-12-01,1,0.0006432431875520733,0.0006845988520390219,-0.0037769341034449054,0.01503280042790151,0.9897723698571778
2016-12-05,1,0.002108098662427313,0.002341978831751809,-0.0037769341034449054,0.011660620942077772,0.9914711640728753
2016-12-07,1,0.0030508391076665524,0.0034447901808169735,-0.0012541252268508706,0.009759964586574623,0.9929242715852179
2016-12-09,1,0.0034458553912538464,0.00395169154758869,-0.0012541252268508706,0.011299914872065383,0.9919778386187084
2016-12-13,1,0.004882962724766141,0.005618916457273274,-0.004271525979315517,0.0071220227859417826,0.9920996783967025
2016-12-15,1,0.004208207728890045,0.004879623253203125,0.000442539231969059,0.0071220227859417826,0.993916799605933
2016-12-19,1,0.0045562463803083325,0.005296212243231446,-0.0011715027497684728,0.0071220227859417826,0.993587012616531
2016-12-21,1,0.005657332731833695,0.006534958698954506,-0.0011715027497684728,0.0054902294751418765,0.994072943686506
2016-12-23,1,0.005475112068302614,0.006286844015836809,-0.0005632610188524896,0.006926692758636758,0.99431232024056
2016-12-28,1,0.005392596614247444,0.00620605784194078,-0.004190006751898627,0.006480057462547217,0.989340503048336
2016-12-30,1,0.005294745979550004,0.006094579579870661,-0.0011330025837600944,0.006926692758636758,0.9890736229755317
2017-01-04,1,0.0056828097800554955,0.006505998091592023,-0.0045029794729290655,0.005405915515629813,0.9877349596848561
2017-01-06,1,0.005454797249905458,0.006222318767091388,-0.005571576203178789,0.006926692758636758,0.9873723655985076
2017-01-10,1,0.0047617651395912095,0.005405994562186,-0.0045029794729290655,0.005405915515629813,0.9892471885975206
2017-01-12,1,0.004719279053476067,0.005359535422844835,-0.0045029794729290655,0.005405915515629813,0.9894077055104269
2017-01-17,1,0.0052671814027025286,0.006014288236709884,-0.0045029794729290655,0.005734425372851851,0.9888454758171538
2017-01-19,1,0.00462726925499604,0.005230141077727896,-0.0037095044283722103,0.006926692758636758,0.9889704902975269
2017-01-23,1,0.004885562429864597,0.005525308419468612,-0.0037095044283722103,0.007661853211155526,0.9886271372727496
2017-01-25,1,0.005110008448170019,0.0057429443893219035,-0.0037095044283722103,0.005780372345652281,0.9884330264212523
2017-01-27,1,0.002861999994396075,0.0031838653510700286,-0.003107864480603833,0.005780372345652281,0.9937135559178225
2017-01-31,1,0.004053882822293912,0.004578120099933651,-0.0031354274020547637,0.004954036107056921,0.993892651640524
2017-02-02,1,0.00175253353780028,0.0018273615705232354,-0.0024925681179720936,0.004954036107056921,0.9953353786890684
2017-02-06,1,0.00185301760265364,0.001939333721084001,-0.0024925681179720936,0.0035380682919857976,0.9953475705372571
2017-02-08,1,0.0018077937310135308,0.001870093270968059,-0.0024925681179720936,0.0030631588432226222,0.9954516984059191
2017-02-10,1,0.0012859914159942944,0.0013356895498328894,-0.0024925681179720936,0.004169255794890984,0.9952502385333521
2017-02-14,1,0.0012390621973449043,0.001280361564977598,-0.0024925681179720936,0.0033394849499351164,0.9951490354590018
2017-02-16,1,0.0013334855255322338,0.001382956983076999,-0.0031079421078392525,0.0029219235932402277,0.9943988174159601
2017-02-21,1,0.0017419359407627507,0.0017422815463134724,-0.003494697369895162,0.0021947874946268435,0.9945715112514074
2017-02-23,1,0.0013504991673106942,0.0014357610191355593,-0.005038541804440843,0.0009020609685334576,0.9944751731297122
2017-02-27,1,0.0009866115461206707,0.0011039688383564312,-0.003494697369895162,0.0009020609685334576,0.995026996708228
2017-03-01,1,0.0008433381829546781,0.0009642190779372698,-0.0027218786884577527,0.0021947874946268435,0.9951007974506321
2017-03-03,1,0.00044445443913583723,0.000624506957577125,-0.004787881378600608,0.002782689938503476,0.9947589771368192
2017-03-07,-1,-0.0005116900028174636,-0.00019514375271173251,-0.004787881378600608,0.002782689938503476,0.9939828280559997
2017-03-09,-1,-0.0005845384286508721,-0.0002462140388126916,-0.004787881378600608,0.002782689938503476,0.9938157430020412
2017-03-13,-1,-0.00029255418421033524,-7.077558127375995e-06,-0.004787881378600608,0.0011903750634810564,0.9941002972250037
2017-03-15,0,-0.00024264261695626749,5.195120657565367e-06,-0.003813240214473733,0.0012439637616212464,0.9943850516621968
2017-03-17,-1,-0.0010419326046174403,-0.0007037746591101184,-0.0030590296509662024,0.003603601523845567,0.995238641508245
2017-03-21,-1,-0.002516502416942812,-0.001890058206352904,-0.0030590296509662024,0.004866220509368479,0.9942935831605938
2017-03-23,-1,-0.003907390873872384,-0.003054640417703068,-0.001692317052134167,0.006939603141287043,0.9934053305113434
2017-03-27,-1,-0.003876988474873814,-0.003049814593255111,-0.0013510782743968825,0.007635311064753267,0.9906343397293345
2017-03-29,-1,-0.0035456720780954153,-0.0027843391035349747,-0.0013510782743968825,0.00898235875620476,0.9898453654881693
2017-03-31,-1,-0.0034057576614225753,-0.002680815300745591,-0.0008702287921197334,0.00898235875620476,0.9901579427886625
2017-04-04,-1,-0.004080595340856698,-0.0033276494482560874,-0.0007774375427830162,0.009430024555092132,0.9901801677901549
2017-04-06,-1,-0.0026444887719528896,-0.002148002615937977,-0.0008702287921197334,0.008965490919567744,0.9908737671124977
2017-04-10,-1,-0.002976602940504139,-0.002410759434737701,-0.001405818409546442,0.008965490919567744,0.9904918308312194
2017-04-12,-1,-0.003082590757769587,-0.0024857415859350597,-0.001405818409546442,0.008965490919567744,0.9903286931420683
2017-04-17,-1,-0.003204311350369753,-0.002580164558211074,-0.001405818409546442,0.010033579932174335,0.98889660102591
2017-04-19,-1,-0.0025544300198365837,-0.0020369815012385183,-0.0032228806524081657,0.008965490919567744,0.9888134521122905
2017-04-21,-1,-0.0020566307283517897,-0.0015968499790313484,-0.005525233050127607,0.00971224467652496,0.9876812515990036
2017-04-25,0,-3.0460698535939002e-05,0.00022307452381891324,-0.005525233050127607,0.006042145335683681,0.9902438837534285
2017-04-27,1,0.0007962388163523668,0.0009739015859161038,-0.005525233050127607,0.004814073900189797,0.9912752757226689
2017-05-01,1,0.001732213472103645,0.0017587761800725446,-0.007251378098727624,0.006042145335683681,0.9899305479561528
2017-05-03,1,0.002159841784082585,0.002289389810974318,-0.007251378098727624,0.007586346971521847,0.9896108542714925
2017-05-05,1,0.0017186082642466508,0.001780064386547481,-0.0053137055979617445,0.010725889543732629,0.9897725503488948
2017-05-09,1,0.0019390728897177938,0.002078601848690452,-0.0053137055979617445,0.010725889543732629,0.9896114936612643
2017-05-11,1,0.0015394739355107125,0.001566834452985674,-0.0053137055979617445,0.010725889543732629,0.9891099492194331
2017-05-15,1,0.0019082587854580137,0.001990624760738047,-0.004503544873396121,0.010725889543732629,0.9901259046392301
2017-05-17,1,0.0013714967691647478,0.0014644339909029298,-0.0016290961149993686,0.01136491990595371,0.9909293794969857
2017-05-19,1,0.0012252568610800988,0.0013087325132136024,-0.00161613338891882,0.01136491990595371,0.992430375946225
2017-05-23,1,0.0016021342392882124,0.0017429284132247152,-0.0024167255937354516,0.01136491990595371,0.9919242071203569
2017-05-25,1,0.0012340676233527552,0.0013088172309937865,-0.0024167255937354516,0.01136491990595371,0.9902385286122494
2017-05-30,1,0.0021808642119773023,0.002425416660829774,-0.0024167255937354516,0.010877759975516987,0.9907005186377746
2017-06-01,1,0.003105982478775738,0.0034798034919263088,-0.00295268093462017,0.010090036436064617,0.9912157392550017
2017-06-05,1,0.0035054871030804832,0.0039050214264951697,-0.00295268093462017,0.007723021655232294,0.990981325005854
2017-06-07,1,0.0029286409831958274,0.0032486146585059147,-0.00295268093462017,0.007723021655232294,0.9909153666227178
2017-06-09,1,0.0032569430747804167,0.003633899743739135,-0.00295268093462017,0.007927212938308902,0.9909214807428748
2017-06-13,1,0.0036608128923311884,0.004082959177757091,-0.004939577817625346,0.006585932492219447,0.9911650359015325
2017-06-15,1,0.004129161996955103,0.004630814811745187,-0.004939577817625346,0.00557560556671625,0.991412894164413
2017-06-19,1,0.004457867247505286,0.00502637492625912,-0.004939577817625346,0.006585932492219447,0.9910267058724038
2017-06-21,1,0.0027026448388256397,0.0029026692636298815,-0.004037406730189286,0.007927212938308902,0.9896527656278824
2017-06-23,1,0.001989567106621109,0.0021637135755840165,-0.0034793969929735845,0.00855309423526104,0.9909342681959211
2017-06-27,1,0.0015449790906392129,0.0016124350621321555,-0.002983985628742339,0.006794559591203493,0.9915318647670547
2017-06-29,1,0.0017443477944168164,0.001840282733084364,-0.0044754821627761504,0.006794559591203493,0.9884810248049776
2017-07-03,1,0.0025604897883497765,0.002776839859097333,-0.006438918624089395,0.00557560556671625,0.9887743657528113
2017-07-06,1,0.001981329488670696,0.002118532895108726,-0.0044754821627761504,0.0047530001096013665,0.9896388004466432
2017-07-10,1,0.002575885060937383,0.0027896681396857117,-0.0044754821627761504,0.0047530001096013665,0.9896697174170345
2017-07-12,1,0.0024733887812642256,0.0026893518830171715,-0.0044754821627761504,0.003752649270520655,0.9891762960095112
2017-07-14,1,0.002623991412776496,0.0028900334890629587,-0.006438918624089395,0.003752649270520655,0.9880742790194296
2017-07-18,1,0.003349704850972892,0.003719646162707581,-0.006438918624089395,0.0035483315747171238,0.9876610494173697
2017-07-20,1,0.0020045561600776102,0.0021701285798681642,-0.006438918624089395,0.0035483315747171238,0.9898454513067059
2017-07-24,1,0.002234878007066588,0.002416891441787046,-0.009517918375095743,0.0014319760580645822,0.9891379165334627
2017-07-26,1,0.0019704138176801517,0.002110753745551047,-0.009517918375095743,0.0014319760580645822,0.9889682108371235
2017-07-28,1,0.00034204797450717244,0.00043824827740452174,-0.007958413011298727,0.003732101543773351,0.9923170772376628
2017-08-01,0,-3.5649108317804443e-05,9.558960500771654e-05,-0.006599034675345436,0.003732101543773351,0.9926606353297661
2017-08-03,1,7.249594410130625e-05,0.00017843642712630706,-0.006599034675345436,0.005627304645945845,0.9918073818133882
2017-08-07,1,0.0003463755501414676,0.0004338161525514268,-0.007032698330546219,0.005627304645945845,0.9916188658909666
2017-08-09,-1,-0.001000142093392555,-0.0007189012391824701,-0.007519635590784975,0.005627304645945845,0.9921285156878855
2017-08-11,-1,-0.0019025390616276073,-0.001491926286194617,-0.006798551909024161,0.007952344281936592,0.9917669015645364
2017-08-15,-1,-0.0017773914106653528,-0.0013598969034047932,-0.006798551909024161,0.007952344281936592,0.9917037766219564
2017-08-17,-1,-0.0023875778465193747,-0.0018947411504964663,-0.006798551909024161,0.007952344281936592,0.9917697524299163
2017-08-21,-1,-0.00309570328447126,-0.002530056957181623,-0.005965821517574791,0.007952344281936592,0.9922019973870467
2017-08-23,-1,-0.0029003356712977366,-0.0023568696425105475,-0.005965821517574791,0.008135348034125372,0.9920804615244417
2017-08-25,-1,-0.0038621027628599116,-0.0031327943011809794,-0.004724410431174185,0.01220645181296856,0.9909592483522244
2017-08-29,-1,-0.0037594318131268546,-0.0030625117670077502,-0.004724410431174185,0.01384553546194965,0.9896708367071908
2017-08-31,-1,-0.0029506751698612074,-0.002348904968844677,-0.004724410431174185,0.01220645181296856,0.9901127390480735
2017-09-05,-1,-0.002941649707083824,-0.0023413467659014016,-0.004061590750114334,0.01220645181296856,0.9904561661779769
2017-09-07,-1,-0.003783779934715926,-0.0030861816330268205,-0.0031896634158033016,0.01220645181296856,0.9899127490046398
2017-09-11,-1,-0.0026897012213861235,-0.002134219072466416,-0.004724410431174185,0.011367385362301564,0.9912424538835178
2017-09-13,-1,-0.002086116831964844,-0.001611473982343798,-0.006340130931745775,0.0076626559643317525,0.9914731629562961
2017-09-15,-1,-0.0016743173208961148,-0.0013430522798575481,-0.004465150027310601,0.009924058013222629,0.9917339755048241
2017-09-19,-1,-0.0010397145276361398,-0.000842745116146494,-0.004870192696293388,0.009924058013222629,0.9915642909956904
2017-09-21,-1,-0.0006774761685462809,-0.0005207838689600681,-0.004084685496603551,0.0073351042703831285,0.9919272168382266
2017-09-25,1,0.000525044563122692,0.0005310436379974384,-0.004084685496603551,0.006507715590954664,0.9919848786505163
2017-09-27,1,0.001436256443465474,0.001506228140969032,-0.011307728705198408,0.005172212676640109,0.9874655686681729
2017-09-29,1,0.0017860839660831357,0.0018866825737396335,-0.011307728705198408,0.0036422540669942857,0.9878040227747534
2017-10-03,1,0.0019204294278544493,0.0020466126044892683,-0.011307728705198408,0.0036422540669942857,0.9876219849352265
2017-10-05,1,0.0013314251601506647,0.0013965676875372169,-0.008477153624201976,0.0031272465612232664,0.9881302986085554
2017-10-09,1,9.43695191368351e-05,0.0002345375896944507,-0.0035496184017607705,0.0031272465612232664,0.9889912360205031
2017-10-11,-1,-0.0006448710863590525,-0.00041245243552103113,-0.0033295548746136248,0.0031272465612232664,0.9894248127911341
2017-10-13,0,-6.86939858567203e-05,7.904340267923858e-05,-0.004495559423609096,0.002812621611389416,0.9897899556253882
2017-10-17,-1,-0.0008022423804512044,-0.0005572219592791275,-0.004168151554920641,0.002812621611389416,0.9901327160505635
2017-10-19,-1,-0.0001562805730378084,-1.5555776835890912e-05,-0.004168151554920641,0.0031269403016636194,0.990017001096851
2017-10-23,1,0.0013988240011370957,0.0015008762905312884,-0.004168151554920641,0.0031269403016636194,0.9902699131429458
2017-10-25,1,0.0006099609252135133,0.0006496633654953273,-0.003049983776512043,0.0035407244224090265,0.9942709573504377
