JNU-Tangyin/eata/results/Batch4_SP500/Batch4_SP500-UNP.csv
Date,Action,Predicted_Q25,Predicted_Q75,Actual_Q25,Actual_Q75,RL_Reward
2010-12-14,0,0.0,0.0006338227344540425,-0.0018324455764648397,0.0072120903250370485,0.9934342588615148
2010-12-16,1,0.0013958938840104337,0.0014057302774498493,-0.0032120162051804285,0.007284156293963825,0.9929590263078577
2010-12-20,0,0.0,0.0,-0.0037582609099649,0.007284156293963825,0.993011125309252
2010-12-22,0,0.0,0.0,-0.004574819830588105,0.006323145327982097,0.9922367520577046
2010-12-27,1,0.0007647370917965733,0.0007791301299799903,-0.005221239819345117,0.006323145327982097,0.9916782757076728
2010-12-29,1,0.0003876355448125231,0.0004485895999492217,-0.005221239819345117,0.009966943483611018,0.9907768876855647
2010-12-31,1,0.001213152123176158,0.0012243953722259114,-0.005888632381246988,0.011250102905616937,0.9895347592512627
2011-01-04,1,0.0002897296139267562,0.00045724442147176,-0.006451225416231996,0.010101152383300314,0.9895088030452834
2011-01-06,-1,-0.00036373626936886156,-9.119737426377362e-05,-0.006729962991849513,0.010101152383300314,0.9892431627552434
2011-01-10,1,0.0017792205516362048,0.0018112686097796235,-0.006729962991849513,0.007321848431945781,0.991118047538652
2011-01-12,0,0.0,0.0,-0.006729962991849513,0.00873649835537767,0.9903029934886497
2011-01-14,0,0.0,0.0,-0.006729962991849513,0.00925369076250584,0.9899493572921731
2011-01-19,0,0.0,0.0,-0.005774142385170133,0.00925369076250584,0.9901934823331711
2011-01-21,0,0.0,0.0,-0.005623650231373435,0.00925369076250584,0.9911855350340616
2011-01-25,0,0.0,0.0,-0.006277546668855982,0.00925369076250584,0.9896114295780241
2011-01-27,1,0.0012109813418481029,0.0012409927698486395,-0.006277546668855982,0.00786935623376181,0.9901745890823832
2011-01-31,0,-0.0001837956395197868,2.3865640986015435e-05,-0.006277546668855982,0.00786935623376181,0.9895072299370994
2011-02-02,-1,-0.0006317156118517041,-0.0003500374959189271,-0.005623650231373435,0.012796614321252425,0.9890080229480084
2011-02-04,-1,-0.0005473227712684398,-0.00028973684457150796,-0.005848316939441768,0.012796614321252425,0.989188441309444
2011-02-08,0,0.0,0.0,-0.007310983518236851,0.013611784604237728,0.9880095881514259
2011-02-10,0,0.0,0.0,-0.009025936969098688,0.012796614321252425,0.9883273828753769
2011-02-14,0,0.0,0.0,-0.010868836933760524,0.008822063234704376,0.9884194393506001
2011-02-16,1,0.000473320329157108,0.0005643967786678377,-0.011394060725292872,0.012796614321252425,0.9867917377131528
2011-02-18,0,0.0,0.0,-0.011394060725292872,0.013611784604237728,0.9857878288403591
2011-02-23,-1,-0.0021894775128389046,-0.0017063359033247536,-0.010868836933760524,0.013611784604237728,0.987014633669625
2011-02-25,-1,-0.0022558288301382803,-0.0017162702480263106,-0.010868836933760524,0.015657137184437234,0.9859370419011663
2011-03-01,0,0.0,0.0,-0.00900359368198508,0.015657137184437234,0.9871769294371378
2011-03-03,-1,-0.0004135251397385742,-0.0002206154383313677,-0.009846489583384292,0.013614425944363327,0.9880819046327706
2011-03-07,-1,-0.0012941305362530776,-0.0009605503589246123,-0.009846489583384292,0.013614425944363327,0.9882896376789753
2011-03-09,-1,-0.0005480279353617198,-0.0003470032753110482,-0.008538902912987452,0.012394135575615847,0.9893218611926239
2011-03-11,-1,-0.0009859090024049726,-0.000715291461998122,-0.008761703549068009,0.012394135575615847,0.9894488318812963
2011-03-15,-1,-0.0017732050571628805,-0.0014099386911817777,-0.008311081128751731,0.012611853018147483,0.9894773276107083
2011-03-17,-1,-0.0013919787696426407,-0.0010814779089272889,-0.007680710511615594,0.012262643967534122,0.9909941863923786
2011-03-21,0,-8.774700001465912e-05,5.230258155704536e-05,-0.008311081128751731,0.006051504854456098,0.9913370509517111
2011-03-23,-1,-0.0016888250349760096,-0.0013260916588598405,-0.008311081128751731,0.006599569396226886,0.9916487896961997
2011-03-25,1,0.0005217334786166767,0.0005653787375805841,-0.008311081128751731,0.005239425601163661,0.9931237311182074
2011-03-29,1,0.001359884204665809,0.0014678517423836128,-0.008311081128751731,0.006599569396226886,0.9913872475655544
2011-03-31,1,0.0011601049622851725,0.0012418937157991157,-0.005197737827716777,0.009223249457482069,0.991386571354687
2011-04-04,1,0.0009812510362610394,0.0010164229706771015,-0.005197737827716777,0.009223249457482069,0.991464900369755
2011-04-06,1,0.0005846490506674593,0.0005917192839495032,-0.004580990482326702,0.010040553688562867,0.9899254282133032
2011-04-08,-1,-0.00014161371800172645,-5.261014157971873e-05,0.000926714230990994,0.010040553688562867,0.9902403065073743
2011-04-12,0,0.0,0.0,0.000926714230990994,0.010040553688562867,0.9891108860055186
2011-04-14,0,0.0,0.0,-0.0034306452775139293,0.010040553688562867,0.9885858119814537
2011-04-18,-1,-0.00032187037472204406,-0.00021832439559996126,-0.0032146361971549754,0.010040553688562867,0.9888769577417346
2011-04-20,-1,-0.0006775903683984299,-0.0004847904873296736,-0.00015128107220352817,0.010963107772833809,0.9881413527213592
2011-04-25,0,0.0,0.0,-0.004887198100559052,0.010963107772833809,0.9882910835380024
2011-04-27,0,0.0,0.0,-0.004887198100559052,0.008047722296802033,0.9901985049137856
2011-04-29,1,8.368228967939204e-05,0.00011829670326104934,-0.004887198100559052,0.006687675604294008,0.9905837740708003
2011-05-03,1,0.00020152195699977166,0.00023949509674852444,-0.008832213144759987,0.008047722296802033,0.9881656303680456
2011-05-05,0,0.0,0.0,-0.00847853212137763,0.008047722296802033,0.9890519266189053
2011-05-09,-1,-0.00035790724864542573,-0.0003301305854669127,-0.010131000452549692,0.008047722296802033,0.9886496562619529
2011-05-11,0,0.0,0.0,-0.009425125669209816,0.008047722296802033,0.9893673769414675
2011-05-13,0,0.0,0.0,-0.009425125669209816,0.00999378714977154,0.9889954996411834
2011-05-17,0,0.0,0.0,-0.009425125669209816,0.010360848431143784,0.9882572514673226
2011-05-19,0,0.0,0.0,-0.009425125669209816,0.010360848431143784,0.9888000703248286
2011-05-23,0,0.0,0.0,-0.009425125669209816,0.010918692395678399,0.987998525771232
2011-05-25,-1,-0.0003836254892636541,-0.00038275871796716133,-0.009570593942400715,0.010918692395678399,0.9878715180010667
2011-05-27,0,0.0,0.0,-0.010131000452549692,0.010918692395678399,0.9875815439155997
2011-06-01,0,0.0,0.0,-0.009570593942400715,0.012383078474854835,0.9887230467520058
2011-06-03,1,0.00021329771312104782,0.0002568264003541891,-0.009286597322393012,0.012761056656388858,0.9881747187955541
2011-06-07,1,0.00131618438143983,0.0014908362406841494,-0.009286597322393012,0.012761056656388858,0.9882290044337156
2011-06-09,0,0.0,0.0,-0.009509420343927742,0.012383078474854835,0.9881610768591295
2011-06-13,0,0.0,0.0,-0.009694839339347786,0.012383078474854835,0.9880673466180401
2011-06-15,0,-9.177328760353053e-05,9.372255414174298e-06,-0.009694839339347786,0.012383078474854835,0.988605135499288
2011-06-17,0,0.0,0.0,-0.009694839339347786,0.010783031054841852,0.9893371897204729
2011-06-21,0,0.0,0.0,-0.009694839339347786,0.008294548678830591,0.990339312682338
2011-06-23,-1,-0.0004022989735769725,-0.0003599043366559201,-0.009694839339347786,0.009488857369934043,0.9884455946727729
2011-06-27,-1,-0.0011731004899710404,-0.001028436984431942,-0.009694839339347786,0.010779939905635375,0.9882179047755565
2011-06-29,0,-6.234799847135076e-06,1.2333840684090544e-06,-0.010024021564485302,0.008740660627836759,0.9884179600559488
2011-07-01,1,0.0014407332819436022,0.001637828001875926,-0.011007953876528493,0.002430466758227475,0.9886996014419521
2011-07-06,1,0.0018293069503577811,0.002128277348333354,-0.012086923521990735,0.002140762562499395,0.9872642580722252
2011-07-08,1,0.0012769530008795624,0.0014912228578304334,-0.012086923521990735,0.002140762562499395,0.9856837609174358
2011-07-12,-1,-0.00021966805230591,-0.00017549541711989785,-0.012086923521990735,0.007425436091646351,0.9825739746315728
2011-07-14,-1,-0.0005032368725143086,-0.0004984977870726209,-0.012226408768068235,0.00767561787084754,0.9802808497132383
2011-07-18,-1,-0.0013862192153662233,-0.0011632937311964373,-0.012226408768068235,0.009671385031472914,0.9795735765821139
2011-07-20,-1,-0.0013411457585750866,-0.0011467083337648397,-0.017171234604779068,0.009671385031472914,0.9785292061325712
2011-07-22,0,-9.644110812396319e-05,1.553927162322474e-05,-0.027137446712932674,0.008406704269917785,0.9775802167567039
2011-07-26,0,0.0,0.0,-0.027137446712932674,0.008406704269917785,0.9770029023185653
2011-07-28,0,0.0,0.0,-0.027137446712932674,0.0073544869313071975,0.9774940101450899
2011-08-01,-1,-0.00032320558187752746,-0.00017612482426489304,-0.027137446712932674,0.012220900041464228,0.9771315812821798
2011-08-03,-1,-0.0016300920558890825,-0.001320360404292461,-0.011232834574479992,0.012842819968291463,0.9778842397812171
2011-08-05,-1,-0.003339155370252714,-0.0027991658673349705,-0.012527031627655056,0.012842819968291463,0.9786456970044748
2011-08-09,-1,-0.0033861743893563844,-0.00285012889672531,-0.007168413284162217,0.012630576475811709,0.982594393642995
2011-08-11,-1,-0.0020400829320344014,-0.001707136907976372,-0.010610217779976255,0.012220900041464228,0.9838313215029469
2011-08-15,-1,-0.0023005088727319793,-0.0018866463582972446,-0.011314577368554634,0.012630576475811709,0.9827550926210611
2011-08-17,-1,-0.0022435819979676735,-0.0019081062919328255,-0.008697396866863409,0.01449094446009979,0.981857227295033
2011-08-19,-1,-0.0039759559116479964,-0.0034665309256556314,-0.008697396866863409,0.01449094446009979,0.9834382043995732
2011-08-23,-1,-0.002716440662387959,-0.0023456279824816593,-0.014722927869529757,0.01376855419225781,0.9820615571820799
2011-08-25,-1,-0.003971742183557731,-0.003487533432163718,-0.014722927869529757,0.01376855419225781,0.9820299182618214
2011-08-29,-1,-0.0032166736464594326,-0.0028014484528311456,-0.014722927869529757,0.013854213982660532,0.9818124476929191
2011-08-31,-1,-0.0029779391402452024,-0.0025619458407266232,-0.01827319930183252,0.013854213982660532,0.9806555502084906
2011-09-02,-1,-0.004122876902578849,-0.0035918066816184825,-0.022082669745337534,0.013854213982660532,0.9796768978466263
2011-09-07,-1,-0.00345979824983345,-0.003021274448811362,-0.022082669745337534,0.023233844749334116,0.9765367122946486
2011-09-09,-1,-0.005513470567618748,-0.004826351651601996,-0.015943087063469103,0.024548506317075933,0.976555228415783
2011-09-13,-1,-0.004404816186878914,-0.0038394605845516972,-0.015943087063469103,0.024548506317075933,0.9765612817739355
2011-09-15,0,0.0,0.0,-0.01921040708793958,0.023233844749334116,0.9779713192730277
2011-09-19,-1,-0.002052970968133003,-0.0018670307960249575,-0.01935939994962656,0.023233844749334116,0.9769543102952111
2011-09-21,-1,-0.0042524908093333836,-0.0038440438044701083,-0.01626399393424393,0.02621304872046596,0.9778163201750903
2011-09-23,-1,-0.0038808209330772883,-0.003527905352136289,-0.01626399393424393,0.03475243296392719,0.9751149502091623
2011-09-27,0,0.0,0.0,-0.017895675648939693,0.03475243296392719,0.9760363456648556
2011-09-29,0,0.0,0.0,-0.016128335654100743,0.03537716064391741,0.9750753373897803
2011-10-03,0,0.0,0.0,-0.010011343354972613,0.03537716064391741,0.9767052089662763
2011-10-05,0,0.0,0.0,-0.016128335654100743,0.02744130816470667,0.9781973595091579
2011-10-07,0,0.0,0.0,-0.016128335654100743,0.025105418730779042,0.9789779471903771
2011-10-11,0,0.0,0.0,-0.016128335654100743,0.023744051574118526,0.980353586828023
2011-10-13,-1,-0.00016430196874243504,-8.122384778247606e-05,-0.016128335654100743,0.023744051574118526,0.9786722292685813
2011-10-17,0,-6.718210902402765e-05,4.588117517148583e-05,-0.008353875905558162,0.024942903411785178,0.9798447529673674
2011-10-19,1,4.818415177228652e-05,0.0002211508970129455,-0.007770773674838395,0.023706508477183075,0.9814986674852259
2011-10-21,1,0.0017965582695875224,0.0021276091182679713,-0.011326957411013914,0.02097935069780971,0.9839051413628661
2011-10-25,1,0.0016649399858689503,0.0020069537918169554,-0.011326957411013914,0.02097935069780971,0.9830069686921676
2011-10-27,1,0.003589325372605052,0.004176348001862938,-0.015664215459436977,0.00756894611283369,0.9842915539249859
2011-10-31,1,0.0036407074837330952,0.004305644625248295,-0.011326957411013914,0.013457637387795792,0.9844900608175421
2011-11-02,1,0.0024710802471676757,0.0028658550375464135,-0.009233787791248222,0.013457637387795792,0.9845030687665305
2011-11-04,1,0.0027454607830974124,0.003139561765554231,-0.009233787791248222,0.012949002198429843,0.9848364759490423
2011-11-08,1,0.0028697419630647376,0.003279771575375787,-0.011326957411013914,0.012949002198429843,0.9837993426703786
2011-11-10,1,0.0035759310262282696,0.004160481231527788,-0.011326957411013914,0.01176072017843435,0.9849195314259448
2011-11-14,1,0.003129127725052232,0.0036061505912939546,-0.011789677930503915,0.008102842994303087,0.985048701959942
2011-11-16,1,0.0024944346776515124,0.0028488617332718767,-0.01239422550934793,0.008102842994303087,0.9850819092444623
2011-11-18,1,0.0037094767795513095,0.0043202122066924725,-0.014355076519343736,0.008086728369464549,0.984517165815707
2011-11-22,1,0.003062937237504344,0.003667768783807139,-0.011955843301896125,0.014807872176085642,0.9850539331783552
2011-11-25,0,0.0,0.0,-0.006306868874720816,0.014807872176085642,0.985604166216009
2011-11-29,0,0.0,0.0,-0.011362470633473419,0.012864430728918306,0.9870370966179353
2011-12-01,0,0.0,0.0,-0.011362470633473419,0.011878586547503525,0.9886346220333587
2011-12-05,0,0.0,0.0,-0.011362470633473419,0.011878586547503525,0.9883496329256185
2011-12-07,0,0.0,0.0,-0.00827233625192004,0.011878586547503525,0.9887562421507913
2011-12-09,0,0.0,0.0,-0.0050103271842667505,0.01369695829077613,0.9887275925669861
2011-12-13,0,0.0,0.0,-0.0050103271842667505,0.01369695829077613,0.9888011671339846
2011-12-15,0,0.0,0.0,-0.0050103271842667505,0.01369695829077613,0.9889679650072898
2011-12-19,1,0.002906520407506284,0.0034853025243564767,-0.002636974678865189,0.017305454861659117,0.9903414780269235
2011-12-21,1,0.003824019002078958,0.004498627785819859,-0.0050103271842667505,0.011878586547503525,0.9914205312728721
2011-12-23,0,0.0,0.0,-0.0050103271842667505,0.010587386030912974,0.9903472387423096
2011-12-28,0,0.0,0.0,-0.002636974678865189,0.012318719933847339,0.9904398069593395
2011-12-30,0,0.0,0.0,-0.003223855619997128,0.012318719933847339,0.9908756682000708
2012-01-04,0,0.0,0.0,-0.003223855619997128,0.007095497137824388,0.9919112524640147
2012-01-06,1,0.0035482782662362503,0.003970378722408678,-0.0024167899590267026,0.011055971231973863,0.9916146728702211
2012-01-10,1,0.004137416750923711,0.004592652653253489,-0.0029629485090291573,0.005646506600461285,0.9921313447190784
2012-01-12,0,0.0,0.0,-0.004694325848025221,0.004948219694200126,0.9923799521316624
2012-01-17,0,0.0,0.0,-0.0029629485090291573,0.007095497137824388,0.9923803983180672
2012-01-19,0,0.0,0.0,-0.005915480146958295,0.004948219694200126,0.9917083977174
2012-01-23,0,0.0,0.0,-0.0036230682671152554,0.008021297473689994,0.9914008111102642
2012-01-25,0,0.0,0.0,-0.0036230682671152554,0.005256819806155328,0.9922865213200498
2012-01-27,0,0.0,0.0,-0.0036230682671152554,0.004973594772209457,0.9924894752979004
2012-01-31,1,0.0033907875691871502,0.0036346303015063384,-0.005915480146958295,0.004973594772209457,0.9907454574350758
2012-02-02,1,0.0022693858862064967,0.002301945830473288,-0.006586083934248054,0.0062680916405043465,0.990520811389266
2012-02-06,1,0.002370046430986362,0.002441372491720717,-0.010800297235435897,0.003509119597385873,0.9894798401362255
2012-02-08,1,0.002303560325506571,0.0024689695676756765,-0.010800297235435897,0.0077727662000512095,0.989178226620766
2012-02-10,1,0.0018209007925300868,0.0018350463436658938,-0.007324774285786963,0.0077727662000512095,0.9896009638959999
2012-02-14,-1,-0.0011530477523587614,-0.0006878029863386418,-0.012792298960863974,0.0077727662000512095,0.9883909854514965
2012-02-16,0,0.0,0.0,-0.007324774285786963,0.010205814992915686,0.9875464824381284
2012-02-21,0,0.0,0.0,-0.010785841483591959,0.006923091098213598,0.9882738945232646
2012-02-23,-1,-0.0007711933688154637,-0.00038447435779967,-0.012792298960863974,0.006923091098213598,0.9874687952999515
2012-02-27,-1,-0.0020355240159488546,-0.0014018960539099617,-0.012792298960863974,0.010205814992915686,0.9864589124521704
2012-02-29,-1,-0.001437742335457515,-0.001004239625797914,-0.012792298960863974,0.010205814992915686,0.9859283517637379
2012-03-02,0,0.0,0.0,-0.012792298960863974,0.005987967753678911,0.9861674240927778
2012-03-06,0,0.0,0.0,-0.011567357461383983,0.010618420689103382,0.9861957547984848
2012-03-08,0,0.0,0.0,-0.011567357461383983,0.005015237175159007,0.9869091749879128
2012-03-12,0,0.0,0.0,-0.012696038045953942,0.004613542888359503,0.9862093775615811
2012-03-14,0,0.0,0.0,-0.010663452874675513,0.006337883810449443,0.9866386367423405
2012-03-16,0,0.0,0.0,-0.010663452874675513,0.004613542888359503,0.988737339804597
2012-03-20,-1,-0.0003752798352517347,-0.0002739205310115935,-0.010663452874675513,0.006337883810449443,0.9886203997671851
2012-03-22,1,2.470678680418969e-05,3.711573173929618e-05,-0.010663452874675513,0.008425562870621486,0.9873229762666816
2012-03-26,1,5.224872218738115e-06,6.308952879621109e-05,-0.008349498994078138,0.011188150399461175,0.9874800318256433
2012-03-28,-1,-0.0016180476938493487,-0.0013788367235945131,-0.0052909636331573,0.014148392670889413,0.9872111348348823
2012-03-30,-1,-0.0009350621985447998,-0.0007778861470505607,-0.008064368819411766,0.014148392670889413,0.9868349568149581
2012-04-03,-1,-0.0006465866424699134,-0.0005406091414016969,-0.0025393175474271393,0.014148392670889413,0.9874851547440933
2012-04-05,-1,-0.0013212117035727269,-0.0011576117178547425,-0.007368686464805989,0.014148392670889413,0.9872825335525655
2012-04-10,-1,-0.0019011626157753301,-0.001722125256874141,-0.004234775595947126,0.014148392670889413,0.9883505289827498
2012-04-12,-1,-0.001244954532134271,-0.0011338557661486337,-0.005376501554082184,0.011188150399461175,0.989711828650502
2012-04-16,-1,-0.0013525782416309853,-0.0011896912963641282,-0.0057598744627026625,0.011188150399461175,0.9896207815485083
2012-04-18,-1,-0.002316683363832086,-0.0020419564781764205,-0.0057598744627026625,0.012534605535388009,0.9896339004235319
2012-04-20,-1,-0.0034634844726577478,-0.002967715072968812,-0.008677393139589418,0.006501719739329767,0.9902228575421055
2012-04-24,-1,-0.001984738552572631,-0.0017446239609565852,-0.008677393139589418,0.0062084051146216665,0.9897764099673025
2012-04-26,-1,-0.0002816699865090808,-0.0002438198706016571,-0.008677393139589418,0.005977066910903782,0.9902745608151426
2012-04-30,1,8.550461768214862e-05,0.00013541912033278823,-0.008625799219626409,0.007251029870344807,0.9903801095856126
2012-05-02,1,0.0009474869649391615,0.00108283566776558,-0.008998375226466375,0.007251029870344807,0.989504293881379
2012-05-04,0,-8.14699659078166e-06,5.6804991509506314e-05,-0.010051999139781095,0.007251029870344807,0.9880600872913584
2012-05-08,-1,-0.0005703612664890467,-0.00041636492363527917,-0.010051999139781095,0.010197226493569802,0.9866576529780691
2012-05-10,-1,-0.0016409613022796464,-0.0013324565657007051,-0.009338572070600713,0.010197226493569802,0.9871261012922166
2012-05-14,-1,-0.00230983683574659,-0.0019143711809141498,-0.009192233034820148,0.011184555729431556,0.9858892797050154
2012-05-16,-1,-0.0014927004942057436,-0.0012594275785892013,-0.009192233034820148,0.011151503627910717,0.9859403530112724
2012-05-18,-1,-0.002626839368684641,-0.0022966812775253678,-0.0015560014131833924,0.012453680684130974,0.9853440378261216
2012-05-22,-1,-0.0015853107646772845,-0.0013353060626843708,-0.00903745127493112,0.011100835230333317,0.9872992581002734
2012-05-24,-1,-0.0008750242905720734,-0.0007386295642830871,-0.009346766757433605,0.011100835230333317,0.9870567289854054
2012-05-29,-1,-0.0003422122723625652,-0.00030879710329583763,-0.010932703886676897,0.011100835230333317,0.9865074998847051
2012-05-31,-1,-0.0008422938442071673,-0.0007266088934108094,-0.009346766757433605,0.009331619843854657,0.987924024299625
2012-06-04,-1,-0.0021977716018272914,-0.0019807167708654544,-0.0008908424526354883,0.011100835230333317,0.9874399902522497
2012-06-06,-1,-0.0008377488355406383,-0.0007797194988487235,-0.005985136405177294,0.009331619843854657,0.9893408920416914
2012-06-08,-1,-0.0009585518762078849,-0.0008627772143085678,-0.007041974393287407,0.010671645845243773,0.9884742563008114
2012-06-12,1,2.02103727640827e-05,8.047110116681427e-05,-0.00707927997050663,0.009280940711840274,0.9896779431449914
2012-06-14,1,0.0008438593382969671,0.0009875406196876053,-0.00707927997050663,0.009280940711840274,0.9896095177817217
2012-06-18,1,0.0026678675908869114,0.003115815994879782,-0.00707927997050663,0.005108584576623604,0.9910889506024178
2012-06-20,1,0.0020465082074282107,0.0024149421921374698,-0.005985136405177294,0.007145808497528383,0.9901592773034195
2012-06-22,1,0.0016332835873200328,0.001965590888874276,-0.00788585645552768,0.005108584576623604,0.9889545197902703
2012-06-26,1,0.001278451499959594,0.001556851569030284,-0.005985136405177294,0.004747190453303502,0.9898980765808244
2012-06-28,1,0.0016677691158872771,0.002006623365522281,-0.005985136405177294,0.011421576852007512,0.9881472510803457
2012-07-02,1,0.002166154140872405,0.0025584323079899875,-0.004699225727203061,0.006696693433444902,0.9896818278881836
2012-07-05,1,0.0016579539312659981,0.0019342834973432284,-0.005307799524184144,0.006696693433444902,0.9895893859094073
2012-07-09,1,0.001360511742203042,0.0016211465467963434,-0.005307799524184144,0.007497303572223024,0.9891771730552829
2012-07-11,1,0.0007882174490318714,0.0008572907415747605,-0.005307799524184144,0.007497303572223024,0.9891360290343091
2012-07-13,1,0.0014096431451527981,0.0016176522586401087,-0.00644452228013299,0.005525500760142863,0.9895116286412511
2012-07-17,1,0.0013607569769203093,0.0015681156328939323,-0.00644452228013299,0.005525500760142863,0.9894708533384565
2012-07-19,1,0.0031935340632469195,0.003643863420067714,-0.00644452228013299,0.006897380006341134,0.9897642380434826
2012-07-23,1,0.0011186646792497445,0.001239927147468975,-0.004607920181842848,0.006897380006341134,0.9919689412647247
2012-07-25,1,0.0012542559073485953,0.0014021692026674408,-0.004607920181842848,0.006897380006341134,0.992260399963043
2012-07-27,1,0.0021196292255683067,0.002315359151638337,-0.005594599559724979,0.003760287209447481,0.9935378037739532
2012-07-31,1,0.0022716190511701895,0.002523250883009258,-0.005594599559724979,0.0020997571143285257,0.9935259043147726
2012-08-02,1,0.001859761546033475,0.002027408307041593,-0.005822240819720256,0.0020160899182797096,0.9932001627216162
2012-08-06,1,0.001972711275297806,0.0021407385977563003,-0.005594599559724979,0.0020160899182797096,0.9943941445577659
2012-08-08,1,0.0024265228766451154,0.0027381466597437417,-0.005594599559724979,0.0038971856294069372,0.9929610735737721
2012-08-10,1,0.0022628593792466106,0.002535054505441213,-0.003436489820615323,0.005430410786988259,0.9931855486148912
2012-08-14,1,0.0016874256946341065,0.0018538357593300616,-0.003436489820615323,0.007146877695549922,0.9929794180254896
2012-08-16,1,0.0027264222697587805,0.0030507442472755665,-0.003436489820615323,0.007146877695549922,0.9928872437760401
2012-08-20,1,0.001727300188393681,0.0018238183617397376,-0.003514087702543886,0.007146877695549922,0.9924207207655001
2012-08-22,1,0.0016168176689900838,0.0016876722658382144,-0.008223332695364039,0.007146877695549922,0.990205915983842
2012-08-24,1,0.0015149926083499997,0.0015509272673187324,-0.011388484015510826,0.008954287422566664,0.9892833400378578
2012-08-28,1,0.001266081056574044,0.0012723853150836725,-0.011908430384152237,0.008954287422566664,0.9885996193580726
2012-08-30,0,-0.00020348529544741577,1.9584743601883093e-05,-0.011908430384152237,0.008954287422566664,0.9893807900479547
2012-09-04,1,0.000899518966755376,0.0009403323154716923,-0.011908430384152237,0.008954287422566664,0.9893381920918977
2012-09-06,1,0.000124328767764421,0.0002837688537329784,-0.007479493471489704,0.008954287422566664,0.9904475313866303
2012-09-10,1,0.0006864748509305065,0.0007630754941918966,-0.007479493471489704,0.008488002506040752,0.9906789078178693
2012-09-12,1,0.0007818535678071289,0.0008579444878600388,-0.01139810691308751,0.005567124871461275,0.9906688949146945
2012-09-14,1,0.001974325311863425,0.0021132186804316993,-0.01139810691308751,0.004149155147234207,0.9915366030371194
2012-09-18,1,0.00188970840830862,0.0020608574449345798,-0.00733381040287303,0.0048199808734660735,0.9914193103105762
2012-09-20,1,0.0002698372375208572,0.00032834678251770876,-0.0029029957225935148,0.005567124871461275,0.9931701806926517
2012-09-24,1,0.0009939277085604316,0.0010662213624410806,-0.0029029957225935148,0.0048199808734660735,0.9937679988174005
2012-09-26,-1,-0.0003275080321070415,-0.00020599455048606855,-0.0029029957225935148,0.0048199808734660735,0.9931555659092209
2012-09-28,-1,-0.000252680646200218,-0.00013088711362128333,-0.001754484959056367,0.006705061700476927,0.9922853796455586
2012-10-02,-1,-0.0006492033245890055,-0.0004568306396351826,-0.003214128016633541,0.009014246011718435,0.9911131324367225
2012-10-04,-1,-0.0002963395135587904,-0.0001293295468985008,-0.005771024076694464,0.005232515934858222,0.9913929766951488
2012-10-08,0,-2.8081386488159352e-05,9.929578463915671e-05,-0.009568746644972623,0.006838620828098052,0.990377494599045
2012-10-10,-1,-0.0008869294411872127,-0.0005278047687191827,-0.009027624914857042,0.006838620828098052,0.9904329520831997
2012-10-12,-1,-0.0005782158301170083,-0.00035203375472633055,-0.009027624914857042,0.00934241994658918,0.9896568237070102
2012-10-16,1,0.00043993702863617313,0.0005125604532038174,-0.00994743454376339,0.006838620828098052,0.9887567990848696
2012-10-18,1,0.0007597870428392103,0.000806444413417869,-0.00994743454376339,0.006838620828098052,0.9883311308741294
2012-10-22,1,0.00020854712976289244,0.0003212946854987039,-0.009027624914857042,0.006838620828098052,0.9891759080248925
2012-10-24,-1,-0.0019796852030107915,-0.0015538059053849247,-0.005130312127607379,0.00934241994658918,0.9898357321758862
2012-10-26,-1,-0.0001758666891408593,-7.467933466017465e-05,-0.005130312127607379,0.005444904255115287,0.9904920027722326
2012-11-01,1,0.0004345952040077465,0.0004724905482621593,-0.004382768184306924,0.004440930052289206,0.9915271074769562
2012-11-05,-1,-0.0005058661221437576,-0.0003350961928623464,-0.004382768184306924,0.005319399371173263,0.9915409216675609
2012-11-07,-1,-0.000776263935122036,-0.0005913832119090355,-0.0036571511060411836,0.004440930052289206,0.9925859328454908
2012-11-09,-1,-0.00040616964894204155,-0.00038389553192829783,-0.0014477083422424243,0.006929995650358641,0.9924110811118858
2012-11-13,-1,-0.0006531404734843767,-0.0005297496361946498,-0.0014477083422424243,0.006929995650358641,0.9920950985130665
2012-11-15,-1,-0.001234050853086434,-0.0010498873004892001,-0.0014477083422424243,0.006929995650358641,0.9935045379587327
2012-11-19,-1,-0.0012822982207348326,-0.0010982003296745079,-0.00028555934890376196,0.008051157706765264,0.9932980459271369
2012-11-21,-1,-0.001139204058489204,-0.0009838207940466705,-0.0014477083422424243,0.008051157706765264,0.9929378908631996
2012-11-26,-1,-0.00045460510074554533,-0.0003758761516840214,-0.003136138655428269,0.006929995650358641,0.9938255063564115
2012-11-28,-1,-4.6045128361113416e-05,-4.0668849484207204e-06,-0.00333832798747892,0.006929995650358641,0.9939508425894419
2012-11-30,-1,-0.00035446951056976154,-0.0002813307088062656,-0.004190277125688117,0.008051157706765264,0.9929456987165208
2012-12-04,-1,-0.0007131059397414454,-0.0005672719624384627,-0.00333832798747892,0.009317684932340524,0.9926661278850366
2012-12-06,-1,-0.0002008819906330076,-0.00014561387434370565,-0.0038007612756721706,0.01058144215727529,0.9919419501118824
2012-12-10,1,0.0002516678986989217,0.00026029245456150906,-0.0038007612756721706,0.009572330476414502,0.9924356256339932
2012-12-12,1,0.0009064093006447498,0.0010706226875805763,-0.00333832798747892,0.0069268736984521954,0.9934111831680106
2012-12-14,-1,-0.00044300308455975023,-0.00032102602463465464,-0.00194634844758165,0.0069268736984521954,0.9934385557269061
2012-12-18,1,0.0006022516076167713,0.000609054134040702,-0.00194634844758165,0.002793438934569584,0.9944084980065485
2012-12-20,1,0.0007050465427281406,0.0007830476271531944,-0.001044576109920716,0.005647465538675851,0.994429856622964
2012-12-24,1,0.0005857449142434184,0.0006462997481268041,-0.000770074796039215,0.006991731336211209,0.9935579265298488
2012-12-27,1,0.00047532264955486576,0.0005209234054573605,-0.0007470624528018734,0.0075324128322994625,0.9928831295914025
2012-12-31,1,0.0013112629521338747,0.0014744396472171103,-0.0007470624528018734,0.0075324128322994625,0.9924281755629916
2013-01-03,1,0.0010409982446579786,0.0011422858558986341,-0.0007470624528018734,0.0075324128322994625,0.9924349367981052
2013-01-07,1,0.0011057655331824937,0.0012460477411948283,-0.0007470624528018734,0.00738967477549304,0.9924122800498916
2013-01-09,1,0.0009908369220824188,0.001104071041581389,-0.0030131621587112215,0.00738967477549304,0.9921534856397234
2013-01-11,1,0.0015001782165495444,0.0016881382911009095,-0.0027831313356291537,0.008712239896635764,0.9919913147301611
2013-01-15,1,0.0014257441831210399,0.0016143097336975359,-0.0027831313356291537,0.008855472723250046,0.9915359736328109
2013-01-17,1,0.0014126263676201359,0.0016042386756072754,-0.001763287656938135,0.008855472723250046,0.9912633426923375
2013-01-22,1,0.0018023340011220175,0.0020328571419993544,-0.009768999851061966,0.008712239896635764,0.9907681497725922
2013-01-24,1,0.001909062054656217,0.002141518619890709,-0.004943183627844724,0.008712239896635764,0.9911284176717521
2013-01-28,1,0.0005655445544388595,0.0005752926194075603,-0.004943183627844724,0.008712239896635764,0.9903053962794051
2013-01-30,1,0.00034864454767635745,0.0003538030047446811,-0.0003088303981880206,0.008712239896635764,0.9910984885559166
2013-02-01,1,0.0014485944481953184,0.001581161676787042,-0.0036011434270452427,0.008712239896635764,0.9917159666053558
2013-02-05,1,0.0013136647354023805,0.0014416231024521689,-0.0015192648300201307,0.007056455396919495,0.9925236772574886
2013-02-07,1,0.0012211021755441013,0.0013710418968805131,-0.0015192648300201307,0.008876283814260706,0.9917625997033662
2013-02-11,1,0.0011096693608221818,0.0012602980322967362,-0.0036011434270452427,0.0076955378669327,0.991542374388899
2013-02-13,1,0.0021381220140336797,0.0024260033344339843,-0.0036011434270452427,0.007932850384798226,0.9919123271220508
2013-02-15,1,0.0014152000206080033,0.0015951190845233704,-0.004188677526567444,0.007932850384798226,0.9912929293723556
2013-02-20,1,0.0011477179155754364,0.00125445168850437,-0.004077119630590687,0.007932850384798226,0.9919569728342105
2013-02-22,1,0.0011492557275534056,0.0012080882956928747,-0.004604852615648079,0.006064413901357269,0.9922080345997979
2013-02-26,1,0.00047174996867410885,0.00048101871286432404,-0.004604852615648079,0.007932850384798226,0.9919107207407559
2013-02-28,1,0.0006478340573301606,0.0006921464601447847,-0.004604852615648079,0.009838678391828243,0.9920810179660801
2013-03-04,1,0.0012580788947326954,0.001403892103843898,-0.005070291495009665,0.007773023045939141,0.9919822008970778
2013-03-06,1,0.0013031515071268843,0.0014623735715135289,-0.00670826732229993,0.007773023045939141,0.9913349492954929
2013-03-08,1,0.0011525588244758963,0.0012610413533116985,-0.005070291495009665,0.0073022093071542,0.9922433355647151
2013-03-12,1,0.0012381420786338356,0.001310149364506334,-0.004735617807079394,0.008266409836614336,0.9923046358960543
2013-03-14,1,0.0017805051897104513,0.002000892255020213,-0.004735617807079394,0.006122514871278818,0.9927007078417787
2013-03-18,1,0.0016709010960208092,0.0018962588652349146,-0.004735617807079394,0.008266409836614336,0.9901674425441748
2013-03-20,1,0.0011589229893118251,0.0013004194117192472,-0.007600600207102124,0.01006394161734118,0.9878275527615976
2013-03-22,1,0.0005994377034259666,0.0006302435751398376,-0.005556326467604015,0.011223411937011967,0.9867112343944415
2013-03-26,1,0.0009521743713102691,0.0010726777723242325,-0.0013737004210562782,0.010980992587226722,0.988135151942398
2013-03-28,1,0.0015903735918499319,0.0018244006474574907,-0.0032333387768858648,0.008572093493242849,0.9884395963399618
2013-04-02,1,0.0008440725807193708,0.0009302444371108616,-0.0013737004210562782,0.008572093493242849,0.9893591248891473
2013-04-04,1,3.847660973193897e-05,8.261199416382182e-05,-0.0008911041275113033,0.010448331918883072,0.9888818148595709
2013-04-08,0,-3.8071511929677017e-05,4.5185250834713537e-05,-0.0008911041275113033,0.011722865658501065,0.9879049362643221
2013-04-10,1,0.00043783763887820826,0.0004625678906511661,-0.0008911041275113033,0.013718503129308144,0.9872756723337017
2013-04-12,0,-1.9130070888473438e-05,0.00012337393370651616,-0.001841950264063209,0.013718503129308144,0.9865996708162668
2013-04-16,1,0.0002270891189108556,0.00035205092356108353,-0.0013093810103860825,0.013718503129308144,0.9888332318670092
2013-04-18,1,0.0004078566473381378,0.0004898380184791872,-0.0013093810103860825,0.011472049055606382,0.9911082570328766
2013-04-22,1,0.0015494408826508153,0.0016278397350137966,-0.0019613359021552756,0.011395018894974993,0.9918967604126676
2013-04-24,1,0.001519742407320719,0.0016065399065009435,-0.004914619096700242,0.011395018894974993,0.991314965738631
2013-04-26,1,0.0013541070189750821,0.0014067280850038688,-0.005683974386976268,0.011395018894974993,0.9911115982529627
2013-04-30,1,0.0010229867158585565,0.0010307403156034928,-0.006530860493799009,0.011395018894974993,0.9904749273193324
2013-05-02,1,0.0008263359726777553,0.0008415551143840404,-0.006530860493799009,0.011395018894974993,0.9906015399601862
2013-05-06,1,0.0017064072764323766,0.0018261046076679763,-0.006530860493799009,0.007262407750824417,0.9915183771579392
2013-05-08,1,0.0021149037939006995,0.002279031245140607,-0.007908381385248322,0.006732130890783977,0.9904270836011191
2013-05-10,1,0.0017641249761121698,0.0018436702483477785,-0.006812453415983368,0.007262407750824417,0.9896857715367153
2013-05-14,1,0.002558222732212411,0.0027828074984948773,-0.007908381385248322,0.006732130890783977,0.9896414392762608
2013-05-16,1,0.002011264511803377,0.0021365604695068366,-0.007908381385248322,0.0070492326588486665,0.9895433460622418
2013-05-20,1,0.002275818862312429,0.0024130796943785324,-0.007908381385248322,0.0070492326588486665,0.989527856243442
2013-05-22,0,0.0,0.0,-0.011251889055524263,0.0070492326588486665,0.9890134765918872
2013-05-24,0,0.0,0.0,-0.014415207733812663,0.0070492326588486665,0.9884878992974178
2013-05-29,0,0.0,0.0,-0.014415207733812663,0.013781651380108728,0.9870266092540958
2013-05-31,0,0.0,0.0,-0.008714678954219228,0.013781651380108728,0.9875100480688214
2013-06-04,0,0.0,0.0,-0.008714678954219228,0.013781651380108728,0.9875344050617606
2013-06-06,0,0.0,0.0,-0.006721230595915115,0.013030366031647724,0.9889858506950252
2013-06-10,0,0.0,0.0,-0.007070416611681034,0.013030366031647724,0.9890885997909474
2013-06-12,0,0.0,0.0,-0.007070416611681034,0.013030366031647724,0.9888673531371512
2013-06-14,0,0.0,0.0,-0.007070416611681034,0.011404960939509039,0.9890070269709549
2013-06-18,0,0.0,0.0,-0.007070416611681034,0.009285549459443137,0.9896365250255875
2013-06-20,0,0.0,0.0,-0.0059678534746633385,0.011329941931573568,0.9900046498660243
2013-06-24,0,0.0,0.0,-0.0059678534746633385,0.011329941931573568,0.9907268994505555
2013-06-26,0,0.0,0.0,-0.006312489516683008,0.009172062335405587,0.992095394169843
2013-06-28,0,0.0,0.0,-0.006384956304344673,0.009172062335405587,0.991919054281454
2013-07-02,0,0.0,0.0,-0.006384956304344673,0.0097858511794572,0.991774949489045
2013-07-05,1,0.0006398768232039425,0.0007332272968223817,-0.006384956304344673,0.0097858511794572,0.9910682743957798
2013-07-09,1,0.0011714845666867082,0.0011842712480843582,-0.008907495082070588,0.008926981976159246,0.991269529593023
2013-07-11,1,0.0012096705266615342,0.0012171252608932422,-0.006574701053930294,0.008851949573757721,0.9916147429756563
2013-07-15,1,0.0008053309371021519,0.0008736772817541929,-0.0064548583422042735,0.005509695876403698,0.991895065823672
2013-07-17,1,0.0007838650248636489,0.0008426153599904161,-0.008907495082070588,0.007116362559019365,0.9914097812248666
2013-07-19,1,0.0010274872113944411,0.0010878999392629706,-0.009938227177337899,0.0048016029925419,0.9914618476611661
2013-07-23,1,0.0009375339926092602,0.0009734088976218473,-0.009382992220439665,0.0048016029925419,0.9915283393503883
2013-07-25,1,0.0006288630348628311,0.0006888274388493827,-0.009382992220439665,0.006639972356888538,0.9908473000421759
2013-07-29,0,-4.4021378014413924e-05,9.443718260412264e-05,-0.009305913169576161,0.006639972356888538,0.9913086155290344
2013-07-31,1,7.048210421032252e-05,0.00020455459920134254,-0.009756939881746383,0.004366662379367494,0.9907287804955446
2013-08-02,1,0.0009647015043955207,0.0009957968419560257,-0.009756939881746383,0.0013978568886958663,0.9915659627846563
2013-08-06,1,0.0003821958121767883,0.0004627742660697241,-0.009305913169576161,0.0036041688180598226,0.9923507326268334
2013-08-08,1,0.00024390621128186983,0.00035710216650792305,-0.009305913169576161,0.0033059414149271223,0.9924938598556107
2013-08-12,-1,-0.00037718121090149644,-0.0001732573599660715,-0.009305913169576161,0.005513587465759464,0.9922851471297364
2013-08-14,-1,-0.000664739890433406,-0.0004224023362273863,-0.009305913169576161,0.00427259646968685,0.992381237999784
2013-08-16,-1,-0.0008998764219045702,-0.0006268807821006241,-0.008060097817479801,0.00427259646968685,0.9927068887324004
2013-08-20,-1,-0.0009168105264224481,-0.0006758859934928517,-0.004889485450879529,0.007733360378313721,0.9920601181782097
2013-08-22,-1,-0.0007923867835681514,-0.0005407983582104455,-0.004889485450879529,0.007327689564010012,0.9929443463952372
2013-08-26,-1,-0.0017361627134170532,-0.0013438814050200695,-0.0025405436032374484,0.007327689564010012,0.9932100768563951
2013-08-28,-1,-0.0022217546748211137,-0.0017822407703838871,-0.0025405436032374484,0.007327689564010012,0.9933876730029652
2013-08-30,-1,-0.0021992461778530662,-0.0017787723758495287,-0.007760439326256446,0.007327689564010012,0.993027326223761
2013-09-04,-1,-0.0018847404806771435,-0.0014989841829862217,-0.007760439326256446,0.007327689564010012,0.993252526917976
2013-09-06,-1,-0.002071745117500599,-0.0016625267868370537,-0.00803830602690421,0.007327689564010012,0.9933498318058728
2013-09-10,-1,-0.0015021987365130018,-0.0011655730016176607,-0.00803830602690421,0.004060666726869024,0.9937796777126093
2013-09-12,-1,-0.0014157093431344302,-0.0011434679875369964,-0.007697403184883613,0.007327689564010012,0.9927152543801465
2013-09-16,-1,-0.001176916907677854,-0.000929782318119431,-0.007697403184883613,0.004060666726869024,0.9931290164987556
2013-09-18,-1,-0.00046693820299138387,-0.0003031097134150038,-0.007697403184883613,0.0019608744690678094,0.9935093246503844
2013-09-20,-1,-0.0005541530018725678,-0.0003830638971343416,-0.007697403184883613,0.0019608744690678094,0.9921690340385311
2013-09-24,-1,-0.0008339337042509562,-0.0006190812157768346,-0.007697403184883613,0.0054043311352484505,0.9914324070922227
2013-09-26,-1,-0.0005964107261397728,-0.000456165916173353,-0.006431280968317143,0.0054043311352484505,0.9917865830169438
2013-09-30,-1,-0.0006779229790702588,-0.0005719575561298695,-0.00514160824779849,0.0054043311352484505,0.991936554846694
2013-10-02,-1,-0.0006745483073052284,-0.0005554329913526194,-0.006431280968317143,0.002531195778905758,0.9920412002305243
2013-10-04,-1,-0.000845085441330288,-0.0007363039333216307,-0.00514160824779849,0.0054043311352484505,0.99188200121316
2013-10-08,-1,-0.0012303775927403834,-0.0010783296327782229,-0.0038931513024586923,0.005633111316578232,0.9917740658610704
2013-10-10,1,0.00030911523841288123,0.00037533948171056405,-0.0038931513024586923,0.005633111316578232,0.9932556068630515
2013-10-14,1,0.00010803525379997534,0.00012173056928579459,-0.0038931513024586923,0.005933754255807727,0.9928146318703032
2013-10-16,0,-6.483409721660471e-06,3.0565160953433337e-06,-0.0022233409906671216,0.006284010708264622,0.9926487666808168
2013-10-18,-1,-0.0010663386969992613,-0.0009254145372083683,-0.000977885672121666,0.006557205488355066,0.9940201018847001
2013-10-22,-1,-0.0006033452929841824,-0.0004987314298033427,-0.0022233409906671216,0.005999172620640987,0.9947506315440834
2013-10-24,-1,-0.0005999718269392886,-0.0005089382164652972,-0.0013365210701997913,0.006557205488355066,0.9941435785344983
2013-10-28,-1,-0.0011862785988585802,-0.001019589284796724,-0.00036348487464426117,0.006970365247861413,0.9940267759048175
2013-10-30,-1,-0.0011912635771366285,-0.0010507654694266507,-0.00036348487464426117,0.0074939825124268715,0.9940310319930991
2013-11-01,-1,-0.0010325336572465428,-0.0008797354958252827,-0.0008326771284888997,0.0074939825124268715,0.9942544882649452
2013-11-05,-1,-0.0005379226010632491,-0.00047455178726752605,-0.00143366042585206,0.0074939825124268715,0.9943249860838379
2013-11-07,-1,-0.0001805136242496179,-0.00016971912120007635,-0.00143366042585206,0.007566149583130349,0.9938449839419616
2013-11-11,-1,-0.0005221266341952284,-0.0004191065273273459,-0.0028487322652028194,0.007566149583130349,0.9937886094248682
2013-11-13,-1,-0.0006543983279063095,-0.00048823960960685345,-0.005320385882119143,0.0074939825124268715,0.9938489543725234
2013-11-15,1,0.0005552872433458275,0.0006179626655027888,-0.005320385882119143,0.006425710900372966,0.993977116397217
2013-11-19,0,-1.7627908930474627e-05,1.755942156684873e-05,-0.004335802417274775,0.007542744739492758,0.993413111948817
2013-11-21,1,0.0006378831988916706,0.0006952914059534439,-0.004335802417274775,0.006425710900372966,0.9938920875848061
2013-11-25,1,0.0011073920700574438,0.001254119393830946,-0.004335802417274775,0.006425710900372966,0.9938136569197505
2013-11-27,1,0.0015052393843108956,0.001727926718544945,-0.004335802417274775,0.005950389353958078,0.9939872300873621
2013-12-02,1,0.0016800035893434258,0.0019236586888596234,-0.0037308977329865984,0.005950389353958078,0.9941016763463448
2013-12-04,1,0.0012490495067654633,0.0014409050346250126,-0.002565789749333581,0.005950389353958078,0.994398217965844
2013-12-06,1,0.0018443910598893603,0.002112152402414918,-0.0037308977329865984,0.005009194809940374,0.9941693476461774
2013-12-10,1,0.001914307453127701,0.002237491910834918,-0.002565789749333581,0.006495278496569321,0.9942617652677611
2013-12-12,1,0.0013447502677578485,0.0015709394460093375,-0.002565789749333581,0.006981125006837754,0.9939198061436861
2013-12-16,1,0.0013154281549988605,0.0015170192667655555,-0.002565789749333581,0.007971544568855984,0.9937837733715202
2013-12-18,1,0.0013424254114617386,0.0015085632846501321,-0.002565789749333581,0.0068877140392402175,0.9939393294083902
2013-12-20,1,0.0014880916033309832,0.0016892395152790824,-0.0017226866870829372,0.0068877140392402175,0.9943011185947498
2013-12-24,1,0.0023766790240453833,0.0027440104979873066,-0.0029918497191873707,0.0068877140392402175,0.992401642292845
2013-12-27,1,0.001979119932024114,0.002252004764735472,-0.003203304506071424,0.008118565420587798,0.9921929755642697
2013-12-31,1,0.0023335763064351632,0.0026579230092864466,-0.0050136663905531315,0.008118565420587798,0.9912653178999331
2014-01-03,1,0.0017891394686356326,0.0020221791404475232,-0.01041965598085222,0.008118565420587798,0.9903825133875811
2014-01-07,1,0.001595356191584438,0.0017961635293241626,-0.0065122641294586454,0.008106682270552308,0.9906951789112943
2014-01-09,1,0.0019545154703277294,0.002193971345373238,-0.0065122641294586454,0.00891595095086758,0.9902878837021056
2014-01-13,1,0.0015118807905998548,0.001673145705445636,-0.0065122641294586454,0.009506227218543105,0.9898247602124763
2014-01-15,1,0.0019526093834556966,0.0021949724568377594,-0.0065122641294586454,0.009506227218543105,0.9899062483861465
2014-01-17,1,0.0012965938402385293,0.0014288878807628294,-0.00624282690923797,0.009506227218543105,0.9897771094632156
2014-01-22,1,0.0011141843175225248,0.00119281513305798,-0.01048369470953406,0.010466348096951208,0.9885858759802617
2014-01-24,1,0.001409498400163784,0.0015159589260631409,-0.00624282690923797,0.009506227218543105,0.99059537996272
2014-01-28,1,0.0016777087814824991,0.0018346295802982467,-0.008807020974820149,0.009135359201242027,0.9903993804639644
2014-01-30,1,0.002052913419544698,0.0022502884364234603,-0.008807020974820149,0.009135359201242027,0.991219422843234
2014-02-03,1,0.0014295135870322675,0.001570020745238999,-0.004884044742244593,0.010256399037211279,0.9911063827781885
2014-02-05,1,0.0012618114630249002,0.001354987300270827,-0.004884044742244593,0.010256399037211279,0.9912431423964977
2014-02-07,1,0.0019688949511866005,0.0021622449722525387,-0.005599251377381341,0.008597709142056435,0.9917181277385274
2014-02-11,1,0.0022488821346125154,0.0025112562453817834,-0.004884044742244593,0.008597709142056435,0.9926386579151887
2014-02-13,1,0.002335899154534868,0.002603188850263692,-0.005599251377381341,0.008597709142056435,0.9921642894627257
2014-02-18,1,0.002136111968314796,0.00237038701777267,-0.004884044742244593,0.00977894868419224,0.9921341594853402
2014-02-20,1,0.0018837148635663695,0.002064413164189238,-0.004884044742244593,0.009661261333105523,0.9921251850023378
2014-02-24,1,0.0018095113508721596,0.0019424124631458601,-0.005599251377381341,0.009661261333105523,0.9918389963830636
2014-02-26,1,0.0013782535408344682,0.0014573356386840743,-0.005868502296072165,0.009661261333105523,0.9914565736284443
2014-02-28,1,0.0015665166699019124,0.0016379399903278175,-0.005868567555999448,0.00928234505051424,0.9915363305541618
2014-03-04,1,0.001772447116609655,0.001839635621833644,-0.005868567555999448,0.00928234505051424,0.9921587146835197
2014-03-06,1,0.002436365489200367,0.002641769409283803,-0.005868567555999448,0.00928234505051424,0.9924462550751787
2014-03-10,1,0.0023425590553698824,0.0025290439391239526,-0.006294924168884906,0.008273631880464209,0.9922401952449058
2014-03-12,1,0.0024015086069124683,0.0025846566352972543,-0.006294924168884906,0.006981987713599355,0.9922482986237958
2014-03-14,1,0.0005621015360436101,0.0006574282265208358,-0.00795646389712002,0.006981987713599355,0.9915588359765224
2014-03-18,1,0.0015597723154379167,0.001618737168185196,-0.00795646389712002,0.005938999968131612,0.9913630733079567
2014-03-20,1,0.0011237440194786592,0.001129450726482065,-0.006294924168884906,0.006931468345476777,0.9915780554857041
2014-03-24,1,0.0010167450607035788,0.001069104861215411,-0.005549374931387246,0.007704000569926414,0.9916084354394676
2014-03-26,1,2.3157906521157397e-06,0.00019027153938171594,-0.005549374931387246,0.007704000569926414,0.9921370666230236
2014-03-28,1,0.00022324453611869018,0.00036565959080655613,-0.006160066439306925,0.006931468345476777,0.9920446879067302
2014-04-01,1,0.0007707079437742283,0.0008536048707871817,-0.006160066439306925,0.006931468345476777,0.9924109008444849
2014-04-03,1,0.0008415222582024919,0.0009113877941340875,-0.007298786484649445,0.006931468345476777,0.9918314443744579
2014-04-07,1,0.00032396116104423545,0.0004413340478602867,-0.005424325979816724,0.006931468345476777,0.9924431469126359
2014-04-09,1,0.0005446032425061055,0.0006145334890981203,-0.0048976135399188886,0.006179670920240632,0.9926778863602947
2014-04-11,-1,-0.0003776838120049231,-0.00021174396884824796,-0.0015965374271859594,0.00831144507761242,0.9932792518452714
2014-04-15,1,0.0001811115303283352,0.0003022130351461454,-0.0026918201449945105,0.006883843274328022,0.9941032119709491
2014-04-17,1,0.0010711813561031878,0.0010825595316786166,-0.0037420134778653855,0.005861321259955275,0.9938311510238482
2014-04-22,1,0.000800088867754987,0.0008170504542748253,-0.004595713408991923,0.003825856148104898,0.9938504446525496
2014-04-24,1,0.0005007067551313646,0.0005469597000673876,-0.0037420134778653855,0.005861321259955275,0.9939576278011611
2014-04-28,1,6.604046723842792e-05,0.00015944895743395517,-0.0026918201449945105,0.005861321259955275,0.9942479518895819
2014-04-30,1,0.00014861788597604283,0.0002589735777263372,-0.0035959773309010715,0.005861321259955275,0.9943812693858173
2014-05-02,0,-8.067524659414229e-05,3.048047239754989e-05,-0.0015965374271859594,0.00675002230792732,0.9945715014255399
2014-05-06,-1,-0.000528796909439767,-0.00034566142443741266,-0.0012706258682333089,0.00675002230792732,0.9940634974773032
2014-05-08,-1,-0.0005842204444942046,-0.00037401097464971156,-0.0012706258682333089,0.007319597823407859,0.9934234549359638
2014-05-12,0,-7.066654292154132e-05,7.708668071280587e-05,-0.0012706258682333089,0.007319597823407859,0.9936289787962154
2014-05-14,1,0.0001160762564501479,0.00022571536399358574,-0.0026707435433479055,0.007319597823407859,0.9933243203484962
2014-05-16,1,0.0005226874306921467,0.0005892620536480993,-0.0026707435433479055,0.0071592010017535145,0.9940676214835525
2014-05-20,1,0.00039928759098551065,0.0004608697699166107,-0.0026707435433479055,0.007319597823407859,0.993719535064643
2014-05-22,1,0.0006037807691795893,0.0006402816504293575,-0.0026707435433479055,0.007319597823407859,0.9939316582731568
2014-05-27,1,0.0010304711745362973,0.0010648452377204623,-0.00399582395642136,0.007319597823407859,0.9935741812644413
2014-05-29,1,0.0009155264735647795,0.0009156547264768988,-0.00460506574735561,0.00494278055408112,0.9936366978109676
2014-06-02,1,0.0009976961869402443,0.0010032675569751717,-0.00460506574735561,0.0037103155687915708,0.9940115224542996
2014-06-04,1,0.0009511635835578441,0.0009783067099523783,-0.00399582395642136,0.0037103155687915708,0.9943863757778781
2014-06-06,1,0.0013389227086846264,0.0013981831436692118,-0.00460506574735561,0.003525579138693938,0.9944406553570516
2014-06-10,1,0.0019371061148817197,0.0020931642756973935,-0.00460506574735561,0.003525579138693938,0.9945454038660728
2014-06-12,1,0.0010358498571425494,0.0010428458420573385,-0.00460506574735561,0.0037103155687915708,0.9948886557285698
2014-06-16,1,0.0006695917259723441,0.0007023391997896722,-0.00399582395642136,0.004383683500604818,0.9951090691940728
2014-06-18,1,0.0008633938311674598,0.0009029937171349959,-0.004192565660352178,0.004061692988495465,0.9951332522481471
2014-06-20,1,0.0009726840556026176,0.0009915470605072506,-0.004192565660352178,0.004383683500604818,0.9947869985291532
2014-06-24,1,0.0007095744172534691,0.000750967318222032,-0.0021224040453478796,0.005552975540934458,0.9947702681063356
2014-06-26,0,-9.630464462444819e-05,9.455131056738909e-05,-0.0021224040453478796,0.005552975540934458,0.9946806453577594
2014-06-30,0,-8.120951488711954e-05,0.00010537722672298048,-0.007152317810876689,0.005552975540934458,0.9937652430504605
2014-07-02,1,0.0004513928013492041,0.0005334881684204323,-0.007898988463933297,0.005552975540934458,0.9932099457763426
2014-07-07,1,0.00047592488569105307,0.0005506275166835703,-0.007898988463933297,0.004332254183124978,0.9936123555006436
2014-07-09,1,0.0005926095102216004,0.0006492664545204594,-0.007898988463933297,0.003921952805196397,0.9934779455966036
2014-07-11,1,0.00027114051023282253,0.00037043646684502924,-0.005249975796014648,0.003921952805196397,0.9937735982827661
2014-07-15,1,0.0004923615076882595,0.0005763120177222989,-0.005249975796014648,0.003921952805196397,0.9937492053258521
2014-07-17,1,0.00020551769431792488,0.0003098073587016548,-0.004199945224072183,0.008902546160394887,0.9936706209071794
2014-07-21,1,0.0002064434855232697,0.0003414784875444169,-0.004199945224072183,0.009129417106390056,0.9932710766898711
2014-07-23,1,0.0008013638968905418,0.0008391146016390449,-0.004199945224072183,0.009129417106390056,0.9931654867092851
2014-07-25,1,0.0007779793017994697,0.000792221524741502,-0.0035352477778981275,0.009129417106390056,0.9934626571143392
2014-07-29,1,7.558126042712775e-05,0.0001527175330400398,-0.0012480903632199802,0.009129417106390056,0.9943366214164003
2014-07-31,-1,-0.0004963026513164596,-0.0003525783730313357,-0.001537542582830357,0.009129417106390056,0.9947012237479563
2014-08-04,-1,-0.0003966076379201043,-0.0002774043309498606,-0.0009449267260680794,0.009129417106390056,0.994513066666993
2014-08-06,-1,-0.0011120400301695469,-0.0008817720478428701,-0.0004200627312066985,0.009129417106390056,0.9939968644923045
2014-08-08,-1,-0.000130808831990551,-5.823001692446995e-05,-0.0007805339208325473,0.008954535750671361,0.9947258170227065
2014-08-12,1,0.0001177787592069845,0.00016924730439299722,-0.0008406641733762293,0.006805542298795866,0.9952652118603368
2014-08-14,1,0.0007366956147122207,0.0007492876823950243,-0.0009449267260680794,0.004522162398534239,0.9958358514542206
2014-08-18,1,0.0009449729964342454,0.0009452227521460233,-0.0009449267260680794,0.004522162398534239,0.996364161848832
2014-08-20,1,0.0014415470796043123,0.0015054304475618683,-0.0013324516001039215,0.003779620398493532,0.9962537983587584
2014-08-22,1,0.0017339573503071107,0.0018730765526158598,-0.0017659265001493901,0.003779620398493532,0.9958490463888534
2014-08-26,1,0.001623961878005995,0.0017518042265424936,-0.002217593933293121,0.00460133399393192,0.9954051280150822
2014-08-28,1,0.0010477203031711941,0.0010624979021269885,-0.0017659265001493901,0.006628481527788746,0.9944332245336043
2014-09-02,1,0.0013236599383949332,0.00137329032009451,-0.0017659265001493901,0.00460133399393192,0.9946605770462682
2014-09-04,1,0.0008967847139699153,0.0009601203279419487,-0.0032147395759379556,0.0033305580559356185,0.9938053846260301
2014-09-08,1,0.0013249260880440678,0.0013459988644216488,-0.003119616240756562,0.004360211334445821,0.9922888460911088
2014-09-10,1,0.001598580033370764,0.0016968155270516538,-0.00646341459242079,0.008229905932471901,0.9903591480520656
2014-09-12,1,0.0015879104659125157,0.0016998167694882494,-0.009348135203848598,0.008229905932471901,0.9876007913981133
2014-09-16,1,0.0016338945905668189,0.0017315366527447347,-0.0163918476280225,0.009433923238675512,0.9853720267593331
2014-09-18,1,0.0016281992011643002,0.001694517170528687,-0.0163918476280225,0.009433923238675512,0.9838610848041123
2014-09-22,1,0.001747900308370567,0.0018212897304213287,-0.0163918476280225,0.01360367485837554,0.9831901584475026
2014-09-24,1,0.0012923417231556359,0.0013123118031289674,-0.019820475456430536,0.01693567502450118,0.9818527347724421
2014-09-26,1,0.000797474582659697,0.0008632068715364292,-0.019820475456430536,0.021600876192483645,0.9799096395298604
2014-09-30,1,0.0007305485348859438,0.0007943664006227895,-0.019820475456430536,0.021600876192483645,0.9794632374795148
2014-10-02,1,0.00020086706894276797,0.00030129548125066257,-0.012404204448077627,0.021600876192483645,0.9802161227017163
2014-10-06,1,0.0012281031740473067,0.0012521155642887536,-0.012404204448077627,0.021006145478804986,0.9807230638927207
2014-10-08,1,0.001068570712620065,0.001099171094297836,-0.010267916755236197,0.021006145478804986,0.982296728626737
2014-10-10,-1,-0.0012985756994771907,-0.0010331926046905477,-0.0028398938962039934,0.02133877628469568,0.9839304892357847
2014-10-14,-1,-0.0013519736388055198,-0.0010929313978120059,-0.0017620031842868486,0.021137725676396605,0.9853567861431257
2014-10-16,1,0.00028606081890637097,0.0003383528160046526,-0.00264440889756728,0.01881373915789398,0.9877592729359811
2014-10-20,1,4.0123406845563324e-05,0.0001170763509142201,-0.003375853835184978,0.013982820838212513,0.9885967076874961
2014-10-22,1,0.00034149605491098136,0.00037223265372134215,-0.002005818163492748,0.01223396476917588,0.9906048480650347
2014-10-24,1,0.002307070031434205,0.002511910738720336,-0.002005818163492748,0.008281316654701986,0.9937946238167046
2014-10-28,1,0.00300259546792261,0.003339415433388545,-0.003236765707737635,0.008005566629372502,0.993671047026726
2014-10-30,1,0.0027930138367735927,0.003129434396922595,-0.003236765707737635,0.008005566629372502,0.9915748526315338
2014-11-03,1,0.0026872286299261337,0.002966669525398873,-0.003236765707737635,0.008005566629372502,0.989921612673971
2014-11-05,1,0.0027749754785764864,0.0030393148016331804,-0.00339351424379937,0.008005566629372502,0.9890810178272806
2014-11-07,1,0.0034924321342379465,0.0038634303251374943,-0.005679251168595651,0.006841114896683494,0.987817595034538
2014-11-11,1,0.0043208037149330665,0.004799148328844822,-0.009661596662118131,0.006841114896683494,0.9867961655380406
2014-11-13,1,0.003510539546731397,0.0038422227434982163,-0.011314326727298731,0.006841114896683494,0.986790404585029
2014-11-17,1,0.003277997301997686,0.0035694877611000975,-0.011314326727298731,0.006841114896683494,0.9866710182182835
2014-11-19,1,0.003225980592688136,0.0035021139998553004,-0.011314326727298731,0.008960490200089755,0.984424355764974
2014-11-21,1,0.003451026511980936,0.0037568174178861783,-0.011314326727298731,0.01140199729836237,0.9836742937315293
2014-11-25,1,0.003466276703998638,0.003770343460677688,-0.011314326727298731,0.01140199729836237,0.9838517773811657
2014-11-28,1,0.002193682833051281,0.002328497446129016,-0.009661596662118131,0.01140199729836237,0.9868352941816575
2014-12-02,1,0.0027580703031282227,0.002952079977432088,-0.009386101860898124,0.006789961593848313,0.9885352469699528
2014-12-04,1,0.002872545852404532,0.0030978471756181484,-0.009386101860898124,0.003382514548235155,0.9876253417171883
2014-12-08,1,0.0010933971902624634,0.0011295797791401074,-0.005602201555725344,0.005594550668538746,0.9890269254308262
2014-12-10,1,0.0006990736702075348,0.0007607068768228888,-0.005602201555725344,0.005594550668538746,0.9878794595914666
2014-12-12,1,0.0003247142466961514,0.0004169607686843888,-0.008916604059305128,0.003312289805408827,0.9875990459897662
2014-12-16,0,-0.00017199132946091105,2.825782001029877e-06,-0.008916604059305128,0.003312289805408827,0.9874301758559559
2014-12-18,1,0.0012413715252848829,0.0013022640374388932,-0.008916604059305128,0.003312289805408827,0.9885385624793712
2014-12-22,1,0.0012303827828740801,0.0013297848468900467,-0.008916604059305128,0.004342937051997602,0.9871362132083332
2014-12-24,1,0.0008711385373303751,0.0010192427572840136,-0.008916604059305128,0.006625190391540443,0.9869737355447881
2014-12-29,1,0.0005042266031538787,0.0007175420453141413,-0.010522612626232756,0.006625190391540443,0.9861884217090072
2014-12-31,0,-6.198004716500888e-05,0.00020063381545640713,-0.015095555629400273,0.008398824671388305,0.985413748619761
2015-01-05,-1,-0.0015574287899979013,-0.0011368023170896043,-0.01012526453100944,0.011583495799497285,0.9853432503306884
2015-01-07,-1,-0.001749065421724862,-0.0013482539182357058,-0.009359276345767064,0.01609778003943388,0.9850763616398514
2015-01-09,-1,-0.0006225388037087366,-0.00038887956491302116,-0.009359276345767064,0.011583495799497285,0.9864834631751775
2015-01-13,-1,-0.0014421746198099447,-0.001143630455613024,-0.005887939266595285,0.012755170413361263,0.9865103087269788
2015-01-15,-1,-0.0018682666040028984,-0.0015210974263497592,-0.008832461913890614,0.014216720173476055,0.9855756601870354
2015-01-20,-1,-0.0008617602942607102,-0.0006248666080539367,-0.008832461913890614,0.01237505127027187,0.9868779740595471
2015-01-22,1,0.0008335795912728176,0.0008866159258965273,-0.010220910014662694,0.01237505127027187,0.9883259515106441
2015-01-26,1,0.001417078418573791,0.0014528190387223913,-0.010220910014662694,0.01237505127027187,0.9883204391754318
2015-01-28,1,0.0007578805558138444,0.0007885627099615839,-0.010220910014662694,0.01237505127027187,0.988492994037959
2015-01-30,0,-2.9116957135451717e-05,9.368136600731801e-05,-0.008907477524363877,0.01237505127027187,0.9897021899356094
2015-02-03,1,0.0013237517177889144,0.0013562995883234447,-0.010220910014662694,0.007584332006536706,0.9901959022795426
2015-02-05,1,0.0014370217957997572,0.001470729545081783,-0.01026693535402583,0.004708382184539526,0.9908148467119151
2015-02-09,1,0.0003638480265029452,0.00044633520941356154,-0.01026693535402583,0.006289707956402451,0.9912518973160478
2015-02-11,1,0.0013966429853238824,0.0014655250759178415,-0.01026693535402583,0.00460159599346043,0.9914304370137623
2015-02-13,1,0.0012140701962214033,0.0012351616835260708,-0.009241413292298179,0.00460159599346043,0.9914545073605457
2015-02-18,1,0.0013128707146643202,0.0013463757514112229,-0.009241413292298179,0.00460159599346043,0.9910672173103944
2015-02-20,1,0.0012374378404120408,0.0012532593098768887,-0.006115182063253705,0.0017799961898822842,0.9920708975128438
2015-02-24,1,0.0007121061039563697,0.0007660499250611548,-0.007363733762206625,0.0017799961898822842,0.9906235182929181
2015-02-26,-1,-0.0005782733191447216,-0.0003285911096617941,-0.015237634461150406,0.0017799961898822842,0.99003985986725
2015-03-02,0,-1.577893567173105e-05,0.00011404177923010243,-0.015237634461150406,0.003417813345773549,0.9893354497061172
2015-03-04,-1,-0.0012264549517291582,-0.0009316365512680337,-0.015237634461150406,0.003417813345773549,0.9895311970667112
2015-03-06,-1,-0.0033191836225347033,-0.002667413206306188,-0.010472067033390979,0.003417813345773549,0.990472231531349
2015-03-10,-1,-0.004163738626875463,-0.0034019407188122155,-0.007489576850810765,0.0038543063614030577,0.9905793906316362
2015-03-12,-1,-0.0030565777548717324,-0.0025050447187456816,-0.007489576850810765,0.012192479283505926,0.9894616093631539
2015-03-16,-1,-0.0026718930271632663,-0.0021601733662065933,-0.010472067033390979,0.004937345048944988,0.9895609265623109
2015-03-18,-1,-0.0024941713646792598,-0.001996118204511723,-0.010472067033390979,0.004228235559311738,0.9894748779717611
2015-03-20,-1,-0.0011672120518771351,-0.0009442345223558414,-0.010472067033390979,0.010065150814606174,0.9881646158406446
2015-03-24,-1,-0.0023637076581286597,-0.002028526181056814,-0.008622519761465,0.011855774534668958,0.9891904669681252
2015-03-26,-1,-0.003907331699405226,-0.003377772224103665,-0.007466653048324282,0.011855774534668958,0.9895297695543177
2015-03-30,-1,-0.0031205407651801785,-0.002687935001960015,-0.007466653048324282,0.00944228364919378,0.990321121436998
2015-04-01,-1,-0.0038629656160341606,-0.003364103339684979,-0.007030228657345537,0.00944228364919378,0.9906896569657107
2015-04-06,-1,-0.0036518481088876433,-0.003219424145923251,-0.006619629478464331,0.011855774534668958,0.9897803909324083
2015-04-08,-1,-0.0023515680702601753,-0.0021150175357860825,-0.007466653048324282,0.009816895718245339,0.9896346428912794
2015-04-10,-1,-0.001272793761110215,-0.0011489911792864102,-0.007466653048324282,0.004876628049845596,0.9909243528831353
2015-04-14,-1,-0.0022920481241106906,-0.0020531787678932157,-0.007466653048324282,0.004876628049845596,0.9915588527913869
2015-04-16,-1,-0.0020675145168770176,-0.0018630267135223747,-0.00863123561552678,0.003539322241046229,0.99082623800454
2015-04-20,-1,-0.000904089971690963,-0.0008604763811992503,-0.00863123561552678,0.003539322241046229,0.990796021064818
2015-04-22,-1,-0.0005723687885106465,-0.0005627032712231214,-0.007583159665750912,0.0028333035390386467,0.9913657011185222
2015-04-24,-1,-0.0020969369674373184,-0.0018708842817377535,-0.007145715689727633,0.003539322241046229,0.991561885583409
2015-04-28,-1,-0.0013396755194226015,-0.0012466546537872865,-0.007678318050524734,0.0028380964724168886,0.9912427109535809
2015-04-30,-1,-0.0018333756756980218,-0.0016889907472165957,-0.007725745384760386,0.0028380964724168886,0.9912524093644861
2015-05-04,-1,-0.001677766691125183,-0.0014904825847619338,-0.007725745384760386,0.0017970420185438297,0.9915663492832861
2015-05-06,-1,-0.0021830653045096116,-0.0019167193527126541,-0.007145715689727633,0.0017970420185438297,0.9927821097242563
2015-05-08,-1,-0.002166526394655072,-0.0018851165596502524,-0.007725745384760386,0.0018264103987815845,0.9921943894305018
2015-05-12,-1,-0.002835810446275614,-0.002471566367358552,-0.00793785976948971,0.0018264103987815845,0.992442027073814
2015-05-14,-1,-0.0028035318800941375,-0.0025266538674277653,-0.007145715689727633,0.004205846558895542,0.9930330653411868
2015-05-18,-1,-0.0016966673700439666,-0.0015769935657308225,-0.007145715689727633,0.001464692499886513,0.9937586061389135
2015-05-20,-1,-0.0018161921688766604,-0.0016850260413777255,-0.005139911781740569,0.005622215587924453,0.9931128295454412
2015-05-22,-1,-0.0012655965651361134,-0.001208376513167377,-0.0058368974767288246,0.004205846558895542,0.9935430698186833
2015-05-27,-1,-0.0019751048219800327,-0.0018154984229162875,-0.0058368974767288246,0.004205846558895542,0.9927907399413717
2015-05-29,-1,-0.003115726264463433,-0.0027641408588866437,-0.00562847484801921,0.004205846558895542,0.9928114760117666
2015-06-02,-1,-0.003069010971255732,-0.0027027904694728318,-0.010331684784146743,0.003035554392119672,0.9929431234731806
2015-06-04,-1,-0.002489721183746839,-0.00222770173238223,-0.010331684784146743,0.005226664280789592,0.9924113379789262
2015-06-08,-1,-0.0032494585454929193,-0.0028565934421262732,-0.005766094517984412,0.00554122381538463,0.9923461570988483
2015-06-10,-1,-0.0036759847483854797,-0.003222427958791718,-0.006068962447676676,0.00554122381538463,0.9915797266697244
2015-06-12,-1,-0.002730244085706029,-0.0024340777843199837,-0.008483742144927493,0.00554122381538463,0.9913891962913235
2015-06-16,-1,-0.0016280923992914656,-0.0015376279992665286,-0.008483742144927493,0.00554122381538463,0.9913507793388302
2015-06-18,-1,-0.0006671963275009143,-0.0006132284462336329,-0.010079630883780843,0.004429819199064064,0.9909907278945868
2015-06-22,-1,-0.0011276385533044815,-0.001096669558011661,-0.008096856248446596,0.005970634436420005,0.9909477944090055
2015-06-24,-1,-0.002314199572384895,-0.002121086856264621,-0.010153588777838302,0.005970634436420005,0.9892605582138594
2015-06-26,-1,-0.0020875297382632898,-0.002006699560773877,-0.008096856248446596,0.006060228359910191,0.9893800494470424
2015-06-30,-1,-0.0022078461821730434,-0.002138662094997374,-0.0051501136382446615,0.010444017289968294,0.9864932217574824
2015-07-02,-1,-0.0020470505515378028,-0.0019557030043165077,-0.007779632250017255,0.010444017289968294,0.9870350065477652
2015-07-07,-1,-0.0010152216007165858,-0.0009310330814325462,-0.008741072992011927,0.006273267939603743,0.9872446510164696
2015-07-09,-1,-0.001210268554829966,-0.0011368812652202973,-0.008741072992011927,0.006273267939603743,0.9875323134317129
2015-07-13,-1,-0.0006252303665062419,-0.00045333372775815733,-0.01013869276859216,0.006273267939603743,0.9874325147675728
2015-07-15,-1,-0.0003971814143695682,-0.00018543277279376867,-0.011491432121714945,0.006427587623525865,0.9867660538878138
2015-07-17,0,-0.00016273957360126606,7.476199543683443e-05,-0.011491432121714945,0.005370565482570606,0.9878191861366196
2015-07-21,1,0.00021074520983940012,0.0004753139112448159,-0.011491432121714945,0.0016534134102848804,0.9883903594591618
2015-07-23,-1,-0.0012803245353591578,-0.001203699761710361,-0.00918702077330414,0.0016534134102848804,0.9901572593546141
2015-07-27,-1,-0.0015419335652176083,-0.001505508925125529,-0.01272671649910473,0.0004313697610645663,0.986954496681966
2015-07-29,1,0.002026881991491279,0.0024859778837664596,-0.013483733751330794,0.00010783080776569925,0.9850363880767555
2015-07-31,1,0.0013965942536325886,0.0017365165218275831,-0.013483733751330794,0.0017048533049255875,0.9846824373093636
2015-08-04,1,0.0008342199278583423,0.0011156064708407682,-0.016745817185891954,0.0017048533049255875,0.9839047082602748
2015-08-06,1,0.0004610689625870676,0.0007249895740984018,-0.016745817185891954,0.006966624680245416,0.9838546703297186
2015-08-10,1,0.0006798665297269609,0.0009948606716135835,-0.016277693726448952,0.006966624680245416,0.9827144042311864
2015-08-12,1,0.0005173083275342898,0.0008054458014485999,-0.016277693726448952,0.006966624680245416,0.9830407874412191
2015-08-14,1,1.1893375735874396e-05,0.0001726958996985986,-0.016277693726448952,0.006966624680245416,0.9823977387159851
2015-08-18,-1,-0.0005242355077975549,-0.0005070118463798945,-0.016277693726448952,0.020616727162511273,0.9801622617269469
2015-08-20,-1,-0.0013510001358300787,-0.0013077425888736367,-0.01533207026559148,0.020616727162511273,0.9809266177452514
2015-08-24,-1,-0.001828349171144434,-0.0016825089539898616,-0.011747325338717265,0.020616727162511273,0.983351011110286
2015-08-26,-1,-0.0011648577461302997,-0.0010825228448834235,-0.011294193003662929,0.010445716090900968,0.9858163139492623
2015-08-28,1,0.00035212437032713207,0.0004957077443713813,-0.011875745519373718,0.010342328960970816,0.9853726207382734
2015-09-01,-1,-0.0002784449419187346,-0.00015332087489501828,-0.010864172721816086,0.020616449675896743,0.9854812220818694
2015-09-03,1,0.0002980921922514412,0.0004382881436316777,-0.010864172721816086,0.020616449675896743,0.9849346370995742
2015-09-08,1,0.0011484012650254008,0.0014128249382734741,-0.010580917839861068,0.019914677814399186,0.9861614932010296
2015-09-10,1,0.0012412334368925226,0.001557538597563319,-0.010253309376385904,0.02044130229916626,0.9850239588534788
2015-09-14,1,0.0008878355053645138,0.001173409579181296,-0.010296116103271387,0.02044130229916626,0.9848433353660627
2015-09-16,1,0.002068651813623735,0.0024640811378279694,-0.012398576127300586,0.018869938111802036,0.9856467956699753
2015-09-18,1,0.0014116705479404854,0.0017288109320431197,-0.012067913805354083,0.018869938111802036,0.9855311386490141
2015-09-22,1,0.000786371790026462,0.0009892442991969734,-0.010296116103271387,0.018869938111802036,0.9859426702788058
2015-09-24,1,0.00042874260981783834,0.0006238980596981226,-0.005012301824907286,0.01987083560309555,0.9849828973306434
2015-09-28,1,0.0003738525031213579,0.000542125630490924,-0.005012301824907286,0.018869938111802036,0.9859130792221777
2015-09-30,1,0.0017805092635983905,0.002160240237896847,-0.010617153496212627,0.017049040713809836,0.9849864608849659
2015-10-02,1,0.002835733744097229,0.003321530191416118,-0.013194929383873455,0.011964968057956665,0.9855563326031186
2015-10-06,1,0.00270650790647756,0.003112816758974361,-0.013194929383873455,0.006273575138056677,0.9860401151084834
2015-10-08,1,0.0044307224578117406,0.005102431385978585,-0.013194929383873455,-0.0007216006323018225,0.985449051396773
2015-10-12,1,0.003644256607336795,0.004195900855983269,-0.013194929383873455,-0.00014339625998658007,0.9862766672508929
2015-10-14,1,0.0028613377589328513,0.0033284884224150206,-0.013194929383873455,-0.00014339625998658007,0.9869177852244747
2015-10-16,1,0.002571295112739805,0.0029663834700048653,-0.01156563173629576,-0.001395503855473285,0.987838102154192
2015-10-20,1,0.0025181844188972074,0.0028680686204990724,-0.01156563173629576,-0.00014339625998658007,0.9880612231609125
2015-10-22,1,0.0036986330250328237,0.004217239093897024,-0.01156563173629576,-5.024467438178573e-05,0.988236793129647
2015-10-26,1,0.002976883879399397,0.00340004541099972,-0.01156563173629576,-5.024467438178573e-05,0.9884974260721193
2015-10-28,1,0.001831248563532303,0.002079268399703388,-0.007090344507965223,-5.024467438178573e-05,0.9914917444148132
2015-10-30,1,0.0012676280885521715,0.0014157391979029094,-0.005939470278175913,-0.001352943971949714,0.9920835983292525
2015-11-03,1,0.0011307794126406852,0.001277944498367618,-0.0076597860849113505,-5.024467438178573e-05,0.9910345069385694
2015-11-05,1,0.00047765008764971304,0.0005450133397213924,-0.011953984429554788,-5.024467438178573e-05,0.9898983449022162
2015-11-09,1,0.0004191351320955545,0.0005201791444664743,-0.013627492373475075,-0.001352943971949714,0.9889707159728475
2015-11-11,-1,-0.0005957122716434963,-0.0005493662495486181,-0.011684303340039013,0.0007374134366875673,0.9892250137530884
2015-11-13,-1,-0.0015611398711147038,-0.0013472191702958705,-0.011684303340039013,0.0007374134366875673,0.9896285315719796
2015-11-17,-1,-0.0012535808981847228,-0.0010439971609312439,-0.011684303340039013,-0.0010714513474345,0.988499159401127
2015-11-19,-1,-0.000868145162358105,-0.0006714182356123739,-0.019099528537493846,-0.0018876054407609608,0.987372513814161
2015-11-23,-1,-0.0015000592726685197,-0.0012562140879359915,-0.014774543744360725,-0.0006717050274473199,0.9875829065894005
2015-11-25,-1,-0.0014907346474279236,-0.0012701037794548076,-0.014774543744360725,0.0019366523966491073,0.9864939781451253
2015-11-30,-1,-0.0023009715768216197,-0.0019510909804046764,-0.014774543744360725,0.00603077406152556,0.9862173043419814
2015-12-02,-1,-0.0029848755386154262,-0.0025743294412037526,-0.011684303340039013,0.002607038203316711,0.9876493414230819
2015-12-04,-1,-0.004612013215624433,-0.004010431108591525,-0.0069909889608001895,0.00849309919461937,0.988750924980525
2015-12-08,-1,-0.005950063373162586,-0.00521089707496223,-0.0069909889608001895,0.00849309919461937,0.9870971107547243
2015-12-10,-1,-0.004223183091509343,-0.003719269216255391,-0.0069909889608001895,0.010053256210441269,0.9872337806234044
2015-12-14,-1,-0.004850650464300141,-0.004204849570551352,-0.012223659304674943,0.01122044594299506,0.9849051033967638
2015-12-16,-1,-0.003445298848812753,-0.002973700738045715,-0.018032732834463213,0.01122044594299506,0.9848854822481835
2015-12-18,-1,-0.0035174843081678276,-0.0031629486737677387,-0.007365476329274576,0.01122044594299506,0.9863506697632578
2015-12-22,-1,-0.00274596008946842,-0.0024493922905129053,-0.015011378172457922,0.010053256210441269,0.985533248018593
2015-12-24,-1,-0.0022891609960143822,-0.002009175879583279,-0.01720128906680411,0.010053256210441269,0.9850670141633593
2015-12-29,-1,-0.0026055298511831965,-0.002249488196089673,-0.01720128906680411,0.01122044594299506,0.9843805380456646
2015-12-31,-1,-0.00306073715303866,-0.002646105850517005,-0.01720128906680411,0.015336195354341406,0.9824205487628574
2016-01-05,-1,-0.00325097366074083,-0.0028001317126169134,-0.017747223371174608,0.015336195354341406,0.9820973820616383
2016-01-07,-1,-0.005153866046760234,-0.004481169961228485,-0.014955352498544534,0.016489011898635192,0.9824654653039797
2016-01-11,-1,-0.004036065122821076,-0.003497128220688103,-0.014955352498544534,0.016489011898635192,0.9823003783256027
2016-01-13,-1,-0.005330825071207887,-0.0045760085487721956,-0.014955352498544534,0.015336195354341406,0.98400444971785
2016-01-15,-1,-0.0043107388677669205,-0.0037295476494231304,-0.014050384786152621,0.016489011898635192,0.9830554060038741
2016-01-20,-1,-0.004086513547419089,-0.0035667761894011126,-0.014733554650722024,0.016489011898635192,0.9822317165376944
2016-01-22,-1,-0.003821274965937242,-0.0033861567007791725,-0.008364252672998406,0.01897886926485559,0.9821154213816439
2016-01-26,-1,-0.00463218949049406,-0.004042987893524546,-0.008364252672998406,0.017296635584718757,0.9813335210894089
2016-01-28,-1,-0.0038190643618355967,-0.0033796678265861765,-0.007269775236327014,0.01717345001250775,0.9821197058683534
2016-02-01,-1,-0.001692724088356957,-0.0015456401210785465,-0.010773105018682531,0.015817442165051144,0.9833940025638385
2016-02-03,-1,-0.002235095926406211,-0.002011362830526018,-0.008207355462228264,0.015817442165051144,0.9839336997709143
2016-02-05,-1,-0.0011090690732486175,-0.0009882251343625574,-0.008207355462228264,0.014770638609742107,0.9856199324486998
2016-02-09,1,0.0008339137460308999,0.001051789646689599,-0.010773105018682531,0.015817442165051144,0.9844231423814991
2016-02-11,0,-2.1270760179515274e-05,4.1838022427781734e-05,-0.009516108720548217,0.01733371678073646,0.9835544489428416
2016-02-16,1,0.0013455540261977565,0.0015677677248468283,-0.010010273546097749,0.014770638609742107,0.9855395926140794
2016-02-18,1,0.0005900131733469399,0.0006669008175932875,-0.009516108720548217,0.015817442165051144,0.9848245507005486
2016-02-22,1,0.0018705009188861694,0.002115588136363979,-0.009516108720548217,0.014824060865818344,0.9857504018696952
2016-02-24,1,0.0018707380082633588,0.0021997837296870706,-0.009516108720548217,0.012845330477812392,0.9864505802636092
2016-02-26,1,0.002573108278064431,0.0030792359123315094,-0.009912239698604414,0.012845330477812392,0.9854397606192223
2016-03-01,1,0.003000597121536561,0.003590281574250115,-0.008174677513063819,0.011991385175189141,0.9861144716331939
2016-03-03,1,0.003791763897538418,0.004576090190039772,-0.009912239698604414,0.011991385175189141,0.9854018434647878
2016-03-07,1,0.00418171609651982,0.00498166743810695,-0.009912239698604414,0.01028328717291277,0.9850805428913335
2016-03-09,1,0.003367081976430243,0.004007685578656451,-0.008310564091121613,0.005061619486349028,0.9876736001825953
2016-03-11,1,0.003850959614624907,0.004557936595127035,-0.007500006084199218,0.005061619486349028,0.9880374769635198
2016-03-15,1,0.003608899571819784,0.004305983836123808,-0.007351962975159108,0.012194970291046898,0.987788277319393
2016-03-17,1,0.005752991836978711,0.006812063886748529,-0.007500006084199218,0.010160968028999453,0.9878461432028786
2016-03-21,1,0.005516807781950065,0.006501532933322787,-0.007500006084199218,0.010160968028999453,0.9879139851965499
2016-03-23,1,0.00431177090335811,0.005063272110106227,-0.007351962975159108,0.013171439923325111,0.9875999046284663
2016-03-28,1,0.002961696498616638,0.003510781880299665,-0.006384446033454951,0.015453743077852605,0.9871628214722388
2016-03-30,1,0.003581807211387654,0.004196052981060128,-0.006384446033454951,0.015453743077852605,0.9874435473598068
2016-04-01,1,0.0024850361586919215,0.002914288841835036,-0.006384446033454951,0.015453743077852605,0.987192632489418
2016-04-05,1,0.002062283260974749,0.00240930929776779,-0.006397523623036634,0.015453743077852605,0.9863949205723702
2016-04-07,1,0.0013000608405502934,0.001496526811030966,-0.00880688685444442,0.015453743077852605,0.9857327689167968
2016-04-11,1,0.0014505815020726684,0.0016488703521123577,-0.012879014520287689,0.014048540257260371,0.985840385798881
2016-04-13,1,0.0029604296006458144,0.0033942869309776876,-0.01313817040279707,0.014048540257260371,0.9859143687970102
2016-04-15,1,0.0029871692422948366,0.003459356372238354,-0.01338258443593543,0.014048540257260371,0.9851904285763757
2016-04-19,1,0.002793754062112094,0.003191418224995986,-0.01338258443593543,0.010933771530467503,0.986004910650599
2016-04-21,1,0.0041793489180570655,0.0047433956146335395,-0.01338258443593543,0.005049060452088954,0.9874121917400212
2016-04-25,1,0.0037096155709068347,0.004188715341887181,-0.012879014520287689,0.005049060452088954,0.988851528921389
2016-04-27,1,0.0038089598329218793,0.004251205695104413,-0.012879014520287689,0.004231011292815888,0.9881631413493208
2016-04-29,1,0.0019279030985375032,0.002030782557257047,-0.01266460888119492,0.006666902534363946,0.9894374235382851
2016-05-03,1,0.0008846444785386422,0.0009783181950552661,-0.011525104679692085,0.006666902534363946,0.9901215730546609
2016-05-05,1,0.0005517930019918208,0.0006390748739389384,-0.008560868187550431,0.00871610239684103,0.9898820081215208
2016-05-09,0,-7.102328800932312e-05,0.00010772195652848638,-0.007079568586260795,0.009195283148341695,0.9901717297208369
2016-05-11,1,0.00028146510876740947,0.00037637470913781033,-0.003559441776689968,0.009195283148341695,0.9909682114772369
2016-05-13,-1,-0.0017694007691825121,-0.0013596617666853422,-0.001326252876522801,0.009195283148341695,0.9914757656489567
2016-05-17,-1,-0.0013211743530722525,-0.001000669815756167,-0.005456882237537732,0.009195283148341695,0.9913578912283845
2016-05-19,-1,-0.001344189407900611,-0.0010519189003557246,-0.005036012994245198,0.009195283148341695,0.9915976182558821
2016-05-23,-1,-0.0014054838500842954,-0.0011067908118340799,-0.004996415721386025,0.007810988889868591,0.9921864223837172
2016-05-25,-1,-0.0010513784916736982,-0.0007733870309272546,-0.004996415721386025,0.007810988889868591,0.9926995911625902
2016-05-27,-1,-0.0010134939592314437,-0.0007470977599525002,-0.005036012994245198,0.006530989649419472,0.9900910231472397
2016-06-01,-1,-0.0018147180825502315,-0.0013727024915422346,-0.005036012994245198,0.00921797892092174,0.9884896068685106
2016-06-03,-1,-0.0004904817867831154,-0.00024075053528916713,-0.005036012994245198,0.009028247404957333,0.9893106994134958
2016-06-07,-1,-0.00040512786627418295,-0.00014381659866729126,-0.005036012994245198,0.007178008528920413,0.9897678517415103
2016-06-09,1,0.0002452889019741492,0.00044575693731550717,-0.005036012994245198,0.007871201613352093,0.9889413573693496
2016-06-13,-1,-0.0004441212848052184,-0.0001490456054167108,-0.004996415721386025,0.00859954615307397,0.988562429185265
2016-06-15,-1,-0.000741267615119918,-0.0004313832210758936,-0.0018843197885299223,0.011432212211685968,0.9876320580757967
2016-06-17,-1,-0.0009320578098522291,-0.0005924805412652457,-0.0018843197885299223,0.011432212211685968,0.987657879131365
2016-06-21,-1,-0.001066480494315382,-0.0007067136707563748,-0.001811070760625452,0.011432212211685968,0.9879694497630778
2016-06-23,1,4.155938147196804e-05,0.00020106492363059376,-0.0018699067006224853,0.012795055316241075,0.9862696688003728
2016-06-27,-1,-0.0016754855866197892,-0.0012906532795217453,0.0003220408895337505,0.012795055316241075,0.9882829721273957
2016-06-29,1,0.0004006865779297338,0.0004798326473475658,-0.0018699067006224853,0.008743677444657608,0.9897898261127414
2016-07-01,1,0.0011767180371332919,0.001238244606429852,-0.0018699067006224853,0.0077666117360526525,0.9904411981039045
2016-07-06,1,0.0007336744612643099,0.0007640051056407816,-0.0028894324430573442,0.009889197784478655,0.988825963769169
2016-07-08,1,0.002515548475233503,0.0027898283708824006,-0.0031499305426082444,0.009116396885735425,0.9899481084176337
2016-07-12,1,0.002620992405111412,0.0028846099941659143,-0.0065049202528896,0.009116396885735425,0.9897127202748288
2016-07-14,1,0.003897247837189721,0.004387831881710547,-0.006977524098637731,0.006196611243708124,0.9897782231385186
2016-07-18,1,0.003121004422092748,0.003467945540604731,-0.0071810019456221875,0.006874299991067722,0.9898047077268821
2016-07-20,1,0.002982714625477247,0.003303310303736234,-0.0071810019456221875,0.009116396885735425,0.9893734813074679
2016-07-22,1,0.002701073050686159,0.0029831231797047826,-0.006296465193509834,0.009116396885735425,0.9913507782627932
2016-07-26,1,0.0026065441668117854,0.0028677919271883835,-0.004435775357155406,0.008533179320095886,0.9915105848212523
2016-07-28,1,0.0028438534368575253,0.0031664389473477963,-0.004522092513751735,0.0066798941358545425,0.9922456570403864
2016-08-01,1,0.002501489146020361,0.0027519174101896453,-0.004522092513751735,0.007820389497112088,0.9920916223770422
2016-08-03,1,0.002658639652078491,0.0029475283552004255,-0.0037908518128192013,0.0066798941358545425,0.993320225525587
2016-08-05,1,0.0026014946078045057,0.0028498567850497843,-0.0037908518128192013,0.0058511302315186016,0.9936453334602989
2016-08-09,1,0.0027107586147836673,0.003040204825192839,-0.0034184127141248803,0.0066798941358545425,0.9941143125201853
2016-08-11,1,0.002635853999097576,0.00295377811955956,-0.0034184127141248803,0.0066798941358545425,0.9925521903572253
2016-08-15,1,0.0017886381446436278,0.0019295851775975482,-0.0034184127141248803,0.007160299534659429,0.9921385438847266
2016-08-17,1,0.0017752738854066794,0.0018523261625788628,-0.0034184127141248803,0.004509690983114133,0.9929426699378185
2016-08-19,1,0.002189523240648612,0.0023528202228457334,-0.0037908518128192013,0.004509690983114133,0.9929999416144546
2016-08-23,1,0.0018033300088369996,0.0018739359844602253,-0.0035512537304895286,0.004536870910989992,0.992553235247257
2016-08-25,1,0.0012630541896934324,0.0012775067179095936,-0.0027188447751688664,0.004536870910989992,0.9926960665977038
2016-08-29,1,0.0012598291344429347,0.0012952016952425065,-0.0027188447751688664,0.004504915452766421,0.992743411341585
2016-08-31,1,0.0010479154479807247,0.0011017391045005018,-0.002188005178095749,0.007145972943616293,0.9923683777507668
2016-09-02,1,0.0013111453510194619,0.0013473196795957415,-0.001904170447689646,0.0073527886291728795,0.9917227502732602
2016-09-07,1,0.001301509761310317,0.0013211254685083346,-0.0030662979075238364,0.008703173505120496,0.9908046906851482
2016-09-09,1,0.00038326163811591533,0.00046502641853327954,-0.0022716764905908304,0.008703173505120496,0.9927074681606105
2016-09-13,1,0.0008191417738171142,0.0008731122216746932,-0.003641584138244601,0.007256922254502168,0.9931158523158011
2016-09-15,1,0.0008908105097261685,0.0009541885289500732,-0.0061505272681745046,0.007927698826775511,0.9925310028942269
2016-09-19,1,0.0011204192162936008,0.001241251177358198,-0.0037666630173754856,0.007498984519447176,0.9930519877538313
2016-09-21,1,0.0013143464547690138,0.0014226013265432168,-0.0037666630173754856,0.004880253137093383,0.9937176058866182
2016-09-23,1,0.000744294339178306,0.0007854199981577661,-0.0038655261889179527,0.004880253137093383,0.9908321912675225
2016-09-27,1,0.0005487328682943831,0.0005637493665682483,-0.005698101468852129,0.00195181189704577,0.9909824077548811
2016-09-29,1,0.0006726256107345285,0.0006855128540592368,-0.006640600062801965,0.0010812273314326584,0.9910186390862626
2016-10-03,1,0.0009335464500798912,0.0009480497195946752,-0.006640600062801965,-0.0001290606217806328,0.9913632476148893
2016-10-05,1,0.0006311118317418712,0.00069650411756004,-0.005698101468852129,-0.0001290606217806328,0.9922047424459246
2016-10-07,1,0.0003702831034140846,0.0004682367918103833,-0.005698101468852129,0.0009348853534102658,0.992568857259936
2016-10-11,-1,-0.0003882555950607804,-0.00018267152498472846,-0.003733151515055717,0.0010812273314326584,0.9924467949088508
2016-10-13,-1,-0.000557421814135455,-0.00028231503907406657,-0.0030562697059591994,0.00195181189704577,0.9895502416018308
2016-10-17,-1,-0.00038049228709983584,-0.00014448726306907824,-0.003733151515055717,0.005377329199564263,0.9880082372624586
2016-10-19,-1,-0.0004252754028063574,-0.00018019010613468762,-0.005155347601756604,0.0031934760756164296,0.9875710321262728
2016-10-21,-1,-0.002598208272639657,-0.00211792864959604,-0.003733151515055717,0.009407462629418079,0.9900424877448762
2016-10-25,-1,-0.002261528858605893,-0.0018640739119095185,-0.003235940607096359,0.009492457419849392,0.9898045964703219
2016-10-27,-1,-0.0024950919146350713,-0.0020934579374568326,-0.0027400851446490204,0.009492457419849392,0.9891462055812247
2016-10-31,-1,-0.0023291627769714833,-0.0019826752444159507,-0.0027400851446490204,0.009492457419849392,0.9887020797857915
2016-11-02,-1,-0.002292186164698189,-0.0019358107354587616,-0.001884848623199714,0.01282456189508661,0.9877431575810316
2016-11-04,-1,-0.002579036683806281,-0.0021657924406180804,-0.0027400851446490204,0.01282456189508661,0.9874886916279157
2016-11-08,-1,-0.0018645693954515295,-0.0015344218625054393,-0.0027400851446490204,0.01282456189508661,0.9870779577971671
2016-11-10,1,0.0006082332421387752,0.0006562375238672464,-0.0042690539590404765,0.009021009838953306,0.9906018724036967
2016-11-14,1,0.0014179918041576063,0.0014785797578500933,-0.004300175067804225,0.008360821743626642,0.9917014407247552
2016-11-16,-1,-0.0008962921716915615,-0.0005332248218542237,-0.004300175067804225,0.009021009838953306,0.9910241549401394
2016-11-18,1,0.0007642951554639817,0.0008500505022204231,-0.006575493302660133,0.007906742694277921,0.9911751899861828
2016-11-22,1,0.0011380164788526374,0.0011623812710583855,-0.006575493302660133,0.007906742694277921,0.9911015411787883
2016-11-25,1,0.0015927044644353991,0.0016207247442840543,-0.006575493302660133,0.005759286202569304,0.9914261157450942
2016-11-29,1,0.0016209041066049495,0.0017280646006176876,-0.006575493302660133,0.005759286202569304,0.9916663728394922
2016-12-01,1,0.0028212082363924316,0.003115958653570157,-0.0071043946643659745,0.003520573675062218,0.9917725085724548
2016-12-05,1,0.0030459115142723505,0.003431101505574314,-0.007561763997060823,0.005069243382569932,0.9914247860715285
2016-12-07,1,0.004043872972646874,0.0045423040479486395,-0.008997238376565131,0.005069243382569932,0.9914349873710817
2016-12-09,1,0.003474076067803524,0.0038905387089499207,-0.007843208953608129,0.005381956369631718,0.9917910442802512
2016-12-13,1,0.002922364734267878,0.0032233078704884937,-0.007843208953608129,0.006590445232920526,0.9923726143219193
2016-12-15,1,0.0030701188168350112,0.00338889563842914,-0.007843208953608129,0.005451756920025955,0.9926963906491874
2016-12-19,1,0.002506060529270489,0.002742853808854636,-0.0071805596392771395,0.006590445232920526,0.9924696771726804
2016-12-21,1,0.0026962334091831276,0.002956498980018084,-0.0071805596392771395,0.006590445232920526,0.9917268859704756
2016-12-23,1,0.002749513249573836,0.003003157895535496,-0.0071805596392771395,0.008605103470284462,0.9911647422753344
2016-12-28,1,0.0026463675129998966,0.002905955868164383,-0.0071805596392771395,0.008605103470284462,0.9910245228096397
2016-12-30,1,0.0019075911149643836,0.002042549655500434,-0.008916617139312506,0.008605103470284462,0.9902048395266964
2017-01-04,1,0.0015235699826326114,0.0016004981890864562,-0.007752664510137834,0.009917533622089782,0.9902824363768846
2017-01-06,1,0.0013087843712810013,0.001338017184384705,-0.007485729505943438,0.009949911697071146,0.990300261330504
2017-01-10,1,0.001750117973192038,0.001887568620896566,-0.0061019375157212365,0.008791296968977343,0.9909120991353874
2017-01-12,1,0.002370203524740592,0.002614387551406881,-0.0061019375157212365,0.007697060343692212,0.9911582325295532
2017-01-17,1,0.0018217137487297774,0.001996529044746679,-0.0041897100478875335,0.008443250977006139,0.9919186456867376
2017-01-19,1,0.0025313664752464075,0.002770818052157696,-0.0041897100478875335,0.007008646604977662,0.9925976554122823
2017-01-23,1,0.0032508098652306483,0.00360454508534828,-0.0035929065736116325,0.005949747532792981,0.9936910979232043
2017-01-25,1,0.003850552311063052,0.004263379361405892,-0.007360153174877307,0.004176046488092525,0.9925578377361677
2017-01-27,1,0.003242161245491501,0.0035559538645350327,-0.004609115267606223,0.004561827847566495,0.9930501226882827
2017-01-31,1,0.002322287371685571,0.0025338280054706076,-0.0030479517056191847,0.006198477743897623,0.9936714070985722
2017-02-02,1,0.0016528809865190802,0.0016838080112685542,-0.0030479517056191847,0.004561827847566495,0.9936259618740027
2017-02-06,1,0.0015475399211672405,0.001547779602789556,-0.0030479517056191847,0.004176046488092525,0.9938835399742803
2017-02-08,1,0.0013089975969284005,0.0013315922212118845,-0.005548683023072975,0.004176046488092525,0.9930813563631271
2017-02-10,1,0.0013556130405328291,0.0013768812629234347,-0.005548683023072975,0.004112699411388632,0.9932135468229527
2017-02-14,1,0.002117259782800541,0.002242029590834179,-0.007877605784220339,0.003971430708949801,0.9919633233788785
2017-02-16,1,0.0018501270366031574,0.0019137820407030433,-0.007877605784220339,0.003971430708949801,0.9921641332414719
2017-02-21,1,0.001870388419624211,0.0019439844538722746,-0.009664520360185024,0.0038438701510684517,0.9911403254424213
2017-02-23,1,0.0008251064588561751,0.0008633389109819041,-0.008845937450302028,0.003989947647062955,0.992600261644024
2017-02-27,1,0.0013651671800926453,0.001421759564758313,-0.008845937450302028,0.0038095040445662253,0.9930326314103535
2017-03-01,1,0.00250071832392894,0.0027322777856766327,-0.008845937450302028,0.002139851250922182,0.9929048427161524
2017-03-03,1,0.0018325427675026779,0.00195754994781398,-0.0088237833965616,0.0038095040445662253,0.9927946545456049
2017-03-07,1,0.0010462425480951688,0.0010680146410895327,-0.005871460245100205,0.0042469159590125816,0.9927050460795354
2017-03-09,0,-1.893455668381278e-05,0.00012856867497770152,-0.004000037017580294,0.0042469159590125816,0.9934319822184692
2017-03-13,0,-4.8754592805125274e-05,0.00010741631475778824,-0.004000037017580294,0.005218816977846808,0.9932657905564962
2017-03-15,-1,-0.00045866281546513507,-0.0002580775800065662,-0.004000037017580294,0.0042469159590125816,0.9938542934039164
2017-03-17,-1,-0.0018575599868892582,-0.0013780326376564612,-0.004949120801324181,0.004344813722491249,0.9931237765591765
2017-03-21,-1,-0.0032388190103333097,-0.002583356637806296,-0.0023606748029906996,0.005260867562484836,0.9929218753228343
2017-03-23,-1,-0.0037017752946219068,-0.0029570801061825176,-0.0012715068381568048,0.006732942025201604,0.9921699538653131
2017-03-27,-1,-0.004040393253587613,-0.003234458100949221,-0.0012715068381568048,0.010425334760175618,0.9910973740255321
2017-03-29,-1,-0.0034020859586906234,-0.0026772834822692314,-0.0030957983444794297,0.010425334760175618,0.9907574929187465
2017-03-31,-1,-0.0033509325499918876,-0.0026380324039244328,-0.003402889565802768,0.009871391774084788,0.9913548566677962
2017-04-04,-1,-0.0024906351215489004,-0.001911497058626361,-0.0034376870043998932,0.0065586601845772025,0.9924378063269244
2017-04-06,-1,-0.0009778684198649026,-0.0007406301566757052,-0.0035540575904198803,0.0065586601845772025,0.9925043683351393
2017-04-10,-1,-0.0005333771661338828,-0.0003700640424821427,-0.004667502832734924,0.0063070174787792305,0.9925551024171722
2017-04-12,-1,-0.0019082274748087368,-0.0015482684633847795,-0.004667502832734924,0.007775531472623507,0.992829810767797
2017-04-17,-1,-0.0012925765442202241,-0.0010425900912555061,-0.0035540575904198803,0.007161525979789343,0.993115969032956
2017-04-19,-1,-0.0008853277017900562,-0.0006922720574769262,-0.004667502832734924,0.007161525979789343,0.9916038607299275
2017-04-21,1,3.8222847893033644e-05,0.0001111423825091129,-0.004667502832734924,0.005865971517978805,0.9918472007801987
2017-04-25,1,0.0004213053108238589,0.00048510745476239086,-0.004667502832734924,0.004011873366303758,0.9923268520805065
2017-04-27,1,0.0019966247082431527,0.0021948397636830136,-0.004667502832734924,0.004011873366303758,0.9929250371338871
2017-05-01,1,0.0010885905304741897,0.0011504116735844136,-0.0030296012728520637,0.005865971517978805,0.9936707626522414
2017-05-03,1,0.0014765744668171373,0.0016681877029035748,-0.0030377291608900043,0.005865971517978805,0.9938544264722254
2017-05-05,1,0.0011109465608290954,0.0012234249539492686,-0.0030377291608900043,0.0059206576767415545,0.9934723896154807
2017-05-09,1,0.0005877128244780303,0.0006070731241785417,-0.0030377291608900043,0.0059206576767415545,0.9931471403404056
2017-05-11,1,0.0007106318971013263,0.000759236187105925,-0.0012590322864175067,0.005809520505763227,0.9934574999922157
2017-05-15,1,0.0007910130315506859,0.0008181286353928043,-0.0012590322864175067,0.005809520505763227,0.9931855917819503
2017-05-17,-1,-0.00027629383178193743,-0.00019846189871418145,-0.000824502297167835,0.006839418275157713,0.9938451472065727
2017-05-19,1,4.2505840622089855e-05,7.337810712331957e-05,0.00014240833466074167,0.006839418275157713,0.9937395305979748
2017-05-23,1,0.0002982576748772553,0.000309072464228621,-0.005136163840798482,0.0064842100941206945,0.9923643027440588
2017-05-25,1,0.00067578108153738,0.0006853421718998746,-0.005136163840798482,0.0064644478966739485,0.9927523784174038
2017-05-30,1,0.000888008045799458,0.0009095566668675155,-0.006405259448723403,0.005740771658770825,0.9927803278377484
2017-06-01,1,0.000658150548357896,0.0006663236659095854,-0.007075649535683586,0.0064644478966739485,0.9920796861449667
2017-06-05,1,0.0004387840359985945,0.0004708831698353094,-0.006405259448723403,0.006998705620692892,0.9918792934328048
2017-06-07,1,0.0002748054201511269,0.00030267059065577033,-0.006405259448723403,0.006998705620692892,0.9914266956860754
2017-06-09,1,0.00011808648462049702,0.00019156205695883304,-0.006405259448723403,0.006939419028352655,0.9914970934063037
2017-06-13,1,0.0006488460195410918,0.0006912923115742518,-0.006405259448723403,0.0064644478966739485,0.9920102035367894
2017-06-15,1,0.0006798094531039395,0.000763384632373388,-0.004968542044627284,0.00628921428772246,0.9927247369465274
2017-06-19,1,0.0015013329184582153,0.001744079990331541,-0.004968542044627284,0.0058439643679663155,0.9928388329737918
2017-06-21,-1,-0.00022044611097806908,-0.00021208081888501003,-0.004968542044627284,0.0058439643679663155,0.9932768822785302
2017-06-23,-1,-0.0007007736493332788,-0.0005901613854805711,-0.008905205253921099,0.005533715661389495,0.9926656116422713
2017-06-27,-1,-0.0008109392552660736,-0.0007005774942732005,-0.008905205253921099,0.0058439643679663155,0.9920734721439544
2017-06-29,-1,-0.00045269099830527314,-0.0003912156756323428,-0.011550565213083636,0.0058439643679663155,0.9907536468207148
2017-07-03,1,0.00028861088850691324,0.00030844002638363626,-0.011550565213083636,0.0027442687476978435,0.9910177241554151
2017-07-06,-1,-0.00044715565294022757,-0.0003881944127658701,-0.00997603799416721,0.003942796774173917,0.9918446569814863
2017-07-10,1,0.00012138169489162523,0.00015696365131492867,-0.00997603799416721,0.002470446896188221,0.9920793652552369
2017-07-12,1,0.00042259225342386464,0.0005034437585496049,-0.00997603799416721,0.003768323941886444,0.9918184534780957
2017-07-14,1,0.0005731932645494292,0.0006805806010282182,-0.010643056956859716,0.003768323941886444,0.9913521660904384
2017-07-18,-1,-0.0001377361549774774,-9.488358175801032e-05,-0.010643056956859716,0.005305198883136993,0.9910798210881157
2017-07-20,-1,-0.0012070491538289732,-0.0010557911431576363,-0.009740557760808646,0.007309250034826125,0.9906785135517682
2017-07-24,-1,-0.0015114179912138071,-0.0013749584868254238,-0.003754773429485927,0.007375944758390896,0.9909355887739258
2017-07-26,-1,-0.001374318401882167,-0.0012375341232135587,-0.004848121495960891,0.007375944758390896,0.9904230731461418
2017-07-28,-1,-0.0019955958042103847,-0.00177844767369129,-0.00358719134242811,0.0069114136169428405,0.9920316640659371
2017-08-01,-1,-0.002927409320986262,-0.002563811976542097,-0.0016305675184634704,0.0069114136169428405,0.9915758373836692
2017-08-03,-1,-0.0025866121201106587,-0.002268784897973241,-0.0016305675184634704,0.0069114136169428405,0.9918342452105062
2017-08-07,-1,-0.002749319330159705,-0.0023966955740199127,-0.0050185737089839515,0.0069114136169428405,0.991337382068287
2017-08-09,-1,-0.002139909230274485,-0.0018684748679864919,-0.0050185737089839515,0.007375944758390896,0.9914448299957094
2017-08-11,-1,-0.00269678902796463,-0.002317619151254378,-0.0013329626050924623,0.008411501576971347,0.990753581058654
2017-08-15,-1,-0.002135641205642496,-0.0018263246694511116,-0.0013329626050924623,0.007308945953749914,0.9913370926853164
2017-08-17,-1,-0.002791807231642127,-0.0024035389628110724,0.0011393670567080806,0.008411501576971347,0.9903756625630062
2017-08-21,-1,-0.0019001282546290972,-0.0016450936898356984,-0.0013329626050924623,0.008679212029345221,0.9905241997879081
2017-08-23,-1,-0.0014893332823430168,-0.0012891573583380985,0.0011393670567080806,0.008679212029345221,0.9909215194948969
2017-08-25,-1,-0.0010931956315204084,-0.0009654648751096371,0.0011393670567080806,0.008679212029345221,0.9913900976126663
2017-08-29,-1,-0.001177103980505529,-0.0010395731112334682,0.0011393670567080806,0.009176856339019334,0.9911946895978907
2017-08-31,-1,-0.0008985927909437624,-0.000804501109108456,-0.00021657592992162917,0.009176856339019334,0.991322148261375
2017-09-05,-1,-0.0017295686587393308,-0.0015069498859831734,-0.0014269982956486272,0.009176856339019334,0.9913433313902786
2017-09-07,-1,-0.00111316457518439,-0.0009695517374169633,-0.0031343508628802873,0.009114438440909627,0.9917725288391633
2017-09-11,1,3.0049817036439535e-05,3.586211786494219e-05,-0.0031343508628802873,0.005090762812371829,0.9931893642067546
2017-09-13,1,0.0004745371206335971,0.0005684360521308514,-0.0038436566426215016,0.005090762812371829,0.9927133184084708
2017-09-15,1,0.0024332906753076373,0.0028280591297818796,-0.005838682081471976,0.003844968238454108,0.9935789153586393
2017-09-19,1,0.0030133092787800824,0.003549649914975169,-0.005838682081471976,0.003753333904712888,0.9933805261699455
2017-09-21,1,0.0033670429515514945,0.0039010975569883106,-0.005838682081471976,0.002580330880584126,0.9930747291479685
2017-09-25,1,0.003360825970228549,0.003873981528149247,-0.005838682081471976,0.002580330880584126,0.9929782805220808
2017-09-27,1,0.0035574870609089582,0.0040910468890252225,-0.007028818532490384,0.001876935497003813,0.991846207452945
2017-09-29,1,0.003028514737886677,0.003473659947378736,-0.007028818532490384,0.004106158201781592,0.9901484753355315
2017-10-03,1,0.002652756078555275,0.0030492743865050704,-0.006985286004553259,0.004106158201781592,0.9902001788875745
2017-10-05,1,0.002530893791431685,0.0029353299857221727,-0.005254143954794529,0.006433199853369926,0.990086323687974
