JNU-Tangyin/eata/results/Batch4_SP500/Batch4_SP500-EL.csv
Date,Action,Predicted_Q25,Predicted_Q75,Actual_Q25,Actual_Q75,RL_Reward
2010-12-14,0,0.0,0.0010615416557695331,-0.003259226328723625,0.01117122482921203,0.9937567351152382
2010-12-16,0,0.0,0.0,-0.0028861529497672643,0.01117122482921203,0.99268922879303
2010-12-20,0,0.0,0.0,-0.002412772278105392,0.009203784670276556,0.993272036811124
2010-12-22,0,0.0,0.0,-0.0014306466411610672,0.008601042415720546,0.9939387772805944
2010-12-27,0,0.0,0.0,-0.002412772278105392,0.008601042415720546,0.9926312839576363
2010-12-29,0,0.0,0.0,-0.002412772278105392,0.008601042415720546,0.9925423142546561
2010-12-31,1,0.00316734778144188,0.003312342453309856,-0.0032522230009373833,0.006077007428559466,0.9919344273801796
2011-01-04,0,0.0,0.0,-0.003926100641600428,0.006077007428559466,0.9920495879382925
2011-01-06,0,0.0,0.0,-0.002443254056392251,0.008601042415720546,0.9880190872160975
2011-01-10,1,0.0014267686383397046,0.0014622122749169185,-0.002443254056392251,0.00913224658556591,0.9874206970817189
2011-01-12,1,0.0019074443929690708,0.0019122751669613455,-0.002443254056392251,0.004879479961832056,0.9882514979658025
2011-01-14,1,0.0016429253432278632,0.0016833459741890122,-0.002443254056392251,0.007481466661253837,0.987563046037556
2011-01-19,0,0.0,0.0,-0.0049963992813653775,0.007481466661253837,0.9869411488367618
2011-01-21,0,0.0,0.0,-0.006229504476185029,0.008461267182685358,0.9864467287497177
2011-01-25,0,0.0,0.0,-0.006285690854048728,0.008461267182685358,0.9858575672092407
2011-01-27,0,0.0,0.0,-0.006285690854048728,0.011578332641584883,0.9846738774585639
2011-01-31,0,0.0,0.0,-0.006285690854048728,0.011886742167085374,0.9836289163755049
2011-02-02,-1,-0.5411319285088712,-0.5405321961526143,-0.0063013316883436706,0.012250782627591758,0.646862177812146
2011-02-04,0,0.0,0.0,-0.010177779879642595,0.011846983332357387,0.9879235584536064
2011-02-08,1,0.001083341322911916,0.0012253069578698902,-0.0063013316883436706,0.011846983332357387,0.9887144524280536
2011-02-10,1,0.0013135638258871245,0.0013932377703657884,-0.0063013316883436706,0.011846983332357387,0.9884315553884346
2011-02-14,1,0.0013125835002484097,0.0014177416661960986,-0.012080243412495946,0.008690804426937378,0.9871697237712452
2011-02-16,1,0.0007524032264121514,0.00090212475376872,-0.01657895625046113,0.008690804426937378,0.9867792446548369
2011-02-18,1,0.0013549091375208023,0.0013927554238012823,-0.01657895625046113,0.012561548977575247,0.9854218042372044
2011-02-23,0,-0.00019135214310098667,4.4811801077854945e-05,-0.012817818649003316,0.012561548977575247,0.9867370949275341
2011-02-25,1,0.0002870913820233398,0.000483467889479932,-0.012817818649003316,0.014027473872384788,0.9860236455467529
2011-03-01,-1,-0.000711119857652798,-0.0003664932805078401,-0.010423638291811718,0.01417935747896011,0.9869043020406036
2011-03-03,0,0.0,0.0,-0.010022397603271201,0.01417935747896011,0.9872005961535566
2011-03-07,1,0.0007954572086182705,0.0008618131752129185,-0.006091816013165281,0.01417935747896011,0.9879358283464923
2011-03-09,1,0.001312158185486329,0.0015711553201455798,-0.006091816013165281,0.009794022839150825,0.9885158940386088
2011-03-11,1,0.0011698810829051667,0.00144037469407747,-0.009585338423723659,0.011616408190100399,0.9880875823235519
2011-03-15,-1,-0.0007788244004839774,-0.0004947254774822445,-0.004808443736123329,0.011616408190100399,0.989967878603003
2011-03-17,0,0.0,0.0,-0.004808443736123329,0.014125196194902875,0.9897121271049056
2011-03-21,0,0.0,0.0,-0.006710387055208778,0.011978267528834298,0.990088886735706
2011-03-23,1,0.020854084764800364,0.020956153362054503,-0.004808443736123329,0.011978267528834298,0.9815971291362044
2011-03-25,1,0.001067847298613543,0.0013193398789735824,-0.006242777795008076,0.005963546362336747,0.9922608618354212
2011-03-29,0,0.0,0.0,-0.004808443736123329,0.00708386739397924,0.9929184134079091
2011-03-31,0,0.0,0.0,-0.004808443736123329,0.007493569111307991,0.9927796820181275
2011-04-04,0,0.0,0.0,-0.004707470429654631,0.007493569111307991,0.9928030090181343
2011-04-06,0,0.0,0.0,-0.004707470429654631,0.010357555877267319,0.9922754707169097
2011-04-08,1,0.00026665851813845073,0.00042177972311061577,-0.004179747103341507,0.011300967712740495,0.9905632197852206
2011-04-12,-1,-0.00023909407604640477,-1.2067609190215896e-05,-0.004179747103341507,0.011300967712740495,0.9897266287030854
2011-04-14,0,0.0,0.0,-0.004179747103341507,0.011300967712740495,0.9896899801402722
2011-04-18,0,0.0,0.0,-0.003916168397548317,0.010351799328812143,0.9913021469327399
2011-04-20,0,0.0,0.0,-0.003916168397548317,0.011300967712740495,0.9904324537658081
2011-04-25,0,0.0,0.0,-0.004179747103341507,0.011300967712740495,0.9891441790052903
2011-04-27,0,0.0,0.0,-0.004179747103341507,0.011300967712740495,0.9896711325458418
2011-04-29,0,0.0,0.0,-0.004179747103341507,0.008906649062369588,0.9897267703435146
2011-05-03,0,0.0,0.0,-0.005709405321872691,0.011300967712740495,0.9880644377129557
2011-05-05,0,0.0,0.0,-0.011334451307453993,0.008906649062369588,0.9877822851950364
2011-05-09,1,0.0012354559285342342,0.0012482945449821489,-0.011334451307453993,0.005889085055530749,0.9895767419019212
2011-05-11,0,0.0,0.0,-0.011334451307453993,0.0073666012880717995,0.9895150387904739
2011-05-13,1,0.0010867986968045652,0.001116498561808851,-0.010317254868980805,0.007181811032379448,0.989838243858189
2011-05-17,1,0.001040753033048107,0.0010669230226600034,-0.011965688052782598,0.007678558021945748,0.9873095882493754
2011-05-19,1,0.001259498551515232,0.001268118728647022,-0.011965688052782598,0.007181811032379448,0.9878295152070232
2011-05-23,0,-3.511132513591461e-05,0.0001314267238776337,-0.008555110522427585,0.010270038142755738,0.9872766547436902
2011-05-25,1,0.0005293851650751238,0.0006055753904191136,-0.009883947049170281,0.010270038142755738,0.9865696285647301
2011-05-27,1,0.0009604997440184742,0.0009697871326288473,-0.009883947049170281,0.009715667375678683,0.9869667468757256
2011-06-01,1,0.00042390487654774304,0.0005182851994238006,-0.008833551873155897,0.017010770103815544,0.9872553758068052
2011-06-03,-1,-0.00024226240252169851,-7.659925845299886e-05,-0.007625416921398415,0.017010770103815544,0.9882723643123503
2011-06-07,-1,-0.00040919647396820785,-0.0002529491560984861,-0.004149894452235261,0.017010770103815544,0.9881476450379332
2011-06-09,0,-0.00011219864877206221,2.3863145022616364e-06,-0.004099235035882231,0.011077043991056357,0.9894029103829195
2011-06-13,-1,-0.00039804608273811865,-0.00024217777745312688,-0.004372144404529648,0.011077043991056357,0.9891970759015131
2011-06-15,0,0.0,0.0,-0.0031790093885798957,0.009671833923074554,0.9910156712633489
2011-06-17,-1,-0.0019221090628730475,-0.0014065658022456692,-0.0031452684379381663,0.009671833923074554,0.9910408737965111
2011-06-21,1,0.00044145663537606275,0.0006800662854895015,-0.004372144404529648,0.006222381117756546,0.9925798040214889
2011-06-23,-1,-0.0011175212061076644,-0.0006599343962665303,-0.0028972796001775596,0.008943212617007567,0.9927518894871955
2011-06-27,-1,-0.001123227100985677,-0.0006577481354684844,-0.003171115150863838,0.008943212617007567,0.992861761979403
2011-06-29,1,0.0034284235949025178,0.003789616013304132,-0.003688099998683766,0.005968299364962402,0.9924748989101946
2011-07-01,1,0.002134811980380773,0.0023484248833950012,-0.004530520451308229,0.005968299364962402,0.9926078321473942
2011-07-06,1,0.0024319468716832967,0.0026836626802814096,-0.007150205865980117,0.0010660533450887793,0.9908005220955244
2011-07-08,1,0.002510501947461453,0.0028048377908538426,-0.008005162703981607,0.002519933767158118,0.988228283950327
2011-07-12,1,0.0016542445444348232,0.0018077589157065137,-0.008005162703981607,0.006209140145518935,0.9836617989624665
2011-07-14,1,0.0020600060347445667,0.002271370238023579,-0.008005162703981607,0.006209140145518935,0.9807378691271346
2011-07-18,1,0.0010186029002107922,0.00101930890304717,-0.011991328458043815,0.008180967358625137,0.9767282408108351
2011-07-20,1,0.0014728612244097863,0.0015908015055454614,-0.011991328458043815,0.008180967358625137,0.97723179980077
2011-07-22,0,0.0,0.0,-0.02850236379999979,0.006209140145518935,0.974641934344798
2011-07-26,1,0.0020969911244236553,0.0021905178571664146,-0.02850236379999979,0.008623580228814204,0.972663179803607
2011-07-28,1,0.00045984766908251193,0.000528509482685023,-0.02850236379999979,0.012413281027640074,0.9734454493854462
2011-08-01,1,0.000802899779577936,0.0008112591226036619,-0.02850236379999979,0.016684540499504172,0.9720566150858265
2011-08-03,-1,-0.0001760122926574597,-7.929370276086114e-05,-0.010551341836004497,0.016684540499504172,0.9734403611917588
2011-08-05,-1,-0.002179584846499231,-0.0017870038309750428,-0.007995605128741043,0.016684540499504172,0.9747271455897022
2011-08-09,-1,-0.0031100719096596985,-0.0025743781662258777,-0.004732683635157022,0.015768547990847107,0.9788585749832721
2011-08-11,1,0.0002733890990882451,0.00033545088822911704,-0.012010149948945826,0.012413281027640074,0.9818562417660183
2011-08-15,-1,-0.0016283607981830493,-0.001299248927996489,-0.009209007013907925,0.012413281027640074,0.9844961028414818
2011-08-17,-1,-0.0016866262461493306,-0.001423914254856609,-0.009209007013907925,0.01767816658855839,0.9833190554597538
2011-08-19,-1,-0.0038589432312334812,-0.0033362269565254173,-0.001942008594352295,0.019089784499271296,0.9841007989053674
2011-08-23,-1,-0.0017606848831000785,-0.0015070159824888403,-0.005726598721086006,0.01767816658855839,0.9846966439733468
2011-08-25,-1,-0.002294461144845498,-0.0019580173673695626,-0.009209007013907925,0.01767816658855839,0.982008456341052
2011-08-29,0,0.0,0.0,-0.009209007013907925,0.01767816658855839,0.9827803937671431
2011-08-31,-1,-0.0010177354768234116,-0.0008247731871433944,-0.021621337943822434,0.01767816658855839,0.9791860524866468
2011-09-02,-1,-0.0017604009615075323,-0.0014701401900852674,-0.02399694537739374,0.01767816658855839,0.9781056323966245
2011-09-07,-1,-0.0012316402978544603,-0.0010060388092176316,-0.02399694537739374,0.01767816658855839,0.9773250709402802
2011-09-09,-1,-0.002256732193354646,-0.0019100697788987978,-0.014666504007758697,0.020807924728893798,0.9767071732868938
2011-09-13,-1,-0.0016726163230153315,-0.0013864605225441793,-0.014666504007758697,0.020807924728893798,0.9769183507087771
2011-09-15,-1,-0.0009769501854592657,-0.0007582766441645956,-0.014666504007758697,0.02191046645233402,0.9773946886475834
2011-09-19,1,9.170138599691807e-05,0.00015731934375712729,-0.022091788130715342,0.020807924728893798,0.9772943637779897
2011-09-21,-1,-0.00041526482559740385,-0.00031147689824539385,-0.016502792991827456,0.020807924728893798,0.9787257227770634
2011-09-23,0,0.0,0.0,-0.012980053077746533,0.020807924728893798,0.9807927613171217
2011-09-27,-1,-0.0006254645835417565,-0.0005221094741275594,-0.016502792991827456,0.020807924728893798,0.9796873926551337
2011-09-29,-1,-0.0018828702755405314,-0.0017163201847454784,-0.003012312054650511,0.0217803322455628,0.9803789785129432
2011-10-03,-1,-0.004321455205384209,-0.003816239458759311,-0.0017070756866372015,0.0217803322455628,0.980256571451261
2011-10-05,-1,-0.0027356121745518414,-0.0024195375778516067,-0.007043188828052923,0.0217803322455628,0.9814582811478803
2011-10-07,-1,-0.0015055891250263342,-0.0013365712109261458,-0.007420458051736667,0.02477946807863154,0.9787831118048145
2011-10-11,-1,-0.00044876487915811907,-0.0004258583821682354,-0.007420458051736667,0.01842646502175683,0.9802281196702467
2011-10-13,-1,-0.0001937930991790581,-0.0001528035581716009,-0.009884684295905482,0.013623939427768631,0.9800834518523692
2011-10-17,-1,-0.00044217102656820065,-0.0003880017849325739,-0.008009538520741486,0.011872438385831248,0.9813376822201484
2011-10-19,-1,-0.0005831408506571551,-0.0005291287032690285,-0.008009538520741486,0.011872438385831248,0.9814055581005675
2011-10-21,1,0.0001652098806974471,0.00019801046712392205,-0.009110721989198909,0.006087943022187278,0.9818862254658004
2011-10-25,-1,-0.00034353676710549206,-0.0002834054657760937,-0.009110721989198909,0.006087943022187278,0.9820721683533373
2011-10-27,1,0.0011962068536669993,0.0013085402313397203,-0.011814653487966512,0.0027139151036858614,0.9826604987901217
2011-10-31,1,7.91752551897301e-06,3.829196929854855e-05,-0.011014029284690648,0.004754778590974556,0.982073101709263
2011-11-02,1,0.0007510446666648788,0.0008093741423996189,-0.011814653487966512,0.004754778590974556,0.9797386301717238
2011-11-04,1,0.002441827587770299,0.002723868940761468,-0.012131083292932193,0.0035305651749481044,0.9837269665697324
2011-11-08,1,0.0022490062266888183,0.002500466873030049,-0.014239127550462916,0.0054633821043936276,0.9824935138186723
2011-11-10,0,0.0,0.0,-0.019407204733321935,0.0035305651749481044,0.9824132719821091
2011-11-14,0,0.0,0.0,-0.019407204733321935,0.0035305651749481044,0.982195118357557
2011-11-16,0,0.0,0.0,-0.019407204733321935,0.005026489288728852,0.981662624303008
2011-11-18,1,0.0019995054307501434,0.002334613811342816,-0.019407204733321935,0.008972101324791286,0.980874100133352
2011-11-22,1,0.0017724854251604239,0.00207349516052111,-0.019067323001687377,0.013803921897247204,0.9821326800173462
2011-11-25,1,0.00117866231649044,0.001422274214018471,-0.013936828089821449,0.014433616437284497,0.982680604434595
2011-11-29,1,0.001853483222520832,0.0021800605213619343,-0.014272388547598333,0.013803921897247204,0.984437766310285
2011-12-01,1,0.002612203922462189,0.0030085275667702384,-0.012804931393785253,0.009542353949711094,0.9873768460835326
2011-12-05,1,0.0025379065606917165,0.0029352184015948883,-0.012804931393785253,0.009542353949711094,0.9880492500877353
2011-12-07,1,0.0024599941121657178,0.00284637635008484,-0.010958304249063317,0.008120231670459353,0.9889071358935652
2011-12-09,1,0.0015370330015251608,0.0018187888589052531,-0.006901548514418841,0.008361815995687697,0.9905599299573096
2011-12-13,0,0.0,0.0,-0.0061964213832298234,0.008361815995687697,0.9904854722652496
2011-12-15,1,0.000915726124078778,0.0011195977318605881,-0.00412419184260171,0.010262308035177015,0.9907460413365038
2011-12-19,0,0.0,0.0,-0.0021595068877225464,0.008361815995687697,0.9910960678793671
2011-12-21,0,0.0,0.0,-0.004586218749027552,0.007555766060175393,0.9920364301202117
2011-12-23,1,0.003763059276891037,0.004258371633105182,-0.004586218749027552,0.008120231670459353,0.9922597874378841
2011-12-28,1,0.0021882330680364982,0.0023314047529840814,-0.004586218749027552,0.007565284811035705,0.9919275702904571
2011-12-30,0,0.0,0.0,-0.0038116622281693497,0.006323619318842758,0.9925511627068709
2012-01-04,0,0.0,0.0,-0.0038116622281693497,0.007778312883683111,0.9919215853590373
2012-01-06,0,0.0,0.0,-0.0038116622281693497,0.007778312883683111,0.9913104875372825
2012-01-10,0,0.0,0.0,-0.004973578448545081,0.006323619318842758,0.9915869153740847
2012-01-12,0,0.0,0.0,-0.004973578448545081,0.007021670852884632,0.99118300360075
2012-01-17,0,0.0,0.0,-0.007136551918164477,0.0042223193999760865,0.9909917881766687
2012-01-19,0,0.0,0.0,-0.007136551918164477,0.005269425752303988,0.9906415306764172
2012-01-23,1,0.0004443070317596933,0.0005226553181631487,-0.006204968090832292,0.005269425752303988,0.9910145012705774
2012-01-25,1,0.001740287249700833,0.0018403192231494826,-0.006204968090832292,0.0038865075367588865,0.9910594116354502
2012-01-27,1,0.0006610040669727878,0.0007627736222322273,-0.006204968090832292,0.006014235263233031,0.9912174534846415
2012-01-31,1,0.0013896988828305038,0.0014551397550207341,-0.006204968090832292,0.009028636836461318,0.9909724558544524
2012-02-02,1,0.0012359628579250506,0.0012793032740183762,-0.006204968090832292,0.005636117572097359,0.9914980385269372
2012-02-06,1,0.0021762319777065414,0.0023049126402770806,-0.006204968090832292,0.00858936517290245,0.991739573653131
2012-02-08,1,0.002454733970783566,0.0026715535263061524,-0.005367888279641011,0.008714299973822308,0.9918362729607506
2012-02-10,1,0.00244609978528813,0.0027006602705898384,-0.0018137476514874093,0.008714299973822308,0.9925147698335228
2012-02-14,1,0.0014124417813294935,0.0014231594340643624,0.0014289567914715124,0.010578808161877675,0.9918852356987272
2012-02-16,1,0.0007993581607484428,0.0008816769763525098,0.0018554036959860121,0.010578808161877675,0.991462055785281
2012-02-21,1,0.0011304511851513142,0.00117700902554267,0.00013051523529433707,0.010578808161877675,0.9905300290365977
2012-02-23,0,-0.00014983103927830132,0.0002548133655038418,-0.005350048155983366,0.009189755471911507,0.9904721147769989
2012-02-27,-1,-0.0014808443563431748,-0.0007690320165145467,-0.002841799130715441,0.008714299973822308,0.9909902211633157
2012-02-29,1,0.0015182893096322841,0.001711237717086729,-0.005114485725794977,0.00865314600139911,0.9918576423272749
2012-03-02,1,0.001679292366069885,0.0017676048344933161,-0.0047736766773716875,0.00865314600139911,0.991757853995422
2012-03-06,1,0.0015334086896805167,0.0015968156053590382,-0.0027280504060023724,0.008613990357663654,0.9923687776131155
2012-03-08,1,0.0022394751771373108,0.0023198310886038526,-0.004732146461819969,0.00889810337026287,0.9920956275652446
2012-03-12,1,0.0021367856452033243,0.0021452195062826346,-0.005349392467409489,0.007578024046569329,0.9905035613077992
2012-03-14,1,0.003101586080306605,0.003212787083248839,-0.005349392467409489,0.006515064760075431,0.991191950722008
2012-03-16,1,0.00401341443189005,0.004281358400453206,-0.005349392467409489,0.006515064760075431,0.9910299749571436
2012-03-20,1,0.0023016636217945982,0.0023186951197248585,-0.004732146461819969,0.007578024046569329,0.992149841428845
2012-03-22,1,0.0032179398854522735,0.0034599542494453753,-0.004500473216019228,0.007652000316684014,0.991609583924124
2012-03-26,1,0.0022368450399072085,0.0022682227968207776,-0.004989676516281863,0.007652000316684014,0.9902097435028635
2012-03-28,1,0.0036280150057063946,0.004055519690347139,-0.004732146461819969,0.0089627318688916,0.9885693774302944
2012-03-30,1,0.0038605925552091976,0.004386447752241195,-0.004572473162322619,0.0089627318688916,0.9890794787966949
2012-04-03,1,0.004232529928006854,0.0047895456418653995,-0.006191105453086671,0.009266162522872367,0.9877186309446983
2012-04-05,1,0.004064786607804054,0.004636601414090885,-0.011359233637667127,0.008913821622233104,0.9852514822230192
2012-04-10,1,0.0023614715429247793,0.0026585863194231027,-0.007704418624651714,0.009266162522872367,0.9855996219101094
2012-04-12,1,0.003243900240731099,0.003617923829205019,-0.01015419180420552,0.008913821622233104,0.9856586087241036
2012-04-16,1,0.0028523974105539285,0.003147798507939656,-0.013552105799507578,0.006830068208565859,0.9846484275509985
2012-04-18,1,0.002884598471703321,0.0031481813835667525,-0.016932714664106105,0.006830068208565859,0.983921537919849
2012-04-20,1,0.0023687323684045336,0.0025328262408005325,-0.01792830419298385,0.003930994205720638,0.9828222782081719
2012-04-24,1,0.0007822210830763935,0.0008040485307290646,-0.016932714664106105,0.006830068208565859,0.9842290026420172
2012-04-26,1,0.0024332829085821567,0.002725961942604105,-0.016932714664106105,0.004435211603973201,0.9856975512222111
2012-04-30,1,0.0024328873672717984,0.0026881231690035704,-0.016932714664106105,0.008342720403323548,0.9849087800311611
2012-05-02,1,0.0019764041100856777,0.002155660746303635,-0.016932714664106105,0.0014750593697757052,0.9848742347758895
2012-05-04,-1,-0.000828461863714583,-0.0005844371455376172,-0.016932714664106105,0.008421981083054295,0.9869150435120758
2012-05-08,-1,-0.0017298450219481194,-0.0013346268184111039,-0.013506533008605036,0.009762728240482048,0.9873715887538513
2012-05-10,-1,-0.002735752056651982,-0.00221418023357688,-0.013506533008605036,0.009762728240482048,0.9876344863938616
2012-05-14,-1,-0.003865064779310869,-0.0032225174959844196,-0.0074909781641804875,0.010990733047393784,0.9876516930666425
2012-05-16,-1,-0.003291603260511918,-0.0027671019255917206,-0.0074909781641804875,0.010305433311358208,0.9881558373969245
2012-05-18,-1,-0.004353017966010285,-0.0037545381342856715,-0.003269564074990078,0.01289729095618522,0.9882551299810894
2012-05-22,-1,-0.004409759685522616,-0.0037787842885324517,-0.003269564074990078,0.013844586146224372,0.9876648946576256
2012-05-24,-1,-0.004106351521907253,-0.003497402753583871,-0.006267491560668947,0.013844586146224372,0.9867291057423748
2012-05-29,-1,-0.003772503610348964,-0.003218086082801973,-0.009993642122213754,0.01289729095618522,0.9869196761201104
2012-05-31,-1,-0.00524777500438026,-0.004506469412110888,-0.009850479490657076,0.01289729095618522,0.9870442286710885
2012-06-04,-1,-0.005287778941538174,-0.004542976671118915,-0.006267491560668947,0.013009258057735508,0.9871186651441257
2012-06-06,-1,-0.004035324591216067,-0.0034239567829573766,-0.006267491560668947,0.009397674816072876,0.988478574881431
2012-06-08,-1,-0.003629014641321118,-0.0031355611456448597,-0.016031935853469015,0.009397674816072876,0.98702485274271
2012-06-12,-1,-0.003465156031088224,-0.003011402188199223,-0.018325042579427672,0.008157946994146265,0.9860694271462002
2012-06-14,-1,-0.004590288607280987,-0.003970344073623925,-0.017795322594199837,0.009397674816072876,0.9855581781902036
2012-06-18,-1,-0.0032988233011693297,-0.00291171347033697,-0.017795322594199837,0.008157946994146265,0.9867553177681657
2012-06-20,0,0.0,0.0,-0.017795322594199837,0.009397674816072876,0.9849202265972989
2012-06-22,0,0.0,0.0,-0.017795322594199837,0.009397674816072876,0.9847493376964213
2012-06-26,0,0.0,0.0,-0.015903083402245298,0.009397674816072876,0.9855753901873304
2012-06-28,0,0.0,0.0,-0.01440014331761908,0.019257222266702116,0.9843296752394652
2012-07-02,-1,-0.002621823545529179,-0.00224814697638211,-0.016345304735245092,0.011373928383285025,0.9841984268088418
2012-07-05,-1,-0.0022677705476535463,-0.0019259818776959626,-0.019970779877252518,0.004508141456256115,0.9837578418475927
2012-07-09,-1,-0.004606312781852384,-0.003961973626138895,-0.016345304735245092,0.019257222266702116,0.9828233563362236
2012-07-11,-1,-0.005657204319836505,-0.004922158801032266,-0.0070101432455610185,0.019257222266702116,0.9829096590662347
2012-07-13,-1,-0.004809345704178361,-0.004174712637885139,-0.0070101432455610185,0.017410116981243933,0.9831354102684576
2012-07-17,0,0.0,0.0,-0.011749240643709066,0.020003489573298804,0.9794586083873384
2012-07-19,0,0.0,0.0,-0.011749240643709066,0.016528523997804807,0.9816063038181769
2012-07-23,0,0.0,0.0,-0.0036006205422743935,0.016528523997804807,0.9825322802045193
2012-07-25,0,0.0,0.0,-0.009575808760333994,0.016528523997804807,0.982019973142883
2012-07-27,0,0.0,0.0,-0.009575808760333994,0.01050737294641691,0.9834855495078365
2012-07-31,0,0.0,0.0,-0.004717461755555492,0.01050737294641691,0.9850192262368775
2012-08-02,-1,-0.004163949284569807,-0.0038404907226862114,-0.004717461755555492,0.01050737294641691,0.9852097388728107
2012-08-06,-1,-0.001156858422211383,-0.0011057043548734118,-0.004717461755555492,0.007279751734936622,0.9883123017693871
2012-08-08,1,0.0007956663025761838,0.0010777981852911965,-0.004717461755555492,0.007279751734936622,0.9881040733614742
2012-08-10,1,0.0007132274388982244,0.0009260022680064383,-0.004717461755555492,0.006019673747145683,0.9889178159035579
2012-08-14,1,0.0030097706209531337,0.0035365148826061498,-0.005032066729014719,0.005392913661673031,0.9922866301756569
2012-08-16,1,0.00347075436484035,0.004065883474027591,-0.005032066729014719,0.005504157923368969,0.9917548781699632
2012-08-20,1,0.0030180922596620904,0.003546081322792878,-0.004717461755555492,0.005400421850255935,0.9925458457312619
2012-08-22,0,0.0,0.0,-0.004110092942442073,0.005400421850255935,0.9936779544799778
2012-08-24,0,0.0,0.0,-0.004146020045514301,0.00457412148908878,0.9939181435820811
2012-08-28,0,0.0,0.0,-0.004352843709756846,0.003535427719952772,0.9938348072429811
2012-08-30,0,0.0,0.0,-0.003363626293869246,0.00457412148908878,0.9932365077399868
2012-09-04,0,0.0,0.0,-0.00447643311461374,0.006411084590045606,0.991860699322597
2012-09-06,0,0.0,0.0,-0.00447643311461374,0.006204408601648344,0.9926696175527445
2012-09-10,0,0.0,0.0,-0.006430940527346596,0.009776029526200396,0.9918800924546136
2012-09-12,1,0.001974557907618705,0.002631727389751664,-0.00447643311461374,0.009776029526200396,0.9922139117257034
2012-09-14,1,0.002312106211966943,0.0029577183036804612,-0.00447643311461374,0.006204408601648344,0.9924860191467002
2012-09-18,1,0.0029854944322433696,0.0037986647165522674,-0.0034554939632489186,0.009941631154048999,0.9916677243254086
2012-09-20,1,0.0035840098799143983,0.004495292773209784,-0.006380488204444834,0.009941631154048999,0.9908373290019507
2012-09-24,1,0.003443785140526347,0.004322065388357738,-0.0071317191171713055,0.009941631154048999,0.989708045131604
2012-09-26,1,0.002940412967431482,0.003767399675249503,-0.0071317191171713055,0.009941631154048999,0.989636804498923
2012-09-28,1,0.00325718573072087,0.004078368809081067,-0.007542234992142514,0.0073915686038282715,0.9894655446691272
2012-10-02,1,0.003461998637896154,0.004280359619651676,-0.007557055127585652,0.0073915686038282715,0.9899797506199686
2012-10-04,1,0.0020916338986484836,0.0026346676149240885,-0.009186192864155795,-0.00011479867736452183,0.9892367895557207
2012-10-08,1,0.0021054443886143583,0.0026424052765429834,-0.010524189429871347,-0.0001818937519359248,0.9888869414178678
2012-10-10,1,0.0007759545184782566,0.001035807400790689,-0.010524189429871347,0.0039549287770728825,0.9892199881687267
2012-10-12,1,0.001217429195585654,0.0015445772679027639,-0.010524189429871347,0.00026336278087890673,0.9891894618616305
2012-10-16,1,0.0022949798322041822,0.002781905149589754,-0.010680680572400552,-0.0026157970901030175,0.9891624290673442
2012-10-18,0,0.0,0.0,-0.010680680572400552,0.001717042913321857,0.9900427848774689
2012-10-22,0,0.0,0.0,-0.010524189429871347,0.004221846726071832,0.9906674830605088
2012-10-24,0,0.0,0.0,-0.009020565438780803,0.005888717234178647,0.9903155877797176
2012-10-26,0,0.0,0.0,-0.010686489861448038,0.005888717234178647,0.9898515591655921
2012-11-01,0,0.0,0.0,-0.010686489861448038,0.004532735826371169,0.9906424061560032
2012-11-05,1,0.0002942335385713854,0.0003677405500801876,-0.009051984214728156,0.005888717234178647,0.9911771035811818
2012-11-07,-1,-0.0006283567374052846,-0.00041787450352936777,-0.005906188068087003,0.006143433135378377,0.9919238761882337
2012-11-09,-1,-0.0007016217485051494,-0.0005023782329995441,-0.005906188068087003,0.007586912751778128,0.9919039028387505
2012-11-13,-1,-0.0010128953535576317,-0.0008142933570440604,-0.0031579518749472882,0.007586912751778128,0.991855653796519
2012-11-15,-1,-0.001411498308509291,-0.0011100090925048331,-0.0031579518749472882,0.009838880871486995,0.9911243401915517
2012-11-19,-1,-0.0014020738753285813,-0.0010791526528935503,-0.0031579518749472882,0.007586912751778128,0.9922428187497864
2012-11-21,-1,-0.0010628249199117561,-0.0007539144415064328,-0.006378481642252425,0.005723244236047494,0.9924681087196349
2012-11-26,1,0.00010112686209066144,0.0002195883236895662,-0.008383313928868062,0.004718460071587344,0.9926934647994271
2012-11-28,-1,-0.0003887989163003165,-0.00024189046266270267,-0.006378481642252425,0.005723244236047494,0.9925419380989924
2012-11-30,-1,-0.0013746506727907958,-0.0010418785768247683,-0.008308582885375008,0.00771912459493659,0.9907998367437167
2012-12-04,-1,-0.0010089796435060767,-0.000609329146986471,-0.008308582885375008,0.010235516400962381,0.9897627626112463
2012-12-06,0,-7.532862055683882e-05,0.00018743464556365266,-0.008971231487910177,0.010235516400962381,0.9894527582537505
2012-12-10,-1,-0.0004345171086793673,-0.00011563044790363576,-0.008308582885375008,0.009454973422775573,0.9899144768749544
2012-12-12,1,0.0010212751656964998,0.0010560176967536034,-0.008308582885375008,0.013208019705179704,0.9887415323093767
2012-12-14,1,0.0005158419079846316,0.000688426893679098,-0.0065744541619331305,0.009454973422775573,0.9899407191681252
2012-12-18,1,3.6558150584075494e-05,0.00028120555200396335,-0.0065744541619331305,0.009454973422775573,0.989606175354132
2012-12-20,-1,-0.0003524675972714305,-0.00013873351853614017,-0.006537092995549184,0.009454973422775573,0.9892020279142729
2012-12-24,-1,-0.0008708032040950105,-0.0005404838240009497,-0.0059448729889178655,0.009454973422775573,0.9895482101409253
2012-12-27,-1,-0.0014887680712911495,-0.0010508646149249064,-0.004426179949110926,0.011498417319366875,0.9900451764312975
2012-12-31,1,0.00022012857203024846,0.00038620097544073926,-0.004426179949110926,0.009727653689142735,0.9912586315323529
2013-01-03,1,0.0010671441679786136,0.0010858530192740098,-0.0059448729889178655,0.007840430146175453,0.9902000361271969
2013-01-07,1,0.0006386531885748795,0.000761807384614736,-0.0059448729889178655,0.009727653689142735,0.98688518861542
2013-01-09,1,0.0011793240330281551,0.0012902060749699327,-0.00823062692882461,0.006175778348514309,0.9864022260819908
2013-01-11,1,0.0015841351287968935,0.0018004696301317186,-0.013869281542245534,0.002698794557246028,0.9863171869296997
2013-01-15,1,0.001443485828745125,0.0016086231278103144,-0.013869281542245534,0.009402642355631777,0.9853190892593371
2013-01-17,1,0.001264686602184679,0.00137614560732279,-0.013869281542245534,0.009402642355631777,0.9852965801167206
2013-01-22,1,0.001032480828759815,0.0011184997069604071,-0.008410458109504472,0.009402642355631777,0.9861559515795498
2013-01-24,1,0.0007609784747100994,0.0008128074252051253,-0.011339938082375607,0.009402642355631777,0.9858300550875931
2013-01-28,1,0.0006873782815290102,0.0007398975953398976,-0.013869281542245534,0.008973446552265153,0.9848605907760334
2013-01-30,1,0.0006544183957537284,0.0006850884444236236,-0.011869573162998241,0.009190123803979353,0.9846328492091276
2013-02-01,1,0.0011810846107211787,0.0013027689535537288,-0.007743888649755374,0.008048792216264379,0.9871837348462073
2013-02-05,1,0.002078480899625436,0.0022968279218100554,-0.006324404185560349,0.008048792216264379,0.9909381351892652
2013-02-07,1,0.0011099067260974638,0.00115881772936648,-0.003820413187173815,0.008048792216264379,0.9917198799700826
2013-02-11,1,0.0007447634046156933,0.0007997345821036114,0.0004949743340593837,0.008048792216264379,0.9927366798844188
2013-02-13,1,0.001298274349111092,0.0014259061562082738,-0.0009862530464443701,0.005957862770139758,0.9932998753367398
2013-02-15,1,0.0009981582465104885,0.0011310335057502824,-0.004944570224765742,0.005957862770139758,0.9917297745557414
2013-02-20,1,0.0011576229518680684,0.001294694729364157,-0.0049505166137895976,0.005957862770139758,0.9907413630827115
2013-02-22,1,0.0009290483521283165,0.0010098069507502609,-0.005066484593319857,0.0071116238503496805,0.9902657785925953
2013-02-26,1,0.0008237725481218067,0.0009111025443826323,-0.004669091879399954,0.0076909772783222315,0.9908727132282956
2013-02-28,1,0.0015198025008700516,0.001728053543522315,-0.007661187828391567,0.006813883079584733,0.9913381451328829
2013-03-04,1,0.0018381701205713156,0.0021073487389844845,-0.007661187828391567,0.008588738150725386,0.9901311996524887
2013-03-06,1,0.0022012964363818783,0.0025124850299162566,-0.007661187828391567,0.0028404794030694527,0.9898616263088167
2013-03-08,1,0.0018166774210184662,0.0020665823152092562,-0.00994506239898784,0.008588738150725386,0.9884301480887236
2013-03-12,1,0.002012895308009693,0.0022883213493409714,-0.00994506239898784,0.011785885094533204,0.9877864482221687
2013-03-14,1,0.0021400537068215542,0.00247997033870885,-0.007661187828391567,0.014028530029222263,0.9868028818121389
2013-03-18,1,0.001230017460500278,0.0014071445045118819,-0.006353695987715702,0.014028530029222263,0.987935367751194
2013-03-20,1,0.0014902440646920763,0.0016573999900059968,-0.007661187828391567,0.011785885094533204,0.988049340879262
2013-03-22,1,0.001274070481351241,0.0013847960787605092,-0.006353695987715702,0.012330936986436291,0.9873727009605685
2013-03-26,1,0.0012785103888490724,0.001348844848508079,-0.006353695987715702,0.01243008607381601,0.9867295702076864
2013-03-28,1,0.0013821137786068792,0.0014933055011294822,-0.005865762170419885,0.01243008607381601,0.9873641026564363
2013-04-02,1,0.0015280642575564401,0.0015938232749779183,-0.005577782099198561,0.01038690401384274,0.9885885952630349
2013-04-04,1,0.0006701341814673843,0.0007129421753044207,-0.0028799592845223025,0.01243008607381601,0.9874584648208187
2013-04-08,1,0.0007842788913736643,0.000880330296483413,-0.0028799592845223025,0.01038690401384274,0.9882048596482617
2013-04-10,1,0.0010398924222370003,0.001132559383956754,-0.00521880180033668,0.009208969620564937,0.988556761536764
2013-04-12,1,0.0019274957361506673,0.001928579342483642,-0.008698709392546114,0.007852241727763788,0.9886359348634938
2013-04-16,1,0.001927197567093096,0.0019565084528524973,-0.00521880180033668,0.009438414701125542,0.9890486057977425
2013-04-18,1,0.0016385823719730558,0.0016615023255344308,-0.00521880180033668,0.009438414701125542,0.9894327836890602
2013-04-22,1,0.0025178378401117117,0.002674044246252741,-0.00521880180033668,0.008688206289419154,0.990790160012037
2013-04-24,1,0.0019115346255663944,0.0019397185882091322,-0.005587128238585596,0.006831778729892005,0.9914041602313622
2013-04-26,1,0.0017079057709746073,0.0017146360034747548,-0.005587128238585596,0.008661189268889691,0.9911847312529275
2013-04-30,1,0.0019971909229233864,0.002060604055418791,-0.008698709392546114,0.008661189268889691,0.9900585671712936
2013-05-02,1,0.00270877190370991,0.0028990761934196974,-0.010894126422379066,0.0061620029320726835,0.9901106782339788
2013-05-06,1,0.0020407519188162795,0.0021456236701622162,-0.0062108906821029975,0.0046579244171040925,0.9910745081321168
2013-05-08,1,0.001929831281700723,0.0020302238424032585,-0.010894126422379066,0.0033681991107385612,0.9902379949206893
2013-05-10,1,0.0025913097758664782,0.00278898365236102,-0.008720262797899558,0.0033681991107385612,0.9898004542842944
2013-05-14,1,0.0026540963613328715,0.0028447705911966966,-0.008720262797899558,0.0023414438525064946,0.9899173246767684
2013-05-16,1,0.001847032177512642,0.0018936638432160034,-0.007643115621188853,0.005304199382810229,0.99062545949079
2013-05-20,1,0.0018158216617560985,0.0018185895751706583,-0.007643115621188853,0.005304199382810229,0.989370294182341
2013-05-22,1,0.0008075336263090056,0.0009357190588493625,-0.009421922956891081,0.005304199382810229,0.9874827929934934
2013-05-24,1,0.0011805015950482477,0.0011857446911112388,-0.014994846738458646,0.004528162509470983,0.9868502600328175
2013-05-29,1,0.0010329570880163702,0.0010517217363864924,-0.009421922956891081,0.005304199382810229,0.9875375542513963
2013-05-31,1,0.0002895355244327251,0.0003682009221369583,-0.008386417748073392,0.006303797595477122,0.9880985785643005
2013-06-04,1,0.00013150893345557083,0.0002152686096854106,-0.008386417748073392,0.01016954985801816,0.9871509557772403
2013-06-06,1,6.559586965541447e-05,0.00013447152659735578,-0.007036572254712713,0.01074483573534255,0.9876044943197633
2013-06-10,1,0.0006085580213394365,0.0006195193323599515,-0.00776094353541717,0.009536242824174215,0.9885658039429095
2013-06-12,1,0.0005280729974200486,0.0005558395444309147,-0.00776094353541717,0.01074483573534255,0.9879004358383078
2013-06-14,1,0.0006606972467053924,0.0007008724268567557,-0.011623142086316303,0.01074483573534255,0.9875544857643841
2013-06-18,1,0.0007467848811834664,0.0007704257823864267,-0.011623142086316303,0.008241892724773098,0.9882759488552597
2013-06-20,-1,-0.0008880164304442651,-0.0006823253845735098,-0.007500506878113741,0.010692733496537472,0.9903017503118146
2013-06-24,-1,-0.00109869101354831,-0.0008476764045933117,-0.00997268194206721,0.010692733496537472,0.989444399498634
2013-06-26,-1,-0.0009214544920109405,-0.0007085629624578251,-0.00997268194206721,0.009250202982753482,0.9896004902468589
2013-06-28,-1,-0.0004913200157720578,-0.0003772108007334289,-0.007500506878113741,0.009250202982753482,0.9898918767150915
2013-07-02,-1,-0.00019354427025387497,-5.476920219350199e-05,-0.007500506878113741,0.007196500426353605,0.9908562670880375
2013-07-05,-1,-0.0006617640907891969,-0.0004275214794315928,-0.007500506878113741,0.007196500426353605,0.9905699789844943
2013-07-09,-1,-0.0009310267127025213,-0.0007060872244728354,-0.006230096609710146,0.007196500426353605,0.9910127970444702
2013-07-11,-1,-0.0003928400922139863,-0.0002185713626593227,-0.009649507053174914,0.005953181165503261,0.9911841912348494
2013-07-15,-1,-0.0006286089597511585,-0.000439095357339944,-0.007454832290577357,0.006870700979083786,0.9917277781079109
2013-07-17,-1,-0.0015541480818869625,-0.0012590425035028687,-0.0069464300013972035,0.006870700979083786,0.9914358929103622
2013-07-19,-1,-0.0007726071166677778,-0.000533280896636901,-0.0069464300013972035,0.006607678758913504,0.9906993453696848
2013-07-23,-1,-0.0017614255020890215,-0.001452194303158091,-0.0042864953440274346,0.006607678758913504,0.9920497358394226
2013-07-25,-1,-0.0013003350646210235,-0.001078006850110555,-0.006404207944467125,0.006607678758913504,0.9915693063480653
2013-07-29,-1,-0.0008070275847140058,-0.0006538500018558116,-0.0075953560643113194,0.006607678758913504,0.9911349794611893
2013-07-31,-1,-0.0011839429416904321,-0.0009981210983464345,-0.008458401774027605,0.006607678758913504,0.9901757510115002
2013-08-02,-1,-0.0006752160279508423,-0.0005497596809395983,-0.008458401774027605,0.0031297482831608957,0.9910850910663105
2013-08-06,-1,-0.0005242411211952054,-0.00037700901975878454,-0.008458401774027605,0.009974925003360436,0.9900387592846627
2013-08-08,-1,-0.002004631682899877,-0.0016179784562729755,-0.004829510038548233,0.009974925003360436,0.9906203933556873
2013-08-12,-1,-0.0011918392621931284,-0.0009228476919028671,-0.007446968931971222,0.01325374175559626,0.9895241041145938
2013-08-14,-1,-0.002031425803096489,-0.0016695105034211742,-0.004829510038548233,0.01325374175559626,0.9891897476296535
2013-08-16,-1,-0.0008771833885326191,-0.0006208019993348831,-0.004829510038548233,0.01109992538248275,0.9906313902880415
2013-08-20,-1,-0.0011887462690130784,-0.0009081824281503563,-0.0011050140257238984,0.012102570851705172,0.9901246938518288
2013-08-22,-1,-0.0006031101844794298,-0.0004275682646390536,-0.0011050140257238984,0.010773554114792153,0.9908071005106931
2013-08-26,-1,-0.00112009075812121,-0.0008422212364896162,-0.0011050140257238984,0.01047930628689778,0.9906965265763791
2013-08-28,-1,-0.0018799019642770176,-0.0015314903877421712,-0.0014082909772153256,0.01047930628689778,0.9912222079134769
2013-08-30,-1,-0.0017822598355125058,-0.0014842113353596821,-0.005286289150772202,0.01047930628689778,0.9909839164936535
2013-09-04,1,0.0002069583489565697,0.0002127646862311376,-0.005286289150772202,0.008733631219855136,0.9923409429894571
2013-09-06,0,-1.7945483657211847e-05,1.3239836298285465e-05,-0.006063107540537885,0.008733631219855136,0.9914494590643051
2013-09-10,1,0.0002806138101857309,0.0002850464948382642,-0.007630824408025216,0.007978300197732885,0.9922975809396472
2013-09-12,1,0.0013436702487892136,0.0015455540365308506,-0.007630824408025216,0.006956226419669814,0.9919342449044253
2013-09-16,1,0.0013011267353754542,0.0014716443121504854,-0.007630824408025216,0.007978300197732885,0.9917600136704815
2013-09-18,1,0.0020361425664829477,0.0022892129297171016,-0.008625076713567752,0.007156870883310668,0.9911098879696972
2013-09-20,1,0.0015976174603373207,0.0018049609135078666,-0.007630824408025216,0.007978300197732885,0.991255234261019
2013-09-24,1,0.0021240675572718895,0.002458951910513026,-0.007630824408025216,0.007978300197732885,0.9911984091774797
2013-09-26,1,0.0014741267971123896,0.0016818644191116466,-0.00857189148687793,0.007978300197732885,0.9913564823726465
2013-09-30,1,0.001140007770935,0.0013041533412935834,-0.00857189148687793,0.007978300197732885,0.9919904924414704
2013-10-02,1,0.0018043262720590877,0.0020876533917914965,-0.009346727288057528,0.008085584512669258,0.9907318980573173
2013-10-04,1,0.0014566407810405755,0.001730659184043604,-0.009346727288057528,0.0074659447891002855,0.990652846779189
2013-10-08,1,0.0005595770489685934,0.0007013342957654211,-0.006706891333672588,0.008775877088516043,0.9909936144351706
2013-10-10,1,0.001791983002938282,0.0020977554006805666,-0.010144887652890303,0.0074745785338926314,0.991624966629315
2013-10-14,1,0.001806120623411699,0.0020755123093082473,-0.010144887652890303,0.0074745785338926314,0.9916325050966521
2013-10-16,1,0.0015043532906007934,0.0017790652102812974,-0.006706891333672588,0.008797986226491146,0.9910006352115034
2013-10-18,1,0.0018355201152429885,0.002077602600204935,-0.006706891333672588,0.0074745785338926314,0.9912624590143048
2013-10-22,1,0.0014623788930636606,0.001638276140997591,-0.006706891333672588,0.005977420515859299,0.9916115265317973
2013-10-24,1,0.001105977532310266,0.0012280765938011396,-0.004559139503392439,0.008797986226491146,0.9912542074810504
2013-10-28,1,0.0008291917056376752,0.0008789941750775121,-0.006712683216877688,0.009247484115487634,0.9901202295591778
2013-10-30,1,0.00104189035915832,0.0011555180408516622,-0.004559139503392439,0.009247484115487634,0.9914913951371189
2013-11-01,1,0.00046372574819552594,0.0004926358430656854,-0.003290692492619559,0.009247484115487634,0.992081527367728
2013-11-05,1,0.0010728676549912122,0.0012101402345578002,-0.004390226922980585,0.009247484115487634,0.9914386551312271
2013-11-07,1,0.0010124787749675914,0.0011706540287039994,-0.004353518783861872,0.00978753015558779,0.9915273189952847
2013-11-11,1,0.00025415251187825517,0.00029118115493390214,-0.004353518783861872,0.00978753015558779,0.9916406252507205
2013-11-13,1,0.0011602226754052654,0.0012197187407853136,-0.005098200955954898,0.0066321880925962265,0.9927943997839509
2013-11-15,1,0.0012261885260535902,0.0013080583548285326,-0.005377437087912903,0.007790538918112391,0.9924690064335739
2013-11-19,1,0.000717035914063536,0.0007302640934264283,-0.0053072952929212325,0.00978753015558779,0.9921808047289192
2013-11-21,1,0.0016111628927940004,0.0017825364473939617,-0.0053072952929212325,0.006254499160898421,0.9927209761500955
2013-11-25,1,0.0016579466695528563,0.0018425986167346928,-0.005098200955954898,0.005624159962148037,0.993478160224233
2013-11-27,1,0.0016811684301950866,0.0018340856325343127,-0.005098200955954898,0.0036204873142294466,0.9936117664443581
2013-12-02,1,0.0017102394703275084,0.0018967279625529323,-0.005098200955954898,0.005624159962148037,0.9936454503830624
2013-12-04,1,0.0008952676995691077,0.0009578304088515384,-0.004208947279755438,0.005624159962148037,0.9937511817192445
2013-12-06,1,0.0007400855434400358,0.0007495273994006284,-0.0029048121405407423,0.00559548825871738,0.9942423599156691
2013-12-10,1,0.00096120701430119,0.0010336003554858113,-0.0033246720449632335,0.00559548825871738,0.9937794190432221
2013-12-12,1,6.153274309967001e-06,0.00011500977717694846,-0.002632623838110238,0.005867100709093191,0.9939699219401473
2013-12-16,1,8.249571326289805e-05,0.00017155670550062914,-0.002632623838110238,0.00559548825871738,0.9939412327979298
2013-12-18,1,0.000612412517154295,0.0006331743454551302,-0.002632623838110238,0.0053265135577058595,0.9942263949146883
2013-12-20,1,0.0004047080656289756,0.000462490857703436,-0.0034705374557307185,0.0050105496371798675,0.9942924146521255
2013-12-24,1,0.0006523039885852829,0.0006571831614233671,-0.009739319855695056,0.004030024378715561,0.9921904486004554
2013-12-27,1,0.000643581230129538,0.0006457099022194409,-0.009739319855695056,0.0050105496371798675,0.9912789906153747
2013-12-31,1,0.0004497545332433913,0.0005064972536237672,-0.011171192177062188,0.0050105496371798675,0.9906624802451348
2014-01-03,-1,-0.0001800467447520299,-6.373241510036369e-05,-0.009739319855695056,0.0050105496371798675,0.9915356638218942
2014-01-07,-1,-0.0005345005233640849,-0.0003344901008930473,-0.011171192177062188,0.0050105496371798675,0.9887397337507076
2014-01-09,-1,-0.00024201886297889097,-0.00011733639867132745,-0.009948303813992176,0.005443349158271274,0.9880881392361665
2014-01-13,-1,-0.0003089040918142199,-0.00016650930092482126,-0.009948303813992176,0.005416478938288468,0.9882948911693831
2014-01-15,-1,-0.0004958869359884752,-0.0003433375956000724,-0.007351824609005291,0.005901239752048901,0.9883850401521018
2014-01-17,-1,-0.0007966231287422125,-0.0005977784460171664,-0.005703552198651083,0.006115061318924956,0.988720057160899
2014-01-22,-1,-0.001600074016019409,-0.001272723180135563,-0.007552694689517487,0.006629607207922794,0.988179590675994
2014-01-24,-1,-0.0032156255436385306,-0.002693741379835644,-0.003630434350643081,0.006629607207922794,0.9898024539754866
2014-01-28,-1,-0.0019147286789205674,-0.0015957578359859638,-0.004914682559014375,0.006629607207922794,0.9903665369649407
2014-01-30,-1,-0.002335662095721879,-0.0019705521351726226,-0.0047657853147812495,0.0070831606535960105,0.9903507443130092
2014-02-03,-1,-0.0023778420254990276,-0.002032931452197168,-0.004173304728551616,0.008024320911091872,0.9895471053331971
2014-02-05,-1,-0.0028378308219890297,-0.0024728579418092636,-0.004173304728551616,0.0070831606535960105,0.9925801702851512
2014-02-07,-1,-0.002339139413843108,-0.002045316302239099,-0.0035070556729628745,0.0070831606535960105,0.9928931732475351
2014-02-11,-1,-0.0017681551339480738,-0.001574925102783682,-0.0035070556729628745,0.0070831606535960105,0.9932077119310058
2014-02-13,-1,-0.0015761544561002905,-0.0013846763585378444,-0.005688183235479293,0.006629607207922794,0.9934897819059815
2014-02-18,-1,-0.001373872926527988,-0.0012106288355654515,-0.005688183235479293,0.0070831606535960105,0.9933051435394159
2014-02-20,-1,-0.0016854777323952901,-0.001466420609197422,-0.006020247285743443,0.004624019181932281,0.9936006006932891
2014-02-24,-1,-0.0018655744611914692,-0.0016092954753701846,-0.0062883973337064004,0.003780424545963882,0.992817789876855
2014-02-26,-1,-0.0016777895823751694,-0.0014607246718267345,-0.006248503903566785,0.0024654674130665873,0.993297654774135
2014-02-28,-1,-0.001236691710619593,-0.0010611783864694245,-0.006667402395184744,0.0015703311921838141,0.9940332831631132
2014-03-04,-1,-0.0013421181451366711,-0.0011235500603657377,-0.006667402395184744,0.0022934273026015825,0.993866570154847
2014-03-06,-1,-0.0011596485780545306,-0.0010105908456736906,-0.006318936677044967,0.0022934273026015825,0.9939895590601658
2014-03-10,-1,-0.0002914282798877867,-0.0002631828290682726,-0.007018314451759693,0.0018837535587421042,0.9936554856470985
2014-03-12,-1,-0.0005509952417008692,-0.00047433985133367993,-0.007018314451759693,0.002469996525785373,0.9920191628939095
2014-03-14,-1,-0.0007053613749152137,-0.0006321057753861109,-0.008818569525531743,0.002469996525785373,0.9915645223817401
2014-03-18,-1,-0.0003883216029056535,-0.00035245269059944434,-0.008818569525531743,0.0031359964500287784,0.990255254149757
2014-03-20,-1,-0.0009722136965691636,-0.000853963380041069,-0.008262130686769703,0.007249919985875991,0.9898839324065402
2014-03-24,-1,-0.0017139816084772643,-0.0015143368651950211,-0.002734172687435198,0.007249919985875991,0.9906163909922185
2014-03-26,-1,-0.0018256433320486191,-0.0016110746348276797,-0.0040897383769270155,0.00806188979350667,0.99016576885085
2014-03-28,-1,-0.0022210234692584077,-0.0019364609464593329,-0.003637517900591254,0.00806188979350667,0.9901787294522204
2014-04-01,-1,-0.0010026178333682385,-0.0008863163029676144,-0.00435035821507358,0.007976484046587731,0.9907066993478976
2014-04-03,-1,-0.0013965410318048078,-0.0012132351830515037,-0.005011257865117712,0.014410840481800668,0.9882950812102133
2014-04-07,-1,-0.001364660785886567,-0.0012001581885369406,-0.005418200126395889,0.014410840481800668,0.9881881865329087
2014-04-09,1,0.00031194041131390055,0.00041666762388462497,-0.005418200126395889,0.007976484046587731,0.9896919797038827
2014-04-11,-1,-0.00028635557888414176,-0.0002638256729066305,-0.004957454225873344,0.007976484046587731,0.9903896655692705
2014-04-15,1,0.0006035982213539663,0.0007136035083787949,-0.004957454225873344,0.004387088553257423,0.9919665483893525
2014-04-17,1,0.001200081611446748,0.0014221169105829705,-0.005074874806615201,0.0031048159446295798,0.992352754579101
2014-04-22,1,0.0010874362461601485,0.001293752815142395,-0.005074874806615201,0.004387088553257423,0.9920035958396243
2014-04-24,1,0.0013588374477993596,0.001626215450252067,-0.004957454225873344,0.004387088553257423,0.992023048921538
2014-04-28,1,0.0011919756620580348,0.0014275854050754808,-0.004957454225873344,0.0062634070416531665,0.9918518830269559
2014-04-30,1,0.0011249168245232271,0.0013208155275930833,-0.0037914506570668177,0.0062634070416531665,0.9922740851864541
2014-05-02,1,0.00237343875820581,0.002743171138341675,-0.0022639236993542288,0.004387088553257423,0.9946569901911881
2014-05-06,1,0.001555646779299027,0.0018175517322660789,-0.001291192476054023,0.004387088553257423,0.9960259647643915
2014-05-08,1,0.0013238342601760715,0.0015474668592645974,-0.0008590784738749635,0.004387088553257423,0.9963190596482552
2014-05-12,1,0.0014481771492536356,0.0016883129298845621,-0.0012571748139888043,0.0034550561253195167,0.996264119348949
2014-05-14,1,0.0016927095969487607,0.001992591197477918,-0.0008477392531865574,0.002476619359786179,0.9965975450815067
2014-05-16,1,0.0015057843598762564,0.0017792017740306974,-0.0012571748139888043,0.002476619359786179,0.9964643706721862
2014-05-20,1,0.001743763307412822,0.002046869251787124,-0.0014688137266421707,0.002476619359786179,0.9960809187816922
2014-05-22,1,0.0021305264758915785,0.0024809117035491037,-0.0028032288768092013,0.0019288042326234191,0.9956016494391333
2014-05-27,1,0.002461431649768061,0.0028722086716283833,-0.003673414624616969,0.0018312544006859133,0.9947648789818329
2014-05-29,1,0.0023688431813371014,0.00273239454128644,-0.004440432971272832,0.0018312544006859133,0.994766890351002
2014-06-02,1,0.002445189220103996,0.0028260351857592597,-0.005505827578949137,0.0018312544006859133,0.9943326552210033
2014-06-04,1,0.002296469614767166,0.002647234329222604,-0.005505827578949137,0.0018312544006859133,0.994425138775917
2014-06-06,1,0.0022896584322708415,0.002642649092682787,-0.005505827578949137,0.0018294607222811177,0.9937169352166153
2014-06-10,1,0.002050711208814084,0.0023603029034496487,-0.006413090699068176,0.0026546820111363395,0.9934161252298833
2014-06-12,1,0.0020361404376051545,0.002336858332779375,-0.006413090699068176,0.002386606382931258,0.9931291973598421
2014-06-16,1,0.0016290803974322021,0.0018610749308167434,-0.005505827578949137,0.005452423594760064,0.9933811627129416
2014-06-18,1,0.0011409571374838261,0.0012456112145643194,-0.006465158937014172,0.00476311901771779,0.9935336149970689
2014-06-20,1,0.0011412376704487187,0.0012716151463104668,-0.006465158937014172,0.005092734209500696,0.9928102316208508
2014-06-24,1,0.0005645996607222714,0.0005970156618340473,-0.005505827578949137,0.006890095242624744,0.9930801168465005
2014-06-26,1,0.0004975012386225094,0.0005031431071936252,-0.004456974086645157,0.005541560282016656,0.9934385181870955
2014-06-30,-1,-0.0001230609058961593,-4.4136953730602535e-05,-0.007352775826741023,0.005541560282016656,0.993151479445266
2014-07-02,-1,-0.00022523120336704271,-0.00012137121446512361,-0.008005800781740435,0.005541560282016656,0.9927718388517297
2014-07-07,1,1.9183110127399966e-05,9.26685042519294e-05,-0.008005800781740435,0.0049488540381220445,0.9929667862795571
2014-07-09,1,0.00010646070964247329,0.00015839611109639477,-0.007352775826741023,0.004666925043099461,0.9934554930257322
2014-07-11,0,-9.760967375193122e-06,5.3939128994449345e-05,-0.008005800781740435,0.0049488540381220445,0.9922448222253445
2014-07-15,1,0.0002595239774657417,0.00029881497905234625,-0.008005800781740435,0.0049488540381220445,0.9920164194112628
2014-07-17,-1,-0.00023854349434620034,-0.00013826359715535307,-0.004752846383220774,0.006680998908612621,0.9923416743620889
2014-07-21,1,2.0581790660924765e-05,9.499404169508566e-05,-0.003712138818619717,0.006253994569847372,0.9931900465545402
2014-07-23,1,0.0003477016544121091,0.0003652006678580844,-0.00328075598906998,0.0049488540381220445,0.9936915141148207
2014-07-25,1,0.0003294399569944529,0.0003421995120992282,-0.0037404487226613894,0.0049488540381220445,0.9936819133088959
2014-07-29,-1,-0.0003985662813215551,-0.00028263460694108813,-0.0021947867334218777,0.006253994569847372,0.9939662641088562
2014-07-31,-1,-0.0004024857549933757,-0.00030942852930936597,-0.002933631142622592,0.006253994569847372,0.9941998584352696
2014-08-04,-1,-0.000170793713241582,-0.00010178297979255641,-0.002933631142622592,0.005212074564058399,0.9946033252942922
2014-08-06,-1,-0.0004201717182666105,-0.0003031378290924849,-0.002933631142622592,0.006200218798504416,0.9943279785980437
2014-08-08,-1,-0.00019572393812426143,-0.00011533181683820651,-0.002933631142622592,0.00394659542045036,0.9948607222260664
2014-08-12,-1,-0.00022804472228362982,-0.00012454893747827913,-0.0032452878779690667,0.00394659542045036,0.9947244407536621
2014-08-14,-1,-0.00045405384410611633,-0.0002956344714283252,-0.00362102013296043,0.0025195671157532884,0.995131566064863
2014-08-18,-1,-0.0003938085101005643,-0.00023634944876579667,-0.00362102013296043,0.0018263787922805073,0.9955079703062899
2014-08-20,-1,-0.0006308355184697406,-0.00043543120982221246,-0.00362102013296043,0.002566894283869131,0.995426495416302
2014-08-22,-1,-0.0004729133159651025,-0.00032507043497054727,-0.0031029205984624995,0.0037188409708035007,0.995187241963674
2014-08-26,-1,-0.0003427466759139354,-0.00019979907746574136,-0.003745200730897626,0.0037188409708035007,0.9948285145021546
2014-08-28,-1,-0.000756287519268128,-0.0005560850001624201,-0.004593610313010176,0.0044004097485362175,0.9940514448876934
2014-09-02,-1,-0.00023258868376991985,-0.0001331147926445607,-0.004593610313010176,0.0044004097485362175,0.9940501947903166
2014-09-04,-1,-0.0006826440432387851,-0.0004999903338935677,-0.00656948672253385,0.0037188409708035007,0.9941340257986606
2014-09-08,-1,-0.00042353368076291444,-0.00032381211263112045,-0.004181531171891453,0.00441379123154661,0.9946094021859636
2014-09-10,-1,-0.00036753578855035175,-0.00028914278580295476,-0.0026594050711872767,0.00441379123154661,0.9951996436868756
2014-09-12,-1,-0.0006569448709301271,-0.0005391412709930404,-0.00656948672253385,0.00441379123154661,0.9940980812231944
2014-09-16,-1,-0.000602102704453204,-0.00048666635147086415,-0.00827983785921337,0.0057398644153368854,0.9926227780972149
2014-09-18,-1,-0.0006776447705683759,-0.0005468758958041191,-0.00827983785921337,0.0057398644153368854,0.9925141121510866
2014-09-22,-1,-0.0004921300945888945,-0.000391945171977913,-0.00827983785921337,0.006202647407461902,0.9919717616212219
2014-09-24,1,7.643740389859087e-05,9.485433443220386e-05,-0.00656948672253385,0.006202647407461902,0.991785970113301
2014-09-26,-1,-0.0007191513462637747,-0.0005960160313200399,-0.004598006665924094,0.005565508718084689,0.9926811434046254
2014-09-30,-1,-0.0007541638353882092,-0.0006208947740825986,-0.004598006665924094,0.006024605748353823,0.9922864966076402
2014-10-02,-1,-0.0011704019135901451,-0.0009948618716624203,-0.0032185192839339787,0.006024605748353823,0.9924284063287637
2014-10-06,-1,-0.0009833906778376916,-0.0008309290522231394,-0.0032185192839339787,0.0075586519185556235,0.9920349767535392
2014-10-08,-1,-0.0006096693510592552,-0.0005004415121434445,-0.006274509523192439,0.006024605748353823,0.9895844010349537
2014-10-10,-1,-0.0012483765829577873,-0.0010765568819034778,-0.0032185192839339787,0.009230058543966302,0.9897564864049074
2014-10-14,-1,-0.001247032096303712,-0.0010948390575827348,-0.0028524656331795177,0.007747553585792202,0.9911896912746767
2014-10-16,-1,-0.0010942142841333798,-0.0009723206533792817,-0.0020440471756740936,0.007747553585792202,0.9915310790657924
2014-10-20,-1,-0.0003627944107612494,-0.0003435261644938929,-0.0029447143906337213,0.004428508796189159,0.9916295983598947
2014-10-22,1,0.00010256041483847132,0.00014716638306202135,-0.00285180113854944,0.007747553585792202,0.9916805079275643
2014-10-24,1,6.738076488354444e-05,0.00010397793796562119,-0.0020747967614921613,0.007747553585792202,0.9917433548825836
2014-10-28,1,0.00038687202351298157,0.00047202937116829505,-0.00316641220221632,0.007366026471058337,0.9917431311777789
2014-10-30,1,0.0003036898268152994,0.000371695880119057,-0.0020747967614921613,0.009230058543966302,0.9914412058720539
2014-11-03,1,0.0007020031595725912,0.0008286852177218392,-0.00316641220221632,0.007500992224865407,0.9914724011113656
2014-11-05,-1,-0.0011184105213773163,-0.0010048569738311155,-0.0020747967614921613,0.007500992224865407,0.9940494891319996
2014-11-07,-1,-0.0004419732094781269,-0.00041318030994180364,-0.003045726732935785,0.005252838805002315,0.9946325487653035
2014-11-11,-1,-0.00046895549505956345,-0.0004310202804284491,-0.0034714427130127443,0.005860466562632397,0.9938347898302983
2014-11-13,-1,-0.0007350128659384346,-0.0006449797443536848,-0.004223929065390852,0.006916896024404748,0.992863541146524
2014-11-17,-1,-0.0012402629696199243,-0.0010938194763515892,-0.004223929065390852,0.007194972614311736,0.992594228291368
2014-11-19,-1,-0.000651471351606,-0.0005679466932468305,-0.004223929065390852,0.007194972614311736,0.992021739958389
2014-11-21,-1,-0.0006376987923101881,-0.0005506697153593306,-0.004223929065390852,0.007194972614311736,0.9918397858556138
2014-11-25,-1,-0.00033536835137826915,-0.0003000555921151368,-0.004917503957169835,0.008348695654622082,0.9910606661511219
2014-11-28,-1,-6.638864500513476e-06,-5.614981674763027e-06,-0.004917503957169835,0.007194972614311736,0.9916616853706312
2014-12-02,1,3.433144589274644e-06,4.681086602264408e-06,-0.005008560885527359,0.006557711556525259,0.9915102912412831
2014-12-04,1,0.0002838940043359218,0.0003470861774770171,-0.00874252820620873,0.006557711556525259,0.9909224793747602
2014-12-08,1,7.895975214126264e-07,1.9027749702079134e-06,-0.00966817558974373,0.006557711556525259,0.9907232152287347
2014-12-10,-1,-9.113842996412677e-05,-8.337248479648243e-05,-0.008313806802145133,0.008348695654622082,0.9907569084130808
2014-12-12,-1,-0.00012114734367325787,-0.00010519153921338284,-0.0081401227504188,0.00728210208853585,0.9911967188266224
2014-12-16,-1,-0.00011357777632204418,-0.00010216693248778618,-0.006974789118987234,0.004996997083122254,0.9917241522884421
2014-12-18,1,0.0006356946461171401,0.0007176255194960885,-0.006974789118987234,0.0042813714279548755,0.9929240321352354
2014-12-22,1,0.00048041083482160444,0.0005225488733386651,-0.007535952464041435,0.0042813714279548755,0.9922252336005836
2014-12-24,1,0.0009556096724539035,0.0010756696888084886,-0.008718402030501135,0.0036700381131065255,0.9918546440284467
2014-12-29,1,0.0009817659084473986,0.0011046041002470172,-0.011557775723392776,0.0036700381131065255,0.9901666299931557
2014-12-31,1,0.0005242693451917636,0.0005901174456456341,-0.011557775723392776,0.0042813714279548755,0.9891192847882856
2015-01-05,1,0.0002082766248755506,0.0002485152427687446,-0.00977896775144823,0.008704502108523238,0.9886836954871819
2015-01-07,1,0.000246688553958154,0.0003047242192436284,-0.00925791559626923,0.014144490331273041,0.9852407841099271
2015-01-09,1,0.0006184168126312741,0.0007446779932706449,-0.00925791559626923,0.014212771986989269,0.9854896400657568
2015-01-13,1,0.0004740278870869427,0.0005773279319544683,-0.00838401515765453,0.014212771986989269,0.9855811516911261
2015-01-15,1,0.0001514638652143017,0.00020649965060080073,-0.00838401515765453,0.014819880059888924,0.984839190273427
2015-01-20,1,0.00063796625367066,0.0007777296421769362,-0.009304696873911283,0.014819880059888924,0.9848034985597894
2015-01-22,1,0.0007866810766203407,0.0009350259615320142,-0.009304696873911283,0.014212771986989269,0.9852260793672117
2015-01-26,1,4.437545639670546e-05,9.983099729313853e-05,-0.00466674142339247,0.014212771986989269,0.9862302721815308
2015-01-28,-1,-0.000871277827606155,-0.0008119124256194766,-0.0035631630888693496,0.014212771986989269,0.9873313987639502
2015-01-30,-1,-0.0009525894239608061,-0.0008661229031614797,-0.0017045115950188338,0.010175325061078397,0.9885942495200614
2015-02-03,-1,-0.00012017107664774204,-0.00011963779332820754,-0.004112062219570806,0.007398902555995372,0.9897481632253581
2015-02-05,1,0.0018051212670989773,0.0020496831075489824,-0.00466674142339247,0.007398902555995372,0.993200910667917
2015-02-09,1,0.0020142940938562646,0.0022904778713000486,-0.005333832334256154,0.00716746586015516,0.9926709301951718
2015-02-11,1,0.0022316015391865285,0.0025375596833472885,-0.006456872472312197,0.008136019815738233,0.9921250870294577
2015-02-13,1,0.00288969749594229,0.003285766403695789,-0.008275119431306538,0.0077504170699930625,0.9923667410272786
2015-02-18,1,0.0024587824076647865,0.0027934143331567775,-0.006456872472312197,0.008136019815738233,0.9924726905300998
2015-02-20,1,0.0024534169731475395,0.002774499819292374,-0.006456872472312197,0.008136019815738233,0.9919932215718674
2015-02-24,1,0.002382980910950833,0.002693635048251457,-0.007886657234808536,0.008136019815738233,0.9917461878238549
2015-02-26,1,0.00228410635946726,0.0025569813226037595,-0.008275119431306538,0.008136019815738233,0.9908901988525718
2015-03-02,1,0.002646517612992864,0.002970986460180557,-0.008275119431306538,0.008164465975647506,0.9905683721473848
2015-03-04,1,0.0023034643002577387,0.002594082110437077,-0.008740243291312075,0.008164465975647506,0.9907104911474204
2015-03-06,1,0.0017834029040418682,0.0019575162423705835,-0.007960108892138752,0.009294301015278499,0.9909452962298321
2015-03-10,1,0.0012477104659617622,0.0013325836319089356,-0.007960108892138752,0.009294301015278499,0.9915017063211831
2015-03-12,1,0.0011149096075816667,0.0011798530769593953,-0.007960108892138752,0.008360486398125084,0.991585086317079
2015-03-16,1,0.001260333232417735,0.0013667715901795922,-0.004995337874519485,0.010584507429349806,0.9914265718691595
2015-03-18,1,0.0015842098925369845,0.0017553735072857702,-0.0054147474442725945,0.007412575981429491,0.9916719030273443
2015-03-20,1,0.001994433285397905,0.002215916363082299,-0.008542306771682445,0.005952446823006144,0.9918410031380728
2015-03-24,1,0.0019154484937215354,0.002138239791310907,-0.006175400494202433,0.0048477559571356715,0.9922196133455836
2015-03-26,1,0.0015550309273962698,0.0017246674641773624,-0.004080610255821917,0.004460156523405517,0.9929836641347431
2015-03-30,1,0.0021946909230389686,0.0024653285089591115,-0.004080610255821917,0.0026769143541289205,0.9929725021156067
2015-04-01,1,0.001075635129245577,0.0010879775791890942,-0.0050063880391472936,0.0026769143541289205,0.9927944987505112
2015-04-06,1,0.0018418774208987577,0.001985789362125065,-0.0050063880391472936,0.0026769143541289205,0.9923219677833175
2015-04-08,1,0.0012849644496645812,0.001358889719560848,-0.004080610255821917,0.00681362297380968,0.9910078134472792
2015-04-10,1,0.0009498127449697488,0.0009734466427918592,-0.0037851156915267438,0.009579594482042571,0.9913843232570321
2015-04-14,1,0.0009577105523899854,0.0009653391622714295,-0.004080610255821917,0.00681362297380968,0.9918112477166705
2015-04-16,1,0.0008798713654477019,0.0008956265742018937,-0.0037487521043735868,0.009579594482042571,0.9912694520388815
2015-04-20,1,0.00033184317213943933,0.0003859577541377884,-0.0037487521043735868,0.009579594482042571,0.9918228757910216
2015-04-22,1,0.0002767485689445431,0.0003339131474130797,-0.004045644362212194,0.009579594482042571,0.9916270273776203
2015-04-24,1,0.0003133608277246787,0.0003527250038595789,-0.004045644362212194,0.009905155050631342,0.9911564328895431
2015-04-28,1,0.0004711031380519851,0.0004952328310473763,-0.005059348076574857,0.009411459704937196,0.9907435351199755
2015-04-30,-1,-0.00016098088150134937,-6.12544319537466e-05,-0.004045644362212194,0.009411459704937196,0.9909079142464877
2015-05-04,1,0.0004930850750931713,0.000522470659989838,-0.005031048645648882,0.004860335812253664,0.991865162533046
2015-05-06,1,0.0013649477246415187,0.0014248664349546959,-0.005031048645648882,0.0033159634805767103,0.9940063495848922
2015-05-08,1,0.0014084526312709922,0.0014585462674669447,-0.005031048645648882,0.0030925844414842587,0.9943940649015433
2015-05-12,1,0.0010596152903497053,0.001063569822835354,-0.0038496770950305946,0.0036949712358467384,0.9946874692165136
2015-05-14,1,0.001900107108112972,0.0020684478525311765,-0.005385659543986763,0.0033159634805767103,0.9947995496888474
2015-05-18,1,0.0017110078505725734,0.0018523781170133417,-0.005654823564342834,0.0036949712358467384,0.9940955691738785
2015-05-20,1,0.0017005230926112791,0.0018577996126564623,-0.00556992527156491,0.003710527572584746,0.994399385390233
2015-05-22,1,0.001961231492383758,0.0021525548101468247,-0.00556992527156491,0.0033159634805767103,0.994568441546852
2015-05-27,1,0.0012475981394662464,0.0013154971891707707,-0.00556992527156491,0.0017173250515583839,0.9953309947724842
2015-05-29,1,0.000422162934453951,0.000483234323952212,-0.00556992527156491,0.003710527572584746,0.995231323831421
2015-06-02,1,0.000206218759523319,0.0002992188610905547,-0.006410506496936393,0.00461062562352765,0.9942262889870274
2015-06-04,1,0.00024623854921584167,0.0003306593038943914,-0.006410506496936393,0.004821571160942921,0.9936107329335873
2015-06-08,1,8.354809305131255e-05,0.00019463581989967552,-0.006810746951144858,0.005440689149130247,0.9926136789502705
2015-06-10,1,1.3866863312198767e-05,0.0001492551720225215,-0.007131933772289184,0.005440689149130247,0.9919312173764785
2015-06-12,-1,-0.00032801986851282744,-0.00015612453970745993,-0.006341034231813432,0.0122204713167254,0.9910158348681781
2015-06-16,0,-2.5681779149435997e-05,0.00010827906409854567,-0.0036519906297182076,0.008230351180260356,0.99198797286755
2015-06-18,-1,-0.0005510850992320981,-0.0003176805940458869,-0.006810746951144858,0.008230351180260356,0.9918903321112965
2015-06-22,-1,-0.0012639236460048656,-0.0008946778780502883,-0.006810746951144858,0.008928572224908938,0.9915214663803444
2015-06-24,-1,-0.001662112890249762,-0.0012424497141959678,-0.003112755159913484,0.008928572224908938,0.9917105978177
2015-06-26,-1,-0.0011630684882605069,-0.0008352931150342675,-0.006819468696858189,0.0073216489910741854,0.9916905267208947
2015-06-30,-1,-0.00042320064767964536,-0.000285433515821522,-0.003112755159913484,0.012050534419908441,0.9914500766060201
2015-07-02,-1,-0.00010988644160426402,-2.280589573352824e-05,-0.005203677110060769,0.009324427852349933,0.9918365269098958
2015-07-07,1,0.00023077378833831431,0.00026931500277637023,-0.002600222634593108,0.007702657339231739,0.9923100584694712
2015-07-09,0,-3.6256104224491084e-05,2.704971875159621e-06,-0.002600222634593108,0.008287880885332916,0.9924656164376839
2015-07-13,1,0.000563055314242305,0.0005769988236463447,-0.0051211047169591245,0.005480973897261441,0.9935475809538541
2015-07-15,1,0.0005916765529534968,0.0006175551837111104,-0.006571751517553255,0.005480973897261441,0.9926603614312735
2015-07-17,1,0.00024843525900808877,0.0002723122992178452,-0.006911435658439491,0.007702657339231739,0.9920465240884809
2015-07-21,1,0.0005867930851073648,0.000607959921685751,-0.008974136118334714,0.007970668188841885,0.9885936913673907
2015-07-23,1,0.0006050572672056063,0.0006472530670641515,-0.01074944891199644,0.007970668188841885,0.9877211151468724
2015-07-27,-1,-0.0003794244366316231,-0.0002659473440567919,-0.011983564797039879,0.007970668188841885,0.9857156265165059
2015-07-29,1,0.000618508488737571,0.0006425168742236811,-0.011983564797039879,0.005480973897261441,0.9848036485188507
2015-07-31,-1,-9.649463652174818e-05,-1.6381682791233646e-05,-0.011983564797039879,0.007970668188841885,0.9840293687157177
2015-08-04,1,0.00037926217038176875,0.00040048859593282794,-0.015135987662817884,0.005854722312368598,0.9826194725038222
2015-08-06,1,4.558439667199575e-05,0.0001041907658362421,-0.015135987662817884,0.007777878448357549,0.9823913271118905
2015-08-10,1,0.00016521600882302942,0.00019323380138428712,-0.018018051574503965,0.007777878448357549,0.9815504718797322
2015-08-12,1,0.00046708226023543624,0.0004980907611987025,-0.0175491548386904,0.007777878448357549,0.9814314007620842
2015-08-14,-1,-9.155198391219745e-05,-2.8806342758091558e-05,-0.0175491548386904,0.005728230602306489,0.9823239557065988
2015-08-18,-1,-0.0012188323848512117,-0.0010125828811299756,-0.01497968875088003,0.00734152725766653,0.98522312107023
2015-08-20,-1,-0.001570451037400897,-0.0013556347903281012,-0.015361523494650663,0.009280296823954263,0.9848207426120767
2015-08-24,-1,-0.002342342474678894,-0.002020238098344329,-0.011824629729625237,0.010002782510737345,0.986705616969166
2015-08-26,-1,-0.0015776332879448456,-0.0013848096794923247,-0.009107640284783128,0.010002782510737345,0.9881278629751957
2015-08-28,-1,-0.0016252506514603843,-0.001407290008908383,-0.014912727642104046,0.010002782510737345,0.9871510659790382
2015-09-01,-1,-0.0027136223768093287,-0.002354704360603888,-0.008107851365082911,0.013034770768693736,0.9862312366302625
2015-09-03,-1,-0.0017061026017670877,-0.0014983839231759435,-0.008107851365082911,0.011636261823961706,0.9874776019201049
2015-09-08,-1,-0.0023991212145064882,-0.0020823559773991006,-0.0018639239972188639,0.013034770768693736,0.9873020817307674
2015-09-10,-1,-0.0030999273983608354,-0.002688771530984853,-0.00013085879509873785,0.013034770768693736,0.9869512757387688
2015-09-14,-1,-0.002814490705074414,-0.002438547789407371,0.0007104958609742678,0.013034770768693736,0.9870023397929867
2015-09-16,-1,-0.0023704561505435585,-0.0020420321075864255,-0.00030091018270691426,0.011637704450811397,0.9877113838412777
2015-09-18,-1,-0.002589415751453638,-0.002248106696548678,0.0007104958609742678,0.013365142393812198,0.9875967320815028
2015-09-22,-1,-0.0028647148932010352,-0.0024680910182538294,-0.00017901308413801592,0.013365142393812198,0.9881863986781759
2015-09-24,-1,-0.0015164062093294722,-0.0013173524165403525,-0.000837949435120962,0.01475656829605174,0.9889250289889008
2015-09-28,-1,-0.001911402269763501,-0.0017160072869702755,-0.0018527355899900016,0.012074598367222928,0.9908248889563421
2015-09-30,-1,-0.0004316251993603959,-0.00041182138714596274,-0.003973071248875852,0.005343270190151106,0.9932455960756198
2015-10-02,-1,-0.00024683187942195766,-0.00023839077436218519,-0.004837455711979655,0.005343270190151106,0.9919765435425082
2015-10-06,1,0.00017159134089697023,0.00024700204627825203,-0.004837455711979655,0.005343270190151106,0.9890140266383177
2015-10-08,1,0.0005300515210873683,0.0006399067036996012,-0.006442420713693382,0.005343270190151106,0.9885683628116951
2015-10-12,1,0.0003213929980330571,0.0003955675834265459,-0.011558517319529747,0.0019672118355283145,0.9877028968626786
2015-10-14,1,0.0002547148391984073,0.00034886589003254567,-0.010893603449301546,0.006050105853296093,0.9879898003127584
2015-10-16,1,0.0004561405538858716,0.0005579205951707058,-0.01196262388435248,0.0007511749546104991,0.9869668197820615
2015-10-20,-1,-4.238997612139962e-05,-2.9693323783059034e-05,-0.011973486077747841,0.004826800334264308,0.9869759458362544
2015-10-22,1,0.0002940201642891,0.0003525369338433413,-0.011973486077747841,0.006050105853296093,0.9863728467950242
2015-10-26,1,0.00015808902377454343,0.0002055722994363617,-0.011973486077747841,0.00897199451713012,0.986151403730226
2015-10-28,-1,-4.933108711954722e-05,-2.8530674583064904e-05,-0.011973486077747841,0.00897199451713012,0.9863617205754869
2015-10-30,-1,-0.000425403331790835,-0.00040893145540548027,-0.011909733312749034,0.00897199451713012,0.9873103203137488
2015-11-03,1,0.0009914952010307905,0.0011424614226071069,-0.011995920937691381,0.00897199451713012,0.9900253157299309
2015-11-05,1,0.0012187133254597422,0.0014286225726891388,-0.011995920937691381,0.009004149979724726,0.9901167252790501
2015-11-09,1,0.0005774696879125324,0.0006874586446650359,-0.004487759461484314,0.010047738775357265,0.9904945803457766
2015-11-11,1,0.0007270308074798972,0.0008583851960885542,-0.010214909581825771,0.010047738775357265,0.9902999057030679
2015-11-13,1,6.398443575746077e-05,0.0001001696968700049,-0.00391919748671144,0.011105086213302227,0.990105727008607
2015-11-17,1,0.00010844233973312208,0.00017333986345472225,-0.0019925289986564626,0.013855439954669656,0.9888576203694499
2015-11-19,1,0.0005526285687077649,0.0006541554071945358,-0.00391919748671144,0.012081655208849183,0.9893568148167365
2015-11-23,1,0.0008761819570776243,0.0010227966536452467,-0.0039015790387702818,0.011219891683164382,0.9894642433971292
2015-11-25,1,0.0009105780472071636,0.0010939636808857593,-0.007111655904411144,0.011219891683164382,0.9889785312436896
2015-11-30,1,0.00020532141150018474,0.0002492020114691796,-0.0027491169043493803,0.011219891683164382,0.9890761729440831
2015-12-02,1,0.000637163775967256,0.0007922405848872977,-0.004670739502002542,0.009970681520157969,0.9896920505826383
2015-12-04,1,0.0013997762224832126,0.0016505474244199719,-0.007111655904411144,0.009157487374740132,0.9897741689427478
2015-12-08,1,0.0015458934203180178,0.0018019864812315422,-0.009963173875398978,0.008547905372070265,0.9878096116887999
2015-12-10,1,0.0015836364632256332,0.001868931780965291,-0.009963173875398978,0.008547905372070265,0.988204797146466
2015-12-14,1,0.0013492238666651924,0.0015862294362205909,-0.009963173875398978,0.008547905372070265,0.9887147256705804
2015-12-16,1,0.0020201394359201062,0.0023163087572015007,-0.011525339559997698,0.008093377285058335,0.988671291132546
2015-12-18,1,0.001555957133027563,0.0018473607553361009,-0.011002830136850269,0.008547905372070265,0.9885316691356485
2015-12-22,1,0.00180078759658267,0.002092330468607618,-0.011002830136850269,0.008553174592744989,0.9875558808041298
2015-12-24,1,0.001822080189584756,0.002141300932380845,-0.01184817679736133,0.008553174592744989,0.9868645975170055
2015-12-29,1,0.0017532333953022901,0.0020448033805530205,-0.013620801602309444,0.010429912092383397,0.9859044261834498
2015-12-31,1,0.0014278853968179806,0.0016775376331634958,-0.013620801602309444,0.014563660101102762,0.9860029889092556
2016-01-05,1,0.0017919139770365576,0.0021007128034053347,-0.013620801602309444,0.015813684025319102,0.9858362405849443
2016-01-07,1,0.0005932692734411783,0.0007299421005151012,-0.00742161957687808,0.01645081832429145,0.9860009157304666
2016-01-11,1,0.00035002935158827517,0.0004066315233635188,-0.01184817679736133,0.01645081832429145,0.9850487975116757
2016-01-13,-1,-0.0003002351471798287,-0.0002407699957943639,-0.014413744531142535,0.01597581812840118,0.9843251797379214
2016-01-15,-1,-0.0006518555229052109,-0.000522754631815585,-0.012053273332867154,0.01722793200008448,0.9849884994911804
2016-01-20,-1,-0.00014390141526589008,-8.400478014777027e-05,-0.0074204999212094825,0.016505775226958577,0.985102374157805
2016-01-22,1,0.00035207956605567357,0.0003547133095507417,-0.0074204999212094825,0.015832002992874808,0.9866204660053289
2016-01-26,-1,-0.000997665317726076,-0.0007977739472680248,-0.0012871590396675847,0.015832002992874808,0.9872937821394688
2016-01-28,-1,-0.0005241162765579416,-0.0004046504158327014,-0.0012871590396675847,0.013916183726426383,0.9881139609497515
2016-02-01,-1,-0.00030479850659025445,-0.00019076984105852976,-0.005045730887509698,0.012062045589379202,0.9884608403431916
2016-02-03,-1,-0.00012054431561759,-3.743578128781943e-06,-0.005246675318283535,0.009706846291969298,0.9891370597268858
2016-02-05,1,0.001153086346099241,0.0011979771511507842,-0.006865042464404372,0.007638598145556371,0.9912261299650842
2016-02-09,1,0.0009124445056051808,0.0009481334031384323,-0.005246675318283535,0.00555371893789073,0.9921559573271148
2016-02-11,-1,-0.0005352068644708609,-0.0003791332196871767,-0.0011659444669428307,0.00830823353928057,0.9927867715629171
2016-02-16,-1,-0.00029418237523116795,-0.0001621502584378014,-0.0014057300795784022,0.0073124959794296975,0.9935877265299143
2016-02-18,1,0.0008738358372316175,0.0009121408055106295,-0.00475069068344253,0.00555371893789073,0.9944622888451794
2016-02-22,1,8.506058074342614e-05,0.00018551984726163329,-0.00475069068344253,0.00555371893789073,0.9944388495427509
2016-02-24,1,0.0010122916610609128,0.0010847991419825952,-0.005246675318283535,0.00555371893789073,0.9940714699746516
2016-02-26,1,0.0006771484937489107,0.00071406795177503,-0.00475069068344253,0.004111448265266153,0.9946143976162201
2016-03-01,1,0.0008726704462051712,0.0009406461804889772,-0.002049436223103077,0.004111448265266153,0.9951350323520924
2016-03-03,1,0.001032811792238852,0.0011451340153515132,-0.0011682576774248938,0.005283055571374308,0.9949155738131444
2016-03-07,1,0.0006800141976626531,0.0007380086463578285,-0.0012755501029610096,0.005283055571374308,0.9951389116479314
2016-03-09,1,0.0005871451296676581,0.0006096442400659112,-0.002223299453697856,0.00609202099011253,0.9944667295864541
2016-03-11,1,0.0009764476481866783,0.0010705755853036196,-0.0012755501029610096,0.00609202099011253,0.9951274371015153
2016-03-15,1,0.0008540230131897057,0.0009111006575093166,-0.0027097975877799657,0.004176036288653687,0.9950390725617935
2016-03-17,1,0.0010284868795048998,0.0011240904763524095,-0.0017303994318970896,0.0028756137276544622,0.9957331286396179
2016-03-21,1,0.0008211673316063777,0.0008746321706971993,-0.0017303994318970896,0.00609202099011253,0.9949043800436755
2016-03-23,1,0.0003634307356864565,0.0003832814186122222,-0.0026425526623116364,0.00609202099011253,0.9938378731320595
2016-03-28,1,0.00014767544789577602,0.0002353985291110109,-0.0026425526623116364,0.006345878977803142,0.9936690148921282
2016-03-30,1,0.0015206154898416138,0.0017020794494523738,-0.0026425526623116364,0.007364169564884384,0.9934648413313202
2016-04-01,1,0.0020774130317836276,0.00232776701824277,-0.003986762876777277,0.007364169564884384,0.9931164855091906
2016-04-05,1,0.001153932696949296,0.0012412825402219761,-0.004304459048957842,0.008332286555933724,0.9908611010584715
2016-04-07,1,0.0011726075261533002,0.001276134311912007,-0.0026425526623116364,0.008332286555933724,0.9916146902815512
2016-04-11,1,0.0006144691077531251,0.0006333839670938457,-0.002974772606898962,0.008332286555933724,0.9913333822207515
2016-04-13,1,0.00022746492371920483,0.0003042703790154241,-0.002974772606898962,0.009025693879102115,0.9904366268927413
2016-04-15,1,0.0007856235854439831,0.0008145245757864886,-0.004535830122750431,0.009025693879102115,0.9894475158168907
2016-04-19,1,0.0013106855254415323,0.00142273447266926,-0.0068631634702718556,0.007757585574035759,0.9899071603682553
2016-04-21,1,0.00035971870119449556,0.000384523077437797,-0.0068631634702718556,0.007757585574035759,0.9904370080685344
2016-04-25,1,0.00040622784367650236,0.0004473565329886894,-0.0068631634702718556,0.006129407682104274,0.9904212419773911
2016-04-27,1,0.0005372564030672354,0.0005705029199543164,-0.0068631634702718556,0.006129407682104274,0.990295540776296
2016-04-29,1,0.0007591550658259825,0.0007897001588710573,-0.006418297022984581,0.005757588942492702,0.9907682958154407
2016-05-03,1,0.0002476879583017005,0.0002634053166984377,-0.005963833403498777,0.005757588942492702,0.9926361844539626
2016-05-05,1,0.00010386115255269038,0.00014595877014628812,-0.005963833403498777,0.005757588942492702,0.9926253127105777
2016-05-09,1,1.1571061170551712e-05,7.829886393002981e-05,-0.005963833403498777,0.0034811267704189528,0.9931150385832654
2016-05-11,1,0.0008479688925357803,0.000945606645063481,-0.005982624764965988,0.0023844835268955174,0.9937460737801257
2016-05-13,-1,-0.00022605103407628228,-0.00014292931109834712,-0.005982624764965988,0.0023844835268955174,0.9946275911363628
2016-05-17,-1,-9.950726398657192e-05,-5.51060946512275e-05,-0.005064367405040603,0.0023844835268955174,0.9947485533555895
2016-05-19,-1,-0.0002871824449010989,-0.00021676816483320361,-0.003332829986241255,0.002571716850402432,0.9953501696508726
2016-05-23,-1,-0.0004020382490823594,-0.0003246118689570397,-0.0026430342246734984,0.0034120083889029383,0.9951179668185385
2016-05-25,-1,-0.00044416831185882917,-0.00034052601207595396,-0.0026430342246734984,0.005478403178496435,0.9949312873642409
2016-05-27,-1,-0.00030094933286231774,-0.00022166308971121015,-0.003332829986241255,0.0031967402458569646,0.9915152010659736
2016-06-01,-1,-0.0007071506857967162,-0.0005163602607454338,-0.003332829986241255,0.005870208467587485,0.9908583004461019
2016-06-03,-1,-0.0009907431211407694,-0.0007660269024142713,-0.003332829986241255,0.009314371442831064,0.9897629642964898
2016-06-07,-1,-0.0011471383262830863,-0.0008955278676312559,-0.004969846009161556,0.009314371442831064,0.9895481477466063
2016-06-09,-1,-0.0014454891247753982,-0.0011516450438499074,-0.0035845710280735087,0.011267010710568189,0.9886589102822354
2016-06-13,-1,-0.0017483067759489095,-0.0014230250814043026,-0.0007134937644709385,0.011267010710568189,0.988630985271276
2016-06-15,-1,-0.001488209470326339,-0.0012228991727693994,0.00010722414521105815,0.011267010710568189,0.9885059870651739
2016-06-17,-1,-0.001794610001700443,-0.0014469867059548804,-0.0007135023867717619,0.011267010710568189,0.988639143244438
2016-06-21,-1,-0.001502783512176524,-0.0011937504378025155,-0.0035205140630954874,0.009314371442831064,0.989265527146338
2016-06-23,-1,-0.0006000053076088123,-0.0004231229923962422,-0.004693328141898065,0.008065460399727964,0.9900316056964704
2016-06-27,-1,-0.002683486293604585,-0.0022883050209821123,-0.001759850914854723,0.008065460399727964,0.9931925793609081
2016-06-29,-1,-0.0007012219134870031,-0.0006192615383817675,-0.0035735980762403967,0.004416504131214936,0.9949392182980682
2016-07-01,-1,-0.00044475464375163566,-0.0003723415430488782,-0.0035735980762403967,0.004414653244677715,0.9954132687753078
2016-07-06,-1,-0.0015911725983745488,-0.0013127125190510228,-0.0020960221238501067,0.005706896856307574,0.9951938169561163
2016-07-08,-1,-0.0006448718501633455,-0.0005032592008025862,-0.0020960221238501067,0.003947338321386383,0.9964665613604426
2016-07-12,-1,-0.00011090437310458646,-7.618170876173844e-05,-0.0031358305678133823,0.003947338321386383,0.9963887950303205
2016-07-14,1,6.24165087637848e-05,7.884883199226421e-05,-0.004206295933564718,0.0013856714511269442,0.9963103360261888
2016-07-18,1,0.0001418555767287917,0.0001451639324662687,-0.003457334085785738,0.0018017036970755613,0.9963553425613506
2016-07-20,-1,-0.00015917103780307466,-0.00011575559952537072,-0.003457334085785738,0.004414653244677715,0.9959563200565856
2016-07-22,-1,-9.003882648414979e-05,-6.603148391152721e-05,-0.003457334085785738,0.005806606165275128,0.9936109084906111
2016-07-26,-1,-0.00017413274934432167,-0.00013878556282551224,-0.00388421700169556,0.005806606165275128,0.9934215483586211
2016-07-28,-1,-0.0005557840675256382,-0.0004662064988837291,-0.00388421700169556,0.0061235053273889055,0.9929596397385181
2016-08-01,-1,-8.426406888807196e-05,-5.719515554736951e-05,-0.00388421700169556,0.0030872639656649645,0.9934448575546235
2016-08-03,1,0.00019037401695490573,0.00020993327876112815,-0.0052353992749754686,0.0013253872055697192,0.9928647106458413
2016-08-05,1,0.00020729122172314475,0.00023895659046214708,-0.0052353992749754686,0.0030994825412644137,0.9924973021193702
2016-08-09,1,0.00012473768231549586,0.00014842273291796742,-0.00743331439605657,0.0030994825412644137,0.9918996415235977
2016-08-11,-1,-2.2765152498660126e-05,-1.64446203499064e-05,-0.00743331439605657,0.0030994825412644137,0.9919969112630436
2016-08-15,1,4.577276505715091e-06,7.121230114381616e-06,-0.008895943458922863,0.003182463501501527,0.9911425235282167
2016-08-17,1,2.8754806972255477e-05,3.2994204363485386e-05,-0.007960171966167223,0.002559323621498842,0.9914825216795049
2016-08-19,-1,-0.00018947645810193453,-0.0001785084296222922,-0.006377861336780106,0.00010729305739860069,0.9941667627579034
2016-08-23,-1,-3.0437025316391948e-05,-1.3197960717840868e-06,-0.006377861336780106,0.0005873603086073089,0.993799204006381
2016-08-25,-1,-0.00015481352397709846,-0.00015034896261283037,-0.006259662535065007,0.0005873603086073089,0.9942301389626728
2016-08-29,-1,-0.0003213430269332775,-0.00030070223420691387,-0.006259662535065007,0.00438773996270217,0.9937616603297437
2016-08-31,-1,-0.0006526987189016592,-0.0006032364199111093,-0.006259662535065007,0.00438773996270217,0.9933577200684248
2016-09-02,-1,-0.0006271266852445943,-0.0005727426411577671,-0.006259662535065007,0.00438773996270217,0.9926458946964608
2016-09-07,-1,-0.000930180737289512,-0.0008485553036865169,-0.006259662535065007,0.00565118199872863,0.9927840573984617
2016-09-09,-1,-0.0007138938924181469,-0.000686553474527038,-0.005811859859875176,0.00565118199872863,0.9925507613550082
2016-09-13,-1,-0.0010128063741162159,-0.0009097771425930794,-0.005459749356521953,0.004458027337070316,0.9936001403650183
2016-09-15,-1,-0.0007631793008919556,-0.000702497247315194,-0.005459749356521953,0.00565118199872863,0.9933561380776181
2016-09-19,-1,-0.0006587891784035675,-0.0006288826132433661,-0.005811859859875176,0.00565118199872863,0.992960568175984
2016-09-21,-1,-0.00034010240384984035,-0.0003339218052716527,-0.005811859859875176,0.004458027337070316,0.9934171461047615
2016-09-23,-1,-0.0007995290202488172,-0.0007227379046963844,-0.005966445980752378,0.0028483314162527818,0.99320391681441
2016-09-27,-1,-0.00034478573841172273,-0.00032254164918359563,-0.005966445980752378,0.0024118363659592344,0.993575589803228
2016-09-29,-1,-0.0010020186535628734,-0.0009108208766348787,-0.0052546901785559,0.0024118363659592344,0.9946327697181444
2016-10-03,-1,-0.00036396868461518295,-0.0003617377403843896,-0.004953742031927823,0.0028483314162527818,0.9951086015585843
2016-10-05,-1,-0.0007520382006835731,-0.0006796542938472335,-0.0052546901785559,0.0024118363659592344,0.9926732234318484
2016-10-07,-1,-0.000827018644245506,-0.0007378182400556247,-0.007509723890376257,0.002000384351270311,0.9916628100324973
2016-10-11,-1,-0.0010820566902051852,-0.0009525128679669012,-0.007509723890376257,0.0024118363659592344,0.9907833422099682
2016-10-13,-1,-0.0007544167435379631,-0.0006587868022547084,-0.009358223816484872,0.002000384351270311,0.9899670335783547
2016-10-17,-1,-0.000808349510882162,-0.0007205371576967446,-0.00956916032257996,0.0018787022119467881,0.9899731300700844
2016-10-19,-1,-0.0007197250886682128,-0.0006454354503438963,-0.00956916032257996,0.0019217019801243953,0.9895092040519503
2016-10-21,-1,-0.000634166771122572,-0.0005903007203864278,-0.009519725406580115,0.0019217019801243953,0.9891945257379554
2016-10-25,-1,-0.0008972822288883554,-0.00081620307508107,-0.009519725406580115,0.0027738624998404383,0.9892437208232024
2016-10-27,-1,-0.0008288162774531913,-0.0007578041051413942,-0.009519725406580115,0.005398077259963489,0.9889061974957862
2016-10-31,-1,-0.0005303283910974961,-0.0004866566255750818,-0.009519725406580115,0.001991566591686886,0.989391621153874
2016-11-02,-1,-0.002228303313884108,-0.0019739907173533366,-0.009562956338319918,0.001991566591686886,0.9910041155021356
2016-11-04,-1,-0.0030780696937513403,-0.002725675645740811,-0.009100675485709328,0.002949534098543706,0.9911973375907995
2016-11-08,-1,-0.0023763955215114845,-0.0021228468701821285,-0.009100675485709328,0.00424007948496111,0.9914478824366952
2016-11-10,-1,-0.0027883373554267723,-0.0025038517921924103,-0.004242954519972865,0.006769098411248175,0.9915833163502246
2016-11-14,-1,-0.002617186091239488,-0.002387643165048586,-0.004242954519972865,0.007589914800764867,0.9909713028031369
2016-11-16,-1,-0.004066362561866095,-0.0035632842392584576,-0.005896114880026039,0.007589914800764867,0.9906795086705954
2016-11-18,-1,-0.0033406536848107297,-0.002966471106107172,-0.006100773378439121,0.005570593281254906,0.9910101268658588
2016-11-22,-1,-0.0026897532576967607,-0.002421292240121602,-0.006100773378439121,0.007589914800764867,0.990222530700964
2016-11-25,-1,-0.002385686971611169,-0.0021468028135704907,-0.006253166576653859,0.006905679659345897,0.9904389467340844
2016-11-29,-1,-0.0019311597456433145,-0.0017783038580509516,-0.010229282089904597,0.006905679659345897,0.99017157634144
2016-12-01,-1,-0.002634068150490983,-0.0024038072534784843,-0.006253166576653859,0.006905679659345897,0.9910011073199589
2016-12-05,-1,-0.001809515026481769,-0.0016883336738917913,-0.006253166576653859,0.009081837184630404,0.9905639938963606
2016-12-07,-1,-0.0013227164997438316,-0.0012605710045226629,-0.006253166576653859,0.007455683464089565,0.9910793043410868
2016-12-09,-1,-0.0008693976926077278,-0.0008569574942697532,-0.010414655955769394,0.006574744272352821,0.9910011626765404
2016-12-13,-1,-0.0011324052053004589,-0.0010927227154242092,-0.009858851268807535,0.008921575758502593,0.9910261974459429
2016-12-15,-1,-0.001384949620687312,-0.0013179614951171579,-0.006331702341472218,0.010501095584931808,0.9907401481946512
2016-12-19,-1,-0.0018547436312447993,-0.0017235733016944823,-0.0056239982896926525,0.010501095584931808,0.9912862454732109
2016-12-21,-1,-0.0007989256733824619,-0.0007806634995286182,-0.0056239982896926525,0.009620300466700971,0.9919864355468166
2016-12-23,-1,-0.0006129268867705707,-0.0005543343192464098,-0.005411191932956829,0.011403841624267498,0.9911685656358996
2016-12-28,-1,-0.0008744075347144887,-0.0008487081777109173,-0.005411191932956829,0.011403841624267498,0.9911981926237134
2016-12-30,-1,-0.0010324620772332103,-0.0010320137187205154,-0.004515319427191305,0.011403841624267498,0.9914187168587718
2017-01-04,-1,-0.00015232437254949203,-4.968929597524372e-05,-0.005411191932956829,0.010923057345884068,0.9909654407255511
2017-01-06,1,6.900924847199594e-05,0.00020019242137187578,-0.005411191932956829,0.012496669315803078,0.9906634597504541
2017-01-10,-1,-0.000356516707187076,-0.0002735817965625171,-0.004515319427191305,0.012496669315803078,0.9908566481039669
2017-01-12,1,0.0001893450561866981,0.0003448808550964055,-0.004515319427191305,0.010144837790007308,0.9919111185805193
2017-01-17,1,0.0003743758074501722,0.0005533491372233898,-0.003005193161940106,0.008338525841883708,0.9923902766214331
2017-01-19,1,0.00018962291196763836,0.00034753784686084743,-0.001435966492643111,0.008338525841883708,0.9926891034117272
2017-01-23,1,0.0004059267925199683,0.0005867725149689338,-0.0026147749936187487,0.009103241062557721,0.9919190518819603
2017-01-25,1,0.0009977493082759135,0.0012343457681400593,-0.0034828521635200897,0.0049039651519402795,0.9928102971361581
2017-01-27,1,0.0007009694348741574,0.0009065516495868973,-0.0034828521635200897,0.0049039651519402795,0.9928704087778699
2017-01-31,1,0.0007173438209816536,0.0009046533880532816,-0.0034828521635200897,0.007250202837915555,0.992336980233669
2017-02-02,1,0.0010069831035577573,0.001230156026762446,-0.0034828521635200897,0.004363411228850732,0.9935993212216949
2017-02-06,1,0.0012259962485479184,0.001487963076557298,-0.0034828521635200897,0.002416568274788763,0.9940296613812488
2017-02-08,1,0.0011812125437008591,0.001439451198663701,-0.0032181195198773983,0.0019650654460440947,0.994806843349124
2017-02-10,1,0.0010969416210812007,0.0013274539091821505,-0.0034828521635200897,0.0023207075147174848,0.9930127873951992
2017-02-14,1,0.001599738140508995,0.001921188528304993,-0.004371381658434207,0.0023207075147174848,0.9925697807833793
2017-02-16,1,0.0015182171117022936,0.0018206255427261225,-0.004371381658434207,0.003307415811537805,0.9927405988993933
2017-02-21,1,0.0020902334542596515,0.0024969785560673458,-0.003605016258302458,0.003307415811537805,0.9934556077061848
2017-02-23,1,0.0015198899040158686,0.0018053307631261755,-0.0029733328729143068,0.003307415811537805,0.9940206399927207
2017-02-27,1,0.0015225906663979152,0.0018326050029674316,-0.002380126236490119,0.003307415811537805,0.9942464056331362
2017-03-01,1,0.0019314508336685011,0.0022947798666376976,-0.0025585494410377816,0.0021822843651450783,0.9945001032795229
2017-03-03,1,0.001653688541382519,0.0019794693485648655,-0.0025585494410377816,0.0021822843651450783,0.9948563835450273
2017-03-07,1,0.0014236846113496564,0.0017090897359406327,-0.0030301342318723523,0.003307415811537805,0.9935385311777701
2017-03-09,1,0.0016353541906500746,0.0019696787378756784,-0.0050583489503930705,0.003307415811537805,0.9930089929316535
2017-03-13,1,0.0022041183128207044,0.0025994066613734255,-0.0034293141310302745,0.003307415811537805,0.9943179852240891
2017-03-15,1,0.002269717717425443,0.0026755590754757035,-0.0024871226254180867,0.002319568184674443,0.9948103145513595
2017-03-17,1,0.0023071354470618295,0.002705149148666776,-0.0024871226254180867,0.001679864765147311,0.994651551019872
2017-03-21,1,0.0022422168664164373,0.002617694004321906,-0.0034293141310302745,0.001679864765147311,0.9941002061395835
2017-03-23,1,0.0022665376761209464,0.002645701178892134,-0.006032084597449801,0.0027842562902028927,0.9936029182189902
2017-03-27,1,0.002273009603151685,0.0026718790486155697,-0.003566871143835193,0.0054018875405934565,0.9932566916968529
2017-03-29,1,0.0013741906797842165,0.0015654031771393483,-0.004942239476882958,0.0054018875405934565,0.9932498526961795
2017-03-31,1,0.0006853350298322503,0.0007382801474178944,-0.003512536060630131,0.0054018875405934565,0.9934530382330493
2017-04-04,1,0.0011429605424686786,0.0012772053342727527,-0.0027564108586438955,0.0054018875405934565,0.9929737163826171
2017-04-06,1,0.00041773568340337054,0.00042208355801026404,-0.0004752195061134725,0.0074575225371421175,0.9925949119290234
2017-04-10,1,0.00045901773950980977,0.0004600458825419344,-0.0004963816370548786,0.006977510294366799,0.9927417887953712
2017-04-12,1,0.00032177836737826593,0.0003505834784374162,-0.0028198972514681137,0.00985346708550435,0.9915897687160554
2017-04-17,1,0.0003938333774132916,0.00041264630351857406,-0.0032630480626872752,0.00985346708550435,0.9916437818779301
2017-04-19,1,0.00045330921219334074,0.00046182984529128464,-0.0032630480626872752,0.006977510294366799,0.9920830478246558
2017-04-21,1,0.0004506900621306642,0.000456094073555219,-0.0032630480626872752,0.009840419570848996,0.9918847192720069
2017-04-25,1,0.0010447729806179334,0.0011220424372485106,-0.003692936763393857,0.006169956845063847,0.992324197493191
2017-04-27,1,0.0003828213273635449,0.0004303453102224258,-0.0032630480626872752,0.007417759222940139,0.9919507619681723
2017-05-01,1,0.00048361201032690265,0.0004991928125997888,-0.0028800308190560227,0.007417759222940139,0.9919695906832168
2017-05-03,1,0.0016671271618690627,0.001819889486289607,-0.0028800308190560227,0.006169956845063847,0.9943652519638888
2017-05-05,1,0.00212451552486051,0.0023547530090725815,-0.0028800308190560227,0.006084411059200116,0.994334531797229
2017-05-09,1,0.0017145228425990572,0.0018722667615010543,-0.0014060311368916168,0.006084411059200116,0.9944551112057614
2017-05-11,1,0.001316274980689623,0.0014040155616292908,-0.0014060311368916168,0.004850950094221987,0.9951687108575756
2017-05-15,1,0.0009999148376848713,0.001017485103697304,-0.0014273597687646635,0.006084411059200116,0.9948012754893684
2017-05-17,1,0.0011488416848739141,0.0012146760065694713,0.0006997863780444922,0.006084411059200116,0.9950269790150342
2017-05-19,1,0.001159084609386182,0.0012202858289143354,0.0007533621272029242,0.006084411059200116,0.9955770089091968
2017-05-23,1,0.0006126438402247272,0.0006418444139012836,0.0007533621272029242,0.0055405135638816674,0.9953904491587177
2017-05-25,1,0.0008253325926464742,0.0008436392277565226,-0.0005661646798965255,0.004125848569096888,0.9959402523399976
2017-05-30,1,0.0012723294639743856,0.001347839817458837,-0.0015816442265308103,0.004125848569096888,0.9958138671736692
2017-06-01,1,0.0012406805175261136,0.0013132296367588743,-0.003838156435852591,0.004047714257259485,0.9951658998624504
2017-06-05,1,0.0011523482641548463,0.0011785840404916737,-0.003838156435852591,0.0038271795353814215,0.9956514977355434
2017-06-07,1,0.0013561343427623068,0.001437704834152344,-0.004831433977553579,0.0038271795353814215,0.9952196554825744
2017-06-09,1,0.0012612513160712852,0.0013339963270897852,-0.00503305756471205,0.0038271795353814215,0.9951883240199183
2017-06-13,1,0.0010898875286671848,0.0011223107595481022,-0.00503305756471205,0.0038271795353814215,0.995142189009995
2017-06-15,1,0.0012865053814312601,0.001351933585397537,-0.00503305756471205,0.003105050827869859,0.9951685044920108
2017-06-19,1,0.001465790840473218,0.0015927508025228093,-0.00503305756471205,0.003105050827869859,0.9951153121486138
2017-06-21,1,0.001079375499600894,0.001128432420028301,-0.004518557919640242,0.003860902696009075,0.9955696355890735
2017-06-23,1,0.0009443571106476588,0.000981023247554252,-0.0026186621954882505,0.004642313551498708,0.995372900757952
2017-06-27,1,0.0011364926303451951,0.0011763276598855356,-0.0018389037624202196,0.006279566530808381,0.9952889004091781
2017-06-29,1,0.0009336347523831328,0.0009531599917689839,-0.0018389037624202196,0.006312568456711968,0.995502502419012
2017-07-03,1,0.0007246802679691708,0.0007404997050662844,-0.0024910562311164248,0.006312568456711968,0.995466082511182
2017-07-06,1,0.0004191331620337462,0.00047220542493635727,-0.0023436346962181307,0.006312568456711968,0.9957377383330993
2017-07-10,1,0.0003332187761978366,0.0003860007872639457,-0.0014231639737603192,0.0068207696431936415,0.9949091564854384
2017-07-12,1,0.000250436975687025,0.0003211092823351732,-0.00038000950072555835,0.007225329565221524,0.9938976201900916
2017-07-14,1,0.0006320678062326178,0.0006415082762002658,-0.0023436346962181307,0.007225329565221524,0.9923181525101153
2017-07-18,1,0.0006912646942640954,0.0007115930813224119,-0.0023436346962181307,0.007225329565221524,0.9919984186470097
2017-07-20,1,0.0005706359813686488,0.0006239045720992254,-0.0033964793251808267,0.00678744086440245,0.9909828265933935
2017-07-24,1,0.0006250564678641902,0.000633092348069581,-0.0033964793251808267,0.007182498924362455,0.987500498870845
2017-07-26,1,0.0006535837657579034,0.0006695086438049194,-0.005799678650249416,0.0055069449904302575,0.9870244130055845
2017-07-28,1,0.00046886341408711066,0.0005139808754849057,-0.004684975024785168,0.007678278309992845,0.986727687327364
2017-08-01,1,0.00025918899021518403,0.00032993805776624166,-0.005608740426162498,0.007678278309992845,0.9865853820908396
2017-08-03,1,0.000436893883315599,0.0004617129865136857,-0.005608740426162498,0.013153601940098915,0.9861773882378642
2017-08-07,1,0.0009243955878766353,0.0009576354235279729,-0.005608740426162498,0.009736290534891027,0.9868372065389248
2017-08-09,1,0.0015283173538850699,0.0016449823894101074,-0.005608740426162498,0.00616176630945902,0.9881933617684279
2017-08-11,1,0.0006391008832630344,0.0006395925625765212,-0.0012808746659586333,0.0062156507341295745,0.9900192276648199
2017-08-15,1,0.000800166736278517,0.000819781674901027,-0.0010959344043815333,0.0057639028321928975,0.9904659160589047
2017-08-17,1,3.5197141439294815e-05,0.00011489508937594941,-0.0010959344043815333,0.0057639028321928975,0.9914395693420058
2017-08-21,1,0.0015098640933494632,0.0016046400870237316,-0.0010959344043815333,0.005305407853529108,0.995388839458207
2017-08-23,1,0.0009087643208218234,0.0009096525753591641,-0.0007543415234145245,0.005305407853529108,0.9953428991406824
2017-08-25,1,0.0012907468864060735,0.0013418616891519432,-0.0014289976734160167,0.0041105269590995044,0.9957366512741426
2017-08-29,1,0.0008330459524461268,0.0008585892850995666,-0.00044460461615056294,0.005212206772547459,0.9959343108345939
2017-08-31,1,0.0010601807200703508,0.0010602417399851044,-0.0007543415234145245,0.005212206772547459,0.9948999805200623
2017-09-05,1,0.0010793380214166373,0.0010804985628458056,-0.0007543415234145245,0.004085403952230695,0.9951555270660815
2017-09-07,1,0.001030911844299736,0.0010389627021566601,-0.0007543415234145245,0.005212206772547459,0.9945321602837617
2017-09-11,1,0.0009798653216337829,0.0009960189835492247,-0.001451798794846256,0.004085403952230695,0.9945554606469261
2017-09-13,1,0.0009464512355898656,0.000977241558366422,-0.001451798794846256,0.0034332578656142672,0.9948045413217748
2017-09-15,1,0.0011045430316128904,0.0011201894096911369,-0.0013623627755580908,0.004085403952230695,0.994293319037624
2017-09-19,1,0.0010378903816540947,0.0010385143060942805,-0.0022766727441735045,0.0034332578656142672,0.9940517533419756
2017-09-21,1,0.0004575984219052097,0.0005377053788109701,-0.0025452295098407404,0.0034332578656142672,0.9947026645133419
2017-09-25,1,0.0009468302365052108,0.000968684059521719,-0.0025452295098407404,0.002726454820123556,0.9946109544973615
