JNU-Tangyin/eata/results/Batch4_SP500/Batch4_SP500-TXT.csv
Date,Action,Predicted_Q25,Predicted_Q75,Actual_Q25,Actual_Q75,RL_Reward
2010-12-14,0,0.0,0.003030800027366876,-0.005750360632188138,0.008469274850259086,0.9922782674956554
2010-12-16,1,0.005576789282268258,0.006295114008531758,-0.0038746256561317635,0.011647244824354766,0.9911919561453497
2010-12-20,1,0.005809524981222904,0.006548496425320664,-0.005095037454746561,0.012339855468064105,0.9895541453641146
2010-12-22,1,0.0057834499055721906,0.006588117677660764,-0.0031590860683852005,0.02238287488588732,0.9891857480536891
2010-12-27,1,0.007054559403983618,0.008044239838899347,-0.0031590860683852005,0.01992972495188086,0.9888395278526236
2010-12-29,1,0.005547359276886176,0.006249254651503451,-0.002674673278353139,0.01992972495188086,0.9889082407596336
2010-12-31,1,0.004578281919393878,0.005056264481044469,-0.00464161344748199,0.01992972495188086,0.9873661742554427
2011-01-04,1,0.002450086324841123,0.002487177679672277,-0.0014996303669839758,0.01992972495188086,0.9871654354583037
2011-01-06,1,0.0025306253663610876,0.0026452594616526853,-0.002758884959868866,0.019219693196607986,0.9873181651775694
2011-01-10,1,0.0030616022946424915,0.003104765416595982,-0.0014996303669839758,0.01953178549552137,0.987183809490585
2011-01-12,1,0.0025874352293148726,0.002717620189605234,-0.004574291115007798,0.019219693196607986,0.9866753457570825
2011-01-14,1,0.0020638195807908487,0.0023340098942743847,-0.0078074021242776435,0.019219693196607986,0.9861117993640037
2011-01-19,1,0.0016737504752484557,0.002009766930984962,-0.00437562047329482,0.017910669398433984,0.9876320104921664
2011-01-21,1,0.0039359267636742985,0.003972892337008553,-0.00437562047329482,0.013893966415849592,0.9889660276619445
2011-01-25,0,0.0,0.0,-0.009996683394835804,0.012726272869750872,0.9861922711757055
2011-01-27,0,0.0,0.0,-0.0078074021242776435,0.013893966415849592,0.9861551781711598
2011-01-31,0,0.0,0.0,-0.0078074021242776435,0.013893966415849592,0.9857850199164112
2011-02-02,0,0.0,0.0,-0.0078074021242776435,0.013893966415849592,0.9847120904253218
2011-02-04,1,0.002599515724965892,0.0026073556214156685,-0.012029926559045721,0.012726272869750872,0.9844424174440312
2011-02-08,1,0.003113116326002993,0.0032359287781336633,-0.012029926559045721,0.012726272869750872,0.984094863617897
2011-02-10,1,0.0028055208081901256,0.002969503062869966,-0.012029926559045721,0.012726272869750872,0.9836279133633713
2011-02-14,1,0.002636094039826848,0.0027531509798349014,-0.016053792951621407,0.009193257674326445,0.982646790391425
2011-02-16,0,0.0,0.0,-0.02330025430080091,0.008260044668962099,0.9822001384548542
2011-02-18,0,0.0,0.0,-0.02330025430080091,0.008423886606542003,0.9801592268816424
2011-02-23,0,0.0,0.0,-0.014377863201219192,0.013617102041015957,0.9805676262770393
2011-02-25,0,0.0,0.0,-0.014377863201219192,0.008423886606542003,0.9810656223717084
2011-03-01,0,0.0,0.0,-0.012525513820281945,0.008423886606542003,0.9823446302249188
2011-03-03,0,0.0,0.0,-0.012525513820281945,0.008138819225376752,0.9835805585338889
2011-03-07,0,0.0,0.0,-0.011333242530231772,0.008138819225376752,0.9844045649826739
2011-03-09,0,0.0,0.0,-0.011333242530231772,0.008138819225376752,0.9849636509266052
2011-03-11,0,0.0,0.0,-0.011333242530231772,0.008138819225376752,0.9856285683411282
2011-03-15,0,0.0,0.0,-0.007831907182426925,0.008138819225376752,0.9869689750369854
2011-03-17,-1,-0.0006669490413858402,-0.0004513288141351771,-0.01055870604980214,0.007450765697844756,0.9875565568222608
2011-03-21,0,0.0,0.0,-0.010998111990726176,0.0037116812706626304,0.9895453020617938
2011-03-23,0,0.0,0.0,-0.010888950510477039,0.0010341472771795536,0.9919539736468455
2011-03-25,0,0.0,0.0,-0.010526703065717962,0.0028012249033755256,0.992588680863794
2011-03-29,0,0.0,0.0,-0.010526703065717962,0.003540036454243336,0.9923595823097461
2011-03-31,0,0.0,0.0,-0.010526703065717962,0.0027232461925620604,0.992591352531145
2011-04-04,1,0.0023065630405301315,0.002386595661285853,-0.010902103038473646,0.0009700110810374443,0.9905943185872379
2011-04-06,1,0.002180804397251636,0.0021813510327817537,-0.011379680178908582,0.00037302268274090405,0.9901535434628462
2011-04-08,0,-4.375299989401403e-05,0.0002748864089496204,-0.010902103038473646,0.0009700110810374443,0.9924028255887097
2011-04-12,-1,-0.0008491176217980973,-0.00041663865276341926,-0.010526703065717962,0.0009700110810374443,0.992913001092127
2011-04-14,-1,-0.0004774297246729147,-0.0001353095492911253,-0.00835146251019631,0.0009700110810374443,0.9934927524769919
2011-04-18,-1,-0.0015969707855306495,-0.001109764477349816,-0.00963088016527242,0.0009700110810374443,0.9922457652702236
2011-04-20,-1,-0.00039655865888643346,-3.331963958355666e-05,-0.008656122142045045,0.0027232461925620604,0.9918306757178894
2011-04-25,0,-0.00033127730141911823,6.177505820310013e-06,-0.013974970843510936,0.0006790812338065956,0.989177558249082
2011-04-27,1,0.0005753139828970959,0.000740289679375404,-0.013974970843510936,0.0018123674921432693,0.988098266443241
2011-04-29,1,0.0003920880309947384,0.0006070779020237094,-0.01712705455554269,0.001512240572172459,0.9873615792442532
2011-05-03,-1,-0.0008278762010377326,-0.00045363667844872503,-0.01712705455554269,0.008022529011989084,0.9871415752273204
2011-05-05,-1,-0.002005880594086048,-0.001512728620116008,-0.01729635043652361,0.008022529011989084,0.9871437607914356
2011-05-09,-1,-0.0012824274588846868,-0.0009017711131064031,-0.01729635043652361,0.005844653811838832,0.9870011957724049
2011-05-11,-1,-0.002264971284422722,-0.0017148207914926155,-0.01729635043652361,0.007912361798517967,0.986234648779376
2011-05-13,-1,-0.0026134600960690613,-0.0020382700021298406,-0.01870243482722813,0.008897724875935186,0.9852895927231621
2011-05-17,-1,-0.005113684444977061,-0.00422277849568802,-0.017268034054932796,0.010011204501823754,0.9859471926747855
2011-05-19,-1,-0.005004540735032707,-0.00418265026002167,-0.017268034054932796,0.010011204501823754,0.9854103345232481
2011-05-23,-1,-0.007785218785340129,-0.006606096241268362,-0.01502735743166635,0.011324968812402282,0.9841716546371994
2011-05-25,-1,-0.006701384327166963,-0.0056634778010477855,-0.01502735743166635,0.010011204501823754,0.9853105536428653
2011-05-27,-1,-0.007293225631207188,-0.006184666265188817,-0.01502735743166635,0.009419673397715489,0.9852570136494354
2011-06-01,-1,-0.006864046696227049,-0.0058720410739235805,-0.012667402542879723,0.010210982891065729,0.9850488994482574
2011-06-03,-1,-0.007563635432171509,-0.006486043255509799,-0.00955960636958887,0.014791347883360345,0.9840491997293918
2011-06-07,-1,-0.007792878045361498,-0.006720093877222763,-0.00955960636958887,0.014791347883360345,0.9823459681681744
2011-06-09,-1,-0.0073339224016297725,-0.006367199425681631,-0.007300387096553533,0.017870318748363083,0.9815731547399201
2011-06-13,-1,-0.008114366622031622,-0.007046821233507622,-0.007300387096553533,0.017870318748363083,0.980580743032172
2011-06-15,-1,-0.0069026537857298795,-0.00606586907498673,-0.007300387096553533,0.014791347883360345,0.9817722691662567
2011-06-17,-1,-0.005565724700323929,-0.004926161589632794,-0.009599194137021243,0.014791347883360345,0.9828689976633076
2011-06-21,-1,-0.0019738057963392987,-0.001744311997398496,-0.009599194137021243,0.014791347883360345,0.9789767443678714
2011-06-23,-1,-0.0020372602827154244,-0.0018040735471522064,-0.008158372189574126,0.014791347883360345,0.9790102229137855
2011-06-27,-1,-0.002229906736851219,-0.002020718174915375,-0.006096956104448005,0.014791347883360345,0.9800480345224059
2011-06-29,-1,-0.0006484312721428463,-0.0006376234745371531,-0.013371023696001566,0.011169270856480012,0.9785371459348432
2011-07-01,1,0.0005883169868455924,0.0008100167804277227,-0.017832036912389878,0.005041896166340191,0.9779084474262641
2011-07-06,-1,-0.0020752430058725317,-0.0019194878943044483,-0.017832036912389878,0.005041896166340191,0.9775177224200039
2011-07-08,-1,-0.0008221133984393942,-0.0007999500687527493,-0.025479478327218388,0.00367715823900601,0.9745210321628862
2011-07-12,-1,-0.0023785312453698023,-0.0023008411092487017,-0.025479478327218388,0.005041896166340191,0.9694575048370981
2011-07-14,-1,-0.001945277078221245,-0.0019080507001733077,-0.04003649722144356,0.006469637931048352,0.964875700665904
2011-07-18,-1,-0.0038686185110768504,-0.003566249857606979,-0.04003649722144356,0.00698304093540324,0.9651200437900813
2011-07-20,0,-8.864217848083113e-05,0.0001104184870618012,-0.04003649722144356,0.005230958431031221,0.9701400692659519
2011-07-22,-1,-0.0004697427090754637,-0.0003985163666619337,-0.05059661865936661,0.0019095990393372694,0.9665270863127966
2011-07-26,0,-1.8576887728274265e-05,0.00015796462332942065,-0.05059661865936661,0.005230958431031221,0.9645444850344402
2011-07-28,-1,-0.002425865506026996,-0.002264579901840272,-0.04838683520381931,0.005433854852465713,0.9645991697069273
2011-08-01,-1,-0.002455523813940085,-0.0023694295570644694,-0.04838683520381931,0.025837538159644697,0.9621076769261092
2011-08-03,-1,-0.005367541811735618,-0.004898734113197319,-0.027686266810207322,0.025837538159644697,0.964068094052395
2011-08-05,-1,-0.009523035798324716,-0.008555121936806253,-0.03186462819358408,0.025837538159644697,0.9653764624467566
2011-08-09,-1,-0.008926451898566891,-0.007976129822287722,-0.027680636113518075,0.025732997723944464,0.9700502771476274
2011-08-11,-1,-0.00866049480332003,-0.00785954454813966,-0.023163009758944263,0.017398379782089995,0.9744706434567862
2011-08-15,-1,-0.007567354081160129,-0.006937547205119421,-0.023163009758944263,0.022481008051618977,0.9734019059171276
2011-08-17,-1,-0.007909712326088354,-0.007206286329558164,-0.023163009758944263,0.03650428916050005,0.9681444663211487
2011-08-19,-1,-0.009959207127824842,-0.009033200489784479,-0.023163009758944263,0.037414099713002476,0.9654884433461969
2011-08-23,-1,-0.00884418255026093,-0.00809658552242421,-0.027680636113518075,0.037414099713002476,0.9658868262359803
2011-08-25,-1,-0.00863946429954052,-0.007928240123146338,-0.027680636113518075,0.03710047840590178,0.9668600317673932
2011-08-29,-1,-0.0014513999951173938,-0.0012480295790006696,-0.027680636113518075,0.037027448728777335,0.9678592402764815
2011-08-31,-1,-0.0013922365747169223,-0.001239672792627158,-0.027680636113518075,0.037027448728777335,0.9678506593366449
2011-09-02,-1,-0.004110600589398292,-0.003921491522927977,-0.02936895107774728,0.037027448728777335,0.9673403244337699
2011-09-07,-1,-0.002378190617603799,-0.002367538843378434,-0.027341595127933306,0.039475282149725,0.9666604728233195
2011-09-09,-1,-0.003510639378804901,-0.0033618191891224645,-0.027341595127933306,0.039475282149725,0.965931052457864
2011-09-13,-1,-0.0018320864487039001,-0.0017027384735130609,-0.027341595127933306,0.039475282149725,0.966984369745106
2011-09-15,1,0.0025499284866767396,0.003271915725707202,-0.027341595127933306,0.029313904591515366,0.9712630762279589
2011-09-19,1,0.0002274377864788517,0.0006805184825804617,-0.0269444769855766,0.026638154862293772,0.974661007362317
2011-09-21,-1,-0.0005967711025570929,-0.00022497033890738578,-0.015980515007639706,0.029313904591515366,0.9745898659675942
2011-09-23,-1,-0.0012260604242093497,-0.0009558117700357019,-0.012788233705571785,0.03055856331015988,0.9749738423556018
2011-09-27,1,0.0018515743810010113,0.002482203009090513,-0.016640371562852443,0.026638154862293772,0.9762832984135115
2011-09-29,1,0.0013680639592266784,0.0019668351406818404,-0.014614572547692155,0.02860219180433747,0.9725092083782201
2011-10-03,-1,-0.0007783721338088732,-0.0004562627311785319,-0.012788233705571785,0.02860219180433747,0.9740345992141207
2011-10-05,1,0.007426758581103483,0.00868814455172432,-0.018150500287561783,0.024805278110474636,0.9737803667476725
2011-10-07,1,0.006998345298897396,0.008092446620181763,-0.018150500287561783,0.026717814982938612,0.9728521682840696
2011-10-11,1,0.0070586657765128805,0.00814225207539781,-0.018150500287561783,0.026717814982938612,0.9728930376541948
2011-10-13,1,0.004772164824871681,0.005438442448798234,-0.020976522577535926,0.026717814982938612,0.971746055544429
2011-10-17,1,0.004329942202680067,0.005013211049350092,-0.018150500287561783,0.023478423197005247,0.9737063976966146
2011-10-19,1,0.005782626424380821,0.006627696117995361,-0.018150500287561783,0.01848747652724931,0.974120955174281
2011-10-21,1,0.006435207939252102,0.007340657207170343,-0.019126782585462458,0.01848747652724931,0.9741724801832734
2011-10-25,1,0.004470845975655863,0.005103421961253607,-0.019126782585462458,0.015312733215775596,0.9760867082531588
2011-10-27,1,0.004570781111382044,0.00518152587332871,-0.022100015788353133,0.010738579106292882,0.978973190426756
2011-10-31,1,0.002447415000484164,0.0028067049722275876,-0.019126782585462458,0.015312733215775596,0.9789174165845862
2011-11-02,1,0.0006778470463070945,0.0007996468349336528,-0.016559780958114584,0.01848747652724931,0.9799619024132736
2011-11-04,1,0.001355011841825343,0.0015677963428892203,-0.01719736105054267,0.015312733215775596,0.9809852415564936
2011-11-08,1,0.0020341023643519448,0.0023690714317142784,-0.01858294052671481,0.013410097701642816,0.9804957644018885
2011-11-10,1,0.0023783268431873594,0.0028676154850703394,-0.01858294052671481,0.012817697036717726,0.9806745282403833
2011-11-14,1,0.0032181425181833628,0.003849579540137045,-0.022100015788353133,0.006657212182876014,0.9785405040317237
2011-11-16,1,0.0024616018444562618,0.0029264803176874818,-0.022100015788353133,0.012290459563082855,0.9783241901880648
2011-11-18,1,0.002936168263581742,0.0035374467181275146,-0.023248690765399073,0.012290459563082855,0.9772676291244771
2011-11-22,1,0.0025354807653929245,0.0031450815052621066,-0.020964771080249894,0.013468373553310882,0.9755588942292798
2011-11-25,1,0.0003732359229409208,0.0005829434729593768,-0.018194348186507628,0.015515598676415627,0.9765798125662976
2011-11-29,1,0.0031026603740817726,0.0037283602303507498,-0.020964771080249894,0.013468373553310882,0.978155506467815
2011-12-01,1,0.003235536978522144,0.003756439794212238,-0.020964771080249894,0.012290459563082855,0.9796947931922434
2011-12-05,1,0.0028864540038945246,0.00336068381904037,-0.020964771080249894,0.013468373553310882,0.98008854683113
2011-12-07,1,0.0017972336071907413,0.002086063131643971,-0.01204480543585939,0.013468373553310882,0.9812532773029018
2011-12-09,1,0.0038110753133216452,0.0045308196323152975,-0.009126614739607509,0.013933886255511013,0.9816102378370866
2011-12-13,1,0.0021831323841634198,0.0028113340496624594,-0.002641418580458188,0.017646560357497714,0.9811798667790588
2011-12-15,1,0.0022572731854420248,0.002890370530816761,-0.002641418580458188,0.02067112878825568,0.9813612899425771
2011-12-19,1,0.0008728694303586014,0.0012068225980608898,-0.002641418580458188,0.017646560357497714,0.9840631768829011
2011-12-21,1,0.002336770119859031,0.0028313110003398744,-0.002768906418458795,0.012948964428312143,0.9869934996733316
2011-12-23,1,0.0019282101194611169,0.002227007881349435,-0.0040318820154359196,0.01368338800279384,0.9826423711991841
2011-12-28,-1,-0.0009780590415479054,-0.0008000419628782756,-0.0012596103176002213,0.01921061816946829,0.9826009793706857
2011-12-30,-1,-0.00022841856734909455,-6.791843539478222e-05,-0.0012596103176002213,0.01921061816946829,0.9832531860858208
2012-01-04,0,-6.285428306968021e-05,0.00016153498043894223,-0.002768906418458795,0.013470317032302337,0.9840695506322682
2012-01-06,-1,-0.0006125712909627574,-0.0003146030158036507,-0.003383127539849871,0.019444245562423842,0.9830957732903932
2012-01-10,1,0.0002959463899484022,0.0005270412661431953,-0.003383127539849871,0.019444245562423842,0.9840440321367073
2012-01-12,0,-0.0003161661437385201,0.00014019437110161033,-0.003383127539849871,0.017186726756792337,0.9866434748150646
2012-01-17,1,3.1860113224499095e-05,0.00044896607766889765,-0.0030240382575547663,0.017186726756792337,0.9860475901229153
2012-01-19,-1,-0.001167375601466565,-0.0005501077926500359,-0.003176907625841665,0.017186726756792337,0.9845416322215685
2012-01-23,1,0.0012580103686270021,0.0013827269457762563,-0.003176907625841665,0.017186726756792337,0.9848230366791468
2012-01-25,1,0.0034530794801591784,0.0036138029344817816,-0.002343711465240262,0.016176417859242814,0.9897153441907283
2012-01-27,1,0.002071475421765133,0.002311621017659236,-0.003176907625841665,0.010555270994989041,0.9903236427946928
2012-01-31,1,0.002553994002708324,0.0025952744912091656,-0.004056701033353197,0.012186063789229427,0.9894304881845648
2012-02-02,1,0.0012645258902340153,0.0015303227135361067,-0.004056701033353197,0.012186063789229427,0.9885676596540187
2012-02-06,1,0.0022670787203169776,0.0023297023845078287,-0.009494168555649964,0.00954098704545236,0.9862803519545427
2012-02-08,1,0.004497482408492557,0.004912314882449492,-0.009494168555649964,0.00954098704545236,0.9852030409219956
2012-02-10,1,0.004125669659746893,0.004426177452966343,-0.009494168555649964,0.011552967632857923,0.9853599907848716
2012-02-14,1,0.003247118899909141,0.0033002430689059448,-0.009494168555649964,0.011552967632857923,0.9861573444527117
2012-02-16,1,0.00354725134199571,0.0036909181228070133,-0.008461313174142305,0.00954098704545236,0.9870783076749142
2012-02-21,1,0.003749050260511932,0.004081899983848224,-0.009010938145682974,0.00954098704545236,0.9858483165108716
2012-02-23,1,0.0033583366298808675,0.0035906236247468643,-0.013076011509454366,0.011368922488153509,0.9846638515560919
2012-02-27,1,0.0021648987164735395,0.002210056389838796,-0.013076011509454366,0.015106478322019763,0.9831184251235898
2012-02-29,1,0.0032890237001833127,0.003580959720570073,-0.016597792707560576,0.015106478322019763,0.9831755985807646
2012-03-02,1,0.0025644088553048983,0.002749332105313128,-0.010184865211718377,0.020686169097734373,0.9835690428411894
2012-03-06,1,0.0017323878176336012,0.001807334296914302,-0.005289411188948097,0.02310490790272759,0.9851497438343363
2012-03-08,1,0.0029308405319728886,0.0031659296609896823,-0.010184865211718377,0.015892131749457434,0.9850429451955948
2012-03-12,1,0.0024958497858908286,0.0026338229651659897,-0.018154558885639244,0.015339996315344193,0.9831709640637177
2012-03-14,1,0.00303548890091645,0.003309210200562913,-0.018154558885639244,0.0167159401630237,0.983069676849031
2012-03-16,1,0.003240980709144575,0.003595354197824788,-0.018625828820126235,0.0167159401630237,0.9826427724331402
2012-03-20,1,0.0020873535252595,0.0022229212231409307,-0.018625828820126235,0.020817620251370027,0.9816164783147049
2012-03-22,1,0.0025966642611898317,0.0028865551871720247,-0.017810265459522065,0.020817620251370027,0.9819263160484191
2012-03-26,1,0.002365290208823712,0.0025101086547362444,-0.018944791414127193,0.015992515828588533,0.9822754710202906
2012-03-28,0,0.0,0.0,-0.018944791414127193,0.015992515828588533,0.9828730982718488
2012-03-30,0,0.0,0.0,-0.018944791414127193,0.015284186283136788,0.9831878357496208
2012-04-03,0,0.0,0.0,-0.018944791414127193,0.009671956334601078,0.9846463246423924
2012-04-05,1,0.003390141934287469,0.0034747722623671602,-0.018944791414127193,0.009671956334601078,0.9843736531741588
2012-04-10,0,0.0,0.0,-0.016752494088369128,0.009671956334601078,0.985494908188748
2012-04-12,0,0.0,0.0,-0.017511576026667475,0.006346153496883809,0.9861831982877357
2012-04-16,0,0.0,0.0,-0.01771496748853889,0.003293079659473335,0.9861524432853316
2012-04-18,0,0.0,0.0,-0.016752494088369128,0.0017122163082873136,0.9880964023778502
2012-04-20,0,0.0,0.0,-0.01771496748853889,0.0017122163082873136,0.987121001536284
2012-04-24,0,0.0,0.0,-0.016752494088369128,0.0017122163082873136,0.9863681103662538
2012-04-26,0,0.0,0.0,-0.016752494088369128,0.0019429670229218327,0.9861225355353141
2012-04-30,0,0.0,0.0,-0.016752494088369128,0.0019429670229218327,0.9852536777406814
2012-05-02,0,0.0,0.0,-0.01771496748853889,0.0030429726564556096,0.9838224875640796
2012-05-04,0,0.0,0.0,-0.01771496748853889,0.0030429726564556096,0.9837730510678493
2012-05-08,0,0.0,0.0,-0.016253386386424828,0.008419846775707996,0.9822762408097612
2012-05-10,0,0.0,0.0,-0.012026712215878704,0.012818999539531785,0.9821289502645945
2012-05-14,0,-0.006350278449160602,0.0,-0.012026712215878704,0.01720816638991364,0.982462352910359
2012-05-16,0,0.0,0.0,-0.014113714269627438,0.01720816638991364,0.9790839458234261
2012-05-18,0,0.0,0.0,-0.009562840656416188,0.022510921923492997,0.9800324003151335
2012-05-22,-1,-0.00762234877801714,-0.006445103605595789,-0.009562840656416188,0.022510921923492997,0.9785825739392197
2012-05-24,-1,-0.006779624446750478,-0.005720813183991742,-0.014113714269627438,0.022510921923492997,0.9783105101207815
2012-05-29,-1,-0.0055780658317609744,-0.004715561056388493,-0.025247811378323964,0.01738603159806458,0.9786409259003861
2012-05-31,-1,-0.0062399361313937775,-0.005284768029156955,-0.012881483057177493,0.01968323520009486,0.9791164036878246
2012-06-04,0,0.0,0.0,-0.010486242828691879,0.022510921923492997,0.9781930148033364
2012-06-06,0,0.0,0.0,-0.010689606643561264,0.019727271467538093,0.9796391327468102
2012-06-08,-1,-0.004234457365464525,-0.0036860492190386902,-0.016468435630939613,0.019727271467538093,0.9802993678051151
2012-06-12,-1,-0.00456413194034845,-0.003979383843855343,-0.02407610650366629,0.01645814811274628,0.9806451732300437
2012-06-14,-1,-0.004759537862559291,-0.004162651676028223,-0.016890385818209442,0.017540311535673894,0.9806584516154109
2012-06-18,-1,-0.002495542908824504,-0.0021562372385129976,-0.016890385818209442,0.016053134719712057,0.9813820331880312
2012-06-20,0,0.0,0.0,-0.016890385818209442,0.017540311535673894,0.9765566245464564
2012-06-22,-1,-0.001740868877083198,-0.0014989027676322276,-0.014545775350960403,0.017540311535673894,0.9783279930394465
2012-06-26,-1,-0.0031617771746552266,-0.0027493935609980867,-0.014545775350960403,0.017540311535673894,0.9790379862667278
2012-06-28,0,0.0,0.0,-0.014545775350960403,0.01876501268607887,0.9776454332819231
2012-07-02,0,0.0,0.0,-0.012811099762125345,0.013287841671436375,0.9797948681639864
2012-07-05,0,0.0,0.0,-0.01821063675788885,0.01070581062866493,0.9798135850160087
2012-07-09,0,0.0,0.0,-0.01391147081247577,0.013287841671436375,0.9780970838637713
2012-07-11,0,0.0,0.0,-0.01132618727473087,0.019745377250446554,0.9796481907868667
2012-07-13,-1,-0.0011046977026405642,-0.0010627184220459093,-0.01132618727473087,0.014809436211785362,0.9805262721108898
2012-07-17,0,0.0,0.0,-0.01132618727473087,0.014809436211785362,0.9804140704191278
2012-07-19,0,0.0,0.0,-0.01132618727473087,0.008165193630095187,0.9865344347639206
2012-07-23,1,0.0015267475708051247,0.0018233795776074094,-0.008700849314904047,0.008165193630095187,0.9874362405142894
2012-07-25,1,0.000601560580315683,0.000751237042515316,-0.006673291795901845,0.008165193630095187,0.9881527118323249
2012-07-27,1,0.0011256244049381793,0.0012485623399514356,-0.008700849314904047,0.004834197413267138,0.9892194727297103
2012-07-31,0,0.0,0.0,-0.006673291795901845,0.004834197413267138,0.9897921844764873
2012-08-02,0,0.0,0.0,-0.0062437359309639555,0.004834197413267138,0.9906045793158669
2012-08-06,0,0.0,0.0,-0.0062437359309639555,0.004834197413267138,0.9918966413273302
2012-08-08,0,0.0,0.0,-0.005734425700640645,0.004834197413267138,0.9922526209994629
2012-08-10,1,0.0019280694628157542,0.002239015359710655,-0.0062437359309639555,0.004834197413267138,0.9907446973846508
2012-08-14,1,0.0017123029844604086,0.0019919126557241054,-0.0062437359309639555,0.007143471424587083,0.9901859272508592
2012-08-16,1,0.002741926446169331,0.0032341964116232138,-0.0062437359309639555,0.00997602586469826,0.9893714322376655
2012-08-20,1,0.0026497828375612363,0.0031032019029600616,-0.007605243272734893,0.009221115650176689,0.9884234162314591
2012-08-22,0,0.0,0.0,-0.011890548624380427,0.009221115650176689,0.9889385445918556
2012-08-24,0,0.0,0.0,-0.012038817641924684,0.009221115650176689,0.988343679515818
2012-08-28,0,0.0,0.0,-0.01314674284290816,0.009221115650176689,0.9870520830174387
2012-08-30,0,0.0,0.0,-0.012038817641924684,0.017125932245773932,0.9866490943959424
2012-09-04,0,0.0,0.0,-0.01314674284290816,0.012453581061868193,0.9866562728580047
2012-09-06,0,0.0,0.0,-0.01314674284290816,0.007293220641725273,0.9875681917398343
2012-09-10,1,0.002350912183131244,0.0027418766353424773,-0.012498804729579201,0.007293220641725273,0.9879704771773155
2012-09-12,1,0.0031140359145452362,0.003608185992088603,-0.01314674284290816,0.0036612506342283213,0.9876628394764438
2012-09-14,1,0.0034944994435688282,0.00404201658804071,-0.01314674284290816,0.0027831682902771807,0.9880447056331988
2012-09-18,1,0.003139718398419829,0.0036408106245876147,-0.012888683229384123,0.0059719055019111416,0.9879788964352041
2012-09-20,1,0.002321956713684771,0.0026790277251867926,-0.012918630235688634,0.00871802168082878,0.9847247760624214
2012-09-24,1,0.0017131521359005494,0.001996618350629368,-0.010093480810275708,0.00871802168082878,0.9855543355033968
2012-09-26,0,0.0,0.0,-0.012289273036516633,0.00871802168082878,0.98581961480316
2012-09-28,0,0.0,0.0,-0.012289273036516633,0.00871802168082878,0.9859251102296079
2012-10-02,0,0.0,0.0,-0.012289273036516633,0.008990492444442558,0.9863147517412941
2012-10-04,0,0.0,0.0,-0.012609398308444555,0.008990492444442558,0.9857361375916142
2012-10-08,0,0.0,0.0,-0.013776008570237745,0.006686594249739875,0.9844901540506434
2012-10-10,0,0.0,0.0,-0.012609398308444555,0.006686594249739875,0.9847834450273235
2012-10-12,0,0.0,0.0,-0.012609398308444555,0.006805744410134716,0.9847516054910428
2012-10-16,-1,-0.0023831702725695737,-0.0021515149577109854,-0.013776008570237745,0.004858815133898407,0.9853252708007857
2012-10-18,0,-4.906575538071701e-05,2.169704456919479e-05,-0.012609398308444555,0.004858815133898407,0.9882520252249986
2012-10-22,-1,-0.0021223317093937094,-0.0019538858205783924,-0.012609398308444555,0.0025669240160521634,0.9890287028434922
2012-10-24,-1,-0.003345737442819647,-0.002968602128106268,-0.004378759130836196,0.005304374815948633,0.9891129834810344
2012-10-26,-1,-0.0014963730679109694,-0.0013967936825276482,-0.005643323415148206,0.0047675908623374405,0.9903181652814919
2012-11-01,-1,-0.001456647175204431,-0.0013685901743125306,-0.005643323415148206,0.0032991062929571932,0.9907245518628303
2012-11-05,-1,-0.0024692370380797178,-0.002308628548129748,-0.005643323415148206,0.0016890875667594325,0.9910343629956662
2012-11-07,-1,-0.004287672806139198,-0.003890855172206691,-0.0033552889483716318,0.006059374359095459,0.9909371117149036
2012-11-09,-1,-0.0036534395427172575,-0.0033378668466328663,-0.0026831645666152816,0.0069006129261176595,0.9900866106764726
2012-11-13,-1,-0.0019223558558632598,-0.001912124277846491,-0.003104685994719285,0.006068801572612489,0.990733729342843
2012-11-15,-1,-0.004300830598608087,-0.003941086955391829,-0.001298088772506922,0.0069006129261176595,0.990452851448682
2012-11-19,-1,-0.004374409214311788,-0.003938414345812814,-0.0009681159524452628,0.0069006129261176595,0.9905227748622794
2012-11-21,-1,-0.0036536195641830166,-0.003334217215293816,-0.0024732300459896495,0.0069006129261176595,0.9908559408768991
2012-11-26,-1,-0.0022814660264394437,-0.0021702496298849237,-0.0032995618416628777,0.006068801572612489,0.9917935888613298
2012-11-28,-1,-0.0017907550864744199,-0.0017444239406977802,-0.004415442047029814,0.006068801572612489,0.9916211758663405
2012-11-30,-1,-0.003204997579908678,-0.0029556551471748714,-0.003996433960225524,0.0071748885589945875,0.9905831365144442
2012-12-04,-1,-0.005827894177432524,-0.005081816031841494,-0.0025381886616375133,0.010251628561449233,0.9879984907986201
2012-12-06,-1,-0.003381132979728693,-0.0030308258364822468,-0.0025381886616375133,0.010251628561449233,0.9891737845219234
2012-12-10,-1,-0.0033685058415178657,-0.0029854159968297498,-0.0025381886616375133,0.008469194336067687,0.9903708323436164
2012-12-12,-1,-0.001524353052510625,-0.0014805015210837046,-0.0025381886616375133,0.009113778189178722,0.9907160188385028
2012-12-14,-1,-0.0021775999688189917,-0.0020500263394416544,-0.0025381886616375133,0.008456658599679782,0.9910432174369881
2012-12-18,-1,-0.0017563761339294906,-0.0016412513978937514,-0.003280521787733525,0.008456658599679782,0.9905023913284278
2012-12-20,-1,-0.0007324100892393447,-0.0006481030972050627,-0.004693583439984319,0.008456658599679782,0.9904375372913182
2012-12-24,-1,-0.0018851692482570485,-0.001776945578830361,-0.002272258730283835,0.019802340253612542,0.9881769967202712
2012-12-27,-1,-0.0018141064837210049,-0.0016590382906863429,-0.0017450284745137443,0.019802340253612542,0.9882284158807634
2012-12-31,0,-1.2645942723481647e-05,6.414996901467677e-05,-0.0017450284745137443,0.014627164150626865,0.9900441254474105
2013-01-03,1,0.00040226985388562466,0.0005860212843093786,-0.0017450284745137443,0.010085276890463474,0.9917065981266147
2013-01-07,1,0.0016420772057321351,0.002014914566262539,-0.0027799517897489617,0.008833547724050886,0.9922272399842178
2013-01-09,1,0.0015869181489744696,0.001949387651473116,-0.003794797558891294,0.008833547724050886,0.9919319786326857
2013-01-11,1,0.0018546883248033526,0.0022776481953322705,-0.0027730539169333137,0.009817582161723543,0.991916096333593
2013-01-15,1,0.0021340728677052244,0.002615678023645776,-0.003794797558891294,0.009951183614554337,0.9910654152286683
2013-01-17,1,0.00318648199044359,0.0037810072497038074,-0.003236666763074307,0.008788849965414507,0.992710321758016
2013-01-22,1,0.0026668457912398984,0.0031693011771102004,-0.003236666763074307,0.008788849965414507,0.9921792398899096
2013-01-24,1,0.0034316801268105606,0.004027329611376257,-0.003794797558891294,0.008583213237443665,0.9922364557722313
2013-01-28,1,0.0033115214880581226,0.0038547937155346233,-0.005457665833666164,0.007333507450012577,0.9907993521223056
2013-01-30,1,0.0036024154804050125,0.004221792662773518,-0.00543697221521922,0.008583213237443665,0.9900413319132928
2013-02-01,1,0.00446766695724753,0.0052633794758610054,-0.010830743867201207,0.008583213237443665,0.9892536622947284
2013-02-05,1,0.004257830782477669,0.004991849558000761,-0.005883526279770484,0.009975619731659086,0.9886403635241877
2013-02-07,1,0.0052270586032916126,0.006162070871795143,-0.007066742587888211,0.01316428425829434,0.9877870165743214
2013-02-11,1,0.006219759899510198,0.00732850044073121,-0.007066742587888211,0.010714284870496343,0.987567467864826
2013-02-13,1,0.005703990689755828,0.006703047177872687,-0.003631072199113549,0.012822028532648293,0.9883525490607089
2013-02-15,1,0.005716941095614502,0.006694581664101123,-0.004481456781733334,0.012822028532648293,0.9879967482717572
2013-02-20,1,0.004824372117968876,0.005620103079441431,-0.004481456781733334,0.014091902954141299,0.9877897031123698
2013-02-22,1,0.004144176836111331,0.004778369630480668,-0.004481456781733334,0.012822028532648293,0.9886439417984917
2013-02-26,1,0.0030713766360207432,0.003578523194234833,-0.004481456781733334,0.012822028532648293,0.9889767374210742
2013-02-28,1,0.0030557708326314223,0.0035129845381152783,-0.005802919475097263,0.011051038280560452,0.9890565525153076
2013-03-04,1,0.00267752418388146,0.0030544202530344428,-0.008350405895421352,0.011051038280560452,0.9879539745528012
2013-03-06,1,0.003924362249110237,0.0044757731604130315,-0.009531276006771653,0.009567407134285243,0.9884953916631823
2013-03-08,1,0.004582817425534629,0.005185095913846249,-0.009531276006771653,0.009567407134285243,0.9887081665599796
2013-03-12,1,0.004591117868219542,0.005203391095553291,-0.010521811844148365,0.009727406547065253,0.9879822885743
2013-03-14,1,0.004265552448931961,0.004785973245093181,-0.010521811844148365,0.009727406547065253,0.9869570008396792
2013-03-18,1,0.00640032631357761,0.007226944698728044,-0.01263933495422984,0.01147027666012997,0.9836992919255525
2013-03-20,1,0.006615592106977274,0.007354437623518938,-0.014796495348800436,0.011324872299090481,0.9792721279941848
2013-03-22,1,0.005679553366419656,0.0062502747403621215,-0.015990957255293245,0.013919524139531974,0.9786454912426448
2013-03-26,1,0.005381223404625195,0.005932835879240746,-0.01263933495422984,0.013919524139531974,0.9800367710260677
2013-03-28,1,0.005284126299332064,0.005840606698552851,-0.011104864045766417,0.01477655779475927,0.9801378494850284
2013-04-02,1,0.0036722518312933255,0.00394943146522858,-0.009019785703950511,0.01477655779475927,0.9814615521887186
2013-04-04,1,0.002809408751387492,0.0029011124513095804,-0.011237651243549616,0.01610535229404968,0.979451723021783
2013-04-08,1,0.002236160594328402,0.002250435621823111,-0.011237651243549616,0.017954196089209576,0.9785387249596694
2013-04-10,1,0.0023301159577019826,0.002383483733786246,-0.00846968923359672,0.017954196089209576,0.9792530653755048
2013-04-12,1,0.0020768435131058626,0.0021308224053779505,-0.00846968923359672,0.014406677494604728,0.980264748865715
2013-04-16,1,0.0013854342477939451,0.0015112749243677572,-0.0050176891160067984,0.012141660657303628,0.9835826445912706
2013-04-18,0,-0.00017982114126632745,0.00013974711454588847,-0.0028914999947160704,0.010860602712245813,0.988306881617039
2013-04-22,-1,-0.0004688090052628619,-0.0001163223024463133,-0.001909273067750587,0.010860602712245813,0.989175716600728
2013-04-24,-1,-0.0006946143722577453,-0.00030815920202620774,-0.004071468979829308,0.010860602712245813,0.9877620621469466
2013-04-26,-1,-0.001045542224870375,-0.0005903061551247072,-0.004116906800564658,0.010860602712245813,0.9878412216145452
2013-04-30,-1,-0.00204094290097437,-0.001440868468049889,-0.004116906800564658,0.010860602712245813,0.9864758751892311
2013-05-02,-1,-0.0030253099907125956,-0.0024134997541295747,-0.004116906800564658,0.010860602712245813,0.9877675899837922
2013-05-06,-1,-0.00038298109939830936,-4.3164336914818034e-05,-0.005196372000927702,0.010559930751871375,0.9898868088771516
2013-05-08,-1,-0.0014535305445035431,-0.001016417759933694,-0.006910741138431456,0.010860602712245813,0.9876973576927088
2013-05-10,1,0.0002674188175144197,0.0005806073495564547,-0.006910741138431456,0.011276148601847091,0.987558852872783
2013-05-14,-1,-0.0003398404441845469,-1.0014367981582193e-05,-0.01333052763463962,0.011276148601847091,0.9865476888593118
2013-05-16,1,0.00029260935244300327,0.0006083841020217431,-0.01333052763463962,0.01347111538624967,0.9858160314412312
2013-05-20,1,0.0004293047082250198,0.0007577439364158789,-0.01333052763463962,0.01347111538624967,0.9858333902308413
2013-05-22,-1,-0.0005757203483217365,-0.00012290899729073797,-0.01333052763463962,0.01347111538624967,0.9857047095667062
2013-05-24,-1,-0.0006555219580919903,-0.0002892766710728993,-0.01531476925905781,0.011432535820630375,0.9850628354599703
2013-05-29,-1,-0.0012547258237922032,-0.000910854813770305,-0.01333052763463962,0.014320682184541127,0.986127488675992
2013-05-31,-1,-0.0007632902184647896,-0.00046177492744535063,-0.012829746862792334,0.015475025273227971,0.9856279187197786
2013-06-04,-1,-0.0014921261055274595,-0.0010941632564081959,-0.014353951817506816,0.015475025273227971,0.9852420886020762
2013-06-06,-1,-0.0014274229879863733,-0.0010298125246032532,-0.010853656771663469,0.015475025273227971,0.9866461217640439
2013-06-10,-1,-0.001388237451564151,-0.0009918285874416137,-0.010853656771663469,0.01581909968621384,0.986255965824061
2013-06-12,-1,-0.001950629310674563,-0.0015310485281735326,-0.00803730749512828,0.017240778252852293,0.9857701800731662
2013-06-14,-1,-0.0017983025969594967,-0.0013943555524206324,-0.00803730749512828,0.01544045753652673,0.9865654226097613
2013-06-18,-1,-0.0013340091373007046,-0.0011867391741212944,-0.00803730749512828,0.014619327276121408,0.9877553698939496
2013-06-20,-1,-0.002403426444972977,-0.0021330301805451528,-0.0006307577171797453,0.01544045753652673,0.9876266196964176
2013-06-24,-1,-0.003045324942631478,-0.0027050894040732813,0.0003607261016442043,0.01544045753652673,0.9876626315125902
2013-06-26,-1,-0.0022268511557694158,-0.0019950111307728375,-0.0021007450748469513,0.0152526264085602,0.987730671558327
2013-06-28,-1,-0.0019190889380295267,-0.0017265908620916358,-0.0021007450748469513,0.014556716900132567,0.9890960821682313
2013-07-02,-1,-0.0023072344629328258,-0.0020913543983728587,-0.0021007450748469513,0.014556716900132567,0.9896636718367657
2013-07-05,-1,-0.0008695929325500362,-0.0008585761831021162,-0.0021007450748469513,0.014556716900132567,0.9889344512113393
2013-07-09,0,-1.7542893548298344e-06,8.290863426842291e-05,-0.0033188549810308178,0.010788977789699174,0.9892248579736319
2013-07-11,1,0.0007317274670643474,0.0009233972913749318,-0.004859632106555849,0.0055844952739844585,0.9902991867952722
2013-07-15,1,0.0006638450123452583,0.0008268317927909936,-0.009015260675472545,0.0055844952739844585,0.9896631923753835
2013-07-17,1,0.0003105489265876272,0.00042860746929751834,-0.010231572986695631,0.008913973395056615,0.9870681367099567
2013-07-19,1,0.0007208770260569479,0.0008296779606029777,-0.010388056175557993,0.0027673674924965225,0.9870692814183745
2013-07-23,1,0.0012084189612406571,0.0014140654801122845,-0.011030816795537402,0.0016086067195181034,0.9869165575693029
2013-07-25,1,0.00025010718897220644,0.0003118572725298612,-0.010388056175557993,0.002790753277698499,0.9884740100346531
2013-07-29,1,0.00046304285156005656,0.0006011677910932854,-0.010388056175557993,0.005223957861904507,0.9884147800997037
2013-07-31,1,0.00046727545028992347,0.0006451676694666505,-0.010938174932507396,0.006317699035299855,0.986990294678849
2013-08-02,1,0.0020047236944370685,0.0024240650710132157,-0.013422569293514854,0.006317699035299855,0.987091601912325
2013-08-06,1,0.0017119441444263762,0.002092594057260271,-0.010938174932507396,0.007918993847812743,0.9875770784775377
2013-08-08,1,0.0017278510901029961,0.0021519015100473597,-0.010938174932507396,0.010082545837876468,0.9873120602526962
2013-08-12,1,0.001252690897880154,0.0015940828841180081,-0.010169581399738826,0.014093434290652072,0.9861335207428855
2013-08-14,1,0.0020048204901073046,0.002411045450220503,-0.010169581399738826,0.011133857016850952,0.9869433834591775
2013-08-16,1,0.0008525190184383052,0.0010492260970538024,-0.0043121245566680195,0.012779043765102579,0.9870637959908863
2013-08-20,1,0.0004336807598915934,0.0005796261743037745,-0.0020391261541474305,0.012779043765102579,0.9870920641451865
2013-08-22,1,0.00042839263587886886,0.0005125380666779379,-0.006427911535414984,0.012779043765102579,0.9861857833708829
2013-08-26,1,0.0005496945522142703,0.0006541373423190496,-0.009493465510858829,0.012779043765102579,0.9862549187700776
2013-08-28,-1,-0.00011225368738911992,-8.043507286114928e-05,-0.009493465510858829,0.012779043765102579,0.9873096415078864
2013-08-30,1,0.00036372150196580097,0.00046758249344183445,-0.00944787871972523,0.010900457498080551,0.988758255512893
2013-09-04,1,0.0016897916894433834,0.002024791238060832,-0.00944787871972523,0.009644430028539427,0.9890486035029358
2013-09-06,1,0.0015964316262734842,0.0017829355138022913,-0.010439816617076323,0.008685555533767724,0.9888408685760384
2013-09-10,1,0.0023350706298052868,0.002593629352896459,-0.010456610431739026,0.0019649603629428186,0.9894776545446125
2013-09-12,1,0.0004811415327885181,0.0004979062735141017,-0.010399827764163627,0.003971529515785249,0.9903067487212144
2013-09-16,1,0.000802601327542599,0.0008486509111526525,-0.010399827764163627,0.0018031390710003248,0.9911015865853848
2013-09-18,1,0.001408496463463927,0.0015570800965925453,-0.010456610431739026,0.0018031390710003248,0.989630210757275
2013-09-20,0,-5.454824913050092e-07,5.161363186415832e-05,-0.00944787871972523,0.004215306346002581,0.9893801418915491
2013-09-24,0,-5.545591701861376e-05,3.241082324528238e-05,-0.009235771810465244,0.008475571925166611,0.9894496679686493
2013-09-26,1,0.0003900630809128148,0.0004338232218904062,-0.008671007347624429,0.010718451812397839,0.9891069146729535
2013-09-30,-1,-0.0005486753204919228,-0.00041419137564801276,-0.006100272454897487,0.010718451812397839,0.9895835383849477
2013-10-02,-1,-8.305124244522873e-05,-4.756470233167533e-05,-0.004664043343691017,0.00977713771314473,0.9901033075983301
2013-10-04,-1,-0.0008504367837691843,-0.0007415392476862526,-0.004664043343691017,0.00977713771314473,0.990342011673712
2013-10-08,-1,-0.0014002214083131946,-0.0012520762413556212,-0.0029744795439856546,0.014932871231151359,0.9896575310878014
2013-10-10,1,0.00029897153701710774,0.0004059773984495965,-0.002402189594792431,0.012676415564227323,0.991097175597543
2013-10-14,-1,-0.0004660494110230414,-0.0003830332684210772,-0.002402189594792431,0.014932871231151359,0.9894158535978935
2013-10-16,-1,-0.0002699045341533811,-0.00024925347457266367,-0.0013682034119240191,0.013991589713889172,0.9900503855872665
2013-10-18,1,0.0008336559634865833,0.000893514222422483,-0.002402189594792431,0.011164421954741509,0.9917999341395113
2013-10-22,1,0.0010855108617431354,0.0011767462369582347,-0.0028988038352659173,0.011164421954741509,0.9918715494703045
2013-10-24,1,0.0014657020080810108,0.001559914196680191,-0.0028988038352659173,0.011164421954741509,0.9911709158176079
2013-10-28,1,0.001687016484741262,0.0018004736929663223,-0.0028988038352659173,0.013755049818656552,0.9896694084052893
2013-10-30,1,0.0015672368928293916,0.001657746195793992,-0.0010833295567211668,0.014714616437142766,0.9893344390793963
2013-11-01,1,0.0008635461266796141,0.0009281578697773226,-0.0010833295567211668,0.014714616437142766,0.9895290424235679
2013-11-05,1,0.0009982063142447506,0.001023774607255105,-0.002610293325090198,0.013687962692811355,0.98952904691226
2013-11-07,1,0.0017421598872359111,0.0018833469002858066,-0.0013166585232588463,0.013687962692811355,0.9899476078574797
2013-11-11,1,0.002324014751799902,0.002467312499609949,-0.005543363738854789,0.011499572653022407,0.990504996281102
2013-11-13,1,0.002608810027382886,0.002712559833435275,-0.007029156748355419,0.005190608763762684,0.9899812449308568
2013-11-15,1,0.002157184394868875,0.002235997190878791,-0.005543363738854789,0.011092215974482558,0.9899586720299078
2013-11-19,1,0.0017608359067233686,0.001802250110195967,-0.0037940197160873804,0.014714616437142766,0.9895652712558387
2013-11-21,1,0.0027640456763725584,0.002888560301490882,-0.005543363738854789,0.014714616437142766,0.985698746541188
2013-11-25,1,0.0037440006216025046,0.004054059773186414,-0.007643381905459912,0.0038525354862489034,0.9848307348749339
2013-11-27,1,0.004535888645850108,0.005001653263271114,-0.007643381905459912,0.0066434604434579955,0.9847551999553027
2013-12-02,1,0.004705036992192899,0.005243292166284489,-0.007643381905459912,0.009270588208729409,0.9847202635274509
2013-12-04,1,0.0035920107279117045,0.0039739842464139126,-0.006505655201306782,0.009270588208729409,0.9856690095490874
2013-12-06,1,0.0038791713236461835,0.004289687372351678,-0.007643381905459912,0.006431286003408613,0.9848665615553828
2013-12-10,1,0.0036265973621851175,0.004063223500766774,-0.007643381905459912,0.006431286003408613,0.985619209232876
2013-12-12,1,0.003021623967886646,0.0033971353274801896,-0.007643381905459912,0.006431286003408613,0.9854860452308143
2013-12-16,1,0.0029787171002064565,0.0032775059540607458,-0.007643381905459912,0.00962530092575785,0.9856851193909817
2013-12-18,1,0.0033181727164116725,0.003638673488922409,-0.007643381905459912,0.00962530092575785,0.9860940150158258
2013-12-20,1,0.006841233657568543,0.00759466224064353,-0.006298855429368792,0.00962530092575785,0.9876477830647029
2013-12-24,1,0.005525255144592123,0.006187822727301588,-0.00506909618641707,0.00962530092575785,0.9877888824075837
2013-12-27,1,0.005670845752445491,0.006318446973195085,-0.00506909618641707,0.009265662920991355,0.9876073127250385
2013-12-31,1,0.005230588345058854,0.0057970675268590195,-0.006910216059314843,0.008496802617718381,0.9870833408975728
2014-01-03,1,0.004194981752666482,0.004583681712015586,-0.013251713966379749,0.008496802617718381,0.9851790323143458
2014-01-07,1,0.004190871840422879,0.004621742209405701,-0.010724381396574419,0.01032748845479061,0.9848368981415488
2014-01-09,1,0.003651398569140712,0.003960965639609922,-0.010724381396574419,0.012625162999048922,0.9842562793544324
2014-01-13,1,0.0019980751951600355,0.002054198230749841,-0.009956753366844165,0.01271197636126959,0.983859289527648
2014-01-15,1,0.0028136680206591767,0.002996462964867023,-0.009956753366844165,0.013373052648599146,0.9839349116250298
2014-01-17,1,0.003100822073753633,0.0033194617011193858,-0.009956753366844165,0.013944031135643981,0.9834999864286037
2014-01-22,1,0.004291624256806906,0.004594778985269825,-0.015289920527111076,0.013944031135643981,0.9837375501335972
2014-01-24,1,0.0027644852743358922,0.002864223054114247,-0.009469934774328026,0.016398105395263814,0.9845530959940105
2014-01-28,1,0.0032642729544360128,0.0034630798735938873,-0.011164402747901226,0.016398105395263814,0.9842492385772664
2014-01-30,1,0.0030343144681390585,0.0032299129477189876,-0.008257035045430123,0.019850497370358582,0.9840053942867911
2014-02-03,1,0.0016720888813607194,0.0017804446211156543,-0.006205380107841704,0.020700395475963793,0.9852920167374696
2014-02-05,1,0.0012857808649689036,0.00131139457895198,-0.004999740462129422,0.01909381877304977,0.9866031822797492
2014-02-07,1,0.002499646449901233,0.002663852969529536,-0.006770202765699437,0.01909381877304977,0.9871577966428381
2014-02-11,1,0.0027779564984506443,0.0029892599964091177,-0.0100500506579045,0.01474816913872761,0.9879330917211314
2014-02-13,1,0.0025145938485461395,0.002623103661335581,-0.010500220536592404,0.013324117257862545,0.9872848199187507
2014-02-18,1,0.0030553366565793036,0.0032150424744218143,-0.010500220536592404,0.011921821143139416,0.9871100035624352
2014-02-20,1,0.0034235861360440356,0.003602701318092578,-0.0100500506579045,0.005166017120224754,0.9886185215034039
2014-02-24,1,0.0034658574806372103,0.003616031636974996,-0.010500220536592404,0.0023798237232495736,0.9889030214216595
2014-02-26,1,0.0027712378544487767,0.0028195811665744927,-0.011607389337082455,0.005166017120224754,0.9875949056772069
2014-02-28,1,0.002773589203222278,0.00277803336403584,-0.011607389337082455,0.005166017120224754,0.9879100515772548
2014-03-04,1,0.0019868248850523225,0.0021347204095281394,-0.010500220536592404,0.011434930813042594,0.9884485149410404
2014-03-06,1,0.0023206697223492664,0.002397511487527656,-0.010500220536592404,0.013970693436935917,0.9873421426886447
2014-03-10,1,0.0014501665412591797,0.0016505031492820173,-0.011607389337082455,0.013970693436935917,0.9859080970556278
2014-03-12,1,3.5892788591517216e-06,0.0004005843688686943,-0.009506264004104037,0.01575791247670042,0.9859686134785571
2014-03-14,-1,-0.0009160149421316179,-0.0004754477054053586,-0.015655153769431752,0.01575791247670042,0.9845461321386555
2014-03-18,0,-3.732636854387886e-05,0.0002864862404290485,-0.015655153769431752,0.013970693436935917,0.9846780978227336
2014-03-20,0,-6.598652466197888e-05,0.0002586702094178827,-0.015655153769431752,0.017466622197381695,0.9827862685370029
2014-03-24,-1,-0.0012217813396817989,-0.0007758936687823073,-0.011623264692842477,0.017466622197381695,0.9825969974317068
2014-03-26,-1,-0.0013581740250332138,-0.0008697663484136808,-0.008736931012141368,0.015968575410830473,0.9843759388669236
2014-03-28,-1,-0.0010006691970962421,-0.000554498209544501,-0.010803086424352688,0.015383304440647306,0.9850822146916159
2014-04-01,0,-0.00011844521083003031,0.0002575194161794469,-0.010803086424352688,0.015968575410830473,0.9848158828470001
2014-04-03,-1,-0.00036506927002701224,-1.5075371435570263e-05,-0.014373950728073901,0.015968575410830473,0.9834729826556964
2014-04-07,-1,-0.0005284970240106051,-0.00016447727685018395,-0.010575429785322416,0.015968575410830473,0.9847852106410997
2014-04-09,1,0.00031682619308317085,0.000555838581273218,-0.010575429785322416,0.012249840135242456,0.9859724972626395
2014-04-11,-1,-0.0021909218239729742,-0.0016257577602970382,-0.006255816505369596,0.015968575410830473,0.9864121478168704
2014-04-15,-1,-0.001990488856846939,-0.0014255473471459848,-0.006626822719513164,0.015968575410830473,0.9871225262668489
2014-04-17,-1,-0.0005514776686608772,-0.0002703861320472433,-0.008054081935288277,0.004558769094412315,0.9889093716589453
2014-04-22,1,0.00017441944583163418,0.00034294541311583824,-0.010575429785322416,0.0025003357649291476,0.9882771319159529
2014-04-24,1,0.0006818093307235653,0.0007908972864770544,-0.008168690607768056,0.002162199104465273,0.9887345741926303
2014-04-28,1,0.00010666226353045038,0.00029625757104730067,-0.006626822719513164,0.006560848266405816,0.9883052954190832
2014-04-30,1,0.0006446143255476362,0.0008179347288041108,-0.006626822719513164,0.003597272784101699,0.9900011426800776
2014-05-02,-1,-0.0005828074019115822,-0.0002744679838598142,-0.006255816505369596,0.003597272784101699,0.992223278693418
2014-05-06,-1,-0.0014045439105203254,-0.0009842499312311872,-0.003079485328727584,0.00235346285677444,0.9929351480736457
2014-05-08,-1,-0.0023694244801080308,-0.0017777278006613911,-0.0014646084832097342,0.004936294678179081,0.9914365362711457
2014-05-12,-1,-0.0027522804057697617,-0.0022214315513006126,-0.0014646084832097342,0.004936294678179081,0.9921695191264974
2014-05-14,-1,-0.0012732958322159702,-0.0008556173335240362,-0.0024452946202959225,0.004936294678179081,0.991832348545027
2014-05-16,-1,-0.0006769826048138108,-0.0006039346651938837,-0.0014646084832097342,0.004936294678179081,0.9924172309295424
2014-05-20,-1,-0.0026235591585328233,-0.002295815990918137,-0.0012701389858363929,0.005485316857401807,0.9924927629877418
2014-05-22,-1,-0.0022267890289459145,-0.0019775288248728997,-0.0014646084832097342,0.005850905748798554,0.992394460844761
2014-05-27,-1,-0.0011533344847218215,-0.0010418473244015538,-0.004008367087786714,0.004787773432295263,0.991908338100557
2014-05-29,-1,-0.001136474649668293,-0.0009954158322274182,-0.004008367087786714,0.0052972260693707725,0.9919940904582666
2014-06-02,-1,-0.0012226017861463707,-0.0010504139583668297,-0.0071288869386850135,0.005458658575316905,0.990488757705088
2014-06-04,-1,-0.0013272261292178985,-0.0011530704725355842,-0.009391781612032859,0.005458658575316905,0.9899038880613948
2014-06-06,-1,-0.0011902953183566152,-0.0009516921246500706,-0.013447762143898083,0.005042580395913335,0.9903300468292694
2014-06-10,-1,-0.0006971122617042424,-0.0005508435878919073,-0.01371004044369018,0.004468062364703445,0.9904772264209499
2014-06-12,-1,-0.0013967877523943747,-0.0012052592270731764,-0.009391781612032859,0.005042580395913335,0.99120961016589
2014-06-16,-1,-0.0004323078134354641,-0.00038761183100616725,-0.009391781612032859,0.0052972260693707725,0.9902973099123498
2014-06-18,-1,-0.00033557124895320067,-0.00023705137220820686,-0.013447762143898083,0.005419089033169688,0.9891419417320554
2014-06-20,1,0.0002944715014940492,0.0002956686496681428,-0.013447762143898083,0.00683358190431147,0.9890269674181867
2014-06-24,-1,-0.001987337907969804,-0.0017198179664780046,-0.009391781612032859,0.00683358190431147,0.9899652425379555
2014-06-26,-1,-0.00318491565466793,-0.0026876023310560696,-0.010456800173477611,0.006592126078236438,0.9898760384866492
2014-06-30,-1,-0.0023001556716321175,-0.001908488061233871,-0.0106207940392982,0.004468062364703445,0.9905296832392604
2014-07-02,-1,-0.0018374637725919996,-0.001537456871650612,-0.013885167044264369,0.004453698676075852,0.9902020919097063
2014-07-07,-1,-0.0023106217830774073,-0.0019494260050642268,-0.010564317923988096,0.004453698676075852,0.9909494154362669
2014-07-09,-1,-0.0024570027184714813,-0.0021052216612294354,-0.009639303310068896,0.005679012058465451,0.9909557059582683
2014-07-11,-1,-0.0014908878388691365,-0.0012915858357181742,-0.009639303310068896,0.005679012058465451,0.9900390017694056
2014-07-15,-1,-0.0010604962400244,-0.0009351350681173587,-0.009639303310068896,0.005679012058465451,0.9901671347876074
2014-07-17,-1,-0.0006315832224344452,-0.0005870410607922939,-0.009639303310068896,0.005679012058465451,0.9903212996116372
2014-07-21,-1,-0.0003617050585252231,-0.0003309993727264744,-0.009639303310068896,0.005679012058465451,0.9900216988502751
2014-07-23,-1,-0.00043796165250426915,-0.0004338757785964787,-0.008651085130281526,0.009521623696712457,0.9896998539110633
2014-07-25,-1,-0.000761597713761157,-0.0007204938380801401,-0.007062215521000909,0.009521623696712457,0.990040530590378
2014-07-29,-1,-0.0013664470642968986,-0.001274652109041281,-0.005026759881996515,0.009521623696712457,0.990782366194811
2014-07-31,-1,-0.0018624106009778626,-0.0016855527695563456,-0.006219550831872639,0.009521623696712457,0.9908779772642536
2014-08-04,-1,-0.0025093112561126348,-0.002225759067329969,-0.006219550831872639,0.01168769849354168,0.9903787930057198
2014-08-06,-1,-0.0030328430434390426,-0.0026442993696203414,-0.006645179107360035,0.01168769849354168,0.9906018941860495
2014-08-08,-1,-0.0011468243907619912,-0.0010168660282897886,-0.00692190893690027,0.01168769849354168,0.9911324342316843
2014-08-12,-1,-0.0011506307306030396,-0.0010066766926202638,-0.007645585269726959,0.010445219152538932,0.9907716968325891
2014-08-14,-1,-0.0014688945304891473,-0.0012574758663715306,-0.007968171250839148,0.008859529923767637,0.9906538737537419
2014-08-18,-1,-0.0007082100280281335,-0.0005830180268344737,-0.007968171250839148,0.008859529923767637,0.9906023431241834
2014-08-20,1,0.00020825275491275587,0.00022508092843618398,-0.007968171250839148,0.0021222499721096823,0.9913790281007753
2014-08-22,1,0.0005698148918346956,0.0006730978672752604,-0.008595737163465633,0.0019437662841105979,0.9910235660566561
2014-08-26,1,0.0004023753377910956,0.00048206374804346985,-0.00944087959602739,0.0010993887196351177,0.9909004603555818
2014-08-28,-1,-0.0012379661065127956,-0.0010374297945087393,-0.00944087959602739,0.0039677105583689806,0.9899103335013953
2014-09-02,-1,-0.00032646012771159503,-0.0003017063879598719,-0.009878972501093285,0.0010993887196351177,0.9892999258106947
2014-09-04,-1,-0.0016836644894173982,-0.001410331596134344,-0.009878972501093285,0.0010993887196351177,0.9899322770871918
2014-09-08,-1,-0.001132996389544764,-0.0009513282712035619,-0.011045183240225045,0.0010993887196351177,0.9895307331802459
2014-09-10,-1,-0.0010037041075911478,-0.0008883870724991556,-0.011045183240225045,0.0010993887196351177,0.9883412011731532
2014-09-12,-1,-0.001910635411830077,-0.0017434542935744687,-0.011045183240225045,0.0010993887196351177,0.9882154995811181
2014-09-16,-1,-0.0011842083891557692,-0.0011237146679992217,-0.013782242007446245,0.0010993887196351177,0.985180314422822
2014-09-18,-1,-0.001893470384451507,-0.0017236704286138012,-0.013782242007446245,0.0010993887196351177,0.9854783593222177
2014-09-22,-1,-0.0012818637795132175,-0.0012385123600404133,-0.013782242007446245,0.004226789683237126,0.9812185457803803
2014-09-24,-1,-0.0018856618876446551,-0.0017109204257042638,-0.014778511478478917,0.01468657814457651,0.9793294027868176
2014-09-26,-1,-0.0011356511981773514,-0.00103493337198891,-0.013782242007446245,0.015557071491781621,0.9785015273516235
2014-09-30,-1,-0.0016450515011637644,-0.0014647588833024694,-0.013782242007446245,0.019268418290690634,0.9771975966333972
2014-10-02,-1,-0.0012182774988306728,-0.0011403615398915396,-0.01057522690931597,0.019268418290690634,0.977014843218914
2014-10-06,-1,-0.0012744877876071186,-0.0011855828751643708,-0.0064801297863389985,0.019268418290690634,0.9776830566870477
2014-10-08,-1,-0.0020660017221690702,-0.0018769143243195926,-0.00353135051661501,0.01980377500304209,0.9791079351950545
2014-10-10,-1,-0.004098139222494577,-0.0036180729207053305,-0.0027223663538322356,0.01980377500304209,0.9796269230667062
2014-10-14,-1,-0.003525289111177222,-0.0031091911947703464,-0.0027223663538322356,0.015901682754229006,0.9829891232637984
2014-10-16,-1,-0.0028549441277153464,-0.002573499212000607,-0.001446842237466304,0.015901682754229006,0.9826466837417177
2014-10-20,-1,-0.002462677505666056,-0.0022430839866338747,-0.001446842237466304,0.012331083156783093,0.9868283903119092
2014-10-22,-1,-0.0020251196557625967,-0.0018618852120702103,0.0008276689376151367,0.01228784453322737,0.9882920251466463
2014-10-24,-1,-0.0001542047366920064,-9.388083911342365e-05,0.0008276689376151367,0.010362804255541301,0.9912511727791731
2014-10-28,1,0.0017968990374451635,0.002163004066199883,-0.001446842237466304,0.010362804255541301,0.9929974009313665
2014-10-30,1,0.002316577548936685,0.0027817129551772515,-0.0038895937266756435,0.009513891511886452,0.9929528593085579
2014-11-03,1,0.001712255059143466,0.002035015758256521,-0.00821329325347198,0.007441299027314225,0.9920600802533234
2014-11-05,1,0.002402206406929507,0.002822448656059689,-0.00881362763028476,0.007441299027314225,0.9908041844134705
2014-11-07,1,0.002242710073182457,0.002658410807801469,-0.009298311007339511,0.007441299027314225,0.9901795705164758
2014-11-11,1,0.002215107853896282,0.0026380069691980187,-0.010347602887943862,0.007441299027314225,0.9889436304013566
2014-11-13,1,0.0016970870227449404,0.0019508239438561113,-0.013350925631375122,0.006383562979114049,0.9876307958551281
2014-11-17,1,0.0016709280407543915,0.001940890617215459,-0.013350925631375122,0.008721463392106287,0.9875881380770679
2014-11-19,1,0.002440445576870366,0.002807413552950712,-0.013350925631375122,0.009914561394576984,0.985635073211475
2014-11-21,1,0.0025579048664565503,0.002936466278415892,-0.013350925631375122,0.01021229154961704,0.985415976728983
2014-11-25,1,0.0024134635499970525,0.0027522447409979653,-0.011060749804996443,0.008697966298953093,0.9860014804310244
2014-11-28,1,0.001962102566718376,0.00222297115785822,-0.010719016397180753,0.008697966298953093,0.9865832239720657
2014-12-02,1,0.001547411237110868,0.001769582036008069,-0.010531136851032269,0.008697966298953093,0.9868321850777133
2014-12-04,1,0.0016384903344017255,0.0018945560369803772,-0.010531136851032269,0.006306806478990827,0.9878568880559498
2014-12-08,1,0.0010514358708979905,0.0012408232919132018,-0.007230294130759651,0.007078620672050383,0.9884960918982597
2014-12-10,1,0.0007751718313013278,0.0009368499636473423,-0.007230294130759651,0.008697966298953093,0.987200126518086
2014-12-12,-1,-0.0003182613029326486,-0.0002981095500438092,-0.007230294130759651,0.008697966298953093,0.9876616659397162
2014-12-16,-1,-0.00046048241087613066,-0.0004036168811825809,-0.007230294130759651,0.007375819371441023,0.9878608389622756
2014-12-18,1,0.0008762978688565231,0.0009491697254472217,-0.0078015198657665884,0.00663790502954636,0.9901148276822255
2014-12-22,1,0.0013675214733207778,0.001485664069546299,-0.0078015198657665884,0.00663790502954636,0.9897806241662983
2014-12-24,1,0.0012133573308141877,0.0013030310597203635,-0.009717955061485354,0.0041279464347159355,0.9892328153166418
2014-12-29,1,0.0011446372298228344,0.001216772291720273,-0.011146728583463324,0.00663790502954636,0.9872680252683343
2014-12-31,1,0.0010087575283370222,0.0011326793197807478,-0.008006717109910274,0.008350593479318394,0.9878745870993553
2015-01-05,1,0.0006169630894938562,0.0006923422101202136,-0.006050087846833073,0.012528944064123327,0.9879838989885239
2015-01-07,1,0.0006753827852526311,0.0007648992340230515,-0.006475834395712891,0.012528944064123327,0.9877393636361639
2015-01-09,1,0.0015144931432051986,0.0017248665679212077,-0.006475834395712891,0.010594112720935335,0.9904144565239772
2015-01-13,1,0.0019214953084751418,0.002226844974986602,-0.006475834395712891,0.010594112720935335,0.9904180585791078
2015-01-15,1,0.0017714461178889558,0.0020463489181767104,-0.006475834395712891,0.012528944064123327,0.9893460238026026
2015-01-20,1,0.0018656878329162897,0.002151940880327414,-0.006562420520367247,0.01142963452210983,0.989450644411518
2015-01-22,1,0.0022078265127623013,0.0025060411661327006,-0.006562420520367247,0.010725670538683644,0.9902168066656898
2015-01-26,1,0.001587856373059286,0.001824045314687181,-0.0028896793673944387,0.010725670538683644,0.9908767034669527
2015-01-28,1,0.0006045410534261522,0.0006758577689717295,-0.006562420520367247,0.0101320483013643,0.9912892256092884
2015-01-30,1,0.0014130123367327243,0.0016115179300723829,-0.006562420520367247,0.00950768391096545,0.9919977475755642
2015-02-03,1,0.0017500373835635029,0.001978131797241258,-0.007668532177241474,0.008585138637790427,0.9917743364640853
2015-02-05,1,0.0011458611682278544,0.0012170050043042654,-0.007668532177241474,0.008696847230778374,0.991328337428581
2015-02-09,1,0.0009313527124569937,0.0010122872349350213,-0.009791636109861468,0.008696847230778374,0.9896965630005753
2015-02-11,1,0.0007037571217079188,0.0007327734682799086,-0.00953954791930179,0.00966524139609604,0.9891846638128517
2015-02-13,1,0.001516811461961319,0.0016385083852608403,-0.011357054584502754,0.008696847230778374,0.9889832224114694
2015-02-18,1,0.001080733718544912,0.0011269559055411323,-0.00953954791930179,0.00966524139609604,0.9887624785076111
2015-02-20,1,0.0017174233124556586,0.0018749628829521426,-0.00953954791930179,0.010393213589584671,0.9884347361023873
2015-02-24,1,0.0013842343203816765,0.0014546694749853228,-0.00953954791930179,0.011280988533864505,0.9880437930501542
2015-02-26,1,0.0004050077181183468,0.0004712110614031365,-0.00953954791930179,0.011280988533864505,0.9881745892649659
2015-03-02,1,0.0001731357477884982,0.00028789233836705485,-0.00953954791930179,0.014511465822937466,0.9872909145254457
2015-03-04,-1,-0.0007640254030391795,-0.000519305403466556,-0.00953954791930179,0.014511465822937466,0.9869445514139716
2015-03-06,-1,-0.001031317788554811,-0.000674824515939413,-0.00953954791930179,0.014656239339019661,0.9868575684223733
2015-03-10,-1,-0.001994617535779556,-0.0015581131900177358,-0.007694743506777492,0.014656239339019661,0.9882537454289351
2015-03-12,-1,-0.0019479100536383756,-0.0014919222017076008,-0.007229783896367288,0.011330833861234627,0.9891327509643638
2015-03-16,-1,-0.0013487369975169338,-0.0009767636864603452,-0.007229783896367288,0.010552396644039185,0.9906574677543522
2015-03-18,-1,-0.0010574276146583814,-0.000696831409589775,-0.007229783896367288,0.0077092163284023536,0.9911160412292992
2015-03-20,1,5.857273527518097e-05,0.00019563630262359888,-0.007694743506777492,0.0077092163284023536,0.9899713144550397
2015-03-24,1,0.0010017367503113595,0.0010557425096196526,-0.0077514016640207435,0.0066248730697944826,0.9900408306530388
2015-03-26,1,0.0002207325990618501,0.0002582886316074829,-0.0075369758282893985,0.0066248730697944826,0.9905876219024345
2015-03-30,1,0.0009315673673295687,0.0009808815078839136,-0.009355818304529228,0.0066248730697944826,0.9903848389078492
2015-04-01,1,0.001127072472428789,0.0012323773620286289,-0.0075369758282893985,0.00491164653830215,0.9911947936788428
2015-04-06,1,0.0017641751026368701,0.0019407809692793489,-0.0075369758282893985,0.00491164653830215,0.991814575584667
2015-04-08,1,0.0012347890264149354,0.0013325702199451723,-0.005549681924476168,0.005191653739812449,0.9918870346588161
2015-04-10,1,0.0014454058850290677,0.0015819140396007225,-0.005549681924476168,0.005191653739812449,0.991749198847677
2015-04-14,1,0.0008854065594463192,0.0009323142913027769,-0.0044903233489934375,0.005191653739812449,0.9921065487570578
2015-04-16,1,0.0016833425169875194,0.0018784939390927595,-0.0044903233489934375,0.008540498401834195,0.9913684106679687
2015-04-20,1,0.0013413663751079869,0.001510869446308597,-0.0044903233489934375,0.005579349637486877,0.9930816552218069
2015-04-22,1,0.0009271185033839721,0.001044653935855243,-0.0044903233489934375,0.005579349637486877,0.993370519644251
2015-04-24,1,0.0003634692995407066,0.0003922935507475577,-0.004178129576239441,0.005579349637486877,0.9935931162875233
2015-04-28,1,0.0003437965787612031,0.00036008245967316136,-0.004178129576239441,0.004860180286783568,0.9940110765245258
2015-04-30,-1,-0.0001388309895009003,-7.539644502479442e-05,-0.003701147100978178,0.004860180286783568,0.9935131708505619
2015-05-04,-1,-0.0001303901497651776,-4.056082638005697e-05,-0.003701147100978178,0.004667759814003497,0.9941626476479827
2015-05-06,-1,-0.0006636500078085523,-0.0004716327938589492,-0.0038605066048307732,0.004648118166215473,0.9933898852560276
2015-05-08,-1,-0.000939859441269962,-0.0006677769378125303,-0.0038605066048307732,0.004648118166215473,0.9937657703046963
2015-05-12,-1,-0.0006539980431636557,-0.00041654970717221,-0.004465528765427689,0.00477961854865141,0.9923665744341915
2015-05-14,1,0.001177783038053847,0.0012584250761819397,-0.004465528765427689,0.0024376160887833553,0.9931986318362174
2015-05-18,1,0.0011555210614438791,0.00126142251876194,-0.005167530440788085,0.0040791871057930095,0.9926306954995417
2015-05-20,1,0.000941860540117599,0.0010159401440612424,-0.004149500252608327,0.00477961854865141,0.9926864274744625
2015-05-22,1,0.0008736647148513018,0.0009449046346689191,-0.004960458828743014,0.00477961854865141,0.9924355538518995
2015-05-27,1,0.0002068689774618582,0.00025983269723766744,-0.004373791847581049,0.0032759369192285866,0.9931117727044094
2015-05-29,-1,-0.000640232620051795,-0.00046518742605599646,-0.004373791847581049,0.0032759369192285866,0.9937306663456327
2015-06-02,-1,-0.0006861015439173844,-0.0005072987942836754,-0.00492710802587709,0.0032759369192285866,0.9925312694823268
2015-06-04,-1,-0.0006955301112897951,-0.0005521739472901905,-0.004796180629090648,0.0022198780078444037,0.9933132369497443
2015-06-08,-1,-0.0005780763204507327,-0.00044590742157944713,-0.004796180629090648,0.0019706469935582217,0.9933275124822919
2015-06-10,1,0.0004093221153868581,0.0004320858445391938,-0.0050514688978096954,0.0019706469935582217,0.9927171452361172
2015-06-12,1,0.00011019378187240343,0.0001606578029411273,-0.0050514688978096954,0.0022198780078444037,0.9924526915393892
2015-06-16,1,0.00047757900598429065,0.0005034499681199874,-0.0050514688978096954,0.001861127981916895,0.9922358377203678
2015-06-18,1,0.00028243738634048333,0.0003188105523373617,-0.005108463614169527,0.001861127981916895,0.9920186220333254
2015-06-22,-1,-0.0001812993278959541,-6.613082634130698e-05,-0.005108463614169527,0.0017963415626108161,0.9918333973069077
2015-06-24,-1,-0.0002818344124681793,-0.00016765079531762972,-0.010251250475228194,0.0017963415626108161,0.9906720024395896
2015-06-26,-1,-0.00018107541353874876,-0.00010543020872972588,-0.014411712317406459,0.0017963415626108161,0.98955965548583
2015-06-30,-1,-0.0007321153088744189,-0.0006018805814964354,-0.013961254967659108,0.004460108328978823,0.9868468903529947
2015-07-02,-1,-0.0010256079371552622,-0.0008437740723128365,-0.013961254967659108,0.006172332110805507,0.9865231692272327
2015-07-07,-1,-0.0011492778398746982,-0.0009508883774704842,-0.013961254967659108,0.006172332110805507,0.9862358263212277
2015-07-09,-1,-0.0009444380581704816,-0.0008217213734204481,-0.01162651615949235,0.003108941342955429,0.9878414684186153
2015-07-13,-1,-0.0006139062655458655,-0.0005190549656217474,-0.01162651615949235,0.003108941342955429,0.9863144928880341
2015-07-15,-1,-0.0008453909465306877,-0.0007457498673995426,-0.01162651615949235,0.003108941342955429,0.985993038974882
2015-07-17,-1,-0.0005016056011376973,-0.0004506106317346875,-0.01162651615949235,0.005654611038589025,0.9854685220625052
2015-07-21,-1,-0.0013053819035844007,-0.0011286885804050973,-0.010756226472925637,0.005654611038589025,0.9862130806523651
2015-07-23,-1,-0.002123515321652627,-0.0018575077969734495,-0.010756226472925637,0.005654611038589025,0.9856967814051116
2015-07-27,-1,-0.00438923459723232,-0.003821785500775051,-0.010756226472925637,0.005654611038589025,0.9832834836762431
2015-07-29,1,0.00010077537431838724,0.0001150051159777088,-0.013222588651785999,0.0034326335963471497,0.9837107574200784
2015-07-31,-1,-0.0011977115942999597,-0.0010030963167029878,-0.013114180925510529,0.008295620381565933,0.9825457428645807
2015-08-04,-1,-0.0012957871936023816,-0.001108710183251215,-0.02580128279491905,0.008295620381565933,0.9800439181669037
2015-08-06,-1,-0.0009410568375524131,-0.0008165711226357591,-0.02580128279491905,0.011250070619036,0.9783272879251391
2015-08-10,1,8.480151939961136e-05,0.00010770587389328399,-0.02580128279491905,0.011250070619036,0.9781358503448212
2015-08-12,-1,-0.0010522698669011808,-0.00093545178184836,-0.02580128279491905,0.011250070619036,0.9793524219094253
2015-08-14,-1,-0.00019638285229491763,-0.0001920337602568461,-0.02580128279491905,0.006179842195484761,0.9802320141182245
2015-08-18,-1,-0.0007564664212055434,-0.0006448265497025559,-0.02580128279491905,0.009491442239559817,0.9793283394629743
2015-08-20,-1,-0.0017887125091453435,-0.0015965787400401203,-0.023887352296795727,0.009491442239559817,0.9795119254878024
2015-08-24,-1,-0.001520387937019576,-0.001364177289022937,-0.015736367929781475,0.009491442239559817,0.9820768037563096
2015-08-26,-1,-0.003102136726322402,-0.002792968083811592,-0.012095126877585167,0.0072170328382587644,0.9840980485634547
2015-08-28,-1,-0.002782415186241997,-0.0024890182622272798,-0.015102700183014014,0.005364607582371238,0.9856038318492805
2015-09-01,-1,-0.003968086987203383,-0.0035471515973740054,-0.006437407726109557,0.005633428529986221,0.9877711151329549
2015-09-03,-1,-0.003177563555368218,-0.002838040648382266,-0.006437407726109557,0.005979158744244223,0.9890688921132512
2015-09-08,-1,-0.001669644552899939,-0.001535977253761977,-0.006437407726109557,0.005979158744244223,0.9900182024006572
2015-09-10,-1,-0.0020267513039278233,-0.0018344347782232643,-0.006437407726109557,0.009683520268486009,0.9881747335644222
2015-09-14,-1,-0.002294616923676041,-0.002060048661105719,-0.004120130547189396,0.009683520268486009,0.988128409636461
2015-09-16,-1,-0.00166327242818519,-0.0014838762482492296,-0.012981472807413482,0.006439394114559343,0.988460622259494
2015-09-18,-1,-0.0023399139847950843,-0.0021143754988267793,-0.01197458081298666,0.006439394114559343,0.9890400908822857
2015-09-22,-1,-0.0020549771054636534,-0.0018341747471899358,-0.01197458081298666,0.007879459574683676,0.9892755536062107
2015-09-24,-1,-0.00276330452038714,-0.002477465123856175,-0.007519186521517715,0.009683520268486009,0.9889359355396047
2015-09-28,-1,-0.003556709851987607,-0.003183232590776499,-0.005493912345223103,0.009683520268486009,0.9896427549889452
2015-09-30,-1,-0.0026587545956432033,-0.0024030666248126306,-0.005493912345223103,0.015443190320365265,0.9860499470881864
2015-10-02,-1,-0.0016442437030467303,-0.0015292444422358477,-0.005493912345223103,0.015443190320365265,0.9867673056649808
2015-10-06,-1,-0.0010929262764291885,-0.0010746596036756938,-0.007519186521517715,0.015362912128656463,0.9865694057761584
2015-10-08,1,0.0001621526696804664,0.00029895846519698894,-0.007519186521517715,0.007679914192307435,0.9880080799155492
2015-10-12,-1,-0.00027986363049645885,-0.00020705378233187976,-0.013333001286339276,0.007679914192307435,0.9874117040817834
2015-10-14,-1,-0.0006715954148601837,-0.0006499534462783634,-0.005493912345223103,0.007679914192307435,0.9885259920556758
2015-10-16,-1,-0.0011327775208486235,-0.001095554764074438,-0.005388426861913628,0.007679914192307435,0.9892186174145969
2015-10-20,-1,-0.001300723274608096,-0.0012304911761039483,-0.005388426861913628,0.009853474598733944,0.9878764156552465
2015-10-22,-1,-0.0009827416301895736,-0.0009569463528462742,-0.004733911714494495,0.016556841862023892,0.986986633953788
2015-10-26,-1,-0.0012782478906159806,-0.0012045542840235226,-0.00459236952097809,0.016556841862023892,0.9867268541902418
2015-10-28,1,0.0008823772331590604,0.0010966053222167924,-0.004935290328601474,0.007225905094223597,0.9905382651392821
2015-10-30,1,0.0012406921420376033,0.0015686179423730915,-0.005673577749825503,0.004336696890940159,0.990282968223135
2015-11-03,1,0.0006435586327364857,0.0008632094136786333,-0.005673577749825503,0.0028855225273164862,0.9908385029727288
2015-11-05,1,0.0009411472958162492,0.0012129773872541754,-0.008395120454479515,0.004336696890940159,0.9894308448696746
2015-11-09,1,0.000770260006060269,0.0010366483100713387,-0.008395120454479515,0.004336696890940159,0.9892807414647189
2015-11-11,1,0.0007365560213722604,0.000990338642337533,-0.008395120454479515,0.0069544615702952835,0.9890919437885933
2015-11-13,1,0.0006703567841070198,0.0009083058173414712,-0.013300751748003131,0.007667899775356028,0.9882117144149754
2015-11-17,1,0.000953703980409817,0.00122268676959311,-0.007269310704988199,0.007667899775356028,0.9891783557114153
2015-11-19,1,0.0017198625893167464,0.0020669276620422757,-0.013300751748003131,0.004336696890940159,0.9887751418122542
2015-11-23,1,0.001547689149130818,0.0018727895158557554,-0.013300751748003131,0.00711054769302241,0.9882894986028958
2015-11-25,1,0.0017034523784462202,0.0020601579799716324,-0.013300751748003131,0.007872715750619584,0.9877905509526262
2015-11-30,1,0.0011344246617219294,0.0013886482859494901,-0.01083795960599304,0.009625673426041679,0.9880378767025937
2015-12-02,1,0.0010205045835313324,0.0012893050257153918,-0.010856716740089107,0.009625673426041679,0.988000057835969
2015-12-04,1,0.0013940645925519179,0.0016847638046581866,-0.010808876386188833,0.007872715750619584,0.9890476229968554
2015-12-08,1,0.0008272673082748071,0.001060011290203168,-0.012187767559557687,0.007872715750619584,0.9875938499034524
2015-12-10,1,0.0009370603768760884,0.0011676936132920673,-0.012187767559557687,0.007872715750619584,0.9870993257949301
2015-12-14,1,0.0006323334103444937,0.0007763539646294915,-0.012187767559557687,0.005493069080896508,0.986809506245806
2015-12-16,1,0.0010520673844227426,0.0012161275401502596,-0.013265857305404465,0.003028610727479383,0.9873364283754233
2015-12-18,1,0.0012206630262072643,0.0015467638986787972,-0.012929853745260785,0.003028610727479383,0.9878523938636404
2015-12-22,1,0.001753990013880151,0.0021132033316838307,-0.012929853745260785,0.0028385387203389146,0.9874492744947462
2015-12-24,1,0.0017061363724216192,0.0020437640162793884,-0.015061552677411274,0.0028385387203389146,0.9863908555981978
2015-12-29,1,0.0016544881164685383,0.0019722733335127978,-0.016191017106192244,0.0028385387203389146,0.9808614825718934
2015-12-31,1,0.0015790638962165635,0.001928622863793845,-0.01755902476556715,0.004315421530345284,0.9798217946513269
2016-01-05,1,0.0013384320703812417,0.001623861070734864,-0.02265624101542782,0.007757415716309355,0.9777196482226059
2016-01-07,1,0.0005382813148307681,0.0007410908500752126,-0.016191017106192244,0.007757415716309355,0.9803793459399913
2016-01-11,1,0.0003857198322702195,0.000568352251307353,-0.016191017106192244,0.008272761300800055,0.9802914905035907
2016-01-13,-1,-0.000821060791979298,-0.0007746639084851684,-0.016191017106192244,0.008272761300800055,0.9804867969878275
2016-01-15,-1,-0.001462768119900825,-0.0012999752790251267,-0.015183006425761205,0.019989390147357504,0.9785183910126127
2016-01-20,-1,-0.002408959655386971,-0.0020735014437796,-0.014529872203611766,0.019989390147357504,0.9779479567243549
2016-01-22,-1,-0.0016733673217701481,-0.0014588750435671313,-0.014583316158991064,0.019989390147357504,0.9778104987982822
2016-01-26,-1,-0.0024105468129572826,-0.002036816021140582,-0.013872518139528108,0.016968466090419337,0.9791231897340004
2016-01-28,-1,-0.0028217598555399155,-0.002445371281236335,-0.00939167189732293,0.015343150527481466,0.9841045047112198
2016-02-01,-1,-0.002677905991705076,-0.0023731184258318277,-0.008822335533453317,0.014255447821288715,0.9854262984099753
2016-02-03,-1,-0.002882883675926478,-0.0025541857449351718,-0.010068292357079083,0.01363697260498237,0.9873102908329052
2016-02-05,-1,-0.0031350610209845116,-0.0027751916705399376,-0.012146694396126166,0.01363697260498237,0.9867743368009827
2016-02-09,-1,-0.0027709569396620485,-0.0024940441986558066,-0.011796626287078605,0.014255447821288715,0.9861627962920444
2016-02-11,-1,-0.0043726948488096475,-0.003851487794796864,-0.010068292357079083,0.016248436978672894,0.9856221455094654
2016-02-16,-1,-0.0029653227525017097,-0.002612713960034553,-0.010427578088144724,0.01363697260498237,0.9883291782372651
2016-02-18,-1,-0.0026892591689182755,-0.0023392660930234097,-0.010427578088144724,0.016248436978672894,0.9875941145592664
2016-02-22,-1,-0.003009471456587443,-0.0025889571227987887,-0.009685032375708474,0.016248436978672894,0.9873617454134438
2016-02-24,-1,-0.0029497115742816325,-0.0025443475936625954,-0.009685032375708474,0.016248436978672894,0.9873212242881967
2016-02-26,-1,-0.0022695701925231925,-0.001975965515850294,-0.010427578088144724,0.01268511657649962,0.9878895321583401
2016-03-01,-1,-0.0018753753148579857,-0.001655910909682482,-0.009685032375708474,0.010155239593680171,0.9883512725132446
2016-03-03,-1,-0.001742777717512969,-0.0015965210317986519,-0.004204218253747885,0.010155239593680171,0.988719695541684
2016-03-07,-1,-0.0021934496747956856,-0.00199190542821012,-0.004062471153031439,0.010155239593680171,0.9892832558491842
2016-03-09,-1,-0.0022155378061605867,-0.001980159668798783,-0.0027385321105952054,0.008659501167986557,0.9900396232473127
2016-03-11,-1,-0.0017943822264640064,-0.0015845760646672007,-0.0027385321105952054,0.006450124853153409,0.9914443343228991
2016-03-15,-1,-0.0022041231941322638,-0.0019419027122611785,-0.0014260536477377823,0.010224663208139275,0.9898795824758593
2016-03-17,-1,-0.0009289765780587504,-0.0008271833572463143,-0.002869408385828178,0.006450124853153409,0.9922838152310987
2016-03-21,-1,-0.0001887717547307896,-0.00016330336711864747,-0.002869408385828178,0.005153232666765212,0.9939081778055879
2016-03-23,1,0.0009181804773866315,0.0011459183965315607,-0.003984672727810408,0.005153232666765212,0.9916433942740939
2016-03-28,1,0.0006545404670766062,0.0008513437186159835,-0.0032589188165200716,0.005938626702586571,0.9911635321823569
2016-03-30,1,0.0008552980969885958,0.001074811752510388,-0.0032589188165200716,0.006971845533204315,0.9904934231211268
2016-04-01,1,0.001143881147347441,0.001402657425222152,-0.005481327067826464,0.006602201582699408,0.9893414418025294
2016-04-05,1,0.000764528400940586,0.0009504623706781218,-0.006328015883252025,0.008639259666326851,0.988930461125228
2016-04-07,1,0.001074773074637005,0.0013025237754416428,-0.008791866402750037,0.0064944314136274155,0.9887583824971701
2016-04-11,1,0.0014840630603135908,0.001738770534657338,-0.008791866402750037,0.0064944314136274155,0.9889167606319839
2016-04-13,1,0.0025200029056781908,0.0029365016328889186,-0.008791866402750037,0.005030018016596909,0.9898039930336567
2016-04-15,1,0.002749373422771125,0.003250333651712437,-0.01013291766102688,0.005030018016596909,0.9891883454095599
2016-04-19,1,0.003031395758376811,0.003574599893178201,-0.01013291766102688,0.006135543685683237,0.9883576029849127
2016-04-21,1,0.003816256816169407,0.004460322235461658,-0.013738972353296807,0.005790276635595301,0.9896389837836935
2016-04-25,1,0.003209557974490052,0.003748532959081917,-0.009904473070844001,0.0061104082688602694,0.9902646016858453
2016-04-27,1,0.003438424960300496,0.003974519606894678,-0.009904473070844001,0.0061104082688602694,0.9903147610119424
2016-04-29,1,0.0027481384327400983,0.00320397533145057,-0.007042771222389568,0.0061104082688602694,0.9916427308920366
2016-05-03,1,0.0024773815118057704,0.0028648564628587793,-0.005809270088564748,0.004972126400465186,0.9921175960495684
2016-05-05,1,0.0023159201161416262,0.0026969629153877745,-0.004896312886973998,0.007416741228524922,0.9911051791211605
2016-05-09,1,0.002196230594935106,0.0025506180503032973,-0.004915097816510247,0.007416741228524922,0.9910656648018875
2016-05-11,1,0.0026725844291129583,0.0031392446676905715,-0.005809270088564748,0.006431210911907048,0.9906872953927761
2016-05-13,1,0.0016128780952227267,0.001880540713792389,-0.005809270088564748,0.006431210911907048,0.9900112424501091
2016-05-17,1,0.002513435945872575,0.002976109598258536,-0.0077812384999719625,0.005621439149051255,0.9897189327286025
2016-05-19,1,0.002290182014013364,0.002710138930677476,-0.005809270088564748,0.005621439149051255,0.9909015033003142
2016-05-23,1,0.0025066991944230187,0.002967033459470257,-0.006154346226809823,0.005621439149051255,0.9905344517405223
2016-05-25,1,0.0027108958051415494,0.003162791447467431,-0.006154346226809823,0.003687818459122963,0.9907857499382814
2016-05-27,1,0.0026063714075980383,0.0030359136884232467,-0.010745548533836038,0.003687818459122963,0.9857481918599424
2016-06-01,1,0.0017973895790762194,0.002040689761979628,-0.010745548533836038,0.006465433371537677,0.9855169646277482
2016-06-03,1,0.002705498165959096,0.0030372332607835704,-0.010745548533836038,0.004835266210928319,0.9849562114750792
2016-06-07,1,0.002302316080043599,0.0025424026033882092,-0.012423849326751368,0.0034140546836394976,0.9844742105041931
2016-06-09,1,0.001494652970289648,0.0015926328793314725,-0.012423849326751368,0.007764325483060569,0.9836914326769257
2016-06-13,0,-9.9207512384217e-05,4.855677858748973e-05,-0.006146906336260255,0.013874537006193954,0.9836348526256183
2016-06-15,1,0.0003777456124348585,0.00042626515502587484,-0.0050551350167924725,0.008064144885497702,0.9846346162307191
2016-06-17,1,0.00032091560640105417,0.00038610255992622863,-0.0050551350167924725,0.008338692580153052,0.9843104853080686
2016-06-21,1,0.00012276247037960219,0.00023308272083969324,-0.0050551350167924725,0.008261839259439895,0.984410814615229
2016-06-23,-1,-0.0003157287447977181,-0.0001292238831724253,-0.0024889216719177426,0.014543435251365882,0.9838927358363372
2016-06-27,-1,-0.0036382602250003733,-0.003029731436253217,-0.0015652945383433088,0.014543435251365882,0.9864336371526192
2016-06-29,-1,-0.0029634325871108627,-0.0024269923622041688,-0.0025677479839889238,0.011471048383664823,0.9878097314877261
2016-07-01,-1,-0.002277342283534327,-0.001802127367635009,-0.0056218938264159055,0.007263328077110594,0.9900413567426607
2016-07-06,-1,-0.0035536762792624833,-0.0028733100448752324,-0.0056218938264159055,0.01119123977911163,0.9893910726728059
2016-07-08,-1,-0.0014517415468818101,-0.0011089909821205039,-0.0056218938264159055,0.010706351502183693,0.991007290785675
2016-07-12,1,0.00013553209393214798,0.00025327673743241454,-0.0056218938264159055,0.007263328077110594,0.9926771785135613
2016-07-14,1,0.0003736097098324054,0.0004511440207764731,-0.0056218938264159055,0.007794523585909907,0.9925296447903853
2016-07-18,1,0.0006114233770672734,0.0006747063722412332,-0.0056218938264159055,0.010706351502183693,0.9913879213295419
2016-07-20,1,0.0010015260109004348,0.001004637056582125,-0.0047027867122096485,0.007794523585909907,0.9919951126492939
2016-07-22,1,0.0013432803041002767,0.0013832353990743077,-0.0047027867122096485,0.005643356387863074,0.9926163061384399
2016-07-26,1,0.00030523802800660945,0.00043650039532473387,-0.004047928560122851,0.005266601159815532,0.9936680463308947
2016-07-28,-1,-0.0006302336975292585,-0.00034243399380902537,-0.0033465698761923172,0.005266601159815532,0.9939048632953211
2016-08-01,-1,-0.0011716638803263653,-0.0008246185921092575,-0.0012569789271791529,0.005694880726620092,0.9938349305728829
2016-08-03,-1,-0.0008187294418243886,-0.0005439028640526825,-0.0012569789271791529,0.005266601159815532,0.9947076446049592
2016-08-05,-1,-0.0009918743124579645,-0.0006655193096836386,-0.0008195426226320047,0.005266601159815532,0.9949829108111367
2016-08-09,0,-0.00011373593435370802,3.437292596540425e-05,-0.0014165575364710518,0.005266601159815532,0.9948143671896729
2016-08-11,1,0.000761511306037496,0.0007754214161097924,-0.002839339277311411,0.003718753380521341,0.9940273383258021
2016-08-15,1,0.0015398395318332813,0.0016621625198156675,-0.002839339277311411,0.003718753380521341,0.9941814260895638
2016-08-17,1,0.001257292179674722,0.0013020079811982641,-0.004742297153277818,0.0037614968167754533,0.9930092353289016
2016-08-19,1,0.0014902480416682054,0.0015741742942935798,-0.009585389919496375,0.004818258867176526,0.9923665117990291
2016-08-23,1,0.0018272460130426247,0.001970679750009362,-0.009585389919496375,0.005118308125218749,0.9918658856673009
2016-08-25,1,0.0014468811470700134,0.001519760299679735,-0.009585389919496375,0.006845300707599217,0.9913525430506221
2016-08-29,1,0.0018140199107996593,0.0019582074260265274,-0.009585389919496375,0.008074362047362272,0.9907701672578746
2016-08-31,1,0.0013950743561438653,0.0014760428067755315,-0.010461866015681439,0.009619063110736924,0.9898366544015362
2016-09-02,1,0.0020331571320541366,0.0022599827686632995,-0.010461866015681439,0.009619063110736924,0.9900027855938964
2016-09-07,1,0.0015603898122196111,0.001705609286822316,-0.012909700114063552,0.009947061132110618,0.989259511552057
2016-09-09,1,0.0007075946808483247,0.000758674015326571,-0.012909700114063552,0.009947061132110618,0.9883340705254836
2016-09-13,1,0.0008729486415124493,0.0010066119235962337,-0.013151379915669332,0.009696250445805786,0.988217043555664
2016-09-15,1,0.0005112432851252618,0.0005729351337330202,-0.008081951562133382,0.009535036727324404,0.9895354028318274
2016-09-19,1,0.0005736555825738284,0.0006830818869831549,-0.0064522502184662205,0.009535036727324404,0.9900822941736839
2016-09-21,1,0.0003458749689061755,0.0003762683554629209,-0.0064522502184662205,0.008274452930333995,0.9903576565045474
2016-09-23,1,0.000363415085020256,0.00040009013509347967,-0.008424678704463368,0.008274452930333995,0.9887255251396084
2016-09-27,1,0.00039810235917047906,0.00041640643581180887,-0.0072291452979447775,0.007311398462210017,0.9892785659719558
2016-09-29,1,6.510695914833406e-05,9.898819849686953e-05,-0.005313897823746165,0.007311398462210017,0.9895358638705969
2016-10-03,1,0.0004391811641132084,0.0004542502989759057,-0.005313897823746165,0.007311398462210017,0.9894389678195477
2016-10-05,-1,-0.00020700297730957275,-0.00011260711268969013,-0.008575643086092197,0.0068714430946865395,0.9893407049637511
2016-10-07,-1,-0.0003635927859259063,-0.0002876648610459576,-0.005313897823746165,0.006244489227784625,0.9912931674433361
2016-10-11,-1,-0.0014699596833952643,-0.001236135078569916,-0.0015808304894529574,0.006244489227784625,0.9904424392423695
2016-10-13,-1,-0.0014060435717850074,-0.0011803163291917592,-0.0015538793221376952,0.00995435342315126,0.9865867320281825
2016-10-17,-1,-0.001253733289123535,-0.0010766729427125117,-0.0001227021948691526,0.015319134241597135,0.9856394662733723
2016-10-19,-1,-0.001126232577986894,-0.0009548789799899454,-0.00212468619576291,0.015319134241597135,0.9856295911011637
2016-10-21,-1,-0.0003745275742112408,-0.0002946962667861365,-0.0025969971076384843,0.010786189963357564,0.9880518552249999
2016-10-25,1,0.0006892254351009458,0.0008360179762831207,-0.0025969971076384843,0.014365855276957091,0.987500902402468
2016-10-27,1,0.0007031413974133958,0.0008217654039518226,-0.0006482457501018018,0.013028900999543935,0.9880033028867865
2016-10-31,1,0.0008886782563187113,0.0010098180206125705,-0.002200591576184219,0.013028900999543935,0.9880126860142965
2016-11-02,-1,-0.0005890296856093137,-0.0004686275725556631,-0.00028882406574409915,0.014365855276957091,0.9869183757721455
2016-11-04,-1,-0.0004077314936056682,-0.0003180829650138547,-0.0015247776961067995,0.014365855276957091,0.9866458379495442
2016-11-08,1,0.0008338490576032297,0.0008960757309787891,-0.0015247776961067995,0.014365855276957091,0.9879707954860946
2016-11-10,1,0.0031994961944488377,0.003578612493519544,-0.0034132546785724895,0.01050798531090441,0.9912685751632981
2016-11-14,1,0.003569633679848465,0.003995708110991443,-0.0034132546785724895,0.007876959213614537,0.9918307310085537
2016-11-16,1,0.0013336801618654072,0.0013970328941070643,-0.0034132546785724895,0.01050798531090441,0.9914476504562806
2016-11-18,1,0.0013567751859566816,0.0013819469732043671,-0.005372493982421585,0.01050798531090441,0.9911734448172118
2016-11-22,1,0.002216323362471153,0.00235327970512014,-0.005372493982421585,0.007416837487434237,0.991801204065592
2016-11-25,1,0.002277342294147516,0.0023995836706688896,-0.005372493982421585,0.006765601883879129,0.9918938373115385
2016-11-29,1,0.002613380324882122,0.0028240965688913463,-0.00550809516692379,0.006765601883879129,0.9917380160275029
2016-12-01,1,0.004086301554717439,0.0045426969865961725,-0.00550809516692379,0.006405775013479135,0.9929069695308795
2016-12-05,1,0.0033872101833850826,0.003747587908676611,-0.0030314945152369326,0.007854332393470343,0.9926707350916133
2016-12-07,1,0.004209686540929927,0.004698211669386974,-0.00550809516692379,0.006765601883879129,0.9923386934457947
2016-12-09,1,0.003939455103539439,0.004398850319282908,-0.00550809516692379,0.006765601883879129,0.992736271424311
2016-12-13,1,0.003998546438297229,0.004484683526416632,-0.00550809516692379,0.006765601883879129,0.9924704035872738
2016-12-15,1,0.004288885428904578,0.004785890073169297,-0.005823881878144985,0.0031874664427704678,0.9920182992369917
2016-12-19,1,0.0033152591009646517,0.003663455302960074,-0.004557710410900765,0.00678532023680186,0.9931941212401353
2016-12-21,1,0.0031152716932004772,0.003404352475435249,-0.005823881878144985,0.00678532023680186,0.9926487211336877
2016-12-23,1,0.002939452856248319,0.0032173554565867054,-0.006654996755665551,0.00678532023680186,0.99004045242055
2016-12-28,1,0.0021710432740591,0.0023659752076954357,-0.006654996755665551,0.007249330842452918,0.9883593980140333
2016-12-30,1,0.0021811841192109346,0.0023689742142390564,-0.006865592514353464,0.007249330842452918,0.987904513350122
2017-01-04,1,0.0029926393321329146,0.0032889511022812885,-0.006865592514353464,0.00678532023680186,0.9883637774226911
2017-01-06,1,0.0028840839511299512,0.003212937571231438,-0.006488162703898866,0.007249330842452918,0.9883298398428022
2017-01-10,1,0.0027806039288372606,0.0030727215687990413,-0.006107855948933348,0.00678532023680186,0.9884863680802365
2017-01-12,1,0.0027602712360007666,0.0030515489864174875,-0.006107855948933348,0.007619817880469416,0.9883437192034308
2017-01-17,1,0.002026870788485292,0.002222655200911097,-0.004589121718089147,0.007619817880469416,0.9893862229360526
2017-01-19,1,0.0022371279402472934,0.0024511028965497647,-0.004589121718089147,0.00683685445834421,0.9893875228032152
2017-01-23,1,0.0020470122144470343,0.0022451950199994515,-0.004589121718089147,0.00683685445834421,0.9891729385810011
2017-01-25,1,0.0016307263432388326,0.001754579102431771,-0.004589121718089147,0.0051817654687073295,0.990984768983863
2017-01-27,1,0.0010389202464523176,0.001086410861352105,-0.0033256023796780737,0.0051817654687073295,0.992998070054399
2017-01-31,1,0.0008892607487868941,0.0009074942527321152,-0.0033256023796780737,0.00683685445834421,0.9905877677893024
2017-02-02,1,0.0005006392301680415,0.0005646341118175882,-0.006036605238781103,0.0051817654687073295,0.9898718373147447
2017-02-06,1,0.0005006120683785061,0.0005711053038761611,-0.006357718978466704,0.00434445385699048,0.990429122373626
2017-02-08,1,0.00022189635602961824,0.0003309179983193456,-0.011847254478471405,0.00434445385699048,0.9900765215165485
2017-02-10,1,0.0002566833994947474,0.00038475626514894874,-0.011847254478471405,0.003701741181386748,0.9904779183712097
2017-02-14,1,0.00042385023684198274,0.0005243513733620529,-0.011847254478471405,0.003701741181386748,0.9898356440812347
2017-02-16,1,0.00016061695961987503,0.00030268060328002863,-0.011847254478471405,0.003701741181386748,0.9898787115863217
2017-02-21,-1,-0.0003371546060727806,-0.00014946687728934133,-0.011847254478471405,0.003701741181386748,0.9898147772644693
2017-02-23,-1,-0.0012189888339436458,-0.0009064416441962185,-0.006861800126754197,0.003718797108575902,0.9908651498660543
2017-02-27,-1,-0.0005694264485698223,-0.0003419164276032106,-0.011847254478471405,0.003718797108575902,0.9904612182039068
2017-03-01,1,0.0004746863727190262,0.0005965984128092087,-0.0070082320780755734,0.003718797108575902,0.992405972126169
2017-03-03,-1,-0.0014918264392272658,-0.001077325771532571,-0.0044866863304299275,0.0046338330168325835,0.9935177006457291
2017-03-07,-1,-0.0023294134167563415,-0.0017686397295878886,-0.004654713379859092,0.005089651413463701,0.9927648280514177
2017-03-09,-1,-0.002797536150196438,-0.0021789745541624804,-0.004654713379859092,0.005771296742480431,0.9927286219550037
2017-03-13,-1,-0.0032194431421012984,-0.002533958338327107,-0.004092829129118477,0.006292761645169892,0.9920846536684528
2017-03-15,-1,-0.0028396942066198708,-0.0022031613981372275,-0.004719645151458165,0.005771296742480431,0.9925684777782587
2017-03-17,-1,-0.0027218469696234865,-0.0021319910195985213,-0.006943894578135493,0.006140966023391944,0.9915705504711817
2017-03-21,-1,-0.003410932554332658,-0.0027460616194568306,-0.006943894578135493,0.006812679861045702,0.990349917111332
2017-03-23,-1,-0.0032493855675201373,-0.002624027308400255,-0.006943894578135493,0.007552115865216416,0.9899345871923697
2017-03-27,-1,-0.003116847243061347,-0.0025200681912362737,-0.003868821920377091,0.007552115865216416,0.9902870882412951
2017-03-29,-1,-0.0035949226961234848,-0.002898179650213074,-0.003868821920377091,0.006326615988166279,0.9908562461235612
2017-03-31,-1,-0.0034246908149479192,-0.002747208372815193,-0.00950327527560962,0.006326615988166279,0.9911082914682031
2017-04-04,-1,-0.0031740472912424886,-0.0025700951366674826,-0.008408466124438541,0.007552115865216416,0.9911784988753659
2017-04-06,-1,-0.001273518680933049,-0.0010299186071612617,-0.008408466124438541,0.0069956574058549536,0.9914539517099002
2017-04-10,-1,-0.0006653403099140056,-0.0005151225123584337,-0.008408466124438541,0.0069956574058549536,0.9917413788698494
2017-04-12,-1,-0.0015202196422433893,-0.0012469838673172498,-0.005245481396373286,0.008088241491682208,0.9903229886980548
2017-04-17,-1,-0.001984547579503837,-0.0016432462442681553,-0.005245481396373286,0.008088241491682208,0.9910888079645563
2017-04-19,-1,-0.002023789173154403,-0.0017131556249301942,-0.005245481396373286,0.006661389154753479,0.9907129531673359
2017-04-21,-1,-0.0014698778173804017,-0.0012390047291170655,-0.005245481396373286,0.006612406211765463,0.9912179772590406
2017-04-25,-1,-0.0014078920323153817,-0.001184237192396148,-0.005245481396373286,0.007402061328200784,0.9909514808926064
2017-04-27,-1,-0.00044947948201618675,-0.0004098482598874675,-0.005245481396373286,0.007853028076652507,0.990013121022586
2017-05-01,-1,-0.0015063023272650381,-0.0013086976545908327,-0.0025983652193486704,0.007853028076652507,0.9905701821111738
2017-05-03,-1,-0.000628863259070888,-0.000578726976106637,-0.0025983652193486704,0.0075219306926723505,0.9914591367495879
2017-05-05,-1,-0.0006003527247700294,-0.0005420717442385691,-0.003637198965554346,0.007308023181203403,0.9911794730058253
2017-05-09,-1,-0.00025296866542390766,-0.00023536397439694336,-0.003637198965554346,0.006495395209666749,0.9915138763406796
2017-05-11,1,0.0013878161846599952,0.001625805762830299,-0.002798973261120522,0.006274458685257842,0.9928555997473912
2017-05-15,1,9.270031741911251e-05,0.00011455908209880703,-0.0019143752668104377,0.006605257153152825,0.9930823797522433
2017-05-17,-1,-0.0007968214984319515,-0.0007236089459703402,-0.002379351823988042,0.006605257153152825,0.9949816905933396
2017-05-19,-1,-0.0003452824915270358,-0.0003377869381457016,-0.002379351823988042,0.006605257153152825,0.9945187489234586
2017-05-23,-1,-9.143027865997966e-05,-8.689329908794935e-05,-0.003637198965554346,0.003997897920693481,0.9932354093950826
2017-05-25,1,0.0006153298451593667,0.000723831412304854,-0.004437521065001451,0.0031795080401853483,0.992833169768798
2017-05-30,1,0.0009621914142328721,0.0011826199220641561,-0.004908466460876623,0.003997897920693481,0.9918441807724505
2017-06-01,1,0.0006304181763060663,0.0007783242743880075,-0.006213624560946329,0.0070474417998831855,0.991351844272429
2017-06-05,1,0.0003388132643348783,0.0004617330705089481,-0.004908466460876623,0.009451273175577585,0.9910383691916643
2017-06-07,1,0.0002491724602974205,0.00036155898545027,-0.006213624560946329,0.009451273175577585,0.9903496973194409
2017-06-09,1,0.00023312118213541022,0.00029934978288342245,-0.006213624560946329,0.01024959240746879,0.9896721082260347
2017-06-13,1,0.0007683611421064505,0.0009328981487747031,-0.006213624560946329,0.01024959240746879,0.990076009343595
2017-06-15,1,0.00041589086566885456,0.0005196824941491528,-0.005249633439928171,0.01024959240746879,0.9896279689750059
2017-06-19,1,0.00036176486033175315,0.00037586507357637776,-0.005249633439928171,0.009644202156597902,0.9902135256701176
2017-06-21,-1,-0.0009226053243505967,-0.0008206855847343367,-0.0029598218948905146,0.009644202156597902,0.9909456592250242
2017-06-23,-1,-0.0013201295150228837,-0.0011597016254512526,-0.0025327550567903097,0.009644202156597902,0.9916971947271644
2017-06-27,-1,-0.0005995992492981276,-0.0005315843072748575,-0.0025327550567903097,0.009644202156597902,0.9923916816517432
2017-06-29,-1,-0.00010991180562934565,-8.89381190760415e-05,-0.0025327550567903097,0.009644202156597902,0.9920524502779131
2017-07-03,1,0.0006909810402963646,0.000806542569246081,-0.0025471120854992325,0.008125979212082603,0.9930087630907984
2017-07-06,1,0.0007875875451365305,0.0009579439798714665,-0.0025471120854992325,0.008125979212082603,0.9935404668151443
2017-07-10,1,0.0018286673064802567,0.0021520957258568067,-0.0025471120854992325,0.005675995817343971,0.9943293411038523
2017-07-12,1,0.001935485091832272,0.0022641338804331944,-0.003072117172082234,0.005675995817343971,0.9939573879717046
2017-07-14,1,0.002253912031341148,0.0025858977004116707,-0.004359640840185126,0.005054321929210717,0.9933092277649404
2017-07-18,1,0.0016460409068256268,0.0018481476975486049,-0.004359640840185126,0.0053454656781100115,0.9933508709503038
2017-07-20,1,0.0012309952793853498,0.0014094207846893558,-0.004359640840185126,0.0053454656781100115,0.9933041544375599
2017-07-24,1,0.0022183365914750152,0.0026182789749834463,-0.006582880424073564,0.005054321929210717,0.9928466436507092
2017-07-26,1,0.0016715686093859224,0.001916818312534149,-0.006582880424073564,0.005054321929210717,0.9930219075947437
2017-07-28,1,0.00174945850236429,0.001994954791215797,-0.004136992436348168,0.005054321929210717,0.9938191232743941
2017-08-01,1,0.0015989103232176747,0.0018022782901393995,-0.006582880424073564,0.0033888065605850687,0.9937766290790441
2017-08-03,1,0.001212087655049173,0.0013593090674568855,-0.004236896951440284,0.0051077396553425875,0.9935010301017062
2017-08-07,1,0.0017244109221463495,0.0019631805981946905,-0.006917056722342916,0.0033888065605850687,0.9930279740725897
2017-08-09,1,0.0014092625807108905,0.0015986793139046386,-0.004271359704433287,0.0033888065605850687,0.993318779511074
2017-08-11,1,0.0004870222111781809,0.0005067033322258378,-0.002068537807029844,0.009826344813531594,0.991904269876848
2017-08-15,1,0.0008552310800406483,0.0009274266538899612,-0.002068537807029844,0.010386052794467292,0.9913035095126791
2017-08-17,-1,-0.00016387477589062133,-9.278058937669753e-05,-0.003012209436798646,0.010386052794467292,0.9915769209816285
2017-08-21,-1,-0.00033981980728320225,-0.00027202263380070904,-0.001502309165938783,0.01094830881585513,0.9910461147038371
2017-08-23,1,0.00023025843080840517,0.0002504378084930668,-0.0012685638630271635,0.010386052794467292,0.9913397102770837
2017-08-25,1,0.00041274428272150874,0.00043984167539585714,-0.0012685638630271635,0.008124022827182548,0.9918871451178898
2017-08-29,1,0.00027920765719741846,0.0002991276939996414,-0.0011333155753628808,0.012066087439575754,0.9914775564265396
2017-08-31,1,0.001166993136928471,0.0013349384723246463,-0.0012685638630271635,0.008124022827182548,0.9919625305664229
2017-09-05,1,0.0005690076563535,0.0006228187234070292,-0.0011793220497794926,0.011362134661509728,0.9918273602392117
2017-09-07,1,0.00031339474509385547,0.00032065208316383464,-0.0011333155753628808,0.012203186889919072,0.9909223292841799
2017-09-11,1,0.001970501117483374,0.002134260045315277,-0.0016808402529993752,0.009743687132665558,0.993074775464227
2017-09-13,1,0.0027644680320013646,0.0030616803703940702,-0.0028870363334976947,0.007651542922949406,0.9927344146555342
2017-09-15,1,0.002320745370449524,0.0025684290635730957,-0.003516428860100302,0.007651542922949406,0.9928952866658233
2017-09-19,1,0.0030422660833034584,0.003383454960873108,-0.00515028605232687,0.00600059355173147,0.993035133313643
2017-09-21,1,0.0026110042877009578,0.00284364011738793,-0.005777137087218928,0.006447031405958101,0.9926932619693296
2017-09-25,1,0.0024434156249689147,0.002663304111635977,-0.005777137087218928,0.00909852206497202,0.9923761476328895
2017-09-27,1,0.0030480460815846206,0.003356862109709747,-0.006907049356009207,0.00909852206497202,0.9916378064223812
