JNU-Tangyin/eata/results/Batch4_SP500/Batch4_SP500-PHM.csv
Date,Action,Predicted_Q25,Predicted_Q75,Actual_Q25,Actual_Q75,RL_Reward
2010-12-14,0,-0.00441519065338175,0.0,-0.0028920356735474837,0.030140851346212767,0.9771246949242686
2010-12-16,-1,-0.002785893167526079,-0.0027163585901223987,-0.0020783757182288843,0.03213982038212527,0.9754551464352047
2010-12-20,-1,-0.00040428919483340836,-0.00019768527673385454,-0.01268144377718709,0.03213982038212527,0.9771400330190999
2010-12-22,1,0.002444885595359046,0.003089818985384218,-0.015640191708714685,0.020513256170605863,0.9788134411138206
2010-12-27,1,0.000203326039076122,0.00038020942124217456,-0.012775115753593769,0.0241957293501631,0.9790734879350299
2010-12-29,1,0.0004578258311151109,0.0007650466384109681,-0.012775115753593769,0.0241957293501631,0.9783359972207881
2010-12-31,1,0.0013063188715941381,0.0017097972262562105,-0.016937166198780523,0.0241957293501631,0.9771895001027164
2011-01-04,1,0.0005669605129580797,0.0006711014568807552,-0.020118658025095167,0.02301767293254684,0.976910435393356
2011-01-06,1,0.003642169232327315,0.004165544089806094,-0.022301347969707418,0.013285069502473391,0.9773705050808744
2011-01-10,1,0.004604988452526571,0.00537765736436328,-0.020118658025095167,0.013285069502473391,0.9807525236867707
2011-01-12,1,0.004800954655151621,0.00549516811693918,-0.021859919498296482,0.012022971155730228,0.9801641453336054
2011-01-14,1,0.005495929622847763,0.006210882590634589,-0.022301347969707418,0.009964093788134487,0.9806079830870054
2011-01-19,1,0.0033868244051348797,0.0038269452080068834,-0.022301347969707418,0.012022971155730228,0.9815954274356498
2011-01-21,1,0.003729451115459456,0.00427695337937758,-0.022301347969707418,0.014458190571350163,0.9812214537496878
2011-01-25,1,0.005119767191862287,0.005966202993003159,-0.022593372611686997,0.009964093788134487,0.9778223221606843
2011-01-27,1,0.005699837214795301,0.00674096355712705,-0.022356105257624825,0.006176997960304138,0.9779168954222455
2011-01-31,0,0.0,0.0,-0.022356105257624825,0.006176997960304138,0.979192053510512
2011-02-02,1,0.002439312978237431,0.0029472544783526646,-0.021993765904234613,0.006176997960304138,0.9799468972562715
2011-02-04,1,0.002132870474706304,0.0027024964730446533,-0.01916719156793895,0.006176997960304138,0.980853786656882
2011-02-08,0,0.0,0.0,-0.01916719156793895,0.00561907376796195,0.9781858888121345
2011-02-10,1,0.002754692512401594,0.0033912285993977784,-0.016799705936982927,0.00391511477498239,0.977888565317157
2011-02-14,1,0.0011241460767742605,0.0014667401152001793,-0.015369249197138486,0.008540559818182487,0.9784040667357201
2011-02-16,1,0.001420304693165502,0.0018179642697210817,-0.015369249197138486,0.006117168779806634,0.979542290566407
2011-02-18,1,0.004437081317208165,0.005371564937297943,-0.015369249197138486,0.008098095385090464,0.9790186775424108
2011-02-23,1,0.0005882348838913301,0.0009954370059958688,-0.013421674612047959,0.011678408954427205,0.9819549658372231
2011-02-25,0,-0.00014952680968284408,0.00013375321252055673,-0.0128479899235358,0.014808263207295658,0.9818866573584751
2011-03-01,-1,-0.002503562835500844,-0.0024446737588500822,-0.009070865925284758,0.014808263207295658,0.9831532167553114
2011-03-03,0,0.0,0.0,-0.011672320925497047,0.012168194986462634,0.9831922095888342
2011-03-07,0,0.0,0.0,-0.009070865925284758,0.012168194986462634,0.983216002446774
2011-03-09,0,0.0,0.0,-0.009070865925284758,0.013164989673681701,0.9859289666987441
2011-03-11,0,0.0,0.0,-0.006115585589744699,0.015285825467230937,0.9853501894950071
2011-03-15,0,0.0,0.0,-0.006115585589744699,0.015285825467230937,0.9858575941746959
2011-03-17,0,0.0,0.0,-0.005180398122087408,0.015285825467230937,0.9867196632763859
2011-03-21,-1,-0.0007835287994076075,-0.00048490751733511835,-0.005180398122087408,0.015285825467230937,0.987550426928066
2011-03-23,1,0.0005696466338132706,0.0009860637541018705,-0.005180398122087408,0.015285825467230937,0.9869099493040825
2011-03-25,1,0.0011117474994645816,0.0016053297591053948,-0.006602961077046953,0.01232738240644106,0.9856574948801416
2011-03-29,1,0.0011472309410567327,0.0015339888048699413,-0.006602961077046953,0.015453856751664712,0.9849971890038355
2011-03-31,1,0.0003831263073732958,0.0007648623118489029,-0.006407020281743128,0.021049419519628007,0.9844130449816175
2011-04-04,1,0.00046453920739655927,0.0008704237392010885,-0.01044270789661671,0.021049419519628007,0.9837587488246784
2011-04-06,1,0.0008456577754733863,0.0012929105950916424,-0.01044270789661671,0.021763391246168287,0.9839927514473662
2011-04-08,1,0.001529579836329417,0.0018527938423870773,-0.011529130005951205,0.007149961476306839,0.9836615743092348
2011-04-12,-1,-0.0005778345176383758,-0.0004923144327657589,-0.01523965949939851,0.007149961476306839,0.9830407046002685
2011-04-14,-1,-0.0020906129897280256,-0.0017679154315688667,-0.01523965949939851,0.019184695478382183,0.9821575826205792
2011-04-18,1,0.0008276794916429152,0.0010413809787099665,-0.01523965949939851,0.006582269567164933,0.9828617827386332
2011-04-20,1,0.0016503718796851185,0.0017907136831873743,-0.01523965949939851,0.002517715806962526,0.9852038222613343
2011-04-25,-1,-0.0008412929491539633,-0.0004176017521418914,-0.01523965949939851,0.006529293807654307,0.9860065114350993
2011-04-27,0,0.0,0.0,-0.01523965949939851,0.002544386338645745,0.986461353830128
2011-04-29,1,0.0004162721971837628,0.0006329416875886914,-0.011203691793508778,0.00666228116221459,0.9841975582287933
2011-05-03,-1,-0.0010386111230774606,-0.000692686418900684,-0.0078667138922443,0.0192467633699245,0.9826812662965396
2011-05-05,1,0.0006326313910164603,0.0007398311234754305,-0.011315335595987658,0.00666228116221459,0.9824315901658236
2011-05-09,-1,-0.001429142709594503,-0.0010213060071864288,-0.0261525293886649,0.00666228116221459,0.9802826439898589
2011-05-11,-1,-0.002843316127916459,-0.002280554399331779,-0.0261525293886649,0.012186550795663316,0.9796996870968404
2011-05-13,-1,-0.001173719249515871,-0.000912334547208732,-0.0261525293886649,0.006839766942227802,0.9799372992931742
2011-05-17,1,1.1725265085643825e-05,3.891705659150994e-05,-0.027705575577053353,0.012816310596347538,0.9765412830943718
2011-05-19,-1,-0.0006925593355301255,-0.0005458702362538055,-0.027705575577053353,0.017069739283823326,0.9755099554715824
2011-05-23,-1,-0.0013273648114023226,-0.001074138533903246,-0.027705575577053353,0.017615635215778226,0.9758549018602248
2011-05-25,-1,-0.0010965221273491798,-0.0009076681855086634,-0.027705575577053353,0.017615635215778226,0.9755049951193734
2011-05-27,1,0.002685961317541899,0.00301806848489104,-0.027705575577053353,0.014359720547089241,0.9794203811300264
2011-06-01,1,0.0032472665667953498,0.003796857128916218,-0.027705575577053353,0.014359720547089241,0.9800747531780253
2011-06-03,1,0.002385998624375099,0.002823848646112462,-0.01846639631781966,0.01700767139228101,0.9802139088261886
2011-06-07,1,0.0001560887807973032,0.0003618591096617149,-0.014456139458710418,0.01700767139228101,0.9817629699825358
2011-06-09,1,0.00011149315317147902,0.0003841018016881531,-0.010213073094873714,0.020984972281281718,0.9817954515807602
2011-06-13,-1,-0.0009393788383037531,-0.0009020974248500946,-0.014598463914556187,0.020984972281281718,0.9794618772719598
2011-06-15,-1,-0.0006662775115500697,-0.0005962459135376456,-0.014598463914556187,0.01700767139228101,0.9817255480109115
2011-06-17,1,0.0005903855612968497,0.0008535260589478531,-0.016361046143773532,0.015653087151598206,0.9820938756625599
2011-06-21,1,0.001775567802466341,0.0021757775754956054,-0.016361046143773532,0.014233974377367637,0.9820399507514403
2011-06-23,0,0.0,0.0,-0.016361046143773532,0.020984972281281718,0.9809352982379271
2011-06-27,0,0.0,0.0,-0.016361046143773532,0.01313750261457207,0.9818809611496873
2011-06-29,0,0.0,0.0,-0.017825470469199745,0.003683112116076208,0.9819254879358624
2011-07-01,0,0.0,0.0,-0.020827777889688558,0.0003481973927898368,0.9816819454780319
2011-07-06,0,0.0,0.0,-0.02679348693974842,0.0003481973927898368,0.9783951079640975
2011-07-08,0,0.0,0.0,-0.03448473572051439,-0.002057611217198476,0.9742732044738502
2011-07-12,-1,-0.00044162116295345136,-0.00031042582351623705,-0.03448473572051439,0.0003481973927898368,0.9719757220891609
2011-07-14,0,0.0,0.0,-0.0395870343056622,0.0036181102982511372,0.9665345164215975
2011-07-18,0,0.0,0.0,-0.0395870343056622,0.015917571853767774,0.9633845513323871
2011-07-20,-1,-0.00289502512882306,-0.002402011700849221,-0.0395870343056622,0.011524911594026622,0.9648596971124015
2011-07-22,-1,-0.0033777156167842937,-0.002721340131808454,-0.061514527471408925,0.0010238959246495248,0.9597391397120353
2011-07-26,0,0.0,0.0,-0.061514527471408925,0.0010238959246495248,0.9550231336638955
2011-07-28,0,0.0,0.0,-0.061514527471408925,0.015917571853767774,0.9515770042006868
2011-08-01,0,0.0,0.0,-0.061514527471408925,0.033825296089078576,0.9492574019991185
2011-08-03,0,0.0,0.0,-0.050222547315664376,0.04295592595781827,0.9491510091490146
2011-08-05,0,0.0,0.0,-0.04320655404610414,0.04295592595781827,0.9509661612861916
2011-08-09,0,0.0,0.0,-0.04033691301851127,0.04952836978813584,0.9504472951465671
2011-08-11,0,0.0,0.0,-0.039964865099665306,0.04531441440193902,0.9539486340136067
2011-08-15,0,0.0,0.0,-0.039964865099665306,0.033825296089078576,0.9571499792346004
2011-08-17,0,0.0,0.0,-0.039964865099665306,0.033825296089078576,0.9563718170028177
2011-08-19,0,0.0,0.0,-0.03847559662619347,0.033825296089078576,0.962505658007324
2011-08-23,-1,-0.021650111504405673,-0.019193071776804564,-0.030487766592685133,0.033825296089078576,0.9620795719074045
2011-08-25,-1,-0.01528080318992544,-0.013565148222536396,-0.032984852812555455,0.024861940719939045,0.967910244900195
2011-08-29,-1,-0.010062949853183616,-0.009045644842254771,-0.032984852812555455,0.01679291263151639,0.9708860633823558
2011-08-31,-1,-0.007897124594023704,-0.007201389507428641,-0.039154234579610286,0.01679291263151639,0.9714866464634316
2011-09-02,-1,-0.010839504512624073,-0.009786558892917555,-0.039154234579610286,0.01679291263151639,0.9690380180394682
2011-09-07,-1,-0.008461225610634449,-0.007698938896155403,-0.03332628559943226,0.022859385606057436,0.9691705341104523
2011-09-09,-1,-0.010204086952693552,-0.0092928916227034,-0.021213452641566523,0.024457157558456063,0.9690456893850679
2011-09-13,-1,-0.008006372773406743,-0.007436426157763551,-0.021213452641566523,0.02810810057382221,0.9668974522684184
2011-09-15,-1,-0.006734947309980364,-0.006256432081298002,-0.021213452641566523,0.028606568876061507,0.9675650765965185
2011-09-19,-1,-0.00675673775244986,-0.006335363324848395,-0.034098950137267374,0.028606568876061507,0.9629934171663862
2011-09-21,-1,-0.006291690158835422,-0.005981156587979381,-0.01932065077080629,0.03121006115893072,0.9609294799358216
2011-09-23,-1,-0.00920746933145894,-0.008490404176176084,-0.007879329287154646,0.04246335952324151,0.9576863221182796
2011-09-27,-1,-0.006942708110696775,-0.006561231134613366,-0.01932065077080629,0.05048193653514989,0.9539918542736175
2011-09-29,-1,-0.00677339526664936,-0.006378081972990093,-0.007879329287154646,0.05434779458945741,0.951684214337443
2011-10-03,-1,-0.012072303137631388,-0.010987219932787829,-0.005403706719762153,0.05434779458945741,0.951720288115963
2011-10-05,-1,-0.008516649163759733,-0.007941145526022875,-0.007879329287154646,0.05048193653514989,0.955429925867017
2011-10-07,-1,-0.007169256056406233,-0.006774114517903204,-0.009615670100278544,0.05434779458945741,0.9545241339604746
2011-10-11,-1,-0.005015525943427209,-0.004885262092305506,-0.009615670100278544,0.05048193653514989,0.9535384917246935
2011-10-13,-1,-0.004222836981427104,-0.004185319041750376,-0.01546846979130715,0.05048193653514989,0.9521225370317242
2011-10-17,0,0.0,0.0,-0.01546846979130715,0.05048193653514989,0.9553423326535687
2011-10-19,0,0.0,0.0,-0.01546846979130715,0.04789654219938529,0.959654568194767
2011-10-21,0,0.0,0.0,-0.026129126033672078,0.04235890817578088,0.9632754600909569
2011-10-25,1,0.0032398262086209746,0.004252896329710693,-0.018153951025857228,0.030506461096958135,0.969714477305141
2011-10-27,1,0.006123175731224276,0.007361322110406205,-0.026129126033672078,0.019161412214462846,0.9722547154858868
2011-10-31,1,0.004425669937810975,0.005411151069812922,-0.018153951025857228,0.030506461096958135,0.9722101755719454
2011-11-02,1,0.005042492198874151,0.006102761673987746,-0.010894549960333975,0.030506461096958135,0.9720410814823776
2011-11-04,1,0.00658714229451836,0.007859012114518634,-0.007795844257819593,0.029387904797947836,0.9738151604503488
2011-11-08,1,0.009926955248911429,0.011704462743230646,-0.007795844257819593,0.016903972096987258,0.9767762337193943
2011-11-10,1,0.008835037418502613,0.010540352626974772,-0.007795844257819593,0.025706217125025715,0.976083672242536
2011-11-14,1,0.008521253466515371,0.010198914167247827,-0.01598046441397404,0.016903972096987258,0.9755181282323189
2011-11-16,1,0.009216060976587913,0.011026831229234708,-0.018153951025857228,0.02509055612312262,0.9720624928829195
2011-11-18,1,0.008589495689092078,0.01027870825445288,-0.019718467818474406,0.02509055612312262,0.9718500681527596
2011-11-22,1,0.00911676706672808,0.010958483839078364,-0.019245608795012054,0.028356137645339754,0.9684083230313574
2011-11-25,1,0.0076401363973939,0.00923694949122366,-0.01791320614419999,0.028356137645339754,0.9686034680910958
2011-11-29,1,0.010816349376388288,0.012896968908799846,-0.01791320614419999,0.023267805907048588,0.9694561183325201
2011-12-01,1,0.01204436076348275,0.014172509018522197,-0.01791320614419999,0.023267805907048588,0.9703198129591795
2011-12-05,1,0.013018275151766283,0.015216793651884903,-0.01791320614419999,0.023267805907048588,0.9697035209614414
2011-12-07,0,0.0,0.0,-0.01791320614419999,0.027070110807619674,0.9690441807530757
2011-12-09,0,0.0,0.0,-0.016754908091179098,0.023267805907048588,0.9721794506904987
2011-12-13,1,0.010482246571401477,0.012316607427290143,-0.007832872039660158,0.027070110807619674,0.9737767379737693
2011-12-15,1,0.011751044389795129,0.013903861049642464,-0.010764068984162059,0.02533794013077911,0.975330508514196
2011-12-19,1,0.009916533431569929,0.011703655064053495,-0.005976313270311856,0.037221953542125416,0.97533325667064
2011-12-21,1,0.013577728073705424,0.015816053339386592,-0.015943259573456523,0.02416520907909413,0.9743139531092524
2011-12-23,1,0.01056966393598391,0.012210038638121899,-0.005976313270311856,0.036415915738890775,0.9752882438287974
2011-12-28,0,0.0,0.0,-0.0032496901152075574,0.036415915738890775,0.9731979292199089
2011-12-30,0,0.0,0.0,-0.01694579585377712,0.030549464914722747,0.9739739482788915
2012-01-04,0,0.0,0.0,-0.01694579585377712,0.03368486717480229,0.9727954835446363
2012-01-06,0,0.0,0.0,-0.01694579585377712,0.03368486717480229,0.97323043566959
2012-01-10,1,0.010092069655454632,0.011159285262615892,-0.01694579585377712,0.03654511278028036,0.9721254271659374
2012-01-12,1,0.008430169403109844,0.008968551499772142,-0.02130213181821302,0.03654511278028036,0.9706751182433992
2012-01-17,1,0.00575811281602409,0.005827217032286711,-0.02130213181821302,0.03705281663974895,0.9707757824271908
2012-01-19,1,0.009450870372165314,0.010237619113400485,-0.02130213181821302,0.03362201082048688,0.9717625162546816
2012-01-23,1,0.007046095477973215,0.007647078639745206,-0.01842380758262748,0.03362201082048688,0.9746097840563616
2012-01-25,1,0.009084868665084426,0.009995763689022212,-0.02130213181821302,0.03362201082048688,0.9732804158865745
2012-01-27,1,0.006143058706403042,0.006532118875443067,-0.02130213181821302,0.03362201082048688,0.9740625230902384
2012-01-31,1,0.005594685024994797,0.0059642032108855325,-0.020029925478842383,0.03760207659201477,0.9726144966246714
2012-02-02,1,0.005265933781918279,0.005437836035921769,-0.026298686094908187,0.03362201082048688,0.9730371509658168
2012-02-06,1,0.0057854210385289125,0.0059886376162679176,-0.02709554968288997,0.018351056062501883,0.9742963202405812
2012-02-08,1,0.0075819319778079,0.008094021993584399,-0.02709554968288997,0.035695202797739405,0.9716498902809932
2012-02-10,1,0.006909805683413122,0.007245714357577369,-0.026298686094908187,0.01694053242120047,0.9753065936968106
2012-02-14,1,0.007154665758375039,0.0074821395225135486,-0.026298686094908187,0.018506020538984404,0.9739816654856372
2012-02-16,1,0.005264037981311008,0.005277963893309581,-0.02709554968288997,0.03177881879620679,0.9732791303230401
2012-02-21,1,0.00368636469486345,0.0038777485553177977,-0.026298686094908187,0.03177881879620679,0.9745676163011017
2012-02-23,0,0.0,0.0,-0.026298686094908187,0.021884972582906597,0.9758979053131862
2012-02-27,0,0.0,0.0,-0.026136726057279888,0.021884972582906597,0.9756956570923895
2012-02-29,1,1.1453023033093255e-05,0.000358376389966623,-0.017869678867658337,0.02936009594857688,0.9764669756910089
2012-03-02,0,0.0,0.0,-0.02398395098516249,0.02936009594857688,0.9750424481136079
2012-03-06,0,0.0,0.0,-0.021055932429091283,0.02936009594857688,0.9755460665350028
2012-03-08,0,0.0,0.0,-0.023890838971991818,0.013294105500132249,0.9777084023840714
2012-03-12,1,0.0012112160915419433,0.0016035873687022296,-0.026036428667698983,0.00897990389693673,0.9747830031611661
2012-03-14,0,0.0,0.0,-0.026036428667698983,0.021884972582906597,0.9722103339321515
2012-03-16,0,0.0,0.0,-0.023890838971991818,0.00897990389693673,0.9738894892537833
2012-03-20,0,0.0,0.0,-0.026036428667698983,0.021182302559640404,0.9720427872949843
2012-03-22,0,0.0,0.0,-0.023890838971991818,0.019282531010608887,0.9727311672790355
2012-03-26,0,0.0,0.0,-0.021055932429091283,0.027252085878778302,0.9714224867834399
2012-03-28,0,0.0,0.0,-0.021055932429091283,0.019282531010608887,0.9697948755436939
2012-03-30,0,0.0,0.0,-0.018973712040067314,0.02761816884688479,0.9694890663464524
2012-04-03,1,0.0018568054727154015,0.002079513767917699,-0.018070478842199523,0.02761816884688479,0.9686864054068035
2012-04-05,-1,-0.0007931567478823387,-0.00021939872833009306,-0.017025109208244075,0.02761816884688479,0.9694273684688953
2012-04-10,-1,-0.004057212825942871,-0.003053753118354594,-0.017025109208244075,0.02761816884688479,0.9704394439010907
2012-04-12,0,-0.0004952272453348559,9.84904502934745e-05,-0.01800470445653078,0.024449858461969953,0.9743085497149092
2012-04-16,-1,-0.0030014790058376685,-0.00204946615786601,-0.018803612050447678,0.024449858461969953,0.9733778913845073
2012-04-18,-1,-0.0036353079911548725,-0.002604567051637209,-0.018803612050447678,0.020463747172887653,0.9741198621252725
2012-04-20,-1,-0.005186276692710681,-0.0038328495555466175,-0.02212711485953963,0.020463747172887653,0.9711041079825377
2012-04-24,-1,-0.002849761790123245,-0.0018732110692123442,-0.02212711485953963,0.024153898908867166,0.9704889516889021
2012-04-26,1,0.0014541756530008943,0.001867539597697425,-0.02212711485953963,0.024003492315558907,0.9742151142742591
2012-04-30,1,0.0024832489635156236,0.0027038970536363426,-0.020808297414989553,0.021255427016037446,0.9764045633479034
2012-05-02,1,0.003868555386139949,0.003918930377674639,-0.02258358604398794,0.018964901020728724,0.9756005178601993
2012-05-04,1,0.001597633646130837,0.0019344883275117667,-0.030007431741195502,0.018964901020728724,0.9693398398952374
2012-05-08,-1,-0.0013037036007656458,-0.0004483299588581395,-0.02561328359686791,0.024379511095218034,0.9653806676585321
2012-05-10,-1,-0.0021730382415496847,-0.001166440302669017,-0.02561328359686791,0.021330631078154402,0.966110075646372
2012-05-14,-1,-0.004151448113745228,-0.002843901890369393,-0.027165458363544732,0.021330631078154402,0.9641086632384135
2012-05-16,-1,-0.002421431888964577,-0.0015070087880494497,-0.02508308526988169,0.024379511095218034,0.962831230107575
2012-05-18,-1,-0.007871829917536042,-0.006232464739999982,-0.01053846448094295,0.027215050656633107,0.9632762399498526
2012-05-22,-1,-0.006236902130148476,-0.004734391491566558,-0.011196872847193437,0.025674500811073905,0.9657993088753086
2012-05-24,-1,-0.0037090370445231986,-0.002613690314454582,-0.023526135671634956,0.028016894858821077,0.9650374105606154
2012-05-29,-1,-0.0029938093756252068,-0.0019787017697655857,-0.023526135671634956,0.03110001980420072,0.9631586219342778
2012-05-31,-1,-0.001334800956174764,-0.0007423985728828534,-0.01773299845338066,0.03110001980420072,0.964352631923307
2012-06-04,-1,-0.00784344610969804,-0.006504418977840002,0.005509886050647662,0.03885569067683342,0.9650699495346415
2012-06-06,1,0.00011149574630428473,0.0003850650141738385,-0.006205783165178966,0.028016894858821077,0.9729354005957278
2012-06-08,0,-3.017033752047006e-05,0.0003285231371782625,-0.006205783165178966,0.028016894858821077,0.9739388743430413
2012-06-12,1,0.00016040708572425983,0.00034941330426217505,-0.01050336270439656,0.028016894858821077,0.975445872216721
2012-06-14,-1,-0.000492602262481847,-7.040265328947526e-05,-0.006205783165178966,0.027629976499621657,0.9768546924802114
2012-06-18,1,0.0027659186003849865,0.0028791976560196718,-0.006853870007537968,0.02619289371237146,0.9782374746374823
2012-06-20,1,0.002147939819837754,0.0021869142777510807,-0.018572016624129918,0.02292002585694949,0.976720198291698
2012-06-22,1,0.000524811109429709,0.000857775568179321,-0.009032578542933708,0.02292002585694949,0.9777542817101033
2012-06-26,1,0.0028280914477321903,0.0028366841138082423,-0.024140054794116024,0.020209102215561728,0.9764813107554132
2012-06-28,1,0.003895875277007529,0.004140520940274532,-0.024140054794116024,0.02292002585694949,0.9725127371118776
2012-07-02,1,0.007286068001564013,0.008079826931123135,-0.027927447849537105,0.01655957309909658,0.9728194719675701
2012-07-05,1,0.00793568686854906,0.008807935715023635,-0.027927447849537105,0.01655957309909658,0.9708515661710603
2012-07-09,1,0.008233169655448633,0.009211157932031554,-0.027927447849537105,0.01655957309909658,0.9706798530005684
2012-07-11,1,0.005767156952388871,0.006366828800559608,-0.027035450406189036,0.023584173408732215,0.9720924629610083
2012-07-13,1,0.006327596905036303,0.006911460127705662,-0.027035450406189036,0.02458114591747055,0.970525719517874
2012-07-17,1,0.007474690025438859,0.00827899305967416,-0.027035450406189036,0.023787982069628715,0.9707140752954047
2012-07-19,1,0.004118225331948604,0.004402588838698626,-0.016999289154397836,0.0336504858581246,0.9712832736372544
2012-07-23,1,0.00698318913787818,0.007739502816253211,-0.02372217320755932,0.023787982069628715,0.9706489431898024
2012-07-25,1,0.0023041858152197435,0.0023069469422626887,-0.01635988967796368,0.03411144014134681,0.972785805826106
2012-07-27,1,0.004796586315918664,0.0050392516516260845,-0.01635988967796368,0.023787982069628715,0.9772206939047546
2012-07-31,1,0.003891621236030378,0.004204905644821246,-0.015291194240594733,0.023787982069628715,0.9793986179669939
2012-08-02,1,0.005189671468446351,0.005676913144250217,-0.00958308756470593,0.019585416193880947,0.9821541076259956
2012-08-06,1,0.005011988525371819,0.005548930975942191,-0.006547488773301913,0.021855029161037452,0.9820936549415169
2012-08-08,1,0.006972578227687962,0.0077407327836503895,-0.006547488773301913,0.021997953413027085,0.9816187148158189
2012-08-10,1,0.007094271878492373,0.007855925864701099,-0.006842587282759776,0.020947982064594178,0.9833954487789643
2012-08-14,1,0.007219270913570015,0.007959063977672261,-0.006842587282759776,0.021997953413027085,0.9818453904222153
2012-08-16,1,0.00946788480798022,0.010415351323601591,-0.006842587282759776,0.02609559532361381,0.9826108336728179
2012-08-20,1,0.009214791748785355,0.010283667158840036,-0.006866257571334035,0.02609559532361381,0.9825593399404332
2012-08-22,1,0.00787006168030415,0.008562895386476052,0.0007601655793441561,0.02609559532361381,0.9828891142911955
2012-08-24,1,0.007566749949728545,0.00815386892806602,-0.0060375596474295315,0.02609559532361381,0.9819725599700453
2012-08-28,1,0.005380212566607545,0.005554517846629725,-0.013785077151551849,0.02609559532361381,0.9778499467410258
2012-08-30,1,0.0036091625051002927,0.003798692291403422,-0.013785077151551849,0.02609559532361381,0.976502052933581
2012-09-04,1,0.006471723168997562,0.006863998579992604,-0.013785077151551849,0.024222948235539075,0.976876239541696
2012-09-06,1,0.007438624757564724,0.007855490749887733,-0.013785077151551849,0.024222948235539075,0.9766149829795382
2012-09-10,1,0.006193748627809389,0.0064131606234898745,-0.015451924084956992,0.024222948235539075,0.9756466476101501
2012-09-12,1,0.008642119962091278,0.009154131126538893,-0.02065072225229796,0.018793491764965194,0.9768859774692661
2012-09-14,1,0.010544521085864065,0.011356828627473059,-0.02065072225229796,0.015744989210615522,0.9765876724312843
2012-09-18,1,0.009911839560564482,0.010865396988533362,-0.012679029921049365,0.016659541712115825,0.9781599879852714
2012-09-20,1,0.012145677886028274,0.013392861466869277,-0.012679029921049365,0.015744989210615522,0.9772583472451402
2012-09-24,1,0.012372253698839094,0.013741533591265287,-0.012340173121108784,0.014280589816838952,0.9776348864437516
2012-09-26,1,0.007700970918613761,0.008339892409493368,-0.009778080664546789,0.014280589816838952,0.9821254833879896
2012-09-28,1,0.0071021169411898165,0.007588325047239185,-0.012340173121108784,0.01416655142056418,0.9816161843079364
2012-10-02,1,0.00868924970309026,0.009295906904741452,-0.007338867405264948,0.01416655142056418,0.9817665822306549
2012-10-04,1,0.009966512143969524,0.01068012981742753,-0.014411962643496354,0.01416655142056418,0.981780992378205
2012-10-08,1,0.006620094913176358,0.006917249812284217,-0.008596582092340353,0.01416655142056418,0.9833117224576754
2012-10-10,1,0.003619083499841075,0.004055412493366281,-0.014929791316591414,0.01416655142056418,0.9816932509802304
2012-10-12,0,0.0,0.0,-0.022234470626179614,0.01416655142056418,0.9802787201793919
2012-10-16,0,0.0,0.0,-0.02359843836046752,0.012430353913608385,0.9804157096434195
2012-10-18,1,0.007698270904592398,0.008155127756428598,-0.02359843836046752,0.013705932823009151,0.980013646056746
2012-10-22,1,0.007082996821130301,0.007406730323352511,-0.02359843836046752,0.014491186778212085,0.9787347998691831
2012-10-24,1,0.0014938589405963506,0.0022275282686145736,-0.022234470626179614,0.014491186778212085,0.9811298529237031
2012-10-26,1,0.0038902374614942056,0.004069881862957191,-0.010939793256748395,0.012420332056131234,0.9821566155351886
2012-11-01,1,0.004651590753041583,0.004733256790567255,-0.019500351408305583,0.00870615376296651,0.9816919944690895
2012-11-05,1,0.0030680497767277765,0.003437610393772204,-0.010120102122911742,0.00827677632684225,0.9841859221147562
2012-11-07,1,0.0027311468390861043,0.0030958394971420705,-0.019500351408305583,0.00827677632684225,0.9819964994946719
2012-11-09,1,0.0010423343888957368,0.0015197084121869335,-0.0052995602556132225,0.008856906212721404,0.98411722060236
2012-11-13,-1,-0.0008091908688156878,-0.00011801429957972436,-0.0007598957764462282,0.010802595186468415,0.9834120584367889
2012-11-15,-1,-0.0037368897585386518,-0.0026776223199336713,0.0010259784049355706,0.010802595186468415,0.9844673657124909
2012-11-19,-1,-0.0019479039124117134,-0.0011500341402096697,0.0010259784049355706,0.010802595186468415,0.9834372433031073
2012-11-21,1,0.000548901635982384,0.0010432194229030274,-0.0016340416654985583,0.008856906212721404,0.9868422610385026
2012-11-26,1,0.0029538170133059406,0.0030177274459812125,-0.0038869434139032293,0.00827677632684225,0.986499507182968
2012-11-28,1,0.002836497830373225,0.002892480878343753,-0.0042947534357237966,0.00827677632684225,0.9856828042847197
2012-11-30,1,0.0015724845382154274,0.0018038936741842449,-0.0042947534357237966,0.008856906212721404,0.9850685285021185
2012-12-04,1,0.00038523802970600804,0.0008670690884086116,-0.0042947534357237966,0.013888974641623586,0.9845899677344305
2012-12-06,-1,-0.0008121278561475864,-0.0002678228507782489,-0.0024091913105136445,0.02476848668513907,0.9854162520850983
2012-12-10,-1,-0.0006304017163093446,-0.00013669582004971308,-0.0018145495414955575,0.02476848668513907,0.9855578063013694
2012-12-12,0,0.0,0.0,-0.003730945872662046,0.01589463211990115,0.987066509366567
2012-12-14,0,0.0,0.0,-0.005093565002442244,0.020586029705126282,0.9857192652389061
2012-12-18,0,0.0,0.0,-0.007022738115293381,0.014680273854306586,0.986894936902667
2012-12-20,0,0.0,0.0,-0.004747722899026555,0.014680273854306586,0.9869371230265572
2012-12-24,-1,-0.0013939765749203313,-0.0005246704430618078,-0.003730945872662046,0.015426893272069801,0.9871108820989245
2012-12-27,-1,-0.0017282585040120676,-0.0008960693309020399,-0.003730945872662046,0.020586029705126282,0.9847297738325086
2012-12-31,-1,-0.0016677434396547555,-0.0007918453704411259,-0.003033333061867762,0.015426893272069801,0.9862717080083236
2013-01-03,0,0.0,0.0,-0.004747722899026555,0.013365347798485947,0.9857988921192372
2013-01-07,0,0.0,0.0,-0.008110047515948397,0.00782729358336933,0.9859704697765465
2013-01-09,1,0.0019603738524326523,0.002311723362610627,-0.01298883052561031,0.006827506128858625,0.9856051024224396
2013-01-11,0,0.0,0.0,-0.01298883052561031,0.006827506128858625,0.9854099874657852
2013-01-15,1,0.001388996915795454,0.0017679536605138583,-0.010230243383893186,0.006827506128858625,0.9843668094693316
2013-01-17,1,0.003492554166508224,0.0036054128778890346,-0.010230243383893186,0.00609767787922096,0.9868749477289832
2013-01-22,1,0.003688391832896589,0.0037634568595467537,-0.015477549701526764,0.004385629059994255,0.9824311258413926
2013-01-24,1,0.0034789495053915496,0.0036341756819461596,-0.015477549701526764,0.0044953142376350595,0.982773484180692
2013-01-28,0,0.0,0.0,-0.015477549701526764,0.0044953142376350595,0.9815704660943602
2013-01-30,0,0.0,0.0,-0.015477549701526764,0.004706168735926827,0.9811206286312835
2013-02-01,0,0.0,0.0,-0.010230623021627245,0.008016108604838937,0.9813837704942554
2013-02-05,0,0.0,0.0,-0.007375702335269895,0.009329211617292091,0.9815616808179678
2013-02-07,0,0.0,0.0,-0.00639412307099175,0.009329211617292091,0.98196245524867
2013-02-11,0,0.0,0.0,-0.00639412307099175,0.009329211617292091,0.981338936750202
2013-02-13,0,0.0,0.0,-0.00639412307099175,0.009329211617292091,0.9821329807740382
2013-02-15,0,0.0,0.0,-0.00639412307099175,0.010211793540257811,0.9818778827302873
2013-02-20,0,0.0,0.0,-0.0013573619090431952,0.01594640726564749,0.9845422883795718
2013-02-22,0,0.0,0.0,-0.00639412307099175,0.01594640726564749,0.9836526626757687
2013-02-26,0,0.0,0.0,-0.007404161794407336,0.010211793540257811,0.9875551331634104
2013-02-28,-1,-0.0008454109413061151,-0.0003940609644740743,-0.007404161794407336,0.007887894113218469,0.9880454089217954
2013-03-04,1,0.0018822839258317208,0.0018830039884815861,-0.009864536768208056,0.006416185986695416,0.9882101289674577
2013-03-06,1,0.0016215547171848387,0.0017237935725305028,-0.013323809123795684,0.005627586514637843,0.9875270709042101
2013-03-08,1,0.0013149097219777406,0.0014918714701106128,-0.013323809123795684,0.007553335260358222,0.9861398355488628
2013-03-12,-1,-0.0007038240989300922,-0.00024377291946281682,-0.013239738253047653,0.007553335260358222,0.9866444825654119
2013-03-14,0,0.0,0.0,-0.013239738253047653,0.0045864529290634585,0.9879236918155426
2013-03-18,0,0.0,0.0,-0.014275595746229,0.0045864529290634585,0.9828717901236012
2013-03-20,0,0.0,0.0,-0.016014805206498638,-0.00027452771563153677,0.9815482050534832
2013-03-22,0,0.0,0.0,-0.014275595746229,0.007553335260358222,0.981114534847318
2013-03-26,0,0.0,0.0,-0.013239738253047653,0.01565828658915718,0.9786610007042492
2013-03-28,1,0.0022134171920332566,0.002310232130006872,-0.013239738253047653,0.025975683258105512,0.9753007675345118
2013-04-02,1,0.0013492883790730055,0.0013614769532923321,-0.01132720663792042,0.025975683258105512,0.9753497860116419
2013-04-04,-1,-0.0007985432818041319,-0.0005179326494319682,-0.010305219851973836,0.02804309267289523,0.9749830597289358
2013-04-08,0,0.0,0.0,-0.010305219851973836,0.025975683258105512,0.9752463920723801
2013-04-10,0,0.0,0.0,-0.005521361867890067,0.025975683258105512,0.9759068111702173
2013-04-12,0,0.0,0.0,-0.004855181963294135,0.025975683258105512,0.9755346804868302
2013-04-16,0,0.0,0.0,-0.0014000323376448473,0.025975683258105512,0.9788389633636643
2013-04-18,0,0.0,0.0,-0.0014000323376448473,0.025975683258105512,0.979812624471995
2013-04-22,0,0.0,0.0,-0.004855181963294135,0.026005960561478247,0.9799831091624636
2013-04-24,0,0.0,0.0,-0.010562835292902466,0.01976185908607707,0.981130264149589
2013-04-26,0,0.0,0.0,-0.010562835292902466,0.014800806354519054,0.9844851824043424
2013-04-30,0,0.0,0.0,-0.011899591644072692,0.014800806354519054,0.9836049414677506
2013-05-02,1,0.0013497900614118667,0.0016184968536360473,-0.016526883528073702,0.011203532198141693,0.9852086638063394
2013-05-06,1,0.0024560490090030644,0.002590916272172646,-0.023568797578679367,0.0077102091372553225,0.9839754453029499
2013-05-08,0,0.0,0.0,-0.023568797578679367,0.0077102091372553225,0.9814720234062025
2013-05-10,0,0.0,0.0,-0.023568797578679367,0.005174068343946899,0.9812212073502843
2013-05-14,0,0.0,0.0,-0.024208674638899492,0.002660095484120894,0.9818685481438649
2013-05-16,1,0.004383275240598261,0.004772215624231047,-0.023568797578679367,0.003155446033595055,0.9796770396810108
2013-05-20,1,0.0038934072766777608,0.0041538474797835345,-0.023568797578679367,0.0035655526238715252,0.9807113403620872
2013-05-22,1,0.0016604274780212774,0.0017311056209297778,-0.024058651429175945,0.0035655526238715252,0.9778564478922753
2013-05-24,1,0.0022587043980099794,0.0023105872741097447,-0.025904078713713096,0.002660095484120894,0.9765112228026944
2013-05-29,1,0.0011309143822445303,0.0011875840505092608,-0.024058651429175945,0.0028578530070574805,0.9767928367711224
2013-05-31,1,0.0010047410832300444,0.0010097460545668803,-0.022286426894609183,0.007048952639308351,0.9761945575285037
2013-06-04,-1,-0.0006376194962827873,-0.00044933871723902476,-0.02024622400258892,0.010133089770430662,0.978393942918248
2013-06-06,1,0.0004253284089422891,0.0005062229573790986,-0.022286426894609183,0.007508786020310628,0.9795354857299913
2013-06-10,-1,-0.0005564215809024269,-0.0003751076619579022,-0.025904078713713096,0.010519020514871453,0.9767788889346991
2013-06-12,-1,-0.00089364534106372,-0.000760857495431726,-0.02251226941793305,0.020505351623026323,0.9746664946273544
2013-06-14,1,0.0005554029380220604,0.0006006377358564539,-0.02706370178505009,0.010519020514871453,0.9749576826823529
2013-06-18,1,0.0020276423449953665,0.0023082680570096427,-0.02706370178505009,0.008644054650763597,0.9748365412128223
2013-06-20,-1,-0.0019320162457562794,-0.0017224192011713727,-0.019911807355974656,0.011439590111967522,0.9799499395739186
2013-06-24,-1,-0.0030567533533042875,-0.0027201194868330648,-0.014853821290800408,0.011439590111967522,0.9801167335434467
2013-06-26,-1,-0.0024642065331297773,-0.002137227393182929,-0.02299436491929844,0.010560037818470931,0.9755064450909453
2013-06-28,-1,-0.0029204089981676113,-0.0025022384879480625,-0.02175034847925726,0.008533377820653864,0.97684077945004
2013-07-02,-1,-0.003259643438165701,-0.002769470520280805,-0.02175034847925726,0.010560037818470931,0.9755956091491587
2013-07-05,-1,-0.004188753777304832,-0.003578030669608779,-0.014853821290800408,0.011439590111967522,0.9754582246914235
2013-07-09,-1,-0.002226138614705806,-0.0019234564106189059,-0.01984931362180573,0.010560037818470931,0.9765802874645205
2013-07-11,1,0.00034366924578625333,0.0003468618061923937,-0.0220104673665832,0.006671276978738721,0.9782290754614063
2013-07-15,-1,-0.0031576059782411816,-0.002605079581986698,-0.01984931362180573,0.006671276978738721,0.9805563173409613
2013-07-17,-1,-0.002846586003800675,-0.0023563386002775303,-0.021400932530609817,0.0042246827546908155,0.9799910554035393
2013-07-19,-1,-0.0026817590977419913,-0.002255485735021169,-0.021400932530609817,0.006671276978738721,0.977614979812855
2013-07-23,-1,-0.0029444580199297224,-0.002470554246668652,-0.023495718380392293,0.00987290346298032,0.9752117184981873
2013-07-25,-1,-0.007368667732619292,-0.006434548554319434,-0.017913526177964257,0.01606238170688526,0.9809906902830269
2013-07-29,-1,-0.007431880972209697,-0.006519421844315507,-0.017913526177964257,0.01606238170688526,0.9805704955120597
2013-07-31,-1,-0.006197442860188574,-0.005455099868992617,-0.021400932530609817,0.007619134382815837,0.9809189308261143
2013-08-02,-1,-0.005442042113017976,-0.004744195416277247,-0.023495718380392293,0.007619134382815837,0.9801149128369877
2013-08-06,-1,-0.006672831239293936,-0.005913948746440786,-0.018408609849233953,0.007619134382815837,0.9821751361265747
2013-08-08,-1,-0.007211063863254324,-0.006408974654125963,-0.01617756147470619,0.013854976730123992,0.9821041300408165
2013-08-12,-1,-0.006416270808156075,-0.005767140512549439,-0.01779828258004563,0.016633651995043797,0.9781682637015615
2013-08-14,-1,-0.008281201439016603,-0.007359975329387278,-0.014085478345128901,0.019626085525072706,0.977613185961798
2013-08-16,-1,-0.005592130625985704,-0.004950795746104164,-0.014085478345128901,0.0154237248616255,0.9803490116318486
2013-08-20,-1,-0.005193946501057128,-0.004612216851357629,-0.009493538390060861,0.0154237248616255,0.9809244689692531
2013-08-22,-1,-0.005336922174722146,-0.004711442339699236,-0.016270897385482243,0.0154237248616255,0.9801374008344463
2013-08-26,-1,-0.006372137547166716,-0.005556646636268609,-0.01807829031237379,0.01903600508433374,0.9790428328455464
2013-08-28,-1,-0.006933565802252371,-0.006138845119855358,-0.01305347303741079,0.01903600508433374,0.9798024485100716
2013-08-30,-1,-0.007511418139230481,-0.006600989670483429,-0.01305347303741079,0.0154237248616255,0.9816737396134996
2013-09-04,-1,-0.007468914903285668,-0.006563357082409329,-0.01305347303741079,0.0154237248616255,0.9802757500624216
2013-09-06,-1,-0.007605537448208308,-0.0066559073921461775,-0.018747547574213992,0.015401869682785466,0.9801069673409123
2013-09-10,-1,-0.007207515789619273,-0.006182410763406035,-0.019039378330774813,0.01132655289013662,0.9836079751153188
2013-09-12,-1,-0.006304899650506219,-0.0054629962786271035,-0.019039378330774813,0.01132655289013662,0.9833923132671601
2013-09-16,-1,-0.0026674967652447388,-0.002403642601400633,-0.019039378330774813,0.01132655289013662,0.9838378891869676
2013-09-18,1,0.0014637696990992925,0.0018716298264968255,-0.0222456595819348,0.01132655289013662,0.9830473538858878
2013-09-20,-1,-0.000744722351348358,-0.0006322110699068538,-0.019039378330774813,0.014738576602622625,0.9835717016068413
2013-09-24,1,0.0004871638398087324,0.0008380210517528158,-0.013592522171219854,0.01132655289013662,0.9844601137396886
2013-09-26,1,0.0008753337267725983,0.0013429900870254822,-0.013592522171219854,0.014738576602622625,0.9815063522275322
2013-09-30,1,0.0005140470093205861,0.0009554225717537173,-0.011349040131200508,0.014738576602622625,0.9824034998829465
2013-10-02,1,0.002042627142902432,0.0027856034180252084,-0.01166474969404974,0.011923962063849238,0.9824465753252343
2013-10-04,1,0.0016654851297716006,0.002474818700925584,-0.01121636594679309,0.011923962063849238,0.9833497232843557
2013-10-08,0,-0.00013452605708079565,0.0003633062186483625,-0.008469649914979782,0.015810853496525664,0.9836456657898984
2013-10-10,1,0.0011323980285045101,0.001848084710238717,-0.01166474969404974,0.01420884813144598,0.9832870345708717
2013-10-14,1,0.0007843907132935939,0.0012658164286857693,-0.01270493262079595,0.011405916083996884,0.9819663303793127
2013-10-16,1,0.0017100724299511645,0.0024333830226754114,-0.01166474969404974,0.011405916083996884,0.9841201618973592
2013-10-18,1,0.0021520478972755644,0.0028260979769217233,-0.01166474969404974,0.01350107803998517,0.9834893635441381
2013-10-22,1,0.0018737430035449553,0.0024752014791128538,-0.00911453047210908,0.01350107803998517,0.9837825530052173
2013-10-24,1,0.003917271477023058,0.004697326630265364,-0.00911453047210908,0.01350107803998517,0.9864420337145013
2013-10-28,1,0.005453764886081594,0.0065654856333131105,-0.009411848640103545,0.01350107803998517,0.9858044672576277
2013-10-30,1,0.005016433566403517,0.006015238231007355,-0.00840778818226282,0.013855274757890876,0.9845211969091211
2013-11-01,1,0.0036202266859661175,0.004365454035275775,-0.00840778818226282,0.013855274757890876,0.9850063625920705
2013-11-05,1,0.0038920318885856723,0.0047179045191894425,-0.006034969111129978,0.01350107803998517,0.9857431926828422
2013-11-07,1,0.004358359949363691,0.005323041880121086,-0.006034969111129978,0.011280548792498799,0.9855613964756765
2013-11-11,1,0.0011180768231813312,0.001408226477405248,-0.004816468670424743,0.011280548792498799,0.9879551294573884
2013-11-13,1,0.0015291779460105573,0.0018356315274550114,-0.005025948638163911,0.010098939232501223,0.9875808687127796
2013-11-15,1,0.004136823877875582,0.004860422558010397,-0.005025948638163911,0.006154369643540016,0.9894860770030312
2013-11-19,1,0.004201615447842827,0.004926345091628658,-0.0050464949157718935,0.006154369643540016,0.9888329265547342
2013-11-21,1,0.004724287476682595,0.0055238261431071346,-0.0061305287362482044,0.006154369643540016,0.9881690811077497
2013-11-25,1,0.003782691959882065,0.0044072511728634215,-0.0050464949157718935,0.008828466179184306,0.9867112689652298
2013-11-27,1,0.005489802343901115,0.006415345579189591,-0.004823317429627404,0.008828466179184306,0.9882521837567079
2013-12-02,1,0.006446155757691179,0.0076484035611135166,-0.003923011607753442,0.010901736526187596,0.9891500538193199
2013-12-04,1,0.005370153427594239,0.0063218145366357135,-0.0027363964391355234,0.010901736526187596,0.9889888016216922
2013-12-06,1,0.005069372752998182,0.005996318345886461,-0.005899958879268348,0.00916874987185651,0.9887429875566762
2013-12-10,1,0.005340537497629061,0.006293802123000524,-0.005899958879268348,0.012012561991193237,0.9882044431667073
2013-12-12,1,0.0048967623439092655,0.005788942855129362,-0.005899958879268348,0.012379628762756226,0.9871455198292206
2013-12-16,1,0.002175652637537169,0.0023877949344100584,-0.005899958879268348,0.012379628762756226,0.9871081445285947
2013-12-18,1,0.002621512594286116,0.0028571218963736452,-0.00901320985381589,0.012012561991193237,0.9870496837733658
2013-12-20,1,0.0031368107570769748,0.0034793714957300913,-0.008693360384584629,0.012012561991193237,0.986989152325531
2013-12-24,1,0.005776749725548815,0.006536017166995391,-0.01104422486188536,0.011455270493573325,0.9869507205418542
2013-12-27,1,0.004771585272918939,0.005246254338247384,-0.01104422486188536,0.011455270493573325,0.9853157646497386
2013-12-31,1,0.004160799932546506,0.004500586715189273,-0.01104422486188536,0.011545244880562359,0.9849849811279815
2014-01-03,1,0.0034735546672900026,0.0037001094712120672,-0.011265290444046162,0.013586544091187995,0.9834388002642422
2014-01-07,1,0.0014075775084432295,0.001527832497915483,-0.010388284052566128,0.013586544091187995,0.9837876131461376
2014-01-09,1,0.0031115996388801277,0.003369147244002307,-0.016485022689001167,0.017798104788932272,0.9818765400546473
2014-01-13,1,0.0021089162600597304,0.00222628449308793,-0.016485022689001167,0.016777768929225945,0.982736035000927
2014-01-15,1,0.002170737764438704,0.002293899571915265,-0.016485022689001167,0.016777768929225945,0.9824413184645833
2014-01-17,1,0.0015082721129090803,0.0015147666634137166,-0.012714726149464603,0.016777768929225945,0.9827650405388099
2014-01-22,1,0.001078391006772932,0.001209328893533069,-0.012714726149464603,0.016777768929225945,0.9831424375834246
2014-01-24,-1,-0.0011111466023725736,-0.0007074296029192103,-0.008047323804391321,0.01748658232997196,0.9842832081600789
2014-01-28,1,0.0001685070752614037,0.0004342836636014268,-0.007798893013614559,0.01748658232997196,0.984654339310439
2014-01-30,1,0.00031440062588783554,0.0005604830635927789,-0.01213916020542267,0.01677372273645961,0.9847948764494255
2014-02-03,1,0.0014612800890027803,0.0015202589044694618,-0.009303767176068322,0.013683832584010795,0.9871165330139487
2014-02-05,1,0.0008552263429990128,0.0009356347586389584,-0.009303767176068322,0.013683832584010795,0.9875316233878515
2014-02-07,1,0.0019823614306519175,0.002113955988725374,-0.011844492283458342,0.011601497469491361,0.9884715963489598
2014-02-11,1,0.003339057428394112,0.003748640861420731,-0.011844492283458342,0.01037425563987528,0.9891077578283096
2014-02-13,1,0.0019211657924900864,0.002030742689567554,-0.012945795812702957,0.006126764362952208,0.9886155334605609
2014-02-18,1,0.0015273800512072408,0.00158904041758735,-0.012945795812702957,0.006787206922801383,0.9890537742165347
2014-02-20,1,0.0018664433704731677,0.001949551449017691,-0.012945795812702957,0.005272441932163017,0.9893935509335641
2014-02-24,1,0.0017422343337815153,0.0017546067547655213,-0.013362460799643245,0.003942852583438001,0.9885873647713803
2014-02-26,1,0.003145954007298504,0.003383424491061105,-0.013362460799643245,-0.0007025248012057171,0.9887094743155488
2014-02-28,1,0.001549051898178437,0.0016110394383776776,-0.01306414227526088,0.003942852583438001,0.9893992951247406
2014-03-04,1,5.115236202995078e-06,0.0003348163470104238,-0.01306414227526088,0.0061110657287500115,0.9891651135212767
2014-03-06,0,-0.00013201888616149718,0.00017914312519944151,-0.01306414227526088,0.0061110657287500115,0.9897919265807956
2014-03-10,-1,-0.001208450386274644,-0.0007852109084065997,-0.012436931798869457,0.0061110657287500115,0.9896365765954757
2014-03-12,-1,-0.0017638458761846441,-0.001264476044648419,-0.011429864019634002,0.0061110657287500115,0.9899285664718827
2014-03-14,-1,-0.0024442923920910105,-0.0019128037073617324,-0.011407281243912156,0.0061110657287500115,0.9900339507003965
2014-03-18,-1,-0.002048334676981008,-0.0015514419499979416,-0.011407281243912156,0.005027928275501235,0.9907748542499244
2014-03-20,-1,-0.000797265539621095,-0.0005807453829746039,-0.011407281243912156,0.005027928275501235,0.9904383809049191
2014-03-24,-1,-0.0018241737449488915,-0.001496438415614923,-0.01028120634749375,0.005027928275501235,0.9916015719607199
2014-03-26,-1,-0.0024744193721422635,-0.002070065807929892,-0.006530389732429063,0.006809853314111346,0.9906823887863687
2014-03-28,-1,-0.0017728081252184717,-0.0014140826119310298,-0.010469289687172263,0.0034748077740791488,0.9903440093499006
2014-04-01,-1,-0.0007563314896690596,-0.000505387898110937,-0.010469289687172263,0.003247698170346022,0.9915029881896095
2014-04-03,-1,-0.00114517540465436,-0.0008201506384405404,-0.010469289687172263,0.004059045417098045,0.9908901866101606
2014-04-07,-1,-0.0033881904809232284,-0.0027555494650004743,-0.010400139781454133,0.004059045417098045,0.9915522957456462
2014-04-09,-1,-0.002494986618205464,-0.001998293360649445,-0.010400139781454133,0.003824608007303659,0.9919695361884958
2014-04-11,-1,-0.0023430905763995175,-0.0019635423543369473,-0.006530389732429063,0.007912318970770405,0.9907854384168004
2014-04-15,-1,-0.0023768263337904413,-0.0019928682987423734,-0.010115632959390847,0.009036395896720771,0.9894492454659322
2014-04-17,-1,-0.0020189899530364437,-0.0017003701846801562,-0.006593084178988567,0.007912318970770405,0.9899614325328355
2014-04-22,-1,-0.002476298563301888,-0.0020788367064712085,-0.008972511382604395,0.007912318970770405,0.9897072735803094
2014-04-24,-1,-0.0013482090981325353,-0.001128394539875211,-0.008972511382604395,0.009036395896720771,0.9892528725679343
2014-04-28,-1,-0.0032607703263567434,-0.002795056724864449,-0.003935120722925594,0.010107986164575053,0.9889443289144986
2014-04-30,-1,-0.0024154021457544433,-0.00204496843576254,-0.003935120722925594,0.010107986164575053,0.9897385348015036
2014-05-02,-1,-0.0023965252161732764,-0.0020013645570300235,-0.005316904415435607,0.0094304915509262,0.9901680046893995
2014-05-06,-1,-0.0031110995488871857,-0.0026414474170535444,-0.0038892936549157395,0.0094304915509262,0.9905656165867632
2014-05-08,-1,-0.0034916059457285016,-0.0029678751926039268,-0.002530857040808543,0.012873692714718062,0.9888995870274596
2014-05-12,-1,-0.0021330471988663512,-0.0017580632481878288,-0.004108799213068109,0.011611568157186012,0.9910163160420097
2014-05-14,-1,-0.0024053166981590395,-0.002032946013905469,-0.004108799213068109,0.006828993968405302,0.991449178593121
2014-05-16,-1,-0.0018725840320439808,-0.0015801121811363193,-0.004420503487965759,0.007843133173245437,0.99129397574084
2014-05-20,-1,-0.0009664066706662705,-0.0008698527400247829,-0.004283022283936195,0.007843133173245437,0.9913749529108372
2014-05-22,1,0.00047719607149959063,0.0005904636491878121,-0.004283022283936195,0.00548056999019182,0.9926743914136034
2014-05-27,1,0.0015470060408272368,0.001830974642664906,-0.004283022283936195,0.00539931841285253,0.9934687329319667
2014-05-29,1,0.0008724354928772277,0.0010255146656863133,-0.0049815943214554445,0.00539931841285253,0.993272751543271
2014-06-02,1,0.00047193315820792474,0.0005188898749198684,-0.004283022283936195,0.006941666518146263,0.9931302990387313
2014-06-04,1,0.0007691328365570495,0.000902696320110026,-0.0049815943214554445,0.008660024499948385,0.9922533800701238
2014-06-06,1,0.0010995597804485272,0.0012180989964446056,-0.005449260551059581,0.00539931841285253,0.992614099094327
2014-06-10,1,0.001163381341384414,0.0013137897151726473,-0.005449260551059581,0.004661566600976231,0.9929877821781444
2014-06-12,1,0.00014834510881020082,0.00015067113710853444,-0.005782810428880549,0.004661566600976231,0.9934868108434464
2014-06-16,1,0.0006774953619892255,0.0007916776187945674,-0.005549312447604363,0.0036814985542822144,0.9939352095134499
2014-06-18,-1,-0.0005361541804541194,-0.00039701007006803703,-0.00580597070807458,0.004909146597192356,0.9923945227075422
2014-06-20,1,0.0007412190873954352,0.0008484152930853991,-0.007126482275812243,0.003257301438375458,0.9921962406373749
2014-06-24,1,0.0007705261519238278,0.000871303417234279,-0.007126482275812243,0.005848175312929735,0.9914180614128227
2014-06-26,1,0.0006496690267451156,0.0007270682773915316,-0.010286285638050598,0.005848175312929735,0.9889242346762278
2014-06-30,1,0.0011953856940824076,0.0013541438134889333,-0.01054274718413277,0.002137579781898577,0.9884882837847192
2014-07-02,1,0.0015208121631278995,0.0017401714581333598,-0.014253800281878969,0.001238830941374734,0.98749986088449
2014-07-07,1,0.0011243991541349035,0.0013036874264384553,-0.013403726062428985,0.002137579781898577,0.9881710885635149
2014-07-09,1,0.0013214005296223977,0.001541575793892542,-0.013403726062428985,0.0006367950400771568,0.9876089382471328
2014-07-11,1,0.0007243296893703079,0.0008396423805732058,-0.013403726062428985,0.0037528039497854273,0.9870358922739599
2014-07-15,1,0.00115474165756249,0.001376267067130451,-0.013403726062428985,0.0018424188295539572,0.9865881295729011
2014-07-17,1,0.0009089953834171879,0.0011268516384286041,-0.01054274718413277,0.00730150994058343,0.9873271573368709
2014-07-21,1,0.001160275427276623,0.0014816805810916253,-0.009155514669136207,0.00838738683109791,0.9864718080915832
2014-07-23,1,0.002301603574056668,0.002748974721551136,-0.009155514669136207,0.00730150994058343,0.9868327374652794
2014-07-25,1,8.635884210572676e-05,0.00023263215640504856,-0.008688750445704396,0.00730150994058343,0.9900809569694122
2014-07-29,-1,-0.00041894150776026107,-0.00035501223009548036,-0.0036467125623099927,0.00730150994058343,0.990921513117703
2014-07-31,-1,-0.002440391432802182,-0.002207850104407715,-0.0029274963584337314,0.00730150994058343,0.9920427488007393
2014-08-04,-1,-0.0020131247647770098,-0.001824647851531972,-0.0034701525627015093,0.006927050090735768,0.9915594170482868
2014-08-06,-1,-0.002979709284097965,-0.0026252164940005055,-0.0034701525627015093,0.009186444266772202,0.9889361190456862
2014-08-08,-1,-0.0011079545064228784,-0.0010063906380015425,-0.0029885884301165226,0.006927050090735768,0.9906815094246981
2014-08-12,-1,-0.0020662762818414817,-0.0018418565536446156,-0.001178038055724138,0.009186444266772202,0.9893871858250638
2014-08-14,-1,-0.0012916792100153725,-0.0011119489452135671,-0.002090162319778302,0.005734724381570191,0.9904814022394511
2014-08-18,-1,-0.0008932778170007145,-0.0007291146808294795,-0.001178038055724138,0.005734724381570191,0.991717820538606
2014-08-20,1,0.00015361015731950065,0.00016621036749945485,-0.002090162319778302,0.005734724381570191,0.9907240138635031
2014-08-22,1,0.0006380766214843898,0.0007798031741873559,-0.014021904787506817,0.005734724381570191,0.9889057219368891
2014-08-26,1,0.0006833768313405221,0.0008340813150760808,-0.014021904787506817,0.005734724381570191,0.9885821598556118
2014-08-28,1,1.4557335617511846e-05,2.6890159591491256e-05,-0.015496952529889876,0.005734724381570191,0.9877118378803194
2014-09-02,-1,-0.00019103949105126104,-0.00017804200460070255,-0.014021904787506817,0.004617410435420086,0.9882656607738658
2014-09-04,-1,-0.0011503912501224867,-0.0009761998350503871,-0.009695125120330605,0.004617410435420086,0.9905284346250323
2014-09-08,-1,-0.0011098572813144111,-0.000944590510486288,-0.009695125120330605,0.008920681038250184,0.9895587536615766
2014-09-10,-1,-0.00014003310408239333,-8.560463977679922e-05,-0.009695125120330605,0.008920681038250184,0.9899750732693121
2014-09-12,-1,-0.0008924683805216632,-0.0007441488678607781,-0.014311777463199346,0.008920681038250184,0.9875369320178781
2014-09-16,-1,-0.0003152773809551738,-0.00026222433136984007,-0.01639863540634034,0.010214126758394117,0.9857531452360877
2014-09-18,-1,-0.0010568104607182353,-0.0008382930374997733,-0.014311777463199346,0.010214126758394117,0.9857616882887935
2014-09-22,-1,-0.002413828735975424,-0.0020561712190877916,-0.009130948492511172,0.011302795922159775,0.9838202374658019
2014-09-24,-1,-0.002033584093246549,-0.0017492759065801324,-0.009130948492511172,0.013990702106437245,0.983040323771298
2014-09-26,-1,-0.0035060288297845297,-0.003006062547276856,-0.005478321803269088,0.017290027570325554,0.9827709616908749
2014-09-30,-1,-0.004119256698949147,-0.003536436281093778,-0.005147833460022267,0.017290027570325554,0.9825365699614409
2014-10-02,-1,-0.0029446094692124314,-0.0025709202042797186,-0.007988965050859463,0.017290027570325554,0.9831453052606473
2014-10-06,-1,-0.002046937714100703,-0.001769102223405033,-0.007988965050859463,0.017290027570325554,0.9836145649145563
2014-10-08,-1,-0.001741645679625372,-0.0015129635438729016,-0.009367614368424858,0.017290027570325554,0.9833369946563133
2014-10-10,-1,-0.004934621504055304,-0.004309902193132767,-0.00584424427530906,0.018727439998788148,0.983529466356515
2014-10-14,-1,-0.004007662416436444,-0.0035532263006363483,-0.002076499331395423,0.018983788465302714,0.9830129188884332
2014-10-16,-1,-0.002154510871645916,-0.0019825839579662007,-0.002076499331395423,0.01774971217039514,0.9850668259916183
2014-10-20,1,0.0008181455520360991,0.001012341412842269,-0.002076499331395423,0.017287836061598245,0.9898811561989018
2014-10-22,1,0.0015453229683111153,0.001828868682560286,-0.00584424427530906,0.016103927280921762,0.9894460527420516
2014-10-24,1,0.002123310265800541,0.0024778621689040287,-0.00584424427530906,0.016186345279152893,0.9889162205590613
2014-10-28,1,0.0023197000778274303,0.0027570587364008628,-0.0052964505621779685,0.016186345279152893,0.9890224442144242
2014-10-30,1,0.0019129660813973978,0.002298361109216246,0.00035967817355501194,0.016186345279152893,0.989495985634437
2014-11-03,1,0.0019172449221711596,0.0022446758043409933,-0.00138425242892635,0.016186345279152893,0.989900102380627
2014-11-05,1,0.0015637017528174302,0.0018394651901301432,-0.00138425242892635,0.016186345279152893,0.9897299618800307
2014-11-07,1,0.0028251875957458874,0.0032644691353148477,-0.006242362277414183,0.012361387054287088,0.9903907621251989
2014-11-11,1,0.004583378683723133,0.0052686937011261654,-0.00852276061249043,0.005861506818844362,0.9899655458464997
2014-11-13,1,0.004662576920140632,0.005385111732028139,-0.00852276061249043,0.0054760804204778395,0.9896977508596703
2014-11-17,1,0.00480948527750125,0.005542724880582229,-0.009893803668537263,0.0032453610870480116,0.9882784749209946
2014-11-19,1,0.005040515612897464,0.0058364888136059005,-0.00852276061249043,0.007445893197039705,0.9875386133897681
2014-11-21,1,0.006301553881666189,0.007275290083026993,-0.00852276061249043,0.0020435072611739557,0.9870962521536075
2014-11-25,1,0.005561521499779919,0.0064011625676806475,-0.00852276061249043,0.0023321290787389334,0.9882493768652589
2014-11-28,1,0.005843178400238143,0.006721599359186212,-0.00852276061249043,0.0023321290787389334,0.9880862156561921
2014-12-02,1,0.005578484567920813,0.006387199299398896,-0.00852276061249043,0.006759710983164437,0.9886851317375402
2014-12-04,1,0.0055292640423224865,0.006322641550219794,-0.009961473960966133,0.003461817820996011,0.9879373520825399
2014-12-08,1,0.004535342217239782,0.005170485799844709,-0.009961473960966133,0.006759710983164437,0.9869557967092334
2014-12-10,1,0.0028091332251104686,0.0031829248788176378,-0.008344934518098715,0.0088226481353486,0.9879412417126066
2014-12-12,1,0.002902272122773689,0.003355377914906553,-0.008344934518098715,0.0088226481353486,0.9875239859105422
2014-12-16,1,0.000958747261694982,0.0010218669528296361,-0.003404939424503855,0.0088226481353486,0.9856221982960451
2014-12-18,1,0.002646026546369704,0.0028881827310741313,-0.009973002119035675,0.007289606116325004,0.9853919189308058
2014-12-22,1,0.0015911413524456772,0.00159132717513203,-0.009973002119035675,0.008555273791114494,0.9849054517772654
2014-12-24,1,0.0016829057094204518,0.0017048022171658765,-0.011583380676973894,0.010363576244430421,0.983233462384082
2014-12-29,1,0.001487483958431606,0.0015129058014643345,-0.01259521739083491,0.010363576244430421,0.9818784707303725
2014-12-31,1,0.0022532402350477782,0.0023766974017039076,-0.015468444081645862,0.014657485392995183,0.9768236466111958
2015-01-05,1,0.001046056426906371,0.001098268392266967,-0.013482313278455345,0.025269021661206422,0.976862316927655
2015-01-07,1,0.0023454260902015084,0.0025016619103609868,-0.013372603048970614,0.024064149640069483,0.9784419766621971
2015-01-09,1,0.004376217137929752,0.004842777476921738,-0.013372603048970614,0.024064149640069483,0.9783206009091205
2015-01-13,1,0.004256674215239106,0.004730848772534153,-0.01279274590461128,0.024064149640069483,0.9781533655344933
2015-01-15,1,0.0016081630373023013,0.0017357753025801599,-0.011546810600478984,0.024064149640069483,0.9800200677196839
2015-01-20,1,0.001249780467064288,0.0013234534345288617,-0.009738455923879155,0.021321925851888905,0.9824432073980249
2015-01-22,1,0.0015401617691718804,0.001647042721371414,-0.009738455923879155,0.021321925851888905,0.9830185552141016
2015-01-26,1,0.0016627843445162183,0.0017615624685786478,-0.007894984846481445,0.021321925851888905,0.9829980750327588
2015-01-28,0,-7.632592463030637e-05,0.00010711019021766572,-0.007894984846481445,0.021321925851888905,0.9832272647592648
2015-01-30,0,-0.00018025845924969966,1.0362025589343775e-05,-0.006189913419427224,0.020252642346281054,0.9883948430815347
2015-02-03,1,0.0012635796668472796,0.001287212716942144,-0.007894984846481445,0.017781340844479084,0.9873650695547115
2015-02-05,1,0.0016810060442295058,0.0017209208003181632,-0.009815506955344869,0.007294412498804294,0.9862647522695952
2015-02-09,1,0.002929919399003154,0.003172834123142708,-0.012166002253741528,0.0045789959025126165,0.9865577331875369
2015-02-11,1,0.0030013622131224546,0.003263619614744523,-0.009815506955344869,0.005428632320066503,0.9880480165537537
2015-02-13,1,0.0026578122073714003,0.002781224025822901,-0.011050000610291127,0.0043464245156126,0.988312248822738
2015-02-18,1,0.002129623392159755,0.0021714073879157874,-0.011050000610291127,0.005428632320066503,0.9879770805264396
2015-02-20,1,0.0014390272956821307,0.0015339474149657266,-0.011050000610291127,0.00613942662756473,0.9873539519510319
2015-02-24,1,0.0015825345533863745,0.0016946185996190252,-0.011050000610291127,0.00613942662756473,0.9877168120478136
2015-02-26,1,0.0004245055442022417,0.0006725779090170386,-0.010625816952261728,0.00613942662756473,0.9881430163134497
2015-03-02,1,0.000298236778010992,0.0005424683492364372,-0.010625816952261728,0.01703693673647621,0.9866516224384698
2015-03-04,-1,-0.00038565554183353533,-7.884668413483216e-05,-0.009659993673065264,0.00892992738799571,0.9882083125298883
2015-03-06,-1,-0.0040342169939198355,-0.003150525227128959,-0.006611021260437137,0.017486254013120046,0.9890471536138218
2015-03-10,-1,-0.004612556237568063,-0.0036549525648923065,-0.006611021260437137,0.017486254013120046,0.9881373399910598
2015-03-12,-1,-0.0039448839884797405,-0.0031002541301305294,-0.007680032195261273,0.017486254013120046,0.9888879893217567
2015-03-16,-1,-0.0025546530122715193,-0.0020292944183866665,-0.006051587743477286,0.017486254013120046,0.9886709126933115
2015-03-18,-1,-0.0018118051722391954,-0.001404977939444426,-0.007680032195261273,0.015057358705975576,0.9883998641053887
2015-03-20,-1,-0.0007109833936292117,-0.00046169027358048287,-0.009659993673065264,0.01363511927021598,0.9886539262009696
2015-03-24,-1,-0.000785059885329758,-0.0005038201917803672,-0.010285997289976803,0.01363511927021598,0.9882638944672668
2015-03-26,-1,-0.0019315889082811234,-0.0014940261145017053,-0.010285997289976803,0.01363511927021598,0.9849518147043813
2015-03-30,0,-0.00018574261597170281,2.7264566689210574e-05,-0.012586332828736616,0.00829543936759583,0.9861640367288991
2015-04-01,-1,-0.0008690098045656332,-0.0005512414057402536,-0.014630546097115671,0.00829543936759583,0.9853633976413078
2015-04-06,1,0.00045358676480863674,0.0005496753059819949,-0.014630546097115671,0.00829543936759583,0.9848425036163908
2015-04-08,1,0.001047438992638484,0.0011130552699250298,-0.012586332828736616,0.004519998393091527,0.9860810056654844
2015-04-10,1,0.0005935056127703965,0.0006060679504266261,-0.012586332828736616,0.00829543936759583,0.9857384963397686
2015-04-14,1,0.0009934552481137345,0.0010440882105455431,-0.013212562358279776,0.005304237507367083,0.9858109432474785
2015-04-16,1,0.0005967639557391516,0.000602811540083369,-0.012586332828736616,0.005304237507367083,0.986745235570643
2015-04-20,1,0.0004942001066084026,0.0005417798178245136,-0.008075821277227283,0.0075635078834933745,0.9870570704383962
2015-04-22,-1,-7.285936141349076e-05,-2.9800855613096343e-05,-0.0054967468160109605,0.007517925029725824,0.9883470496927806
2015-04-24,-1,-0.0025731840979250956,-0.0022538493525092857,-0.006129678656689284,0.005310818969915134,0.9917817397613063
2015-04-28,-1,-0.002796645006853002,-0.002456802790600058,-0.006129678656689284,0.005310818969915134,0.9918587813285146
2015-04-30,-1,-0.003888129285117843,-0.003427758003825889,-0.006129678656689284,0.005310818969915134,0.9922768233424095
2015-05-04,-1,-0.0038625767729936807,-0.003369658742414106,-0.005724027549618188,0.004599500561817231,0.9929976993636986
2015-05-06,-1,-0.004731772839073884,-0.004073512267062514,-0.007473189269742244,0.005211137993222865,0.991994356893396
2015-05-08,-1,-0.0042925157025615526,-0.0036615275789329497,-0.010468571620791189,0.0037916128428733312,0.9928330177051694
2015-05-12,-1,-0.005209906175885635,-0.0044367350428506916,-0.006962716958036632,0.005211137993222865,0.9924836423893244
2015-05-14,-1,-0.003737304777516626,-0.0032396370707344748,-0.006962716958036632,0.005211137993222865,0.9924477134835834
2015-05-18,-1,-0.0031485676219414884,-0.002717372535692747,-0.006962716958036632,0.004946368717170244,0.9930976488808223
2015-05-20,-1,-0.0026478179627632196,-0.0022816957239867727,-0.006962716958036632,0.004656077138398716,0.993244513338797
2015-05-22,-1,-0.0030978348495853585,-0.002694976895003258,-0.003746277347499513,0.0059730567897984975,0.9917435136807053
2015-05-27,-1,-0.0033984437482902216,-0.0029892107579156234,-0.0005293675154991482,0.006777083125381245,0.991170451490731
2015-05-29,-1,-0.004178219786279006,-0.003639116716155709,-0.0005293675154991482,0.006777083125381245,0.9910405727636897
2015-06-02,-1,-0.0031455956468225106,-0.00279360597243585,-0.0005293675154991482,0.006777083125381245,0.9908993932487841
2015-06-04,-1,-0.0024263936147656115,-0.0022330017275725427,0.0015600981466283967,0.007935814579450919,0.991105439328506
2015-06-08,-1,-0.0028930724012081292,-0.0026105760186479333,0.0018034127269959033,0.011745035493718178,0.9902798046940913
2015-06-10,-1,-0.003167796315188113,-0.002778710578156138,0.0007299437411025199,0.007935814579450919,0.9899215029376994
2015-06-12,-1,-0.003039180309929998,-0.0026518678793431747,0.0007299437411025199,0.011745035493718178,0.9893974389539163
2015-06-16,-1,-0.002659720315833695,-0.0023284325304365567,-0.0007306311601220833,0.011745035493718178,0.9888605609901473
2015-06-18,-1,-0.0020914456311498884,-0.0018492372638237663,-0.005970979755815776,0.011745035493718178,0.9887847354078745
2015-06-22,-1,-0.001516605583888914,-0.0012943641307411355,-0.009247613434391058,0.006091986700848156,0.9899976627991033
2015-06-24,-1,-0.000999539167404132,-0.0008418153033215232,-0.009247613434391058,0.006091986700848156,0.9895172785968414
2015-06-26,-1,-0.0005996835676493144,-0.0005307025803609106,-0.018226519824527686,0.006091986700848156,0.9882753427382907
2015-06-30,-1,-0.0007271802037628376,-0.0006778018890096804,-0.009247613434391058,0.010781666842741322,0.9877757642340161
2015-07-02,1,0.0007144187791813331,0.0009290895632412483,-0.009247613434391058,0.014737042312091012,0.9876933893092157
2015-07-07,1,0.0014290879142661581,0.0017492469649526199,-0.01802669086920735,0.01091287196543926,0.9873839071149437
2015-07-09,1,0.0009798279199750685,0.0012876204567410995,-0.017989481388518268,0.01091287196543926,0.9875221283955489
2015-07-13,1,0.0016260640469194197,0.002007765081076387,-0.017989481388518268,0.01091287196543926,0.987230405961899
2015-07-15,1,0.0013350914924973884,0.0016855046105039542,-0.011243315440415081,0.015235484114172165,0.9869470161249313
2015-07-17,1,0.0012038098066934077,0.0015892451195491286,-0.00858064781312564,0.016577271788946583,0.9865478141475263
2015-07-21,1,0.00020929699976888246,0.00041819331224404613,-0.003625437766510262,0.01977038771358836,0.9858367448853795
2015-07-23,1,0.0009713425388097174,0.0012617403234071426,-0.00858064781312564,0.016577271788946583,0.9857951547854373
2015-07-27,-1,-0.000266320018627352,-0.000150049571817185,-0.011313403717072713,0.016577271788946583,0.9828720197440125
2015-07-29,1,0.00011824472570137756,0.00018856138555077367,-0.018236955699180248,0.016577271788946583,0.9803046806091696
2015-07-31,1,0.0009096255220250178,0.0010709035210331485,-0.018236955699180248,0.019780652934242943,0.9801028573351876
2015-08-04,1,0.0005406836644515655,0.0006741759284868977,-0.019440002877761108,0.019780652934242943,0.9786699406999567
2015-08-06,-1,-0.00038119069298990125,-0.0003762434961187503,-0.0121163519728684,0.021682042670742235,0.9778124386074672
2015-08-10,1,0.0003288501266738317,0.0004359365884137665,-0.02351516071254369,0.022712459044742245,0.9764811746344823
2015-08-12,1,0.0017198426691806888,0.002050450662810858,-0.02351516071254369,0.022712459044742245,0.9775265909653265
2015-08-14,1,0.0022447098940340613,0.002657956447159348,-0.02351516071254369,0.02211671857125963,0.9776568891948866
2015-08-18,1,0.0029059390933615092,0.00337297139765347,-0.02351516071254369,0.02022981458877706,0.9786736341681944
2015-08-20,1,0.0029774971336584003,0.0035225641342750205,-0.02433289106480061,0.02022981458877706,0.9784059699529464
2015-08-24,1,0.0004939196381387302,0.0007012116488001951,-0.01629671299502533,0.02022981458877706,0.9807349707418103
2015-08-26,1,0.0011854072097509261,0.00151742359700418,-0.011336361759553677,0.015661138038976702,0.9838310182612673
2015-08-28,1,0.00201518776197194,0.002448335249489266,-0.01629671299502533,0.012755568885346132,0.9828111391016923
2015-09-01,1,0.0012930130519681784,0.0016258503778831522,-0.01430647796953077,0.011511303845207023,0.9840979724278903
2015-09-03,1,0.0026759706297247174,0.0032092178516361794,-0.01430647796953077,0.00865265158603748,0.9852195064970168
2015-09-08,1,0.002779247139554856,0.003317122873657664,-0.01430647796953077,0.00865265158603748,0.9847806613724543
2015-09-10,1,0.002082880546848716,0.002496040289948801,-0.01430647796953077,0.011241060061829311,0.9846187145921529
2015-09-14,1,0.002263623615095298,0.0026796978439442946,-0.01430647796953077,0.010517940515743932,0.9855495533611489
2015-09-16,1,0.0012827792444489812,0.0014494624973030337,-0.019576235135023955,0.010517940515743932,0.9828086462561737
2015-09-18,1,0.0007089990574955952,0.0007824048916334136,-0.01672209329646663,0.010654227163312114,0.983976087632869
2015-09-22,-1,-0.0012405458762535272,-0.0010273262407641264,-0.008270958832726638,0.011649920004533857,0.9851652292509149
2015-09-24,-1,-0.000791532756268623,-0.0006453947986768598,-0.01672209329646663,0.010654227163312114,0.9829106976500833
2015-09-28,-1,-0.002020592636034807,-0.001728003778063507,-0.010615603923448314,0.010654227163312114,0.9843602033659452
2015-09-30,-1,-0.0018808001330480166,-0.0016334821994099088,-0.007956575264940282,0.011649920004533857,0.9841571185372577
2015-10-02,-1,-0.0016637610050609269,-0.0014237861539769998,-0.011047557329979694,0.01226036848117534,0.9828582414881479
2015-10-06,-1,-0.0008893532840488583,-0.0007422304901483895,-0.007956575264940282,0.010654227163312114,0.9855127880058143
2015-10-08,1,0.0002541269225316684,0.0002643708057505611,-0.009133043493996379,0.005332777837108177,0.9861603028216289
2015-10-12,1,0.0002503397880524724,0.00027699304001367283,-0.01480289029398774,0.005332777837108177,0.9848415952748586
2015-10-14,-1,-0.0018965433431853804,-0.0016434783250985328,-0.009133043493996379,0.011636296912158079,0.9852702752739174
2015-10-16,-1,-0.0018984002475001163,-0.0016176990239487087,-0.012094886013762502,0.010732445796329714,0.9842365280519558
2015-10-20,-1,-0.0016189435217911076,-0.0013533400445325874,-0.012094886013762502,0.010732445796329714,0.9831334525857082
2015-10-22,-1,-0.003667063197988014,-0.0031635036735007827,-0.010699624953415044,0.01504588329643343,0.9844682660590255
2015-10-26,-1,-0.003766766719798091,-0.003239188241874398,-0.010699624953415044,0.01504588329643343,0.984596450695821
2015-10-28,-1,-0.0034782377539028914,-0.0029728233731875476,-0.010699624953415044,0.013272163625301495,0.9844571563992754
2015-10-30,-1,-0.0033864498241541023,-0.002909317241512075,-0.00945672072459944,0.012524541447791767,0.9863313593475113
2015-11-03,-1,-0.0029795980877287357,-0.0025639429390470663,-0.010699624953415044,0.012524541447791767,0.9851606215081246
2015-11-05,-1,-0.0033907329370026188,-0.0029365707869676155,-0.01039827580613359,0.013272163625301495,0.983803341496147
2015-11-09,-1,-0.0041916830371911285,-0.0036602942921215714,-0.009356271008838955,0.013272163625301495,0.9834871823258595
2015-11-11,-1,-0.0018802506123822144,-0.0016743325011795785,-0.01039827580613359,0.009620520636654629,0.9841536280901739
2015-11-13,-1,-0.0027300783597278785,-0.0024494023327451568,-0.013987836108639896,0.009620520636654629,0.9833158250843539
2015-11-17,-1,-0.0014591098527244478,-0.0013255164752975174,-0.013987836108639896,0.012242939663854441,0.9829848767439944
2015-11-19,-1,-0.000569347278989195,-0.0005167762238105112,-0.02426574372375298,0.00960104318131891,0.983013765989162
2015-11-23,1,7.16973040456822e-05,0.00013186048076561897,-0.02426574372375298,0.012242939663854441,0.9820775838946117
2015-11-25,1,0.0010892824431697774,0.0013151729246468295,-0.02426574372375298,0.00960104318131891,0.9821658681346059
2015-11-30,1,0.00029771037100858005,0.0003712039379932308,-0.02426574372375298,0.00960104318131891,0.9823895098380915
2015-12-02,1,7.598501286666063e-05,0.00015780827392110737,-0.01715302667263205,0.008882699046525652,0.9832960391774719
2015-12-04,1,0.00045176243750467596,0.0005639622148192911,-0.02426574372375298,0.008157833623108662,0.9828702639151409
2015-12-08,-1,-0.0008295410983867183,-0.0007506736474910368,-0.02426574372375298,0.008157833623108662,0.9814630846376533
2015-12-10,-1,-0.002102839859643517,-0.0018462953209375684,-0.02237042333927197,0.010048865938267745,0.9822525060496532
2015-12-14,-1,-0.003209517976418424,-0.0028639172159604376,-0.01616971063617456,0.010048865938267745,0.9840393301209773
2015-12-16,-1,-0.002219746226328229,-0.0019434327817657191,-0.01616971063617456,0.004489787360283549,0.9857740433394775
2015-12-18,-1,-0.0027744422459390922,-0.002480879703853006,-0.014817423714171035,0.004489787360283549,0.9865811163079079
2015-12-22,-1,-0.001309330155120018,-0.0012349045501351555,-0.014817423714171035,0.0060541174792631425,0.9844911984921426
2015-12-24,-1,-0.0008233117163022912,-0.0007810636227954317,-0.017636044582913867,0.005579748372146086,0.982356497552813
2015-12-29,-1,-0.0013300493774133235,-0.0011905519110205493,-0.017636044582913867,0.011081054397454309,0.9813022968724184
2015-12-31,-1,-0.001501486524429949,-0.0013686016547063491,-0.017636044582913867,0.01708380549497518,0.9802981671580098
2016-01-05,-1,-0.0015279422373499735,-0.0014468702653595096,-0.017636044582913867,0.01708380549497518,0.9809509687587313
2016-01-07,-1,-0.002962063651835987,-0.0027389507419913273,-0.015716557338124784,0.01708380549497518,0.9826699501444165
2016-01-11,-1,-0.0022554559272026523,-0.0021742744445297883,-0.015716557338124784,0.014794312808127966,0.9823888887182424
2016-01-13,-1,-0.0020402992567847642,-0.0019659548160941274,-0.0172410887883225,0.019927686343543825,0.979029632171269
2016-01-15,-1,-0.004423162602227762,-0.003954066086974401,-0.0172410887883225,0.023530718695977632,0.9757048242386149
2016-01-20,-1,-0.004705487126551176,-0.004226755066904604,-0.016019157343697597,0.023530718695977632,0.9760951648247876
2016-01-22,-1,-0.001804943221010314,-0.001718907562253619,-0.016019157343697597,0.02204996606644466,0.9776881534346606
2016-01-26,-1,-0.002622296943073692,-0.0024097000239273647,-0.015014662396688666,0.019927686343543825,0.9809012136920041
2016-01-28,-1,-0.0014789819603699685,-0.001473871617882801,-0.006889849536505219,0.015995061476438522,0.9815044699444837
2016-02-01,-1,-0.0010277811952338297,-0.0009577944155576285,-0.006035931932294786,0.015325606177021781,0.981911009553407
2016-02-03,-1,-0.0012990845565067771,-0.0012857744481259055,-0.0037530136152780415,0.019392199533441366,0.9815430509351091
2016-02-05,-1,-0.001149417617482378,-0.001081857262471389,-0.0037530136152780415,0.019392199533441366,0.9823094141205065
2016-02-09,-1,-0.0013178560769602653,-0.001262920290041303,-0.0037530136152780415,0.019392199533441366,0.9832196822553326
2016-02-11,-1,-0.0026055621822788726,-0.002493006100616778,-0.0037530136152780415,0.019392199533441366,0.9855957425794135
2016-02-16,-1,-0.0004878565579919993,-0.0004079355249746336,-0.004251244134151628,0.01458337035312309,0.9897817230799534
2016-02-18,-1,-0.000323533306916273,-0.00020298377129870834,-0.004251244134151628,0.01458337035312309,0.9894145891938095
2016-02-22,1,0.00022208377840629806,0.00034822374772155404,-0.004380207244254369,0.014336849425951394,0.9898839140977589
2016-02-24,0,-1.4552447927923735e-05,6.914356391767137e-05,-0.005138637741656504,0.014336849425951394,0.9893155043760986
2016-02-26,1,0.0007741100649649277,0.0009904101359704876,-0.005138637741656504,0.013922974615891395,0.9892733765360511
2016-03-01,1,0.0014888866879478266,0.0018484847685494245,-0.004676644727618719,0.013922974615891395,0.9893749090053499
2016-03-03,1,0.0030934790103591793,0.0037217154373207885,-0.005864498699245494,0.012164821693028103,0.9890335744716975
2016-03-07,1,0.0028957467850408277,0.003505211886382975,-0.005864498699245494,0.013922974615891395,0.9858366238701761
2016-03-09,1,0.002174963041900399,0.0025776298689913733,-0.007667010458307045,0.01550549429846865,0.9850384958891384
2016-03-11,1,0.0030093868555940376,0.0035434845257583157,-0.012884765581369743,0.01260455536770077,0.9855135422561785
2016-03-15,1,0.0030837487071379566,0.0036620474790621848,-0.012884765581369743,0.01550549429846865,0.9846382489260167
2016-03-17,1,0.0023268133840705922,0.002683379953113009,-0.012884765581369743,0.0165860134578758,0.9843460524727845
2016-03-21,1,0.002189293560689715,0.0025286039363356747,-0.008719880508828826,0.0165860134578758,0.9852152996747913
2016-03-23,1,0.0018372295262424044,0.002157166133191579,-0.005928546723852226,0.01817753640974453,0.984730124911503
2016-03-28,1,0.002008997993495254,0.002342081666855846,-0.008719880508828826,0.01817753640974453,0.9845090141944923
2016-03-30,1,0.002654307995806008,0.0030862503342107325,-0.008719880508828826,0.0165860134578758,0.9852481683855959
2016-04-01,1,0.0023261515999729496,0.002678303323090093,-0.008719880508828826,0.015029954808791327,0.9844395879657806
2016-04-05,1,0.00021617979938504526,0.0002222985894814366,-0.008719880508828826,0.011458262538810283,0.9874589328268536
2016-04-07,1,0.001401581153602627,0.0016641843278187023,-0.0071412894187191465,0.00941267470657475,0.9890300011234762
2016-04-11,1,0.00042926848948718625,0.0004826772855703609,-0.006263017739898988,0.00941267470657475,0.9894455924950489
2016-04-13,1,0.0024275868126178764,0.0028251213634309523,-0.006263017739898988,0.006146742819934899,0.9910734570538651
2016-04-15,1,0.003707668240729528,0.004346406613586857,-0.0071412894187191465,0.0034307013105611293,0.990470624207189
2016-04-19,1,0.003893451327863188,0.004574967728185432,-0.006263017739898988,0.0034307013105611293,0.9904160754630904
2016-04-21,1,0.005154596337686898,0.0060536204926773685,-0.008664945730007746,0.002724897104509358,0.9896210533575696
2016-04-25,1,0.0043532419248982854,0.005118372655261753,-0.008664945730007746,0.0034307013105611293,0.9900932803000637
2016-04-27,1,0.0045836266697472025,0.005337251096053897,-0.008664945730007746,0.002724897104509358,0.9878328527925385
2016-04-29,1,0.0035767694881101565,0.004233450466728536,-0.00643438741160227,0.0034307013105611293,0.990447894228922
2016-05-03,1,0.0026902093401009472,0.003165287056610811,-0.0054793998271300435,0.005586709045715691,0.9911240544423708
2016-05-05,1,0.0021129941972516902,0.002447428245592227,-0.0052958559780251595,0.0035229889315964427,0.9914052015274115
2016-05-09,1,0.001283217555132609,0.001396893264197361,-0.0052958559780251595,0.0065367142375559045,0.9896318407693562
2016-05-11,1,0.0018548158856521862,0.0021389493344335375,-0.005499538473369994,0.009615097409643645,0.9889384200491195
2016-05-13,1,0.0008210768855172701,0.0008887953563461264,-0.006494803350322122,0.009615097409643645,0.9877336515975824
2016-05-17,1,0.0016326438344697791,0.0018607457738144771,-0.008965132621394143,0.007383756649386025,0.9873342874531149
2016-05-19,1,0.0013348860816693475,0.0015714237294220932,-0.005499538473369994,0.010211351793593292,0.9874739316968973
2016-05-23,1,0.0013502052894931403,0.0015824660503765914,-0.0052958559780251595,0.007383756649386025,0.9887820162130636
2016-05-25,1,0.0026165555837518424,0.002974748307997826,-0.005499538473369994,0.007383756649386025,0.9897426877681113
2016-05-27,1,0.0022092083503979414,0.0024541173498987827,-0.012217797104686574,0.006145919379431672,0.9870341831625635
2016-06-01,1,0.0009658898208245633,0.0010187961399412023,-0.012217797104686574,0.015785354667196338,0.9853640359487451
2016-06-03,1,0.0005031927274182029,0.0006207165053698181,-0.012217797104686574,0.01786585327473348,0.9844708576900881
2016-06-07,1,0.0016409766079036594,0.0016685627473222906,-0.012217797104686574,0.01783715767547742,0.9847848214908957
2016-06-09,1,0.0013386479978893348,0.0013992643687203415,-0.012217797104686574,0.02026737647024229,0.9840813381186969
2016-06-13,-1,-0.0009154112964673837,-0.0005455993871112817,-0.005258525626260939,0.02026737647024229,0.9855283240142362
2016-06-15,1,0.00010800331675209131,0.000246671370716047,-0.003057112014573802,0.02026737647024229,0.9862810313538688
2016-06-17,1,0.0002366270388800757,0.0003929789482509121,-0.003057112014573802,0.016885692662369764,0.987209197789982
2016-06-21,1,0.00021432375643713059,0.0003769107316081674,-0.0036631507966448356,0.016885692662369764,0.9869764651124926
2016-06-23,1,0.0003306620773019944,0.00047136159376384045,-0.003057112014573802,0.02110574215537439,0.9849729362552496
2016-06-27,-1,-0.0023853159242968594,-0.00190443819227213,-0.0011168794504277024,0.02110574215537439,0.9864573768300534
2016-06-29,-1,-0.000643515465390735,-0.0003462625584671903,-0.002930381585732061,0.015777674571192727,0.9890171897003834
2016-07-01,0,-0.00023905508191484433,4.0607139970186496e-05,-0.003057112014573802,0.013148814320619562,0.9886042426671792
2016-07-06,-1,-0.0010584367796495596,-0.0005866708443249418,-0.003057112014573802,0.00853839243335784,0.9887411227686556
2016-07-08,1,0.0021739050137679675,0.002241528305224507,-0.003057112014573802,0.005136784141314918,0.9897688328345011
2016-07-12,1,0.0018924091784694973,0.0019049766188710812,-0.003302308885982608,0.005136784141314918,0.9893463653365385
2016-07-14,1,0.002158557490649006,0.0022710645276281787,-0.0035656881414424897,0.007472285305191302,0.9893178070330388
2016-07-18,1,0.0019986611881479197,0.002069449267442876,-0.006104102551449631,0.009077421067605047,0.9883396761002259
2016-07-20,1,0.0020504303825204123,0.0021575538881879698,-0.011664915184907957,0.009077421067605047,0.9876875254347733
2016-07-22,1,0.004439949793211223,0.004868527112723464,-0.011664915184907957,0.004912402308339205,0.990072177430421
2016-07-26,1,0.005281043292116665,0.005890431669434652,-0.011664915184907957,0.006604025658887319,0.9887158269517144
2016-07-28,1,0.0041563943551957425,0.0045812716789760495,-0.011664915184907957,0.006604025658887319,0.9891497851751839
2016-08-01,1,0.0036512205974253546,0.004013526483086859,-0.011664915184907957,0.004025415916666161,0.9898733179767919
2016-08-03,1,0.003160713081548651,0.0034940175757571384,-0.005271049282020867,0.006604025658887319,0.9910383429221105
2016-08-05,1,0.0037303094214595107,0.004115580110615651,-0.011573778309560204,0.004025415916666161,0.9903885397060657
2016-08-09,1,0.0032532722589310135,0.0035810423157735492,-0.010624994955109941,0.006604025658887319,0.9908745419472508
2016-08-11,1,0.003162880319216725,0.0034649562056164014,-0.011573778309560204,0.004025415916666161,0.9886833593130961
2016-08-15,1,0.002739863722036339,0.0029380521981444644,-0.012870121864023159,0.004025415916666161,0.9886760923814443
2016-08-17,1,0.002090307045924374,0.0022122755235299695,-0.010978587291485382,0.005683654989251292,0.9897290075161492
2016-08-19,1,0.002379142596023314,0.002570938622893085,-0.013579890558119187,0.006721932717677229,0.9879888715351539
2016-08-23,1,0.003413889298911673,0.0037383860929628603,-0.01671617772589065,0.005705118634578864,0.9873357533470942
2016-08-25,1,0.001563663245994766,0.0015640710274295731,-0.013880172007592666,0.006786323653659944,0.9875873231604746
2016-08-29,1,0.0009219526184500693,0.0009897394921064878,-0.010978587291485382,0.006786323653659944,0.9883216152954857
2016-08-31,1,0.0008541293155325692,0.0009498857607746623,-0.013572241386071144,0.006786323653659944,0.9873202178054863
2016-09-02,1,0.0006548607765271526,0.0007116283183148509,-0.011212101592856908,0.009241282558982588,0.9879471431437055
2016-09-07,1,0.0012159791363424502,0.0012586796816653107,-0.011212101592856908,0.009264799460145587,0.9877197631704349
2016-09-09,-1,-0.0006110168721204852,-0.0004334156091308349,-0.008130576959930665,0.009264799460145587,0.9887676351176824
2016-09-13,-1,-0.0005197496918936429,-0.0003931802227130891,-0.007170227930560122,0.007568180939207379,0.989498501227845
2016-09-15,-1,-0.0006474737177057279,-0.00047631808744278385,-0.013504252500113367,0.007568180939207379,0.9889129988122641
2016-09-19,-1,-0.000497794229444067,-0.0003751335812658191,-0.007170227930560122,0.006107507459517585,0.9905232663333351
2016-09-21,-1,-0.0021781146719930915,-0.0017903330614994879,-0.003233011370121243,0.007454904252044424,0.9907752946443452
2016-09-23,-1,-0.0017583780716808833,-0.001401029196020826,-0.00860477631432316,0.004185108396236518,0.9902800014152312
2016-09-27,-1,-0.001709601405151979,-0.001356175374115007,-0.013504252500113367,0.003539388947800062,0.9892720854586969
2016-09-29,-1,-0.0018819749592392562,-0.0015105396784115832,-0.013838312178623231,0.002754617245098812,0.9896124896157407
2016-10-03,-1,-0.0017723626865983658,-0.00139591228544543,-0.013838312178623231,0.003539388947800062,0.9891061995444698
2016-10-05,-1,-0.0013910079343211821,-0.0010391870099707803,-0.017312820535283484,0.0020930165713254237,0.9893397169825003
2016-10-07,-1,-0.002192161679129916,-0.0017593804441935635,-0.016582481439954378,0.003539388947800062,0.9889358628659888
2016-10-11,-1,-0.0031901331228916235,-0.0026031381493278882,-0.016582481439954378,0.00388323245835338,0.9876948306365749
2016-10-13,-1,-0.0037988717487613924,-0.0031382753497174944,-0.015789697103712922,0.006839347952803764,0.9861829848173798
2016-10-17,-1,-0.0028620113233500688,-0.002390652850918642,-0.016582481439954378,0.013944801166117383,0.9847067465967405
2016-10-19,-1,-0.0018625682598376746,-0.001521182664509917,-0.016582481439954378,0.006839347952803764,0.9854703944937148
2016-10-21,-1,-0.0033160230241848576,-0.002806054423220433,-0.015789697103712922,0.013944801166117383,0.9856987102249454
2016-10-25,-1,-0.004313515282392721,-0.0036795657910866026,-0.014957332945008367,0.013944801166117383,0.9866595672772365
2016-10-27,-1,-0.004257033018388959,-0.0036836630855008492,-0.012528906622954748,0.015425287204031945,0.9861268911459152
2016-10-31,-1,-0.0032500174749624366,-0.002812996648546274,-0.012528906622954748,0.013264152720394431,0.9867235157493968
2016-11-02,-1,-0.004565109699912812,-0.003911636258660786,-0.014957332945008367,0.013264152720394431,0.9857491515181999
2016-11-04,-1,-0.004833405747782918,-0.0041385032974816955,-0.012528906622954748,0.011146913495711341,0.9870400306088062
2016-11-08,-1,-0.004193371239925715,-0.003605602957467124,-0.009563977215438415,0.015425287204031945,0.985633118055536
2016-11-10,-1,-0.003462660369474616,-0.0029634727166972415,-0.009563977215438415,0.015425287204031945,0.9861515462763638
2016-11-14,-1,-0.0036400382791696145,-0.0031214103575757245,-0.007122262731962464,0.012487162409981704,0.9870685311354719
2016-11-16,-1,-0.005708499645505545,-0.004829483082545417,-0.009765119696528577,0.012487162409981704,0.9856083646478149
2016-11-18,-1,-0.003678199652781264,-0.003134533841098165,-0.009765119696528577,0.010394421379602245,0.9863897704755699
2016-11-22,-1,-0.003114244634299822,-0.0026837754331208905,-0.009765119696528577,0.010394421379602245,0.9858896399348875
2016-11-25,-1,-0.001954289040461102,-0.001677349029556039,-0.014160361817357015,0.009626009948660683,0.9855710672587374
2016-11-29,-1,-0.0009412896990607204,-0.0008588563893663977,-0.014160361817357015,0.010072759586750803,0.9852336002009641
2016-12-01,-1,-0.002648092223864869,-0.002370017482858625,-0.009138584840620302,0.010072759586750803,0.9870089088583557
2016-12-05,-1,-0.002886045717364262,-0.0025730163213835396,-0.009138584840620302,0.012065443545014194,0.985263739768919
2016-12-07,-1,-0.0005761559291334059,-0.0005431010876180447,-0.010021933280296609,0.009316588689345751,0.9870006724512111
2016-12-09,-1,-3.946663651945966e-05,-8.524535524511185e-06,-0.009138584840620302,0.008788275590609986,0.9883692845410856
2016-12-13,1,0.001465364173254304,0.0018419090711309818,-0.009138584840620302,0.008731818108726782,0.9889257566266094
2016-12-15,1,0.00011111657528449146,0.0003382330491857327,-0.003991280145296815,0.009079816023130212,0.9904878178087103
2016-12-19,1,0.00027463294543926726,0.0004936323860792535,-0.007147391753465723,0.009079816023130212,0.9901518630853627
2016-12-21,1,0.0005794348810381257,0.0008154978696806056,-0.007147391753465723,0.009079816023130212,0.9901458239482694
2016-12-23,-1,-0.0010330149669588217,-0.0010188385366664832,-0.0019623948672836183,0.009304070507404968,0.9883597734997767
2016-12-28,-1,-0.00031091589673147904,-0.00017842099209068824,0.0015663351652470954,0.009304070507404968,0.9878173537541997
2016-12-30,-1,-0.0005016718601002812,-0.0004128361005426791,0.0034852493327790276,0.009304070507404968,0.9875239130272288
2017-01-04,1,0.0007775531747336032,0.0010503250667892627,0.0013772369986375839,0.008731818108726782,0.9891280833742712
2017-01-06,1,1.6055671946076425e-06,0.0001790494195707781,0.002546530819484443,0.008731818108726782,0.9895286283667113
2017-01-10,1,0.00024600917419022696,0.0004278661524512486,0.0003150610182874516,0.008275085792779961,0.9901229672998211
2017-01-12,1,0.0010040392650857116,0.0013016762448094443,0.0003150610182874516,0.006953226640546732,0.9905931985512849
2017-01-17,1,0.001974243601980666,0.0024738461820719396,-0.0015152777586057754,0.006114729979635509,0.9911473376977896
2017-01-19,1,0.0014253689703461424,0.0018240934591831654,-0.0015152777586057754,0.006214704896773141,0.9907634076610119
2017-01-23,1,0.0016681228568665681,0.0020664993472869655,-0.0015152777586057754,0.006214704896773141,0.9909125444310936
2017-01-25,1,0.003960960553382541,0.004682657459220207,-0.002565485542142462,0.006114729979635509,0.9936594423168609
2017-01-27,1,0.004851164351368722,0.005643777404904007,-0.002565485542142462,0.006114729979635509,0.9945252819461768
2017-01-31,1,0.0053744832320622715,0.006254243873453858,-0.0028532124787540173,0.006214704896773141,0.9933908533883303
2017-02-02,1,0.003975948750287499,0.004567922726419683,-0.0024749916133740943,0.006214704896773141,0.9940935560115106
2017-02-06,1,0.003760959678665933,0.004301351130345837,-0.0019747682464701763,0.0073392548946055805,0.9938540285886679
2017-02-08,1,0.0038250191777457697,0.0043869742779196665,-0.0018609284733041552,0.009929955739706509,0.9934256119029062
2017-02-10,1,0.004253366537270521,0.004857986611232672,-0.0024749916133740943,0.011033065300714403,0.992633544555565
2017-02-14,1,0.003548844577789547,0.004009690257593388,-0.0024749916133740943,0.011762086934094192,0.9923363211049933
2017-02-16,1,0.003615386291299284,0.004122926786445724,-0.0024749916133740943,0.015074273783643049,0.9923567544668994
2017-02-21,1,0.004019692027657392,0.004585229973752474,-0.0032793434019031606,0.015074273783643049,0.9916417812023106
2017-02-23,1,0.0038600456588508665,0.004393098890343379,-0.0024749916133740943,0.015074273783643049,0.991747177657149
2017-02-27,1,0.004748775711811971,0.005419051037311913,-0.0024749916133740943,0.011762086934094192,0.9918238076942307
2017-03-01,1,0.00562178792985459,0.006445189692520122,-0.002073424903596518,0.010858365097577333,0.9921061835010275
2017-03-03,1,0.005039626382463703,0.005729903572110439,-0.0022402874012484963,0.010858365097577333,0.9919126885249357
2017-03-07,1,0.005124233032001564,0.005793149524925722,-0.004006143924417886,0.005222603249783738,0.9916959858822441
2017-03-09,1,0.005227339115765783,0.005873240363936515,-0.004006143924417886,0.0030962808900508684,0.99192215710204
2017-03-13,1,0.005425511084793914,0.006089316638748484,-0.0035134733577839557,0.0030962808900508684,0.9924223360077713
2017-03-15,1,0.005821221433580801,0.0065810651748043816,-0.003423555099028635,0.0030962808900508684,0.992556235218526
2017-03-17,1,0.00532048848856003,0.005916576242532143,-0.003085086901084398,0.0030962808900508684,0.99287610994953
2017-03-21,1,0.0040684014688345356,0.004436830145749722,-0.0026362824829821085,0.0034595376679297297,0.9944388749003351
2017-03-23,1,0.0035362410526117646,0.0037762207085052743,-0.003085086901084398,0.0034595376679297297,0.9929300359144217
2017-03-27,1,0.0038512019844795624,0.004165783246400628,-0.0037396863873427463,0.0034595376679297297,0.9902613790509551
2017-03-29,1,0.003535025833142711,0.0037730318667987804,-0.0037396863873427463,0.00467192033656724,0.9898469949460743
2017-03-31,1,0.0028308298992370784,0.0029612910674193223,-0.0056088732481112385,0.00467192033656724,0.9896663987853209
2017-04-04,1,0.0024278650202396155,0.002499176905075124,-0.007433359298017328,0.00467192033656724,0.9894850404666234
2017-04-06,1,0.002557238633136538,0.002677754659682457,-0.007433359298017328,0.007549714848297945,0.9892915005704331
2017-04-10,1,0.002436112681947684,0.0025225887038075037,-0.007433359298017328,0.007761218010684011,0.9886536339263047
2017-04-12,1,0.002440874778966094,0.002492881554931351,-0.007433359298017328,0.0075982518039408795,0.9888231138267427
2017-04-17,1,0.003125381258566249,0.003301454746078834,-0.00847213644760296,0.0075982518039408795,0.9887049044885224
2017-04-19,1,0.0029454255027591024,0.0030841431897030234,-0.009131731827470452,0.0075982518039408795,0.9875294828243447
2017-04-21,1,0.0018929803749363739,0.001932989855094604,-0.00847213644760296,0.008408229460661401,0.9885571566013965
2017-04-25,-1,-0.00024393874989818887,-2.4553422735241743e-05,-0.007433359298017328,0.008408229460661401,0.9898885970503344
2017-04-27,-1,-0.00040724884273403016,-6.867846253222711e-05,-0.008269480139688345,0.008032446108337908,0.9906900333116714
2017-05-01,-1,-0.0015461854507129163,-0.0010528724700160275,-0.0071988447103202655,0.008032446108337908,0.9911381633654415
2017-05-03,-1,-0.0009852501553918025,-0.0006601203641367385,-0.004882262626192185,0.008408229460661401,0.9906524428093872
2017-05-05,-1,-0.0004977805401161593,-0.0002517308080330793,-0.007640378918913048,0.008592936167535061,0.9892095524761241
2017-05-09,1,0.00013882842803965203,0.0003049056475272682,-0.007640378918913048,0.008032446108337908,0.9900994681731119
2017-05-11,-1,-0.0007447910711751702,-0.00037437712135467453,-0.007640378918913048,0.007323515040430821,0.9903193022508654
2017-05-15,-1,-0.0009125758407080547,-0.0005335792661301901,-0.007265606347424624,0.007564779381257435,0.9897749492318861
2017-05-17,-1,-0.0015731002940732389,-0.0011316615708445044,-0.007265606347424624,0.007564779381257435,0.9902940453693014
2017-05-19,-1,-0.0017516212383542633,-0.0012033044370017697,-0.007265606347424624,0.006704494304348357,0.9912944902205012
2017-05-23,-1,-0.00231731734109066,-0.0017024866388050332,-0.003981834708931112,0.006457848892978936,0.9918813920215893
2017-05-25,-1,-0.002744757590846381,-0.0020650290148771623,-0.003981834708931112,0.006285360974341856,0.99179121442689
2017-05-30,-1,-0.002643950868581377,-0.0020286494102459817,-0.0034204135993018427,0.006285360974341856,0.9917233825448782
2017-06-01,-1,-0.0027605153171096995,-0.0020792442743137367,-0.005522183266887046,0.006285360974341856,0.9911500631881764
2017-06-05,-1,-0.002206711412854772,-0.001605026302883073,-0.0034204135993018427,0.006285360974341856,0.9921596853254321
2017-06-07,-1,-0.0017692044597461623,-0.0012427366613700494,-0.005522183266887046,0.006155545322199468,0.992089965689627
2017-06-09,-1,-0.0020809261094955358,-0.0015284394284366583,-0.0034204135993018427,0.006343908881285042,0.9908894641335969
2017-06-13,-1,-0.0014512968626680645,-0.000949765016971272,-0.008511546919050685,0.006155545322199468,0.9914192658260682
2017-06-15,-1,-0.0014803577036439466,-0.0009944673035689746,-0.006054170927334521,0.005440590556620216,0.9920701855190117
2017-06-19,0,-0.00015017761234856067,7.683421156338868e-05,-0.008491258112603444,0.004734858837230901,0.9921151033225507
2017-06-21,1,0.0008181617057514695,0.0008687315366410586,-0.008491258112603444,0.005440590556620216,0.9911485526690701
2017-06-23,1,0.0007186504218803976,0.0007627229025573722,-0.0072650889720657225,0.005440590556620216,0.9916868309178848
2017-06-27,1,0.00013224099482585477,0.0002717456787217633,-0.008491258112603444,0.005440590556620216,0.9913716156659326
2017-06-29,0,-1.2822727362213327e-05,0.00014664076373406781,-0.0072650889720657225,0.004988648514556526,0.9929561425829315
2017-07-03,1,0.0005059416073273471,0.0006116635719861279,-0.0072650889720657225,0.004988648514556526,0.9928885557214565
2017-07-06,1,0.0005865623158041494,0.000657035935156711,-0.0023524736028213956,0.004988648514556526,0.9929032538566873
2017-07-10,1,0.0013488416452953618,0.0013493925991801018,-0.005839112449396314,0.004622193879511348,0.9932077047378068
2017-07-12,0,-0.00012091386941076002,6.872192029823486e-05,-0.0019821617358816612,0.004622193879511348,0.9944062873443351
2017-07-14,0,-4.1816604577996574e-05,0.0001175769141219617,-0.005574495408603785,0.004622193879511348,0.9933091636892294
2017-07-18,-1,-0.0005386330845694788,-0.0003162141269899836,-0.001675088958153302,0.007199971786064531,0.9921821238717864
2017-07-20,1,7.74004968092504e-05,0.00018720421678325905,-0.001675088958153302,0.007199971786064531,0.9916466636750695
2017-07-24,1,0.0005893267802486322,0.00061079289015139,-0.005574495408603785,0.007199971786064531,0.9914049963571523
2017-07-26,1,0.00024815443733474567,0.0003140196623078928,-0.005574495408603785,0.007199971786064531,0.991186640282794
2017-07-28,1,0.0005679115586377241,0.0005724709302447613,-0.005574495408603785,0.012307055038502292,0.9904979778662338
2017-08-01,1,0.001553961500839794,0.0017079561978339758,-0.005574495408603785,0.007199971786064531,0.9914444695930829
2017-08-03,1,0.002277152031436402,0.0025485645824088474,-0.005574495408603785,0.008964553036401602,0.9912264539943016
2017-08-07,1,0.002462184884083783,0.0027576064780272915,-0.0059910104268137265,0.00611103615471888,0.9914838553309429
2017-08-09,1,0.002396888805021369,0.002707784663799037,-0.0067653484751752984,0.00611103615471888,0.9913566627055046
2017-08-11,1,0.0014199303130684232,0.0015695490070943526,-0.005410883465830756,0.012457882380840168,0.9913205664944328
2017-08-15,1,0.0023302196077947387,0.002598340828681452,-0.0067653484751752984,0.011635628028206925,0.9913581420781727
2017-08-17,1,0.002168458018202298,0.0024152316323224057,-0.005410883465830756,0.008792403654963851,0.9925567285789874
2017-08-21,1,0.002254350429896612,0.0025355489498064205,-0.004127992022985035,0.008792403654963851,0.9927418339331991
2017-08-23,1,0.001371359860249586,0.001514185932659285,-0.0032248015148259633,0.008792403654963851,0.9927132289726838
2017-08-25,1,0.001678566290716132,0.0018419440032150587,-0.0032248015148259633,0.009526532884302536,0.9926989582191718
2017-08-29,1,0.0015872440436862682,0.0017330992096397176,-0.0032248015148259633,0.009526532884302536,0.9923516245586249
2017-08-31,1,0.0023055507780444413,0.0025513614076303898,-0.0032248015148259633,0.011270069572766215,0.991945144401334
2017-09-05,1,0.0022237096381346874,0.0024841793454447383,-0.0013432455863034718,0.011270069572766215,0.9923266186806686
2017-09-07,1,0.0020908848797794406,0.0023625712139724976,-0.0010507272727016987,0.011270069572766215,0.9919957968763241
2017-09-11,1,0.003163068689175157,0.0035806636822355003,-0.002961886881649744,0.007938656381084506,0.9929906785342008
2017-09-13,1,0.0022604665867918556,0.002475466863648272,-0.002961886881649744,0.00705362961268599,0.9932071564503316
2017-09-15,1,0.0013706502834387503,0.0013930455239065489,-0.0012882058631906441,0.00648438055026615,0.9933176165891129
2017-09-19,1,0.001709537232510553,0.0017926486341080384,-0.0004768645770789082,0.007633491700296798,0.9933468607717607
2017-09-21,1,0.0002590429163319028,0.00039467947916147986,0.0009186823482417886,0.008051349842896289,0.9932318425673476
2017-09-25,1,0.0005687243686662534,0.0007014578901831467,8.99562691086467e-05,0.007633491700296798,0.9937664245446189
2017-09-27,1,0.0011600584572608159,0.001229025986185175,8.99562691086467e-05,0.009276553052749464,0.9923047488170903
2017-09-29,1,0.0024817398424885695,0.002613488559708034,8.99562691086467e-05,0.008543668313526077,0.9925956720421778
2017-10-03,1,0.0027859043599687008,0.0029820376534896295,-0.0012882058631906441,0.011504989109087989,0.9916563184199537
2017-10-05,1,0.002065276636524078,0.0021486212098905653,-0.0012882058631906441,0.011504989109087989,0.991691629098043
2017-10-09,1,0.001367225351091596,0.0014179579541283252,8.99562691086467e-05,0.011504989109087989,0.9912889016322121
2017-10-11,1,0.0014943936440336128,0.0015073693324201155,8.99562691086467e-05,0.014937554740219168,0.9912204734472798
2017-10-13,1,0.0011820655872530038,0.0012273196605992573,0.001199773427966718,0.014937554740219168,0.991110238256331
2017-10-17,1,0.001282615307852692,0.0013215388869836447,0.002022631595524611,0.014937554740219168,0.9906354962304962
2017-10-19,1,0.001509884298150323,0.0015511694316442393,0.0016163518931151333,0.013804864139619417,0.9912141371747424
2017-10-23,1,0.0018270006660752272,0.0018544565521352828,0.004525942223570505,0.013804864139619417,0.9912612955604868
2017-10-25,1,0.0036054968738676056,0.0038914842841202566,0.0031643444518183613,0.010555436211640942,0.9940824307581946
2017-10-27,1,0.004527583739498354,0.004943408492701439,0.0016163518931151333,0.00883140360329306,0.9944842329743582
