JNU-Tangyin/eata/results/Batch4_SP500/Batch4_SP500-AAL.csv
Date,Action,Predicted_Q25,Predicted_Q75,Actual_Q25,Actual_Q75,RL_Reward
2010-12-14,0,0.0,0.0,-0.009114652858959967,0.013018133434218286,0.9814622547027858
2010-12-16,1,0.0016704817515668866,0.001961643614554737,-0.008448848021971083,0.013018133434218286,0.9822822443269386
2010-12-20,0,0.0,0.0,-0.009848576032312324,0.013018133434218286,0.9797132549106022
2010-12-22,0,0.0,0.0,-0.009848576032312324,0.013018133434218286,0.9792096216088865
2010-12-27,0,0.0,0.0,-0.008965664656956914,0.01615970277313935,0.9798490048230472
2010-12-29,0,0.0,0.0,-0.008965664656956914,0.022237705395892,0.9768824643937237
2010-12-31,0,0.0,0.0,-0.012792584664273111,0.022237705395892,0.9725438759096547
2011-01-04,0,0.0,0.0,-0.027555050479764417,0.01615970277313935,0.9737935489841186
2011-01-06,1,0.0021825447933527583,0.0022467151206728136,-0.037210823848019756,0.009073397114790837,0.9741535169306139
2011-01-10,1,0.003479729584444401,0.003793138756183683,-0.037210823848019756,0.0178292230531132,0.9716593887846098
2011-01-12,1,0.00040964988471878987,0.0005893046092894887,-0.026840616193873908,0.0178292230531132,0.974531881175679
2011-01-14,-1,-0.0012251571593776818,-0.0007651795366745578,-0.026840616193873908,0.022237705395892,0.9731011982009989
2011-01-19,-1,-0.00456728706004911,-0.0036743773125084774,-0.017751496811059503,0.022237705395892,0.9748166781513998
2011-01-21,-1,-0.00513807185172868,-0.004215480113602286,-0.018406676525448033,0.018132703834261583,0.9762810997681879
2011-01-25,-1,-0.0019201853635768269,-0.001531314867214538,-0.026840616193873908,0.012390020724917057,0.9723388390465152
2011-01-27,1,0.002506175542943992,0.0027437628150670463,-0.026840616193873908,0.008272947716675675,0.9744505135990512
2011-01-31,-1,-0.0031077401526930673,-0.002550112077145701,-0.024245050595695018,0.008272947716675675,0.9766231376021707
2011-02-02,-1,-0.006599353924586944,-0.005485716707280182,-0.018406676525448033,0.012390020724917057,0.9753935005954802
2011-02-04,-1,-0.0073878937430683425,-0.006200819303204987,-0.01630144347341024,0.012390020724917057,0.9767997754120306
2011-02-08,-1,-0.0035475685939435125,-0.0028839960360843853,-0.018406676525448033,0.006258846358512782,0.9742511738632443
2011-02-10,-1,-0.0038384072112558737,-0.003136458025213827,-0.018406676525448033,0.012426618845638723,0.9727822848478896
2011-02-14,0,0.0,0.0,-0.02356323014718841,0.010184021181068587,0.9729940539762048
2011-02-16,0,0.0,0.0,-0.03475569499273991,0.00670300179647129,0.9713174634914861
2011-02-18,0,0.0,0.0,-0.03475569499273991,0.01693474015140863,0.9693959723491639
2011-02-23,-1,-0.010448076698612672,-0.008950315566855542,-0.021686821809644142,0.01693474015140863,0.9724669351246128
2011-02-25,-1,-0.010331729051832873,-0.008819763625875826,-0.021686821809644142,0.017952532134641357,0.9714137923194008
2011-03-01,0,0.0,0.0,-0.017247614005407072,0.017952532134641357,0.9759052539616702
2011-03-03,-1,-0.010837377015280106,-0.00928328488600879,-0.021572232714893835,0.01564767418685805,0.9758523124130567
2011-03-07,-1,-0.00912940228173496,-0.007902104654262145,-0.021572232714893835,0.01564767418685805,0.9756382071590737
2011-03-09,-1,-0.006770828727032149,-0.005841544488592663,-0.021572232714893835,0.012178298665712527,0.9813792466931888
2011-03-11,0,0.0,0.0,-0.029100120994623647,0.008846028308354688,0.9798047353162932
2011-03-15,0,0.0,0.0,-0.021572232714893835,0.01568309076223405,0.9786606438192592
2011-03-17,0,0.0,0.0,-0.02291713128656455,0.01568309076223405,0.9787468125613877
2011-03-21,-1,-0.002255188662613327,-0.0022262398257178965,-0.02291713128656455,0.012178298665712527,0.9811567730248998
2011-03-23,-1,-0.003772476564900053,-0.0036461736875330612,-0.019906990797890337,0.012178298665712527,0.9825816466647088
2011-03-25,-1,-0.002498289167196337,-0.002495421779754036,-0.019906990797890337,0.008846028308354688,0.9831620948696291
2011-03-29,-1,-0.0023718572646955283,-0.0022758431996109,-0.019906990797890337,0.013068034563587395,0.980692378823948
2011-03-31,-1,-0.003446190092656967,-0.003328193123636701,-0.01476186922569153,0.020208963548315806,0.9805519621441122
2011-04-04,-1,-0.004327366087001985,-0.004030469476641056,-0.01476186922569153,0.020208963548315806,0.9801543990572107
2011-04-06,-1,-0.00551314067370034,-0.005059721599119126,-0.010536197278842415,0.026530638118914415,0.9778730474841204
2011-04-08,-1,-0.007631368159588391,-0.006921785509421897,-0.010512449666971482,0.026530638118914415,0.9774349975406499
2011-04-12,-1,-0.0049615224379866135,-0.004568871150496423,-0.010512449666971482,0.021901560019174815,0.9778230955118391
2011-04-14,-1,-0.005803571036419222,-0.005394163148947927,-0.010512449666971482,0.021901560019174815,0.9770041051003477
2011-04-18,0,0.0,0.0,-0.013262048882841267,0.02360700123915365,0.9762282234162387
2011-04-20,0,0.0,0.0,-0.013245055338706352,0.04026072381673333,0.9734937585483148
2011-04-25,-1,-0.0017017430094938613,-0.0016822032036782177,-0.014197046471593616,0.04026072381673333,0.9729554681241148
2011-04-27,0,0.0,0.0,-0.01799426020233696,0.02360700123915365,0.9726726734291549
2011-04-29,0,0.0,0.0,-0.01799426020233696,0.01807335439209066,0.9737411391899357
2011-05-03,0,0.0,0.0,-0.01799426020233696,0.011335920320696687,0.9743186311219513
2011-05-05,0,0.0,0.0,-0.022409447549874676,0.00031767234320231137,0.9758731204130322
2011-05-09,0,0.0,0.0,-0.022409447549874676,0.0028130453167788537,0.9764451922406742
2011-05-11,0,0.0,0.0,-0.02615862070526224,-0.0021840827250630907,0.976884503651628
2011-05-13,0,0.0,0.0,-0.02461191474884059,0.00274289773866715,0.9786926038993231
2011-05-17,0,0.0,0.0,-0.02461191474884059,0.0027131819931814683,0.9814874675725803
2011-05-19,0,0.0,0.0,-0.02461191474884059,0.0027131819931814683,0.9843775891620753
2011-05-23,0,0.0,0.0,-0.02461191474884059,0.007373591557246949,0.984456433506832
2011-05-25,0,0.0,0.0,-0.015453847038928164,0.007532886371815698,0.984645154306941
2011-05-27,1,0.0009729099574462235,0.0014736636912276659,-0.02077719466711439,0.009202547801736854,0.9819233305167497
2011-06-01,1,0.0018985176289061751,0.0026124910844885193,-0.02428475613107122,0.009202547801736854,0.9807720167324617
2011-06-03,1,0.002057233205126263,0.002849374420153669,-0.020912738762459353,0.008992105067401744,0.9820797941926399
2011-06-07,1,2.2043924671971173e-05,0.0004518285523989734,-0.020912738762459353,0.008992105067401744,0.9804156973527786
2011-06-09,-1,-0.0018754810086080403,-0.001703435367449482,-0.014676580576806476,0.008992105067401744,0.9815844111013396
2011-06-13,-1,-0.002073418482593934,-0.00205203604298706,-0.01861606376933167,0.006920669237361546,0.9813324805895485
2011-06-15,-1,-0.001557079302498655,-0.0014924466579000542,-0.020103428541677588,0.006191320042654586,0.9802028806643851
2011-06-17,0,-0.0002951039053475762,2.786852027525659e-05,-0.025063037803676275,0.005859205036730198,0.9773071150064637
2011-06-21,1,0.0022148476593469206,0.0029589427601089324,-0.025063037803676275,-0.0007975603184498621,0.9766960563769311
2011-06-23,1,0.0010832681570254244,0.0014298495759960804,-0.025063037803676275,-0.0016393036822251366,0.9797159227095558
2011-06-27,1,0.0015285941609979531,0.0018571751267398482,-0.02730051382800301,-0.0026801451222232147,0.9800708308806992
2011-06-29,-1,-0.00019027173081764798,-0.00012176579061703654,-0.03248778629238504,-0.005428191108288355,0.9796818572314083
2011-07-01,1,0.002458301488263323,0.0030350528931621257,-0.03287574756132432,-0.011335601442232595,0.973847850643046
2011-07-06,0,-4.224607433115041e-05,0.00022816705506811515,-0.03287574756132432,-0.005428191108288355,0.9722889810749739
2011-07-08,0,-5.94323790406617e-05,0.00018421597152024343,-0.03571298420276014,-0.011808106356354413,0.9704925211023752
2011-07-12,1,0.000481780512931457,0.0007703044847400767,-0.0443061938341012,-0.005428191108288355,0.962327143438968
2011-07-14,-1,-0.0009915080818135875,-0.0009724470515986161,-0.045094492266428365,-0.0021337105614815024,0.9597934762892328
2011-07-18,-1,-0.006346384816926091,-0.005537967778772218,-0.0443061938341012,0.014361881353224346,0.9614789104156772
2011-07-20,-1,-0.006840407875618945,-0.006004627888104247,-0.045094492266428365,0.018998339834373747,0.9593038982349743
2011-07-22,-1,-0.007728599246798753,-0.006677758373492631,-0.04604731328121714,0.018998339834373747,0.9563056726988332
2011-07-26,-1,-0.009196298406000943,-0.007981159558429025,-0.04604731328121714,0.03331956758569102,0.9563230471484537
2011-07-28,-1,-0.011487224288009084,-0.009983653640307764,-0.04604731328121714,0.03331956758569102,0.9570246514054075
2011-08-01,-1,-0.0094313745385955,-0.00830959752716558,-0.04604731328121714,0.03733804745172847,0.9559225344821829
2011-08-03,-1,-0.007151437887810365,-0.006359917222625093,-0.042572789111396586,0.03141465160622921,0.9615486141403448
2011-08-05,-1,-0.010802385770983343,-0.009552195482433128,-0.04285739450070835,0.03141465160622921,0.9610565111439792
2011-08-09,-1,-0.009440202750192361,-0.00825748297913589,-0.03981662892173683,0.030988912268948718,0.9673811656283947
2011-08-11,-1,-0.009752238408958938,-0.008689244704694237,-0.03567513141064726,0.01991209378577241,0.9716366283513813
2011-08-15,-1,-0.0076577498193323625,-0.006756513321421733,-0.03567513141064726,0.01991209378577241,0.9695359504417095
2011-08-17,-1,-0.0073135752605159084,-0.0065227251046576125,-0.034019099649835696,0.02411203401613997,0.9699351080266032
2011-08-19,-1,-0.011505388033493436,-0.010214751645549415,-0.01979591811537958,0.02411203401613997,0.9721537298784599
2011-08-23,-1,-0.01015384935561921,-0.009008883328476287,-0.020911933498129656,0.023007059186487232,0.9726725069153273
2011-08-25,-1,-0.011375939329248314,-0.010097611072632521,-0.020203563358395737,0.030415249634186504,0.9700607154648447
2011-08-29,-1,-0.00789743049181029,-0.006983053706744383,-0.021221171424406604,0.023007059186487232,0.9705143559378413
2011-08-31,-1,-0.007917801582746901,-0.00692820268059946,-0.021221171424406604,0.023007059186487232,0.9709713402449939
2011-09-02,-1,-0.009668879029927146,-0.008657529864707926,-0.025975850672539956,0.023007059186487232,0.9648243303719094
2011-09-07,-1,-0.011842755114238542,-0.010532736399046151,-0.021221171424406604,0.03048270991809759,0.9618051612197243
2011-09-09,0,0.0,0.0,-0.021926650915896555,0.03420406491035663,0.96078798566727
2011-09-13,0,0.0,0.0,-0.020203563358395737,0.03420406491035663,0.9614876195382411
2011-09-15,0,0.0,0.0,-0.020203563358395737,0.03834705877958622,0.9596707860156677
2011-09-19,-1,-0.008197436384763099,-0.007692085227847279,-0.02749039068583701,0.03834705877958622,0.956654071830009
2011-09-21,-1,-0.004855966003103653,-0.004733580578123748,-0.033910191573690254,0.03834705877958622,0.9560089145749457
2011-09-23,-1,-0.0024917957602226598,-0.002287258969231917,-0.033910191573690254,0.0369628544120711,0.9574910061854613
2011-09-27,-1,-0.0008955777410164687,-0.00032498151539076046,-0.033910191573690254,0.03420406491035663,0.9590349516622956
2011-09-29,-1,-0.0013756355348839343,-0.0009631709950431644,-0.033910191573690254,0.03420406491035663,0.9571494923248034
2011-10-03,-1,-0.006240006157855915,-0.006188023694634626,-0.026781035154159378,0.03420406491035663,0.9624277362243069
2011-10-05,0,0.0,0.0,-0.033592712949239475,0.029303719426015805,0.9653965688403359
2011-10-07,0,0.0,0.0,-0.033592712949239475,0.029303719426015805,0.9644132293628339
2011-10-11,1,0.0012777894813376328,0.0013838922451644003,-0.03504634938682214,0.021415921401181214,0.967387805096946
2011-10-13,1,0.007331344741674047,0.009172690445057311,-0.03970300212886502,0.014938442447110263,0.9663307448151763
2011-10-17,1,0.003931739568398723,0.005185516744989941,-0.03494736281210137,0.021415921401181214,0.9691430082883045
2011-10-19,1,0.003586653157556487,0.004779552111351587,-0.03970300212886502,0.014938442447110263,0.9675210324600468
2011-10-21,0,0.0,0.0,-0.03970300212886502,0.011442858601770134,0.9700363690438083
2011-10-25,1,0.0030709205651833884,0.0041738431755145074,-0.03970300212886502,0.006087656503740893,0.9685193080262303
2011-10-27,0,0.0,0.0,-0.03970300212886502,-0.00335468663932103,0.9705228921169508
2011-10-31,0,0.0,0.0,-0.03970300212886502,0.004659086391945588,0.9677429016444724
2011-11-02,0,0.0,0.0,-0.03466174768824638,0.03586644384908759,0.9668955065602093
2011-11-04,0,0.0,0.0,-0.03466174768824638,0.03586644384908759,0.9670831640944454
2011-11-08,0,0.0,0.0,-0.03264799618895321,0.04502493257340333,0.9653673455379789
2011-11-10,0,0.0,0.0,-0.02628203953677581,0.048066272459259,0.964118170335138
2011-11-14,1,0.005262860759174917,0.006490143083556027,-0.03888631732311624,0.048066272459259,0.9627533034791208
2011-11-16,1,0.003041834945917455,0.004066424245685887,-0.020737721837465202,0.05378859973745222,0.9635317459766086
2011-11-18,1,0.0021717570751901586,0.0030401749572882106,-0.024797560344781373,0.0579623640136504,0.9581058806932627
2011-11-22,1,0.0001832927869561639,0.0008210063744277106,-0.014320018004496952,0.0579623640136504,0.9592515183522559
2011-11-25,-1,-0.0006558704520795375,-0.00025136071125977217,-0.015587029963064058,0.0579623640136504,0.958455137091042
2011-11-29,1,0.003052748187501399,0.003928283791791321,-0.03118687970753487,0.05378859973745222,0.9603085107942235
2011-12-01,1,0.006554976178162484,0.0078621532571062,-0.03266675252049523,0.032151587295739394,0.9629252037119266
2011-12-05,1,0.00737528936856837,0.008708591819335155,-0.03266675252049523,0.022447825076886804,0.9651635679557296
2011-12-07,1,0.008976306091538544,0.010400291120606527,-0.03266675252049523,0.02204166764127604,0.9639001976105792
2011-12-09,0,0.0,0.0,-0.029112832125586456,0.021438134550571142,0.9677022216167163
2011-12-13,0,0.0,0.0,-0.020338431844207173,0.023708046033719444,0.9687815865192936
2011-12-15,0,0.0,0.0,-0.020338431844207173,0.02199359401471894,0.972088968188647
2011-12-19,0,0.0,0.0,-0.01570100784157813,0.023708046033719444,0.9756603352325451
2011-12-21,0,0.0,0.0,-0.015623590389159298,0.023708046033719444,0.9762626618068233
2011-12-23,0,0.0,0.0,-0.015623590389159298,0.024773914114529626,0.9716244477463926
2011-12-28,0,0.0,0.0,-0.003305801571119275,0.03401856720398692,0.9712523275869381
2011-12-30,0,0.0,0.0,-0.002347443458981037,0.03770911644456867,0.9706558129148329
2012-01-04,0,0.0,0.0,0.013178872123247623,0.04168317398330905,0.9682225687715166
2012-01-06,0,0.0,0.0,-0.002347443458981037,0.04168317398330905,0.968381659288188
2012-01-10,0,0.0,0.0,-0.010348131948062386,0.04168317398330905,0.9682148140082513
2012-01-12,1,0.00045017919784755766,0.0007650297543747895,-0.013686235488636764,0.04168317398330905,0.9698513543741073
2012-01-17,0,0.0,0.0,-0.012995422876425598,0.04168317398330905,0.9682451244946573
2012-01-19,1,0.0031146251046347906,0.003492481521126281,-0.012995422876425598,0.04168317398330905,0.9703507715866447
2012-01-23,1,0.0063378729231152835,0.007135499321609003,-0.01520975022046548,0.04168317398330905,0.966487609195065
2012-01-25,0,0.0,0.0,-0.020200433020777828,0.03835729634366167,0.9674671714208529
2012-01-27,0,0.0,0.0,-0.02250385942106553,0.023896321013709414,0.969685891627668
2012-01-31,0,0.0,0.0,-0.02250385942106553,0.023896321013709414,0.9693279223911039
2012-02-02,0,0.0,0.0,-0.02250385942106553,0.013282574650795196,0.9716605206919409
2012-02-06,0,0.0,0.0,-0.02250385942106553,0.0035320066316904767,0.9720492473646133
2012-02-08,1,0.015472853697544645,0.017338384938564516,-0.02250385942106553,0.005079299117812784,0.9652535880267743
2012-02-10,1,0.013992860617460384,0.015611546251003071,-0.02250385942106553,0.007941312301048564,0.9669047142202433
2012-02-14,1,0.014191441319136008,0.01583275179317388,-0.02250385942106553,0.01008304110005815,0.9690603137478775
2012-02-16,1,0.015091881550022557,0.016933249112468744,-0.02735837837798424,0.01008304110005815,0.964357189116603
2012-02-21,1,0.009454716269252013,0.010550318125978104,-0.020956305550954207,0.012289301900353213,0.971278749206343
2012-02-23,1,0.006210328402813971,0.006855571449853114,-0.016781213590569617,0.012289301900353213,0.9737497523015007
2012-02-27,0,-0.00010032986931467831,0.0005107125379237786,-0.008816964221646592,0.025303188518968726,0.9732077958475337
2012-02-29,1,0.004004581336652678,0.004126148872590843,-0.016781213590569617,0.025303188518968726,0.973998828579379
2012-03-02,1,0.004757156370408918,0.00498785072411468,-0.02043408676434825,0.019968892010808204,0.9731557096915108
2012-03-06,1,0.0033811670562203795,0.0036762008310392107,-0.016836418015415168,0.025384197024505964,0.9755666350142814
2012-03-08,1,0.0045012201752850055,0.005101919904825072,-0.016836418015415168,0.025384197024505964,0.9749575562961691
2012-03-12,1,0.0026535906107225168,0.002833419004740794,-0.017355805043706003,0.025384197024505964,0.973632003359134
2012-03-14,1,0.00320781845178486,0.0034271401330579158,-0.017355805043706003,0.030116080274206616,0.9724430080266795
2012-03-16,1,0.0038606031244853758,0.004207424634238864,-0.011586161403768221,0.030116080274206616,0.9764917652818309
2012-03-20,1,0.0052339651448104286,0.005674522142086466,-0.011586161403768221,0.025384197024505964,0.9795044121222017
2012-03-22,1,0.004251940457820793,0.004624185250405849,-0.011586161403768221,0.030116080274206616,0.9764472090423811
2012-03-26,1,0.005921917371483456,0.0064909200434525105,-0.016326725000498348,0.030569419606223884,0.9756240231889622
2012-03-28,0,0.0,0.0,-0.011586161403768221,0.031043195752708842,0.9751353128916207
2012-03-30,0,0.0,0.0,-0.0072973513876297075,0.0322202394672719,0.9748486670421409
2012-04-03,0,0.0,0.0,-0.00718948100962141,0.031043195752708842,0.9763890025590974
2012-04-05,0,0.0,0.0,-0.005221533984915607,0.0322202394672719,0.9754788763865607
2012-04-10,0,0.0,0.0,-0.005221533984915607,0.03582224925459797,0.9752598146371084
2012-04-12,0,0.0,0.0,-0.006554624616966093,0.03260941982665903,0.9762913228777512
2012-04-16,0,0.0,0.0,-0.007102148466519683,0.03228236059569461,0.9763188793143835
2012-04-18,0,0.0,0.0,-0.00784205647884701,0.03228236059569461,0.9762620989304038
2012-04-20,-1,-0.002744687425803074,-0.001450876149609339,-0.00975658087333005,0.031043195752708842,0.97778066266624
2012-04-24,-1,-0.001528943784619347,-0.0007146014295355426,-0.008739188085584704,0.03228236059569461,0.9772139664386916
2012-04-26,1,0.0026899570588563315,0.0030104263799164716,-0.008739188085584704,0.03618197449164713,0.9727334646434281
2012-04-30,1,0.004112467943612476,0.004123249124170867,-0.008739188085584704,0.035706553911096964,0.9737676040931325
2012-05-02,1,0.005516289648957139,0.005871579276866141,-0.007506243955104258,0.03618197449164713,0.9731515109886366
2012-05-04,0,0.0,0.0,-0.010529215807761364,0.035706553911096964,0.9677873314148101
2012-05-08,0,0.0,0.0,-0.010529215807761364,0.035706553911096964,0.967387803077595
2012-05-10,1,0.006495591605673715,0.006926521333815212,-0.010529215807761364,0.03667515512258278,0.9641189234893182
2012-05-14,1,0.0073920952931732405,0.007974457903422764,-0.020179348420272927,0.03667515512258278,0.96272925876202
2012-05-16,1,0.006307822137085896,0.006691908921055766,-0.020179348420272927,0.04197553238359915,0.9602441358726981
2012-05-18,1,0.0009901881702375662,0.0013323937704175343,-0.015316951258140917,0.04197553238359915,0.9599668398350242
2012-05-22,1,0.00023635523194348606,0.0008528180440109787,-0.004854374294030178,0.0399582719067029,0.9613062220835826
2012-05-24,0,0.0,0.0,-0.02571821606714208,0.03914075149332073,0.9645249582980696
2012-05-29,0,0.0,0.0,-0.036914186147357024,0.03914075149332073,0.9635892256837859
2012-05-31,0,0.0,0.0,-0.036914186147357024,0.03509345594648596,0.9639219800878878
2012-06-04,0,0.0,0.0,-0.009485825638688671,0.03509345594648596,0.9696301034254501
2012-06-06,0,0.0,0.0,-0.02297686193798265,0.03348090463534862,0.9700228340618231
2012-06-08,0,0.0,0.0,-0.02297686193798265,0.030617972381783588,0.9729712606134863
2012-06-12,0,0.0,0.0,-0.009485825638688671,0.03169691387545759,0.9741537354228991
2012-06-14,0,0.0,0.0,-0.013535334058817475,0.030055238151988968,0.9762873314789065
2012-06-18,0,0.0,0.0,-0.013535334058817475,0.026912082510370913,0.9786182394074523
2012-06-20,0,0.0,0.0,-0.02495816899198309,0.022185454983668355,0.9751461425415868
2012-06-22,-1,-0.0008379964810571827,-0.0008306418273212794,-0.02566851356054858,0.018556912528332605,0.9756736589683597
2012-06-26,0,0.0,0.0,-0.030038903424004802,0.017298628697540015,0.9746780645944093
2012-06-28,0,0.0,0.0,-0.030038903424004802,0.0154488280807242,0.9757366025391004
2012-07-02,0,0.0,0.0,-0.030038903424004802,0.0150674487586009,0.9758024917598639
2012-07-05,0,0.0,0.0,-0.038272851004641215,0.014488309654583531,0.9746588306450985
2012-07-09,0,0.0,0.0,-0.038272851004641215,0.014488309654583531,0.9760898464892764
2012-07-11,1,0.010713215963867654,0.011349538846001005,-0.03954071007116412,0.007945976289442939,0.9681993472446375
2012-07-13,0,0.0,0.0,-0.03954071007116412,0.00414769317289284,0.9727103252685034
2012-07-17,0,0.0,0.0,-0.03954071007116412,0.005181059478361655,0.9737222452073793
2012-07-19,0,0.0,0.0,-0.03473129613720004,0.005181059478361655,0.9779187919999754
2012-07-23,0,0.0,0.0,-0.02614742199397902,0.014488309654583531,0.9768335536543784
2012-07-25,0,0.0,0.0,-0.008972231541827445,0.01676668030715043,0.9760476097841636
2012-07-27,-1,-0.005061220227623759,-0.003662120332076182,-0.016299109923900903,0.01676668030715043,0.9741052492988845
2012-07-31,-1,-0.0049686671746816706,-0.0035840476347540353,-0.02153629358985811,0.01676668030715043,0.9742188887974608
2012-08-02,0,0.0,0.0,-0.02153629358985811,0.01676668030715043,0.9754000760045569
2012-08-06,0,0.0,0.0,-0.02153629358985811,0.01676668030715043,0.9745592485926011
2012-08-08,0,0.0,0.0,-0.019983185167733824,0.01732212173107052,0.9762360543481239
2012-08-10,0,0.0,0.0,-0.013574068930877873,0.019618976620605657,0.9743842174734376
2012-08-14,0,0.0,0.0,-0.019983185167733824,0.019618976620605657,0.9723040588392056
2012-08-16,0,0.0,0.0,-0.02354163800676653,0.019618976620605657,0.968273981506861
2012-08-20,0,0.0,0.0,-0.0256723501634869,0.017365089415179037,0.9702104439909405
2012-08-22,0,0.0,0.0,-0.02774346632482199,0.017365089415179037,0.9704252052596298
2012-08-24,0,0.0,0.0,-0.024364613537290955,0.017365089415179037,0.9722888957583342
2012-08-28,-1,-0.005801580026445791,-0.004973131089658323,-0.024364613537290955,0.0187191720747845,0.9724785575133834
2012-08-30,0,0.0,0.0,-0.02233153545901816,0.0187191720747845,0.9722392898828756
2012-09-04,0,0.0,0.0,-0.02233153545901816,0.0187191720747845,0.9724700867847043
2012-09-06,0,0.0,0.0,-0.02233153545901816,0.01825896697077746,0.9724441359165862
2012-09-10,-1,-0.00538312410607444,-0.00410409580485166,-0.02233153545901816,0.013372697354571396,0.9763870410121903
2012-09-12,-1,-0.003731941767699576,-0.002798110955398262,-0.02224701811344234,0.010262668570712766,0.9772634007336554
2012-09-14,-1,-0.009755439381885521,-0.008123511127946199,-0.014992216027124,0.013322227957121234,0.9804493185396251
2012-09-18,-1,-0.00910426934281738,-0.007667972953846327,-0.013747821569051938,0.014760323350397524,0.9799689905146057
2012-09-20,-1,-0.006516736150413869,-0.0054757648954062935,-0.010336715393765981,0.012572399032572838,0.9835112894655601
2012-09-24,-1,-0.007047890263779278,-0.00596093849420976,-0.010336715393765981,0.014760323350397524,0.9811416560555494
2012-09-26,0,0.0,0.0,-0.008123490151071106,0.01494876598775534,0.982721199816651
2012-09-28,0,0.0,0.0,-0.008123490151071106,0.01494876598775534,0.9820684316578322
2012-10-02,-1,-0.0039299301229665014,-0.0034124605570547244,-0.008123490151071106,0.01821038249273222,0.9807330964543389
2012-10-04,-1,-0.0004106498366441805,-0.00034540571787301073,-0.0050625213574665585,0.01494876598775534,0.9853809507099249
2012-10-08,-1,-0.0010319254521613994,-0.0008720732804906556,-0.00471137441148012,0.01494876598775534,0.9852139775303997
2012-10-10,-1,-0.004767469821901432,-0.003931928956612624,-0.00471137441148012,0.01821038249273222,0.9823132021128143
2012-10-12,-1,-0.0036679840519051907,-0.0031151737020050853,-0.00471137441148012,0.02214897812005413,0.981759445190666
2012-10-16,1,0.00013637334649178775,0.00029970352919086985,-0.010068355734702269,0.02214897812005413,0.9813086013362329
2012-10-18,1,0.0008704042570536312,0.0012647606565992914,-0.02221720236098196,0.023472236537596988,0.9796045198275751
2012-10-22,1,0.002599782155435894,0.0033301262741482446,-0.010954500561213828,0.023472236537596988,0.9810631789976814
2012-10-24,1,0.0007900745624153291,0.0009239047303156122,-0.010954500561213828,0.02489770339710305,0.9806826451378596
2012-10-26,0,0.0,0.0,-0.008605556677789686,0.02489770339710305,0.9805995008955062
2012-11-01,0,0.0,0.0,-0.010216099365776906,0.020843092003025913,0.9825947459961207
2012-11-05,0,0.0,0.0,-0.01891171622858053,0.020843092003025913,0.9811684905527684
2012-11-07,0,0.0,0.0,-0.021886275746428582,0.02489770339710305,0.9785564563626095
2012-11-09,0,0.0,0.0,-0.018834847208144143,0.020843092003025913,0.981060809622951
2012-11-13,-1,-0.0026896187054250946,-0.0020048338504489735,-0.016070727822330415,0.014429826753361946,0.9824448976692192
2012-11-15,0,0.0,0.0,-0.014351349463532403,0.020055535449129646,0.9832874634212629
2012-11-19,0,0.0,0.0,-0.011589419641365927,0.014429826753361946,0.9850119026988481
2012-11-21,1,0.006283442526601676,0.007413654221524889,-0.011589419641365927,0.014429826753361946,0.9847671305018819
2012-11-26,1,0.008270329558589303,0.009684403553429026,-0.011589419641365927,0.012554422640210025,0.9841822861674387
2012-11-28,1,0.008257450348680273,0.009663346740492226,-0.010068108834902303,0.008996007452134787,0.9841152961553794
2012-11-30,1,0.0076999587558089205,0.009003567230855896,-0.011589419641365927,0.012554422640210025,0.9817091659582569
2012-12-04,0,0.0,0.0,-0.010068108834902303,0.014831274564772063,0.9822243027186794
2012-12-06,1,0.008699880419189909,0.010347794886741046,-0.00859489628744681,0.014831274564772063,0.9811158101395873
2012-12-10,0,0.0,0.0,-0.00859489628744681,0.021335739545503777,0.9806459880405358
2012-12-12,0,0.0,0.0,-0.00859489628744681,0.021335739545503777,0.9805191063178965
2012-12-14,0,0.0,0.0,-0.00859489628744681,0.014773151408549779,0.9805225542108887
2012-12-18,1,0.0040382578638993236,0.004535562150259571,-0.00993280319719067,0.02176298181004088,0.9791885780926737
2012-12-20,1,0.00585846876628326,0.006613880406850578,-0.00993280319719067,0.02176298181004088,0.9790046698966886
2012-12-24,1,0.005313366168851653,0.006027339053376409,-0.013412163404051582,0.02176298181004088,0.9784743104860183
2012-12-27,1,0.002999552401678413,0.0032419312843387704,-0.013412163404051582,0.02176298181004088,0.9789958026848227
2012-12-31,1,0.004181228777391853,0.0045942242820311945,-0.013412163404051582,0.020728263367373385,0.9800683202335344
2013-01-03,1,0.0032353572026495915,0.0033741892313697685,-0.010490825845157373,0.016223553808084747,0.9819636345674629
2013-01-07,1,0.005414796898936865,0.0057598717632449505,-0.010490825845157373,0.00906468471001243,0.9842653122655782
2013-01-09,1,0.005865607491096902,0.006250921727888609,-0.010490825845157373,0.016223553808084747,0.9823990825130429
2013-01-11,1,0.003967014033242514,0.004060783155677364,-0.013318607078335685,0.016223553808084747,0.9818735915044606
2013-01-15,1,0.003657385623192346,0.0038515847319001224,-0.01168827015223404,0.020927923645479157,0.9819312777017636
2013-01-17,1,0.005441089072065166,0.0061242669082807785,-0.014770003584612175,0.022169937839640965,0.9794179078146535
2013-01-22,1,0.005364043250435735,0.005891465088827482,-0.0207020755448053,0.016223553808084747,0.9764007368225939
2013-01-24,1,0.004120664268831295,0.004344534250544064,-0.017329034855461903,0.01633161440288296,0.9780654007629164
2013-01-28,1,0.00393939646264136,0.0040311811545058794,-0.0207020755448053,0.01582742711546224,0.9760461939235511
2013-01-30,0,0.0,0.0,-0.017329034855461903,0.01582742711546224,0.9785837523552221
2013-02-01,0,0.0,0.0,-0.017329034855461903,0.019151836022357024,0.9775263584116782
2013-02-05,1,0.0026457984290539265,0.0029663509005555372,-0.017329034855461903,0.02281339955594011,0.9768578886709739
2013-02-07,0,0.0,0.0,-0.017329034855461903,0.01747719936012891,0.9782807902681616
2013-02-11,0,0.0,0.0,-0.002166322817242364,0.019151836022357024,0.9785180238914631
2013-02-13,0,0.0,0.0,0.002623425123032397,0.021323449003780005,0.9781661679435975
2013-02-15,0,0.0,0.0,0.002623425123032397,0.01987646656659348,0.9803786379116542
2013-02-20,-1,-0.003952705518608302,-0.003038119933943412,0.009780472327756026,0.022141342399697762,0.9790545787178345
2013-02-22,-1,-0.00308235854857767,-0.0022679825198736936,0.005433612770094011,0.022141342399697762,0.980120715584891
2013-02-26,-1,-0.004766592810981248,-0.0037358499196140918,-0.000236830106224337,0.022141342399697762,0.9815812224155795
2013-02-28,-1,-0.003514590648145497,-0.002713153781953182,0.003705324200689316,0.022141342399697762,0.9813244178490361
2013-03-04,0,0.0,0.0,-0.009513639661351025,0.022141342399697762,0.9806534344575801
2013-03-06,0,0.0,0.0,-0.013343551203726154,0.01989205596945514,0.9818164079991616
2013-03-08,0,0.0,0.0,-0.013343551203726154,0.01989205596945514,0.9825090480536945
2013-03-12,1,0.0020612156537907463,0.0021505381343991502,-0.013343551203726154,0.019264234886795274,0.9839282032486716
2013-03-14,1,0.003916644087031306,0.004089187839890441,-0.013343551203726154,0.012531773135142147,0.984490182342405
2013-03-18,1,0.004021934049698252,0.004211657326878718,-0.013343551203726154,0.012531773135142147,0.9821626438669775
2013-03-20,1,0.005620035351964619,0.006075056715753764,-0.013866870021775531,0.008650524001940944,0.9825501707166368
2013-03-22,1,0.005430766883824584,0.0059081386476538085,-0.015985398937462987,0.008650524001940944,0.9819079579453756
2013-03-26,1,0.0033356049997040624,0.0034442630880582538,-0.014425908078986924,0.00947756862382557,0.9810303756105284
2013-03-28,1,0.005073298076780159,0.005524153068577439,-0.0149059406682496,0.00947756862382557,0.9802280865035378
2013-04-02,0,0.0,0.0,-0.009964255805189533,0.011042212575393937,0.9829971591499362
2013-04-04,0,0.0,0.0,-0.010124266668277091,0.015066203426814664,0.9822928119671258
2013-04-08,1,0.002848202762019554,0.0028946795510552763,-0.010124266668277091,0.015066203426814664,0.9827694731660537
2013-04-10,1,0.0022856871990878562,0.0023217718453309604,-0.0072221670297014625,0.020661814810269272,0.9823018581332453
2013-04-12,1,0.001779377834683688,0.0019782213774254165,-0.0072221670297014625,0.020661814810269272,0.9827575462897974
2013-04-16,1,0.002124965240616925,0.0022871920239093506,-0.0029314626406144683,0.020661814810269272,0.9857291792230284
2013-04-18,1,0.0017911170329014858,0.0019359225709634522,-0.0014454490799297721,0.021262276550328925,0.9848061987006437
2013-04-22,1,0.0007773356428133231,0.0009820412388860653,-0.0014454490799297721,0.021262276550328925,0.9849518862218701
2013-04-24,1,0.0032004378673706063,0.003278987474191637,-0.0031275202661272734,0.020661814810269272,0.9860260314877121
2013-04-26,1,0.0029784504949394064,0.003008137770350601,-0.0014454490799297721,0.017480985786387012,0.9871394158648531
2013-04-30,0,0.0,0.0,-0.005144974881211679,0.017480985786387012,0.9866788829869295
2013-05-02,0,0.0,0.0,-0.0056827907824986024,0.014995804055023888,0.9878290135241156
2013-05-06,0,0.0,0.0,-0.0056827907824986024,0.014995804055023888,0.9874524527900016
2013-05-08,0,0.0,0.0,-0.010731339758768568,0.010455029444396092,0.9857212857204726
2013-05-10,0,0.0,0.0,-0.010731339758768568,0.0142009950904882,0.9851014434340634
2013-05-14,0,0.0,0.0,-0.016575640032339235,0.010355078106153397,0.9851807435178963
2013-05-16,0,0.0,0.0,-0.016575640032339235,0.0027499404894982815,0.9872866668845319
2013-05-20,0,0.0,0.0,-0.010731339758768568,0.008052719818309524,0.9878101981235298
2013-05-22,1,0.003131190161821607,0.0032157929419998964,-0.01096975094593638,0.008052719818309524,0.9871679752731536
2013-05-24,1,0.004368936591924864,0.00463020632439002,-0.016575640032339235,0.00281139280952548,0.9851716093453672
2013-05-29,1,0.0029814973595974855,0.003059838488690833,-0.017786098740129763,0.008052719818309524,0.985284690276293
2013-05-31,1,0.004405072562262002,0.004831548995055298,-0.017786098740129763,0.008770083876124369,0.9856993748749362
2013-06-04,1,0.0046833012034387745,0.005243395203021211,-0.018552746728372323,0.010018739091488406,0.9841677151584056
2013-06-06,1,0.002115762801766902,0.0022444772305539205,-0.014043570757662773,0.014558062139583642,0.9865293502247797
2013-06-10,1,0.002467203870230664,0.002505986642984007,-0.014043570757662773,0.010475757478826543,0.9867853467398142
2013-06-12,0,0.0,0.0,-0.011421537570733682,0.012718480346836357,0.9866246509806434
2013-06-14,1,0.0008387307524109786,0.0008557929063573849,-0.011421537570733682,0.012718480346836357,0.986397102321432
2013-06-18,1,0.0011834833297822062,0.00119747758892284,-0.011421537570733682,0.013605338101175856,0.9854535845360471
2013-06-20,1,0.00031126208769193203,0.0003879303850518491,-0.01047236077469518,0.013605338101175856,0.9860487098367137
2013-06-24,-1,-0.0023073625298614545,-0.001822025848974022,-0.004668690808511976,0.013605338101175856,0.9867521435083279
2013-06-26,0,0.0,0.0,-0.0023166317427236833,0.018247512365119463,0.9869606817353617
2013-06-28,0,0.0,0.0,-0.0023166317427236833,0.018247512365119463,0.9866812414965265
2013-07-02,0,0.0,0.0,-0.0015765125727675556,0.014815282775325065,0.988426654610048
2013-07-05,-1,-0.0007244049611152441,-0.0006336983488114476,-0.0023166317427236833,0.012188142470391815,0.988248785418228
2013-07-09,0,0.0,0.0,-0.004668690808511976,0.012039583671963899,0.9886240708401788
2013-07-11,0,0.0,0.0,-0.003079091032557608,0.011845556726073923,0.9893146324034325
2013-07-15,0,0.0,0.0,-0.004668690808511976,0.01217432252320846,0.9888489177171671
2013-07-17,0,0.0,0.0,-0.010639609100358317,0.008816339823569233,0.9852897731023201
2013-07-19,0,0.0,0.0,-0.011970595649878662,0.01217432252320846,0.9836259164756502
2013-07-23,0,0.0,0.0,-0.01478616539974097,0.01217432252320846,0.9824931590838522
2013-07-25,0,0.0,0.0,-0.01478616539974097,0.010629606743039668,0.9831229425174579
2013-07-29,1,0.002104136595873088,0.0021638736446501178,-0.01478616539974097,0.008416902127835163,0.9834961938297597
2013-07-31,1,0.002415355861259483,0.002425541665439543,-0.020793410417327678,0.0069295095953238175,0.9810274460574214
2013-08-02,1,0.002253957094096633,0.0023323551657791247,-0.01478616539974097,0.012003768957692448,0.9800608223055792
2013-08-06,1,0.0027262272843057295,0.0029449674402780147,-0.013715550877213024,0.012956648523722133,0.9796992510365684
2013-08-08,1,0.002701344690784609,0.002911643685941484,-0.013715550877213024,0.012956648523722133,0.9790514279330992
2013-08-12,1,0.0031695269033597227,0.0035192625606983016,-0.011290741363015284,0.02024222254239678,0.9772534941300696
2013-08-14,-1,-0.0021511460943341738,-0.0017847391188825909,-0.009098296556958199,0.02024222254239678,0.9805669325997723
2013-08-16,-1,-0.0034700384288063593,-0.0029048392462894556,-0.007171552379296065,0.017080830540881546,0.9811408346812079
2013-08-20,-1,-0.003462816632736203,-0.0029453201796232355,-0.005499498428246998,0.02649291790744817,0.9807636280792633
2013-08-22,-1,-0.0038053745752208235,-0.0031201908629864125,-0.005499498428246998,0.018049775673826197,0.9815737387893176
2013-08-26,-1,-0.004012741539969233,-0.0033189387235094342,-0.004432639764832434,0.018049775673826197,0.9813604450513207
2013-08-28,-1,-0.005760575931098513,-0.004875976594332719,-0.001725232786050983,0.018049775673826197,0.9808297519321768
2013-08-30,-1,-0.004829310395857403,-0.004038011350400725,-0.004432639764832434,0.015221041450649085,0.9837302094332526
2013-09-04,-1,-0.003094889287322036,-0.0025771543438259203,-0.004432639764832434,0.015221041450649085,0.9839858822816828
2013-09-06,-1,-0.0028355151799364835,-0.0023569384314629173,-0.0026568197148689695,0.01970793731509852,0.983169269061403
2013-09-10,-1,-0.0004300642312042016,-0.00018388879992459986,-0.005381599731462833,0.013989907587430819,0.9865061298573786
2013-09-12,-1,-0.0028556836893028257,-0.0022566533776107326,-0.0026568197148689695,0.015221041450649085,0.9859170947097948
2013-09-16,-1,-0.00014524579780881647,-2.553671786820281e-05,-0.004735223916420896,0.015221041450649085,0.986966440691982
2013-09-18,1,0.0010594583827160896,0.0011033264586472857,-0.004735223916420896,0.011828721523620475,0.9885405489433825
2013-09-20,1,0.0015833349336277969,0.0017250738562499684,-0.004487787172017184,0.011828721523620475,0.9885972556722534
2013-09-24,1,0.00182780885033512,0.0020040387557039535,-0.004487787172017184,0.015947065606049422,0.9874208714740934
2013-09-26,1,0.0025362923144192535,0.002804901302081298,-0.006406196020558159,0.019305057558898588,0.9845459923260829
2013-09-30,1,0.0021479972540848465,0.002412595961944606,-0.0064295676165367355,0.019305057558898588,0.9843440988690878
2013-10-02,1,0.0039036082859627208,0.004447654600281052,-0.0064295676165367355,0.016874339100356506,0.9856422303289694
2013-10-04,1,0.005410691634635754,0.006184636776195835,-0.006772383590963341,0.016874339100356506,0.9848573381673132
2013-10-08,1,0.004972112647617212,0.0057616671572311194,-0.004495577704010044,0.016874339100356506,0.9859462095510205
2013-10-10,1,0.005131626470061299,0.005886505288216937,-0.008153972923061038,0.013113072829423863,0.9850861352871794
2013-10-14,1,0.004570210214924873,0.005189870952446964,-0.007826813016049794,0.016874339100356506,0.9835104440720439
2013-10-16,1,0.004785797811572647,0.005470740892309554,-0.009782887348451527,0.016874339100356506,0.9830635687284827
2013-10-18,1,0.005184126112881897,0.005879970771757195,-0.009782887348451527,0.015350331114831969,0.9830864732239197
2013-10-22,1,0.005847786418717998,0.006588361255190262,-0.009782887348451527,0.015350331114831969,0.983220493884016
2013-10-24,1,0.005828483260963707,0.006571091058768984,-0.007494227628788326,0.012777773438685358,0.986227516895946
2013-10-28,1,0.0036340752703084996,0.003980372425055534,-0.006979437020450972,0.012777773438685358,0.987428087527886
2013-10-30,1,0.005153929071753602,0.005750289118648336,-0.007494227628788326,0.011761674072417273,0.987064047220778
2013-11-01,1,0.004187219772084692,0.004598597364059771,-0.009782887348451527,0.0109754743491187,0.9870685732708928
2013-11-05,1,0.004262962649087886,0.004675523255685517,-0.01514909734997305,0.009976633244850208,0.9847584367054076
2013-11-07,1,0.0032011213500824777,0.003511313434792222,-0.011131281739214651,0.0109754743491187,0.9854920510427816
2013-11-11,1,0.004480769219457019,0.004828704230179357,-0.011131281739214651,0.011454437651318448,0.9832364553552224
2013-11-13,1,0.004169862031906207,0.004371150662887237,-0.01798928864303758,0.012507426834219976,0.9809571694961522
2013-11-15,1,0.004843320785661898,0.0051097489384837914,-0.01798928864303758,0.01620241560691392,0.9800095784405863
2013-11-19,1,0.00499174676714212,0.00530130568251527,-0.01884590472163922,0.012375486237803705,0.9802141190838087
2013-11-21,1,0.003951301883648998,0.0041113878417171085,-0.01884590472163922,0.012375486237803705,0.9804317225188834
2013-11-25,1,0.0041666409380939065,0.004400810720208865,-0.01884590472163922,0.012158365351526673,0.980557592154444
2013-11-27,1,0.004093308941404632,0.004381063287860584,-0.019568597506432625,0.012158365351526673,0.9789653339544334
2013-12-02,1,0.0028132170330537063,0.0029024017457978013,-0.009602976855827509,0.015607172144367784,0.9799545200003463
2013-12-04,1,0.0012996958129964176,0.0013593067168187404,-0.0048528227040945575,0.019712123428234803,0.9800895430340665
2013-12-06,1,0.0031217019576940657,0.003369533830657297,-0.0048528227040945575,0.018588736555817817,0.9807560385221312
2013-12-10,1,0.004266638775452979,0.004679350549757447,-0.0048528227040945575,0.020914117291177838,0.98146517163608
2013-12-12,1,0.003042730198335902,0.0032451539460232816,-0.0048528227040945575,0.018588736555817817,0.9828269819483773
2013-12-16,1,0.005646219357118273,0.006277361464567871,-0.0048528227040945575,0.01064550783115157,0.9839505119553574
2013-12-18,1,0.005143674589836316,0.005756944805834957,-0.004472522077426499,0.018588736555817817,0.9838966223101661
2013-12-20,1,0.0054080627080941215,0.006065296313845812,-0.004472522077426499,0.01955493540406228,0.9831580542548203
2013-12-24,1,0.004508875249966312,0.004986191617596082,-0.004472522077426499,0.01955493540406228,0.9819736267425783
2013-12-27,1,0.002801642732389198,0.003025752109452614,-0.0028943782027631903,0.021783465213452053,0.981026829117888
2013-12-31,1,0.003490205314390365,0.00379846635356781,-0.0013742043997999253,0.02533661544001696,0.9801064357040047
2014-01-03,1,0.004271677592085307,0.004651258195802747,-0.0028943782027631903,0.02359830698871063,0.9815395397760553
2014-01-07,1,0.0018292747145977988,0.0020308976267794476,-0.0035936974577356097,0.02359830698871063,0.9813477106718682
2014-01-09,1,0.0037709045023975297,0.0037970356265545624,-0.0035936974577356097,0.02359830698871063,0.9834780020889123
2014-01-13,1,0.001748471749123786,0.0020605643214032287,-0.0037014745092941474,0.02359830698871063,0.9837089897156277
2014-01-15,1,0.0021793233980532027,0.0024042539129925404,-0.007263150724420558,0.02359830698871063,0.9831229575942022
2014-01-17,1,0.0031830649569416307,0.0033179522586501337,-0.0073557205206729185,0.022205211137427894,0.9836414517992406
2014-01-22,1,0.002694910476954967,0.003032186685227037,-0.0073557205206729185,0.025008609974055875,0.9837366402502785
2014-01-24,1,0.0017162876155172016,0.00212847617847967,-0.007263150724420558,0.025008609974055875,0.9842470210682863
2014-01-28,1,0.004322515538088352,0.004364301389735931,-0.006903103585200544,0.016942154916648633,0.9867954636602295
2014-01-30,1,0.005389908297689649,0.00545172634066695,-0.006903103585200544,0.012483111481498846,0.9884056051028096
2014-02-03,1,0.006595307494544258,0.006976644201383064,-0.006903103585200544,0.01352849274363231,0.9867551920778802
2014-02-05,1,0.0052431812852442505,0.005352491170243889,-0.0055667121832500945,0.01699938512654342,0.9859746841208176
2014-02-07,1,0.0068954441368778985,0.007255082690156584,-0.0055667121832500945,0.013434594042346253,0.9879202286042797
2014-02-11,1,0.006464748581618926,0.006799915374933432,-0.008198811718066655,0.013434594042346253,0.9868804508287727
2014-02-13,1,0.005976733934860036,0.006248080856677543,-0.011579386370564246,0.013434594042346253,0.9857462389190383
2014-02-18,1,0.004638745769137948,0.004726338855397704,-0.009684749441839183,0.014019995531460619,0.9849088650943058
2014-02-20,1,0.006260308854147052,0.0065916224317486075,-0.011579386370564246,0.013434594042346253,0.9847163595631178
2014-02-24,1,0.006196311829241406,0.006417387244048415,-0.01264528412933123,0.011071764592936564,0.9838825751728941
2014-02-26,1,0.006655187788673354,0.007032479804186552,-0.01374754119280339,0.015221633097888739,0.9816142814214911
2014-02-28,1,0.007259003235871069,0.007795937688433714,-0.015975739833842456,0.015221633097888739,0.9797534634346678
2014-03-04,1,0.006562867479155283,0.006924675182047363,-0.01374754119280339,0.020604297825827782,0.9799693420828419
2014-03-06,1,0.007768074108393792,0.008307250548386689,-0.01374754119280339,0.008835275053494936,0.9792027076143816
2014-03-10,1,0.007470376917913956,0.007954776429211156,-0.021000536191726975,0.00023041675039999453,0.9771322273421349
2014-03-12,1,0.005644628200670487,0.005871128380035457,-0.015740081633514844,0.02072363553463609,0.9793093933530367
2014-03-14,1,0.004173500538171131,0.004252835210214782,-0.021000536191726975,0.02072363553463609,0.9770048391779756
2014-03-18,1,0.005359444605046168,0.005667367533548971,-0.021000536191726975,0.012643459187154427,0.9780238852373494
2014-03-20,1,0.004089603073746662,0.004210344325581591,-0.021000536191726975,0.02072363553463609,0.9770633307305967
2014-03-24,1,0.003099683448155136,0.003201162358478636,-0.021000536191726975,0.016695265370850546,0.9780279628143852
2014-03-26,1,0.0025807006116937586,0.0026997541570139036,-0.013189866424570148,0.016695265370850546,0.9798366605906974
2014-03-28,1,5.916419026236251e-05,0.0005185458812740121,-0.021000536191726975,0.016695265370850546,0.9789923622638763
2014-04-01,1,0.002723483809162452,0.00287259290373011,-0.021000536191726975,0.010087970694921644,0.9808927386948738
2014-04-03,1,0.0004387366976211966,0.000942855536462112,-0.021000536191726975,0.011300669132559244,0.9802275771268816
2014-04-07,-1,-0.0005329896004983604,-2.3974097592835896e-05,-0.010000946599774803,0.011300669132559244,0.9818573243159268
2014-04-09,1,0.000572035353292228,0.0009513158377486789,-0.010000946599774803,0.014052491376668091,0.9815434256050182
2014-04-11,-1,-0.002710097610457319,-0.0020028339172606284,-0.0005783616949872716,0.017678799118239916,0.9831488587820221
2014-04-15,-1,-0.0028906713774459938,-0.0021756783083161004,-0.00229759871556981,0.017678799118239916,0.9835386144988831
2014-04-17,-1,-0.001977328191066028,-0.0013339328237502767,-0.004512260466767807,0.014052491376668091,0.9854097633418625
2014-04-22,-1,-0.0010691326183053683,-0.0005453994505837225,-0.009405934774749533,0.011215517905636296,0.9863574011895822
2014-04-24,-1,-0.0006016739762053516,-9.553461087413902e-05,-0.009405934774749533,0.01007545110687775,0.9873485865822584
2014-04-28,-1,-0.005300769111159173,-0.004147159476364067,-0.0003116849798489997,0.010163836792545193,0.9870235903953974
2014-04-30,-1,-0.006921686942081744,-0.005455340465141631,0.00044224156228814975,0.010687802974379832,0.986077345142526
2014-05-02,-1,-0.0046796209763562985,-0.0035541968115999334,0.00044224156228814975,0.010687802974379832,0.987666114371115
2014-05-06,-1,-0.0035141769977609216,-0.0026148928921492457,0.00044224156228814975,0.012326569194524899,0.9866822405794201
2014-05-08,0,-0.0005374308294331192,6.468317082201002e-05,-0.0003116849798489997,0.010687802974379832,0.9883810243448694
2014-05-12,1,0.0013497532626283379,0.0016576207110429767,-0.0031754300399101346,0.010163836792545193,0.9899170776637677
2014-05-14,0,-0.0001436951376933386,0.00038537202098625086,-0.007095670888194568,0.010163836792545193,0.9863349602963654
2014-05-16,-1,-0.0008936799112820805,-0.00027751211970118814,-0.0012753454840512927,0.010687802974379832,0.9862223320742971
2014-05-20,-1,-0.0018563636103343319,-0.0011025168796093532,0.0013300304434804675,0.017347006911849608,0.9842477420614334
2014-05-22,-1,-0.003531951431242198,-0.0025180559911725246,0.0013300304434804675,0.019082752238409682,0.9819164864883315
2014-05-27,-1,-0.0028215541083445182,-0.0019120418443747153,-0.00485086867364034,0.019082752238409682,0.9821055273465664
2014-05-29,-1,-0.0011759065423542518,-0.0004973482220809245,-0.00485086867364034,0.019082752238409682,0.9816551244683748
2014-06-02,0,-0.0001950407135340598,0.0003245598212747449,-0.010267636630382632,0.01739645991963065,0.9819035051104008
2014-06-04,1,0.0028631841528304,0.002903568791810038,-0.01516834268468044,0.01739645991963065,0.9805684552391942
2014-06-06,1,0.003014978375146377,0.003091839503461323,-0.02437742521822269,0.016856511259866883,0.9802857656689631
2014-06-10,1,0.001967224495441611,0.002190044600716033,-0.02437742521822269,0.01739645991963065,0.9788381743080798
2014-06-12,1,0.0008269861093844212,0.001104446107156752,-0.008986328964141234,0.019082752238409682,0.981798335140308
2014-06-16,1,0.0024038268275769496,0.0024439781454683924,-0.008986328964141234,0.019082752238409682,0.9821124032820545
2014-06-18,1,0.002931256571478484,0.0029774698000704465,-0.01516834268468044,0.016790495749989892,0.9812416647992194
2014-06-20,1,0.005274500040857994,0.0056577993281105,-0.01516834268468044,0.016790495749989892,0.9807005169994407
2014-06-24,1,0.004749784911979183,0.005109327867400405,-0.010775115061160129,0.017621113967465532,0.9816215805546127
2014-06-26,1,0.005577459659894594,0.006050410346854331,-0.01516834268468044,0.017505645449807504,0.9800270038637999
2014-06-30,1,0.0036764417339405437,0.003866727775215696,-0.020898000999305798,0.017505645449807504,0.9798979469497388
2014-07-02,1,0.0037827143071259527,0.004108766424014962,-0.017990174530095555,0.007180517524250519,0.981783932934466
2014-07-07,1,0.001561494052854527,0.001571098609989087,-0.017990174530095555,0.015384948546256504,0.9824983649344741
2014-07-09,1,0.0026109766793936152,0.0027185542808625847,-0.020440070856219347,0.009380488947084301,0.9827264621917785
2014-07-11,1,0.002219839136256848,0.002225014658654435,-0.020440070856219347,0.007818545569154262,0.9825374334815669
2014-07-15,1,0.003539162028040291,0.003802438651321376,-0.020440070856219347,0.007818545569154262,0.9811988815000529
2014-07-17,1,0.0020236847139763585,0.002126954378801455,-0.017990174530095555,0.015194804573188943,0.9817635822960756
2014-07-21,1,0.0025909654345493602,0.002763113577453911,-0.017990174530095555,0.015194804573188943,0.9813148420498284
2014-07-23,1,0.003298717237672884,0.0035750018548367565,-0.017990174530095555,0.010243432513183926,0.9819374127671353
2014-07-25,1,0.0018647095769924605,0.0019593419461832653,-0.017990174530095555,0.010243432513183926,0.9824705302230794
2014-07-29,1,0.0005964429733557165,0.0006053265455493164,-0.012892872181470809,0.010243432513183926,0.9841519451227551
2014-07-31,1,6.571930062514915e-05,0.00011503377265470317,-0.01105572458226068,0.010243432513183926,0.9847162985149241
2014-08-04,-1,-0.0017391080529614309,-0.0014006084126035694,-0.009900064458750876,0.010508974439398824,0.9847948165300145
2014-08-06,-1,-0.002960212077078247,-0.002431256183998297,-0.01105572458226068,0.010508974439398824,0.9842677183920998
2014-08-08,-1,-0.0024590383225118126,-0.0020361567673614816,-0.01105572458226068,0.01152760164544609,0.9841108073059942
2014-08-12,-1,-0.0036802057945457614,-0.0030725571255980893,-0.009900064458750876,0.01152760164544609,0.9847074806738602
2014-08-14,-1,-0.0012209743013793422,-0.000914781193604974,-0.011838895229700603,0.005613713750455456,0.9860476309255934
2014-08-18,-1,-0.0003538799166646051,-0.0001346819956323332,-0.013376966764231507,0.005613713750455456,0.9861149528554142
2014-08-20,-1,-0.0014245416998490538,-0.0010188004089734175,-0.014119845187094585,0.008963980119234622,0.9855352956689275
2014-08-22,-1,-0.0005489632123283648,-0.0003878449222765424,-0.015582952183513608,0.005972273291816217,0.9837622001464957
2014-08-26,-1,-0.0019688034887680077,-0.0015976250874845802,-0.015582952183513608,0.011467278540987232,0.9837069327943306
2014-08-28,-1,-0.0028894268231553647,-0.0023283407168773512,-0.016366891772481545,0.015895867159240677,0.9821757997892053
2014-09-02,-1,-0.00031681999611905744,-0.0001395968270084864,-0.019100680491353834,0.013572150069157421,0.9818486077381273
2014-09-04,-1,-0.00520908782389363,-0.004264378857955437,-0.018349580966101474,0.013572150069157421,0.9838290232546556
2014-09-08,-1,-0.0050707639167239665,-0.004176478664844175,-0.025085009796698865,0.015895867159240677,0.9800361997764377
2014-09-10,-1,-0.0043682286505498675,-0.0035822941739521146,-0.026061597977841314,0.013572150069157421,0.9785888294330283
2014-09-12,-1,-0.005201715214409637,-0.00434838065376399,-0.030768429661591986,0.013572150069157421,0.9768115402224746
2014-09-16,-1,-0.0035036582133553275,-0.002929210286918217,-0.031175376163339527,0.013572150069157421,0.9698740064671546
2014-09-18,-1,-0.004528027165051728,-0.0037553244480539698,-0.031175376163339527,0.014746808424514262,0.9691586346362695
2014-09-22,-1,-0.00628332613421867,-0.005331221636817221,-0.030768429661591986,0.020926707726070654,0.9685818281189885
2014-09-24,-1,-0.004921910195356807,-0.0042026431641616745,-0.030768429661591986,0.025434406420278707,0.9652347110536181
2014-09-26,-1,-0.005020387231871464,-0.004293315257306737,-0.030768429661591986,0.039255466762703126,0.9635130529668053
2014-09-30,-1,-0.0043454353886972445,-0.003777238406146676,-0.030768429661591986,0.039255466762703126,0.9643265730307196
2014-10-02,-1,-0.005369035226821272,-0.004729720033928591,-0.02576335145818376,0.039255466762703126,0.9650754194946601
2014-10-06,-1,-0.0047375705604490274,-0.004141763082736908,-0.022062175508695703,0.035836679855194994,0.9676294890070997
2014-10-08,-1,-0.006469501071895907,-0.00566945373694451,-0.008226172779530493,0.035836679855194994,0.9680166204921484
2014-10-10,-1,-0.008626081368518626,-0.007559740153523242,0.0020428440725854605,0.035836679855194994,0.9677727108262989
2014-10-14,-1,-0.006657105912002827,-0.0058514886284832725,0.0020428440725854605,0.02824675140008599,0.9758489743682529
2014-10-16,-1,-0.0044292371313939555,-0.003909337388394604,0.0009855983411829951,0.022312448766522087,0.9784049866836534
2014-10-20,-1,-0.0026709794306062507,-0.002384742766055919,-0.003687677717379583,0.01776628220172021,0.9825526947743407
2014-10-22,-1,-0.0005070722082938036,-0.0004683150236008413,-0.003687677717379583,0.01776628220172021,0.9853764550512079
2014-10-24,1,0.002616730961149282,0.0031444945154028665,-0.007317137053505144,0.015761529964247484,0.9885887417054595
2014-10-28,1,0.003104067923356724,0.0037383251847304634,-0.007317137053505144,0.016082373865015404,0.9877086694336549
2014-10-30,1,0.0031746640850714523,0.0038041607196741987,-0.003687677717379583,0.019196047736646432,0.9840924073711765
2014-11-03,1,0.0030665509698261538,0.0035424885505825066,-0.007677823022843293,0.017143273343533813,0.9847187915585985
2014-11-05,1,0.0034173268745018364,0.003975205484751917,-0.003687677717379583,0.019196047736646432,0.9845668869514741
2014-11-07,1,0.004586585450132038,0.005357484714221362,-0.0046113168133826345,0.01936834928915565,0.9839965566649422
2014-11-11,1,0.0049886153411077185,0.005886081405895716,-0.0046113168133826345,0.01936834928915565,0.9821332629366698
2014-11-13,1,0.004951198268921552,0.005774599245064006,-0.008223920370177332,0.02316362959464746,0.980781021962398
2014-11-17,1,0.005066521256981323,0.005966851603964247,-0.011660290442984705,0.02316362959464746,0.978254195726517
2014-11-19,1,0.004772553841820126,0.005559457750990555,-0.00556416908475351,0.02316362959464746,0.9790346482967226
2014-11-21,1,0.0042136159821129626,0.004898042346876316,-0.0026629245290120023,0.02316362959464746,0.979787189900357
2014-11-25,1,0.004104948510756197,0.004688331268341274,-0.00556416908475351,0.02507139923182628,0.9791020316791159
2014-11-28,1,0.00828619168137943,0.009508163756241271,-0.00556416908475351,0.019210442601820303,0.9835912036447708
2014-12-02,1,0.007823893898295659,0.009007443422239612,0.000991530261987466,0.019210442601820303,0.9846590518761164
2014-12-04,1,0.009104836805860361,0.010492406019040466,-0.001348528552011427,0.017436468103526295,0.9853570382325185
2014-12-08,1,0.009007243961887295,0.010282896172925375,-0.0031948641133273488,0.017199017856582094,0.9850819194918707
2014-12-10,1,0.008052706164980612,0.009233394474134606,-0.0031948641133273488,0.017199017856582094,0.9859855181393418
2014-12-12,1,0.008889572046016935,0.010216639100346817,-0.0035222044269341956,0.01668632741208278,0.9850952409464705
2014-12-16,1,0.006845345465234627,0.007819313599389439,-0.0035222044269341956,0.013331129976785311,0.9868417680895156
2014-12-18,1,0.007373389199281254,0.008308458493691561,-0.0035222044269341956,0.011591589024307094,0.9856954715503459
2014-12-22,1,0.00706834821879562,0.007923682669495096,-0.0035222044269341956,0.01668632741208278,0.9842659294263593
2014-12-24,1,0.006840531236361018,0.007620707484701411,-0.0015016279636355676,0.013331129976785311,0.9851795914884197
2014-12-29,1,0.007046436306302796,0.007816118797573516,-0.016603374689045727,0.011154393479913273,0.9807103955006646
2014-12-31,1,0.007025237018615661,0.00776092265012286,-0.022372865274589215,0.013331129976785311,0.9766046592589855
2015-01-05,1,0.0071770492024905526,0.007917749130458573,-0.02642150438467365,0.013331129976785311,0.9747997543386244
2015-01-07,1,0.007134756350319226,0.007962425608356503,-0.02642150438467365,0.016764371060973872,0.9737608101203126
2015-01-09,1,0.00668296536103458,0.00749261330305038,-0.0271920354456586,0.016764371060973872,0.9729421181239012
2015-01-13,1,0.0053412220928345695,0.005963509605292237,-0.020992436221102063,0.021081346621457622,0.974270199836284
2015-01-15,1,0.004161428632004962,0.004586325154800808,-0.016401630677337516,0.021081346621457622,0.975530994291227
2015-01-20,1,0.005701707760126186,0.006283312332850018,-0.016401630677337516,0.01984998185121966,0.976403144190036
2015-01-22,1,0.007076462447551506,0.007837792918525002,-0.016401630677337516,0.014216104479131535,0.9769615476961586
2015-01-26,1,0.00709970521987479,0.007917181599293836,-0.016401630677337516,0.014216104479131535,0.977559277914284
2015-01-28,1,0.0031890250191660184,0.003373267285962052,-0.01323686907980278,0.014216104479131535,0.9801509091808295
2015-01-30,1,0.0020071855767195487,0.002013607287782787,-0.01323686907980278,0.0098115101805398,0.9826879347696762
2015-02-03,1,0.0009330719928385307,0.0010435540612210937,-0.010465478345970641,0.0098115101805398,0.9838561253092929
2015-02-05,1,0.0010555328886241548,0.0012047388148745057,-0.009988991459169372,0.009524234758804527,0.9854874421917191
2015-02-09,-1,-0.0006108736162943763,-0.0002819339620985414,-0.008591706101986594,0.009524234758804527,0.9864399129270871
2015-02-11,0,-0.00019434973886105602,9.663711872562883e-05,-0.007955786769230703,0.0098115101805398,0.9865042761498455
2015-02-13,-1,-0.0011130348296472705,-0.0006014615019046155,-0.007955786769230703,0.011796319644850005,0.9857424203427582
2015-02-18,0,-0.0003811841885764007,1.8125999251687383e-05,-0.007797086794834721,0.011796319644850005,0.9837367999816994
2015-02-20,1,0.00036684684423906526,0.0006999744221601452,-0.007797086794834721,0.011796319644850005,0.9841330742822435
2015-02-24,1,3.7901099111994126e-05,0.0004417618546129977,-0.00928878088329764,0.011796319644850005,0.9829260273848809
2015-02-26,-1,-0.003022173899838072,-0.002158338322068584,-0.011983952585286855,0.011796319644850005,0.9824223793735207
2015-03-02,-1,-0.0034750151154637416,-0.002598198043340935,-0.00928878088329764,0.018853066770143385,0.9816523652029804
2015-03-04,-1,-0.004500647141824191,-0.003399448626284261,-0.014679200066184842,0.018853066770143385,0.980028478626618
2015-03-06,-1,-0.006898999797369222,-0.005416389037560258,-0.02287263525264587,0.018853066770143385,0.9786719349347142
2015-03-10,-1,-0.00792495378602693,-0.006339696589309515,-0.017616313325333005,0.019766066794870373,0.977901965991883
2015-03-12,-1,-0.005481072213798175,-0.0042764655480528446,-0.019440713821920273,0.018853066770143385,0.9795968798201211
2015-03-16,-1,-0.0030012431775239615,-0.0021390291602332574,-0.019440713821920273,0.012398450015073248,0.9807428335730882
2015-03-18,-1,-0.0010319963250138876,-0.0004411806170108211,-0.019440713821920273,0.010278349614597093,0.9831660856500566
2015-03-20,1,0.0013254393160296713,0.0015305840286618387,-0.019440713821920273,0.007784799719654472,0.9822140122652468
2015-03-24,0,-0.0003246334385416142,6.566594861268462e-05,-0.016640956394783635,0.012348846938829417,0.9827699700308186
2015-03-26,-1,-0.0023354000117170913,-0.001706672017733263,-0.013055654907105125,0.02007989722381599,0.9837553059106015
2015-03-30,1,4.766831282862949e-05,0.00032654302987816287,-0.015960399337781823,0.007784799719654472,0.9846690014065781
2015-04-01,-1,-0.0020431935685969647,-0.0015128337356034604,-0.013816342143174764,0.007784799719654472,0.9850713126870349
2015-04-06,-1,-0.0035661252669112052,-0.0028982915746185267,-0.01206504400562551,0.013391114254406464,0.9854836484934753
2015-04-08,-1,-0.0030976544953868223,-0.002477138540174148,-0.012330210335915706,0.007784799719654472,0.9854344328200629
2015-04-10,-1,-0.0037474866335065354,-0.003082324457391004,-0.00969908852790256,0.013391114254406464,0.9837193069657745
2015-04-14,-1,-0.004458062992203377,-0.003682540667428276,-0.012330210335915706,0.015023881059309973,0.9826353406560002
2015-04-16,-1,-0.0035256872677082336,-0.0028785695518454496,-0.012330210335915706,0.015023881059309973,0.9833005837551886
2015-04-20,-1,-0.0027325415215254355,-0.0021353749462458107,-0.012330210335915706,0.008213823742282293,0.9847197992341616
2015-04-22,-1,-0.0012055896269812783,-0.0008202550721918382,-0.015980406238028915,0.006786667982242302,0.9805749997086451
2015-04-24,1,0.0010546415933517246,0.0011236447536154643,-0.015980406238028915,0.0041674214089118195,0.9803445889974394
2015-04-28,-1,-0.0003647620822456281,-0.00022619274776954388,-0.017951992596554195,0.006786667982242302,0.9802016681477822
2015-04-30,-1,-0.001861077489411101,-0.0016016345795733357,-0.014304573523634824,0.007486754900593373,0.98223497372171
2015-05-04,-1,-0.0008571627533169064,-0.0007574120879558223,-0.014304573523634824,0.007486754900593373,0.981186111832658
2015-05-06,-1,-0.0029585006447030437,-0.0025456750808004443,-0.015163395287064034,0.007486754900593373,0.9817705557998403
2015-05-08,-1,-0.0010956748137342092,-0.0009337972598253033,-0.01764922676321913,0.006786667982242302,0.9810429706997096
2015-05-12,-1,-0.0020845501928423863,-0.0017385918717098899,-0.01669977155337358,0.006786667982242302,0.9818995307223687
2015-05-14,-1,-0.0009430598752160437,-0.0008253143322974174,-0.01669977155337358,0.0074679371139216725,0.9809544838219055
2015-05-18,-1,-0.0006593960102529655,-0.0005825723919157082,-0.01735529272328172,0.004854963136148424,0.9799520023586908
2015-05-20,-1,-0.004944493121920714,-0.004397563450668388,-0.014754904939131095,0.009680859478289304,0.9858164271463726
2015-05-22,-1,-0.004476555994425033,-0.0040436352062914365,-0.014754904939131095,0.012933948223352018,0.9825050510613893
2015-05-27,-1,-0.0042127056536829625,-0.0038340213982406583,-0.01228153658590482,0.010546638241512717,0.9839551995478635
2015-05-29,-1,-0.0036162176880659537,-0.0033249398180542427,-0.014754904939131095,0.010546638241512717,0.983711606723455
2015-06-02,-1,-0.00256308772755397,-0.0023750687880580994,-0.015065417273751562,0.006117817505791676,0.9838631756354507
2015-06-04,-1,-0.004266251548987658,-0.003847289574866736,-0.014973411995767141,0.006978805284121854,0.9838703028162931
2015-06-08,-1,-0.00680950908870173,-0.006052483149473532,-0.01228153658590482,0.013153811114950457,0.9834433671885957
2015-06-10,-1,-0.006440578489778843,-0.005695369050144497,-0.014973411995767141,0.011909149469200589,0.9827367387749864
2015-06-12,-1,-0.004354076448320223,-0.003993261630282859,-0.014973411995767141,0.01936612364812976,0.9803533007975846
2015-06-16,-1,-0.004160007577123637,-0.003918192840035497,-0.011691302711931624,0.01936612364812976,0.9807826711233535
2015-06-18,-1,-0.0033942754834804263,-0.0032397400173208527,-0.011691302711931624,0.01936612364812976,0.9816239195699491
2015-06-22,-1,-0.0023461371933035146,-0.0021621466218735745,-0.014007342121648038,0.008763005282985755,0.9841689608512761
2015-06-24,-1,-0.0035752310295825707,-0.0032038944214008575,-0.014007342121648038,0.01420253914960914,0.9824892218413381
2015-06-26,-1,-0.004954856245761148,-0.004380742768361317,-0.014405339636663572,0.01420253914960914,0.9791536651063639
2015-06-30,-1,-0.005562262160770164,-0.004976936905604844,-0.011106345893334313,0.01936612364812976,0.9794274978492137
2015-07-02,-1,-0.007423371942273023,-0.006528133590089986,-0.010838986693790052,0.01936612364812976,0.9803939657983526
2015-07-07,-1,-0.004884015735185281,-0.004330407844767448,-0.010838986693790052,0.02493582531103356,0.9798026909094866
2015-07-09,-1,-0.005404522504990563,-0.004843380235601501,-0.010838986693790052,0.02493582531103356,0.9805840776702437
2015-07-13,-1,-0.002022999165505456,-0.0018914223845719854,-0.011561223418610721,0.012891348149705589,0.9833965976817977
2015-07-15,-1,-0.0016459620555417365,-0.001632072922549654,-0.010838986693790052,0.015836848586146923,0.9827994971317193
2015-07-17,-1,-0.0015246708666672934,-0.001497097437960596,-0.010838986693790052,0.015836848586146923,0.9824505374651112
2015-07-21,-1,-0.002873407532531755,-0.00265683758706954,-0.008132585763677798,0.02452772994283415,0.9821524455581522
2015-07-23,-1,-0.001500674774786869,-0.0014108512345520085,-0.010838986693790052,0.0157697918575171,0.9827971418859809
2015-07-27,-1,-0.003311733993639124,-0.003051287928628904,-0.012560005926964542,0.009978551432417885,0.9819517641542227
2015-07-29,-1,-0.0029588609674684628,-0.0026943127064327395,-0.012560005926964542,0.009978551432417885,0.9818168377261889
2015-07-31,-1,-0.00383552024645092,-0.003428701552423812,-0.011968160034672399,0.009978551432417885,0.9815062910532274
2015-08-04,-1,-0.0002689267556205048,-0.00016146077346314248,-0.011968160034672399,0.00527149434036578,0.9839430369611194
2015-08-06,-1,-0.00020779019289061696,-3.496614366732542e-05,-0.011612585980478988,0.00656336627860951,0.9815347375911885
2015-08-10,1,0.0018390553685769739,0.0024020468200279593,-0.00808692964133922,0.00656336627860951,0.9821626318914868
2015-08-12,1,0.0036224820020835835,0.004502795080157187,-0.00808692964133922,0.005252434502525995,0.9835662308547204
2015-08-14,1,0.0032007405440730523,0.00394821570571835,-0.00808692964133922,0.00656336627860951,0.9826242533479091
2015-08-18,1,0.0030171274051788363,0.003630613447795807,-0.007945349898741485,0.008537516745340146,0.9835468373849876
2015-08-20,1,0.002575056990661946,0.003241244913262833,-0.007945349898741485,0.009453696531004401,0.9839954652687078
2015-08-24,-1,-0.00031871841671617953,-0.0001594359392445165,-0.006256881313204242,0.009453696531004401,0.985440201716061
2015-08-26,-1,-0.002194454669271047,-0.0020195187485352742,-0.007945349898741485,0.008537516745340146,0.9855816319843053
2015-08-28,-1,-0.002036483700014782,-0.0019174572497934553,-0.008160720598491543,0.008537516745340146,0.9849411312679056
2015-09-01,-1,-0.0017603243435300928,-0.0016298418884363262,-0.009541372389862841,0.005910484658102873,0.9853649388038314
2015-09-03,1,1.5105123554008643e-05,8.836774412688397e-05,-0.009541372389862841,0.005910484658102873,0.9880728983549036
2015-09-08,1,0.00035240035203846826,0.0005166266905072367,-0.012159866435865417,0.008589285711346676,0.9842844624192216
2015-09-10,1,0.0015806092599202387,0.0019936138602288773,-0.012159866435865417,0.010122139596255549,0.9829460897723431
2015-09-14,1,0.003471765396221712,0.004215741416271438,-0.012159866435865417,0.013603469107162884,0.9793867639892422
2015-09-16,1,0.004814467250767417,0.005799990974779923,-0.012159866435865417,0.013603469107162884,0.9788114950875696
2015-09-18,1,0.004592835021026155,0.005483009274841128,-0.015122880234781456,0.011971147351734053,0.9788661133323681
2015-09-22,1,0.0015162222992796256,0.0018711325433818787,-0.010991502880286224,0.015533818224724986,0.9808686545745773
2015-09-24,1,0.0009982193166098528,0.0013218530428868135,-0.010035467663328416,0.020434044387282163,0.9796667873971631
2015-09-28,-1,-0.0007194365448486217,-0.0007038913825296088,-0.009151917871336443,0.020874469870680964,0.9793103070621272
2015-09-30,1,9.418833744998553e-05,0.000318053169310643,-0.010035467663328416,0.020874469870680964,0.9795774815710763
2015-10-02,0,-1.3563702671783463e-05,0.00019382767369943244,-0.007670683080805599,0.020874469870680964,0.9803259953614241
2015-10-06,-1,-0.0004941774293153386,-0.0003458493549938116,-0.0019009565243351104,0.01707661160511588,0.9842109612642982
2015-10-08,1,0.0014789055278751032,0.0019037355843472545,-0.007670683080805599,0.015533818224724986,0.985708862887439
2015-10-12,1,0.003392805472031342,0.0038736458096240408,-0.010035467663328416,0.00813351630337035,0.9889182106604173
2015-10-14,1,0.003015404209581906,0.0034174351307465654,-0.007897749656562439,0.0076992832280317405,0.9892698005178965
2015-10-16,1,0.0026457498996515904,0.002974141085663386,-0.010367106721766465,0.005968947103184845,0.9895889505600836
2015-10-20,1,0.003559074418309824,0.004012996487471896,-0.011372496635064316,0.0001613878766346474,0.9883730225207629
2015-10-22,1,0.005386622227671981,0.006160315897376463,-0.012509498497066972,0.0001613878766346474,0.9883228418245619
2015-10-26,1,0.0048125502933586,0.0054126095670759666,-0.012509498497066972,0.0001613878766346474,0.9893802852494828
2015-10-28,1,0.0029590809806025503,0.0032143363999718056,-0.012531509482299493,0.0009692584149083236,0.9901953963812113
2015-10-30,1,0.0033385646862265084,0.0036673459332582353,-0.012531509482299493,0.0009692584149083236,0.9893580020997453
2015-11-03,1,0.0035508197172876566,0.003917144308496463,-0.012531509482299493,0.0020476923663473147,0.9868332906734888
2015-11-05,1,0.001886115495188918,0.0019521932344776884,-0.012418755189673975,0.004076892641999998,0.9863640897704696
2015-11-09,1,0.0010650262155430343,0.0010771973484893938,-0.012418755189673975,0.010135259840513468,0.9855265009603682
2015-11-11,1,0.002140825232004877,0.002423465494672698,-0.012664083386439042,0.010796367613220215,0.9844262624337589
2015-11-13,1,0.0008685256059177605,0.0009350549179290575,-0.013319072247133084,0.010796367613220215,0.9829557260191714
2015-11-17,-1,-0.000667618249377625,-0.0005084354538118839,-0.012664083386439042,0.013401366134177832,0.9826795497598058
2015-11-19,-1,-0.0014932022418366123,-0.001170703008204375,-0.0178977434282787,0.013229902368281931,0.981700026092543
2015-11-23,-1,-0.0017703936646328896,-0.0014037121417137621,-0.0178977434282787,0.015066409262841782,0.9796953341474478
2015-11-25,-1,-0.0016298873353228212,-0.0013658903114130683,-0.013695913865486863,0.015066409262841782,0.9797991030152581
2015-11-30,-1,-0.002503550001729007,-0.0020752468371610117,-0.014211687979964362,0.015066409262841782,0.9797281887990534
2015-12-02,1,0.0009454519321854783,0.001057044917821387,-0.016351395716496603,0.012530157067962443,0.9816910224925537
2015-12-04,1,0.0016498136342875114,0.0018154726623413383,-0.0178977434282787,0.01184734488743517,0.9819508367570867
2015-12-08,1,0.0009121804579188175,0.0009560100219994394,-0.017576809636210597,0.01184734488743517,0.9823736711652564
2015-12-10,1,0.00022005871265770385,0.00028358272672796025,-0.016351395716496603,0.012530157067962443,0.9829668991421326
2015-12-14,-1,-0.0008144915763437291,-0.0007092312038509824,-0.016351395716496603,0.01494396807148023,0.9823045525948713
2015-12-16,-1,-0.00040827595284815594,-0.0002713243547966524,-0.017576809636210597,0.01184734488743517,0.9813207868991317
2015-12-18,-1,-0.002132012882474761,-0.0018116903900401412,-0.013952263825294268,0.01184734488743517,0.9831957860560278
2015-12-22,-1,-0.0008889727421382315,-0.0006728957489147035,-0.013952263825294268,0.011419479025652613,0.9840215594244287
2015-12-24,1,0.0013100458546535768,0.0014950857677716836,-0.016798537172200315,0.012797020557894946,0.9826166818745309
2015-12-29,1,0.0007054344361331363,0.0007794269937989511,-0.022156795423807475,0.012797020557894946,0.9815558266512459
2015-12-31,-1,-0.0006595102629032091,-0.0005370366032442886,-0.022156795423807475,0.01753848874475231,0.9811890211697231
2016-01-05,-1,-0.001609911544854117,-0.0014325843088749428,-0.022156795423807475,0.01753848874475231,0.9794891178048609
2016-01-07,-1,-0.001671996823709432,-0.0014844627588411422,-0.03345682717728819,0.017855970044002717,0.9784983290047676
2016-01-11,-1,-0.00046634520564083645,-0.00045611615989354524,-0.034042278901899946,0.018167524965452205,0.977251054800897
2016-01-13,-1,-0.0023575942292918158,-0.0020558007813959744,-0.03206763026013527,0.018167524965452205,0.9780770739676002
2016-01-15,-1,-0.004644013982686294,-0.003940886484793289,-0.02069705186257271,0.018903708147833796,0.9771335540129884
2016-01-20,-1,-0.0035735480862718154,-0.0030248120180493415,-0.02069705186257271,0.019067075412891144,0.9766715036062724
2016-01-22,-1,-0.003628205582823667,-0.0030438512213462558,-0.02069705186257271,0.019882571847090656,0.9764464945509977
2016-01-26,-1,-0.0035547782078943413,-0.003007011824530763,-0.012690560860899418,0.01940236586454831,0.9780384724564148
2016-01-28,-1,-0.004155227791605856,-0.0036005487890437334,-0.011409392488369544,0.01940236586454831,0.9783511739314693
2016-02-01,-1,-0.0031283603067935356,-0.0026897526377813647,-0.011409392488369544,0.019241241838756477,0.9790977849261114
2016-02-03,-1,-0.0041536740545071085,-0.003617169470177252,-0.0071190228120925104,0.019241241838756477,0.9816438906299388
2016-02-05,-1,-0.004503967987476107,-0.003970333037643244,-0.0057955207129476456,0.019241241838756477,0.9833840176994423
2016-02-09,-1,-0.0041838159129752375,-0.0037234447737220255,-0.0057955207129476456,0.020405071124686654,0.9833071756207742
2016-02-11,-1,-0.0038877393083252597,-0.003478601987489659,-0.0017945394973752776,0.020194306454684997,0.9841262736171209
2016-02-16,-1,-0.002751699735674751,-0.0023947846011832,-0.0057955207129476456,0.01763871858852247,0.9870117783400238
2016-02-18,-1,-0.002512227031641983,-0.0021486884893057536,-0.0057955207129476456,0.013311915711456358,0.9880458755216303
2016-02-22,-1,-0.001963953915008846,-0.0016190868811577796,-0.0057955207129476456,0.013311915711456358,0.9882051282340185
2016-02-24,-1,-0.0020276685464641724,-0.001679431152346205,-0.007294637360751774,0.013311915711456358,0.9875108175813724
2016-02-26,-1,-0.0022212419924769007,-0.0018416708214621538,-0.007294637360751774,0.010595232015097305,0.986763945557294
2016-03-01,-1,-0.001859683182845323,-0.0014878656842901988,-0.007294637360751774,0.010281410521902545,0.9874117031972635
2016-03-03,-1,-0.0009833906315378125,-0.0007898617451082693,-0.012535972714253633,0.010281410521902545,0.9859814112981096
2016-03-07,1,0.0010380789756998356,0.001258254931924815,-0.012535972714253633,0.006092976056163402,0.9859744625678427
2016-03-09,1,0.0006669578138546259,0.000829082582359591,-0.011923123098833593,0.0033064949346118784,0.9878953919212784
2016-03-11,1,0.0011825275589634505,0.0014157658595732254,-0.011923123098833593,0.0039245852339715405,0.9883847869001545
2016-03-15,1,0.0011307150934915685,0.0013931929907765104,-0.011852433595908497,0.007011373818675658,0.9877134466942236
2016-03-17,1,0.001807660560454292,0.0022287932689043144,-0.011852433595908497,0.010281410521902545,0.9863096201821538
2016-03-21,1,0.0028430493413834183,0.0034167602248133997,-0.011852433595908497,0.010158584405432484,0.9871963451991301
2016-03-23,1,0.00161926699105504,0.0019996750386739406,-0.009500184782294047,0.010158584405432484,0.9875412227131954
2016-03-28,1,0.001171658935123957,0.0015083703793972647,-0.011852433595908497,0.007046505201586923,0.9858822413106347
2016-03-30,1,0.0015135785478056281,0.0019074090182744803,-0.011852433595908497,0.004230717821475626,0.9857263936808414
2016-04-01,1,0.00013568715219042455,0.00032176134209494975,-0.015450812648991955,0.004230717821475626,0.9857044381409847
2016-04-05,-1,-0.0005534564156952094,-0.00049631511563042,-0.015450812648991955,0.004761036004663329,0.985971346338918
2016-04-07,-1,-0.0008603977862113885,-0.0008511000608085346,-0.022692374837221117,0.004761036004663329,0.9842163364456825
2016-04-11,-1,-0.000896748237007492,-0.0008753929571522232,-0.022692374837221117,0.004943830843886534,0.984322790219984
2016-04-13,-1,-8.485509051211216e-05,-4.7097556521306726e-05,-0.027784163899179065,0.0012724759833753992,0.983075032967646
2016-04-15,1,0.0008824430286076988,0.0010588774858529518,-0.03063853525782356,0.0012724759833753992,0.9819223816479886
2016-04-19,1,0.0012906141983817067,0.0015209044858394906,-0.03063853525782356,0.004703857935404676,0.9806501329831047
2016-04-21,-1,-0.0002393693575864181,-0.00022327050389869208,-0.028127012030238083,0.004703857935404676,0.9820180241622692
2016-04-25,-1,-0.0021118591524959575,-0.001875171143904146,-0.015619039914469637,0.004703857935404676,0.9857753844299515
2016-04-27,-1,-0.0011623660656042965,-0.001134882794166162,-0.015619039914469637,0.005985274715507716,0.9849184012811619
2016-04-29,-1,-0.0020336660732212463,-0.0019697696034883627,-0.01255989074781099,0.005985274715507716,0.9863208382937796
2016-05-03,-1,-0.0021686444060393887,-0.0020739065854434406,-0.01255989074781099,0.007082609393634018,0.9862457089528647
2016-05-05,-1,-0.004434999221865176,-0.004064829348353257,-0.010099304435413563,0.007082609393634018,0.9867902227901734
2016-05-09,-1,-0.0053714016566865155,-0.004799085351265556,-0.010099304435413563,0.013578978557955153,0.9844163367850232
2016-05-11,-1,-0.004283404161604237,-0.003917745965019529,-0.008751350240307026,0.013578978557955153,0.9851607553669156
2016-05-13,-1,-0.006551998518674425,-0.005837568860104846,-0.008751350240307026,0.013578978557955153,0.9853341467821405
2016-05-17,-1,-0.0037038569853405385,-0.003424357235818052,-0.010099304435413563,0.00553017541503175,0.985498428660042
2016-05-19,-1,-0.0034916502131429323,-0.003288725722695116,-0.011701772374200016,0.007201297543750301,0.9836370665751434
2016-05-23,-1,-0.00400694030970026,-0.003738460390719841,-0.011701772374200016,0.010978366290823459,0.9823836759002911
2016-05-25,-1,-0.003806355853612259,-0.0035118392769426217,-0.011701772374200016,0.010978366290823459,0.9825676449215549
2016-05-27,-1,-0.005569521117669318,-0.004997607122190306,-0.03047492303066068,0.010978366290823459,0.9760520046851812
2016-06-01,-1,-0.0048912469938587255,-0.004404382124005858,-0.03047492303066068,0.014634419530534206,0.9721168307583979
2016-06-03,-1,-0.005579697969165238,-0.005055540952470803,-0.015947002447389384,0.023360282895031264,0.9699308683216572
2016-06-07,-1,-0.003645936872621997,-0.003304807396359345,-0.025144923759042176,0.016545898697569013,0.9719085091089995
2016-06-09,-1,-0.0030236776521773605,-0.0026950875173585515,-0.025144923759042176,0.0218319672158147,0.9706965395965151
2016-06-13,-1,-0.004402593495207255,-0.003971228863961132,-0.015240522777270414,0.03506271595793073,0.965644692962652
2016-06-15,-1,-0.00542752061733697,-0.00489930126145248,-0.007953598420705888,0.036281518664462706,0.9654135437372247
2016-06-17,-1,-0.006542528040072529,-0.005873679767878588,-0.004762569183566271,0.036281518664462706,0.9666137966594199
2016-06-21,-1,-0.006170252530222491,-0.005480380863059028,-0.004762569183566271,0.036281518664462706,0.9680564439974456
2016-06-23,-1,-0.0046817154701763,-0.004220805001801777,-0.007953598420705888,0.03709865350663159,0.966429613270142
2016-06-27,-1,-0.008686622622757125,-0.007706861298919015,-0.003389190347891289,0.03709865350663159,0.9702433425837138
2016-06-29,-1,-0.005764338852733798,-0.00507436050699909,-0.006938093774752947,0.036281518664462706,0.976069670837613
2016-07-01,-1,-0.003320297191805684,-0.002920592845045279,-0.01059138649073849,0.02558581631755278,0.9786717494224755
2016-07-06,-1,-0.004507416253570619,-0.0039615270120589565,-0.006938093774752947,0.02558581631755278,0.976841883913131
2016-07-08,-1,-0.0014881700695913804,-0.0014115946353399898,-0.006938093774752947,0.022114887239965304,0.9790555751433605
2016-07-12,1,0.0029832090043979123,0.0035276433967134178,-0.006938093774752947,0.004672330497850738,0.9853549844269189
2016-07-14,1,0.004392051251995996,0.005193345627438945,-0.010145194453865723,0.004672330497850738,0.9854107012315587
2016-07-18,1,0.004431803974808441,0.005238393467533979,-0.010145194453865723,0.010477641832227325,0.9843206324522518
2016-07-20,1,0.004415318405926603,0.005220065303185981,-0.010145194453865723,0.021417372554526477,0.9835843929965326
2016-07-22,1,0.005456540568870576,0.006454496466562923,-0.006075382367380005,0.010477641832227325,0.9858219934211655
2016-07-26,1,0.005718625818453046,0.006753775752893257,-0.006075382367380005,0.008017999927172927,0.9863030570614751
2016-07-28,1,0.005623792691054792,0.006668012915644247,-0.004288392932243111,0.008017999927172927,0.9870143964127074
2016-08-01,1,0.004804648600171878,0.005720894082970937,-0.004288392932243111,0.008017999927172927,0.9874710531819915
2016-08-03,1,0.0033372328174752653,0.004099302759098939,-0.004288392932243111,0.014038446839363287,0.9889680679534821
2016-08-05,1,0.004322713444703099,0.005194199887625456,-0.004288392932243111,0.008779383725955025,0.9894531013071148
2016-08-09,1,0.00444931582112594,0.005344357099740255,-0.004288392932243111,0.014533448529331885,0.9874579349964889
2016-08-11,1,0.005755704708819597,0.0068939318037567225,-0.004288392932243111,0.012699324710001209,0.9873123220107314
2016-08-15,1,0.006276342699432055,0.007417372797947604,-0.007017479867631075,0.01127615405995915,0.9865100053554844
2016-08-17,1,0.006504213150650797,0.007631874485312154,-0.013365299362060266,0.008779383725955025,0.9858544034969159
2016-08-19,1,0.006543075455438145,0.007694370226575135,-0.01513201528230428,0.008779383725955025,0.9846954472756415
2016-08-23,1,0.005760629653298608,0.006724063376545009,-0.015302620799998633,0.007151630469098116,0.9844198879615575
2016-08-25,1,0.005757435249459725,0.006685420476956057,-0.015302620799998633,0.00932575142813187,0.9840662463453842
2016-08-29,1,0.0048660914993724925,0.005646032813284677,-0.01814087537215859,0.012699324710001209,0.9832063075386265
2016-08-31,1,0.005216120935201872,0.0060559950772189584,-0.014601940791850697,0.00932575142813187,0.9845102452570632
2016-09-02,1,0.006059111917562249,0.007088902766002986,-0.014601940791850697,0.015795177281408578,0.9829477821033717
2016-09-07,1,0.00865017140629425,0.01005929628268425,-0.014601940791850697,0.010253920388205332,0.9836831785120886
2016-09-09,1,0.008348681982836798,0.009740283376535194,-0.012059470555849012,0.008069017621206988,0.9845062211345106
2016-09-13,1,0.006428375051805078,0.00749403887518663,-0.012059470555849012,0.01056526607939232,0.9852552802695264
2016-09-15,1,0.0046342477816260635,0.005349498987287685,-0.012059470555849012,0.018060596711634173,0.9838363254593633
2016-09-19,1,0.003404871965924967,0.003943672093280658,-0.012059470555849012,0.018060596711634173,0.9843508705379547
2016-09-21,1,0.001977222695793459,0.002229704616327538,-0.006215165678496612,0.023984380250969186,0.9832824720986544
2016-09-23,1,0.002586132875402988,0.002914241475925836,-0.01240442685352122,0.023984380250969186,0.9832020804935572
2016-09-27,1,0.0020622010635840014,0.0021998814860186115,-0.006215165678496612,0.02048251577669404,0.9850301783773842
2016-09-29,1,0.0014783610834221896,0.0015445909520662533,-0.00987350114552288,0.02048251577669404,0.9843260265305318
2016-10-03,1,0.0033317882173173542,0.0036305952494250955,-0.00987350114552288,0.013861053239317758,0.9859309098822232
2016-10-05,1,0.00232988562495297,0.002429032099684017,-0.01240442685352122,0.013861053239317758,0.9850374946433094
2016-10-07,1,0.002539282667552784,0.002728704504979665,-0.010750585902733433,0.013861053239317758,0.9851292627230924
2016-10-11,1,0.0023875209225925702,0.002516683172657501,-0.008563204866534644,0.013861053239317758,0.9853453886045769
2016-10-13,1,0.0034533957321210653,0.003688197648575379,-0.004713813969618971,0.013861053239317758,0.9878015074308466
2016-10-17,1,0.0020831427579518723,0.002154337847561192,-0.0028240614159254114,0.014921504522421029,0.9878346446548426
2016-10-19,1,0.0035849457031290103,0.0038100318370346505,-0.004367707169720948,0.013833191257752092,0.9884016715878905
2016-10-21,1,0.002611120154175471,0.002712039305607281,-0.0028240614159254114,0.014921504522421029,0.9877598488552816
2016-10-25,1,0.0015541655823183421,0.0016509841491334847,-0.002918050436462975,0.014921504522421029,0.9876184441079782
2016-10-27,1,0.00264188229502424,0.002782022188630116,-0.0023444183812548897,0.013833191257752092,0.9885240556742874
2016-10-31,1,0.0033876994967377634,0.003669881226104294,-0.002918050436462975,0.011934473132803554,0.9885909488927898
2016-11-02,1,0.0012451401717822603,0.0013444450745844485,-0.004626901034293275,0.011934473132803554,0.9879427770404113
2016-11-04,1,0.00027227225607444675,0.0005637228319249006,-0.004626901034293275,0.011934473132803554,0.9879424492253799
2016-11-08,1,0.0010250565267975525,0.0012925437935230894,-0.004626901034293275,0.015052554004919767,0.9873803561194325
2016-11-10,1,0.0012355014343075478,0.0014669037946697027,-0.00685745275513514,0.015052554004919767,0.986143830844173
2016-11-14,1,0.002022327647748796,0.0021330126282029798,-0.0072550519603191525,0.011650981043858366,0.9850197988283255
2016-11-16,0,-0.00040142678107790665,0.00023152304270691892,-0.0071867323691980605,0.009626370676793752,0.9864240469685785
2016-11-18,1,0.0023873429802863462,0.002553240524301354,-0.00858140444650117,0.008879865717791827,0.9867232939576353
2016-11-22,1,0.0028537452325161977,0.002880468708823242,-0.00858140444650117,0.011062192114227508,0.9865105930942002
2016-11-25,1,0.0025057308989803575,0.0026571091426798588,-0.010280968386376823,0.009583845905912507,0.985818904717504
2016-11-29,1,0.0028858603345634924,0.0029146095513163154,-0.012717677537509561,0.009240962467988247,0.9854046547079583
2016-12-01,1,0.004189615476287277,0.004616786830499199,-0.011972170039675215,0.009240962467988247,0.9856444792310011
2016-12-05,1,0.004115926570195459,0.004553916192238999,-0.011972170039675215,0.009773039635147404,0.9856031988547838
2016-12-07,1,0.006143553630676167,0.006829596187057448,-0.012717677537509561,0.007212369095892887,0.986476745154696
2016-12-09,1,0.006056265837734533,0.006720355291674593,-0.01235681016712028,0.008107264786840868,0.9869985151725207
2016-12-13,1,0.005526747398289639,0.006113702720612267,-0.011289464713584323,0.008107264786840868,0.9885064918000238
2016-12-15,1,0.005707289302194807,0.006317446024896463,-0.01235681016712028,0.007389728151612606,0.9867804317930827
2016-12-19,1,0.005588005620987751,0.006156821212300451,-0.011289464713584323,0.007389728151612606,0.9871485040169986
2016-12-21,1,0.00530686428864839,0.005788288283399725,-0.012830706597544664,0.007389728151612606,0.9857948570730563
2016-12-23,1,0.003102399258331905,0.0031497601447803046,-0.011289464713584323,0.009675087560366964,0.9871221405565611
2016-12-28,1,0.002772410678628004,0.0028214383009624866,-0.011289464713584323,0.013501267748991413,0.9839474511782318
2016-12-30,1,0.0016513547275521978,0.0017677477715184436,-0.01519368186112896,0.013501267748991413,0.9821707853358058
2017-01-04,1,0.0016863141691591615,0.0017780792246682418,-0.01519368186112896,0.013501267748991413,0.9825486493106735
2017-01-06,1,0.0016747242648253887,0.0017242497395071198,-0.01194565653235587,0.01645036177133016,0.9824590343871124
2017-01-10,1,0.0035993681783907903,0.003821041044862167,-0.01194565653235587,0.00903275386662721,0.9838703011402768
2017-01-12,1,0.0029161620021207106,0.00302684219771959,-0.010635746702462704,0.013501267748991413,0.9835021781023058
2017-01-17,1,0.0011769413780597464,0.0013023405634315578,-0.009601546698071924,0.01650292841802968,0.9833071965752538
2017-01-19,1,0.0015700348038199979,0.001634054718506634,-0.012611584489670506,0.016910414451862296,0.9829954266521165
2017-01-23,1,0.0005417299529712878,0.000767431567476353,-0.006387317586933724,0.014753584343291413,0.9846748497994819
2017-01-25,1,0.001243475399810236,0.00137961741419027,-0.01084838737241569,0.008404783264767965,0.9845652831508451
2017-01-27,1,0.00029269690736600997,0.000542005407174763,-0.006179167029587857,0.004007735616420517,0.9889932400841277
2017-01-31,-1,-0.0006329965213855228,-0.0003871323922310458,-0.003282283414288497,0.007174522947155558,0.9911138311260632
2017-02-02,-1,-0.001327290617077403,-0.0009745745953759816,-0.003339734252585677,0.016976583281925077,0.9887159898687815
2017-02-06,-1,-0.0010962756357519227,-0.0007030206542884513,-0.010396730616944148,0.0068650022888062205,0.9882813415075169
2017-02-08,-1,-0.002069125209214112,-0.0015136428051757422,-0.01084838737241569,0.0068650022888062205,0.9867357774279636
2017-02-10,-1,-0.001982368729681846,-0.0013730382295497568,-0.013421868525432777,0.006217134164488774,0.9861013580105934
2017-02-14,-1,-0.002709748480163762,-0.0019599910140440592,-0.01583688713770867,0.006217134164488774,0.9856467858093073
2017-02-16,-1,-0.0021724530306598097,-0.001516574263049778,-0.014695377920996453,0.001812434620900471,0.9866987631389553
2017-02-21,-1,-0.0022950009872498545,-0.001644664996486377,-0.02780669482790196,0.001812434620900471,0.9852687018114498
2017-02-23,-1,-0.003577681596297626,-0.002737638422909615,-0.02780669482790196,0.006217134164488774,0.9842839679798092
2017-02-27,-1,-0.0021024713652261417,-0.0015494715972508369,-0.02780669482790196,0.009084408632276709,0.984246559070047
2017-03-01,-1,-0.0018531390448658755,-0.0013161099130655969,-0.02780669482790196,0.009084408632276709,0.9835151114514475
2017-03-03,-1,-0.0022647805967481076,-0.0016620237857191396,-0.018112059987630554,0.009084408632276709,0.9851551636150603
2017-03-07,-1,-0.004030920232182233,-0.0032386154736751558,-0.018112059987630554,0.009084408632276709,0.9848484409171254
2017-03-09,-1,-0.004476328657651924,-0.0037102813157934844,-0.011054699129135506,0.01080704694651657,0.9851020421232698
2017-03-13,-1,-0.006088189254451041,-0.005076470232541142,-0.006664285885008024,0.010567833879993842,0.9857974081906673
2017-03-15,-1,-0.004839931257656723,-0.0040725368316882615,-0.002709303415018743,0.010567833879993842,0.9861889088770631
2017-03-17,-1,-0.006102653085564512,-0.005146674751446621,-0.002709303415018743,0.012604181704275564,0.9845013712039212
2017-03-21,-1,-0.007373084145863202,-0.006261655287667138,-0.002709303415018743,0.013556119040096168,0.9842100961908483
2017-03-23,-1,-0.006328469855476822,-0.00534281904164479,-0.0025714326884542288,0.013556119040096168,0.9851094181853637
2017-03-27,-1,-0.00567822002431528,-0.004796481978695276,-0.0025714326884542288,0.01498416440079503,0.9842471954338146
2017-03-29,-1,-0.006370040925716677,-0.005359507407270208,-0.0047895354900076475,0.013556119040096168,0.9833430253325304
2017-03-31,-1,-0.005559410271165258,-0.004675929960767215,-0.010289342069866588,0.012515310646225504,0.9831026821123967
2017-04-04,-1,-0.005814381890851733,-0.004978667324235395,-0.00575303242535977,0.01471755122664485,0.9822405572931496
2017-04-06,-1,-0.004815048008085009,-0.0041088520914915674,-0.00575303242535977,0.014865324239303458,0.9829567651520673
2017-04-10,-1,-0.003567690091498675,-0.0030580288312765293,-0.00575303242535977,0.018926323223735917,0.9812742199348841
2017-04-12,-1,-0.0018879599698671766,-0.0016148016641666183,-0.010289342069866588,0.014865324239303458,0.9828216564054393
2017-04-17,-1,-0.0005689930121763345,-0.0005208171811350706,-0.010289342069866588,0.014865324239303458,0.9829895987686735
2017-04-19,-1,-0.0006138492771448779,-0.0005496094125150115,-0.013316448681960785,0.014865324239303458,0.9817531045247428
2017-04-21,1,0.0002531079866884569,0.00033086901411156795,-0.013316448681960785,0.012990532298171379,0.9819390001401196
2017-04-25,1,0.001351203777001011,0.001579190703130347,-0.013316448681960785,0.012990532298171379,0.982126376717323
2017-04-27,-1,-0.0008959575107365173,-0.0007866973111405943,-0.0076754684388674905,0.014884901341332316,0.9829753603930104
2017-05-01,-1,-0.002729683922894729,-0.002407823790767971,-0.0016733891663550458,0.015882025752793825,0.9827441972480094
2017-05-03,1,0.00040977490912076197,0.0006067214750034795,-0.0016733891663550458,0.01399665346941142,0.9851438924681273
2017-05-05,1,0.0012383961118395143,0.0015828215184011158,0.00026546675210923016,0.013663741800300496,0.9856723749333783
2017-05-09,1,0.002707816397513502,0.00316800566620317,-0.0015026527942573688,0.013663741800300496,0.9878480054810944
2017-05-11,1,0.0023361665287788954,0.0027689520624072875,-0.0015026527942573688,0.013663741800300496,0.9870876134691101
2017-05-15,1,0.002691129984707807,0.003192781771550908,-0.0019573634789947633,0.012879561741801071,0.9878119426729519
2017-05-17,1,0.0015546237808994258,0.0019386951200126609,-0.0023273157138628117,0.012879561741801071,0.9893285006561032
2017-05-19,1,0.0015719319598604098,0.0019185805262095109,-0.0023273157138628117,0.013663741800300496,0.989037172252633
2017-05-23,1,0.002368292967511767,0.0027837789856156826,-0.005880848921960669,0.01171052117034794,0.9885035730385575
2017-05-25,1,0.0030225653944698752,0.0034830816908925795,-0.006622740993453631,0.011164406653325472,0.9888334618649129
2017-05-30,1,0.0027540611086437853,0.0031789630484233816,-0.005934018947021029,0.00997409621943692,0.9899002932035442
2017-06-01,1,0.0033877634579609567,0.003877338687169832,-0.005934018947021029,0.00997409621943692,0.989859125172253
2017-06-05,1,0.004522742818527594,0.0052637510138034155,-0.005934018947021029,0.011164406653325472,0.989437341429502
2017-06-07,1,0.005342486043434526,0.006170319821783073,-0.005934018947021029,0.011932229688331407,0.9893903087694387
2017-06-09,1,0.003993775769521021,0.004571554660197954,-0.005934018947021029,0.014433334225211354,0.9897966473126876
2017-06-13,1,0.003641562306753726,0.00419539375215453,-0.005934018947021029,0.015424713404979373,0.9879544636999177
2017-06-15,1,0.0031742812764578585,0.0036478869221294704,-0.005934018947021029,0.015424713404979373,0.9882169387713624
2017-06-19,1,0.0038364235726205996,0.004435813514097898,-0.006577175814629734,0.014433334225211354,0.988171946343861
2017-06-21,1,0.0024231018063286683,0.0027959381986005618,-0.006577175814629734,0.014433334225211354,0.9890176019865131
2017-06-23,1,0.001621291803061966,0.0017835451719292554,-0.007286751997727112,0.014433334225211354,0.9886315109096324
2017-06-27,1,0.0013529450663972552,0.001464400990275142,-0.008701625234210721,0.014433334225211354,0.9880412064267736
2017-06-29,1,0.0025600632966193823,0.0028797310048207345,-0.010654058885618031,0.01087683280501284,0.9874257451346897
2017-07-03,1,0.0027553626481801163,0.0030859993538098693,-0.010654058885618031,0.010422996843647354,0.9873644016638945
2017-07-06,1,0.00418146893560515,0.0047496935016903795,-0.011994158357142543,0.007690431688152048,0.9873816355003997
2017-07-10,1,0.00439214063586206,0.004987926479778776,-0.011994158357142543,0.005614048511058799,0.9881096458908389
2017-07-12,1,0.005333747150854299,0.006068094485988773,-0.011960048098355328,0.00272299733275784,0.9889714853114521
2017-07-14,1,0.005324270060741818,0.006044551397932367,-0.012034079741209089,-0.00024723406846200975,0.9876946281621226
2017-07-18,1,0.004181006273117082,0.004715884272403191,-0.011960048098355328,0.00272299733275784,0.9891565532251427
2017-07-20,1,0.0037088764050153497,0.004189175859932502,-0.012034079741209089,0.00272299733275784,0.9876142557552399
2017-07-24,1,0.003276609921337237,0.0037237404124921486,-0.011960048098355328,0.003870864772716869,0.9884764274118172
2017-07-26,1,0.003158711609661272,0.0035831972012215245,-0.011960048098355328,0.0023647527596463696,0.9873333337272351
2017-07-28,1,0.0020585547962536452,0.0022439334926241815,-0.011960048098355328,0.0023647527596463696,0.9854822293940227
2017-08-01,1,0.0015368272120847883,0.0015800930259206839,-0.011960048098355328,-0.0012048066095021073,0.9854248249872185
2017-08-03,1,0.00048024172525069767,0.00060497157484312,-0.011600256458060228,-0.0008221841295157641,0.9859041766865303
2017-08-07,1,0.00034247821028941176,0.00047749263633841397,-0.013301607995233855,-0.0008221841295157641,0.9843158444858583
2017-08-09,-1,-0.001064795335505371,-0.000726049334230092,-0.012256966126079452,0.0048544288371198206,0.985148454515941
2017-08-11,-1,-0.0024024786721993747,-0.0018604438497080026,-0.010472757476231203,0.009029035841887436,0.9837838047131731
2017-08-15,-1,-0.0020675762069475726,-0.0016011826183022053,-0.010472757476231203,0.009401421809506554,0.9830493184281723
2017-08-17,-1,-0.0038813824228272104,-0.0032057507118413825,-0.010472757476231203,0.009401421809506554,0.9849390495255369
2017-08-21,-1,-0.00414587497607267,-0.0034404013483131345,-0.01555849555242297,0.009401421809506554,0.9843055018301325
2017-08-23,-1,-0.005294769522122945,-0.004468212820659925,-0.011705327779123875,0.013389718867949475,0.9834873292752178
2017-08-25,-1,-0.004678797338246662,-0.0038671797976835517,-0.009158998375771575,0.014034251456058165,0.9853841007485135
2017-08-29,-1,-0.005297144978931,-0.00444623268936905,-0.011705327779123875,0.014034251456058165,0.9849802973594797
2017-08-31,-1,-0.00485924389121957,-0.0040840797746008895,-0.011705327779123875,0.014080032352743103,0.9846255927942854
2017-09-05,-1,-0.0047826276168511745,-0.004072799453911368,-0.006757646530634838,0.01566211737861986,0.983191841477922
2017-09-07,-1,-0.004812841240500963,-0.004108430633812539,-0.004453683850057226,0.01566211737861986,0.9836068381272263
2017-09-11,-1,-0.002911111397315999,-0.0024322509582124043,-0.006496370956232773,0.014811541449890142,0.9856282494683661
2017-09-13,-1,-0.0018800204390940455,-0.0015501233563748511,-0.006496370956232773,0.015135592930254712,0.984625688599174
2017-09-15,-1,-0.0019751709308773453,-0.0016856689791976106,-0.0034982186784254764,0.015135592930254712,0.9852362021663432
2017-09-19,-1,-0.004709852382077646,-0.003996940356157212,-0.0034982186784254764,0.015135592930254712,0.9854575005109623
2017-09-21,-1,-0.004153018960147678,-0.003420670692703702,-0.003785119784088597,0.013614906940887435,0.9878900644205636
2017-09-25,-1,-0.002196522256613944,-0.0017707413213451512,-0.004909575479126182,0.005828686597034359,0.9886241840511407
2017-09-27,-1,-0.0026939172375940825,-0.0022316468488059187,-0.004909575479126182,0.009530518455148086,0.9874692626654291
2017-09-29,-1,-0.0010350717936356314,-0.0008629388322295363,-0.010906992157846476,0.005828686597034359,0.9849707687569957
2017-10-03,1,0.0011560741270651275,0.001222339804977633,-0.010906992157846476,0.0018011391900561572,0.9865732461195278
2017-10-05,1,0.0009375638830318755,0.0009796435639236674,-0.010936386223206522,0.002750688655443847,0.9855038793721597
2017-10-09,1,1.195902031667659e-05,0.00015457140489602247,-0.010004041150052734,0.0014234133562084647,0.9871254420765009
2017-10-11,1,0.0015933666390478458,0.0016478470078591205,-0.012000534984792336,0.0010283491893266796,0.9877220873220065
2017-10-13,1,0.0019196700882898555,0.0020759030770266937,-0.014179984472658506,0.0011354108169779977,0.9870572375653666
2017-10-17,1,0.0019242133159799737,0.002136374492950609,-0.014179984472658506,0.0013309237043969452,0.9876233913049158
2017-10-19,1,0.0015541247029014892,0.0017072847376856705,-0.014179984472658506,0.0034637046083332563,0.9867486273513963
2017-10-23,1,0.0014188182793539253,0.001599644828319071,-0.010759918378034836,0.003007864137484401,0.987491680922487
2017-10-25,1,0.0016660886116182034,0.0019035121988437926,-0.00933376047331004,0.003007864137484401,0.9882382396268907
2017-10-27,-1,-0.00014737641122708562,-9.70747084009875e-05,-0.006191203222978194,0.003007864137484401,0.9915906611755803
2017-10-31,-1,-0.00095941020297837,-0.0008833713511843134,-0.0022620578165387763,0.007343723010346046,0.991346891282665
2017-11-02,-1,-0.0007847467657069304,-0.0007031185345302104,-0.0022620578165387763,0.007343723010346046,0.9902619631184534
2017-11-06,-1,-0.0007506194908765784,-0.0006627157441516494,-0.0036828813873901137,0.011918234270935758,0.9891172324772722
2017-11-08,-1,-0.0012878927929572408,-0.0011579247053823546,-0.0022620578165387763,0.017136520984771655,0.9886289266531022
2017-11-10,-1,-0.002218720486433343,-0.001939128517527811,-0.0018232005575966788,0.017136520984771655,0.9884541560297706
2017-11-14,-1,-0.0021042704197919374,-0.0018453903721836965,-0.0036828813873901137,0.017136520984771655,0.9877526423619705
2017-11-16,-1,-0.0007314171132919321,-0.0006282390967446642,-0.0036828813873901137,0.016623857598409713,0.9890956125030173
2017-11-20,-1,-0.00016459906325457305,-0.000157556229873279,-0.0022620578165387763,0.016623857598409713,0.9893506113679305
2017-11-22,1,0.0006999738948128655,0.0008475703219852655,-0.0022620578165387763,0.016580771975426768,0.9893972192863869
2017-11-27,1,0.0011461648033115387,0.0014218327248903414,-0.0016754938625419184,0.016580771975426768,0.989493341093627
2017-11-29,1,0.0019349900465450043,0.0023353930294835452,-0.004723769599680139,0.011187588809504734,0.9900216209533712
2017-12-01,1,0.002373888800594471,0.0028933261216828625,-0.004723769599680139,0.011187588809504734,0.9915395167165731
2017-12-05,1,0.00285891110537779,0.003457103414004507,-0.004723769599680139,0.008648915787681835,0.9920324018922063
2017-12-07,1,0.003545919802444215,0.004191493332522035,-0.007696116515662493,0.006834036216490543,0.9922117707979167
2017-12-11,1,0.003486041902591985,0.004095142752336205,-0.007696116515662493,0.008648915787681835,0.9906920498667783
2017-12-13,1,0.0023310669812900645,0.002746231930016812,-0.0016754938625419184,0.016799687650415264,0.9883256184567265
2017-12-15,1,0.00299930493059513,0.0034989210318981563,-0.004890639851735341,0.011187588809504734,0.9885012540839894
2017-12-19,1,0.0029735021877015707,0.0034509898025108254,-0.005648754734024988,0.011187588809504734,0.9885479600017698
