JNU-Tangyin/eata/results/Batch4_SP500/Batch4_SP500-PEP.csv
Date,Action,Predicted_Q25,Predicted_Q75,Actual_Q25,Actual_Q75,RL_Reward
2010-12-14,0,0.0,0.0,-0.004363009170472929,0.0044994456522691436,0.9946382819958348
2010-12-16,0,0.0,0.0,-0.0034383965925121377,0.0042497272303715795,0.9950114986115687
2010-12-20,0,0.0,0.0,-0.004363009170472929,0.003875536763732518,0.9947784277200786
2010-12-22,1,0.0005815119211186458,0.0006237059673312763,-0.0034383965925121377,0.0033571805651795216,0.9955642824952912
2010-12-27,1,0.0005155344124345793,0.0005334344457411901,-0.0036911262314570513,0.003875536763732518,0.9952758494256817
2010-12-29,1,0.0004844198005051648,0.0005275007652096678,-0.004696671928950682,0.003875536763732518,0.9951412396438135
2010-12-31,1,0.0005916278583487085,0.0006043580359765498,-0.0051336603065097455,0.003875536763732518,0.9944310856000816
2011-01-04,1,0.00016333810342312874,0.0002514889594903678,-0.005378183373756013,0.003875536763732518,0.9942466117643971
2011-01-06,1,0.000873907524875328,0.0008741736068658872,-0.006160674537468289,0.001700709546755776,0.9943541561773526
2011-01-10,1,0.0004363213898556965,0.0004914199792258531,-0.005510486946455267,0.0030828799140911493,0.994670021992655
2011-01-12,1,0.00037856434585269074,0.0004793128224727707,-0.006160674537468289,0.001700709546755776,0.9941574988638673
2011-01-14,0,0.0,0.0,-0.0064639437470926,0.0020003244844422376,0.9937047349041063
2011-01-19,0,0.0,0.0,-0.006160674537468289,0.00409847679271584,0.993270592533903
2011-01-21,-1,-4.462734213284368e-05,-1.920225516868616e-05,-0.0064639437470926,0.005453324235619509,0.9917600601685256
2011-01-25,0,-2.9007271082623852e-05,2.1146800209411446e-05,-0.006429337833990847,0.004845598725803402,0.9919291106992509
2011-01-27,1,2.8320921390480623e-05,9.687092166098195e-05,-0.006429337833990847,0.007783321490099272,0.9916944810636629
2011-01-31,0,0.0,0.0,-0.00608273234785771,0.007783321490099272,0.9923098909366581
2011-02-02,0,0.0,0.0,-0.005488351318040824,0.007783321490099272,0.9923352512190589
2011-02-04,0,0.0,0.0,-0.004576155537837561,0.007783321490099272,0.992629441007186
2011-02-08,-1,-0.0005556082857446232,-0.0005055789321956072,-0.004576155537837561,0.008297738902218233,0.9922455186376473
2011-02-10,0,0.0,0.0,-0.004143075716835367,0.008297738902218233,0.992886196579993
2011-02-14,-1,-0.00011700933094288711,-0.00010129576900223122,-0.004576155537837561,0.006042137338155582,0.9924537549745669
2011-02-16,-1,-0.00010935915235204769,-9.65821631608714e-05,-0.004576155537837561,0.006042137338155582,0.9923797118799621
2011-02-18,0,-2.3441191454292112e-05,7.595320509496016e-06,-0.004143075716835367,0.006042137338155582,0.9931366307277211
2011-02-23,-1,-0.00015825093753662627,-0.0001381527102431141,-0.00362008911140828,0.006042137338155582,0.9931666166900509
2011-02-25,-1,-9.698143146251495e-05,-7.158158727569855e-05,-0.0036379341104653042,0.004310151279170623,0.9935396046639209
2011-03-01,1,0.0001319378387664728,0.0002108566283399294,-0.0036379341104653042,0.005187987407423558,0.9934547472790294
2011-03-03,-1,-0.00022545078818825482,-0.00021578534036687032,-0.003942606312211444,0.005187987407423558,0.9930729204467582
2011-03-07,-1,-0.0002057665102467393,-0.00020499934456327205,-0.0034089060361995743,0.0073094247584917,0.9926767781341305
2011-03-09,1,0.00044803771748848283,0.0005726430143935025,-0.0034089060361995743,0.006102061968520969,0.9931755239465433
2011-03-11,0,0.0,0.0,-0.003018339957947834,0.006102061968520969,0.9931774066847966
2011-03-15,0,0.0,0.0,-0.0025714541106045493,0.007652447321563863,0.9938073641145714
2011-03-17,0,0.0,0.0,-0.0021190207052448336,0.006102061968520969,0.9946921990596765
2011-03-21,-1,-0.00015621464327942553,-0.0001389122134615424,-0.0021190207052448336,0.0057567766695615094,0.9951214292531432
2011-03-23,0,0.0,0.0,-0.002194377292903064,0.006492267021125494,0.9948459808881893
2011-03-25,-1,-0.0009905646310590832,-0.0009489888867599129,-0.002194377292903064,0.006492267021125494,0.9944097518911575
2011-03-29,-1,-0.0011924365916648044,-0.0011269242463700915,-0.0018503234007804805,0.00759192474150099,0.9940021456450132
2011-03-31,1,9.824470572412491e-05,0.00011313587195983373,-0.0018503234007804805,0.00759192474150099,0.9937616184326651
2011-04-04,-1,-0.0002871070747964885,-0.00025319337370736554,-3.6262679638160216e-06,0.006492267021125494,0.993812064176563
2011-04-06,-1,-3.0168534874285955e-05,-2.2997029156676236e-05,-0.002072542025655624,0.006109232431554848,0.9935472198799816
2011-04-08,1,2.419141975264731e-05,2.7588160112018737e-05,-3.6262679638160216e-06,0.006740196932339153,0.9931313268627121
2011-04-12,1,0.0001463654473220759,0.000150457806759194,-3.6262679638160216e-06,0.006208357751404882,0.993552518214739
2011-04-14,1,0.0003416745919747268,0.000375847388415208,-0.0008188000300412048,0.006740196932339153,0.9931303278341542
2011-04-18,1,0.0002532267818941504,0.0002537123077071717,-0.0003746839296783042,0.006740196932339153,0.9930140479777005
2011-04-20,1,0.0002745435034588149,0.0002774301736492733,0.0019845357088686313,0.006583343473814215,0.9932228219154312
2011-04-25,1,0.00037159863874478667,0.0004052352924935679,0.0007758361050152476,0.006583343473814215,0.9930901674756801
2011-04-27,0,0.0,0.0,-0.004144195253851594,0.006170608460793696,0.9931361584318857
2011-04-29,0,0.0,0.0,-0.001545068567787018,0.005660185201141024,0.994991218549698
2011-05-03,1,0.0012791982438675323,0.0014325102809639033,-0.004144195253851594,0.005734144327250267,0.9946224835426873
2011-05-05,1,0.0013595540291192194,0.0015249381164513954,-0.005899510132362338,0.005734144327250267,0.9944412469926462
2011-05-09,1,0.0018214635924482512,0.002062715992743213,-0.005899510132362338,0.0025725589837991493,0.9947717452485046
2011-05-11,1,0.0019883298680065647,0.0022579406148576014,-0.005899510132362338,0.003079393545593398,0.9942559968026659
2011-05-13,1,0.0021453229854698323,0.00244695442672378,-0.006882025551495414,0.0030473312233787924,0.9941517796535596
2011-05-17,0,0.0,0.0,-0.007542406341205492,0.003034096476943072,0.9939103560819857
2011-05-19,0,0.0,0.0,-0.007542406341205492,0.001782098785222012,0.9939573373047407
2011-05-23,1,0.0014128778962297615,0.0015857988779878584,-0.007542406341205492,0.004184237093673022,0.9937855039231335
2011-05-25,0,0.0,0.0,-0.008600726189788386,0.004184237093673022,0.9939736100714409
2011-05-27,0,0.0,0.0,-0.008600726189788386,0.006218744369634004,0.9932346770450977
2011-06-01,0,0.0,0.0,-0.003792926510063167,0.006218744369634004,0.9936669215546589
2011-06-03,0,0.0,0.0,-0.0022490260159542825,0.006767032524701625,0.9940985813122738
2011-06-07,0,0.0,0.0,-0.0027026587932930373,0.006767032524701625,0.9936058764526813
2011-06-09,0,0.0,0.0,-0.004051666526000219,0.006169854024088581,0.9934915802575086
2011-06-13,0,0.0,0.0,-0.004634498101422389,0.006169854024088581,0.9936885121222994
2011-06-15,1,0.0006048781446109474,0.0006905229496935769,-0.004190943620976759,0.005796631775028857,0.9945137443263977
2011-06-17,1,0.0006607899265529308,0.0007607825598464117,-0.004653177329867805,0.0051741850256272395,0.994428234822638
2011-06-21,1,0.000643700065334489,0.0007352338696879571,-0.004653177329867805,0.005979394493384731,0.9942224629766081
2011-06-23,0,-1.1812283577492693e-05,4.406654163120963e-05,-0.006036905982892884,0.005979394493384731,0.9930411916559441
2011-06-27,1,0.0005195452856951654,0.0005405413860138821,-0.0065805315933658536,0.004909667232713802,0.9923182136391162
2011-06-29,1,0.00045318404483422724,0.0004683606568767609,-0.0065805315933658536,-0.00042971952287558285,0.9927594481281654
2011-07-01,1,0.0007047130992570685,0.0007351336298288581,-0.0065805315933658536,-0.00042971952287558285,0.9928560670050725
2011-07-06,1,0.0003511027362311175,0.0003889552339286117,-0.007891958475115765,-0.00042971952287558285,0.9920969044280009
2011-07-08,1,0.00013221883919179722,0.00020340101015912235,-0.008052608563076137,-0.00042971952287558285,0.9909799521605726
2011-07-12,-1,-0.00025400333830597556,-0.00015106871038594503,-0.00846244059426805,0.0008287319808790792,0.9904228274018428
2011-07-14,-1,-0.000665226155102724,-0.0004851631584421167,-0.01236744554107624,0.002016191565662776,0.9866320424542768
2011-07-18,-1,-0.001199424756751252,-0.0009329956025005718,-0.01236744554107624,0.005241331104639993,0.986473308748879
2011-07-20,-1,-0.0007935288542595747,-0.0005983937385432498,-0.01236744554107624,0.005241331104639993,0.9859862168420601
2011-07-22,-1,-0.0023894514206688035,-0.0019909018885354464,-0.0165067625398903,0.005241331104639993,0.9861012647785639
2011-07-26,-1,-0.003095045678002313,-0.0026368991925119277,-0.012028070151237049,0.008001659876339853,0.9856949638902973
2011-07-28,-1,-0.0034023637124091406,-0.0028943376398722145,-0.012048129719593261,0.008001659876339853,0.9851312860817503
2011-08-01,-1,-0.0028425855492160935,-0.0024392335638283033,-0.012048129719593261,0.01407432904557381,0.9843324822602574
2011-08-03,-1,-0.002318873406067651,-0.001970475120006539,-0.012048129719593261,0.008001659876339853,0.9855269584010693
2011-08-05,-1,-0.002743429116164918,-0.0023041194411263354,-0.01131884048703026,0.0057513545909151885,0.9867033483163279
2011-08-09,-1,-0.003050812667105311,-0.0025834680325449253,-0.01326033808084099,0.0057513545909151885,0.9869888248880603
2011-08-11,-1,-0.002810902747468396,-0.002396675284403833,-0.01326033808084099,0.005100839362999084,0.9901788481927156
2011-08-15,-1,-0.0030435669899239906,-0.0026007912431627827,-0.01326033808084099,0.004001974009690809,0.990267726153657
2011-08-17,0,0.0,0.0,-0.01326033808084099,0.005870940327587818,0.9886070412283285
2011-08-19,-1,-0.00297736036613011,-0.002557650267989448,-0.01326033808084099,0.005870940327587818,0.9887921088945119
2011-08-23,-1,-0.0025148737745447087,-0.002165740052843342,-0.01326033808084099,0.00586405676570904,0.9896817763030473
2011-08-25,-1,-0.002982144232841588,-0.0025709575008519767,-0.01326033808084099,0.00586405676570904,0.9898353220672145
2011-08-29,-1,-0.0021813141033211305,-0.0018799029336437508,-0.01326033808084099,0.0066305220768920975,0.9889780727634149
2011-08-31,-1,-0.0020041889447876085,-0.0017239105890394777,-0.01326033808084099,0.007169672676003476,0.9885127478385783
2011-09-02,-1,-0.0023009398796158187,-0.0020081057091342167,-0.013325020277856182,0.007169672676003476,0.9876063869285946
2011-09-07,-1,-0.003191245406759688,-0.0027990806923148146,-0.009857011931031705,0.007169672676003476,0.9884335878555846
2011-09-09,-1,-0.003911843794968393,-0.0034497139668523786,-0.007906340953265732,0.007753367958078625,0.9882937242461297
2011-09-13,-1,-0.003398396937687509,-0.003004120517584613,-0.009857011931031705,0.009004749888146825,0.9878193171836835
2011-09-15,-1,-0.0017296086480403882,-0.0015254466931526706,-0.009857011931031705,0.007753367958078625,0.9886175679738682
2011-09-19,-1,-0.002747172685318454,-0.0024473093649123347,-0.006059631889427831,0.007753367958078625,0.9903113984338913
2011-09-21,-1,-0.0021862259670710096,-0.001977053195346812,-0.006059631889427831,0.008482801379577975,0.9901303910190388
2011-09-23,-1,-0.0021099954567796826,-0.0019289072395285815,-0.005472844906314174,0.008482801379577975,0.9903587738703361
2011-09-27,-1,-0.001126030983114237,-0.0010474911386641895,-0.005472844906314174,0.005340507750302168,0.9919504949577143
2011-09-29,-1,-0.0006772462037792493,-0.0006767536683532615,-0.0049608447899499196,0.005340507750302168,0.9918088958318805
2011-10-03,-1,-0.0016275182280772824,-0.001527236545190652,-0.004093981400210009,0.0056741484729744655,0.9930753402929074
2011-10-05,-1,-0.0013594215345980518,-0.0013016487604029594,-0.004583355291064704,0.0056741484729744655,0.9926327925168907
2011-10-07,-1,-0.0007177721276945485,-0.0006807020753684348,-0.0049608447899499196,0.005379037386690795,0.9924050300404772
2011-10-11,0,0.0,0.0,-0.004583355291064704,0.006743518122480839,0.992484927877433
2011-10-13,0,0.0,0.0,-0.004583355291064704,0.006743518122480839,0.9925607113054409
2011-10-17,0,0.0,0.0,-0.004583355291064704,0.006743518122480839,0.9923085606668689
2011-10-19,0,0.0,0.0,-0.004093981400210009,0.0084571370932851,0.9911770617849474
2011-10-21,0,0.0,0.0,-0.0052779598352141665,0.0084571370932851,0.9904041337765367
2011-10-25,0,-3.9820529227011615e-05,2.21120094970757e-05,-0.008548412993693992,0.0084571370932851,0.9902046602556389
2011-10-27,1,0.0006007258809505268,0.0008468509290637653,-0.01147384461981193,0.006743518122480839,0.9905119444241597
2011-10-31,1,0.0009530823632381132,0.0012723345726216137,-0.01147384461981193,0.0084571370932851,0.9901867364812339
2011-11-02,0,0.0,0.0,-0.00858458943277714,0.0084571370932851,0.990239716990734
2011-11-04,1,0.0001292611874691152,0.00025219094632190567,-0.004236755133914285,0.0084571370932851,0.9910703868897485
2011-11-08,1,0.0009917123137401925,0.0012366403455370246,-0.004236755133914285,0.006005976847183689,0.9923613265564607
2011-11-10,0,0.0,0.0,-0.004236755133914285,0.006005976847183689,0.9923766289307193
2011-11-14,0,0.0,0.0,-0.006440242848421086,0.006005976847183689,0.9923106944439981
2011-11-16,0,0.0,0.0,-0.006440242848421086,0.004351484960270812,0.9931953441312805
2011-11-18,0,0.0,0.0,-0.0054098583599081025,0.004351484960270812,0.9937416834810435
2011-11-22,0,0.0,0.0,-0.004813840947828418,0.00783736576732825,0.9930634191192104
2011-11-25,0,0.0,0.0,-0.002785881462358924,0.008007315125501156,0.9933476445291104
2011-11-29,0,0.0,0.0,-0.004813840947828418,0.0059513387729863525,0.9937772264539148
2011-12-01,0,0.0,0.0,-0.004813840947828418,0.007843400902909144,0.993497478598077
2011-12-05,1,0.001811183989897617,0.0021273766350665586,-0.004813840947828418,0.007843400902909144,0.9934886542240386
2011-12-07,1,0.0019008690017922238,0.0022128414967253762,-0.006177814696887286,0.007843400902909144,0.9924469134230549
2011-12-09,1,0.0021877312885888946,0.0025542127024755705,-0.0054098583599081025,0.005845406313006999,0.9931702415619407
2011-12-13,1,0.001160151363997333,0.0013331702128717504,-0.0054403828028592215,0.005845406313006999,0.9933182788620366
2011-12-15,1,0.0012423829020950516,0.0013898283849875332,-0.0054403828028592215,0.005140228123253052,0.9938275139883537
2011-12-19,1,0.0008249315406241853,0.0009129948479145332,-0.004053169972813943,0.005845406313006999,0.9935134278110891
2011-12-21,1,0.001593415186696084,0.0017759413426812094,-0.004053169972813943,0.005140228123253052,0.9941752075219883
2011-12-23,1,0.0019675586661675516,0.0022247994650497404,-0.004053169972813943,0.005140228123253052,0.9942292945725952
2011-12-28,1,0.0014034946177688208,0.0015660644476984745,-0.004053169972813943,0.005140228123253052,0.9941327554000492
2011-12-30,1,0.0013088175118397467,0.0014196829894957282,-0.006018803387679943,0.004261239048024536,0.9942347237763627
2012-01-04,1,0.0014936812094340176,0.0016414620277560312,-0.006018803387679943,0.004281040513484305,0.9939223787918973
2012-01-06,1,0.0009615750209701999,0.0010626792286294955,-0.002887951376834162,0.004281040513484305,0.9947689670088266
2012-01-10,1,0.0013834753689632344,0.001558952826924231,-0.002887951376834162,0.003930481844099118,0.9949243432322232
2012-01-12,1,0.0002688667039881414,0.0003224523743835503,-0.002887951376834162,0.003930481844099118,0.9935705655974862
2012-01-17,1,0.0008018758085759334,0.0008656183436426057,-0.003053244425628634,0.003930481844099118,0.9935212788625433
2012-01-19,1,0.001081602077044332,0.0011527510752382748,-0.0050819077733999345,0.0036849388509146304,0.9936173066158263
2012-01-23,1,0.0014978641493775633,0.0016606397710551778,-0.0050819077733999345,0.0036849388509146304,0.9935208570139833
2012-01-25,1,0.001645999562795257,0.0018286493350200559,-0.0050819077733999345,0.0012586127585979873,0.993577392867464
2012-01-27,1,0.0008063363645390433,0.0008346681271706625,-0.004294015005079465,0.0030404531249356285,0.9945802378884872
2012-01-31,1,0.00047123607466328216,0.0005027542451871349,-0.004294015005079465,0.0010694237256994668,0.9948644121877813
2012-02-02,1,0.00011890227868519135,0.0002428353846439747,-0.0050819077733999345,0.00023731404527481365,0.9951948129189463
2012-02-06,1,0.0003745422389663915,0.00044047568611290083,-0.005543448599038709,0.00023731404527481365,0.9947419421642968
2012-02-08,1,0.0010581622668282217,0.001154249628599781,-0.005543448599038709,0.0010694237256994668,0.9941179805118883
2012-02-10,-1,-0.0007145909828695421,-0.0005649986603704151,-0.0043969917555932315,0.0034625089206759318,0.9959256786397684
2012-02-14,-1,-0.0009239796220007556,-0.0007493554714479673,-0.004611605938087997,0.004556446788739982,0.9956093480847409
2012-02-16,-1,-0.0014216413587058536,-0.0011776718054862883,-0.0006744091604725949,0.004823824917922699,0.9954745557021175
2012-02-21,-1,-0.000667408849489531,-0.0005575014026620835,-0.0005180794315542656,0.004823824917922699,0.9955417171823834
2012-02-23,0,0.0,0.0,-0.00011989919929167993,0.004823824917922699,0.9957304239548914
2012-02-27,0,0.0,0.0,-0.0007037729103488608,0.005317238117862813,0.9954470539343466
2012-02-29,0,0.0,0.0,-0.0006626889191356455,0.005317238117862813,0.9955111088310306
2012-03-02,0,0.0,0.0,0.0010338831129634303,0.005317238117862813,0.9955265902839732
2012-03-06,-1,-0.0002186516529115854,-0.00012503024109172714,0.0010338831129634303,0.005563892013375991,0.9956472504280948
2012-03-08,0,0.0,0.0,-0.0012530492762556382,0.005218362736563823,0.9959442991719815
2012-03-12,0,0.0,0.0,-0.0027387673718904577,0.004755975452666926,0.9957430875452282
2012-03-14,1,9.034079703918783e-05,0.0001528466348729407,-0.0017064854180076027,0.004638362855942635,0.9959304991401497
2012-03-16,-1,-0.00042206566877342396,-0.00032767581920784596,-0.0027387673718904577,0.00471920880388414,0.9952034566887876
2012-03-20,-1,-0.0002385558942718849,-0.0001533641776528023,-0.0028621007942883745,0.00471920880388414,0.9954261845684489
2012-03-22,0,0.0,0.0,-0.0028621007942883745,0.005218362736563823,0.9950808011456738
2012-03-26,0,0.0,0.0,-0.002974293521062891,0.004989449601694826,0.9949316434616865
2012-03-28,0,0.0,0.0,-0.0036039068104287385,0.004989449601694826,0.9948229269197633
2012-03-30,0,0.0,0.0,-0.004176052066153846,0.004716187572285269,0.9948616512702501
2012-04-03,1,0.0005226071929949072,0.0005854531320029024,-0.004176052066153846,0.005018223962972054,0.9946431619704924
2012-04-05,1,0.00018707640418259768,0.0001957552238013514,-0.0045983945244013795,0.005018223962972054,0.9941695911805829
2012-04-10,-1,-0.0005175564349800784,-0.00041777969079068037,-0.003163153680064812,0.005388487626521629,0.9945320194963714
2012-04-12,1,0.0005273331439761595,0.0006209505488375854,-0.004176052066153846,0.006473881479169025,0.9939106527140608
2012-04-16,1,0.0004592326072696492,0.0005111442695286684,-0.003163153680064812,0.0054829029774854585,0.9945858287373889
2012-04-18,1,1.6164364298139957e-05,4.667137808175384e-05,-0.002151669006863454,0.007298180818893313,0.9938431797265047
2012-04-20,1,6.991255118278338e-05,0.00011269645269312178,-0.004176052066153846,0.005785675921442621,0.9937830991841745
2012-04-24,1,0.0002798344574348713,0.0002952332254137963,-0.0025584325675639666,0.005785675921442621,0.9942006066845018
2012-04-26,1,0.00019499162699101346,0.00019840890630577965,-0.001648424108173474,0.00817425185532944,0.9938800583131722
2012-04-30,1,0.00012823905257534703,0.00012935510790194253,-0.001639653635087919,0.010145456720074702,0.9935400229723776
2012-05-02,1,0.0005500166241070806,0.0006231524272811658,-0.0032088258609024286,0.010145456720074702,0.9930856858379805
2012-05-04,1,0.0002556799755361954,0.000296335890057752,-0.003105658445009452,0.010145456720074702,0.9936055783502282
2012-05-08,1,0.0002441856911018914,0.0002564677859936847,-0.005114167350112639,0.007998171516364984,0.9934948118251306
2012-05-10,1,0.0005883970781898691,0.0006680564140872754,-0.003105658445009452,0.007812168217447851,0.9939892598634376
2012-05-14,1,0.000555900871997283,0.0006091316797647319,-0.004107323063574322,0.007812168217447851,0.9937895431459571
2012-05-16,1,0.0012825694430514175,0.001472396702767908,-0.004107323063574322,0.005685790999427942,0.9943244434643794
2012-05-18,1,0.0011305536930178279,0.0013023135065502625,-0.0028044328214610055,0.005685790999427942,0.9947894220386824
2012-05-22,1,0.0008491323597648639,0.0009648945181150944,-0.004377759917662595,0.005685790999427942,0.9943237427743477
2012-05-24,1,0.0013112987252248854,0.0014953093864484832,-0.005114167350112639,0.00355959795316806,0.9945677961186618
2012-05-29,1,0.0015943717985750251,0.0018319450393947641,-0.005114167350112639,0.0034762396499274195,0.9949124928320181
2012-05-31,1,0.000658919136855278,0.0007402200176019224,-0.0038962430580553003,0.0048931794389206525,0.9952729192286865
2012-06-04,1,0.0005844452401496858,0.0006590818817643299,-0.0025644439931129877,0.005685790999427942,0.9948278250943602
2012-06-06,1,0.0004141287204041679,0.00044626196270206855,-0.0025644439931129877,0.0048931794389206525,0.9950103829221242
2012-06-08,1,0.0006976286508393681,0.0007625558181372077,-0.003408125252934622,0.0034762396499274195,0.9954164086820891
2012-06-12,1,0.0009304628783841528,0.0010656515482068353,-0.0024317865974159032,0.0032040638014431628,0.9956271765920789
2012-06-14,1,0.0013102560686508147,0.0014921042158421317,-0.0034547428801760868,0.0032040638014431628,0.9955442460038201
2012-06-18,1,0.0013452138275725316,0.0015482773227504594,-0.0034547428801760868,0.00312002704392685,0.9954258686610847
2012-06-20,1,0.0009665765509951747,0.0010894298816834557,-0.0018234855790521909,0.00312002704392685,0.9960789757993972
2012-06-22,1,0.0007143168192202288,0.0007996275480104324,-0.0024317865974159032,0.0019916840731917674,0.995740006030118
2012-06-26,1,0.000979778003042596,0.0011121061096520852,-0.0034547428801760868,0.0019916840731917674,0.9944695876658151
2012-06-28,1,0.0011986756056314768,0.0013639638827109813,-0.0034547428801760868,0.004795151836091205,0.9938421521959062
2012-07-02,1,0.001646042137852381,0.0018712624952541255,-0.0034547428801760868,0.004486097956472164,0.9940207691072714
2012-07-05,1,0.0009219795573143704,0.0009870975520258158,-0.004128764665934261,0.004486097956472164,0.9940469904887271
2012-07-09,1,0.0006937032187406396,0.000718260556419144,-0.00474101314478204,0.007090092480278741,0.9933246126596023
2012-07-11,1,0.0004865399051755776,0.0005097194967937152,-0.00474101314478204,0.007090092480278741,0.9933062784801281
2012-07-13,1,0.0006289863671084131,0.0006318224811063092,-0.005495320526782333,0.004600213057456279,0.9935076966793333
2012-07-17,1,0.0005659514634542595,0.0005791525689827805,-0.005495320526782333,0.004600213057456279,0.993375512042542
2012-07-19,1,0.00046261322310470746,0.0004857647721366794,-0.005495320526782333,0.008357465042271937,0.9925429809005977
2012-07-23,-1,-0.00014118983008352758,-3.023890153339262e-05,-0.003100423478675442,0.008357465042271937,0.993234512783163
2012-07-25,1,0.00015451127209136726,0.00024304561676870452,-0.003057042386764426,0.0056404931847344585,0.9943528593035943
2012-07-27,1,0.0008840046964878615,0.000896062939868282,-0.0034574934484533464,0.004220031252147865,0.9950308418870121
2012-07-31,1,0.0008944842207822709,0.0008955866037917178,-0.0034574934484533464,0.003572846286440357,0.9952651541365167
2012-08-02,1,0.0007205442181935741,0.0007258828933553882,-0.0034574934484533464,0.003572846286440357,0.9953147927047421
2012-08-06,1,0.0008058706552403896,0.0008163644320003914,-0.0027549300532096156,0.003465848635806755,0.9961577206235576
2012-08-08,1,0.0008380901825433278,0.0008590341301930308,-0.0034574934484533464,0.003465848635806755,0.9954078019788258
2012-08-10,1,0.0007984266852523404,0.0008385151746223902,-0.0032680689212397484,0.003465848635806755,0.9955132740102534
2012-08-14,1,0.0007579703325026053,0.0007865284402260942,-0.003805265658869729,0.0019951059975655697,0.9944817158345629
2012-08-16,1,0.001302104508621746,0.001406980884398989,-0.0044353590051701905,0.0008941779232489308,0.9941879770340432
2012-08-20,1,0.0010958820049833526,0.00117363712704093,-0.0044353590051701905,0.0019951059975655697,0.9942820289783645
2012-08-22,1,0.0009571771840810493,0.0010227613727771007,-0.003876794214922143,0.003805244467059018,0.9944748329473952
2012-08-24,1,0.0010114814885712727,0.001084950825986452,-0.004968829079276526,0.002460439619963055,0.9943114565582986
2012-08-28,1,0.0008350518829896007,0.0008750967614606505,-0.005194225834840435,0.002460439619963055,0.9941472783126692
2012-08-30,1,3.07468352972539e-05,0.00012300531752495395,-0.003951926466776778,0.0032089882377413404,0.994675307776718
2012-09-04,1,0.0002859706145696383,0.0003372370047206351,-0.003951926466776778,0.002375581266112337,0.9947163494344516
2012-09-06,1,0.00021130112942035134,0.00025796082504890344,-0.0036093686040609666,0.0021957008661372974,0.995634356478614
2012-09-10,1,3.206195981683555e-06,7.69041522620772e-05,-0.0021764429698829125,0.0025844886839655043,0.9956443577558721
2012-09-12,-1,-0.000667010085273903,-0.0005236043549347058,-0.0012667254707136838,0.0025844886839655043,0.9961375301898985
2012-09-14,-1,-0.0006113592007708014,-0.0004666917479970609,-0.0012667254707136838,0.0025844886839655043,0.9965345385425812
2012-09-18,-1,-0.000571286275467181,-0.0004269259503968252,-0.0012667254707136838,0.0025844886839655043,0.9966016730737187
2012-09-20,-1,-0.0005090756183049149,-0.00036283162818959066,-0.0019829274224221205,0.0025844886839655043,0.9964173044049003
2012-09-24,-1,-0.0005790559798025328,-0.000441636759731553,-0.003135474305975302,0.0025844886839655043,0.9962210361892697
2012-09-26,-1,-0.0010902644171154696,-0.0008659034901767939,-0.003135474305975302,0.0025844886839655043,0.995714380781843
2012-09-28,-1,-0.0007610527883533468,-0.0005884355240363366,-0.003135474305975302,0.0026147858257539926,0.9955439635779681
2012-10-02,-1,-0.0008396558054814285,-0.0006612975947060628,-0.003135474305975302,0.0032575471236562267,0.9951954307519202
2012-10-04,-1,-0.0006799869896519785,-0.0005273103046003287,-0.004409226320281457,0.0032575471236562267,0.9951956048298415
2012-10-08,-1,-0.00012158677733918098,-7.043863935090922e-05,-0.0052973891824540965,0.0034129570182785114,0.9948196043206112
2012-10-10,-1,-0.0008113321961521323,-0.0006652700490169019,-0.004302905894460451,0.0034129570182785114,0.9953451051045751
2012-10-12,-1,-0.0009103234438990091,-0.0007498719287248089,-0.0036160687741906158,0.003108709629744292,0.9956869498177026
2012-10-16,-1,-0.0006119836758244468,-0.0005032428126381612,-0.004302905894460451,0.0017020085954790873,0.9955921590018549
2012-10-18,-1,-0.00020915179475005033,-0.00015780412211964916,-0.004302905894460451,0.0020419303564551206,0.9956615091859119
2012-10-22,-1,-0.0012394828116894386,-0.0010289985544188105,-0.0030456469977153456,0.003108709629744292,0.9959282562110925
2012-10-24,-1,-0.0019740949633922245,-0.0016704953128862316,-0.002754961429304873,0.004094956899962612,0.9956684637260558
2012-10-26,-1,-0.001676669069377892,-0.0014073684650671018,-0.002754961429304873,0.0035096533825302537,0.9959369226295609
2012-11-01,-1,-0.0012326282238635331,-0.0010345866673966285,-0.002754961429304873,0.0022734069208909997,0.9964755323378804
2012-11-05,-1,-0.0013919611426558827,-0.0011763131276673032,-0.002754961429304873,0.0022734069208909997,0.9964486365194797
2012-11-07,-1,-0.0011894137616993033,-0.0010169128845447962,-0.0022871232014489602,0.0022734069208909997,0.9966642397317759
2012-11-09,-1,-0.0011580937669552044,-0.0009963426655510044,-0.0016034816715956473,0.003424288903426842,0.9966063415194456
2012-11-13,-1,-0.0015153296008929644,-0.0012968648956926067,-0.0016034816715956473,0.003424288903426842,0.9963678876078077
2012-11-15,-1,-0.001683734907738986,-0.0014400579221068063,-0.0008896258422059287,0.003424288903426842,0.9964992555799707
2012-11-19,-1,-0.0013088429367101948,-0.0011160526635898673,-0.0008896258422059287,0.0031006493739162257,0.9968482989529464
2012-11-21,-1,-0.0009064133037572628,-0.0007745024840498005,-0.0016034816715956473,0.003067710161937672,0.9968598525107484
2012-11-26,-1,-0.00028088851952295794,-0.00024860739874442406,-0.002249404056564489,0.002991546761176968,0.9972211637367727
2012-11-28,-1,-0.00031713858859329337,-0.00026487158265366584,-0.0026351426726464885,0.0024529832629255114,0.9969928952662986
2012-11-30,-1,-0.0004405876998361767,-0.0003694168345988908,-0.003364851803196697,0.002991546761176968,0.9963268714428078
2012-12-04,-1,-0.0005115440854906601,-0.000438807611695209,-0.0026351426726464885,0.003067710161937672,0.9958503800517199
2012-12-06,-1,-0.0003381051429379477,-0.00029209950822835066,-0.0026351426726464885,0.002991546761176968,0.9960567419809554
2012-12-10,-1,-0.0003110527870167793,-0.00026576049899891123,-0.0026351426726464885,0.003000822693171038,0.9958336636130106
2012-12-12,-1,-0.000336397792649314,-0.0002895810809453988,-0.0025701713675404902,0.0030907423729460482,0.9954598217545538
2012-12-14,-1,-0.0006571428243967637,-0.0005475419072531446,-0.0025701713675404902,0.004517396767955993,0.9948624216536383
2012-12-18,-1,-0.00011654687234438101,-9.699854134564959e-05,-0.0025701713675404902,0.005214405627733422,0.9945474131980918
2012-12-20,1,0.00011484456672846693,0.00016493697470742983,-0.0025701713675404902,0.005214405627733422,0.9950050485931727
2012-12-24,0,-1.5937457853022632e-05,2.9826900296007743e-05,-0.0018742991233862117,0.005800569333666918,0.9949002393676913
2012-12-27,-1,-0.0005227941129398561,-0.00048500316896261405,0.0002885219924905814,0.005800569333666918,0.994886781872749
2012-12-31,-1,-0.00034402180848342015,-0.00034269082568626566,0.0006259467388276748,0.005214405627733422,0.9952947041861447
2013-01-03,1,4.531441929263861e-05,0.00010389262616041132,-0.0005269762543739274,0.0046647358067093,0.9958806622869439
2013-01-07,1,1.2501834824018882e-05,5.698127326049366e-05,-0.0018746407988378053,0.005214405627733422,0.9953083817333486
2013-01-09,1,0.0003292623716358859,0.0004196473140846733,-0.0026099762706020325,0.004854759354034208,0.9955434649484317
2013-01-11,1,0.0009727060270517316,0.0011816793802985055,-0.0030969896465422946,0.004397514676722922,0.9958218648771963
2013-01-15,1,0.0012073222287190537,0.0014373570135191355,-0.0034451225513493517,0.0036250587134842686,0.9954486240505119
2013-01-17,1,0.0014627915487113426,0.0017153416681280997,-0.0034451225513493517,0.003912433274247782,0.9947858576142342
2013-01-22,1,0.0013682203763866392,0.001616050490819311,-0.0030969896465422946,0.004870852417992978,0.993837468248717
2013-01-24,1,0.0014488985621934863,0.0017092533197580252,-0.0029200052771613423,0.003912433274247782,0.9942141773558274
2013-01-28,1,0.0014242944412543655,0.0016588002101184454,-0.0030969896465422946,0.004838352652658995,0.9937772837481512
2013-01-30,1,0.001735533833200185,0.002020728270316223,-0.0030969896465422946,0.004311203554798972,0.9936692854190801
2013-02-01,1,0.0014721899652608314,0.001715540964979969,-0.0029200052771613423,0.006495110251890734,0.9938834829450592
2013-02-05,1,0.0016645003378231444,0.0019241132389261186,-0.002690397035307929,0.004367079119321084,0.994241247467306
2013-02-07,1,0.0010404076088436228,0.0011683322987388646,-0.002044963902743465,0.00474998897132902,0.9944007043608709
2013-02-11,1,0.000905676032846523,0.0010267660961762062,-0.0014381161703868046,0.00474998897132902,0.9945047832897558
2013-02-13,1,0.000620088355302849,0.0007115537030478227,-0.0008615411729438736,0.00474998897132902,0.9950020740916347
2013-02-15,1,0.0017104255760864817,0.0019585681482331392,-0.0014381161703868046,0.0038606134398369023,0.9960339632525764
2013-02-20,1,0.0020890104354520126,0.0023694812930862112,-0.0018743346024711186,0.003299731981847819,0.9968125249899946
2013-02-22,1,0.0020354343659511743,0.002297142048882523,-0.0020143172860650565,0.0038606134398369023,0.9952675405374646
2013-02-26,1,0.002083115136529919,0.0023608572617434204,-0.0020143172860650565,0.0038606134398369023,0.9945875797256958
2013-02-28,1,0.001974366287359368,0.002230375054890357,-0.00280399428970771,0.004044125621694992,0.9939818753626304
2013-03-04,1,0.0023338705654874655,0.002640893645085953,-0.00280399428970771,0.004044125621694992,0.9938175653109538
2013-03-06,1,0.0024364590072680947,0.0027629134262045904,-0.0045414941576531025,0.0051249869061677274,0.9932119253786887
2013-03-08,1,0.002299685361373158,0.002577605911939703,-0.004591975605320057,0.007436885017697979,0.9922634534364948
2013-03-12,1,0.002034731362947352,0.0022695803514603445,-0.004591975605320057,0.008686731131754024,0.9920355084158585
2013-03-14,1,0.0021046875073650858,0.0023522047972408767,-0.004591975605320057,0.008686731131754024,0.9918731771572601
2013-03-18,1,0.0018862910336741425,0.0021176444170610755,-0.005419432525120088,0.01053814365312385,0.991130192481976
2013-03-20,1,0.00131566826914753,0.0014423758204367755,-0.00843249350026278,0.010942993990614151,0.9893707705730219
2013-03-22,1,0.0019182460974296398,0.002092441832728372,-0.00843249350026278,0.010942993990614151,0.9899643029886873
2013-03-26,1,0.0019611474576372223,0.002149125408751893,-0.00843249350026278,0.01053814365312385,0.9897138370418792
2013-03-28,1,0.002059125141435122,0.0022653146267420984,-0.005252714769331146,0.009159121717604721,0.9901585369102164
2013-04-02,1,0.0020587519072654626,0.0022499206195214128,-0.005252714769331146,0.009159121717604721,0.9903178521199947
2013-04-04,1,0.0019180672188321471,0.002085304166882108,-0.00367161463562482,0.009159121717604721,0.990791106806867
2013-04-08,1,0.001744387354721234,0.0018797194847681284,-0.00367161463562482,0.007686165550208939,0.9915864481143202
2013-04-10,1,0.0017182984106627604,0.0018379327461337082,-0.0033002725147423077,0.007686165550208939,0.991735009191827
2013-04-12,1,0.0015064872920388893,0.00158460629358666,-0.003803292266693044,0.007686165550208939,0.9915914190020508
2013-04-16,1,0.0014976879560865061,0.0015839925597289578,-0.0033002725147423077,0.006214603303514014,0.9926662039968736
2013-04-18,1,0.002022086708456006,0.0021866704060711705,-0.0033002725147423077,0.006214603303514014,0.994162151163611
2013-04-22,1,0.002743068563346607,0.0030096415149186047,-0.003803292266693044,0.004608183170457077,0.9941692576820059
2013-04-24,1,0.0023360405215484496,0.0025518488782627744,-0.0033002725147423077,0.004150425116908031,0.9955569107647019
2013-04-26,1,0.0021028372033453286,0.002280414423604347,-0.0033605370135528184,0.004150425116908031,0.9953029510058297
2013-04-30,1,0.0018356642549449517,0.0019643219280472838,-0.004189270105763571,0.004150425116908031,0.9945137309429276
2013-05-02,1,0.0018011895777284644,0.0019212241023505586,-0.004988758235736086,0.003481494626849342,0.9944861110118283
2013-05-06,1,0.0016418876311013583,0.001740376703434868,-0.004988758235736086,0.0044864691818970424,0.9945388764634709
2013-05-08,1,0.0016867864251573091,0.0017905599582727855,-0.0053358972217847755,0.0044864691818970424,0.9945483768154175
2013-05-10,1,0.001455967702237354,0.0015214747440307837,-0.0053358972217847755,0.005616315365424114,0.9943356080392263
2013-05-14,1,0.0015625710847759163,0.0016499162100276146,-0.0053358972217847755,0.00449088795243359,0.9939946329745015
2013-05-16,1,0.0013454912142475681,0.0013886478777038577,-0.005133696088452683,0.004116249379844354,0.9945943695858983
2013-05-20,1,0.000663295320907841,0.0007256753168968172,-0.00416905784237465,0.0043689797819249365,0.9951919356886063
2013-05-22,1,0.0004619712755085291,0.0005714714425857328,-0.0053358972217847755,0.0043689797819249365,0.9931291155986102
2013-05-24,1,0.0001551896098042753,0.00030287898158087346,-0.005133696088452683,0.0043689797819249365,0.9931956026252551
2013-05-29,-1,-0.0003867625596662952,-0.00018312313452872528,-0.00416905784237465,0.005251712889054862,0.9932058039949933
2013-05-31,-1,-0.0006862373092749592,-0.0004432251940375288,-0.0021530059777030122,0.005475269460010103,0.9931451857905246
2013-06-04,-1,-0.00033813195413461613,-0.00014351810092877925,-0.003993826427878484,0.005188433533542123,0.993403904312629
2013-06-06,-1,-0.0002469407578849141,-7.646711120962293e-05,-0.003993826427878484,0.0043689797819249365,0.9933302671322288
2013-06-10,1,0.00025926900962095823,0.00035844032445237866,-0.003993826427878484,0.005188433533542123,0.9928740219031692
2013-06-12,1,7.133841365273294e-05,0.00017919806026939276,-0.001238149015621935,0.007085398418880799,0.9922707029221911
2013-06-14,-1,-0.00017715307803543346,-3.0816727260477397e-05,-0.001522427748222127,0.007085398418880799,0.9920062074168923
2013-06-18,0,-0.00014059110260368355,1.1295744706804394e-06,-0.003137270284519419,0.012111382405574474,0.9911729193530533
2013-06-20,-1,-0.001394177089201119,-0.0011075912546868395,-0.001522427748222127,0.01272658650363831,0.9918163521338887
2013-06-24,-1,-0.0007447903180627957,-0.0005448153368119163,-0.0024162316821420764,0.012111382405574474,0.9927669383063179
2013-06-26,-1,-0.0007420230394260668,-0.0005286795610741525,-0.003137270284519419,0.007085398418880799,0.9933036670675063
2013-06-28,-1,-0.0006072242746871343,-0.00041523543556106694,-0.003201108500559686,0.006584294188408168,0.993546513979899
2013-07-02,-1,-0.0008209386134581815,-0.0005933305398897307,-0.003227350903811615,0.006584294188408168,0.993009853829722
2013-07-05,-1,-0.0013799778459817043,-0.0010714520010727537,-0.002741602866397322,0.008951675401333566,0.9930821139708895
2013-07-09,-1,-0.0009247441990676621,-0.000652699243770901,-0.002741602866397322,0.005244677150500021,0.9938803005766403
2013-07-11,1,0.00014682460941715003,0.00025177059404954036,-0.0029565232137140026,0.0028765764913401244,0.9945730177079831
2013-07-15,1,0.0003763782658542658,0.00042708639974986333,-0.004134642016226094,0.0013652359778482484,0.9943055157053553
2013-07-17,1,0.0006101866034125055,0.0006332346865529387,-0.004622638641240701,0.00018041864402769435,0.9946431131220641
2013-07-19,1,0.0008639428526355011,0.0008649869562980094,-0.006337178417474094,-0.000556404552423568,0.994010601125191
2013-07-23,1,0.0006267009132867111,0.0006568356365188933,-0.006696046880519844,-0.0002602338449012314,0.993546053891873
2013-07-25,1,0.0005357120168620416,0.000560268956745326,-0.007389727947755838,0.0013391227240643158,0.9931681398219255
2013-07-29,1,0.00031480285631875753,0.0003688772034251207,-0.007389727947755838,0.002175811850257084,0.9929988948837563
2013-07-31,-1,-0.00020237451401991432,-9.527288709460088e-05,-0.007389727947755838,0.002670898294974599,0.993564850686012
2013-08-02,-1,-0.00013191566888516202,-2.226131507674625e-05,-0.007389727947755838,0.002670898294974599,0.9937257057250399
2013-08-06,1,0.0001397103738755388,0.00021277052981525144,-0.00773250425516971,0.002592558533622802,0.9933543296871334
2013-08-08,-1,-0.0003055739770287866,-0.0001674642409812194,-0.00773250425516971,0.0027825083323749643,0.9933381805918028
2013-08-12,-1,-0.0007608981288443641,-0.0005622971827245153,-0.00773250425516971,0.0027825083323749643,0.9937582971671617
2013-08-14,-1,-0.0005513034313670809,-0.00042934134044056557,-0.007447458317174885,0.004201415704619632,0.9939720771183702
2013-08-16,-1,-0.0015424364043494527,-0.0013009811617572475,-0.002948772915086625,0.0053742679819923905,0.9943871493866768
2013-08-20,-1,-0.001533996626174776,-0.0012952678785774342,-0.0008789120532012352,0.005699291485767621,0.9939010341068117
2013-08-22,-1,-0.001765101760222933,-0.0015066125858728867,-0.0012342606740607404,0.005699291485767621,0.9940666256891373
2013-08-26,-1,-0.0016628236557078026,-0.0014189728754744097,-0.005819079750474992,0.0053742679819923905,0.9940166594481225
2013-08-28,-1,-0.0017314614254003832,-0.0014790137010674144,-0.004519016583694113,0.0053742679819923905,0.9941736165630998
2013-08-30,-1,-0.0015228522202513444,-0.0013008929632734446,-0.005819079750474992,0.0053742679819923905,0.9941140093419639
2013-09-04,-1,-0.0015886998461052564,-0.0013604631053439776,-0.004612157905864191,0.0044075802270635385,0.994449093770074
2013-09-06,-1,-0.001635810665196256,-0.0013994563042124468,-0.004128412730725477,0.0044075802270635385,0.9946557963146261
2013-09-10,-1,-0.0013061869305868539,-0.0011411997732777496,-0.004647268191569086,0.0044075802270635385,0.9946077224698083
2013-09-12,-1,-0.0006909276244532849,-0.000633678947065997,-0.004647268191569086,0.006030984038710139,0.9936973110168562
2013-09-16,-1,-0.0004640081923610635,-0.0004100987408103995,-0.004647268191569086,0.0040474208204191505,0.9941375231579715
2013-09-18,1,0.00041970864918931014,0.00047487781981480216,-0.0059539685978748595,0.0034187079415965074,0.9938119566427113
2013-09-20,-1,-0.00020012680088553147,-0.00017663064115262448,-0.004647268191569086,0.0040474208204191505,0.9941217399542687
2013-09-24,-1,-0.0005915239859946189,-0.0005254545660996126,-0.004128412730725477,0.0043874362023002805,0.9937935907691884
2013-09-26,-1,-0.0005549835750129038,-0.0004905725114583733,-0.00467682618185427,0.00432063392308882,0.9937204800318062
2013-09-30,-1,-0.0007716815073723792,-0.0006983077434501697,-0.0020475535009472534,0.007869537168197707,0.9929874600168217
2013-10-02,-1,-0.0007124123258023534,-0.0006422982359766303,-0.0027438752016849346,0.009960202911309763,0.9923997745715714
2013-10-04,-1,-0.0005811555697119554,-0.000537050265711722,-0.00629035032855192,0.009960202911309763,0.991954754719246
2013-10-08,-1,-0.0008162964822459855,-0.00075007137277406,-0.00319580862140351,0.009960202911309763,0.9920134884944455
2013-10-10,-1,-0.00019312085268055612,-0.0001814727902985389,-0.006391061464245411,0.009960202911309763,0.9912935944798698
2013-10-14,1,4.134307134644877e-05,7.172327290641919e-05,-0.006391061464245411,0.009960202911309763,0.9910433558674412
2013-10-16,1,0.00042619183735041007,0.0005009888383765577,-0.005353560023909992,0.007289181492977448,0.9921790311684895
2013-10-18,1,0.00034355314940815774,0.0003740463168020622,-0.005353560023909992,0.007289181492977448,0.9920862064148416
2013-10-22,1,0.000465073774123691,0.0005002582001433284,-0.005154158132299833,0.005803892602218851,0.9926485387789414
2013-10-24,1,0.00021509791098670234,0.00023729919683764152,-0.004290193881304249,0.0059289199091598875,0.9928200265069669
2013-10-28,1,0.0010267624243875306,0.0011559912111151049,-0.004401313238866993,0.005236779069207724,0.9938012726525074
2013-10-30,1,0.001162568022142942,0.0013335861396302942,-0.004401313238866993,0.003994652502943471,0.9941079912801409
2013-11-01,1,0.0009660420117724269,0.0010943359203945877,-0.004401313238866993,0.003127297681923704,0.994226135873995
2013-11-05,1,0.0009828774280623575,0.0011118723486016656,-0.005154158132299833,0.002572607220780965,0.9937435127635759
2013-11-07,1,0.0012723896410703171,0.0014463058676707323,-0.005154158132299833,0.002572607220780965,0.9944683591840531
2013-11-11,1,0.0005968071202369497,0.0006113288660809202,-0.005808797393813695,0.0016070012611157898,0.994603219675413
2013-11-13,1,0.0009533548637074968,0.0010350196030482178,-0.00722862488850126,0.0012464832268508155,0.9937140363137423
2013-11-15,1,0.001077051014760241,0.001193574272427474,-0.00722862488850126,0.0009474099538465297,0.9938437860791776
2013-11-19,1,0.0008489258593518559,0.0009417822191907229,-0.007249600427343966,0.0012464832268508155,0.993553677890224
2013-11-21,1,0.0009097623524552279,0.0010078068176523293,-0.007249600427343966,0.0015103159210834033,0.9937696956944084
2013-11-25,1,0.0006212265717380048,0.000659672954385625,-0.007249600427343966,0.0019273273240837019,0.9940186032171199
2013-11-27,1,0.0006432415577339134,0.00072757040578359,-0.005815789240094597,0.00299917276352009,0.9943167941492835
2013-12-02,1,0.0007402564284383142,0.0008769077286163195,-0.004612602656228112,0.00299917276352009,0.9947431788532686
2013-12-04,1,0.0004071785313112086,0.000502488207751438,-0.004612602656228112,0.00299917276352009,0.9948225309689832
2013-12-06,1,0.0007751363804956916,0.0009357707964131302,-0.0037068351016589464,0.00299917276352009,0.9954198475229361
2013-12-10,1,0.0007027387202279371,0.0008780663269054371,-0.00323277525741013,0.00299917276352009,0.9954942674945207
2013-12-12,1,0.00030462345047479355,0.0004223631788115322,-0.00323277525741013,0.00299917276352009,0.9953126648204178
2013-12-16,1,9.741590807013108e-05,0.00017420058360598988,-0.0007187514479901143,0.0036144676966026537,0.9951479711265662
2013-12-18,1,0.00032066942850296357,0.0004230186244541228,-0.0009901844874197901,0.00299917276352009,0.9957284843430094
2013-12-20,1,0.00012124203474805,0.00016496424270975895,-0.0013518890779644715,0.0036144676966026537,0.9953807967086393
2013-12-24,1,0.00036124711160836,0.0004528617483788664,-0.004781275330543496,0.0036144676966026537,0.9946609800576907
2013-12-27,1,0.000774162762699636,0.0009379151788896859,-0.004781275330543496,0.0039545638774561255,0.9944784107526601
2013-12-31,1,0.0007797837917621875,0.0009338271319103263,-0.0057933570742978715,0.006668870949670528,0.9927863892482433
2014-01-03,1,0.00036132347267476005,0.0004410512794287122,-0.008193998350781646,0.006668870949670528,0.9918399532637854
2014-01-07,1,0.0006884135139178689,0.0007901814056213623,-0.008193998350781646,0.006637768250206427,0.9919947668419081
2014-01-09,-1,-0.00013963286591470858,-8.332845453510064e-05,-0.008193998350781646,0.007643364516822281,0.9919578297463595
2014-01-13,-1,-0.00033289501218521696,-0.0002543795860533261,-0.0057933570742978715,0.007643364516822281,0.992362174767805
2014-01-15,-1,-0.0003921800175198704,-0.00028898637768859435,-0.008193998350781646,0.007643364516822281,0.9914828485779618
2014-01-17,-1,-0.0006579669105113073,-0.000526801262413208,-0.009692976311161696,0.007643364516822281,0.9907815479558596
2014-01-22,-1,-0.0005539669782390002,-0.0004277883721095711,-0.0125522036356067,0.007643364516822281,0.9900135992851397
2014-01-24,-1,-0.0010038523582399112,-0.000830615357953003,-0.01011367447184715,0.00781863826471246,0.9900603338447392
2014-01-28,-1,-0.0008142068342129838,-0.0006536613582089364,-0.01011367447184715,0.007725330166320156,0.9901626683463989
2014-01-30,-1,-0.0014103618824343393,-0.0011775019641408905,-0.007710394980939656,0.007725330166320156,0.9907913640898128
2014-02-03,-1,-0.0022856646310132796,-0.001953608183003664,-0.0020005493759965255,0.008157823624219733,0.990657783144888
2014-02-05,-1,-0.0019197379032207423,-0.0016388223636327958,-0.0020005493759965255,0.008157823624219733,0.9910439054519083
2014-02-07,-1,-0.0013097602690269714,-0.001123693492070813,-0.000852831554436718,0.006021202088078828,0.9915372673094804
2014-02-11,-1,-0.0003532529865978148,-0.00031867096535923164,-0.006981891386003954,0.006114490499092478,0.9915340082927246
2014-02-13,-1,-0.0011738554686455656,-0.0010203006936820571,-0.006981891386003954,0.006114490499092478,0.9919408134112506
2014-02-18,-1,-0.002096672040791549,-0.0018146571769954135,-0.004912617268667317,0.009278991935160729,0.9920119652813444
2014-02-20,-1,-0.002109618225044859,-0.00182576696286558,-0.004912617268667317,0.006625808909934218,0.9926243446988047
2014-02-24,-1,-0.001978781758346823,-0.0016913957355935,-0.004912617268667317,0.005510530516650323,0.9930994692581852
2014-02-26,-1,-0.0020485707054159683,-0.001753950240785282,-0.0033478082188603286,0.006073359891466137,0.9928765559185075
2014-02-28,-1,-0.0014453495163891277,-0.0012230791618566116,-0.004051742107772296,0.005783385884782607,0.993654301362605
2014-03-04,-1,-0.0012997336146297008,-0.0010814596490083283,-0.004051742107772296,0.005783385884782607,0.9941661156714677
2014-03-06,-1,-0.000717602406890206,-0.0006014516906010819,-0.004051742107772296,0.005783385884782607,0.9943860327102362
2014-03-10,-1,-0.0004899747416230173,-0.0004068579305764891,-0.004051742107772296,0.006073359891466137,0.993696996234989
2014-03-12,-1,-6.490206054372873e-05,-5.342474030539246e-05,-0.004051742107772296,0.005783385884782607,0.9941867552186513
2014-03-14,-1,-0.00033283131033947256,-0.00030427293175193826,-0.003890311895055961,0.005783385884782607,0.9944410136339351
2014-03-18,1,0.0001346354462010445,0.00017408360446531017,-0.003890311895055961,0.005379512663208886,0.9946825274728114
2014-03-20,-1,-7.784819637146506e-05,-6.757891472191397e-05,-0.003556994737420542,0.005834896848756681,0.9943533419785467
2014-03-24,1,0.0003229081516636669,0.0004095171701302112,-0.003890311895055961,0.005834896848756681,0.9941467480060843
2014-03-26,1,0.0005759497537118269,0.0006910705661398213,-0.003890311895055961,0.005043276387853999,0.9945832852973298
2014-03-28,1,0.0006292068799142417,0.0007530783151071894,-0.003556994737420542,0.005611172446152845,0.9939750460266793
2014-04-01,1,0.0006304489046906412,0.0007569071337243764,-0.003556994737420542,0.004998241169722501,0.9939931776558083
2014-04-03,1,0.0007457527116113507,0.0008957300779102873,-0.0037591928408245764,0.004998241169722501,0.9939352474647923
2014-04-07,1,0.0011757708609030553,0.001386653683979565,-0.004105204690268929,0.0048347495368337694,0.9944567364826543
2014-04-09,1,0.001241728470325782,0.0014747209817179633,-0.003523494027207221,0.0048347495368337694,0.9940820562763334
2014-04-11,1,0.0010477336458217122,0.0012547659876896964,-0.0028541915317714466,0.0051516462437923224,0.9941861971709519
2014-04-15,1,0.0011454798593768707,0.0013526913177352013,-0.0032992608512739437,0.004891565374392024,0.9941741439667752
2014-04-17,1,0.0017261757311322718,0.002017860673909298,-0.003912023895717396,0.004296159086648576,0.9938411996581706
2014-04-22,1,0.0014609836987050087,0.0017110042391083485,-0.004624359946637617,0.0037284205029337806,0.9938550107336153
2014-04-24,1,0.001475954640569631,0.001712747147553399,-0.005119898031212087,0.004733790445703606,0.9933817724866912
2014-04-28,1,0.001743134315506181,0.001999111585197205,-0.005119898031212087,0.004733790445703606,0.9940185122286931
2014-04-30,1,0.0012594552967378943,0.0014351809906862373,-0.004624359946637617,0.005973908549822601,0.9941973886298464
2014-05-02,1,0.0012681352835816398,0.0014562204589506041,-0.005115219963990938,0.006390252637922554,0.9939551749780936
2014-05-06,1,0.0010029028717012775,0.0011369672915534487,-0.005115219963990938,0.006390252637922554,0.9937951831379553
2014-05-08,1,0.001151833669713915,0.0012813720876293302,-0.005115219963990938,0.005973908549822601,0.9945620900373652
2014-05-12,1,0.0011259537060640526,0.001247810100548695,-0.005115219963990938,0.005500583763757349,0.9947942359914724
2014-05-14,1,0.0011472565441452006,0.0012830912167070732,-0.005429696634533122,0.005500583763757349,0.9944070187818961
2014-05-16,1,0.0011090839538431027,0.001239614221274734,-0.005212411282855836,0.004893006031760142,0.9952674516690007
2014-05-20,1,0.0007793387075874397,0.0008682658584800982,-0.0036149338440227283,0.005500583763757349,0.9947083020899141
2014-05-22,1,0.0008783736791980112,0.0009906231895055733,-0.0036149338440227283,0.006390252637922554,0.9940944279181543
2014-05-27,1,0.001285800392494778,0.0014558668485872405,-0.0055006893124474095,0.005139685064339848,0.9939174274408408
2014-05-29,1,0.0014590960580542116,0.0016346051501443643,-0.0055006893124474095,0.004289867179498791,0.9941686699940897
2014-06-02,1,0.0016318178884521684,0.001856330376898186,-0.004479800082685174,0.004289867179498791,0.9945236675679647
2014-06-04,1,0.0013357532852836564,0.0015048791918835375,-0.003274637434101983,0.005084353133825045,0.9947320407728685
2014-06-06,1,0.0013671020446652637,0.001525626238330631,-0.003274637434101983,0.005084353133825045,0.9945728648701315
2014-06-10,1,0.0016108844146260522,0.0018142019138359037,-0.003274637434101983,0.004601513848036193,0.9945257191224727
2014-06-12,1,0.0009922789401896374,0.0010950073707714867,-0.0024565942338387603,0.004601513848036193,0.9950745783990683
2014-06-16,1,0.001201517221151231,0.0013459620063150188,-0.0028520213029612843,0.006029114004044229,0.9942155082737396
2014-06-18,1,0.0013240752737078967,0.0014516714446905054,-0.0030426580169111922,0.004432211050567213,0.9948997307298856
2014-06-20,1,0.001352170565327195,0.0015022420937939925,-0.0024565942338387603,0.00373285710655549,0.995938353958761
2014-06-24,1,0.000777090207632298,0.0008276858335102717,-0.002086080760629447,0.004432211050567213,0.995322920737088
2014-06-26,1,0.00030825273809404895,0.00036874678005384377,-0.0024565942338387603,0.004442031915174189,0.9948102842567157
2014-06-30,1,0.000741251430608553,0.0007580919886639058,-0.004346506946712406,0.00373285710655549,0.9942921506463218
2014-07-02,1,0.0009426024087675551,0.0009910336493501241,-0.0067827131696104855,0.002247366104941608,0.9934596849353771
2014-07-07,1,0.0010467900950372653,0.0011257651340120217,-0.0067827131696104855,0.002247366104941608,0.9928397372692426
2014-07-09,1,0.0005848945219451916,0.0006073981474356708,-0.0067827131696104855,0.005757512547094545,0.9920746007124541
2014-07-11,1,0.00019657297107196844,0.00028788884674364474,-0.00708589144382205,0.006254061343217142,0.9919508054401961
2014-07-15,1,8.051542145913796e-05,0.00019298243452241042,-0.006436415096181231,0.006254061343217142,0.9919270946397394
2014-07-17,1,2.3136666872274785e-05,0.00012871451925140347,-0.006436415096181231,0.007358516141112591,0.9919932910019259
2014-07-21,0,-0.00013418928107113978,1.5046584140061413e-06,-0.006436415096181231,0.007358516141112591,0.9919617686357772
2014-07-23,1,0.00013853364355605075,0.00021310829644755674,-0.006322932162792334,0.004706298240332421,0.9929117454955793
2014-07-25,1,0.000694025318477487,0.0006952405624234164,-0.006322932162792334,0.004105460436577861,0.9932339632390091
2014-07-29,1,0.00013557714439889213,0.00019427955848711487,-0.005677190332426875,0.004706298240332421,0.9929453262143282
2014-07-31,-1,-0.00043870039753645545,-0.0003167289641451957,-0.004218895021446345,0.004706298240332421,0.9936281661722105
2014-08-04,1,0.0002821841231909801,0.00032009532637371186,-0.004218895021446345,0.004105460436577861,0.9944998652244731
2014-08-06,1,0.00018129331210953991,0.00025807752588395715,-0.004218895021446345,0.003853107586105485,0.9948924492386699
2014-08-08,1,0.00018301135920088763,0.00024244610569281713,-0.0033591964812906827,0.003398382120005782,0.9953186207406454
2014-08-12,1,0.0002483741698065975,0.0003006684800874931,-0.0033591964812906827,0.003398382120005782,0.9960135356078522
2014-08-14,1,0.00032276342072558534,0.0003734500086975868,-0.004194201814944864,0.003006192366678048,0.9957600971286074
2014-08-18,1,0.00047583800531632704,0.0004955653578325045,-0.004194201814944864,0.0036723342374017057,0.9949874549114286
2014-08-20,1,0.0005381172637026054,0.000552022680171002,-0.004194201814944864,0.0036723342374017057,0.9949551807255591
2014-08-22,1,9.458820275759974e-05,0.00016797749401369208,-0.00267818308853118,0.0038579541326798847,0.9950453148564838
2014-08-26,1,0.00034833325306755854,0.0003926425339884181,-0.00267818308853118,0.0038579541326798847,0.9955556650133427
2014-08-28,1,0.0006558757411906798,0.000669283051215955,-0.002876757222219629,0.004160016689552768,0.9952398086437181
2014-09-02,1,0.0003813515850476659,0.00040828065188394744,-0.002876757222219629,0.004160016689552768,0.9952790930747152
2014-09-04,0,-0.0001123070160642572,3.3322137696011837e-06,-0.0028609144465522175,0.004160016689552768,0.9956578937663606
2014-09-08,1,6.653162279878823e-05,0.00014637013505404894,-0.0028609144465522175,0.004614619930495215,0.9951913478038859
2014-09-10,1,0.0003248437423700319,0.0003453659971426989,-0.0024022178639396775,0.005122999557159931,0.9949960627584835
2014-09-12,-1,-0.00026894342975968287,-0.0001663073422909839,-0.0024022178639396775,0.005733769101555897,0.9947593078651675
2014-09-16,1,0.0005222807516219263,0.0005233377258791368,-0.0041356733296925305,0.005122999557159931,0.994708196763656
2014-09-18,1,0.0010127758944652391,0.001091505071625902,-0.007084786305531092,0.004614619930495215,0.993669079625401
2014-09-22,1,0.0007445761648900066,0.000766596844975635,-0.007084786305531092,0.0065828348029529525,0.9926783752184083
2014-09-24,1,0.0005216957570570096,0.0005393986074984023,-0.005420242550342398,0.007823812280004422,0.9929615884125887
2014-09-26,1,0.00028980325547477365,0.00034495236195472936,-0.00539754281252686,0.008187552907574565,0.9928976241083688
2014-09-30,1,0.0004991242847286023,0.0005053159999921143,-0.00539754281252686,0.008187552907574565,0.9925846797056106
2014-10-02,1,0.00028203429004988116,0.0003132044927622753,-0.006340343299077085,0.008974903617611983,0.9921232255073681
2014-10-06,1,0.00048469099188677516,0.0004945618983595238,-0.006340343299077085,0.008187552907574565,0.9922281468242932
2014-10-08,1,0.0006408937547361871,0.0006462111909805955,-0.006340343299077085,0.008187552907574565,0.992331890558018
2014-10-10,1,0.00040958543230896756,0.0004562454810877856,-0.006340343299077085,0.007823812280004422,0.9930069138470363
2014-10-14,-1,-0.00037154886048309675,-0.00022800636120058816,-0.002972149752453607,0.007823812280004422,0.993585545834831
2014-10-16,-1,-0.0008816852229836901,-0.000698260964495883,-0.00028385315830500526,0.008187552907574565,0.9935303382808002
2014-10-20,1,0.0005045901549011107,0.0005047744111931691,-0.0013153757119208085,0.00731953992612927,0.994694898090511
2014-10-22,1,0.0006515127635328729,0.0006668371914750736,-0.002972149752453607,0.0068637414026495045,0.9946698646078315
2014-10-24,1,0.0005829571855129826,0.0005893892428060045,-0.002972149752453607,0.0068637414026495045,0.9948732218291342
2014-10-28,1,0.0008576397530001174,0.0008986680116248934,-0.002972149752453607,0.005868162123398874,0.9950137852437982
2014-10-30,1,0.0010125573367300005,0.0010825071316813606,-0.0022887743811034426,0.005868162123398874,0.9953624357576871
2014-11-03,1,0.0005736681017384426,0.0005860589932073982,-0.0022887743811034426,0.007178432109294634,0.9951148077608624
2014-11-05,1,0.0008806773824109853,0.0009172559191156066,-0.0037413851175706492,0.005389974705945711,0.9942525046769976
2014-11-07,1,0.0011893346729345252,0.0012956418274385011,-0.0037413851175706492,0.005389974705945711,0.9943498749918748
2014-11-11,1,0.0007887476322913348,0.0008307811089668557,-0.005107108934459651,0.005389974705945711,0.9936489535009848
2014-11-13,1,0.0012673258300720767,0.001356259642109784,-0.006009942848324359,0.004383772849578778,0.9935585948909359
2014-11-17,1,0.0012399117283655786,0.0013345220311908848,-0.006411727669489226,0.0029614329485356606,0.9930773162184856
2014-11-19,1,0.0012039225812664265,0.0013088561889595838,-0.006411727669489226,0.004990018414798808,0.9922348559286724
2014-11-21,1,0.0012686321781139247,0.0013830218675596705,-0.006411727669489226,0.004990018414798808,0.9922432216834425
2014-11-25,1,0.0012093415548058972,0.0013130372751263603,-0.006411727669489226,0.007305155551847623,0.9919730514157084
2014-11-28,1,0.001401201486837659,0.0015223859326282086,-0.006411727669489226,0.002663734206127295,0.9920221517164577
2014-12-02,1,0.0014685059448626895,0.0015977596914367098,-0.00841542810469987,0.0009151328426963306,0.9912897376466637
2014-12-04,1,0.0007084086577925541,0.00073875997628926,-0.00762857965982066,0.0009151328426963306,0.9925526438248831
2014-12-08,1,0.0005499373559708182,0.0005505829846570408,-0.007671351951781796,0.0027724833121590673,0.9908366087501486
2014-12-10,0,-5.8817839568625657e-05,7.786822336222659e-06,-0.007532248389126521,0.008795234338948023,0.9906184036840864
2014-12-12,-1,-0.0004992990431176335,-0.00038303970499450516,-0.006957490451308261,0.008795234338948023,0.9913730816992311
2014-12-16,-1,-0.0011062733903516927,-0.0009346542331544911,-0.004791209427839087,0.008795234338948023,0.99224558311242
2014-12-18,-1,-0.00015254644197133338,-6.503551913472226e-05,-0.004791209427839087,0.004094316309933488,0.9932377528537149
2014-12-22,-1,-0.00027976752599929967,-0.00014825871319039288,-0.004791209427839087,0.004094316309933488,0.9931257793698218
2014-12-24,1,4.276999800343606e-05,9.954373759029833e-05,-0.004791209427839087,0.002526275321415959,0.9932736931304993
2014-12-29,1,0.0001738814491869689,0.00019947733668798884,-0.007532248389126521,0.002526275321415959,0.9919148839328079
2014-12-31,-1,-0.0008199992386810509,-0.0006625289211787985,-0.006957490451308261,0.00325924570156053,0.9919082653252667
2015-01-05,-1,-0.0010171425942932383,-0.0008429717825492462,-0.004791209427839087,0.007091735816447162,0.9909015463187284
2015-01-07,0,-3.815557004375458e-05,1.2358990091073112e-05,-0.003838733691663241,0.004721915233380787,0.9925500023374731
2015-01-09,1,0.00010472123144484043,0.00013631750758605755,-0.003838733691663241,0.003530421227988902,0.9933554757305346
2015-01-13,1,3.1024710392041666e-05,6.890957613376547e-05,-0.001781366844303675,0.007091735816447162,0.991353338160509
2015-01-15,-1,-0.00017270365827893352,-9.607544991706865e-05,-0.0047188153712460655,0.007091735816447162,0.9908735380232119
2015-01-20,1,0.00028981193545995186,0.0002993919288530217,-0.007680676299166352,0.009310042561338473,0.9904376371592221
2015-01-22,1,0.0009127340825776261,0.0009916689638153461,-0.007680676299166352,0.005400050570613403,0.9908141457053213
2015-01-26,1,0.0005693122726767737,0.0005904683036734882,-0.007680676299166352,0.005400050570613403,0.9908470441460542
2015-01-28,-1,-0.0007224321585888999,-0.000577854851787928,-0.004776496257347699,0.005400050570613403,0.9919502535391734
2015-01-30,-1,-0.0012169769950089286,-0.0010202134874721068,-0.0020515547751055897,0.005400050570613403,0.9930787941773903
2015-02-03,-1,-0.0004200887704701542,-0.00031188055133367685,-0.006080730912642847,0.003567285807598334,0.993767094863795
2015-02-05,-1,-0.0006312068069430078,-0.00048189164368259667,-0.006518793857083469,0.0018414407956370343,0.9935015251779851
2015-02-09,-1,-0.0003825914676592398,-0.00029913157278713435,-0.006547749850439766,0.0018414407956370343,0.9929925080613877
2015-02-11,1,0.0010013207960718339,0.0010936300230871819,-0.007943637265797297,0.0004783299954196126,0.9931290425133205
2015-02-13,1,0.0004335564763942151,0.00044961680442625885,-0.007943637265797297,0.0018414407956370343,0.9927601033209621
2015-02-18,1,0.0005952441974700205,0.0006296616048000217,-0.00899621587693819,0.0018414407956370343,0.9926210282149628
2015-02-20,1,0.00047485278922704065,0.0004894992123962137,-0.00899621587693819,0.0019646794629752376,0.9922058652770375
2015-02-24,1,0.0004131653331453202,0.00041464299560705384,-0.00899621587693819,0.0014888450468048486,0.9921861673818132
2015-02-26,1,8.627305465681729e-05,0.00013599377173170453,-0.00899621587693819,0.004250366204545415,0.9921130603650398
2015-03-02,1,0.00019940191916400455,0.0002244967072002094,-0.00899621587693819,0.005366489598467308,0.9916909774171703
2015-03-04,-1,-0.00018176409872234223,-0.0001241487573044953,-0.008685044524546316,0.005366489598467308,0.9918411861606569
2015-03-06,-1,-0.0005483188876584282,-0.00045120744473024576,-0.006812313009277349,0.00603291234758793,0.9916827147977244
2015-03-10,-1,-0.0014563901782345292,-0.0012265196027565126,-0.005844159738924257,0.00603291234758793,0.9923295599657517
2015-03-12,-1,-0.001175512010362079,-0.000948466477763752,-0.005583590841103545,0.005548694068163691,0.9936275086657058
2015-03-16,-1,-0.0007877610290988376,-0.0006544256776559855,-0.005583590841103545,0.005548694068163691,0.9940816203442799
2015-03-18,-1,-0.0007209756029577758,-0.0006019248706593585,-0.0034846238219333565,0.005497121931672601,0.994868057992891
2015-03-20,-1,-0.000640135411818094,-0.0005344976251441429,-0.0034846238219333565,0.005497121931672601,0.9951182559210634
2015-03-24,-1,-0.0005907563364080874,-0.0004989188610397706,-0.0034846238219333565,0.005359915329767179,0.9949859200987121
2015-03-26,-1,-0.00041845355449026225,-0.00035601890066127206,-0.005619590217450507,0.005359915329767179,0.9944491278291073
2015-03-30,-1,-0.00024097224033863145,-0.00019221612407302019,-0.006046268971010179,0.0037908058300000734,0.994553112401517
2015-04-01,-1,-0.0004637726186380119,-0.00040653047416049873,-0.0035613736977445133,0.00545223660957554,0.9948842713143928
2015-04-06,1,8.972408114420632e-06,1.0097181286118924e-05,-0.0035613736977445133,0.004217319741231413,0.9951021548473192
2015-04-08,-1,-0.00033315550191780313,-0.0002848959689551366,-0.005605233250594594,0.004217319741231413,0.9950542427046216
2015-04-10,1,0.00011922926018204192,0.00016789523068063057,-0.005605233250594594,0.004760850115700146,0.9943974035971368
2015-04-14,1,0.00027178102016371436,0.000334360438444069,-0.00397310462029433,0.004217319741231413,0.9950365565006223
2015-04-16,1,0.00014172034503914942,0.0001822734446597568,-0.00397310462029433,0.004760850115700146,0.9942955020457374
2015-04-20,1,0.00023690161441863132,0.0002979160631069658,-0.002417694744870403,0.004217319741231413,0.994793870578178
2015-04-22,1,0.00046937582981706794,0.000560916433894345,-0.0028548297031367885,0.0027039826221258987,0.9949233186001435
2015-04-24,1,0.0001311670035083549,0.00019910217315891913,-0.0028548297031367885,0.0027039826221258987,0.9953322067106151
2015-04-28,0,-2.1677405154046057e-06,5.664000393994272e-05,-0.0028548297031367885,0.004217319741231413,0.9952022674041067
2015-04-30,-1,-8.333209086246617e-05,-7.800321804471547e-05,-0.003812835733492775,0.004217319741231413,0.9949238688454735
2015-05-04,1,9.150793941172414e-05,0.00012067282701594893,-0.00479837318545215,0.0021984941360270274,0.9950603152354509
2015-05-06,-1,-0.00031870780540217615,-0.0002734425509275741,-0.004915947284404827,0.0021984941360270274,0.9944918849544518
2015-05-08,-1,-0.00021760794555817536,-0.00016074983758821478,-0.0053846425362249145,0.001170965185919021,0.994696683382937
2015-05-12,-1,-0.000745602577181644,-0.0005931523496590537,-0.0053846425362249145,0.0023030369853675875,0.9945330173141015
2015-05-14,1,0.0003757396354914533,0.000407864888329175,-0.0053846425362249145,0.0023030369853675875,0.9947518901425169
2015-05-18,1,0.0004539370830493354,0.0005148757483684959,-0.00682020992466726,0.00292539597783413,0.9938689487585745
2015-05-20,1,0.00034308812643049874,0.0003912407585541528,-0.00682020992466726,0.005548368577812568,0.9932703834601642
2015-05-22,-1,-7.703011192163896e-05,-6.802150081130045e-05,-0.005284667198886172,0.006284871908738832,0.9934345637369985
2015-05-27,-1,-0.0004209059703400507,-0.0003365165015794482,-0.005200418212379742,0.0056739719590262715,0.9938587578663985
2015-05-29,-1,-0.000605929834557698,-0.00048667235081887927,-0.004784557499879577,0.004538184184036101,0.9942659909122328
2015-06-02,-1,-0.000282403529898727,-0.00023638572841401322,-0.005572627787166763,0.004538184184036101,0.9937105707094723
2015-06-04,-1,-0.0007934448626289742,-0.0006999544148515622,-0.003773181673416103,0.0056739719590262715,0.9939248902275172
2015-06-08,-1,-0.0012394429912068415,-0.001089448138519778,-0.003723817284843564,0.006946498359357196,0.9932969584071654
2015-06-10,-1,-0.0008278412698510371,-0.0007308388094183185,-0.004120859075671344,0.005958788266003527,0.9930226897169987
2015-06-12,-1,-0.0006281633836996073,-0.0005676586985949705,-0.004120859075671344,0.009904541614387304,0.9919773436486642
2015-06-16,-1,-0.00036239924524951163,-0.0003568699804823181,-0.004120859075671344,0.008387994398884706,0.9926284456073676
2015-06-18,1,0.00012510248300566106,0.00018041161686213354,-0.004120859075671344,0.0062315268600420335,0.9931624824190391
2015-06-22,-1,-0.0002892411823101293,-0.00024200412194141268,-0.004135603059696261,0.00553434083669992,0.9933292359920718
2015-06-24,-1,-0.0007633215565775132,-0.0006308782624954345,-0.004135603059696261,0.00553434083669992,0.9933011270176972
2015-06-26,-1,-0.0003758944740360267,-0.00033019763488939936,-0.005835614198708598,0.00553434083669992,0.9929185091578399
2015-06-30,-1,-0.000829420450253607,-0.0007374498304732527,-0.004280386828335737,0.00553434083669992,0.9932444583126572
2015-07-02,-1,-0.0004565812508826309,-0.0003976650225954747,-0.004280386828335737,0.004897177750418061,0.9937720279834485
2015-07-07,1,0.0007547729817063815,0.000928920386375933,-0.004280386828335737,0.004897177750418061,0.9942258886315892
2015-07-09,1,4.1929691353614776e-05,0.00010425058002197995,-0.0029450601106325836,0.00553434083669992,0.9943896878797354
2015-07-13,1,0.0009551355564589226,0.0011401159766940908,-0.0029450601106325836,0.004453512349569088,0.9956756477235401
2015-07-15,1,0.0007023071227604064,0.0008502479527403955,-0.0029450601106325836,0.004453512349569088,0.9957756874693732
2015-07-17,1,0.0009449261870772044,0.0011362301552160893,-0.0029450601106325836,0.0043909594194921076,0.9957915770617336
2015-07-21,1,0.0009509711118139502,0.0011361787917116657,-0.002549638883790564,0.0043909594194921076,0.9958938047384707
2015-07-23,1,0.0009292999710095295,0.0011111099533852027,-0.003359003282296135,0.0043909594194921076,0.9951730796003557
2015-07-27,1,0.00039212347395014744,0.0004809926841251222,-0.003359003282296135,0.0043909594194921076,0.9926626729412037
2015-07-29,1,0.0002150882268345623,0.0002441905330317616,-0.005511816057105831,0.004239142488621096,0.9903403755778227
2015-07-31,-1,-9.097584535790903e-05,-6.39034428838061e-05,-0.005511816057105831,0.004927652207553916,0.989967439861958
2015-08-04,1,0.0004737930564173116,0.0005432090580128415,-0.008414225924070252,0.004239142488621096,0.9893524120162546
2015-08-06,1,0.000482154212491229,0.0005454661563591811,-0.008414225924070252,0.004239142488621096,0.9896828193292817
2015-08-10,1,0.00045094213989554466,0.0005079667181365891,-0.010935648155327021,0.0046771842655628304,0.9883456086209179
2015-08-12,1,0.00048384881179584294,0.0005469126858332306,-0.014018226771921997,0.0046771842655628304,0.9878057423570562
2015-08-14,1,0.00045762838890222815,0.0005085902888003037,-0.014018226771921997,0.005547702193973078,0.9876517679795791
2015-08-18,1,0.000481736613232045,0.0005428151275923056,-0.014018226771921997,0.0069698442557574345,0.9870609272057012
2015-08-20,1,0.00029253980484450677,0.0003378939749426247,-0.014018226771921997,0.0069698442557574345,0.9876573474070063
2015-08-24,-1,-0.00032988323310378486,-0.00028679761738341066,-0.008094679821440812,0.007677146321170024,0.9896876231618373
2015-08-26,-1,-0.0006367032895444664,-0.0005657763613294967,-0.0050419207516694525,0.006385615839681344,0.9922920138236527
2015-08-28,-1,-0.0007103015635263545,-0.000626648214292602,-0.007485933256656451,0.006385615839681344,0.9918538387295209
2015-09-01,-1,-0.0010621730521878764,-0.0009404975844254567,-0.003716470007428792,0.007677146321170024,0.9917957642255942
2015-09-03,-1,-0.0007871346995511289,-0.0007038113797268343,-0.0046311744686479035,0.007677146321170024,0.9919888999531513
2015-09-08,-1,-0.0007292741191836051,-0.0006502530651447948,-0.003716470007428792,0.009775953180668621,0.991854236616987
2015-09-10,-1,-0.0009500341192759277,-0.0008467627076769631,-0.0006132297513994007,0.01085352083492943,0.9916747138895988
2015-09-14,-1,-0.0007843664627346442,-0.0007089217789940005,-0.0005858247286086257,0.01085352083492943,0.9918548245476685
2015-09-16,-1,-0.0005657148440243583,-0.0004997066179603835,-0.0036682520040981987,0.008023267932440348,0.9922490141993171
2015-09-18,-1,-0.0006401539086615482,-0.0005615475643600621,-0.003586036935725874,0.011398501187870218,0.9913907769196753
2015-09-22,-1,-0.0006794752479312163,-0.0006059514328177833,-0.0005858247286086257,0.011398501187870218,0.9920765258140425
2015-09-24,-1,-0.0005064996646763781,-0.00045720255395989155,-0.0009789713759328449,0.013248934322497187,0.9908217477132072
2015-09-28,-1,-0.0008565544495058071,-0.0007625544545312811,-0.0009789713759328449,0.013248934322497187,0.9913722683851149
2015-09-30,-1,-0.00013779982903892228,-0.0001318867421876178,-0.0022865932171458295,0.009365316268441167,0.9923592657690926
2015-10-02,-1,-9.291013968896113e-05,-8.405800707331772e-05,-0.0022865932171458295,0.009365316268441167,0.99245103836115
2015-10-06,1,0.00032824609856919916,0.00041236019482114583,-0.004476947512302617,0.004873866837824803,0.9934504552373026
2015-10-08,1,0.0007849990622319978,0.0009246483638902885,-0.004476947512302617,0.004129317957987438,0.994140616151301
2015-10-12,1,0.0005632024696049086,0.0006659224305435152,-0.00602684257784787,0.0017806654542302557,0.9936666807576631
2015-10-14,1,0.00018087177380317451,0.00021667677735972028,-0.005033785109251709,0.004129317957987438,0.994241242440143
2015-10-16,1,0.000774103723834337,0.0008983395992706397,-0.00602684257784787,0.0009422372858395285,0.9944457942276067
2015-10-20,1,0.0007641359807064152,0.0008815479129122097,-0.006562402260595337,0.00070651423461667,0.9935154242105897
2015-10-22,1,0.0013004149006670637,0.001489468561161872,-0.006562402260595337,0.0017806654542302557,0.9937261399142769
2015-10-26,1,0.0008007890642268335,0.0008904430853261482,-0.007431841037800193,0.004443452548944264,0.9935287069709895
2015-10-28,1,0.0007353915434731007,0.0008112492799323137,-0.007431841037800193,0.001955790591207591,0.9935883522073448
2015-10-30,1,0.0005599492215748276,0.0006234147784738968,-0.007431841037800193,0.0033087827119839723,0.9935965695333163
2015-11-03,1,0.0005190876282267282,0.0005764797004999665,-0.007555049256551701,0.006198827815472376,0.9930676949992113
2015-11-05,1,0.0004246543206610329,0.0004712630523219009,-0.007555049256551701,0.006809825447149206,0.9921162860428825
2015-11-09,1,0.0002560135610048884,0.00029558039802210555,-0.005164376744793376,0.006809825447149206,0.9925624377823865
2015-11-11,1,0.0003498326717644073,0.00040354703206741006,-0.0061510581844248105,0.006809825447149206,0.9922094685248422
2015-11-13,1,2.118053540214765e-05,2.4917004190142e-05,-0.0061510581844248105,0.006809825447149206,0.9923396062622519
2015-11-17,1,9.544389128746881e-05,0.00010396857766478083,-0.005164376744793376,0.007865771139290802,0.9919003502036714
2015-11-19,1,0.00031367474247336985,0.00032663631402134625,-0.008344160430408205,0.0036641557357808417,0.991300869980075
2015-11-23,1,0.00047248603348740235,0.0005290458186873186,-0.006494509283105125,0.007762232182063439,0.9911417869058009
2015-11-25,1,0.0006531830481728857,0.0007593020914772016,-0.006494509283105125,0.00855898797085872,0.9909054761817546
2015-11-30,1,0.00022315644081769784,0.00023808649121693097,-0.005901548188319956,0.00855898797085872,0.9908843027314497
2015-12-02,1,0.0004921974790846497,0.0005882609086514637,-0.005901548188319956,0.007840169386947702,0.9913394025073246
2015-12-04,1,0.0008988515098240233,0.0010277876697645468,-0.009125107543891581,0.007427831817172018,0.9915804257295777
2015-12-08,1,0.0006262983494170197,0.000732059576999208,-0.010617918968280324,0.007427831817172018,0.9911015495715441
2015-12-10,1,0.00033616238440077926,0.0003995943633900443,-0.009360667177660178,0.007427831817172018,0.9914735178515163
2015-12-14,1,0.00024496808857922786,0.0002974155557532391,-0.009397789363281147,0.007427831817172018,0.9914519206383251
2015-12-16,1,0.0007644085345662175,0.0008688443372576308,-0.011482120671004391,0.0034957059385125593,0.9915618334326949
2015-12-18,0,-4.369350091964775e-06,1.2594926843939212e-05,-0.011482120671004391,0.007002127596360912,0.9912165556445135
2015-12-22,1,0.0005230210079219698,0.000602968731891278,-0.011482120671004391,0.007029794481043644,0.9910877994990824
2015-12-24,1,0.0007657365326532307,0.0009002809365027808,-0.011482120671004391,0.004691756309266443,0.9913933622609598
2015-12-29,1,0.0009648594632580536,0.00112855210748647,-0.011482120671004391,0.004691756309266443,0.990768923147504
2015-12-31,1,0.0006565555102525267,0.0007854036137031966,-0.008230984928195495,0.007029794481043644,0.9905444267077899
2016-01-05,1,0.0006995010854482443,0.0008350170245085477,-0.007432792304088496,0.005761012556435183,0.9907893306485449
2016-01-07,1,0.00030001799356494394,0.00038653420638827773,-0.007432792304088496,0.005761012556435183,0.9909950879720094
2016-01-11,1,0.0004284370770783166,0.0005335945354668246,-0.007432792304088496,0.007547166239001948,0.9908652043327097
2016-01-13,1,1.6093305979405424e-05,5.119517919216566e-05,-0.007206600799367677,0.007547166239001948,0.9907445037572027
2016-01-15,-1,-0.0014210430439517406,-0.0012123475171988635,-0.004637732274117616,0.009496917196789894,0.9909611775413899
2016-01-20,-1,-0.001550871925300453,-0.0013262827929036174,-0.0030255956865335378,0.008253705264817265,0.9922646637855496
2016-01-22,-1,-0.000788977950307185,-0.0006469418577996891,-0.0030255956865335378,0.005843055592956148,0.9934770500158968
2016-01-26,-1,-0.001383828146200283,-0.0011366929427160202,-0.0034645239262189147,0.005843055592956148,0.9934515133282544
2016-01-28,-1,-0.0008716761686393055,-0.0006911877655111861,-0.004157101978763146,0.005843055592956148,0.9929109942259794
2016-02-01,-1,-0.0004141197775305956,-0.00029130768977349964,-0.005796401013512651,0.005843055592956148,0.9931340346118344
2016-02-03,-1,-0.0008663759843891954,-0.0006695213854922825,-0.005796401013512651,0.007955217152628763,0.9929519309075518
2016-02-05,-1,-0.0013774144581658048,-0.0011191528451990362,-0.005796401013512651,0.008448517043796042,0.9926803155485701
2016-02-09,-1,-0.0006106092042085624,-0.0004716685549881188,-0.005796401013512651,0.008448517043796042,0.9928478273302834
2016-02-11,-1,-0.0012325873291215471,-0.0010170857766778636,-0.0011272296898106834,0.008448517043796042,0.9926217730204587
2016-02-16,-1,-0.0010442527438094262,-0.0008328558618455836,-0.003850746839350593,0.00645157684419611,0.9931122487556233
2016-02-18,-1,-0.0007168401280621615,-0.0005479265202199781,-0.003850746839350593,0.00645157684419611,0.9931281791248706
2016-02-22,-1,-0.0008689774558549626,-0.0006721647629362303,-0.005540921603515839,0.00645157684419611,0.9929029506385576
2016-02-24,-1,-0.00046911565386571617,-0.0003470388729001408,-0.005898816338219909,0.00645157684419611,0.9927760533267739
2016-02-26,-1,-0.0010060412407809048,-0.0008221009285845435,-0.005540921603515839,0.005391336331612154,0.9941187752738921
2016-03-01,-1,-0.00028839886093465455,-0.000221754911018042,-0.0037960986907504962,0.005391336331612154,0.9942420643128199
2016-03-03,1,0.00012068986906286347,0.00013557673054950632,-0.0023246394391750603,0.005391336331612154,0.9943994546254998
2016-03-07,-1,-2.0003404097479784e-05,-1.2143167425473329e-05,-0.0023246394391750603,0.005040524334694942,0.9947811927952415
2016-03-09,-1,-5.685699899990407e-05,-1.9778634675882e-05,-0.0031003704913189333,0.005391336331612154,0.9947197837066719
2016-03-11,1,0.0006414183990341091,0.0007345362441272738,-0.0037960986907504962,0.005714142461994464,0.9942389648056353
2016-03-15,1,0.0006404766076199681,0.0007357343678858119,-0.0037960986907504962,0.006374749791395437,0.9941463292136877
2016-03-17,1,0.0012717766449063628,0.0015034697929987599,-0.006003934524903847,0.005864658782083392,0.9940656676113679
2016-03-21,1,0.0010170083104386308,0.0011945833428866847,-0.004043239591463909,0.005864658782083392,0.9941592960868985
2016-03-23,1,0.0007924321266580182,0.0009463803604960301,-0.007057044825089755,0.005864658782083392,0.992937059481119
2016-03-28,1,0.0007192813227695368,0.0008477223486734241,-0.007057044825089755,0.007975277576270857,0.9923415254794264
2016-03-30,1,0.001171614580282272,0.001351197967812628,-0.007057044825089755,0.0064231673887488305,0.9928660624807861
2016-04-01,1,0.0013789670889281954,0.0015761497223457373,-0.007057044825089755,0.005864658782083392,0.9933904568466981
2016-04-05,1,0.0007600531473836784,0.0008499323690566193,-0.004165192692227454,0.005864658782083392,0.9936664322278597
2016-04-07,1,0.0009696136326074445,0.0010918961043692437,-0.0033149033545539757,0.005800722744706752,0.9940197410208299
2016-04-11,1,0.0007786164023602166,0.0008517305034317646,-0.0008477354878863412,0.005800722744706752,0.9946192008217136
2016-04-13,1,0.0008397223755157882,0.0009309356118224949,-0.0008477354878863412,0.00581686194382455,0.9943033933617577
2016-04-15,1,0.0010975930946910716,0.001254471987858807,-0.0008477354878863412,0.004869866212493171,0.9940695900846738
2016-04-19,1,0.0011704602225819424,0.0013350665108956806,-0.0034531683064640733,0.004472618399262337,0.993418621065183
2016-04-21,1,0.00032349773196142854,0.0003693922109227398,-0.0008463683355901747,0.004472618399262337,0.9939805076717121
2016-04-25,1,0.0008274420436089715,0.0009326868820161945,-0.0034531683064640733,0.003736307303323325,0.9941542150662748
2016-04-27,1,0.000590915967366183,0.0006541807410915704,-0.002353966878442411,0.0042320449547624366,0.99391972848817
2016-04-29,1,0.0010235760251347305,0.0011839966460731003,-0.002353966878442411,0.004472618399262337,0.9938650455702338
2016-05-03,1,0.0008985015627153985,0.0010148626075946801,-0.007805100163489665,0.0042320449547624366,0.9934310905947087
2016-05-05,1,0.0007873338365481778,0.000868096756660678,-0.007805100163489665,0.004474169021661781,0.9932441047459467
2016-05-09,1,0.0009225948021183095,0.0010078064910453211,-0.007805100163489665,0.004179963912051167,0.9934879799592715
2016-05-11,1,0.0012934050192293213,0.0014771090748299672,-0.003470622742170311,0.0043381766243702794,0.9941117952023101
2016-05-13,1,0.00028819054129691155,0.0003021875020655527,-0.002659046414397858,0.0043381766243702794,0.9946441519658216
2016-05-17,1,0.00018001109619424253,0.00019470463413174296,-0.002659046414397858,0.0043381766243702794,0.9952534347648334
2016-05-19,1,0.00029480260335153577,0.0003301278900473309,-0.002659046414397858,0.004788089271820349,0.9955145803020788
2016-05-23,1,0.00014720644599502822,0.00017850113445531848,-0.002138561680229239,0.005565039743115745,0.995883430561071
2016-05-25,-1,-3.45725238878177e-05,-1.4756213754377716e-05,-0.0026316149862814194,0.005580146871354408,0.9956747760147276
2016-05-27,1,0.00018400060347233322,0.0001907972208079682,-0.0032941873975971016,0.004788089271820349,0.9948783799719979
2016-06-01,-1,-0.00017100739843393405,-0.00010394456528950842,-0.0026316149862814194,0.005580146871354408,0.9949620938355502
2016-06-03,0,-2.4207542216461258e-05,2.516684319529616e-05,-0.003011364144655585,0.0067362117186467695,0.9939506176478534
2016-06-07,-1,-0.0003948501242554291,-0.00028111799604577483,-0.0032941873975971016,0.006777892314223129,0.993531871620112
2016-06-09,-1,-0.00038729788542209257,-0.0002432651951077552,-0.0032941873975971016,0.007312094515156167,0.9930221289512381
2016-06-13,-1,-0.0008893141248104986,-0.0006693869127473567,-0.003011364144655585,0.007312094515156167,0.9928307215137092
2016-06-15,-1,-0.0005190371465852143,-0.00038146777579377387,-0.0015579476680010757,0.008007885302656174,0.9925679845805353
2016-06-17,-1,-0.000341623049490221,-0.00022284754526969705,-0.002777725796297606,0.007312094515156167,0.9929973678338658
2016-06-21,1,9.114439708840256e-06,6.750196718862661e-05,-0.003011364144655585,0.007312094515156167,0.9929691623507154
2016-06-23,1,0.0004016287526131196,0.0004114053676638088,-0.0029750560364351017,0.007312094515156167,0.9930501414856738
2016-06-27,-1,-0.0003695617097711254,-0.0002809285083538647,-0.0029750560364351017,0.007312094515156167,0.9937956793103215
2016-06-29,-1,-0.0004277353053776905,-0.00030687217758742656,-0.003367051285060666,0.0063498042858435855,0.9936964255152853
2016-07-01,1,0.00040527352654052076,0.0004106087630651681,-0.003367051285060666,0.0063498042858435855,0.9947760082126547
2016-07-06,1,6.965426647086354e-05,0.00014613037460423797,-0.003367051285060666,0.005945304749421108,0.9949996979559032
2016-07-08,1,0.0009935196975298512,0.001058718802033268,-0.003367051285060666,0.004042388559350611,0.9956550839655253
2016-07-12,1,0.0011906399221723845,0.0012981561846089435,-0.0042741281041101965,0.0030768964734907726,0.9956792410086612
2016-07-14,1,0.0013575058253928415,0.0014847365705954844,-0.0042741281041101965,0.0030768964734907726,0.9957239089340135
2016-07-18,1,0.0011634966612780176,0.0012638061587790569,-0.0035396962159526557,0.0030768964734907726,0.9962159601702426
2016-07-20,1,0.0006147762871635795,0.0006249446442201162,-0.0035396962159526557,0.003725858584373862,0.9960696292290043
2016-07-22,1,0.0009637051550488447,0.0010210689390874115,-0.0035396962159526557,0.002539545919110615,0.9962918191886139
2016-07-26,1,0.0005607719927515086,0.0005609621571788509,-0.002237133096325362,0.002539545919110615,0.9966226298718027
2016-07-28,1,0.0005598959121723565,0.0005637856592654402,-0.001987908545220321,0.002152438373180401,0.997043896404268
2016-08-01,1,0.0008364787678448955,0.0008827645306965665,-0.0023767183595879635,0.002152438373180401,0.9969469284032587
2016-08-03,1,0.0006441729539616363,0.000683092827547882,-0.0033397723099261797,0.002152438373180401,0.9967970771988746
2016-08-05,1,0.0007249261419463902,0.0007669191385744932,-0.0033397723099261797,0.002686988054998084,0.9965553828053447
2016-08-09,1,0.0007141913494911275,0.0007659107863870562,-0.0033397723099261797,0.002686988054998084,0.9964849470376745
2016-08-11,1,0.0006161739274342356,0.0006437231709566839,-0.004062093907371098,0.0014309139088742636,0.9953679491127218
2016-08-15,1,0.0004917821121056599,0.000495923831057998,-0.00486271176903739,0.002686988054998084,0.9938539797537044
2016-08-17,1,0.00043639968491317687,0.00044492242546744415,-0.004062093907371098,0.004169516362666785,0.9940413723930618
2016-08-19,1,0.0005841887863467756,0.0006246538628824621,-0.004062093907371098,0.004169516362666785,0.9939308000278564
2016-08-23,1,0.0005588197113863992,0.0006122436442240157,-0.004062093907371098,0.005033840618264461,0.9935103064248004
2016-08-25,1,0.00040089810962336226,0.00041580805009478866,-0.00433095086121139,0.005145398998873037,0.9931575371413476
2016-08-29,1,0.0005497507742089347,0.0005942700983390441,-0.00433095086121139,0.005145398998873037,0.9932684740378799
2016-08-31,1,0.0002334304113542463,0.00023945018426275647,-0.0029355195939212327,0.005145398998873037,0.9935922915547941
2016-09-02,1,0.00043496692371778093,0.00046682571628450516,-0.0034215399770023015,0.004789143608460224,0.9934214497936161
2016-09-07,1,0.00023543757314550774,0.00024003084505292002,-0.004534096340403516,0.004789143608460224,0.9926845969727817
2016-09-09,-1,-0.0007702535562547092,-0.0006624350637005904,-0.004003037207617542,0.004789143608460224,0.9937532823095759
2016-09-13,-1,-0.001164753195168162,-0.0009590068914115573,-0.004003037207617542,0.004322936521569941,0.9949555485819256
2016-09-15,-1,-0.00039196162622241954,-0.00030982229127436386,-0.004003037207617542,0.004431123461931875,0.9951109198507481
2016-09-19,-1,-0.0004690385409183736,-0.00037050804710594883,-0.004003037207617542,0.005113704429546027,0.9949200644569467
2016-09-21,1,2.166053864011536e-05,5.698613762136492e-05,-0.004534096340403516,0.003833632266156994,0.9952452030888537
2016-09-23,1,6.59646591013018e-05,9.004824676269916e-05,-0.004085238182669504,0.0035738828039548446,0.9954722895230016
2016-09-27,1,0.00020798194808034642,0.00020927330207657003,-0.004085238182669504,0.0035738828039548446,0.9949719863180263
2016-09-29,1,0.00024981431296791,0.0002706421608084759,-0.00427728775180859,0.0025472589127505923,0.9948937947435618
2016-10-03,1,0.0005050413213662838,0.0005609359775751099,-0.003917434344752567,0.0025472589127505923,0.9953199677583389
2016-10-05,-1,-0.0004567714190477305,-0.00037082252915819,-0.0037160321926369222,0.0025472589127505923,0.9962286167921027
2016-10-07,-1,-0.0007096496507942452,-0.0005707446268362869,-0.003780048715683284,0.0014531119232988308,0.9962740573078909
2016-10-11,-1,-0.0008040415631464674,-0.0006539287589114362,-0.0026885991544521354,0.004302565624907018,0.9952731900601527
2016-10-13,-1,-0.0007503511868014465,-0.0006024022613661613,-0.004224831866665827,0.0019422103491809517,0.9931402523737435
2016-10-17,-1,-0.000623781642857438,-0.00048744903277408774,-0.0050410479384358185,0.0010054412052109202,0.9927704686601444
2016-10-19,-1,-0.0007152253450487187,-0.0005783817736237373,-0.004224831866665827,0.0019422103491809517,0.9928674885825648
2016-10-21,-1,-0.0008620821422179925,-0.0007067942819996905,-0.004224831866665827,0.0019422103491809517,0.9930031038333735
2016-10-25,-1,-0.0004091472726153417,-0.0003145525366369833,-0.004224831866665827,0.004229062988782987,0.9928958525187319
2016-10-27,-1,-0.000663911763529965,-0.0005360653890630785,-0.005350691999466183,0.004942880605720456,0.9922153344601388
2016-10-31,-1,-0.0002780019407552952,-0.00021292181194151291,-0.005350691999466183,0.006091443297362109,0.992017080546893
2016-11-02,-1,-0.0006340584483824588,-0.0005136867231810729,-0.011321482306685015,0.006091443297362109,0.9906924217832848
2016-11-04,-1,-0.0009498626142366202,-0.0007884041064464358,-0.011321482306685015,0.006196442180151602,0.9901900701431073
2016-11-08,1,1.4928060479477319e-05,5.4388490551998824e-05,-0.011321482306685015,0.006196442180151602,0.9903889033563075
2016-11-10,-1,-0.0015723476348849226,-0.001352798943651543,-0.003892866311405005,0.006812867229616297,0.9918212286225522
2016-11-14,-1,-0.0018680515965048539,-0.0016186603372031992,-0.0025867652783834595,0.008861652345831889,0.9914278892481474
2016-11-16,-1,-0.002234131552201722,-0.0019104898711016743,-0.003892866311405005,0.008861652345831889,0.9907719123953164
2016-11-18,-1,-0.0020640638629485105,-0.0017745073877379013,-0.0048635995841401145,0.008861652345831889,0.9904284321172603
2016-11-22,-1,-0.0011414936754314295,-0.0009893208348077344,-0.0052335956914851735,0.008428065342345994,0.991262454796855
2016-11-25,-1,-0.0013395747906871321,-0.0011683814512900483,-0.004468274630840996,0.008428065342345994,0.9917867735932627
2016-11-29,-1,-0.0008561835606841102,-0.0007759500191679219,-0.004841474194512296,0.008428065342345994,0.9919440184891176
2016-12-01,-1,-0.0017356564098413047,-0.0015596608874176678,-0.0036579135538735864,0.008428065342345994,0.9931016759887796
2016-12-05,-1,-0.0009472261617579184,-0.0008762055595476968,-0.0036579135538735864,0.00804386647343409,0.9939272572118563
2016-12-07,-1,-0.00028506700360248985,-0.0002844408428294147,-0.0036579135538735864,0.005611883943397053,0.9949614908990555
2016-12-09,-1,-0.000171586111811457,-0.00016084323319765967,-0.004468274630840996,0.004005697025242125,0.9947554523988897
2016-12-13,1,0.00039090831930817433,0.0004864060766865485,-0.004468274630840996,0.0007632519304374741,0.9955271768711109
2016-12-15,1,0.0001929903757330539,0.0002448797078331402,-0.0036579135538735864,0.0007632519304374741,0.9960845828723621
2016-12-19,1,0.00021899957947499717,0.0002798710380303417,-0.0034963354418984247,0.0007632519304374741,0.9961133752179486
2016-12-21,1,0.00010246152975286664,0.00015858871891993954,-0.0029928796645657518,0.003997943035742786,0.9957072861787784
2016-12-23,1,0.0001652191525747906,0.00021423740480387457,-0.0029928796645657518,0.003997943035742786,0.9957525992164176
2016-12-28,1,0.00011100955730072138,0.0001635782974310429,-0.0034963354418984247,0.003997943035742786,0.9954631948771963
2016-12-30,1,0.00010800202971195585,0.00015709631672656453,-0.0030603112329858307,0.002867548158243316,0.9956768744713962
2017-01-04,1,0.00016621945138900655,0.00022519330192332355,-0.003897195098565351,0.0056121417828592975,0.9949085217770934
2017-01-06,1,0.00020473495692761965,0.0002754355252167673,-0.00465403839121753,0.0064092541045176026,0.9943035867447235
2017-01-10,-1,-0.000484092176478441,-0.00046745971236341444,-0.0030603112329858307,0.006912167222071988,0.9948842410631977
2017-01-12,-1,-0.000465504198699462,-0.0004481382904273039,-0.0030603112329858307,0.006912167222071988,0.994743128507971
2017-01-17,-1,-0.0003028369457615355,-0.0002987314119524989,-0.0016409105808787646,0.006912167222071988,0.9948243130910073
2017-01-19,-1,-0.0003108263152348081,-0.00030639386661667015,-0.0011604983098613643,0.0077430636016813294,0.9945384042093371
2017-01-23,1,0.0002652230348791791,0.0003423749338134456,-0.0011604983098613643,0.007523049086583359,0.9950397443527302
2017-01-25,1,0.00016871016712400116,0.00021568247042074272,-0.00023615162998703274,0.005444363984335646,0.9952982245511073
2017-01-27,1,2.4988409541578817e-05,6.840417814672845e-05,0.00041228964227211823,0.005444363984335646,0.9953796718797542
2017-01-31,1,9.619170136005422e-05,0.0001392765309755134,-0.00023615162998703274,0.009912813815524037,0.9947615574925541
2017-02-02,-1,-0.0003271370093800869,-0.0002703053816684764,0.00041228964227211823,0.005551470858539389,0.995011597584393
2017-02-06,-1,-0.00010491195934093277,-8.525611691620607e-05,-0.00023615162998703274,0.003990582998674096,0.995342673457198
2017-02-08,1,0.0003690869401606448,0.00042845816120881924,-0.0019731895962036955,0.003806011466590609,0.9959128505505105
2017-02-10,1,0.0004921912204298118,0.0005690794052859187,-0.0019731895962036955,0.003990582998674096,0.9957409905298124
2017-02-14,1,0.0009124383978354868,0.0010670962245234543,-0.0019731895962036955,0.004372194853018911,0.9952310538383242
2017-02-16,1,0.0012144028635407687,0.0014084399154433735,-0.0018722679365543475,0.0036189640235231154,0.995839600651404
2017-02-21,1,0.0014950733132506875,0.0017298759232497593,-0.0022563834048967175,0.0036189640235231154,0.9959579169145188
2017-02-23,1,0.0015020705230502545,0.001735614501733769,-0.0022563834048967175,0.0036189640235231154,0.9958214781812522
2017-02-27,1,0.0015209563708766956,0.0017700191951519595,-0.0022563834048967175,0.0036189640235231154,0.995931885246964
2017-03-01,1,0.0012551793067422854,0.0014303441390758366,-0.00214548486618118,0.0036189640235231154,0.9964360386738697
2017-03-03,1,0.001485514637176685,0.001692145189394094,-0.0023081581437330886,0.0024474925125977133,0.9962265889262699
2017-03-07,1,0.0010969084303129827,0.0012463863059586342,-0.00214548486618118,0.0024474925125977133,0.9969044207841873
2017-03-09,1,0.0010525167416773585,0.0012018874369069163,-0.00214548486618118,0.0024474925125977133,0.99682771957543
2017-03-13,1,0.001239349781966991,0.0014252754023273725,-0.00214548486618118,0.0024474925125977133,0.996977544809309
2017-03-15,1,0.0015632352425839604,0.0017801953886686715,-0.002171831054291881,0.0024474925125977133,0.9967971194931335
2017-03-17,1,0.0014886859142048564,0.0016866163894104446,-0.002314334982607685,0.0031996610159108242,0.9962140997344429
2017-03-21,1,0.0017200322048978724,0.00197076897287918,-0.0025870828051411205,0.0031996610159108242,0.9958662891810623
2017-03-23,1,0.0015800687622532677,0.0018000623592162907,-0.0025870828051411205,0.0031996610159108242,0.9958425528429217
2017-03-27,1,0.0016244408852152802,0.0018589744545154478,-0.0023148952367028214,0.004141124226310154,0.9956547540445305
2017-03-29,1,0.0014738684225726383,0.0016748340081156547,-0.002943420234692098,0.0023934338829315217,0.99514689665281
2017-03-31,1,0.0011483273413595697,0.0012909845284224115,-0.0038558239964393533,0.004175051737868852,0.9949208133142404
2017-04-04,1,0.001808004972422938,0.0020898962811896535,-0.004783380692525276,0.004175051737868852,0.9944486439843714
2017-04-06,1,0.0008841390406136853,0.0009574585834923679,-0.004783380692525276,0.005680300029671204,0.9945403345821973
2017-04-10,1,0.0007142823447487639,0.0007399111285132421,-0.004783380692525276,0.005680300029671204,0.9944322184328526
2017-04-12,1,0.0011304997389680424,0.0012091470247954587,-0.004783380692525276,0.003146237928791911,0.9952516291414547
2017-04-17,1,0.0008197297058323459,0.0008476336210730938,-0.004425324684320954,0.0031467421835687116,0.9954833242943848
2017-04-19,1,0.0009924922111225623,0.0010643467421104476,-0.0021604500729352355,0.0019047759759020445,0.9959821112613132
2017-04-21,1,0.0007969426827091039,0.0008277156680077626,-0.003340274764710772,0.002363709683534259,0.9959169022724521
2017-04-25,1,0.000911640333410858,0.0009594996628154516,-0.003340274764710772,0.0026751350527387586,0.995861187734133
2017-04-27,0,-9.74566045096929e-05,2.8314271617784945e-05,-0.0011916322399360998,0.006456045558224728,0.995569002344368
2017-05-01,0,-1.5063516545002682e-05,7.937211624589553e-05,-0.0006170773238879969,0.004619629935066856,0.9960907764716238
2017-05-03,1,0.00018760212851061346,0.0002277854840262827,-0.0006170773238879969,0.004619629935066856,0.9957109163198731
2017-05-05,1,0.0005840528177986847,0.0006012951764380044,-0.0006170773238879969,0.003363259248749295,0.9961731409374787
2017-05-09,1,0.000553392076667294,0.0005942459802245386,-0.0011916322399360998,0.003363259248749295,0.996048108359364
2017-05-11,1,0.0005830294946537664,0.0006201241885441227,-0.0013691165948602933,0.003363259248749295,0.995607488989367
2017-05-15,1,0.0007491528532392362,0.0008035643187289696,-0.0013691165948602933,0.0031185777824442175,0.9960568333296032
2017-05-17,1,0.0004928535919398803,0.0005031382207913911,-0.0014041759501312503,0.003363259248749295,0.9956005168426945
2017-05-19,1,0.0004612894643764261,0.000471482123126903,-0.0014041759501312503,0.003698029697058368,0.9955348568358748
2017-05-23,1,0.0005897090122944505,0.0006061709642843345,-0.001891754493538079,0.003698029697058368,0.9956080516738652
2017-05-25,1,0.0011408479798495285,0.0012272756053545667,-0.0033629150528468694,0.0033448487792274656,0.9957505252536307
2017-05-30,1,0.00109189452301151,0.0011687536078322084,-0.004750680178371062,0.0032301679318805752,0.9953020534782712
2017-06-01,1,0.0009333377114871918,0.0009830319512935315,-0.004750680178371062,0.003698029697058368,0.9952374535070958
2017-06-05,1,0.0005619178765584878,0.0005877923342511319,-0.004750680178371062,0.0029384685187202617,0.9953059724553887
2017-06-07,1,0.00018108610162705858,0.00025974630690566943,-0.0033629150528468694,0.0029384685187202617,0.995563968951581
2017-06-09,0,-3.547155016147207e-05,6.06130764097159e-05,-0.0033629150528468694,0.0033953991950413896,0.9953900283024959
2017-06-13,0,-5.10004653476345e-05,4.651364775431555e-05,-0.004529596189027029,0.003708469817294049,0.9948746331809382
2017-06-15,1,0.0003129522813967383,0.00034656149193216905,-0.005112297632947641,0.003708469817294049,0.994604707357075
2017-06-19,1,0.0002770766919990977,0.0003168878262964323,-0.005112297632947641,0.0034242497847989,0.9949065061497626
2017-06-21,0,-9.062370822438155e-05,4.6327822995662375e-06,-0.005112297632947641,0.0029771137278674573,0.9952462862438992
2017-06-23,0,-4.9910640565626e-05,3.49978128119126e-05,-0.004374828111072085,0.0029771137278674573,0.9954330163999496
2017-06-27,-1,-0.00043320662474293945,-0.0003028497300037311,-0.0021776140528385213,0.0034242497847989,0.9954978334774468
2017-06-29,-1,-0.0005853138794626998,-0.00043493891346056934,-0.0021776140528385213,0.0029771137278674573,0.9957954857796736
2017-07-03,-1,-0.00042367055650585536,-0.00030439782134799844,-0.004374828111072085,0.0029771137278674573,0.9956819996566479
2017-07-06,-1,-0.00044586133907069647,-0.0003269359217836618,-0.004374828111072085,0.003967585119416308,0.9953408952187957
2017-07-10,-1,-0.0006037536126732566,-0.0004755236459242163,-0.0030774432548403207,0.005294593463699307,0.995656025816069
2017-07-12,-1,-0.0002770270296450119,-0.00019601769133658362,-0.0022716714601893145,0.0034194498426284568,0.9963212086369801
2017-07-14,-1,-0.00010287496721985201,-5.529973428690678e-05,-0.0021389949062643743,0.00278396383316079,0.996911177570324
2017-07-18,-1,-0.00018272097399903178,-0.00012053334937213431,-0.0021389949062643743,0.005294593463699307,0.9958883937739059
2017-07-20,-1,-0.0002461703952445711,-0.00016894387592399562,-0.0022762074283773403,0.005294593463699307,0.9957670822725111
2017-07-24,-1,-0.00011001285427394495,-5.331103098884081e-05,-0.0022762074283773403,0.005205571760231587,0.9958659586599083
2017-07-26,1,0.00034358784361483366,0.00035120811756387865,-0.0034919364630743343,0.0022274413495853894,0.9958674897083887
2017-07-28,-1,-0.00014842297495746903,-7.803772200940315e-05,-0.003723376144333477,0.0021053052106114467,0.9957073539538496
2017-08-01,-1,-0.0004544980515382316,-0.0003405379819345735,-0.002952201195489703,0.0032148487123506413,0.9957900232792347
2017-08-03,-1,-0.00024020516647924327,-0.0001567717645393643,-0.003723376144333477,0.0032065788553126274,0.9956379874350777
2017-08-07,1,0.00017905695855402617,0.00018803907720153735,-0.003723376144333477,0.0014869202336437696,0.9957828614051126
2017-08-09,1,4.824422996127162e-05,7.731293568253927e-05,-0.003723376144333477,0.004366133505841717,0.9954796164290811
2017-08-11,-1,-8.94688835545784e-05,-4.622163141005882e-05,-0.005496048239115768,0.00515285301960239,0.9945306096968406
2017-08-15,1,0.00048812998295902696,0.0005126146036584434,-0.00595767768226341,0.0029829819522259942,0.9949613838253134
2017-08-17,1,0.00019781063186282273,0.000209873187584139,-0.005496048239115768,0.004366133505841717,0.9949592349702663
2017-08-21,1,0.0003524557685709883,0.00036745284603677015,-0.0049226219112792225,0.0029829819522259942,0.9952676853346275
2017-08-23,-1,-0.00011519790242119063,-6.14320485829344e-05,-0.005958394258617668,0.0029829819522259942,0.9950156082328583
2017-08-25,-1,-0.0003975543253490716,-0.0003163301171968262,-0.005958394258617668,0.0029829819522259942,0.9951739275300834
