JNU-Tangyin/eata/results/Batch4_SP500/Batch4_SP500-CRM.csv
Date,Action,Predicted_Q25,Predicted_Q75,Actual_Q25,Actual_Q75,RL_Reward
2010-12-14,0,0.0,0.0030655755456827343,-0.007570338743534031,0.004767846623574948,0.9886993730023438
2010-12-16,0,0.0,0.0,-0.007570338743534031,0.009913401260632511,0.9867730987630893
2010-12-20,-1,-0.0030683947687325606,-0.0025218030168384564,-0.008499726934883857,0.009913401260632511,0.9865827257470123
2010-12-22,0,0.0,0.0,-0.008499726934883857,0.004767846623574948,0.985746445215235
2010-12-27,0,0.0,0.0,-0.01164479460255697,0.004767846623574948,0.9832109021941111
2010-12-29,0,0.0,0.0,-0.01164479460255697,0.009913401260632511,0.9818925131584908
2010-12-31,0,0.0,0.0,-0.015649767126550737,0.016255583877950362,0.9800693359380203
2011-01-04,0,0.0,0.0,-0.015649767126550737,0.018499745393736618,0.9798782080778894
2011-01-06,0,0.0,0.0,-0.015649767126550737,0.018499745393736618,0.980891449993915
2011-01-10,0,0.0,0.0,-0.015649767126550737,0.018499745393736618,0.9808324038424008
2011-01-12,0,0.0,0.0,-0.015649767126550737,0.02104573471491905,0.97961509806485
2011-01-14,0,0.0,0.0,-0.015649767126550737,0.025825613010800066,0.9797622818064768
2011-01-19,1,0.0009931844948728437,0.001018801596792792,-0.009101868089251007,0.025825613010800066,0.981558101618449
2011-01-21,-1,-0.0016374929164574808,-0.0012801306050733642,-0.008878479919192592,0.025825613010800066,0.9832995036706742
2011-01-25,-1,-0.001995698388476023,-0.0017383720937758607,-0.008878479919192592,0.025825613010800066,0.9829101699801175
2011-01-27,-1,-0.0005991315822397738,-0.0005370007304731057,-0.008878479919192592,0.025825613010800066,0.9827643656578968
2011-01-31,-1,-0.0006054149317002077,-0.0005837721478363304,-0.01290288069961183,0.020952128229252905,0.9811526690923926
2011-02-02,1,0.0007319754680866527,0.0008352016647835518,-0.01290288069961183,0.01541096955915609,0.9826536282670991
2011-02-04,1,0.001764289561581377,0.0019891942128807344,-0.013930643586357469,0.009138290101028478,0.9834456438236229
2011-02-08,1,0.0021367280026872715,0.002397019087165789,-0.013930643586357469,0.009138290101028478,0.9837422667832553
2011-02-10,1,0.003863463122467868,0.0044610708650906555,-0.013260479076182226,0.005731289219224906,0.9848919890016631
2011-02-14,0,0.0,0.0,-0.016981053742300755,0.0049785965630564704,0.9853107120279542
2011-02-16,1,0.002332866585830368,0.002604795322833537,-0.016981053742300755,0.0049785965630564704,0.9836487580843428
2011-02-18,1,0.001794081927401674,0.0019201537787406462,-0.019952293433881437,0.0049785965630564704,0.982413008989815
2011-02-23,0,0.0,0.0,-0.01599385194659555,0.005206074527152241,0.9848394411871566
2011-02-25,0,0.0,0.0,-0.01599385194659555,0.004958174302677202,0.9833087827540858
2011-03-01,-1,-0.0035283317131853103,-0.0028483353877765214,-0.014129657159261707,0.004958174302677202,0.9871736237563205
2011-03-03,0,0.0,0.0,-0.014129657159261707,0.004958174302677202,0.9844848204688752
2011-03-07,-1,-0.0038991319613912567,-0.0031890642173133133,-0.011785091568218085,0.004958174302677202,0.9854199660121669
2011-03-09,0,0.0,0.0,-0.014129657159261707,0.004958174302677202,0.9844916970926699
2011-03-11,0,0.0,0.0,-0.014129657159261707,0.005159434573315199,0.9837585500241642
2011-03-15,0,0.0,0.0,-0.013509790620126479,0.005159434573315199,0.9844462795662196
2011-03-17,-1,-0.005441339341377006,-0.0045812011560651,-0.010933138357407484,0.006825539216209332,0.9844165658057794
2011-03-21,-1,-0.008118248887922657,-0.007255119749760142,-0.010469341079736712,0.005223608904398545,0.9854039918327939
2011-03-23,-1,-0.008255968031757543,-0.007411894933491721,-0.010469341079736712,0.006939409129086049,0.9818409096220965
2011-03-25,0,0.0,0.0,-0.010469341079736712,0.005197391210940772,0.9854005303489978
2011-03-29,0,0.0,0.0,-0.010469341079736712,0.006564702848614254,0.9849130994108896
2011-03-31,0,0.0,0.0,-0.010469341079736712,0.005363283155017791,0.9872740901895787
2011-04-04,-1,-0.0010522263306326882,-0.0007929971770879507,-0.012761002183110529,0.005363283155017791,0.9860527037631809
2011-04-06,-1,-0.002145560943562239,-0.0017641808935148376,-0.012761002183110529,0.005363283155017791,0.9863057138480291
2011-04-08,-1,-0.0015440548364641033,-0.001188821260552763,-0.012761002183110529,0.005363283155017791,0.9867206654819264
2011-04-12,-1,-0.002608636202500284,-0.002078601315059202,-0.011776195524990062,0.006642115861841845,0.9863054167153067
2011-04-14,1,3.441807925193106e-05,3.470370232428854e-05,-0.011776195524990062,0.006145562627037475,0.9860359692352338
2011-04-18,1,0.0006129778964170771,0.0007597699229212725,-0.013140423148866728,0.008366327804667048,0.9842375535818189
2011-04-20,0,0.0,0.0,-0.010205807309087541,0.009075212641978006,0.9870854861076732
2011-04-25,0,0.0,0.0,-0.008717479795923133,0.010261718847144689,0.9839132814636022
2011-04-27,0,0.0,0.0,-0.008545844799485277,0.010635836307094332,0.982956961399694
2011-04-29,0,0.0,0.0,-0.010380775011389693,0.013071402582784466,0.982074357294702
2011-05-03,0,0.0,0.0,-0.007718726658744459,0.013071402582784466,0.9814508119313429
2011-05-05,0,0.0,0.0,-0.007718726658744459,0.01701242414241259,0.9805561067966247
2011-05-09,-1,-0.002294046624500983,-0.0020885307409653987,-0.010380775011389693,0.01701242414241259,0.9801037203051404
2011-05-11,-1,-0.0009330396595237469,-0.0008896092561157292,-0.01297246298599376,0.012933767399531535,0.9803371409126278
2011-05-13,-1,-0.0011556657405614617,-0.001130782839972039,-0.014762405042744231,0.012933767399531535,0.9794080435783057
2011-05-17,-1,-0.001281912423166133,-0.0012597015217098422,-0.01297246298599376,0.01701242414241259,0.980312311275784
2011-05-19,1,0.000175062939357557,0.0003348685193508744,-0.014762405042744231,0.016511092453989837,0.9809170285163773
2011-05-23,1,0.001148113534880783,0.0014208466574841942,-0.014762405042744231,0.016511092453989837,0.9835677183156586
2011-05-25,1,0.002180498377083907,0.002589615183463698,-0.014762405042744231,0.016390182641386565,0.9837756839853888
2011-05-27,1,0.0020769574047413324,0.0024888267285717077,-0.01301752925062559,0.01484622318789951,0.9841765549384425
2011-06-01,1,0.0016418971158800063,0.0020863551316050804,-0.01232160618726428,0.015883247190315825,0.9855147458749978
2011-06-03,1,0.001955469284817454,0.0024366033810906936,-0.011113012914159892,0.015883247190315825,0.9865339965122051
2011-06-07,1,0.0013231962142648038,0.0017060358796463628,-0.0101545561715733,0.016390182641386565,0.9856152226757146
2011-06-09,1,0.0020595938463894656,0.0026058938002494507,-0.009416412503398051,0.016390182641386565,0.9858922871476414
2011-06-13,1,0.00025771109840930695,0.00047660236246835884,-0.009416412503398051,0.016390182641386565,0.9853619809519449
2011-06-15,-1,-0.0009399636475890351,-0.0008972703251055123,-0.009984442622875693,0.015883247190315825,0.985361593453348
2011-06-17,-1,-0.0025369157239578813,-0.002283587029663742,-0.009984442622875693,0.015883569546102493,0.9849088594861197
2011-06-21,-1,-0.0009116968703175485,-0.0009059041353394726,-0.010393954982842945,0.015883569546102493,0.9832071382105153
2011-06-23,-1,-0.000346947307623305,-0.00026391808763442015,-0.010393954982842945,0.016452441482230486,0.9811850312147884
2011-06-27,1,0.0007164539851490436,0.0010423272433994512,-0.010393954982842945,0.016452441482230486,0.9816591487707078
2011-06-29,1,0.00140927961823695,0.0018764255217923339,-0.012522406528883118,0.01606644688008865,0.9806733039493778
2011-07-01,1,0.0019516016178052378,0.0024613207778656785,-0.012522406528883118,0.014426115672324494,0.9807960087101831
2011-07-06,1,0.0037455062626421862,0.004523665067036458,-0.015893182149118605,0.012110132041261464,0.9816960654882035
2011-07-08,1,0.004070110314338301,0.004931636767043296,-0.019123414135243003,0.008203960764667517,0.9795039155249031
2011-07-12,1,0.003045158121747714,0.0038055600395123313,-0.019387485690719373,0.013383071443102808,0.9750865416282182
2011-07-14,1,0.0033379998825497498,0.004169098340930048,-0.029164541986391398,0.016269002814699014,0.9725883020275673
2011-07-18,1,0.0028103520056716362,0.0034311621505250826,-0.029164541986391398,0.016269002814699014,0.9729931908718087
2011-07-20,1,0.002070913502533643,0.002478261011302142,-0.03470234139707878,0.00846568650588502,0.9722673013901149
2011-07-22,0,0.0,0.0,-0.03470234139707878,0.005410585023809146,0.9699075892442687
2011-07-26,1,0.001736649797380954,0.0018505405888312515,-0.03470234139707878,0.005410585023809146,0.9671736005704142
2011-07-28,1,0.0002104868193034774,0.00032351655887276457,-0.032706794048717305,0.005410585023809146,0.9671498564252398
2011-08-01,0,-7.8188238930618e-05,5.43136392186607e-05,-0.032706794048717305,0.029583910796435922,0.9623095424713135
2011-08-03,0,0.0,0.0,-0.032706794048717305,0.04331667674506055,0.960120723645988
2011-08-05,0,0.0,0.0,-0.031005615370294302,0.04331667674506055,0.9610904557036649
2011-08-09,0,0.0,0.0,-0.027764558351778736,0.038806731347307666,0.9648381985689212
2011-08-11,0,0.0,0.0,-0.026726672545074895,0.027768073626001775,0.9678146833640787
2011-08-15,0,0.0,0.0,-0.026726672545074895,0.026578455854686104,0.9678587429813234
2011-08-17,-1,-0.007127762538850434,-0.006169082256322133,-0.02242293834678903,0.031761814895888106,0.9700302809806332
2011-08-19,-1,-0.00912110823606427,-0.00792580266674993,-0.014913552441489697,0.03398295911605578,0.9727723355304996
2011-08-23,0,0.0,0.0,-0.019578407083735767,0.0306029088566906,0.9738503122063864
2011-08-25,0,0.0,0.0,-0.015614448788392892,0.0306029088566906,0.9716703384157088
2011-08-29,-1,-0.0030375767720079846,-0.002586821342901168,-0.015614448788392892,0.026284499181272885,0.9759361705377742
2011-08-31,-1,-0.0020251470972034785,-0.0017268664335923832,-0.015614448788392892,0.02352001090763244,0.9772522895828571
2011-09-02,-1,-0.0035145623181218125,-0.0030226760130729374,-0.02097414484732838,0.02352001090763244,0.9763109456274497
2011-09-07,-1,-0.003026947745761354,-0.002594157371022622,-0.01534741530897855,0.02352001090763244,0.9764915233437901
2011-09-09,-1,-0.0037041922908701156,-0.0031828693575073333,-0.01534741530897855,0.026284499181272885,0.9747374819437001
2011-09-13,-1,-0.0016532197835766485,-0.0014761402264606726,-0.01534741530897855,0.029560860154084975,0.9733262194249609
2011-09-15,-1,-0.0006279623696134517,-0.0005421962659464385,-0.01534741530897855,0.026284499181272885,0.9744524979053281
2011-09-19,0,0.0,0.0,-0.023449667291981044,0.01980247198680982,0.9734263461104022
2011-09-21,0,0.0,0.0,-0.01774825637531187,0.02299676814843521,0.9748929593188995
2011-09-23,0,0.0,0.0,-0.012010043794952168,0.019059428887810342,0.9788933786731894
2011-09-27,0,0.0,0.0,-0.01774825637531187,0.019059428887810342,0.9783812469420081
2011-09-29,0,0.0,0.0,-0.01774825637531187,0.022955290425280613,0.9743957737449777
2011-10-03,0,0.0,0.0,-0.010581325841161416,0.02865362977192864,0.9733796323200103
2011-10-05,0,0.0,0.0,-0.01785760307891701,0.022955290425280613,0.9747426735326385
2011-10-07,0,0.0,0.0,-0.01785760307891701,0.02287099080726461,0.9752838817487219
2011-10-11,-1,-0.001872397571109058,-0.0017188173479783708,-0.01785760307891701,0.019059428887810342,0.9767608070328835
2011-10-13,1,0.0010193200174886655,0.0011872193666061337,-0.021484418374514386,0.0185892896973125,0.9756614293492096
2011-10-17,1,0.0010852641420849485,0.0013179444374711812,-0.01785760307891701,0.02287099080726461,0.9763639216595063
2011-10-19,1,0.0014492782073340395,0.0017461541636498252,-0.021484418374514386,0.02348148566139566,0.975505133857976
2011-10-21,1,0.00037621135817422053,0.0005142044582335788,-0.036601594905005856,0.02348148566139566,0.9691833832744675
2011-10-25,1,0.00020793273240719379,0.0003553062745843229,-0.036601594905005856,0.017855171456603834,0.9692393901202301
2011-10-27,1,0.0016745271471077733,0.0019358702346107385,-0.03384016173256166,0.015508100173369184,0.9732995777333384
2011-10-31,1,0.0006923691236745995,0.0008850966805816265,-0.025371260698596965,0.015508100173369184,0.9745715370264315
2011-11-02,-1,-0.0014674652016728378,-0.0013281893750903499,-0.025371260698596965,0.017855171456603834,0.9727588000210609
2011-11-04,-1,-0.0008907254679017904,-0.0008557144235835164,-0.025371260698596965,0.017855171456603834,0.9717305168021125
2011-11-08,-1,-0.0004179400268432072,-0.00032118165124377297,-0.025371260698596965,0.017855171456603834,0.9719136733008995
2011-11-10,-1,-0.0011016949254909246,-0.001037039443120213,-0.017672476091230013,0.02403626089934867,0.9721422169463955
2011-11-14,1,0.0009562014357735424,0.0012573255346631426,-0.026032206667422154,0.013749710625783807,0.969686169489786
2011-11-16,1,0.0002605687984530747,0.000492620295135413,-0.026032206667422154,0.002407585638724238,0.9698589029069126
2011-11-18,-1,-0.0031329893953842363,-0.002962693013171704,-0.022945480075575835,0.005120854472990698,0.975952140061822
2011-11-22,-1,-0.003577404260572098,-0.0033877164726668707,-0.022945480075575835,0.008822122039960217,0.9751478234731726
2011-11-25,-1,-0.004477396897201212,-0.004340073816438815,-0.023242645325361216,0.011289853619211256,0.9746206485951819
2011-11-29,-1,-0.001585617595567508,-0.0014594475159203923,-0.023242645325361216,0.011289853619211256,0.9762489813073046
2011-12-01,-1,-0.0006054717863074273,-0.00040385501948950273,-0.023242645325361216,0.011289853619211256,0.9782757471984739
2011-12-05,1,9.205336112000687e-05,0.00037119885793656857,-0.026087960808653964,0.004513659117993204,0.9788870030647694
2011-12-07,1,0.0003700073738173008,0.000736016616000043,-0.026087960808653964,0.013229571236870576,0.9781158258362531
2011-12-09,1,0.0018970107675714437,0.002433808761134639,-0.026087960808653964,0.013229571236870576,0.9778786040712586
2011-12-13,-1,-0.0006352553142965588,-0.000479738088270722,-0.017268790628973855,0.013229571236870576,0.9817895456358117
2011-12-15,-1,-0.002420786653698471,-0.00239136315118346,-0.009568513832736594,0.013229571236870576,0.9835474356049126
2011-12-19,-1,-0.0026074646870479735,-0.0024146650484948226,-0.005106391023803795,0.021219626222848516,0.9801159924805735
2011-12-21,-1,-0.004868972554183747,-0.004560848512426396,-0.003407426708603501,0.021219626222848516,0.9815842178614953
2011-12-23,-1,-0.005075297095200642,-0.00472279358702459,-0.002862749928891855,0.023165234526524466,0.9813309690180403
2011-12-28,-1,-0.005797361665992532,-0.005321504607170498,-0.003407426708603501,0.021226277294947575,0.9815827872296001
2011-12-30,-1,-0.005053493919251668,-0.004639486840839598,-0.003407426708603501,0.015721357781846558,0.9823724841327374
2012-01-04,-1,-0.004953467541941811,-0.004605900010903293,-0.003407426708603501,0.021977781806577168,0.9825780324485658
2012-01-06,-1,-0.0025688975154816536,-0.002552633969647327,-0.005073102864615384,0.022238127091562115,0.9827982199489134
2012-01-10,-1,-0.002449372208164869,-0.002178614179335874,-0.005073102864615384,0.013376025401445552,0.9844959416343706
2012-01-12,-1,-0.004970421712450702,-0.00429514200301449,-0.005073102864615384,0.021814001822753427,0.982479304491334
2012-01-17,-1,-0.003334334111499474,-0.0030062762779668874,-0.003808146147455652,0.022954193076335366,0.981982436708211
2012-01-19,-1,-0.0020128678186374102,-0.001685189377266548,-0.005325869520967716,0.016359079788529848,0.9868814500407419
2012-01-23,1,0.0007855772106912696,0.0010992719696470673,-0.007764185074804954,0.016359079788529848,0.9861650408372642
2012-01-25,1,0.0019254988045327196,0.002383584569132592,-0.007764185074804954,0.016359079788529848,0.986206397491089
2012-01-27,1,0.0004830812074952703,0.0007370346506713228,-0.007119550034588494,0.021814001822753427,0.9824376832135279
2012-01-31,1,0.0009106554350522101,0.0012276737008341037,-0.005325869520967716,0.021814001822753427,0.9832888992882299
2012-02-02,1,0.0010977248834182873,0.001398304655149269,-0.005325869520967716,0.01659776845012093,0.9837337243141088
2012-02-06,1,0.0027704441769259686,0.003350934263753369,-0.007637180179771293,0.013189828273616696,0.9852507616639337
2012-02-08,1,0.003575719970303319,0.00432907531248675,-0.007637180179771293,0.018619348472084924,0.9843250190577411
2012-02-10,1,0.004828062155520995,0.005779159001021652,-0.007637180179771293,0.014100468326575081,0.985032633505086
2012-02-14,1,0.0037709984149635377,0.004430944919350477,-0.007637180179771293,0.014100468326575081,0.9849009750138764
2012-02-16,1,0.0035576950537852315,0.004167612854781134,-0.007169081587961594,0.014100468326575081,0.9851102730672056
2012-02-21,1,0.0025043243906109273,0.002999970226395804,-0.004907420246084125,0.014100468326575081,0.98619710075143
2012-02-23,1,0.0034580936789142705,0.004006997253415772,-0.007169081587961594,0.014100468326575081,0.9858682912523262
2012-02-27,1,0.0026831809402927003,0.002987334715867224,-0.007169081587961594,0.014100468326575081,0.9891722016716603
2012-02-29,1,0.003448616244098858,0.003953186730095908,-0.008550507140114544,0.014100468326575081,0.9883253817587853
2012-03-02,1,0.004007938025567941,0.004640159824922911,-0.009629222501058448,0.01600610169673511,0.988074571350775
2012-03-06,1,0.004006614235557865,0.004722837174451081,-0.004907420246084125,0.017526041650911962,0.9888163139912911
2012-03-08,1,0.0053432680036084096,0.006275847684995092,-0.007511542952970573,0.010744545804117555,0.989230948405571
2012-03-12,1,0.005080321974572333,0.005922904178562376,-0.009661229574395969,0.010365363855076568,0.9881538190194084
2012-03-14,1,0.006009567931419573,0.006967691781058498,-0.009661229574395969,0.010365363855076568,0.9886999618588843
2012-03-16,1,0.006156495433950096,0.007149058548616026,-0.010470338230878026,0.010365363855076568,0.9877349046655669
2012-03-20,1,0.00655517545582457,0.007658862227497564,-0.010470338230878026,0.015394404272039587,0.9880732173431708
2012-03-22,1,0.0062634384517235644,0.007321318036544981,-0.013279509405602583,0.010365363855076568,0.9884500332196727
2012-03-26,1,0.006506875484319148,0.0075984613213308135,-0.016689523108629346,0.008186705972219582,0.9862631968233075
2012-03-28,1,0.00554567667127167,0.006482060733409994,-0.013279509405602583,0.010365363855076568,0.9865325784057596
2012-03-30,1,0.00628840720441531,0.007330710737722752,-0.013250984196356832,0.008186705972219582,0.986986560983041
2012-04-03,1,0.007486840034715957,0.008751513896732808,-0.013250984196356832,0.008186705972219582,0.9867055501382113
2012-04-05,1,0.0065619056696064465,0.007624350906569068,-0.013265327123677232,0.007539388737803167,0.9856390105887322
2012-04-10,1,0.006135452250846528,0.007218671525912763,-0.013265327123677232,0.007539388737803167,0.9847505402037757
2012-04-12,1,0.007811596705157492,0.009098515992537252,-0.019514342350897725,0.007539388737803167,0.9798091225637859
2012-04-16,1,0.00429725381854937,0.004902608745002111,-0.013265327123677232,0.00928549768054245,0.9813809491470731
2012-04-18,1,0.004519492514600781,0.005106983654232494,-0.013265327123677232,0.00837627002511209,0.9809334462692593
2012-04-20,1,0.002813513447005058,0.0030600389150988914,-0.014170779614543516,0.011796141542469215,0.9770324271902208
2012-04-24,1,0.0010123318947906986,0.0010416901658168304,-0.009452269875280252,0.014167528631199194,0.9781650874028791
2012-04-26,1,0.0034934765852949606,0.003839300715320109,-0.013343501064250543,0.011796141542469215,0.9782630279744912
2012-04-30,1,0.0040015191687647455,0.004533471161678549,-0.013343501064250543,0.011796141542469215,0.9781126214102873
2012-05-02,1,0.004146201750530658,0.0046507170862125306,-0.02256939312657069,0.008659157307964722,0.9758639780701848
2012-05-04,1,0.0018412730037569015,0.002042026102144482,-0.02256939312657069,0.008659157307964722,0.9757400995279194
2012-05-08,-1,-0.00023303499628628775,-3.242085590850143e-05,-0.0174866139550129,0.017758852253400376,0.9759242679755215
2012-05-10,-1,-0.004910775266643621,-0.004049491186200318,-0.012387585097902946,0.012832630560732753,0.9803309073281261
2012-05-14,-1,-0.006182859592803269,-0.00508485095616814,-0.0174866139550129,0.008659157307964722,0.9794314652070453
2012-05-16,-1,-0.007781124881537674,-0.00638847807887107,-0.02148801054360303,0.009807067406278028,0.9785542410035188
2012-05-18,-1,-0.008398276120357841,-0.006934918310516327,-0.01862026264456024,0.016118834462797924,0.9802486870457181
2012-05-22,-1,-0.006758360696214461,-0.005525644060073416,-0.01862026264456024,0.010619428912737294,0.9813706492987825
2012-05-24,-1,-0.00668882655796783,-0.005462169221190104,-0.01862026264456024,0.016118834462797924,0.9798484737267549
2012-05-29,-1,-0.008542478660085312,-0.006961601082089862,-0.022358900967171132,0.016118834462797924,0.9789349023027374
2012-05-31,-1,-0.010344062493597862,-0.00861710145929917,-0.022358900967171132,0.016118834462797924,0.9785443206003551
2012-06-04,-1,-0.011537776704691274,-0.00979303976968672,-0.01315373513183658,0.017286273074776128,0.9771082391564249
2012-06-06,-1,-0.01040276530006478,-0.008775299674784649,-0.01315373513183658,0.016055764877331815,0.978508504322207
2012-06-08,-1,-0.0108914321808099,-0.009198980659702765,-0.025924311045185822,0.016055764877331815,0.9764006425479622
2012-06-12,-1,-0.010491251915640402,-0.00901619570758305,-0.022358900967171132,0.016055764877331815,0.977896497436761
2012-06-14,-1,-0.010491201324362346,-0.009018281894959585,-0.01925935877607595,0.016457681358092495,0.9775120715254046
2012-06-18,-1,-0.007934884347244577,-0.006824527328204891,-0.020085925541066564,0.0087519289045551,0.9808204121638106
2012-06-20,-1,-0.007814593897349585,-0.006687546658981593,-0.020085925541066564,0.018196072743974244,0.9766122489637824
2012-06-22,-1,-0.008255094019407298,-0.007074197566518017,-0.02323535516992791,0.010639340202818735,0.9777989874742659
2012-06-26,-1,-0.007938239955049307,-0.006849092541537732,-0.028553673653456166,0.009776007130779134,0.9778096782803164
2012-06-28,-1,-0.008275538682596336,-0.007199243390191153,-0.021805731625514652,0.018196072743974244,0.9762611982842313
2012-07-02,-1,-0.007079731896357741,-0.006187187889571274,-0.028990670829135926,0.009776007130779134,0.9774309780483186
2012-07-05,-1,-0.005070319089109385,-0.004434572782963404,-0.028990670829135926,0.002507510381498764,0.9771131400158511
2012-07-09,-1,-0.007585545900596402,-0.006707843122852091,-0.021129124157313276,0.02550243015038486,0.976121245532175
2012-07-11,-1,-0.008535711092341509,-0.00755627982999496,-0.021129124157313276,0.03017997843092088,0.9752873700807828
2012-07-13,-1,-0.007921650169356007,-0.006970885101879715,-0.021129124157313276,0.03017997843092088,0.9751380669300022
2012-07-17,-1,-0.007867810465939408,-0.006979247841448355,-0.01980477507190465,0.03207937038943842,0.973128808687582
2012-07-19,-1,-0.004493568608074983,-0.004059048414533456,-0.01980477507190465,0.022185594471014664,0.9761418561180216
2012-07-23,-1,-0.00662983695540649,-0.005947392752541369,-0.011285124059624934,0.022185594471014664,0.9776013796188154
2012-07-25,0,0.0,0.0,-0.0063159694351489085,0.022185594471014664,0.9803073433749278
2012-07-27,0,0.0,0.0,-0.00919968823062753,0.017136678539945008,0.9820580660594286
2012-07-31,0,0.0,0.0,-0.001711129634143913,0.017136678539945008,0.9832556370009434
2012-08-02,0,0.0,0.0,-0.001711129634143913,0.017136678539945008,0.9834530476589076
2012-08-06,0,0.0,0.0,-0.003823274108072065,0.015400023101391205,0.9869351461909472
2012-08-08,0,0.0,0.0,-0.0011550710267370428,0.015400023101391205,0.98735425577331
2012-08-10,1,0.00022699784832905126,0.00038151606166798494,-0.0017388349944261073,0.011274621312596485,0.9887504492823519
2012-08-14,1,0.000531647108437147,0.0007317715098912893,-0.0009540509354655269,0.011274621312596485,0.9905487999024692
2012-08-16,1,0.002429928029885068,0.0029444359456894903,-0.0009540509354655269,0.012227964879080764,0.9905684576517971
2012-08-20,1,0.0021476487856839214,0.0025773007955170843,-0.0037478739256445338,0.012227964879080764,0.9893204605413963
2012-08-22,1,0.0024746198754364355,0.0029550221094602268,-0.008930241231999682,0.012227964879080764,0.9885467327737717
2012-08-24,1,0.0035457793680651276,0.004230685653778064,-0.008599985091037998,0.011293193290200482,0.9887079182149375
2012-08-28,1,0.002180995999239691,0.002675456399918132,-0.009658262814784825,0.011293193290200482,0.9884586360064985
2012-08-30,1,0.0013087885988653162,0.0016345258432759542,-0.008318569139105112,0.01343534936139325,0.9880573424149784
2012-09-04,1,0.0026250871865000696,0.0031953231294243904,-0.009570461833520429,0.012115388465356366,0.9879305558735484
2012-09-06,1,0.003457909167676498,0.0041094976657701475,-0.009570461833520429,0.012115388465356366,0.9881453721614093
2012-09-10,1,0.003780953669779567,0.004543339692456783,-0.01023910772679029,0.012115388465356366,0.9867764759587923
2012-09-12,1,0.004247885978584983,0.005036276741475329,-0.010832766811545167,0.011087312956555108,0.9858037925319405
2012-09-14,1,0.004897189232195903,0.005710660035726657,-0.010832766811545167,0.006476277040911485,0.9865552716871039
2012-09-18,1,0.004784176347526788,0.00565704214851943,-0.01023910772679029,0.009077036606000505,0.987984932464537
2012-09-20,1,0.0045638861464358665,0.005388209277486455,-0.01023910772679029,0.006332288922515616,0.9869579479173948
2012-09-24,1,0.004652869883582217,0.005542762240945737,-0.0101055840399442,0.006332288922515616,0.9869015009426594
2012-09-26,1,0.003249449746689669,0.003861578575958715,-0.009651524533796961,0.008068479216961761,0.9884492304653001
2012-09-28,1,0.003257983494205608,0.003817506730900954,-0.0101055840399442,0.008068479216961761,0.9885615653413931
2012-10-02,1,0.001735501208146442,0.001917366543754464,-0.009651524533796961,0.006189015491965957,0.9892907901084927
2012-10-04,1,0.002604022272105288,0.0029303243238245937,-0.010142808006287064,0.004744387119349108,0.9897976650441136
2012-10-08,1,0.001698328751163021,0.0019099607653945087,-0.009651524533796961,0.006189015491965957,0.9902716120596358
2012-10-10,1,0.0019127810539255586,0.0022233459278899986,-0.010142808006287064,0.006189015491965957,0.989556986957447
2012-10-12,1,0.0029948680155307645,0.0035004357340478326,-0.010142808006287064,0.004272026969475893,0.9896423494619577
2012-10-16,1,0.003072500626997397,0.0035493377331526524,-0.010175546338988671,0.0029056280036837794,0.9890855666113151
2012-10-18,1,0.0019239656616652436,0.0022425245817835693,-0.009479289154477374,0.007619204726325221,0.9894507799394894
2012-10-22,1,0.0009439986019638833,0.001050213262399655,-0.00976272757276112,0.008249314085188548,0.9856253521863395
2012-10-24,1,0.00014248485525708167,0.0002106180916974002,-0.00976272757276112,0.007943313025101666,0.9857574565621384
2012-10-26,1,0.0004981186367691718,0.0005583627318300214,-0.00976272757276112,0.008020082629487134,0.9855591490453891
2012-11-01,1,0.000531295858162047,0.000561554865207009,-0.00976272757276112,0.008020082629487134,0.9852433561332475
2012-11-05,-1,-0.000878157056564768,-0.000680033696225272,-0.008502335094976533,0.008020082629487134,0.9856689767103174
2012-11-07,-1,-0.0009253756547888939,-0.0007048333282532307,-0.007512113858934147,0.00610772843174004,0.9867249896282615
2012-11-09,0,0.0,0.0,-0.004144960348007281,0.008020082629487134,0.9877142442546191
2012-11-13,0,0.0,0.0,-0.004076813622121776,0.011308052730995647,0.985476023852309
2012-11-15,0,0.0,0.0,-0.002734237860913894,0.011308052730995647,0.986170707316618
2012-11-19,0,0.0,0.0,-0.002734237860913894,0.011177638001813789,0.9872380417187708
2012-11-21,0,0.0,0.0,-0.002734237860913894,0.009890637050890903,0.9916699449701035
2012-11-26,0,0.0,0.0,-0.004076813622121776,0.009890637050890903,0.9916717746524927
2012-11-28,0,0.0,0.0,-0.004076813622121776,0.006972526340095395,0.992418904535845
2012-11-30,0,0.0,0.0,-0.004076813622121776,0.011177638001813789,0.9912469326522738
2012-12-04,0,0.0,0.0,-0.004904265120741426,0.011911778717283971,0.9898731487980911
2012-12-06,0,0.0,0.0,-0.004904265120741426,0.011911778717283971,0.9896203868044824
2012-12-10,0,0.0,0.0,-0.004307172057235503,0.011911778717283971,0.9895560050584308
2012-12-12,0,0.0,0.0,-0.004307172057235503,0.008366313508751265,0.9917642767833992
2012-12-14,1,0.002384404921997752,0.002402022268562008,-0.004307172057235503,0.008366313508751265,0.9920613214624041
2012-12-18,1,0.001144619314021256,0.0012921608112825725,-0.006225033482173743,0.006270880860460294,0.9912302592899108
2012-12-20,0,0.0,0.0,-0.008080920554068307,0.006270880860460294,0.9900585037237586
2012-12-24,0,0.0,0.0,-0.007962675137206908,0.009323281457643797,0.9889270152209105
2012-12-27,-1,-0.0009921529062498343,-0.0005182351469843905,-0.004407399392409436,0.010950548832693708,0.9881060204740032
2012-12-31,1,0.0011672833706987133,0.0012199095935531662,-0.008285068950729474,0.009570217033764284,0.9887470322780445
2013-01-03,1,0.0008321490141782918,0.0009198667684745082,-0.004407399392409436,0.009570217033764284,0.989385660266816
2013-01-07,1,0.0013014901684553497,0.0013266055588716955,-0.00814931780673216,0.009570217033764284,0.989054932658477
2013-01-09,1,0.0018490862611517055,0.0019621709197827,-0.008757447088656143,0.008865650095708638,0.9889394508076416
2013-01-11,1,0.002420378342117404,0.002667731400339197,-0.008757447088656143,0.008865650095708638,0.9890231651638072
2013-01-15,1,0.0026234037437106736,0.0028970412625300822,-0.008757447088656143,0.009369157178669436,0.988594569537399
2013-01-17,1,0.0018947865135798643,0.0020738971579316906,-0.006689010109383068,0.010347369267409165,0.9899568395574458
2013-01-22,1,0.0012764283715184324,0.001379136850750713,-0.006609628019243918,0.010347369267409165,0.9900950802740561
2013-01-24,1,0.0015432063070577114,0.00161963865648861,-0.008757447088656143,0.009369157178669436,0.9901658041852099
2013-01-28,1,0.002036179654224508,0.00213733241306024,-0.013274121324700731,0.003450690123227017,0.9892269254043422
2013-01-30,1,0.0012321551511199087,0.0012478683923570675,-0.006609628019243918,0.010585456756361154,0.9896228512666821
2013-02-01,0,0.0,0.0,-0.006609628019243918,0.01207798268916055,0.986008247688754
2013-02-05,1,0.001463194749507234,0.0015478315878499876,-0.002452097263281402,0.01207798268916055,0.9866034955242962
2013-02-07,0,0.0,0.0,-0.000973664297720278,0.01207798268916055,0.9863656097393289
2013-02-11,0,0.0,0.0,-0.0034056682114678863,0.01207798268916055,0.9852192868089436
2013-02-13,0,0.0,0.0,-0.01099025771842255,0.01207798268916055,0.9850468481472305
2013-02-15,0,0.0,0.0,-0.013389538701087833,0.008591991198265824,0.9846213841276662
2013-02-20,0,0.0,0.0,-0.013389538701087833,0.008591991198265824,0.984546858965241
2013-02-22,0,0.0,0.0,-0.01170603751364047,0.009025086721678333,0.9848454873643884
2013-02-26,0,0.0,0.0,-0.01170603751364047,0.009025086721678333,0.9857533832759391
2013-02-28,0,0.0,0.0,-0.01170603751364047,0.008908701628983402,0.9860259045840593
2013-03-04,1,0.002732778610906719,0.0031563892660282536,-0.013389538701087833,0.005472102369032488,0.9893698411529637
2013-03-06,1,0.002217814714291204,0.002510402724929552,-0.014234369772741602,0.005472102369032488,0.9869189592799643
2013-03-08,1,0.001439517540133786,0.0015992247648157546,-0.014234369772741602,0.005472102369032488,0.9873381700761767
2013-03-12,1,0.0006545488094972809,0.0007492292098392872,-0.013389538701087833,0.007782771259677642,0.9875096572685526
2013-03-14,1,0.00045116437200800474,0.000546381514774541,-0.013433172343163135,0.0098268602450482,0.9866830091755913
2013-03-18,-1,-0.0012927740670354573,-0.001101334607299054,-0.014250683677231007,0.014087235692833613,0.9851144039634113
2013-03-20,-1,-0.00199692539047361,-0.0016910626194013355,-0.01806694439136198,0.014087235692833613,0.98465879403825
2013-03-22,-1,-0.0011804829908987104,-0.0009703319967234835,-0.01806694439136198,0.0098268602450482,0.9849693977739387
2013-03-26,-1,-0.0019494775200583423,-0.001625357872301563,-0.014734343349134964,0.014087235692833613,0.9851906518582398
2013-03-28,-1,-0.0010770087268965286,-0.0008476945471125935,-0.014734343349134964,0.0019197216462783903,0.9863748954735748
2013-04-02,-1,-0.0020484031984577137,-0.00168884015607431,-0.013511780528812207,0.007703165914285899,0.9870038756321894
2013-04-04,-1,-0.004117186502133938,-0.003528074113588433,-0.010239388703680234,0.009265411878934773,0.9883283116792342
2013-04-08,-1,-0.004898790417164378,-0.00415270479808142,-0.010239388703680234,0.009364271447711231,0.9877956415881591
2013-04-10,-1,-0.0045909138112935205,-0.0038780904586164238,-0.00646610773642197,0.007803512687035212,0.9889961946147316
2013-04-12,-1,-0.004566265866516687,-0.0038426963837893914,-0.003784545599165081,0.009364271447711231,0.9880491685856622
2013-04-16,-1,-0.003661528692752049,-0.0031093220851872716,-0.003784545599165081,0.009364271447711231,0.9898497339361844
2013-04-18,-1,-0.00394650674312814,-0.003446743045818225,-0.0036585100418668366,0.012812023518626054,0.9894202521553268
2013-04-22,-1,-0.004327826266157829,-0.003797281011119543,-0.0011906720644503158,0.015003184854875555,0.9883018804004176
2013-04-24,-1,-0.00407030717481042,-0.00354627669100481,-0.0018366612513613769,0.011676647298373269,0.9887817971120719
2013-04-26,-1,-0.0045231341453569164,-0.003951249657264232,-0.002530462805237526,0.011676647298373269,0.9862119403267182
2013-04-30,0,0.0,0.0,-0.004356636241592688,0.011676647298373269,0.9864301120538154
2013-05-02,0,0.0,0.0,-0.006079764608926783,0.015003184854875555,0.9858735725023615
2013-05-06,0,-0.001147881774710763,0.0,-0.012519800616072062,0.015003184854875555,0.9817105392147233
2013-05-08,0,0.0,0.0,-0.012519800616072062,0.015003184854875555,0.980986310788513
2013-05-10,0,0.0,0.0,-0.016718431682052844,0.0069933050390985655,0.9799213765097028
2013-05-14,0,0.0,0.0,-0.024654180524374694,0.004151671771784026,0.9798979151453444
2013-05-16,0,0.0,0.0,-0.024654180524374694,0.004151671771784026,0.9809737865801788
2013-05-20,0,0.0,0.0,-0.024654180524374694,0.003324628696367415,0.9809840273355077
2013-05-22,0,0.0,0.0,-0.02497330194072901,0.003324628696367415,0.9803466913601002
2013-05-24,0,0.0,0.0,-0.02497330194072901,0.004439747922377931,0.9792879773507964
2013-05-29,0,0.0,0.0,-0.023585300612959176,0.013685154781576996,0.9796917743298513
2013-05-31,0,0.0,0.0,-0.023585300612959176,0.013685154781576996,0.9792482059169653
2013-06-04,0,0.0,0.0,-0.016012872698606795,0.013685154781576996,0.9835670493776745
2013-06-06,1,1.6247813731079313e-05,0.00013625393372210405,-0.016012872698606795,0.013685154781576996,0.9829965030744147
2013-06-10,0,-1.1897415563400882e-05,0.000125600555200583,-0.013744330987191114,0.010902813325471612,0.9851125836802851
2013-06-12,-1,-0.000943940688277528,-0.0009204214190809979,-0.010738919539825961,0.015610946709018254,0.9827116182186341
2013-06-14,-1,-0.0014510977405010066,-0.0013174495365327334,-0.01122854850665653,0.018658196320668737,0.9816515674063444
2013-06-18,1,0.0001471414275280352,0.0002848954935188797,-0.01122854850665653,0.021074391191070824,0.9818207126807224
2013-06-20,-1,-0.0005578282349518995,-0.00043062476450653414,-0.01011609244968708,0.021074391191070824,0.9819317183599529
2013-06-24,-1,-0.0009875748928763859,-0.0009871896112740538,-0.01011609244968708,0.01641634499915228,0.984374005635339
2013-06-26,1,0.0006278626773752254,0.00088989123569229,-0.01066016802987445,0.021074391191070824,0.9843042783587367
2013-06-28,1,0.0005139276395008322,0.0007249204945532944,-0.01011609244968708,0.015938197457821445,0.9860484996862012
2013-07-02,1,0.00029718377419953447,0.00044827594715681623,-0.006743297869065395,0.016973944732800065,0.9859023146438025
2013-07-05,1,0.001257615518719014,0.0015464669033457292,-0.006743297869065395,0.021074391191070824,0.9851928670924633
2013-07-09,1,0.0013098890159848333,0.0016329366164151307,-0.005569217404840722,0.021074391191070824,0.9857572237044784
2013-07-11,1,0.00307170776711577,0.0036681199049978285,-0.00708348002384363,0.014665021222228883,0.9884022477366348
2013-07-15,1,0.0029489824145891496,0.003472617959002929,-0.005569217404840722,0.012500018956367992,0.9897283720111104
2013-07-17,1,0.003599964022365301,0.004208048506132289,-0.007561742530276977,0.009287067213240283,0.9897431761151602
2013-07-19,1,0.0023956190335613346,0.0027330633600599705,-0.007561742530276977,0.007447460038786598,0.9899797873382936
2013-07-23,1,0.003099770268216899,0.0036135789515452637,-0.007512025239009433,0.005737443407160923,0.9902761231606517
2013-07-25,1,0.004212676830080433,0.004922491395294939,-0.006194550766471213,0.005393261511427281,0.9918206848055757
2013-07-29,1,0.004324850555044115,0.0050545099418990765,-0.006194550766471213,0.005393261511427281,0.9912848741925193
2013-07-31,1,0.004594203088066715,0.005351880834812176,-0.007512025239009433,0.005393261511427281,0.9907853833055169
2013-08-02,1,0.00574875226294461,0.006610193960290868,-0.007512025239009433,0.005393261511427281,0.9862292531620361
2013-08-06,1,0.005194668406537789,0.005942427377891392,-0.008947805086221339,0.006091308332515252,0.9859981249960822
2013-08-08,1,0.004344269191586217,0.004912153918303713,-0.007512025239009433,0.005393261511427281,0.9863727774945986
2013-08-12,1,0.004188750300809139,0.004707990100393446,-0.007512025239009433,0.007942220546137446,0.9856150679605079
2013-08-14,1,0.003799085379790349,0.0043117794715358555,-0.003832546119424731,0.007942220546137446,0.9864150884476725
2013-08-16,1,0.0027216489507020125,0.0030510508655103227,-0.003832546119424731,0.007942220546137446,0.9873736915282829
2013-08-20,1,0.002866120435625002,0.0032886902354709647,-0.0035286273999761506,0.010634754457629066,0.9856958867869746
2013-08-22,1,0.002989849808703181,0.003366950052927922,-0.003832546119424731,0.015462304475516176,0.9844327634610008
2013-08-26,1,0.0013705929090267535,0.0014024993652967017,-0.004609862486857129,0.015462304475516176,0.9842287447157957
2013-08-28,1,0.0007077154122665792,0.0007566128470993535,-0.003617203544219267,0.016316442843618308,0.9846311508861225
2013-08-30,1,0.001690937252062454,0.0017857660213997995,-0.0067465975863803046,0.010634754457629066,0.9889627238798318
2013-09-04,1,0.0013431666609465104,0.0013983998795237813,-0.004609862486857129,0.014167850727873152,0.9892129266762035
2013-09-06,1,0.0010687188602680176,0.0010905179868880076,-0.0067465975863803046,0.015286032842683664,0.9877651991436942
2013-09-10,1,0.0013842432674719283,0.001420969696819584,-0.010342217979020366,0.010877774541771232,0.9865718926328112
2013-09-12,1,0.0005350483421403929,0.0007242494363969041,-0.010342217979020366,0.014393031005021466,0.985128212502438
2013-09-16,1,0.0003872255516908457,0.0005694527006056577,-0.010342217979020366,0.014393031005021466,0.9849502691134137
2013-09-18,1,0.0012275715086940827,0.001331601100480028,-0.010342217979020366,0.014393031005021466,0.9853423423229207
2013-09-20,1,0.0014047334013914845,0.0014735218739945957,-0.009318864360895199,0.014393031005021466,0.9854408762231854
2013-09-24,1,0.0010517196213596595,0.001124610093614164,-0.010609052234064673,0.01602110618634767,0.9845011717685812
2013-09-26,1,0.002267116465334275,0.002375381087637398,-0.013232175829431848,0.01659225247465739,0.9836866951136116
2013-09-30,1,0.0007494191359046184,0.0008412633918481983,-0.013232175829431848,0.01659225247465739,0.9839690418089989
2013-10-02,1,0.0027116724480006,0.0029714395572669815,-0.015398018954406416,0.01659225247465739,0.9840305655944448
2013-10-04,1,0.0027249139768990346,0.003029682762704677,-0.013232175829431848,0.013054334033970341,0.9850842908282095
2013-10-08,1,0.0006868084029830915,0.0007571917123442935,-0.008875405600447119,0.0187376116353992,0.9859239010782785
2013-10-10,1,0.0021432038208877248,0.0024580796395655543,-0.010559872606459946,0.013054334033970341,0.986859659942865
2013-10-14,1,0.0011488758840527832,0.0012582518384230707,-0.010316123912101283,0.0187376116353992,0.9856840641072719
2013-10-16,1,0.003898808640806902,0.004377900127382224,-0.009915502788785654,0.013136082595188425,0.9880978347711324
2013-10-18,1,0.004088864440811746,0.00451900594666923,-0.009915502788785654,0.0112715986069519,0.9886125405989045
2013-10-22,1,0.0042607108571625345,0.00472419579124472,-0.016186540061090375,0.010909207440306929,0.9858531072746448
2013-10-24,1,0.002515080818128816,0.002516117065802656,-0.010178343157680306,0.0112715986069519,0.9860763464651844
2013-10-28,1,0.001611097423662652,0.0017129159311128704,-0.010178343157680306,0.0112715986069519,0.9850939419950444
2013-10-30,1,0.0010932133201896667,0.0012259605751087457,-0.008327700941057782,0.0112715986069519,0.9851804851588074
2013-11-01,1,0.0009917970859440438,0.0011998163293227228,-0.01057161909434178,0.010723228503783247,0.9849978075753761
2013-11-05,1,0.0018627813013447612,0.0019821029441635333,-0.01057161909434178,0.010723228503783247,0.9858649647643305
2013-11-07,1,0.0009229654625307978,0.0011284477367324817,-0.008941783656482485,0.013027534889573814,0.9857569219395769
2013-11-11,1,0.0009049965678282415,0.0011993909727078145,-0.008941783656482485,0.010983862157257928,0.9870418202603833
2013-11-13,1,0.0014838873277097462,0.0017351559142034382,-0.01057161909434178,0.008978509452110185,0.9851745905998134
2013-11-15,1,0.0015453686085897048,0.0017260209403796123,-0.01057161909434178,0.008978509452110185,0.9854797600666462
2013-11-19,-1,-0.0015512620312340371,-0.001000468208066596,-0.008585558046332736,0.015062407904486836,0.9872172323098841
2013-11-21,-1,-0.0006496494422590779,-0.00019384001537616456,-0.008585558046332736,0.012284972842587557,0.9881729508932217
2013-11-25,-1,-0.0015541811863364736,-0.0010188790331361103,-0.0062088048156947176,0.013027534889573814,0.9888821209679326
2013-11-27,-1,-0.0019984124523901047,-0.0013952993740621222,-0.005899243453131789,0.013027534889573814,0.9891928367411765
2013-12-02,-1,-0.0016169676094646742,-0.0011799366291781587,-0.0006560985162766381,0.01364794305601733,0.9893015202659693
2013-12-04,-1,-0.001090659654690259,-0.0007144248573023241,-0.004142674856070281,0.01364794305601733,0.9897752284644808
2013-12-06,1,1.5368918059965484e-05,0.0002372747685186709,-0.005570926850764682,0.012491775564735396,0.9901634194039445
2013-12-10,-1,-0.0006448209908996145,-0.00032793184336370217,-0.006307624893157924,0.013236521175412365,0.9879165262917176
2013-12-12,-1,-0.0024239084833486075,-0.0018906499016095233,-0.005570926850764682,0.013236521175412365,0.9886001377162295
2013-12-16,-1,-0.0019324016090264723,-0.0014877485351517182,-0.005570926850764682,0.017186544380031053,0.9859084694154053
2013-12-18,-1,-0.0005908054310039787,-0.0002911745218795106,-0.006307624893157924,0.013236521175412365,0.9875151712616067
2013-12-20,-1,-0.000816782578920004,-0.0004891994371441341,-0.006307624893157924,0.013959841571651584,0.9872131873640754
2013-12-24,1,0.0005081148237042977,0.000614101446683046,-0.009258787479533008,0.013236521175412365,0.9862404778234333
2013-12-27,0,-2.3251286671236836e-05,0.00015393822009992798,-0.011810084783513058,0.014509894281676879,0.9835527148307089
2013-12-31,1,0.00019224641481797367,0.0003557377557031315,-0.013782057292400176,0.019438753837726135,0.9805679487594043
2014-01-03,1,9.668885236248988e-05,0.00026660419818848704,-0.0164442386226768,0.019438753837726135,0.9790801562158384
2014-01-07,-1,-0.0004633035363058169,-0.00020132895913665743,-0.014079717415533363,0.026399333457011523,0.9779370926746253
2014-01-09,-1,-0.00028339044906813176,-3.663222717052261e-06,-0.014079717415533363,0.019438753837726135,0.9800756787068886
2014-01-13,-1,-0.0008196707507410023,-0.0004540497490653605,-0.010739220929438218,0.019438753837726135,0.980711431284332
2014-01-15,1,0.0012701130393812628,0.0013896929728955147,-0.010739220929438218,0.012795424029496261,0.9822348062227997
2014-01-17,1,0.0007219417989505204,0.0009300317182474124,-0.010548744161360169,0.015658980942061373,0.9822237919731229
2014-01-22,1,0.0007535669562886264,0.000990105141337387,-0.012689856563166749,0.011945365324283492,0.9825580906304192
2014-01-24,1,0.0014533979200959798,0.001465569967784155,-0.0074840076779519055,0.011945365324283492,0.9841410890933513
2014-01-28,1,0.0017574020492544613,0.0017830198606260286,-0.005724679190901115,0.009651399651817306,0.986892868857957
2014-01-30,1,0.0023860135224187786,0.002471387882039975,-0.005724679190901115,0.009651399651817306,0.9858197566458137
2014-02-03,1,0.0014030814651612752,0.001406217512933358,-0.004240647592803688,0.011945365324283492,0.9860844400251069
2014-02-05,1,0.0030150979001560153,0.0032206126273233047,-0.005991983037513182,0.009321638805901776,0.9876047726673732
2014-02-07,1,0.002618286616756307,0.0027445463069390532,-0.00914511931376901,0.009321638805901776,0.9850559974330547
2014-02-11,1,0.0032269091100894645,0.0035480899021237116,-0.00914511931376901,0.0109560827865369,0.9845657248211886
2014-02-13,1,0.004275316006404267,0.004737053209427524,-0.014391669172019802,0.009321638805901776,0.9825803778144003
2014-02-18,1,0.004144237459564514,0.004555895739297848,-0.014391669172019802,0.009321638805901776,0.9826017825968594
2014-02-20,1,0.003968291939747355,0.0043954851555880105,-0.015380353831312645,0.01020609689233061,0.9820563204395046
2014-02-24,1,0.0038086108863026598,0.004145929456195133,-0.016884866326251392,0.01020609689233061,0.9796711331089938
2014-02-26,1,0.003970146876183056,0.004370188196437447,-0.021447904122843135,0.01020609689233061,0.9787163673128227
2014-02-28,1,0.002960883609345213,0.0032048112915988485,-0.016884866326251392,0.01020609689233061,0.982665459036021
2014-03-04,1,0.002146711100589503,0.0021640324115958422,-0.016884866326251392,0.012298149267763955,0.9822003726918922
2014-03-06,1,0.002456321760963135,0.002564798508794216,-0.021447904122843135,0.012298149267763955,0.9803506302123159
2014-03-10,0,-2.274781903254452e-05,0.00019690115337155144,-0.021058286865252657,0.012298149267763955,0.9816919212706122
2014-03-12,1,0.0015715838748249131,0.0015875384353886439,-0.021058286865252657,0.015939821007479354,0.9802166331699155
2014-03-14,-1,-0.00015145152290782184,-1.785673444163957e-05,-0.024250431592091785,0.015939821007479354,0.9795848380404542
2014-03-18,1,0.000867098280263351,0.0008766499341192676,-0.024250431592091785,0.018652942014577407,0.9785224757943983
2014-03-20,1,0.00044545620103246205,0.0005043349255488686,-0.024250431592091785,0.018652942014577407,0.9794077194383269
2014-03-24,-1,-0.0019124492719561493,-0.0015462006356448661,-0.01425599082361851,0.018709541243488184,0.9806466162359726
2014-03-26,-1,-0.0031451472647210394,-0.002606672654349576,-0.018231556801559724,0.018709541243488184,0.9802648758470187
2014-03-28,-1,-0.002334294737283106,-0.0019286453581892193,-0.026620204259060906,0.018709541243488184,0.9763091898346821
2014-04-01,1,0.0005373817762861781,0.0005514978112897656,-0.026620204259060906,0.017349008116113195,0.9762340182422158
2014-04-03,-1,-0.0023202464077895775,-0.0019217669788065806,-0.02420255887286609,0.017349008116113195,0.977827664474056
2014-04-07,-1,-0.0028253073489115967,-0.002432167079653505,-0.026620204259060906,0.018894087772276337,0.9762272424122438
2014-04-09,-1,-0.0001302378804728408,-8.913869914736586e-05,-0.027253220060342094,0.01723089337760637,0.9779018581427358
2014-04-11,-1,-0.003067661221140031,-0.002688161922243691,-0.01857330133992451,0.017349008116113195,0.9776082281690737
2014-04-15,-1,-0.0031552950884474037,-0.0026060783263754037,-0.022449585956218678,0.014506555473957326,0.9789765047309467
2014-04-17,-1,-0.0018622871203210771,-0.001524359282226129,-0.022449585956218678,0.010565827059747745,0.9791232310815172
2014-04-22,-1,-0.0020386336375849082,-0.0016123762778330823,-0.022449585956218678,0.010627342569343796,0.9785487494645535
2014-04-24,-1,-0.003862259682844144,-0.0032196473001720426,-0.022660591223312404,0.018918677286390104,0.9751059413928628
2014-04-28,-1,-0.008967555478986247,-0.007681379010744751,-0.007954967098553697,0.019108720518968433,0.977167797399343
2014-04-30,-1,-0.0064480504860419535,-0.005484033078079247,-0.011340954504201957,0.018308344622416255,0.9792428267817298
2014-05-02,-1,-0.005133732569575071,-0.004382055628164488,-0.01945373311790999,0.018308344622416255,0.9791621816300111
2014-05-06,-1,-0.005782625459000535,-0.004947352423194267,-0.01945373311790999,0.00998934261380475,0.9805648139175753
2014-05-08,-1,-0.00844521800578572,-0.00719376112117147,-0.011340954504201957,0.010724724250219562,0.9798525303358357
2014-05-12,-1,-0.005565984671309279,-0.004656176958499632,-0.011340954504201957,0.010724724250219562,0.9824051215248074
2014-05-14,-1,-0.005814404449484063,-0.004962383549322127,-0.007007201587630848,0.010724724250219562,0.9826563409810473
2014-05-16,-1,-0.005666339572359618,-0.004846548941849532,-0.00539538781754701,0.018308344622416255,0.9815119682299134
2014-05-20,-1,-0.004286827048737018,-0.003668025799318845,-0.004828787873284993,0.018308344622416255,0.9803748602920597
2014-05-22,-1,-0.0039580793349103666,-0.0033656554399969594,-0.004828787873284993,0.010724724250219562,0.9855070029915478
2014-05-27,-1,-0.0027257234497695916,-0.002305176294017253,-0.005396689106401977,0.008408059540018869,0.9862640108221429
2014-05-29,-1,-0.002726499197905464,-0.00230273615942543,-0.004828787873284993,0.006498369079392894,0.9879868666091817
2014-06-02,-1,-0.004430081977884606,-0.0038014626062265987,-0.002348212435087138,0.008408059540018869,0.9877745742652944
2014-06-04,-1,-0.0047981414328642875,-0.00418075168873431,-0.002348212435087138,0.009440061503868988,0.987817857258542
2014-06-06,-1,-0.004119051388390369,-0.003580964138602939,-0.004360030223191164,0.009440061503868988,0.9882064915231414
2014-06-10,-1,-0.0013678311565920092,-0.0012821954372004827,-0.005119370851769752,0.006272944501441691,0.9879892990254395
2014-06-12,-1,-0.0012033975141867953,-0.0011445731710107564,-0.005336105867581736,0.006272944501441691,0.9882334502921486
2014-06-16,1,0.0005369101646531966,0.0007549036959196723,-0.005719014660364217,0.004885051219827523,0.9880169194494498
2014-06-18,1,0.0018404344090948513,0.0021247388229832173,-0.007122027865911734,0.0037319011747484264,0.9892007001609106
2014-06-20,1,0.00201436598555675,0.002363209811133505,-0.006448458909240442,0.00506083664563239,0.9886221844574304
2014-06-24,1,0.002621231940725448,0.003122143047789694,-0.005336105867581736,0.004243587441503842,0.9891081097672113
2014-06-26,1,0.0014941282911258473,0.0017410027519433593,-0.005336105867581736,0.008834691600498011,0.9887601753678376
2014-06-30,1,0.0033934541087973745,0.004029176260177828,-0.008174427690086127,0.008834691600498011,0.9876142058976498
2014-07-02,1,0.003835841667144945,0.004519886270443184,-0.016682866972095426,0.008834691600498011,0.9856891663231236
2014-07-07,1,0.002657848387282174,0.003172370417286686,-0.014698726552833394,0.011032569572117316,0.9855044933247639
2014-07-09,1,0.001594485320436183,0.002052060614701475,-0.011745141557951196,0.011032569572117316,0.9870181040784057
2014-07-11,1,0.0016403635971284358,0.0021302670282662877,-0.011745141557951196,0.01346620632764463,0.9868112216867584
2014-07-15,1,0.0012072343250463821,0.001616071792603835,-0.011745141557951196,0.01346620632764463,0.9858525943856
2014-07-17,1,0.0008949686727218373,0.0013079080537876195,-0.008395232181303251,0.013635724287838914,0.9866308212049567
2014-07-21,1,0.0015257238207317275,0.002017951937554748,-0.008395232181303251,0.013293583217693208,0.9870347522897288
2014-07-23,1,0.001462736708501319,0.0019024724311785062,-0.008395232181303251,0.013293583217693208,0.9865119911312444
2014-07-25,1,0.002842445469276123,0.0035019496466725964,-0.008395232181303251,0.013293583217693208,0.9841464900932603
2014-07-29,1,0.002782191948426812,0.0034225328024530314,-0.008045923295810492,0.012893689739456586,0.98486331498727
2014-07-31,1,0.001342932258880759,0.001673126651728419,-0.008045923295810492,0.01120853285844535,0.9862177890453487
2014-08-04,1,0.0025869242344557014,0.0031554116278171658,-0.003836065428238229,0.012843314788527009,0.9873792147659121
2014-08-06,1,0.0008162032494987016,0.001026909381705276,-0.001403964789721632,0.012843314788527009,0.9871044304129107
2014-08-08,1,0.001828585808223364,0.002236256301280988,0.00038381016557596657,0.01248251633939781,0.9873527335660667
2014-08-12,1,0.0005735101183815167,0.0007985063829841357,0.00038381016557596657,0.01291208284686214,0.9876303926425729
2014-08-14,1,0.0002603869422587009,0.0003409337463509143,-0.0031374383673067117,0.01248251633939781,0.9860939973975592
2014-08-18,1,0.0004280151432595271,0.00048516412526488576,-0.010048099866250458,0.011088266708735616,0.9854792307506729
2014-08-20,1,0.0012710250607890715,0.0014602319814801556,-0.010048099866250458,0.009985860056387541,0.9861520004294967
2014-08-22,1,0.005168665511069937,0.005992531493214252,-0.01212305106677813,0.00941157980220999,0.988328346385873
2014-08-26,1,0.003940169269217747,0.004482462318779448,-0.01212305106677813,0.010633278391353565,0.9880952496489435
2014-08-28,1,0.002373508620826767,0.0026396489451735454,-0.01212305106677813,0.011672764033402961,0.987504517685405
2014-09-02,1,0.004254166785355494,0.004884049313810141,-0.01212305106677813,0.010405493351192476,0.988062305586191
2014-09-04,1,0.002252300176796698,0.0024516085840864885,-0.01217426634264541,0.010405493351192476,0.9878047886779043
2014-09-08,1,0.0037778230391622004,0.004276974261110956,-0.01217426634264541,0.010405493351192476,0.9868703782311882
2014-09-10,1,0.004176695999594851,0.004751821659278149,-0.014378515713690816,0.010405493351192476,0.986228569584225
2014-09-12,1,0.0035392133397114,0.00406364873459958,-0.014378515713690816,0.010405493351192476,0.9852605182115779
2014-09-16,1,0.0017596506110844742,0.0019605821887029844,-0.014378515713690816,0.010405493351192476,0.9850191235667771
2014-09-18,-1,-0.0005966880776064312,-0.0003034734939419911,-0.014378515713690816,0.011545182939581285,0.9847324069288524
2014-09-22,1,0.00024973563912984704,0.00034654819474769694,-0.013450542760435774,0.012557348424574299,0.9839116333048742
2014-09-24,1,0.0006197897197876483,0.000657759449663087,-0.014753238063488263,0.012557348424574299,0.9831546370131409
2014-09-26,-1,-0.000524942242064604,-0.00032449527568961074,-0.013450542760435774,0.018445844841799244,0.982395748998707
2014-09-30,-1,-0.0006881656544866185,-0.0004146981094957149,-0.013450542760435774,0.023441168701686124,0.9809533246367796
2014-10-02,1,0.00013521782142960744,0.00018709046225579812,-0.010510473538817061,0.023441168701686124,0.9805721334791166
2014-10-06,1,0.00021637555118374273,0.00032954670963586326,-0.010510473538817061,0.023441168701686124,0.9802214033025061
2014-10-08,1,0.00015414575675510726,0.00027113118764330706,-0.010510473538817061,0.023441168701686124,0.9809096886004308
2014-10-10,-1,-0.0017904707007892705,-0.0014719399148893659,-0.00806679727555659,0.023441168701686124,0.9815962734460102
2014-10-14,-1,-0.002563072264399497,-0.002196215606063191,-0.006101145073370627,0.023441168701686124,0.9823236355917513
2014-10-16,-1,-0.0011962773621846754,-0.001007371131348861,-0.006618748395706726,0.023441168701686124,0.9833336647472766
2014-10-20,-1,-0.0001241957037504615,-5.860829271402986e-05,-0.00806679727555659,0.019693854509541846,0.98375160493256
2014-10-22,-1,-0.0010267061807489215,-0.0007914557970848892,-0.00806679727555659,0.015226241180223312,0.9845696606087502
2014-10-24,1,0.00048076481707802477,0.0005814114246924456,-0.00921731793639298,0.011981236020869155,0.9849065938512932
2014-10-28,1,0.0015398682210972057,0.0015792072823256377,-0.00921731793639298,0.011981236020869155,0.9858128537841628
2014-10-30,1,0.0019316506484009653,0.002070874513933309,-0.007079659290698402,0.011072644736858405,0.9861555285654985
2014-11-03,1,0.0023703644208148958,0.002550366311131988,-0.010473029029409286,0.00832891898476197,0.9873528365141937
2014-11-05,1,0.002086276873639474,0.0022883284027072634,-0.007074939776501699,0.00832891898476197,0.9884860130717655
2014-11-07,1,0.0035792507357299205,0.0040667894872575445,-0.010473029029409286,0.0016109959226235434,0.9867401831708348
2014-11-11,1,0.003563005106305345,0.004031502253579723,-0.013547990152989471,-0.00018267506792977095,0.9860643069851232
2014-11-13,1,0.003024228823202806,0.003415385089320128,-0.013547990152989471,0.0016109959226235434,0.986904324480993
2014-11-17,1,0.002485795475500152,0.0027920645326857787,-0.013547990152989471,0.0016109959226235434,0.9871886401346806
2014-11-19,1,0.0020925644206300155,0.002375374554456386,-0.008841337884426021,0.0037126861449795013,0.9841077160220915
2014-11-21,1,0.0009053946062597655,0.0010506139998400193,-0.006531042728173944,0.006863738733757221,0.9863112415797392
2014-11-25,1,0.0011888709950942425,0.0013224898705060874,-0.006531042728173944,0.006863738733757221,0.9867435158336754
2014-11-28,1,0.0007617382017336717,0.0007661091070887263,-0.007392867942141066,0.006578083021521406,0.9866111033761262
2014-12-02,0,-0.00010951765383534101,1.1164158883679518e-05,-0.007392867942141066,0.006578083021521406,0.9866912876277519
2014-12-04,-1,-0.0005674889894722014,-0.00037792094966457627,-0.009202580326134604,0.006578083021521406,0.9862359506672843
2014-12-08,-1,-0.002533009403303604,-0.0020752938072340133,-0.009202580326134604,0.006578083021521406,0.9876567479320761
2014-12-10,-1,-0.002966633079425614,-0.002480387229170014,-0.007392867942141066,0.008076098141228574,0.9865701582944738
2014-12-12,-1,-0.003118844590101895,-0.0026185556534391117,-0.007395384200657527,0.008076098141228574,0.9864880141534008
2014-12-16,-1,-0.0033439101821165678,-0.0028627462373395775,-0.008656055860461368,0.008076098141228574,0.9860423741987593
2014-12-18,1,8.909142062779867e-06,0.00010466424759896143,-0.008656055860461368,0.008076098141228574,0.9885311341951598
2014-12-22,-1,-0.0002434760503297889,-8.699909088380486e-05,-0.008656055860461368,0.007445928318456502,0.9884452713157094
2014-12-24,1,0.00022680824682557067,0.0003028920870432988,-0.008656055860461368,0.008515241010903042,0.9875201326979454
2014-12-29,-1,-0.0003407339248624587,-0.00015950602490444603,-0.015602087773834181,0.008170726900366784,0.9855519193382676
2014-12-31,-1,-0.0007948913961732721,-0.0005789863395792945,-0.017021958300575443,0.010886231508521103,0.9835454135665103
2015-01-05,-1,-0.0021555911929019424,-0.0017233287786956766,-0.013483983135869251,0.01597454788776622,0.9824979943443601
2015-01-07,-1,-0.0026461084147122536,-0.002179538872023294,-0.008650111630424395,0.01597454788776622,0.982483590134953
2015-01-09,-1,-0.0017184193767055163,-0.0013808504433048753,-0.014343058718516672,0.012282822297626629,0.9835392082316156
2015-01-13,-1,-0.001454029223217941,-0.0011776029215299008,-0.014343058718516672,0.01415357927001568,0.9833066182734042
2015-01-15,-1,-0.0016545666279311555,-0.001488213785485496,-0.00025213210663659443,0.020646175944038454,0.9819816838636687
2015-01-20,-1,-0.00015863962986138248,-0.00015819471325314942,-0.00424167074335933,0.016184432918481373,0.9832020682669033
2015-01-22,-1,-0.0003438454871959915,-0.0002788314590579401,-0.0053645089312362474,0.016184432918481373,0.9829388112550077
2015-01-26,1,0.0011767587887684184,0.0013561512177878282,-0.013857594127312894,0.01485069515141922,0.9831981117032673
2015-01-28,-1,-0.0012018226775628168,-0.0010581243526296379,-0.0048585706873322575,0.017188630306315934,0.9800854464103397
2015-01-30,-1,-0.0005254988680539649,-0.0004917831889100256,-0.010850983028636713,0.015031917705907196,0.981897570721218
2015-02-03,1,0.0008566349994421805,0.0010174026078118418,-0.012622931478308553,0.01485069515141922,0.9812608227767664
2015-02-05,1,0.0005326586130839119,0.0006034313861968019,-0.013871108677959782,0.01485069515141922,0.9804457232270327
2015-02-09,-1,-0.0004945135888114664,-0.0004046817639155518,-0.013871108677959782,0.01485069515141922,0.97964250117135
2015-02-11,-1,-0.0001374972466222651,-8.834622470268034e-05,-0.013871108677959782,0.015031917705907196,0.9792940042420337
2015-02-13,1,0.0017217898446850106,0.0019042862440620998,-0.013871108677959782,0.01485069515141922,0.980635042804305
2015-02-18,1,0.0016210098766952356,0.001800112162896788,-0.013871108677959782,0.014899524251747925,0.9806149986332944
2015-02-20,1,0.0016484132468353862,0.0017953463755229497,-0.016096783749495327,0.01489748750067492,0.9803926427954646
2015-02-24,1,0.0009606205813201209,0.0010394110394708602,-0.013871108677959782,0.01489748750067492,0.9815758243090023
2015-02-26,1,0.0035420733637359265,0.003929481526677378,-0.016096783749495327,0.011770049725507947,0.9853112306883884
2015-03-02,1,0.003284538080120897,0.003677636199565142,-0.016096783749495327,0.011770049725507947,0.9866892220234204
2015-03-04,1,0.001659153502914333,0.0018398038851696035,-0.006773164123257838,0.011770049725507947,0.9886320149312794
2015-03-06,1,0.0004334794119411331,0.0005099467009741031,-0.004561796734645658,0.014388762189057979,0.9885591772380867
2015-03-10,-1,-0.0006722279839891499,-0.00041648849669441337,-0.00201254301579971,0.010510871936517504,0.9902622149975333
2015-03-12,1,0.0005668394118668493,0.0006275641429526423,-0.004561796734645658,0.008634629817636302,0.9909380478645252
2015-03-16,1,0.0014649027367305543,0.001550099417996291,-0.004937238212069163,0.005731992971196274,0.9919277307460715
2015-03-18,1,0.0020647005365864723,0.002215403421295434,-0.004937238212069163,0.004584344754454378,0.9927244866034596
2015-03-20,1,0.002277420788246309,0.0025547740800872997,-0.004937238212069163,0.005502418149148252,0.9915124087019395
2015-03-24,1,0.0024606818826061983,0.002805545299829632,-0.003623320852893742,0.007502671187823399,0.9916824561251222
2015-03-26,1,0.002129757062675248,0.002430707027967217,-0.003623320852893742,0.008634629817636302,0.9919312587426045
2015-03-30,1,0.002553031997016372,0.0029367553007647934,-0.007237649630824448,0.007651087850181805,0.9914370922352362
2015-04-01,1,0.0019347685283843158,0.002198602101079034,-0.007237649630824448,0.009413706115890826,0.9861223631648938
2015-04-06,1,0.0033583075571736207,0.0038644950424208536,-0.008546104133885388,0.0072350073448649264,0.985725976153822
2015-04-08,1,0.0033092794766143934,0.003809868981860027,-0.008546104133885388,0.010617481485737507,0.9847814759002368
2015-04-10,1,0.0028172452197626234,0.003226887592773205,-0.010511236071086016,0.010617481485737507,0.9835740525693781
2015-04-14,1,0.002305383303913985,0.002627671898163008,-0.014646282258622415,0.010617481485737507,0.9830443366601106
2015-04-16,1,0.002288563574711055,0.0025731051836128606,-0.014646282258622415,0.011992164403651966,0.9827882328795853
2015-04-20,1,0.001237224738807279,0.0013081120066264866,-0.010511236071086016,0.010225753748420587,0.984279502597852
2015-04-22,1,0.0017443356900533405,0.0019134870241482387,-0.01696395217975026,0.010225753748420587,0.9828426712328622
2015-04-24,1,0.0016866986873806183,0.0018681953357263831,-0.01696395217975026,0.014517439407674877,0.9807402974096374
2015-04-28,1,0.001021598706329415,0.0010869805578955667,-0.018215572093981464,0.014517439407674877,0.9802775285993893
2015-04-30,1,0.0025344678628618908,0.0027851023572314825,-0.017413256824125353,0.010993547357408734,0.9855016297745895
2015-05-04,1,0.0012124036571945522,0.0012335284048360518,-0.0167244167278554,0.010993547357408734,0.9865440691923759
2015-05-06,1,0.0015488376100230307,0.0015801262065545962,-0.017155844749912965,0.00786559777707303,0.9866590713531638
2015-05-08,1,0.0008182930236768789,0.0008891398488313438,-0.017155844749912965,0.00786559777707303,0.9865693888569479
2015-05-12,1,0.00023130870941395364,0.0004077334096031977,-0.017155844749912965,0.009659974753164062,0.9869043374174601
2015-05-14,1,0.0016100884122284883,0.0017347755022517576,-0.017155844749912965,0.00609839355108309,0.9865253867650708
2015-05-18,1,0.0015417797701546253,0.0016589722304934588,-0.017155844749912965,0.011149718805741615,0.9861837625032481
2015-05-20,1,0.0007984626663300781,0.0008201250221757232,-0.008645346939449308,0.014755824485299475,0.9866156413616449
2015-05-22,1,0.0022421196527816693,0.002450882721785911,-0.008870762871832041,0.011149718805741615,0.9891354157247199
2015-05-27,1,0.0014806575203429788,0.0015606035029531963,-0.008870762871832041,0.011149718805741615,0.9893514607279522
2015-05-29,1,0.0007783889642387209,0.0008120268022022386,-0.008870762871832041,0.011149718805741615,0.9894246628525737
2015-06-02,1,0.00029681728725023033,0.0004176967150700175,-0.00939188838233906,0.011149718805741615,0.9880045828860152
2015-06-04,1,0.00021683113767744427,0.0003251063228401528,-0.008870762871832041,0.011949794111634677,0.9885132378998939
2015-06-08,0,-3.371826718973634e-05,0.00010819437005317326,-0.008870762871832041,0.011949794111634677,0.9889670317817214
2015-06-10,-1,-0.00040688763768105443,-0.00016659178054668133,-0.00939188838233906,0.011149718805741615,0.9889916982538401
2015-06-12,-1,-0.00045494085089291616,-0.0002546353508606651,-0.00939188838233906,0.011949794111634677,0.9889143456479941
2015-06-16,1,9.445236364657381e-05,0.0002242361473802051,-0.00939188838233906,0.011078660669074872,0.9891127318573167
2015-06-18,1,0.0009869531073285536,0.000991528984204384,-0.00939188838233906,0.00876461935875944,0.9894262024967527
2015-06-22,-1,-0.00033495833059473334,-0.0001133789313543332,-0.008175562226141863,0.011078660669074872,0.9896153489180184
2015-06-24,-1,-0.0008223333659428835,-0.0005401224247473393,-0.007587926676064052,0.011078660669074872,0.989326337556899
2015-06-26,-1,-0.0007538159431502804,-0.0005222591435351694,-0.007587926676064052,0.01344347794189284,0.9880983506754698
2015-06-30,-1,-0.0015475821812207225,-0.0012272830046942667,-0.002773325114652487,0.014638442072613726,0.9886446274101048
2015-07-02,-1,-0.0017330411695844958,-0.0013626504938417192,-0.006251871133856526,0.014638442072613726,0.9890215363372271
2015-07-07,-1,-0.0015541556083237295,-0.00121427731690769,-0.007176929706267446,0.011453006081816203,0.9899286682656055
2015-07-09,-1,-0.0009165774474126476,-0.0007320893073953776,-0.007176929706267446,0.011453006081816203,0.989136884242825
2015-07-13,-1,-0.0007348574907037223,-0.0005618270263801241,-0.007176929706267446,0.010864895986679614,0.9893890885570252
2015-07-15,-1,-0.0004962810234739796,-0.00036496534413198465,-0.007753579529909291,0.009730379575383797,0.9895540688939757
2015-07-17,-1,-0.0005181508324140832,-0.0003494518546565915,-0.007753579529909291,0.009730379575383797,0.9892254673142665
2015-07-21,1,0.0014777200809356719,0.0016788931383989905,-0.009110694511475642,0.009730379575383797,0.9881890549145514
2015-07-23,1,0.0004869524892008082,0.0005117765511113666,-0.009110694511475642,0.009730379575383797,0.9860946022893223
2015-07-27,-1,-0.0004103831647507275,-0.00025366180410051097,-0.009110694511475642,0.009730379575383797,0.9846005050812457
2015-07-29,1,1.3386415128975571e-05,0.00010183565193163372,-0.009110694511475642,0.009730379575383797,0.9829922907556147
2015-07-31,-1,-0.0005296248913201062,-0.00035887868988022573,-0.009110694511475642,0.012756948973765796,0.9821431729972915
2015-08-04,-1,-0.0007531836302304823,-0.0005787302177184663,-0.014431537384075748,0.012756948973765796,0.9805275577563264
2015-08-06,-1,-0.0009112301124046882,-0.0007458952466671582,-0.009344798733841735,0.01569187121817733,0.9810631932769107
2015-08-10,-1,-0.00018372372319056757,-0.00014055980178577943,-0.013604347006525897,0.01977338005456768,0.9784053335448063
2015-08-12,-1,-0.000409848635417664,-0.00031932337091650914,-0.017237487030766427,0.01977338005456768,0.9773640882359266
2015-08-14,1,0.00010544996730628184,0.00014347823957523123,-0.017237487030766427,0.01569187121817733,0.9784062158582814
2015-08-18,-1,-0.00041436543859076975,-0.00030286916735795615,-0.013604347006525897,0.01964438977242907,0.9786382843745586
2015-08-20,-1,-0.001660071685094361,-0.0014113008368278586,-0.012682076261458473,0.01964438977242907,0.9805888867239065
2015-08-24,-1,-0.0023847302104372733,-0.0020421508041545923,-0.00826149660714949,0.012709405372872845,0.9833240130628772
2015-08-26,-1,-0.0006292859135627743,-0.0005266862063718967,-0.00826149660714949,0.01030505644380198,0.9858248557640509
2015-08-28,-1,-0.0006060916166586282,-0.0004998178655840451,-0.012682076261458473,0.010206296149836161,0.9843361749443381
2015-09-01,-1,-0.0017908819563374268,-0.0015378799257793564,-0.007484171109475953,0.01030505644380198,0.9854522443003227
2015-09-03,-1,-0.0014916283164262624,-0.0012618738694581662,-0.007484171109475953,0.011270537577130318,0.9835639538101185
2015-09-08,-1,-0.0003540389134004263,-0.0002689170426227347,-0.007484171109475953,0.011270537577130318,0.9856903464762697
2015-09-10,-1,-0.001074243978181359,-0.0008870012039219932,-0.004615138848914269,0.011270537577130318,0.9867620160551276
2015-09-14,-1,-0.0009624364157689871,-0.0007992221070233687,-0.004615138848914269,0.011270537577130318,0.986504689684047
2015-09-16,-1,-0.00031547361368583726,-0.00022785940842257965,-0.007484171109475953,0.01022598250776186,0.9869686744212369
2015-09-18,-1,-0.0006917524120825399,-0.0005447401370099136,-0.004615138848914269,0.01382563372707055,0.9857120534746854
2015-09-22,1,0.0002994749222544279,0.00035606419688925616,-0.006239555409873298,0.01382563372707055,0.9860772511297909
2015-09-24,1,0.00015553681937956892,0.0001649873473558593,-0.009835774430970057,0.014331205894977519,0.9843757875669389
2015-09-28,-1,-0.00033850026560465355,-0.00031798443934961425,-0.006239555409873298,0.01536170195694566,0.9860541295080417
2015-09-30,-1,-0.00015919963346103802,-0.00014237077979672763,-0.00535180052839999,0.014337495539365239,0.9865358353627378
2015-10-02,1,0.001022648213332946,0.0011601473805979696,-0.0056293877727685345,0.010966831576397221,0.9893664781928433
2015-10-06,1,0.0008584876798026118,0.0009824720024477235,-0.0056293877727685345,0.010966831576397221,0.9894920016929468
2015-10-08,1,0.0010348801527149953,0.001180452325908932,-0.0056293877727685345,0.010966831576397221,0.9895046575867209
2015-10-12,1,0.0008646006591802765,0.0009464714458903415,-0.006305773236045153,0.010966831576397221,0.9887285136637778
2015-10-14,1,0.001557598608695824,0.001815466795116984,-0.0056293877727685345,0.010966831576397221,0.989626907547669
2015-10-16,1,0.0021686467016790436,0.002479508882993995,-0.006305773236045153,0.006632303020946366,0.98922787621338
2015-10-20,1,0.0016796775456248678,0.0019063819059903734,-0.0056293877727685345,0.009178132987322184,0.9894216220296147
2015-10-22,1,0.0016303245986693917,0.0018455853694876552,-0.005282445372234611,0.009178132987322184,0.9894762820720062
2015-10-26,1,0.0015344473270210504,0.0017226429739520398,-0.005282445372234611,0.008771021619292219,0.9900989682322724
2015-10-28,1,0.0017157517870925647,0.0019242527679674897,-0.005026921605022579,0.006591488748619943,0.9904708659711057
2015-10-30,1,0.0014856046016978853,0.0016881606960607943,-0.004923176342047288,0.006591488748619943,0.9905870492761486
2015-11-03,1,0.0013845556307717753,0.0015418478119351535,-0.0038329533113369927,0.006591488748619943,0.9909914517563894
2015-11-05,1,0.0016872880858399201,0.0019164783797113757,-0.004923176342047288,0.008771021619292219,0.9893791375057667
2015-11-09,1,0.001781080866906112,0.002052364715039865,-0.004923176342047288,0.006591488748619943,0.9894335962525511
2015-11-11,1,0.0016577989669139365,0.0018920423648651204,-0.00527470511067676,0.005900959661164004,0.9885033593117258
2015-11-13,1,0.0007192304704268825,0.0008102322705042504,-0.00498893675085929,0.005900959661164004,0.9890649012277203
2015-11-17,1,0.0009491301113230804,0.0010493866150502159,-0.00498893675085929,0.004941296395437871,0.9888999338529311
2015-11-19,1,0.001214584967091243,0.0013091137618183282,-0.007309608899638809,0.004489136539932751,0.9896126193150336
2015-11-23,1,0.0012726035189676043,0.001383453025359047,-0.007309608899638809,0.004941296395437871,0.9895468451301004
2015-11-25,1,0.0012855975874501752,0.0014060106754790994,-0.007309608899638809,0.004941296395437871,0.9896610084338293
2015-11-30,1,0.0007750649768964804,0.0008003804921969942,-0.007309608899638809,0.005562112340117894,0.9892517071776842
2015-12-02,1,0.0011277340093848788,0.0012134580448144795,-0.009949308088300163,0.004941296395437871,0.9894526151981601
2015-12-04,1,0.0016393679219870476,0.001796700718523311,-0.011237099724210066,0.004799358425993062,0.9901300505534505
2015-12-08,1,0.0014430133914923138,0.001598579707094672,-0.011622045504404929,0.0045127189019481505,0.989348246802362
2015-12-10,1,0.0010326070839687177,0.0011533528177443267,-0.01099808214571352,0.0045127189019481505,0.9896638094591854
2015-12-14,1,0.0002919167171990585,0.0003041318607333267,-0.01099808214571352,0.004799358425993062,0.98906727433283
2015-12-16,1,0.0008601583628578002,0.0009224643355622492,-0.015263386954453149,0.0045127189019481505,0.9881836303911424
2015-12-18,1,0.000336380491292101,0.00036805892091039535,-0.01099808214571352,0.0045127189019481505,0.9890653697252809
2015-12-22,1,0.0004748072874947394,0.0004996430720575239,-0.012344754782431386,0.0045127189019481505,0.9875097532146232
2015-12-24,1,3.2020709787317146e-05,8.211061851456198e-05,-0.01618984230533243,0.0045127189019481505,0.986738904316194
2015-12-29,1,0.00029146350959313955,0.0003308898840762136,-0.02353713089266094,-0.0007069836238420799,0.9846223162532944
2015-12-31,0,-2.793841705436926e-05,3.52572059659482e-05,-0.02353713089266094,0.004720092081510939,0.9834343495476836
2016-01-05,-1,-0.0002445131710039092,-0.00015990981868822273,-0.0258745418255446,0.006675445874096249,0.9813997802733737
2016-01-07,-1,-0.00042553480559187444,-0.0003530412196171794,-0.02643772240337687,0.010641039193141216,0.9769962035220318
2016-01-11,-1,-0.0012445022422841996,-0.0010388048852371283,-0.02881426770900076,0.01390470029229295,0.9713228104048915
2016-01-13,-1,-0.0027490189202219384,-0.002282347895710612,-0.026914619224717135,0.015767737193997787,0.971812856321887
2016-01-15,-1,-0.0038863170289384747,-0.0032177330010122835,-0.02353713089266094,0.015767737193997787,0.9729860713781147
2016-01-20,-1,-0.0028505500225120568,-0.002397180212424405,-0.02640173717163976,0.025824059970736057,0.9690264912606612
2016-01-22,-1,-0.002791562188444518,-0.0023506670632783824,-0.02640173717163976,0.025824059970736057,0.9689784381969673
2016-01-26,-1,-0.00471370142925947,-0.00396537148551263,-0.02640173717163976,0.025824059970736057,0.9690043533811006
2016-01-28,-1,-0.004936480913590379,-0.0042282565678051255,-0.008751075266440086,0.028752510349820917,0.9659998080015143
2016-02-01,-1,-0.002745420011120385,-0.002367157855635622,-0.01970854064215423,0.028752510349820917,0.9659336913628879
2016-02-03,-1,-0.003992075236502431,-0.0034297771560467616,-0.008751075266440086,0.028752510349820917,0.9680786057370999
2016-02-05,-1,-0.005622197981878017,-0.004866347235151778,-0.006536360804606571,0.026110076371995958,0.9730815537017012
2016-02-09,-1,-0.004014777678569985,-0.003488978546118732,-0.006536360804606571,0.019340952801798934,0.9787884610369417
2016-02-11,-1,-0.004043932653315256,-0.0035075187626501187,-0.006536360804606571,0.014234013296834134,0.9798924722987923
2016-02-16,-1,-0.004261454856058717,-0.003705358737911217,-0.007405557025735351,0.014234013296834134,0.9798858702165387
2016-02-18,-1,-0.0036616638107752433,-0.0031845872609658483,-0.006331084361418057,0.013457008440802215,0.9833276019084849
2016-02-22,-1,-0.002858306061481441,-0.0024188908113097875,-0.006331084361418057,0.009466165363909249,0.9853649564146342
2016-02-24,-1,-0.0029392760170040347,-0.002518512436944345,-0.005929473285460667,0.009516902223948954,0.9850592283098358
2016-02-26,1,0.0003793812846928568,0.0004427022930683412,-0.0068732908453503225,0.008527061099591244,0.989894365087222
2016-03-01,1,0.0005937526427275226,0.0006569851980005251,-0.005820476706395163,0.008527061099591244,0.991389849390965
2016-03-03,1,0.0005969537184492158,0.0006781811949931067,-0.006435365639907858,0.010184654071327785,0.9903095840808122
2016-03-07,1,0.0006553899478214376,0.000755387338776602,-0.006435365639907858,0.010184654071327785,0.9900780235529223
2016-03-09,1,0.0005908599213522688,0.0006691297455259544,-0.005710833830936176,0.010184654071327785,0.990571054698423
2016-03-11,1,0.0012436071980323113,0.0014750704487441317,-0.006435365639907858,0.008527061099591244,0.990562607366055
2016-03-15,1,0.0009640872652003966,0.0011289009523673481,-0.006261474729290389,0.010248214749944803,0.9902711082397717
2016-03-17,1,0.0013878286284550348,0.0016101302366675644,-0.006261474729290389,0.008527061099591244,0.9908809038808057
2016-03-21,1,0.0011802262411734132,0.001383556947316407,-0.006435365639907858,0.01004117298891372,0.9900131732846557
2016-03-23,1,0.0012155146424571643,0.0014503446649786612,-0.006261474729290389,0.012751456398728649,0.9904790090868325
2016-03-28,1,0.0009827303255204468,0.0011468661636651824,-0.006261474729290389,0.012751456398728649,0.9906890816230117
2016-03-30,1,0.0019985737822573457,0.002313254771373793,-0.006450093967160428,0.005120092103634798,0.9913155867349598
2016-04-01,1,0.002805810768344007,0.003235984329349786,-0.0063858459320019455,0.003367990531115316,0.9920685044278281
2016-04-05,1,0.0017295937730648454,0.00200739034573075,-0.0063858459320019455,0.007323948397186212,0.9910028067910641
2016-04-07,1,0.002073114036542057,0.0024002623854275464,-0.007288494974063789,0.003367990531115316,0.9908130170321794
2016-04-11,1,0.001043280747827616,0.0011761640699144093,-0.0047775931937540225,0.005669206402743947,0.9914881591832642
2016-04-13,1,0.002197476848728951,0.002516677548679443,-0.0047775931937540225,0.005669206402743947,0.9915653433991038
2016-04-15,1,0.0023974433952744035,0.0027874884359686573,-0.0047775931937540225,0.0060522109234724415,0.9913343978825208
2016-04-19,1,0.002460187734496316,0.0028626489734269464,-0.0047775931937540225,0.0060522109234724415,0.9916840583009646
2016-04-21,1,0.0027306862174893507,0.003167524799286738,-0.0047775931937540225,0.007820848643823668,0.9898912873061162
2016-04-25,1,0.0022850025986865066,0.002642003072109847,-0.003964752319809704,0.009649621100619982,0.9900759967469515
2016-04-27,1,0.002319198164764083,0.002699809452453672,-0.001892410818010739,0.012351341263272498,0.9900015600842027
2016-04-29,1,0.002865825402955582,0.0033634111191244414,-0.001892410818010739,0.012351341263272498,0.9902759951795254
2016-05-03,1,0.0021555912412648537,0.0025308105075491655,-0.001892410818010739,0.010509128834842089,0.992085529381413
2016-05-05,1,0.0013809118653765767,0.001611029659613246,-0.001913335986664793,0.010509128834842089,0.9921135851901866
2016-05-09,1,0.0014532205127957129,0.00167103255109374,-0.001913335986664793,0.010509128834842089,0.9923013303608912
2016-05-11,1,0.001965119125458114,0.0022895372214313545,-0.002545484102377117,0.00904985413676543,0.9928634416164338
2016-05-13,1,0.0017085568567895382,0.0019393673787360972,-0.003368240903159822,0.00904985413676543,0.9921131390864405
2016-05-17,1,0.0019652048631279544,0.0022582983790487552,-0.003368240903159822,0.00904985413676543,0.9923071568216594
2016-05-19,1,0.003072667411011207,0.0034953369053165664,-0.004428745226192149,0.004066674415331266,0.9934735160395318
2016-05-23,1,0.0034865516239557595,0.003998641412961607,-0.004428745226192149,0.00504121994605717,0.9934854372009212
2016-05-25,1,0.003582347974851611,0.004071081588553295,-0.005541060907681775,0.004066674415331266,0.9925205985905401
2016-05-27,1,0.003213391760508752,0.003635302881582891,-0.008936611474173559,0.003479545540157546,0.9889279131901407
2016-06-01,1,0.0028897568246833475,0.003230320477502711,-0.008936611474173559,0.006022005241419378,0.987999657430204
2016-06-03,1,0.0022160982125693056,0.002454431483855529,-0.00829853544907674,0.006202765975887174,0.9885479669328517
2016-06-07,1,0.0019522669290151689,0.002126616732886193,-0.01125229399149048,0.006202765975887174,0.987621761233973
2016-06-09,1,0.001926649352283743,0.0021054736399956707,-0.01125229399149048,0.009482785520329945,0.9868300017541507
2016-06-13,1,0.0017324101553338781,0.0018816126164396358,-0.006774656255305679,0.009914064289919321,0.9872714281990501
2016-06-15,1,0.0014175224843347215,0.0014996794130298368,-0.008585688414043061,0.009087874132759088,0.9874559256777833
2016-06-17,1,0.000508401873026065,0.0005820967341416559,-0.0034515031542597286,0.009087874132759088,0.9879807003260215
2016-06-21,0,-0.00020490579069422788,2.383791909274242e-05,-0.004219603781687191,0.009476967318702761,0.9879473238154798
2016-06-23,1,0.0009126337933274105,0.0009566315771733171,-0.0037279617026165974,0.009476967318702761,0.988896762679358
2016-06-27,-1,-0.0016621084691363578,-0.0012800395725649865,-0.003479027389655356,0.009476967318702761,0.9918928050733945
2016-06-29,-1,-0.0013304696924770836,-0.0009644762580174474,-0.003479027389655356,0.006332463704535066,0.9932884764828092
2016-07-01,1,3.717419105868353e-05,8.101240339713251e-05,-0.005263022140088348,0.004849823207338144,0.9929593223451361
2016-07-06,-1,-0.000399977096643449,-0.00028446117095469697,-0.005263022140088348,0.004849823207338144,0.9934873579511457
2016-07-08,-1,-9.488673375337091e-05,-3.4528302004567003e-06,-0.005263022140088348,0.004845489690585942,0.9943812001756814
2016-07-12,-1,-0.0005678902673810302,-0.00041615648762026686,-0.005263022140088348,0.0028261082533631923,0.9950334984711036
2016-07-14,-1,-0.00015270797831138966,-0.0001133114977362768,-0.005263022140088348,0.004484851578386236,0.9940714189659247
2016-07-18,-1,-0.0002729651387433477,-0.00017625715091818575,-0.0056220851627928215,0.0037647490884100245,0.9926255140765742
2016-07-20,1,0.00025054713414764335,0.0003079161578422497,-0.007212002044168318,0.0018469915919661823,0.9914490498554345
2016-07-22,1,0.0006337674715752589,0.0006343325038104332,-0.007212002044168318,0.0032518366223718773,0.9913776183957405
2016-07-26,1,3.8252615956431706e-05,0.00011365657428528945,-0.007212002044168318,0.007491106689905444,0.9914190442663202
2016-07-28,1,0.00014662127138331083,0.00020987019101908344,-0.007212002044168318,0.007491106689905444,0.9904503503587676
2016-08-01,-1,-0.00026853911740607237,-0.00015485673488708145,-0.003830945196431992,0.007491106689905444,0.991157767154937
2016-08-03,-1,-0.00044033898456648745,-0.0003060156600164385,-0.003510403293152796,0.007491106689905444,0.9912467855878507
2016-08-05,-1,-0.0002560806054200171,-0.00014786001574300232,-0.010897758223656562,0.003233464582287203,0.9891221139203519
2016-08-09,-1,-0.00024190828445049613,-0.0001544421272946653,-0.010897758223656562,0.005048549930217493,0.9887393229082672
2016-08-11,-1,-8.627704090469505e-05,-9.181242912225578e-07,-0.009478550422619131,0.002445896027914721,0.9894875234066153
2016-08-15,-1,-0.0009960406837774215,-0.0007907095417312312,-0.009478550422619131,0.0026825331002631636,0.9906274883102246
2016-08-17,-1,-0.0016221138117332309,-0.0013488934613409556,-0.005211012515362867,0.005048549930217493,0.9915807932429187
2016-08-19,-1,-0.0007151041987283078,-0.0005875994728526484,-0.006347428754504316,0.002193006293446634,0.9915899078261595
2016-08-23,-1,-0.0003836655707157517,-0.00032765834376149517,-0.006347428754504316,0.002193006293446634,0.9911617358961581
2016-08-25,1,3.756045712014085e-05,8.959926513302298e-05,-0.009176074983659008,0.002193006293446634,0.9895634450565144
2016-08-29,-1,-0.0005161670930113637,-0.000406050124111405,-0.009176074983659008,0.002193006293446634,0.989704059002084
2016-08-31,-1,-0.0008730757146926921,-0.000697028068286268,-0.009176074983659008,0.002792400955395423,0.9887117905957089
2016-09-02,-1,-0.0013889775349990264,-0.0011964274646271375,-0.0066685735883477894,0.002792400955395423,0.9907858650940686
2016-09-07,-1,-0.00137693062869746,-0.0011788290904650195,-0.009176074983659008,0.0031089162983717685,0.9869643352866445
2016-09-09,-1,-0.0009268868529936011,-0.000800255090968708,-0.006763447582182482,0.006745891702295984,0.9850372154589467
2016-09-13,-1,-0.000782392306237905,-0.0006795276624171996,-0.006763447582182482,0.012156501051994706,0.9813807521559881
2016-09-15,-1,-0.000712463477958209,-0.000613639392176025,-0.009934458540482766,0.008499954188357932,0.9809148924673019
2016-09-19,-1,-0.0008836165629683778,-0.0007645692762326385,-0.013363969416635323,0.018667155663243985,0.9781356602204706
2016-09-21,-1,-0.0004241713613631253,-0.0003602309891765485,-0.013363969416635323,0.009748421341421369,0.9788468519244318
2016-09-23,-1,-0.0013323770708841085,-0.0011518933054484246,-0.007237209157502163,0.020171300183380717,0.98091360844963
2016-09-27,-1,-0.0015929519265240732,-0.0013707283220381315,-0.007237209157502163,0.020171300183380717,0.9802164470298402
2016-09-29,-1,-0.0013441770587070373,-0.00115931773581128,-0.006522613163251437,0.01559927213351836,0.9814961717438566
2016-10-03,-1,-0.0012548007761223371,-0.0010838353173676265,-0.003596781743347823,0.01559927213351836,0.9817400184433123
2016-10-05,-1,-0.0010564768804746582,-0.0009165743861315856,-0.003596781743347823,0.00749463385257584,0.9855184359179044
2016-10-07,-1,-0.0010071155688666864,-0.0008732402459378127,-0.0038599329208538554,0.0041982797065452365,0.9870690820395454
2016-10-11,-1,-0.00041629647161036917,-0.00038230837341391897,-0.0028910216229603397,0.0041982797065452365,0.9901937873106924
2016-10-13,-1,-0.0006709128143729514,-0.0006115387942314317,-0.0038599329208538554,0.0041982797065452365,0.98951559694983
2016-10-17,-1,-0.0002680850815782302,-0.0002638218493297253,-0.0038599329208538554,0.0041982797065452365,0.9911597983758426
2016-10-19,-1,-0.00020763864124437697,-0.00019715360368315437,-0.006595931336264943,0.007173098980520389,0.9899232211344303
2016-10-21,1,0.0002594752982906291,0.0003440078285998868,-0.006595931336264943,0.01335968671618162,0.9881822297218504
2016-10-25,1,4.16092805963086e-05,7.822974414195613e-05,-0.008766398928303299,0.007173098980520389,0.9874395810388671
2016-10-27,0,-9.44581223094086e-06,2.6633254316325473e-05,-0.010060661372129019,0.007173098980520389,0.9864581905313116
2016-10-31,1,5.449584400833089e-05,9.423594007736936e-05,-0.01100449945527742,0.006153297327747163,0.9861902412229768
2016-11-02,0,-1.3834267221930568e-05,1.4566993454392084e-05,-0.01477161669664363,0.005716942843083907,0.983671391485345
2016-11-04,1,2.1701177481660148e-05,6.834576511138024e-05,-0.01477161669664363,0.014107896695912638,0.9826472322190637
2016-11-08,1,0.0003557663451627537,0.00043470030159693785,-0.01477161669664363,0.013885085093799114,0.9830152143825075
2016-11-10,1,6.743260168449924e-05,0.000122884479170345,-0.011325820268997196,0.013885085093799114,0.9844719986638255
2016-11-14,-1,-0.0001169930129266869,-6.315261370715781e-05,-0.010912879706797725,0.016648696444931475,0.9849538970723029
2016-11-16,-1,-0.0008261705301693768,-0.000718764460818212,-0.011513136372968186,0.004942377790690687,0.9855513408272365
2016-11-18,1,0.0006816682098442738,0.0008026859894422331,-0.011513136372968186,-0.0005477149762475749,0.9873004928607274
2016-11-22,1,0.000263716628324862,0.0003336780015594966,-0.010912879706797725,0.0017305530078984691,0.9885767995936298
2016-11-25,-1,-0.00027790190035251015,-0.0002653677517633269,-0.009914138593411703,0.0017305530078984691,0.9897758360745933
2016-11-29,0,-1.162418485841133e-05,4.835857442076947e-05,-0.009921650578380972,0.0017305530078984691,0.9896934150790585
2016-12-01,-1,-0.0010086795719429712,-0.0009495366866043957,-0.006351841451792614,0.0017305530078984691,0.9923550993392808
2016-12-05,-1,-0.00014204978848308345,-0.00010187810935020165,-0.006351841451792614,0.003942745438839289,0.9909108298609287
2016-12-07,1,0.00010799429367982385,0.0001903923769695322,-0.006351841451792614,0.003942745438839289,0.9911218559842111
2016-12-09,-1,-8.75140850273484e-05,-1.9425729976675296e-05,-0.0050746092839144726,0.003942745438839289,0.9915571545216162
2016-12-13,1,0.0003184480534647384,0.00045382883899430223,-0.0050746092839144726,0.003942745438839289,0.9913870123983393
2016-12-15,-1,-0.00034198974146857394,-0.00031100472325715044,-0.0050746092839144726,0.0052057507030755295,0.9916282272323299
2016-12-19,-1,-0.0002895990236024969,-0.00023911427661717924,-0.002827195777117772,0.006820661903381663,0.9914930191230484
2016-12-21,-1,-0.0001482966431619092,-9.453608565135888e-05,-0.002827195777117772,0.0070979598142365775,0.9915621685909723
2016-12-23,-1,-0.0002475252827754882,-0.00021054492753095182,-0.0009075221905226998,0.01282416450091366,0.9901761157887325
2016-12-28,-1,-0.00032273703793038146,-0.0002793445026367989,-0.000795835905084797,0.01282416450091366,0.9901781731613306
2016-12-30,-1,-0.00046324099933316837,-0.00044270116047151486,0.0001685076650318197,0.01282416450091366,0.9900247301940692
2017-01-04,1,0.0011174776803888008,0.0013647071316171414,-0.000795835905084797,0.010716420276646762,0.9925550910549623
2017-01-06,1,0.0009354224225202886,0.0011256945698036867,-0.003512109375213235,0.0073274485220011275,0.9928246476279042
2017-01-10,1,0.0005126206533064119,0.0006089238652136821,-0.003512109375213235,0.0073274485220011275,0.9922016956671063
2017-01-12,1,0.0011105386958918592,0.001307255442845752,-0.0032816319581369675,0.006179964165395301,0.9936056029703246
2017-01-17,1,0.0009733043847473216,0.0011524442750854096,-0.000600147259223874,0.006179964165395301,0.9940817749851372
2017-01-19,1,0.0014213003284079886,0.001705242971918324,-0.0011106115233066145,0.006179964165395301,0.9939451767457789
2017-01-23,1,0.0014190573681868003,0.0016814769786790166,-0.0011106115233066145,0.008210650223907863,0.9934887342121226
2017-01-25,1,0.0019919261129562886,0.0023252390196656075,-0.002115873068982422,0.006179964165395301,0.9947115510127813
2017-01-27,1,0.0013945264448782689,0.0015939266780845328,-0.003084402605894431,0.006179964165395301,0.9946028393479198
2017-01-31,1,0.0016399527646436592,0.0018688033515217996,-0.003084402605894431,0.006592348712800665,0.9933952261900437
2017-02-02,1,0.0018682960657042521,0.0021093152635759884,-0.003853441242479691,0.005853244550387096,0.9935362513806139
2017-02-06,1,0.001333585639611118,0.0014895207878768183,-0.003084402605894431,0.005853244550387096,0.9936742271490107
2017-02-08,1,0.0017244094672950272,0.001945733900660023,-0.003084402605894431,0.005809444796227696,0.9936904775938958
2017-02-10,1,0.0013452615991853595,0.0014972377086794862,-0.0025305478158419415,0.005809444796227696,0.9940580754359087
2017-02-14,1,0.0016895056495319855,0.0019193429721637853,-0.0025305478158419415,0.005809444796227696,0.9939609063667495
2017-02-16,1,0.0009435795766627222,0.0010019117706652895,-0.0025305478158419415,0.003978358034737158,0.9946275878766372
2017-02-21,1,0.0011714923203550282,0.0012507305703092129,-0.003084402605894431,0.001588534279747159,0.9942872899891457
2017-02-23,1,0.0011248498363313577,0.0012096367188542101,-0.0037493564716744913,0.0029227265476586602,0.9940793684300059
2017-02-27,1,0.0009300763555382937,0.0009804398399868063,-0.0028960500367663836,0.0029227265476586602,0.9944869407876918
2017-03-01,1,0.0018903139858434013,0.0019995381796568926,-0.0028960500367663836,0.0030427317177821587,0.9954990085012781
2017-03-03,1,0.0016408438185655733,0.0017482132778793174,-0.0012884247154462364,0.0030427317177821587,0.9965378263754759
2017-03-07,1,0.0024842547166587224,0.0027265144033735648,-0.0017197711745707887,0.0028018096040774445,0.9960546255269149
2017-03-09,1,0.0020456233133744435,0.002166216951741435,-0.0017197711745707887,0.0028018096040774445,0.9950062996173272
2017-03-13,1,0.0025303029207863134,0.0027695636688724774,-0.0026325700755571438,0.0023692037953079136,0.9942075350423182
2017-03-15,1,0.002353163907337773,0.0025678382746242012,-0.004425236422305471,0.0023692037953079136,0.9938568345944095
2017-03-17,1,0.0024042098893791086,0.0026765080989365553,-0.004087187169783941,0.003202992562291232,0.9935918217064882
2017-03-21,1,0.001809182399787202,0.0020061554468860615,-0.004087187169783941,0.003202992562291232,0.9942590503516916
2017-03-23,1,0.001555612965861799,0.0017012873487754691,-0.0033160718196183197,0.003814932871280154,0.9942564233829854
2017-03-27,1,0.0018558521671112776,0.0020513639656886606,-0.0033160718196183197,0.0065174310957141265,0.9939587373927148
2017-03-29,1,0.0019169507930175368,0.0021090611546281954,-0.0033160718196183197,0.006662856698839212,0.9937763712343364
2017-03-31,1,0.0016427594473987582,0.0017849041428448726,-0.0033160718196183197,0.006662856698839212,0.9936350543153412
2017-04-04,1,0.0023563792305880526,0.0026464420188012407,-0.0041157379249250215,0.006349463909253377,0.9936489621356066
2017-04-06,1,0.0024714808758898007,0.002707598493329837,-0.003447788740552883,0.005468454738675903,0.9949471408097719
2017-04-10,1,0.0016690497309507766,0.0017513762943990184,-0.002932454886468427,0.005468454738675903,0.9952866620116817
2017-04-12,1,0.001310341500220389,0.0013511193614179076,-0.0015757707025640358,0.005468454738675903,0.9956733075975844
2017-04-17,1,0.003163283196625074,0.0035748514209888458,-0.0005762236022714969,0.006349463909253377,0.9961378195440505
2017-04-19,1,0.0020319430567037494,0.002224776734556186,-0.00039922757289118023,0.006349463909253377,0.9951232997831568
2017-04-21,1,0.0015151589923795212,0.0015767659898555137,-0.0006737572575430586,0.005468454738675903,0.9949154418918174
2017-04-25,1,0.0016265399113083545,0.001670090162502366,-0.0010846141258733712,0.005468454738675903,0.9942187544336502
2017-04-27,1,0.0002853297722026115,0.00047933911431066755,-0.0010846141258733712,0.006836626578329581,0.9931439012678636
2017-05-01,1,0.00121327672784312,0.0012591044678921773,-0.0019457548666096417,0.0060347504031020285,0.9932384709074316
2017-05-03,1,0.0012127237665324122,0.0012413924668293107,-0.0019457548666096417,0.0060347504031020285,0.9928923449759605
2017-05-05,1,0.0009484348696971981,0.0010290217580524923,-0.0019457548666096417,0.008650379018637295,0.992564431891713
2017-05-09,1,0.000901058658984276,0.0009784122248083537,-0.0032952325635150098,0.008650379018637295,0.9924656328109197
2017-05-11,1,0.0005038042751537303,0.0006729557694978805,-0.004196641078806443,0.008650379018637295,0.9904700937040827
2017-05-15,1,0.0009360223610129229,0.0011062676341049358,-0.004880513903475101,0.006541033953072291,0.9902548592589405
2017-05-17,0,-4.211542759366611e-05,0.0002303123218891517,-0.004880513903475101,0.006541033953072291,0.9909772152035831
2017-05-19,-1,-0.000574486247345442,-0.00022689670634302842,-0.004880513903475101,0.009882180884547072,0.9902404767389713
2017-05-23,-1,-0.0006604370549560706,-0.0002776520249954226,-0.00538623035796758,0.007771058063907252,0.9906625335188962
2017-05-25,1,2.1307100744156647e-05,0.0003515550206757078,-0.00538623035796758,0.00613306152113294,0.9915731745799211
2017-05-30,1,0.0009507172011467661,0.0010663352596303364,-0.006086826365052787,0.00613306152113294,0.9910929774808456
2017-06-01,1,0.0006468041374327041,0.0007790105415833166,-0.006086826365052787,0.00613306152113294,0.9910657288999475
2017-06-05,1,0.00098512964218916,0.0010814700761460016,-0.006100881088675926,0.0035565062628046384,0.9911350426090496
2017-06-07,1,0.00114792226257449,0.0012026799867814171,-0.007169028129218068,0.005347808628177536,0.9902178060717035
2017-06-09,-1,-0.0008084166966852604,-0.0005139274914049423,-0.006100881088675926,0.008120543116971312,0.9920424925749117
2017-06-13,-1,-0.0008475466016467687,-0.0005548231575392344,-0.005759617433535343,0.008120543116971312,0.9920573201526874
2017-06-15,-1,-0.001250331160161409,-0.0009210205286095099,-0.005759617433535343,0.008120543116971312,0.9918852143758571
2017-06-19,-1,-0.0001661482428299053,-1.6000269576991815e-05,-0.006100881088675926,0.006788466839640252,0.9924366738820769
2017-06-21,-1,-0.00036917739712150695,-0.0001844973979357957,-0.005759617433535343,0.007545924324643663,0.9924527629616896
2017-06-23,1,0.00018751513889243756,0.0002905255833991118,-0.0061874013346657365,0.005249770271871666,0.9924893651668455
2017-06-27,0,-4.968300604546932e-05,5.9095849577374545e-05,-0.0061874013346657365,0.0076241733620479426,0.9922990205037382
2017-06-29,-1,-0.0006394275293741658,-0.000446888119223344,-0.005867526437157016,0.0076241733620479426,0.9928644273061202
2017-07-03,-1,-0.0007418169395668478,-0.0005592029476523787,-0.0028084716911432922,0.0076241733620479426,0.9927709646950837
2017-07-06,-1,-0.000546602338544159,-0.00037859876998163944,-0.0028084716911432922,0.005487248449742124,0.9930354378412732
2017-07-10,1,0.00011957526363260459,0.00020723897783618585,-0.0028084716911432922,0.004814271371894711,0.994028369294146
2017-07-12,1,0.0007776244579590592,0.0007939867344237232,-0.00352620489196371,0.00466932724175495,0.995038907369305
2017-07-14,1,0.0008079184528234874,0.0008272127020139523,-0.00352620489196371,0.004682880665220008,0.9939930448170807
2017-07-18,1,0.0004332401975051358,0.0004692836463206161,-0.0018262784299558441,0.00501892570722842,0.9931377255777823
2017-07-20,1,0.0006983994024553333,0.0007191608721491974,-0.00352620489196371,0.00501892570722842,0.9922584351604872
2017-07-24,1,0.0008420162064928858,0.0008862222687919003,-0.0018262784299558441,0.005720943955168483,0.9922358875206407
2017-07-26,1,0.0009121236669193583,0.0009238737091055674,-0.0018262784299558441,0.005720943955168483,0.992294410639039
2017-07-28,1,0.0007988814112774087,0.0008116153788243634,-0.0013780436038154393,0.008403299291643929,0.9920378818140957
2017-08-01,1,0.0010152304868133357,0.0010591478252798378,-0.0018262784299558441,0.008403299291643929,0.9920036025685062
2017-08-03,1,0.0006750830123268978,0.0006783835090941113,-0.0013780436038154393,0.010987481954157354,0.9921161502772387
2017-08-07,1,0.0006014434179216751,0.0006128724613341835,-0.0013780436038154393,0.010987481954157354,0.9918381568404916
2017-08-09,1,0.00020829653834800434,0.00027813509932862014,-0.0007284170998031555,0.010987481954157354,0.9913354141338916
2017-08-11,-1,-0.0010604373113736638,-0.0008075878804749277,-0.0007284170998031555,0.011164599185431454,0.9918241430990445
2017-08-15,0,-0.00014165872329627375,7.673384843821828e-06,-0.003261832877034798,0.010987481954157354,0.9924690749691315
2017-08-17,-1,-0.00018148410386136096,-2.4280024291071492e-05,-0.0033674818945592447,0.009867080342446289,0.9935360744242998
2017-08-21,1,0.00027249772192090377,0.0003634819346829368,-0.003825622732132774,0.009867080342446289,0.9933725697703395
2017-08-23,1,0.0007058479531307645,0.0007487954695093053,-0.003825622732132774,0.007355255855549323,0.9936945671858753
2017-08-25,1,0.0010936635756166103,0.0011027947671085878,-0.004224100067204119,0.005744565253167401,0.9928889187460931
2017-08-29,1,0.0013116845877329032,0.0013979875380741515,-0.003825622732132774,0.007336436050849163,0.9926630500403164
2017-08-31,1,0.0016106382112304751,0.0017136367182532472,-0.004691236851033508,0.00629805305312748,0.9925536843696396
2017-09-05,1,0.0015249740772204203,0.001589489312086044,-0.004691236851033508,0.008996899450729401,0.9919036447521583
2017-09-07,1,0.0017569810418490504,0.0018649048657598348,-0.004691236851033508,0.0063885514151300424,0.9924752493425325
2017-09-11,1,0.0018112565984771257,0.0019034494452825072,-0.004691236851033508,0.005715511501019265,0.9929317096742727
2017-09-13,1,0.0009478929158097289,0.0009643826054307485,-0.0037754328902545086,0.0062472620578871785,0.993480634496136
2017-09-15,1,0.0006875414430178289,0.0007219287398242422,-0.002020218413048451,0.006775578934785824,0.9936692947965292
2017-09-19,1,0.0011011576673251398,0.001138933063536833,-0.002020218413048451,0.0062472620578871785,0.9941812700646654
2017-09-21,1,0.0009803762717077182,0.0010180111513261956,-0.0017781710722073376,0.006775578934785824,0.9939942944207651
2017-09-25,-1,-0.00010090668217387132,-1.6348834096653305e-06,-0.0017781710722073376,0.007646711454210711,0.9939544657463091
2017-09-27,1,0.00023586191918495593,0.0002893318464629017,-0.0011130864689877903,0.007646711454210711,0.9940086476097479
2017-09-29,1,0.00028071542744294157,0.0003291184848990377,0.0011285743824568212,0.006775578934785824,0.9942627261314566
2017-10-03,1,0.0010903112509305978,0.0011539849540844476,-0.0001297836688025328,0.006775578934785824,0.9947822486260918
2017-10-05,1,0.001604517819433885,0.0017826732224366522,-0.0011130864689877903,0.006775578934785824,0.9945852492058036
2017-10-09,1,0.0012778657339876601,0.0013622836302409572,-0.0028413548626798476,0.006775578934785824,0.9945454924340332
2017-10-11,1,0.0009908707145634293,0.001025774761128793,-0.0007058731333665518,0.007646711454210711,0.994067024615018
2017-10-13,1,0.0014138663094173031,0.0015271486622635208,-0.0028413548626798476,0.008189201410042155,0.9931302017099645
2017-10-17,1,0.0018473949656365317,0.0020797397407763896,-0.0007058731333665518,0.008189201410042155,0.9933367468140958
2017-10-19,1,0.0018483523817633264,0.0020683020358802278,-0.0007058731333665518,0.010863661403516795,0.992735944413276
