JNU-Tangyin/eata/results/Batch4_SP500/Batch4_SP500-IFF.csv
Date,Action,Predicted_Q25,Predicted_Q75,Actual_Q25,Actual_Q75,RL_Reward
2010-12-14,0,0.0,0.0,-0.0014339538871381658,0.002018819734353232,0.9978979257450862
2010-12-16,1,0.0031084580264817683,0.0033065745055483775,-0.0010289558437848174,0.002018819734353232,0.9968289552623968
2010-12-20,1,0.002924640336939707,0.0030751072585482046,-0.0010289558437848174,0.002018819734353232,0.9967457523404688
2010-12-22,1,0.003048849257301139,0.0032263604399228956,-0.0010289558437848174,0.001660232545228468,0.9963822404207989
2010-12-27,1,0.0024289879856150484,0.0025124265918510373,-0.0004035189106377525,0.00215132217080831,0.9966979901079607
2010-12-29,1,0.00280921644853045,0.002989760858821961,-0.0006256832122465512,0.003181150730270928,0.9959072834809127
2010-12-31,1,0.0029125937294939537,0.003124870643222773,-0.0006256832122465512,0.003181150730270928,0.9946384809927531
2011-01-04,1,0.0020036466404414954,0.0020063100578835173,-0.0006256832122465512,0.007382913605828715,0.9935998453737598
2011-01-06,1,0.0018314690784677632,0.001859621415012097,-0.0007595578438181096,0.007382913605828715,0.9935513104068088
2011-01-10,1,0.0021480969605365725,0.0022065796111080415,-0.0009103829595524128,0.007992528001445886,0.9928349902080139
2011-01-12,1,0.001334967219538712,0.0014405838868970925,-0.005188237923033242,0.007992528001445886,0.9895485305259722
2011-01-14,0,0.0,0.0,-0.00690743504549914,0.009297356004014464,0.9875196027133195
2011-01-19,0,0.0,0.0,-0.005188237923033242,0.010666895862872377,0.9871837315714519
2011-01-21,0,0.0,0.0,-0.005188237923033242,0.010666895862872377,0.9867393712385507
2011-01-25,0,0.0,0.0,-0.00690743504549914,0.008236123931693736,0.9865734964735342
2011-01-27,0,0.0,0.0,-0.00690743504549914,0.009871997475503342,0.9864200735610401
2011-01-31,1,0.0,0.0005045883489068289,-0.00690743504549914,0.007029169581721806,0.987827371298041
2011-02-02,0,0.0,0.0,-0.00690743504549914,0.0057382089386208,0.9879738198621929
2011-02-04,0,0.0,0.0,-0.009420068469817177,0.0057382089386208,0.987402222653437
2011-02-08,0,0.0,0.0,-0.007062017811048405,0.006313254487398021,0.9876408261310933
2011-02-10,0,0.0,0.0,-0.006722673949464118,0.009977271453930715,0.9900195286494123
2011-02-14,0,0.0,0.0,-0.0027158466649287736,0.006313254487398021,0.9920935212943797
2011-02-16,1,0.00040221786832252463,0.00048021121400095956,-0.006722673949464118,0.006313254487398021,0.9911400796238501
2011-02-18,1,0.0001407404487783001,0.00024922822003928724,-0.006722673949464118,0.009977271453930715,0.989974422523276
2011-02-23,-1,-0.0004805156288593969,-0.0002998562900933835,-0.0012062809326044248,0.009977271453930715,0.9907583569608408
2011-02-25,-1,-0.00042560571455308946,-0.0002453873633952718,-0.0012062809326044248,0.007451600414095497,0.9911150124690853
2011-03-01,0,0.0,0.0,-0.0012062809326044248,0.009977271453930715,0.9908020839893105
2011-03-03,0,0.0,0.0,-0.0012062809326044248,0.009977271453930715,0.9913151894218829
2011-03-07,0,0.0,0.0,-8.631461604599426e-06,0.010498833006321952,0.9908234509623906
2011-03-09,0,0.0,0.0,-0.0012033801429867752,0.010498833006321952,0.9910213246890608
2011-03-11,0,0.0,0.0,-0.001715772297880728,0.008347037257059094,0.9914389661526536
2011-03-15,0,0.0,0.0,-0.0034455593105445366,0.008347037257059094,0.990734602700426
2011-03-17,-1,-1.7572586256830456e-05,-5.136590600228689e-06,-0.003225980987046357,0.006772640445824065,0.9925016368614966
2011-03-21,0,0.0,0.0,-0.004232419464133089,0.006356358355151796,0.9935563135538426
2011-03-23,0,0.0,0.0,-0.004232419464133089,0.007984736383629676,0.9928171666758449
2011-03-25,0,0.0,0.0,-0.004232419464133089,0.009000058313091397,0.992947831389847
2011-03-29,0,0.0,0.0,-0.003225980987046357,0.007561566942516044,0.9936723063572804
2011-03-31,1,0.002320913755734479,0.0025237757568049497,-0.003225980987046357,0.006506520306331153,0.9939893989519341
2011-04-04,1,0.0024942046442417184,0.0027018911285552547,-0.0038463828478754276,0.0027445352190476283,0.9942576186584127
2011-04-06,1,0.004265373418614515,0.004670152061259833,-0.004232419464133089,0.0016153457199954454,0.9927632612929244
2011-04-08,1,0.002835888184866334,0.0029648351816692828,-0.0038463828478754276,0.0047157699025395525,0.9937224743796619
2011-04-12,0,0.0,0.0,-0.0034272473648306804,0.006472539838073471,0.9938484127024567
2011-04-14,0,0.0,0.0,-0.004260995713018234,0.006472539838073471,0.992687618202419
2011-04-18,0,0.0,0.0,-0.004295495412853702,0.006472539838073471,0.9927963847060168
2011-04-20,0,0.0,0.0,-0.004295495412853702,0.004032647251978076,0.9925364524754131
2011-04-25,0,0.0,0.0,-0.006620923266519278,0.0025168276688604693,0.9920379995796341
2011-04-27,1,0.0024755041495222434,0.0026202125469741294,-0.006620923266519278,0.003983639826732896,0.9912275217078429
2011-04-29,1,0.0024879623663028806,0.0026478066951861235,-0.006620923266519278,0.005624067884369836,0.9909250853599104
2011-05-03,1,0.0021187745890683353,0.002237123353738337,-0.009333521763430313,0.005624067884369836,0.9904035197456275
2011-05-05,1,0.0017873102956104706,0.0018908980112163371,-0.009430125234635848,0.005624067884369836,0.9898542124373715
2011-05-09,0,0.0,0.0,-0.009868339825676059,0.003983639826732896,0.989844712174325
2011-05-11,0,0.0,0.0,-0.009868339825676059,0.003983639826732896,0.990468209420676
2011-05-13,0,0.0,0.0,-0.009333521763430313,0.003983639826732896,0.991407476548941
2011-05-17,1,0.0005071246507451394,0.0005090646463939531,-0.009430125234635848,0.0054077348504850044,0.991126169944088
2011-05-19,1,0.0017580663213976578,0.0017991051059062688,-0.009430125234635848,0.0054077348504850044,0.9914066488164313
2011-05-23,1,0.0007492603600953248,0.0008305741269716072,-0.00868152243701337,0.007046377725064287,0.9916873241739191
2011-05-25,1,0.0009029550173949046,0.0009678927975751866,-0.00868152243701337,0.006879052116424635,0.9913446307822444
2011-05-27,1,0.001416027688345891,0.0014224840289916534,-0.00868152243701337,0.0035338296953595044,0.9914824892713462
2011-06-01,1,0.0002897809648843812,0.0004299867515389078,-0.006141828557414723,0.00953533486264614,0.9920030882254248
2011-06-03,-1,-0.0010445948837366776,-0.0007446902896104982,-0.004045145872615482,0.010865378762224525,0.9922218817573963
2011-06-07,-1,-0.0009430024452953157,-0.000655149582646815,-0.004045145872615482,0.00953533486264614,0.993139485849614
2011-06-09,-1,-0.0006696802697307608,-0.0004089656714613794,-0.003930002478741852,0.009316872042771606,0.9934595021046689
2011-06-13,-1,-0.0012516632713651073,-0.0009057721145882629,-0.004697664123882367,0.009316872042771606,0.9929943133649756
2011-06-15,0,0.0,0.0,-0.004697664123882367,0.009316872042771606,0.9930195393914898
2011-06-17,0,0.0,0.0,-0.005705798242113242,0.00801032220151393,0.9928630507210957
2011-06-21,0,0.0,0.0,-0.007009356559920866,0.00801032220151393,0.9927582501628482
2011-06-23,0,0.0,0.0,-0.007009356559920866,0.009299222810398028,0.9925676010995647
2011-06-27,0,0.0,0.0,-0.008268521710258464,0.009299222810398028,0.9919822509421895
2011-06-29,0,0.0,0.0,-0.008909469610820505,0.006623190553232209,0.9919587311423138
2011-07-01,0,0.0,0.0,-0.008909469610820505,0.004290756522904547,0.9920710091717242
2011-07-06,1,0.0007635376659161245,0.0009224929346978722,-0.010200209939089294,0.004290756522904547,0.991048414999345
2011-07-08,1,3.241538947348278e-05,0.0001082461004528317,-0.0126653367639101,0.004290756522904547,0.987570243725961
2011-07-12,0,0.0,0.0,-0.013279874240329888,0.007146910938996796,0.9816108165755376
2011-07-14,0,0.0,0.0,-0.015329365492533893,0.010250058453639545,0.9786707202851901
2011-07-18,0,0.0,0.0,-0.013847954836441079,0.012389092120409933,0.9777708861799369
2011-07-20,0,0.0,0.0,-0.018362045232093654,0.012389092120409933,0.9775463508605847
2011-07-22,0,0.0,0.0,-0.023007493631447325,0.009366931404802398,0.9760406715961716
2011-07-26,-1,-0.0022623689338712887,-0.001770875531555104,-0.023007493631447325,0.015136413385494991,0.9744618864405722
2011-07-28,-1,-0.002791010568591943,-0.0022318185965384944,-0.023007493631447325,0.015136413385494991,0.974735302129228
2011-08-01,-1,-0.002647042008161113,-0.002156506642756382,-0.023007493631447325,0.025352176381224126,0.9727969687274902
2011-08-03,-1,-0.0038986017609176672,-0.0032582519001320255,-0.015833138373431623,0.025352176381224126,0.9732654795704537
2011-08-05,0,0.0,0.0,-0.015833138373431623,0.025352176381224126,0.9756513031705168
2011-08-09,0,0.0,0.0,-0.011300652690737049,0.022573150766989663,0.98141355726972
2011-08-11,-1,-0.0026761915691379343,-0.0023356756604968575,-0.011300652690737049,0.013441714978948813,0.9840404602962902
2011-08-15,0,0.0,0.0,-0.011300652690737049,0.010862068802428022,0.9851170287797312
2011-08-17,0,0.0,0.0,-0.0075672910683411716,0.018871082797230466,0.9845084201923117
2011-08-19,0,0.0,0.0,-0.006914414947406921,0.02190768186948613,0.9851800927683833
2011-08-23,-1,-0.0033533875381311267,-0.0029633436282028277,-0.008609461017022797,0.018871082797230466,0.9863840466854673
2011-08-25,-1,-0.003088521885341306,-0.0027689097150104076,-0.008609461017022797,0.018871082797230466,0.9854385959476946
2011-08-29,-1,-0.0016741031427580932,-0.001538316419057348,-0.008609461017022797,0.016723782686730762,0.9858175080976098
2011-08-31,0,0.0,0.0,-0.013295332739113834,0.016723782686730762,0.9840264829161602
2011-09-02,0,0.0,0.0,-0.011413324670890415,0.016723782686730762,0.9841012208004851
2011-09-07,0,0.0,0.0,-0.011413324670890415,0.016723782686730762,0.983047215436091
2011-09-09,0,0.0,0.0,-0.007982124994281657,0.016723782686730762,0.9832596312713879
2011-09-13,0,0.0,0.0,-0.007982124994281657,0.018871082797230466,0.9822976615574228
2011-09-15,0,0.0,0.0,-0.010256608593711263,0.014114102118602584,0.9829530642567295
2011-09-19,0,0.0,0.0,-0.018270388369136952,0.014114102118602584,0.9819955541772232
2011-09-21,0,0.0,0.0,-0.014408610794473324,0.014114102118602584,0.9820986485254395
2011-09-23,0,0.0,0.0,-0.00938828307383283,0.018878784487803866,0.9824104653241421
2011-09-27,0,0.0,0.0,-0.014408610794473324,0.011801814928657499,0.9832790247315494
2011-09-29,0,0.0,0.0,-0.00938828307383283,0.021398538718892017,0.9828183294856456
2011-10-03,0,0.0,0.0,-0.008733143976907167,0.021398538718892017,0.9824819180909025
2011-10-05,1,2.97148261408393e-05,7.776109060036762e-05,-0.014408610794473324,0.018264297914596016,0.982585197347963
2011-10-07,0,0.0,0.0,-0.014408610794473324,0.02110152898772135,0.9817804428604152
2011-10-11,0,0.0,0.0,-0.018270388369136952,0.018264297914596016,0.9784495868687416
2011-10-13,0,0.0,0.0,-0.02200119064812397,0.018264297914596016,0.9784902425909143
2011-10-17,0,0.0,0.0,-0.015652211554135664,0.015771657597902618,0.9799782876219598
2011-10-19,1,0.0009732630371674613,0.0011808885986820854,-0.012070616858590226,0.015771657597902618,0.9801774207217927
2011-10-21,1,0.001476789992619159,0.0017207753335795057,-0.018158808271999827,0.0067226322236072595,0.980459414897493
2011-10-25,1,0.0002775892520608609,0.00033088579998113873,-0.010794222818337508,0.0067226322236072595,0.9818701562389448
2011-10-27,1,0.0018368726597914832,0.0021072380765245393,-0.013813988007824015,0.002335913433665014,0.9834679010741744
2011-10-31,1,0.0008837820879434871,0.001038935405535305,-0.012071049297125339,0.002838583530233463,0.9836916889809229
2011-11-02,1,0.000768472267404333,0.0008953224040452449,-0.009531370753899484,0.002838583530233463,0.9838729024373377
2011-11-04,1,0.0009805093052665964,0.001126843403281229,-0.009512196686980187,0.002838583530233463,0.9849263236140142
2011-11-08,-1,-0.0009903130462413498,-0.0009023191492967809,-0.008543077578806835,0.003892374017398177,0.9900642521502152
2011-11-10,-1,-0.0012151629339643608,-0.001129698753992347,-0.008543077578806835,0.008251948566459338,0.9894972528509216
2011-11-14,-1,-0.0010220403773692072,-0.0009523366230479204,-0.009912733662099375,0.003892374017398177,0.988857086180985
2011-11-16,-1,-0.0014734688458906654,-0.0013436092071549741,-0.009912733662099375,0.003892374017398177,0.9893360728141412
2011-11-18,-1,-0.0013228462828175965,-0.0012374119303748931,-0.009749345356014372,0.003892374017398177,0.9895406940172438
2011-11-22,-1,-0.00106755547663231,-0.0010365448586241506,-0.009749345356014372,0.008251948566459338,0.9888582275661529
2011-11-25,-1,-0.001402513027928717,-0.0013251848755622695,-0.008676589903846565,0.010364890233909388,0.9885189307031218
2011-11-29,-1,-0.0006294566257496287,-0.0005923420584893761,-0.008676589903846565,0.008251948566459338,0.9891897672417419
2011-12-01,-1,-0.00037981868501814174,-0.00033660089480001755,-0.006343611879531093,0.008251948566459338,0.9902756899653902
2011-12-05,-1,-0.00014086659041313596,-6.492550798616913e-05,-0.006343611879531093,0.008302662512678152,0.9903104159866146
2011-12-07,1,7.083434547774025e-07,8.391430206220851e-05,-0.006343611879531093,0.005158246950265665,0.9906003730332814
2011-12-09,0,0.0,0.0,-0.005185002122982731,0.005158246950265665,0.9914083643570402
2011-12-13,0,0.0,0.0,-0.0023899864514439796,0.009558256109066063,0.9921728846498926
2011-12-15,0,0.0,0.0,-0.0024294318507056068,0.00998613213381401,0.9915775367106926
2011-12-19,-1,-0.001290973420595373,-0.001200879418956795,-9.22766625243893e-05,0.011419007910769316,0.99094314676621
2011-12-21,-1,-0.0005461691890794302,-0.000521233855980768,0.0010407400691673676,0.009823458850383137,0.9918389616674727
2011-12-23,-1,-0.00016029174243690315,-0.00011368814937383324,0.0009485378656435394,0.008917957566650087,0.9926971492512293
2011-12-28,-1,-0.0013283888574612008,-0.001195466657587347,0.0009485378656435394,0.008917957566650087,0.993124854894276
2011-12-30,-1,-0.0014577443302359531,-0.0012926872174977018,-0.0002648920344489128,0.006711106944566443,0.9930463102199378
2012-01-04,-1,-0.0015043864358201724,-0.0013008637433693474,-0.0006322989250435182,0.006622619679559468,0.9930620820507189
2012-01-06,-1,-0.0009290522334927064,-0.0008292200526168198,-0.0008395650226598616,0.00678947946903233,0.993146290693713
2012-01-10,-1,-0.0010475490939124534,-0.0008897700497842452,-0.002396091388437407,0.00678947946903233,0.9929643637877086
2012-01-12,-1,-0.000950498966938573,-0.0007562997661979974,-0.005513090278447234,0.00678947946903233,0.9921613835441869
2012-01-17,-1,-0.00014525328035449185,-0.0001313351010572223,-0.002396091388437407,0.006078651780890398,0.9928148320644573
2012-01-19,-1,-0.00026270342197063235,-0.00018407954079874508,-0.005059976714583902,0.005927004395687243,0.9930281401741314
2012-01-23,1,0.0005469363984305589,0.0006406821980981088,-0.005059976714583902,0.0062230516483888195,0.9926022015373702
2012-01-25,1,0.0007928902074377749,0.0009252015146331272,-0.005059976714583902,0.0062230516483888195,0.9929246469776414
2012-01-27,1,0.00029426030867999884,0.00031185140020421545,-0.005059976714583902,0.0062230516483888195,0.9928030578288466
2012-01-31,1,0.00015457757582661917,0.0001879844927888356,-0.002396091388437407,0.0062230516483888195,0.9932632871429
2012-02-02,-1,-0.00010305565694549866,-7.30780286445375e-05,-0.0031917136436210043,0.0062230516483888195,0.9930111576365526
2012-02-06,1,0.00024401054613200032,0.00027435187162024396,-0.007996141065444946,0.005975137684853383,0.9921963901714471
2012-02-08,1,0.0007756300425547579,0.0009297018871841803,-0.0068722733829480135,0.006153460529664916,0.992915496028472
2012-02-10,1,0.0009242015336390894,0.0011248460617440874,-0.0038054167557288257,0.0059544361921647975,0.994629919926362
2012-02-14,1,0.0005471012705617177,0.0006429352325582366,-0.0038054167557288257,0.006153460529664916,0.9944015922128496
2012-02-16,1,0.0003003693536805269,0.0003338857838006608,-0.0009720753226282871,0.0064014996983256835,0.9944471084592191
2012-02-21,1,0.0012000162600106533,0.0014117101589029293,-0.0029229077995181095,0.003490412189743822,0.9949980734027581
2012-02-23,1,0.0009787053237960315,0.0011360431980803067,-0.004033223148586971,0.003508576622793241,0.9945138134676822
2012-02-27,1,0.000529350578748052,0.0005751847108957577,-0.004033223148586971,0.006990022839626553,0.9936572284532312
2012-02-29,1,0.0008156712252597119,0.0009626129870548648,-0.0029229077995181095,0.00714921058464539,0.9935300036577924
2012-03-02,1,0.0007909148869445553,0.0009305654664613285,-0.0029229077995181095,0.007534046950764901,0.9936657108449622
2012-03-06,1,0.0005135163251833936,0.000648586426421619,-0.002630854060199386,0.008094324128185783,0.9938435796624537
2012-03-08,1,0.0007935004396633441,0.0009570492821752359,-0.0029229077995181095,0.008094324128185783,0.9938130589166497
2012-03-12,1,0.0007574085358490176,0.0009242935920365636,-0.005731545194512712,0.008094324128185783,0.9924243074065628
2012-03-14,1,0.0009655541265284979,0.0011570569278586218,-0.005731545194512712,0.011726459144005342,0.9913834474531682
2012-03-16,1,0.0016657513774000856,0.002001327142594588,-0.006375219296843408,0.009199886645481058,0.9912296239398671
2012-03-20,1,0.0011106985543859202,0.0013148832259962696,-0.006375219296843408,0.010824826808071052,0.9910220549506964
2012-03-22,1,0.0018533612769999364,0.002247999761344861,-0.005731545194512712,0.010824826808071052,0.9916277434249599
2012-03-26,1,0.0015907764815456626,0.001879015029791209,-0.006253864823993146,0.008635970849049114,0.9919724358998933
2012-03-28,1,0.002005241132272095,0.002361804320789404,-0.006253864823993146,0.008498897265306463,0.9921299030805496
2012-03-30,1,0.0022751609521033103,0.0026877141492823537,-0.006170459693731399,0.00776215808174239,0.9922597080579602
2012-04-03,0,0.0,0.0,-0.005980880847312374,0.006889658423645879,0.9926202019379243
2012-04-05,0,0.0,0.0,-0.006614335284596183,0.006889658423645879,0.9919728033399153
2012-04-10,1,0.0002848031902244796,0.00029872042380157,-0.0056621231682947,0.00776215808174239,0.9924162739642401
2012-04-12,1,0.0005698718916549483,0.0006064779070213705,-0.0056621231682947,0.005712586820370742,0.99360524753559
2012-04-16,1,0.00033602688141152743,0.00034539382282465237,-0.005946324370106522,0.004505062239579336,0.9936157467540455
2012-04-18,0,0.0,0.0,-0.005946324370106522,0.0031285275921439457,0.9938736623899278
2012-04-20,1,0.0002636958066663606,0.0002671324261881084,-0.006403294935503132,0.002527340328827084,0.9925560449608684
2012-04-24,0,0.0,0.0,-0.005946324370106522,0.003946795583946769,0.9914550012177912
2012-04-26,0,0.0,0.0,-0.005946324370106522,0.00037482234900244426,0.9917912115302413
2012-04-30,0,0.0,0.0,-0.005946324370106522,0.00037482234900244426,0.9914820574447897
2012-05-02,0,0.0,0.0,-0.006403294935503132,-0.0018702447980442252,0.9904600735207422
2012-05-04,0,0.0,0.0,-0.0060540417000311455,-0.0014677666761500406,0.9898665919231254
2012-05-08,0,0.0,0.0,-0.005512255682214735,0.0003686887653966518,0.989675238412865
2012-05-10,0,0.0,0.0,-0.005512255682214735,0.005293856294494226,0.9893816837791716
2012-05-14,0,0.0,0.0,-0.005402133492764153,0.00722911340160904,0.9890036582695287
2012-05-16,0,0.0,0.0,-0.006754374495205782,0.007470942125849177,0.988113424305806
2012-05-18,0,0.0,0.0,-0.0038705778204051492,0.008334265306349712,0.9887952947581587
2012-05-22,0,0.0,0.0,-0.006745279482999486,0.008334265306349712,0.9891320054561021
2012-05-24,0,0.0,0.0,-0.010771096840294495,0.008334265306349712,0.9884692062682814
2012-05-29,0,0.0,0.0,-0.012840852077418,0.007470942125849177,0.9881978980158519
2012-05-31,0,0.0,0.0,-0.010771096840294495,0.007470942125849177,0.989142509582227
2012-06-04,0,0.0,0.0,-0.008986108452599785,0.007470942125849177,0.9903154730862469
2012-06-06,1,0.00013575454939176873,0.0001900418785123171,-0.008986108452599785,0.007470942125849177,0.9911237991631338
2012-06-08,-1,-0.0014935896725447578,-0.0013346145623973863,-0.010771096840294495,0.006565924871037461,0.990489571528899
2012-06-12,-1,-0.0011688915075974402,-0.0010750789724894333,-0.009447227832479442,0.00511726269625878,0.9909289345754652
2012-06-14,-1,-0.0013478937201974615,-0.001245120517269372,-0.008547850454063532,0.00511726269625878,0.9913814955538159
2012-06-18,-1,-0.0006830850230444224,-0.0006732265322323572,-0.008547850454063532,0.00511726269625878,0.9913027995434452
2012-06-20,-1,-0.0005008740444174461,-0.000487313602849917,-0.0077325179748158005,0.00511726269625878,0.9920539649135394
2012-06-22,-1,-0.001428450008395123,-0.0013081938080261948,-0.0077325179748158005,0.00511726269625878,0.9918794034182019
2012-06-26,-1,-0.0021850967902192404,-0.0019809992468185034,-0.0077325179748158005,0.0070385838287490565,0.9917759101487825
2012-06-28,-1,-0.001766342988538979,-0.0016248734326276273,-0.0077325179748158005,0.009865619691934675,0.990620192350958
2012-07-02,-1,-0.0019441233977019,-0.0017914043919344822,-0.006480053460480252,0.009865619691934675,0.9907160426505601
2012-07-05,-1,-0.002842832654472505,-0.0024993755086643457,-0.007704557583464816,0.008413801265832518,0.9911620222781525
2012-07-09,-1,-0.002872902609493497,-0.0025342742756722437,-0.006480053460480252,0.008413801265832518,0.9913582974575167
2012-07-11,-1,-0.0030837671630248504,-0.002724464653528411,-0.004225095669362685,0.010314948576475774,0.986232756456786
2012-07-13,-1,-0.0009385192853620275,-0.0008364475458085476,-0.006480053460480252,0.009865619691934675,0.986372897352944
2012-07-17,-1,-0.000681186899952059,-0.0006115057768178343,-0.004346208545457406,0.008413801265832518,0.9871369839725379
2012-07-19,-1,-0.0004190894134916107,-0.0003833608245903831,-0.004346208545457406,0.00843796066910021,0.9867809660486169
2012-07-23,-1,-0.0013764843939890142,-0.0012123787847703482,-0.0036284720874557664,0.00843796066910021,0.987473283090136
2012-07-25,-1,-0.0012654232393074618,-0.001116298541036411,-0.0036284720874557664,0.007431070478012468,0.988225564654089
2012-07-27,-1,-0.0008515350118903434,-0.0007126174638341298,-0.004257726810357403,0.006546996313692185,0.9892568304240769
2012-07-31,-1,-0.0005958895171638877,-0.0005102656049016225,-0.004257726810357403,0.006121852143127979,0.9896169767583042
2012-08-02,-1,-0.0008413630552174032,-0.0007195697444085872,-0.004257726810357403,0.006121852143127979,0.9897685321987663
2012-08-06,-1,-0.00048472599948081645,-0.00041913828970157685,-0.006188164254841262,0.0042951994233420224,0.9898434607668811
2012-08-08,1,0.0030881174981800203,0.0035026631274771214,-0.006188164254841262,0.0035397773300414317,0.9933405966744328
2012-08-10,1,0.0022196986369995364,0.0025108175375752302,-0.004257726810357403,0.0029342230333120178,0.9944536739742064
2012-08-14,1,0.0017761297989745957,0.0019982044583050917,-0.006188164254841262,0.0029342230333120178,0.994230153140633
2012-08-16,1,0.0026152303470031533,0.002979727172508863,-0.007620082874389272,0.0020699109647768716,0.9936220736556183
2012-08-20,1,0.0025495660264942873,0.0029142239200594736,-0.007620082874389272,0.0012069523817066488,0.9937459295731772
2012-08-22,1,0.002338667925240738,0.002678759770220327,-0.0040284606017556525,0.0021834435328961675,0.9944224851990642
2012-08-24,1,0.0022045992565239807,0.002542226395097361,-0.003327348127614386,0.0021834435328961675,0.994537774174749
2012-08-28,1,0.001896592729516749,0.0021741189396853986,-0.004997809974387047,0.0021834435328961675,0.9943819631976688
2012-08-30,1,0.0011633425305904539,0.0012866353235815422,-0.004997809974387047,0.0030814465782802673,0.9944661323866255
2012-09-04,1,0.0016109450145110477,0.0018532909099650795,-0.004703000339836774,0.0034158705562751706,0.9941113505269688
2012-09-06,1,0.0020274068110696167,0.0023162536349133913,-0.004703000339836774,0.0031633066655808117,0.9944141410392686
2012-09-10,1,0.0021262695048883994,0.0024457649595337745,-0.004703000339836774,0.004561452204842716,0.9942012100362625
2012-09-12,1,0.0017102164221691881,0.0019763175173780775,-0.004126929403675084,0.004561452204842716,0.994744773021402
2012-09-14,1,0.001535103870964151,0.0017690444858083935,-0.0034572128920636485,0.004431008302886876,0.9953086146828306
2012-09-18,1,0.001954833252487313,0.002277394195632384,-0.0034572128920636485,0.005433261775810088,0.9943279489518461
2012-09-20,1,0.0019708175421587417,0.0022839729586879676,-0.0034572128920636485,0.006136312525023173,0.9938438518658925
2012-09-24,1,0.0018181538054045506,0.00211975926311122,-0.0034572128920636485,0.007726313292772275,0.9915260073570299
2012-09-26,1,0.001092460648691605,0.0012529075567534289,-0.0034572128920636485,0.007726313292772275,0.9912318154619626
2012-09-28,1,0.001183419843292551,0.0013646011896172533,-0.003284226879353665,0.00926807411100879,0.9915192352750462
2012-10-02,1,0.0012347357002522649,0.0013999247704196932,-0.003284226879353665,0.00950630516719485,0.9915339881030087
2012-10-04,1,0.00132961981211054,0.001492038138383949,-0.0034572128920636485,0.010202791569226108,0.9905679111182486
2012-10-08,1,0.0011322998713689369,0.0012521562303113975,-0.006495652294197856,0.010202791569226108,0.9893755100198871
2012-10-10,1,0.0005437623662530262,0.0005438758330364485,-0.010880346126867176,0.010202791569226108,0.9889771878910972
2012-10-12,1,0.0007904677541373654,0.0008653646129149325,-0.010880346126867176,0.010202791569226108,0.9890191645842265
2012-10-16,1,0.0016384187167376967,0.001835529512953292,-0.010880346126867176,0.00950630516719485,0.9895735382705265
2012-10-18,1,0.0017384317472268584,0.0019495271510635668,-0.010880346126867176,0.00950630516719485,0.9886830711359801
2012-10-22,1,0.0018944619435479868,0.0020960496210905913,-0.009000162471904796,0.006830746716207245,0.9912873427942592
2012-10-24,1,0.0008297461931508609,0.0008437229980685934,-0.00764100201594081,0.009424537442888906,0.9917921204389212
2012-10-26,1,0.0012039712441191744,0.001315446296381876,-0.00764100201594081,0.007108009667917488,0.9918608754745013
2012-11-01,1,0.0019272923522002832,0.0021355360967721514,-0.00764100201594081,0.00591385064921553,0.9923411506050571
2012-11-05,1,0.0018489678068563376,0.0020401500426998325,-0.007470052841661719,0.0030532491521252526,0.9931113803726674
2012-11-07,1,0.0009640934054136698,0.0010169482430000647,-0.0030809248018047364,0.004497826145152004,0.9945919100702666
2012-11-09,1,0.0006014129859801173,0.0006260504039798269,-0.0022847801344418953,0.00591385064921553,0.9947605838511842
2012-11-13,1,0.000352403528097617,0.00036226777178383096,-0.0022847801344418953,0.00591385064921553,0.9946982119455964
2012-11-15,0,-5.0570971610495075e-05,6.111731221075764e-05,-0.0008556795307965082,0.00591385064921553,0.9949489286317132
2012-11-19,1,0.00046286905870141057,0.0004977845641118671,-0.00046052505724557757,0.006058570791216773,0.9955922626280119
2012-11-21,1,0.00035723081732379544,0.00040198639771552936,-0.0008556795307965082,0.0068447908451114165,0.9952650334155464
2012-11-26,1,0.00012757505679016783,0.00021869027819699578,-0.0011240758090240652,0.005972149177189889,0.9952108472254573
2012-11-28,1,0.0005506821582724904,0.0005773715757241115,-0.003123862681201301,0.005392165858929915,0.9953929604583477
2012-11-30,1,0.00041039951132066873,0.000463267421753031,-0.0032664083758243393,0.006090596061551469,0.9944309313221094
2012-12-04,0,-2.1570665213280725e-05,0.00010103601462851632,-0.0032664083758243393,0.008707382163014341,0.9933346929876686
2012-12-06,0,0.0,0.0,-0.0032664083758243393,0.008707382163014341,0.9934582376619703
2012-12-10,0,0.0,0.0,-0.0032664083758243393,0.007119063392517522,0.9936223735225481
2012-12-12,0,0.0,0.0,-0.003486686742609528,0.007119063392517522,0.9934055148744043
2012-12-14,0,0.0,0.0,-0.003486686742609528,0.007119063392517522,0.9930436753556754
2012-12-18,0,0.0,0.0,-0.003486686742609528,0.006130378841069837,0.9936126981432992
2012-12-20,0,0.0,0.0,-0.0019037555943313186,0.006130378841069837,0.9936974190805725
2012-12-24,1,0.0005332811868374837,0.0006167587939477888,-0.0019037555943313186,0.0066565700855084585,0.9938309991231777
2012-12-27,1,0.00011549054990279251,0.000272883309227293,-0.0019037555943313186,0.0066565700855084585,0.9932914378213061
2012-12-31,0,-0.00016670709337257225,1.9781726545330374e-05,-0.0019037555943313186,0.0066565700855084585,0.9937511911741385
2013-01-03,1,0.0019734509653127207,0.0022537271962215473,-0.0021485472070492256,0.0066565700855084585,0.9949566304387039
2013-01-07,1,0.0013574881336810055,0.0015145964670454668,-0.004924516973620952,0.0066565700855084585,0.9942197043195966
2013-01-09,1,0.0011936037497585943,0.0013111550134054433,-0.004924516973620952,0.006833906751255898,0.9934474692002264
2013-01-11,0,0.0,0.0,-0.0039105272971805645,0.007368450501901946,0.9928613300285419
2013-01-15,0,0.0,0.0,-0.0039105272971805645,0.00903460964303963,0.9928774859919666
2013-01-17,-1,-4.4182629636530554e-05,-3.833736842286857e-05,-0.0047247267899482494,0.007477019909495778,0.9930229153768413
2013-01-22,1,0.0037299013864824358,0.004108722390483157,-0.005188264315015145,0.00746167273669768,0.992282229263594
2013-01-24,1,0.0022057035381325904,0.002412819864171636,-0.005188264315015145,0.008076368518959008,0.992474891177788
2013-01-28,1,0.0019239479438422817,0.002067876426609533,-0.005188264315015145,0.009505245559195005,0.9913836514566854
2013-01-30,0,0.0,0.0,-0.005188264315015145,0.010614184427776698,0.9911866121713202
2013-02-01,0,0.0,0.0,-0.003998443077645295,0.008221296212332889,0.9918499113032752
2013-02-05,0,0.0,0.0,-0.0012216437163770247,0.008221296212332889,0.9922614397980508
2013-02-07,0,0.0,0.0,-0.0021368135457426754,0.005691748582614382,0.9929984594933721
2013-02-11,0,0.0,0.0,-0.002284808853101864,0.005691748582614382,0.9928608115336479
2013-02-13,0,0.0,0.0,-0.002284808853101864,0.006288121983818326,0.9927285133121192
2013-02-15,0,0.0,0.0,-0.002284808853101864,0.006288121983818326,0.9925222679145935
2013-02-20,0,0.0,0.0,-0.0018806590112067899,0.007808767789608912,0.9924319923100166
2013-02-22,0,0.0,0.0,-0.003047964430164444,0.006448504370088936,0.992255705443751
2013-02-26,0,0.0,0.0,-0.0023510960732147246,0.005937076654853365,0.9936410489845153
2013-02-28,0,0.0,0.0,-0.003047964430164444,0.005937076654853365,0.9935163708166836
2013-03-04,1,0.014734675542951221,0.01655505988402923,-0.004317558775179265,0.005937076654853365,0.9857962906872915
2013-03-06,1,0.0018438170574989734,0.0018659267894714454,-0.004685290269677617,0.006111990807678694,0.9919625978791614
2013-03-08,1,0.0015192116537060115,0.0016001848678755667,-0.005564507415076628,0.006111990807678694,0.9916416806427174
2013-03-12,0,0.0,0.0,-0.005564507415076628,0.006111990807678694,0.991735834454858
2013-03-14,1,0.0018396989920558778,0.0019259953690188953,-0.006732984837115212,0.006111990807678694,0.9912252819201642
2013-03-18,1,0.0017233063936465667,0.0018023017297647168,-0.008533761463442889,0.007239922336771141,0.9893877861871974
2013-03-20,1,0.0028306998645984426,0.003072247225445565,-0.009800722865405169,0.006111990807678694,0.9890753689188294
2013-03-22,1,0.0017614867799968126,0.0018197357111913294,-0.008373001089036604,0.011134206525698721,0.9891696208061076
2013-03-26,1,0.0019225844026521592,0.002014878715859588,-0.008373001089036604,0.013220776671672574,0.9887839899888397
2013-03-28,1,0.002529608864017642,0.002740227030275575,-0.009800722865405169,0.010922600466640474,0.9889387946198769
2013-04-02,0,0.0,0.0,-0.008373001089036604,0.010922600466640474,0.9893780651026673
2013-04-04,0,0.0,0.0,-0.008373001089036604,0.010922600466640474,0.9894093117063125
2013-04-08,0,0.0,0.0,-0.007733882060837156,0.013220776671672574,0.9892027677604367
2013-04-10,0,0.0,0.0,-0.007733882060837156,0.013220776671672574,0.9892146997113184
2013-04-12,0,-0.00016203878751158143,5.691318453600932e-05,-0.004544227614533526,0.013220776671672574,0.9898010023960954
2013-04-16,1,0.00023184278724437235,0.0003708321337746279,-0.0017786503298387224,0.013220776671672574,0.9913286700491233
2013-04-18,-1,-0.000615220229119023,-0.00037735402113829217,-0.0010644840291768886,0.013220776671672574,0.9912688041599412
2013-04-22,1,0.0005952512626699411,0.000686323515987754,-0.0017786503298387224,0.010115980035686686,0.9921393486162281
2013-04-24,1,0.000646236028807753,0.0007229074265291597,-0.0018151414439355807,0.008217515760049005,0.9923071086647138
2013-04-26,0,0.0,0.0,-0.0010644840291768886,0.008217515760049005,0.9924103658245672
2013-04-30,0,0.0,0.0,-0.0018151414439355807,0.00695943964463342,0.9925617552151252
2013-05-02,1,0.0003356829032334416,0.0005327449070075935,-0.002533855495646976,0.005623706218655177,0.9929605092069985
2013-05-06,1,0.0013838406953293565,0.0014104017019993594,-0.002533855495646976,0.004887928744941457,0.9936313639726857
2013-05-08,1,0.0016635055200832601,0.0016933582485759405,-0.004715394528259383,0.0038599987078117032,0.9931409230596699
2013-05-10,1,0.0017542734432537729,0.0017743981976875397,-0.004715394528259383,0.0038599987078117032,0.9928964864031997
2013-05-14,0,0.0,0.0,-0.009053146955703535,0.003377811363858647,0.9929466238699324
2013-05-16,0,0.0,0.0,-0.009053146955703535,0.003377811363858647,0.9926941617076299
2013-05-20,0,0.0,0.0,-0.009053146955703535,0.0038599987078117032,0.9926882913035288
2013-05-22,1,0.0014008433110805096,0.0014531446926123398,-0.009459510163812508,0.0038599987078117032,0.9909867868108622
2013-05-24,1,0.0012283803740762208,0.0012396218824798307,-0.010776694232909032,0.0036768952038694664,0.9900547797979081
2013-05-29,1,0.0013591476200259995,0.0013625356415969579,-0.010776694232909032,0.003871040074245186,0.9902909921781435
2013-05-31,0,0.0,0.0,-0.009851727508193023,0.003871040074245186,0.9907084926639481
2013-06-04,0,0.0,0.0,-0.009851727508193023,0.006152235593358915,0.988839536808464
2013-06-06,-1,-0.0002927177125071461,-0.0001251318931920525,-0.009183886070497041,0.008754249474222247,0.9889502530700739
2013-06-10,1,0.00019936155431796724,0.0002944193318607238,-0.009183886070497041,0.006152235593358915,0.9891959192742118
2013-06-12,-1,-0.0003973354655380739,-0.0002384760506775765,-0.005788453751849685,0.006152235593358915,0.9895387845452042
2013-06-14,-1,-0.00018550447732420915,-6.78723202126419e-05,-0.003525460985971986,0.005247456138833868,0.9902330811602282
2013-06-18,1,0.0002176788828430094,0.0002956673865238878,-0.004851377311564411,0.00507027165921062,0.9907618940426264
2013-06-20,-1,-0.0012529953902233146,-0.000993910165433746,-0.0030870851207289197,0.00507027165921062,0.9924173359343259
2013-06-24,-1,-0.0015961037535038108,-0.0013008521088574904,-0.0030870851207289197,0.00507027165921062,0.9928821675039637
2013-06-26,-1,-0.001384028232111394,-0.0011249679570742373,-0.0030870851207289197,0.00507027165921062,0.9928429488626133
2013-06-28,-1,-0.0018472120387069291,-0.0015246949855823389,-0.0030870851207289197,0.005132264538548382,0.9928154773283412
2013-07-02,-1,-0.0002699736892865246,-0.00017210935540947744,-0.0030870851207289197,0.00507027165921062,0.9942854174502872
2013-07-05,1,0.0001517421067592905,0.0002013410636074923,-0.0029435081163839494,0.00507027165921062,0.9946808629229578
2013-07-09,1,0.0004901010772875615,0.0004922390184871012,-0.0029435081163839494,0.005253411338426705,0.9942288592795118
2013-07-11,1,0.0005982028817907834,0.0006052968500812235,-0.0029435081163839494,0.006027337939139144,0.99416134625895
2013-07-15,0,-2.9998794478539536e-05,6.901474992460907e-05,-0.003045545236929915,0.006027337939139144,0.9940876913429918
2013-07-17,-1,-0.0003093314041111431,-0.000180915202930478,-0.002821827971540257,0.006027337939139144,0.9940651897336001
2013-07-19,-1,-0.0002983163149787374,-0.0001537244269347149,-0.0033264827039674104,0.006027337939139144,0.994006545349822
2013-07-23,-1,-0.0004948985090583115,-0.0003499013044618166,-0.0033264827039674104,0.007758154978457517,0.9936990235792768
2013-07-25,-1,-0.00011033535233106589,-1.6242422501524026e-05,-0.0050520142377559005,0.007311931174771901,0.9935433123966151
2013-07-29,0,-6.506049994475902e-05,2.0246241405962273e-05,-0.0038615505912065126,0.00598584825292931,0.9939759312326281
2013-07-31,1,0.00013356784163895007,0.0001935913344760686,-0.0066675473026399056,0.00598584825292931,0.9932334242946408
2013-08-02,1,0.0005735856696093598,0.0005778392369668588,-0.0066675473026399056,0.0017574289159496426,0.9935562904408862
2013-08-06,1,0.0012196507706168321,0.001331394786556195,-0.0066675473026399056,0.0015703870115355645,0.9933577731512145
2013-08-08,1,0.001320405239445647,0.0014359668890962882,-0.007389275178094614,0.00030222217752787775,0.9927621667609458
2013-08-12,1,0.0013528794610608073,0.0014992215244697793,-0.007389275178094614,0.005300117340590015,0.9924414917700412
2013-08-14,1,0.0007864687314450697,0.0008217202894651914,-0.007389275178094614,0.006270713237507469,0.9927553828124138
2013-08-16,1,0.0005824478068349265,0.0005934137346825321,-0.006021589807182628,0.007633685919828015,0.9921657656990618
2013-08-20,1,0.0007250006209221539,0.0007788984498091922,-0.004075357896807032,0.008258069018331485,0.9920309499258886
2013-08-22,1,0.00016704481791078395,0.00021929639376358503,-0.004075357896807032,0.007884253421040304,0.9922879424667982
2013-08-26,-1,-0.00017604805908308163,-7.07345720645821e-05,-0.006021589807182628,0.007884253421040304,0.9920274289907686
2013-08-28,-1,-0.0010809754837685928,-0.0008565340108816855,-0.006021589807182628,0.007884253421040304,0.9928523716633166
2013-08-30,-1,-0.000982057334573268,-0.0007969586817633921,-0.004883496481844047,0.00923910362549865,0.9924882833791517
2013-09-04,-1,-0.000464547439279272,-0.000335046449517374,-0.006219190088206135,0.007223637426993272,0.9928848651311497
2013-09-06,-1,-0.001253790899857367,-0.0010290623655686859,-0.004264316889659972,0.00923910362549865,0.9928299493618234
2013-09-10,-1,-0.0011304557177309867,-0.0008867489065330625,-0.006232939923337845,0.006722329972326918,0.9921689857032335
2013-09-12,-1,-0.00028940092470706834,-0.00019806705683277092,-0.006232939923337845,0.00923910362549865,0.9916523444881262
2013-09-16,1,0.000363136387794073,0.00037899079826827836,-0.006232939923337845,0.0031920622897376586,0.992562030752992
2013-09-18,1,0.0007411380068437822,0.0007525166729937466,-0.006946797366589719,0.0031920622897376586,0.9923452992583424
2013-09-20,1,0.00042070422858141816,0.0004229260742942026,-0.006232939923337845,0.00506077940748329,0.9917447287796237
2013-09-24,1,0.00017783664490960717,0.00021705954938769226,-0.005859757365770393,0.0050639720330412155,0.99196099847156
2013-09-26,1,0.00012226050513110932,0.0001467511614758315,-0.004652094339721999,0.0050639720330412155,0.9921097348232492
2013-09-30,1,0.0006594753012919446,0.0007385061268897471,-0.005859757365770393,0.0056692936879862155,0.9918175407480988
2013-10-02,1,0.0004776218325127032,0.00053351965056611,-0.0056705033695302574,0.009821982680793833,0.991553898297916
2013-10-04,1,0.0011099304560567467,0.0012798510042900263,-0.0056705033695302574,0.005276696497840287,0.9921884185726675
2013-10-08,-1,-0.00018083490671928908,-0.00016206881655233407,-0.0033251622075285026,0.00864330727219613,0.9930742476358979
2013-10-10,1,0.0004756760205710158,0.0005585344291257558,-0.004839658803637471,0.00864330727219613,0.9915757673971312
2013-10-14,1,0.00047338433033553527,0.0005468209216776103,-0.004839658803637471,0.009821982680793833,0.9905932818556379
2013-10-16,1,0.0005136392019458461,0.0006108840710543257,-0.0033251622075285026,0.009821982680793833,0.9909898358665208
2013-10-18,1,0.0007136406811827831,0.0008250411235982309,-0.0033251622075285026,0.009821982680793833,0.9910701803103954
2013-10-22,1,0.0004890851367729135,0.0005405003587192619,-0.0033251622075285026,0.009821982680793833,0.9911975264173754
2013-10-24,1,0.000556632789162447,0.0006222578551957753,-0.004445505798727596,0.009821982680793833,0.9912103713609739
2013-10-28,1,0.0004768788332588467,0.0005041936345673962,-0.004238838631202526,0.00864330727219613,0.9918679152596717
2013-10-30,1,0.0004977957634090795,0.0005428281108437246,-0.0012155042446099355,0.007977972721783825,0.9924671902566026
2013-11-01,1,0.00021971735765837787,0.0002413297267519391,-0.0016398841146545641,0.007977972721783825,0.9923759625586265
2013-11-05,1,0.0009497861612272565,0.0010211534088354038,-0.00465957152131328,0.0031838704493892278,0.9916992263887954
2013-11-07,1,0.0009964037754789865,0.001101615303598253,-0.00465957152131328,0.0031838704493892278,0.9928594899348767
2013-11-11,1,0.001021070804169622,0.0010605541844648774,-0.00465957152131328,0.002012594131828547,0.9936384243221889
2013-11-13,1,0.0015200664904357203,0.0016046737781467602,-0.00554094234767628,0.001104253952332586,0.9934702107032743
2013-11-15,1,0.0009928787587192226,0.001004443003966857,-0.00554094234767628,0.0005934773736470524,0.994522360572455
2013-11-19,1,0.0007868602475176091,0.000826425000612879,-0.00554094234767628,0.001104253952332586,0.9937404072449516
2013-11-21,1,0.0012708574755769713,0.001343132363279083,-0.00554094234767628,0.0012457298851161584,0.9932426794424455
2013-11-25,1,0.0013314156102017783,0.0014384653236498048,-0.00554094234767628,0.002012594131828547,0.9933948609328722
2013-11-27,1,0.001417065695187809,0.0015383132833088951,-0.00554094234767628,0.0007568318868743766,0.9931929024112053
2013-12-02,1,0.0012675718568098584,0.0013815003223841599,-0.005324141307739712,0.0007574243951054519,0.9936112574186435
2013-12-04,1,0.000330292575261095,0.00035083665257625593,-0.0038277816634895733,0.0017514214981687825,0.995199812259388
2013-12-06,1,0.0005497021531014141,0.000559786330887217,-0.0038277816634895733,0.0010238854571508807,0.9959913658975902
2013-12-10,1,0.0004832644066754724,0.00048451382278901043,-0.00416454748891644,0.001552467559886035,0.9957966893464684
2013-12-12,-1,-0.00023511762895906573,-0.00012571437755652697,-0.00416454748891644,0.002555463208576626,0.9955781460616268
2013-12-16,-1,-0.00033473666830360807,-0.00023365501437961993,-0.0025271134861240474,0.004021746844101921,0.9950738692916011
2013-12-18,1,0.0005143124417809957,0.0005170827307518823,-0.0025271134861240474,0.004021746844101921,0.995789818159545
2013-12-20,1,0.000270727336002383,0.00029335047927956564,-0.001466252804844098,0.0039479966904866345,0.9960091365209393
2013-12-24,1,0.000597048871687686,0.000633386581123051,-0.004478904872119134,0.0035134093079892325,0.9949166986281186
2013-12-27,1,0.0007110196112899609,0.0007977816207154211,-0.004478904872119134,0.0046704123152976115,0.9938696073530223
2013-12-31,1,0.0007899745470866762,0.0008991250766860456,-0.0064978196652067405,0.0053783089030180874,0.9923331759085401
2014-01-03,1,0.0006338846909840186,0.0007118541179702996,-0.008009946085495961,0.0053783089030180874,0.9907282914498399
2014-01-07,1,0.00037609473940816045,0.00040687734395065077,-0.008009946085495961,0.0070094877195327285,0.9904458144409695
2014-01-09,1,0.0001491861355435529,0.00016184016220012297,-0.008009946085495961,0.010097159058303145,0.9895766647135841
2014-01-13,-1,-3.810301063542705e-05,-2.0440440947518666e-06,-0.0035603998134898546,0.010272577277932658,0.9895140996613265
2014-01-15,1,0.000387258562759664,0.00039237735324321003,-0.0056707110076872,0.010272577277932658,0.9888241597115348
2014-01-17,1,0.0005410631681502939,0.0005544449927902161,-0.0056707110076872,0.011811012790974336,0.9882148825432853
2014-01-22,1,6.89383390155821e-05,0.00015091161686416768,-0.008075307368565493,0.011811012790974336,0.9876604885368216
2014-01-24,-1,-0.0010319600472482003,-0.000807306254418378,-0.005471822399318939,0.011811012790974336,0.9883995645188421
2014-01-28,1,0.00029283529868779495,0.0003346079758702808,-0.005471822399318939,0.011811012790974336,0.9889427389562332
2014-01-30,-1,-0.0002480065767830796,-0.00010430421070454826,-0.003083310642289319,0.010272577277932658,0.9900541363403748
2014-02-03,-1,-0.0013024504051273537,-0.0010625342431868352,6.206039354302077e-05,0.011811012790974336,0.9902504858008824
2014-02-05,-1,-0.000754917968814853,-0.0005901353482680584,-0.000741834809615463,0.011811012790974336,0.9907301893252269
2014-02-07,1,0.0003770879032909059,0.0003816461334230188,-0.000741834809615463,0.009309878303511468,0.9923167232200805
2014-02-11,1,0.0011894131639052343,0.0013335366181994237,-0.0030485212595428046,0.0070899392857582426,0.9925828885237524
2014-02-13,1,0.0016842616166468341,0.0018595009430812542,-0.0033267218223750794,0.0054066911132406165,0.99335929558767
2014-02-18,1,0.0019882480637105774,0.002192954052128322,-0.0033267218223750794,0.003471230063166122,0.9938166297016965
2014-02-20,1,0.0015858122413641665,0.0017164090682840662,-0.0033267218223750794,0.0036435696756172723,0.9939788275348397
2014-02-24,1,0.001350064505731549,0.0014561422291564318,-0.0035734241801716545,0.005611308970075543,0.9936854957654229
2014-02-26,1,0.0019011887220339143,0.0020678232285849633,-0.007531847449199458,0.005611308970075543,0.9937079505099088
2014-02-28,1,0.002130873460082284,0.0023428249339394764,-0.007531847449199458,0.0057686206657421085,0.9934445522275334
2014-03-04,1,0.0021623759748578605,0.0022974871762497665,-0.007531847449199458,0.006091636772025149,0.9933791182446263
2014-03-06,1,0.0019837452173934334,0.002115449568529636,-0.0038120381103690483,0.006091636772025149,0.9938344153873612
2014-03-10,1,0.0019436600043155811,0.00206475607499613,-0.009372520541341191,0.006091636772025149,0.9921175174300397
2014-03-12,1,0.0013334903750433682,0.001357572899211567,-0.0084567898989934,0.006826119270181823,0.9920410256362832
2014-03-14,1,0.0010516425002079124,0.0010620227256268521,-0.0084567898989934,0.006826119270181823,0.9912149789749392
2014-03-18,1,0.0012162202601207503,0.0012487510606446252,-0.0084567898989934,0.007747584157340502,0.9908206654146481
2014-03-20,1,0.0009943235756848753,0.0009968565185725427,-0.006540712468542514,0.008560898140713969,0.990589555781106
2014-03-24,1,0.000703009955112125,0.0007373746894950468,-0.004621602091798252,0.008560898140713969,0.9909870252017109
2014-03-26,1,0.0005196724588941162,0.0005745579665647797,-0.002841478012702242,0.008560898140713969,0.9914955707606531
2014-03-28,1,0.0010144782096864011,0.0010192206619755867,-0.004330592719863222,0.007852192254417632,0.9918995925855386
2014-04-01,1,0.0020063445823597947,0.0021615464844462716,-0.004330592719863222,0.008579028879811563,0.9916086630780979
2014-04-03,1,0.002223835671502308,0.0024216741598583847,-0.005098692095654384,0.008579028879811563,0.9911448579891217
2014-04-07,1,0.0013849347714585277,0.0015213060404660691,-0.002869914674369864,0.008579028879811563,0.9929755683592957
2014-04-09,1,0.001994201672534869,0.002248346460307984,-0.0030289446756552414,0.008579028879811563,0.9924546555228458
2014-04-11,1,0.0008253379221913355,0.000915109778524914,-0.0024075953312995817,0.008579028879811563,0.9932788591353582
2014-04-15,1,0.0014284022574080526,0.0015970389882962396,-0.004872226114369472,0.007294264626272839,0.9933221800098058
2014-04-17,1,0.0019992773733806517,0.0022335966699141927,-0.005351082838285254,0.004735651198702563,0.9930718292409376
2014-04-22,1,0.0021112597622613177,0.002350208871616021,-0.006397502278227666,0.004464753394516798,0.9925971432740267
2014-04-24,1,0.0020419437064998075,0.0022771221504644485,-0.006397502278227666,0.0072730440012312315,0.9922925502994601
2014-04-28,1,0.0017716462479319857,0.001953920297920085,-0.006397502278227666,0.008923343209800646,0.992154744217104
2014-04-30,1,0.00219212918987593,0.002365277298756509,-0.006397502278227666,0.004464753394516798,0.9932759870822324
2014-05-02,1,0.0019561693941512978,0.0021161425398558446,-0.0055418226223313705,0.005191857229034997,0.993758358704282
2014-05-06,1,0.0018964226383924162,0.002033053933139718,-0.0055418226223313705,0.006508002562545487,0.9933507175273947
2014-05-08,1,0.0018253113630402932,0.001921500822980566,-0.0030113812942705585,0.005191857229034997,0.9945256119862091
2014-05-12,1,0.0013842165740354266,0.0013965353580404746,-0.0016999407254783315,0.006451381330843045,0.9946840910878562
2014-05-14,1,0.0010497330998834706,0.001050905365941465,-0.0006785846188374245,0.006451381330843045,0.9950837745274358
2014-05-16,1,0.0009471679558548623,0.0009623068953717374,-0.0016999407254783315,0.005191857229034997,0.9956690705947423
2014-05-20,1,0.0006998997073964734,0.000740518648159642,-0.0006785846188374245,0.006392550446177094,0.9952694003345299
2014-05-22,1,0.0009378983050663051,0.0009623129274425006,-0.0015797414144596814,0.006392550446177094,0.9948196425883721
2014-05-27,1,0.0009964931224593573,0.00101693371598698,-0.002200186136181628,0.005172246934146346,0.9944558583340067
2014-05-29,1,0.0009397284518650861,0.0009723814747549903,-0.0031992996274936058,0.006081905497836519,0.9941248068722072
2014-06-02,1,0.0009270861643631925,0.0009780359998684848,-0.0031992996274936058,0.006999881999283406,0.9939855194838199
2014-06-04,1,0.0009857477180932853,0.001043897632885085,-0.0031992996274936058,0.006999881999283406,0.9939732001956233
2014-06-06,1,0.0007774964702946186,0.0008743784168927393,-0.0031992996274936058,0.006999881999283406,0.9940381187956949
2014-06-10,1,0.0013120738762411193,0.0013191326753267862,-0.0035389846983111374,0.006081905497836519,0.9937058730713685
2014-06-12,1,0.0010330991407279096,0.0010608442317104469,-0.0035253859393417257,0.006081905497836519,0.9938495488224861
2014-06-16,1,0.0006362142488343429,0.0007119245906460757,-0.0023015038125289663,0.006081905497836519,0.9941693805949183
2014-06-18,1,0.0008985929306470116,0.0010012206345388535,-0.0034612181806474287,0.0032135691074279653,0.9948169006442111
2014-06-20,1,0.0020084829813819954,0.0020839012851390803,-0.004384001881142354,0.0032135691074279653,0.9949179126379739
2014-06-24,1,0.0011611714487467816,0.0012056803756097488,-0.0023015038125289663,0.0032135691074279653,0.9958464817642113
2014-06-26,1,0.00012762069734182908,0.00038332458889095585,-0.0017992439039268265,0.002792665861733802,0.996546375082215
2014-06-30,1,0.0003818701061083043,0.0005973053092288376,-0.002584811618580888,0.0025448248752377406,0.9962779861788134
2014-07-02,1,0.001032175815118174,0.0011255151390462599,-0.004384001881142354,0.0024296907396745646,0.9952999321247833
2014-07-07,1,0.0013225490133513538,0.0013482600595215416,-0.004384001881142354,0.0024296907396745646,0.9951137462309231
2014-07-09,1,0.0010790047078279368,0.00112444532975777,-0.004384001881142354,0.0025448248752377406,0.9922585614499854
2014-07-11,1,0.0010805793063793597,0.0011420952832730427,-0.0045162940327134245,0.0025448248752377406,0.991844062240574
2014-07-15,1,0.0008910123695298637,0.0009139223424807676,-0.0045162940327134245,0.004000577852960383,0.9915575889834883
2014-07-17,1,0.0003273381941302321,0.0003923858463505339,-0.0024187846145246185,0.008036061890003332,0.9915101528756411
2014-07-21,1,0.000842939508626955,0.000878138475922048,-0.0024187846145246185,0.008107750642407461,0.991472063380684
2014-07-23,1,0.000773786478871441,0.0007983272121490876,-0.0045597864184982505,0.008107750642407461,0.9909900754026664
2014-07-25,1,0.0011290006258993304,0.001245333497330065,-0.00479204657241914,0.008107750642407461,0.9907685230520359
2014-07-29,1,0.0005270648878560893,0.0005330167555866769,-0.0045597864184982505,0.008107750642407461,0.991163352745734
2014-07-31,-1,-6.588807870180858e-05,-3.193694979759798e-06,-0.002261365621439136,0.008107750642407461,0.99203624151464
2014-08-04,1,9.847495512646241e-05,0.00016483065783629345,-0.0029675369499028107,0.0074533123774579695,0.9922271899701468
2014-08-06,-1,-0.0011779524621632646,-0.0009422294718460722,-0.0029675369499028107,0.0059336161775218384,0.9949671942437417
2014-08-08,-1,-0.0009669109171117571,-0.0007671750406993718,-0.0017547008933296436,0.005337942833797057,0.9956085464863627
2014-08-12,-1,-0.0008858994131664627,-0.0006932951861730739,-0.003039792234169774,0.004289604800096503,0.9949374140585567
2014-08-14,-1,-0.0008976316254116373,-0.0006917065711836848,-0.00479204657241914,0.0035098512747826945,0.9950697581433798
2014-08-18,-1,-0.000905893873455914,-0.0006894179373043386,-0.003055286535289774,0.0035098512747826945,0.9951693490037564
2014-08-20,-1,-0.0006319406291320424,-0.00047751548680786574,-0.0017306368907485682,0.0035098512747826945,0.9951483170233332
2014-08-22,-1,-0.0003588689837475831,-0.00026858347809719603,-0.0017306368907485682,0.0032054674056893363,0.9949686227023001
2014-08-26,-1,-0.0003814131595886521,-0.0002888348565889269,-0.0036218373549351014,0.0032054674056893363,0.9941115294285146
2014-08-28,-1,-0.000713828834019707,-0.0005328117629927882,-0.007472430921607341,0.0032054674056893363,0.992841105771876
2014-09-02,-1,-0.0005167416926454536,-0.00038071007973315045,-0.008705323437560916,0.0023452817126984127,0.9927244790993885
2014-09-04,-1,-0.001305122846591105,-0.001024411920110213,-0.00999786320206332,0.0023452817126984127,0.9920090131047374
2014-09-08,-1,-0.0010550012285612314,-0.0008311414583526029,-0.00999786320206332,0.003448345341943002,0.9917111308830331
2014-09-10,-1,-0.0014142365845687627,-0.0011698001259487325,-0.00999786320206332,0.0047609882395746456,0.9912691418726565
2014-09-12,-1,-0.0015424148294861828,-0.001292283405669541,-0.013074314150157763,0.0047609882395746456,0.9908603337482865
2014-09-16,-1,-0.001220529094684935,-0.001004002465759124,-0.013074314150157763,0.0047609882395746456,0.990266424863314
2014-09-18,-1,-0.0008421354781795388,-0.0006716605501181854,-0.013074314150157763,0.005497292000485375,0.9902842313265536
2014-09-22,-1,-0.0006986557274511682,-0.0005938631924605008,-0.010807382855827934,0.008057163821856006,0.9899870894351043
2014-09-24,-1,-0.0015536542258291824,-0.0013221634379232791,-0.009242219437286711,0.008460332190869531,0.989613471930115
2014-09-26,-1,-0.0015870414103288715,-0.0013599371787738706,-0.009242219437286711,0.008460332190869531,0.989804104921782
2014-09-30,-1,-0.0017766635978622761,-0.001540220140001675,-0.010807382855827934,0.009985574597126694,0.9876164023162928
2014-10-02,-1,-0.0020168791311265108,-0.001747785340350509,-0.010807382855827934,0.009985574597126694,0.9874817828990061
2014-10-06,-1,-0.0024972997346713426,-0.002151121599228158,-0.010956874743189418,0.01242712737514047,0.986380646155597
2014-10-08,-1,-0.0018936069776473645,-0.0016290573046885358,-0.011302086777861988,0.01242712737514047,0.9856627337496299
2014-10-10,-1,-0.0028187401603690485,-0.0024348254228395644,-0.009734555937668463,0.014693323186688194,0.9854642489034308
2014-10-14,-1,-0.002340465827067248,-0.0020289978490063334,-0.007048357768138187,0.012398969544288391,0.9860339039883578
2014-10-16,-1,-0.0016791037250658176,-0.0014545096279773993,-0.007048357768138187,0.012398969544288391,0.986744713275497
2014-10-20,-1,-0.0012741473826356348,-0.0011038671556943469,-0.011302086777861988,0.012398969544288391,0.9869241224774137
2014-10-22,-1,-0.0009007009222053546,-0.0007841073359869188,-0.011302086777861988,0.008954351334788955,0.9877631860272181
2014-10-24,-1,-0.0006259078536999611,-0.0005583236004603482,-0.004064650633141342,0.008603777193036014,0.9882817281126162
2014-10-28,1,9.665634883004493e-05,0.0001172818491256269,-0.0036234269585030897,0.005853707445678445,0.9906152072067445
2014-10-30,-1,-0.0005227592683006942,-0.0004806962399699497,-0.002467411585447686,0.008603777193036014,0.9909652566674441
2014-11-03,-1,-0.00030739553318978813,-0.00027943889755765506,-0.0016682771901835726,0.007523114040343861,0.9920649726424027
2014-11-05,-1,-0.0003992846952902558,-0.00035185109358421755,-0.0011432241640057738,0.007010696151478115,0.9938937588826219
2014-11-07,1,0.00028524250889115215,0.0003786182593370362,-0.0012954156236707403,0.006129672726293027,0.9944379182166054
2014-11-11,1,0.000937227596134335,0.001155069457741817,-0.002467411585447686,0.006129672726293027,0.9938958815587737
2014-11-13,1,0.0005958672143552908,0.0007192749212516579,-0.0036234269585030897,0.007010696151478115,0.9923327459821705
2014-11-17,1,0.00021781834152980915,0.0003042265839457794,-0.004066176748094312,0.007010696151478115,0.9925401208673044
2014-11-19,1,0.0004947414423729695,0.0006323787096571803,-0.004066176748094312,0.008068946433807652,0.9912617337316528
2014-11-21,1,0.0009816252927602642,0.0011941484866826897,-0.004066176748094312,0.007010696151478115,0.9919230728546535
2014-11-25,1,0.0008100570499847183,0.0010028979400452907,-0.0013524560387622388,0.0070876038723096885,0.9919831521831232
2014-11-28,1,0.0013194140174530222,0.001566398915472562,-0.0031566483439496315,0.006129672726293027,0.9926133409900553
2014-12-02,1,0.0015564343210922266,0.0018349925637006778,-0.005282619223313386,0.005636977096436856,0.9919138380422797
2014-12-04,1,0.0018762079027348105,0.0021977501076300057,-0.00880744045476624,0.003877641978023385,0.9910170136145094
2014-12-08,1,0.0015044451763621498,0.001762600284064328,-0.010564093503533347,0.005919160704095415,0.9905370309168545
2014-12-10,1,0.0012095556082378344,0.0014394227636000748,-0.006271944995273779,0.007722105762875454,0.9904289015185873
2014-12-12,1,0.0009299603329922681,0.0011237888767812198,-0.006271944995273779,0.007722105762875454,0.9906753300512132
2014-12-16,1,0.0006309195137976449,0.0007844420399497686,-0.0036543093872464837,0.011465742645966458,0.9903610353120785
2014-12-18,1,0.0016752673181471877,0.0019518627354579315,-0.0036543093872464837,0.010183966309833432,0.991363571549372
2014-12-22,1,0.001354301925731555,0.0015546172974807246,-0.005516582746674949,0.011465742645966458,0.9892487775013505
2014-12-24,1,0.0018980969099698516,0.002198971210000051,-0.007798424747025096,0.011465742645966458,0.9882426373691207
2014-12-29,1,0.0013096954689387533,0.0014652640527246133,-0.012553051585136482,0.011465742645966458,0.9870398483188758
2014-12-31,1,0.0007219919373403584,0.0008083230371959838,-0.010778613200856211,0.013108344587235365,0.9870208969377124
2015-01-05,1,0.000207713857111887,0.00023761342530812728,-0.007798424747025096,0.013108344587235365,0.9871305711930382
2015-01-07,1,0.0003464639400319922,0.0004126112842195,-0.006588411607388794,0.013108344587235365,0.987707500897265
2015-01-09,1,0.001363491436208439,0.0015721563263427745,-0.007798424747025096,0.01171927334063836,0.9883865861541676
2015-01-13,1,0.0015892365315360998,0.0018261250567334682,-0.007405808000408692,0.01117184142229862,0.9890778409112498
2015-01-15,1,0.0021940367343773553,0.0025052050499923596,-0.007405808000408692,0.012226640916231853,0.9858347525982603
2015-01-20,1,0.0028899325789710677,0.003290191943286439,-0.007405808000408692,0.009703610879194477,0.9864019040582547
2015-01-22,1,0.004070923299795787,0.004638357255380835,-0.0070226636751455065,0.010974596994320332,0.9878060871472426
2015-01-26,1,0.0031029365143285977,0.0035401644433428513,-0.003629069454792931,0.011435243650042346,0.9885044699136607
2015-01-28,1,0.002035106107694143,0.002324716322072101,-0.001659788902176551,0.011435243650042346,0.9893065600484104
2015-01-30,1,0.002274454929777989,0.002594709511738963,-0.0005141592233159754,0.010974596994320332,0.9901033488472842
2015-02-03,1,0.0024584562357913386,0.0027561417541102813,-0.002979465982344481,0.009553352504977748,0.9898700584745483
2015-02-05,1,0.002395417996596816,0.0026657613620169798,-0.0044460772151527755,0.009553352504977748,0.9892662239690061
2015-02-09,1,0.002053412177715718,0.002296286254423542,-0.0044460772151527755,0.010984468527392155,0.9882962904024551
2015-02-11,1,0.002081096756587901,0.002352062860155355,-0.003644130521308298,0.012127759465070689,0.9878453942990313
2015-02-13,1,0.004660086533419294,0.0052414442184074515,-0.0044460772151527755,0.009553352504977748,0.9907381221258719
2015-02-18,1,0.004451489329026463,0.004961167124108249,-0.006847317618265597,0.00874215467921637,0.9902775057475088
2015-02-20,1,0.00500749833230062,0.005570470734814471,-0.006847317618265597,0.00717889984300564,0.9904309196333376
2015-02-24,1,0.004883913781212877,0.005400440812948715,-0.006847317618265597,0.0038805422740563443,0.9903990953566242
2015-02-26,1,0.004228443472903013,0.004628373878581554,-0.008887768539778039,0.0038805422740563443,0.9898639239398016
2015-03-02,1,0.0043101664061051224,0.004704023479809915,-0.008887768539778039,0.005096877901074746,0.9897739872643624
2015-03-04,1,0.0035844816544995757,0.003885106960815848,-0.009190974164627977,0.005096877901074746,0.9900791877804782
2015-03-06,1,0.002354652847434148,0.002440824652881976,-0.0050371214126708145,0.00865555073662088,0.9911475208728867
2015-03-10,1,0.001867114942068441,0.0018861463036603725,-0.0036344412244443953,0.005096877901074746,0.9927398057921962
2015-03-12,1,0.0024614737171618282,0.0025815647631271094,-0.0036344412244443953,0.004585782751051439,0.993564029472347
2015-03-16,1,0.002347018842598955,0.0024716497761693938,-0.003340520134818942,0.0037212712892492916,0.9943234310873308
2015-03-18,1,0.0022007424656348075,0.002324356507194034,-0.0023252059098091676,0.0037212712892492916,0.9946106427376596
2015-03-20,1,0.0022878199691005307,0.0024165943383130956,-0.003340520134818942,0.0037212712892492916,0.9935062415090062
2015-03-24,1,0.0022369926930435194,0.0023852156042099316,-0.004523261522145846,0.0037212712892492916,0.9929929445437251
2015-03-26,1,0.0009419788994049895,0.0010033397820412677,-0.004291159845543812,0.004334966297191521,0.9941752139569313
2015-03-30,1,0.0015026260746586275,0.0015241143906759385,-0.004291159845543812,0.003943098173536915,0.9943064646341481
2015-04-01,1,0.0007884050390093689,0.0008714821690471697,-0.006097361315005863,0.003943098173536915,0.9942121885412796
2015-04-06,1,0.0013121611120023551,0.001319649865606866,-0.006097361315005863,0.005251263403914309,0.9932699172306164
2015-04-08,1,0.0011476063427977355,0.0011624408996299843,-0.006408658445822765,0.006159689034965426,0.9922899844336496
2015-04-10,1,0.0012493389987476178,0.0012545531411264142,-0.006408658445822765,0.0066953028916036566,0.9920849779349056
2015-04-14,1,0.0005922904015508484,0.0007092738336434412,-0.0071346172428818355,0.0066953028916036566,0.9901742173816611
2015-04-16,1,0.0003801196181140461,0.000508731937681861,-0.008622256110718025,0.007753706795067315,0.9885908312355871
2015-04-20,1,0.00023013412498820376,0.0003589158117259906,-0.0071346172428818355,0.0066953028916036566,0.9899320855987814
2015-04-22,-1,-0.000524627434010505,-0.0002906464761746558,-0.006097361315005863,0.007753706795067315,0.9896511123239002
2015-04-24,-1,-0.00035594410122787425,-0.00016540345463416674,-0.002492367270087445,0.007753706795067315,0.9898339056118228
2015-04-28,1,1.885975247869359e-06,0.00014006815184566416,-0.007193695329536696,0.01095593834481073,0.9891311780329294
2015-04-30,-1,-0.0005715372193951832,-0.0003774790450475162,-0.0014567170588994515,0.01095593834481073,0.9896453504251652
2015-05-04,1,0.0001400188441234684,0.0002673874879306575,-0.009469677159941552,0.007238344831178021,0.9901809200408671
2015-05-06,-1,-0.0002577681180312994,-5.4498937454432704e-05,-0.011134622677316176,0.005521404396379087,0.9898257849025425
2015-05-08,-1,-0.0003372296232243033,-0.00010096487217784377,-0.012281485661022558,0.0041632790511474515,0.9895001017752941
2015-05-12,-1,-0.0021680205898214205,-0.001692397885132853,-0.01094418048857952,0.005521404396379087,0.9910459825439001
2015-05-14,-1,-0.0012745394065131943,-0.0009633176979488204,-0.01017745266750611,0.005367129473210866,0.9919393782815628
2015-05-18,-1,-0.0013674373965609538,-0.001044466857825927,-0.01017745266750611,0.005748383981585697,0.9909122135642902
2015-05-20,-1,-0.0006590845859213926,-0.0004258921668167223,-0.01017745266750611,0.005748383981585697,0.9908312338658067
2015-05-22,-1,-0.0006987334063157224,-0.0004497139015455544,-0.01017745266750611,0.005768882375255203,0.9907030976408278
2015-05-27,-1,-0.001052758943164658,-0.0007279836274891346,-0.009341530439995568,0.004238938912882988,0.9917408833131682
2015-05-29,-1,-0.0015968154081147283,-0.001172858566117714,-0.009341530439995568,0.0036908949413473834,0.9921025774097272
2015-06-02,-1,-0.0025097966407047426,-0.0019768778387093877,-0.009038197069734634,0.0036908949413473834,0.9917388589702422
2015-06-04,-1,-0.0031568035311370594,-0.0025921406292787907,-0.0056971946830341215,0.005768882375255203,0.9924574052181504
2015-06-08,-1,-0.003791873066642309,-0.003158573319569923,-0.005024010373369715,0.005768882375255203,0.9926924627862812
2015-06-10,-1,-0.0031932877674754213,-0.002665928558114243,-0.005137450089954076,0.004579763272983731,0.9927904271886996
2015-06-12,-1,-0.0029546053601292536,-0.002488523132097694,-0.004677586449315775,0.006847269978805944,0.9916314678749877
2015-06-16,-1,-0.0020423423809297126,-0.0017327795788398596,-0.004262050300186932,0.004968787461084792,0.9926538260411446
2015-06-18,-1,-0.0019287884056397916,-0.00159532064829863,-0.004677586449315775,0.0048596718526131835,0.9932153563015671
2015-06-22,-1,-0.0024769711272879143,-0.0020347643347494527,-0.005137450089954076,0.00431306496826026,0.9932622247169702
2015-06-24,-1,-0.0026419408394573953,-0.002190613815082528,-0.004542612929751995,0.0048596718526131835,0.992856837484338
2015-06-26,-1,-0.002417565790025173,-0.0020154226851977256,-0.0058485840327457475,0.0048596718526131835,0.992655237790739
2015-06-30,-1,-0.0032914423748400057,-0.002794722230970057,-0.004542612929751995,0.006415610778468934,0.9920693307948686
2015-07-02,-1,-0.0032755290609075964,-0.0027603294246978227,-0.004542612929751995,0.006415610778468934,0.9921173110527126
2015-07-07,-1,-0.0035798497038845136,-0.0030220036523432607,-0.0029199625969203308,0.0064662539941880435,0.9917614235306728
2015-07-09,-1,-0.001922200232162391,-0.0017016365929116662,-0.0029199625969203308,0.007789957653721412,0.9921862451262758
2015-07-13,-1,-0.0006053493700651807,-0.0005563238884406592,-0.0029199625969203308,0.0064662539941880435,0.9931823243461773
2015-07-15,-1,-0.00010336358484668527,-5.1723057009672854e-05,-0.003604557818569158,0.0064662539941880435,0.9916110418497671
2015-07-17,1,7.664571403665594e-05,0.00016880421397987683,-0.003181563897942937,0.007789957653721412,0.9915044270098602
2015-07-21,-1,-0.00017919247227869993,-0.00012824878691783333,-0.0025611450362906054,0.007789957653721412,0.9914077867938113
2015-07-23,1,0.00011487449122846421,0.0002183580612438445,-0.00517740016082102,0.007789957653721412,0.9902979976471443
2015-07-27,-1,-0.0002255631838751452,-0.00018469649067604885,-0.00517740016082102,0.007789957653721412,0.988983081615646
2015-07-29,1,0.00027101933111645614,0.00034270127485854277,-0.007444715101973239,0.006604472246561414,0.9892028926824732
2015-07-31,1,0.00033662462898986317,0.00040337096889433776,-0.007444715101973239,0.007070540874458072,0.9887107059758545
2015-08-04,1,0.0006064373640207154,0.000730112113947906,-0.012395184609143066,0.006648893097708245,0.9869633983498861
2015-08-06,1,0.0005960343804006234,0.0007106545628061864,-0.012395184609143066,0.009153160102537843,0.986417151109287
2015-08-10,1,0.0008300497048019332,0.0009651037914226374,-0.01415316845415032,0.009153160102537843,0.9853600617752786
2015-08-12,1,0.0002564871384313415,0.0003325962866039274,-0.013071317767837386,0.009153160102537843,0.9865484922520297
2015-08-14,1,0.00035086344686814197,0.00043755502064097987,-0.013071317767837386,0.006343650824411473,0.9867309323382386
2015-08-18,1,0.00030731373294709194,0.00036267468497785797,-0.013071317767837386,0.009833532152923201,0.9865049035184247
2015-08-20,-1,-6.742056396714187e-05,-4.457745522600166e-05,-0.013071317767837386,0.009833532152923201,0.9869232637401172
2015-08-24,-1,-0.0008295893992937201,-0.0007489855451393228,-0.010247621789848014,0.009833532152923201,0.9878712335355727
2015-08-26,-1,-0.0004593179778098691,-0.0004357820027829025,-0.010247621789848014,0.00855884219247981,0.9888998071490118
2015-08-28,-1,-0.00012276453494865198,-0.00010762110809101801,-0.013071317767837386,0.00855884219247981,0.9869581984683288
2015-09-01,-1,-0.0008726766594716591,-0.000809320658473485,-0.009357676087000236,0.008926012457135191,0.9877410264547231
2015-09-03,-1,-0.00022376293619457837,-0.0002077527395586535,-0.009357676087000236,0.00863693682037393,0.9875497156652956
2015-09-08,-1,-0.0002458518543524075,-0.00022853348836696742,-0.0059033507866618285,0.00863693682037393,0.9889764787286928
2015-09-10,-1,-0.0007234472446121527,-0.0006757604479193961,-0.002496649781794899,0.010067816036605557,0.988925882752162
2015-09-14,-1,-0.0010818084135678656,-0.0009781948966940525,-0.002140785113301122,0.010067816036605557,0.9889511582271283
2015-09-16,-1,-0.0007028170504877015,-0.0006438083402923288,-0.00222968671343775,0.00863693682037393,0.9896520785043665
2015-09-18,-1,-0.0010640933391751096,-0.0009751734050605811,-0.002140785113301122,0.010709994850438088,0.9894118790731303
2015-09-22,-1,-0.0012764641988732067,-0.0011438736672766427,-0.001726479663922549,0.010709994850438088,0.9899625414166281
2015-09-24,-1,-0.0008395994007976127,-0.0007924937619538388,-0.001726479663922549,0.013116764998943795,0.9889840601460408
2015-09-28,-1,-0.0017125597184817934,-0.0015663205756132777,-0.0016567497205037395,0.013116764998943795,0.990950334072659
2015-09-30,-1,-0.0008422687076409341,-0.000813777845980663,-0.0019162674240174535,0.012115149421089502,0.9916204101900126
2015-10-02,-1,-0.0005582066899276153,-0.000519074506751679,-0.0019162674240174535,0.010543890111821231,0.9929638752365423
2015-10-06,-1,-0.0001875876048065444,-0.00017429622672153215,-0.0016567497205037395,0.009965741277744666,0.9937397439537909
2015-10-08,1,0.0001633962441108522,0.00022685696904658408,-0.0016469983851299462,0.006380753039055218,0.994695874715709
2015-10-12,1,0.0005310210018483767,0.0006697494960626914,-0.001817283474477264,0.008506891191382536,0.9934454322914563
2015-10-14,1,0.0006165907882193263,0.0007759591057767924,-0.001817283474477264,0.009965741277744666,0.9924347780095226
2015-10-16,1,0.0011319540647150034,0.001362818569860428,-0.00537926312410801,0.005580815051584534,0.9916216039516771
2015-10-20,1,0.001262501746337178,0.001516629438428274,-0.00537926312410801,0.008755284244784337,0.9903957014357565
2015-10-22,1,0.0012263324366042273,0.0014491111407974996,-0.0024803373347185476,0.008755284244784337,0.9908129585978563
2015-10-26,1,0.000978786477272573,0.0011244283156632063,-0.0049622898390583115,0.009168787113071761,0.9903914003991225
2015-10-28,1,0.0008308358493518814,0.0009323719206124769,-0.0024510833285971674,0.009447793088465176,0.9907274904229969
2015-10-30,1,0.001021890078558488,0.0011528780251820426,-0.0035902462359883145,0.009447793088465176,0.9908789454083512
2015-11-03,1,0.0009832147321768325,0.0011019364365461614,-0.0049622898390583115,0.012901529031006546,0.9894756345300247
2015-11-05,1,0.0009900285743458602,0.0011188066481723,-0.0076647944732431954,0.013824119554050614,0.9882897777403048
2015-11-09,1,0.0008516819227348532,0.0009852639326316775,-0.0049622898390583115,0.013824119554050614,0.9896502852695869
2015-11-11,1,0.001184784290470868,0.0013640559417335116,-0.0076647944732431954,0.012901529031006546,0.9896831733919333
2015-11-13,1,0.00035665012543542704,0.00041681144486819784,-0.0041707991779683685,0.012901529031006546,0.9904375708477992
2015-11-17,1,0.0010512261316276785,0.001202328188121418,-0.0041707991779683685,0.013676230371540922,0.9902367115129278
2015-11-19,1,0.0011528683958492464,0.0012753724099293627,-0.011168688140472009,0.012901529031006546,0.9889294978342174
2015-11-23,1,0.0013617438796975332,0.0015226890071044995,-0.011168688140472009,0.013676230371540922,0.9884822414543256
2015-11-25,1,0.0015636602718611442,0.0017398381354673442,-0.011168688140472009,0.012735120935522084,0.9889491610278006
2015-11-30,1,0.0013815700653495614,0.001520507426527757,-0.011168688140472009,0.012735120935522084,0.9888863310222004
2015-12-02,1,0.001810911752351965,0.0020522433293812888,-0.008730370538445635,0.007711039970313832,0.9895740943247694
2015-12-04,1,0.001928753274831066,0.002184193063782611,-0.0094577983015079,0.006704829309771191,0.989908052439448
2015-12-08,1,0.0018181239101673833,0.0020561300880084813,-0.013792441953093322,0.006704829309771191,0.9890448327266531
2015-12-10,1,0.001124092374076261,0.0012551886586604402,-0.0094577983015079,0.00846946734958353,0.9896571920156896
2015-12-14,1,0.0007715791655065305,0.0008619388845125305,-0.0094577983015079,0.00846946734958353,0.9893516177826447
2015-12-16,1,0.001512394847643833,0.0016851425894488666,-0.013792441953093322,0.006704829309771191,0.9899358862744964
2015-12-18,1,0.0008847663621501633,0.0010168302008721473,-0.013792441953093322,0.006704829309771191,0.9905137705979467
2015-12-22,1,0.001650145287333547,0.0018943981487522686,-0.013792441953093322,0.006126795682892519,0.9908361361256068
2015-12-24,1,0.0015348374901935158,0.0017638563207209362,-0.014844142526142865,0.006704829309771191,0.9886900039170209
2015-12-29,1,0.0017487975918755883,0.0020097279940897855,-0.014844142526142865,0.006433583594877352,0.9884914045227033
2015-12-31,1,0.0018215428153495511,0.002120019758957085,-0.014844142526142865,0.010182674242862105,0.9867773874144975
2016-01-05,1,0.0011636121363542062,0.0013182689881469896,-0.014844142526142865,0.011457942071170334,0.9858892144912063
2016-01-07,1,0.0007940323499687606,0.0009059359300878065,-0.015152049827633952,0.011457942071170334,0.9859131323778287
2016-01-11,1,0.0011334683121591576,0.0013037919842252123,-0.015717232944335968,0.010638326052875392,0.9853628690654083
2016-01-13,1,0.0004866640450947293,0.0005261127382946296,-0.015717232944335968,0.010638326052875392,0.9810163337257959
2016-01-15,-1,-0.00023759050467940914,-0.0001505780415560261,-0.015152049827633952,0.012947480191998482,0.9792712743025448
2016-01-20,-1,-0.0008786372914310571,-0.0007252020031615794,-0.01106052979929376,0.012947480191998482,0.9802737361633286
2016-01-22,-1,-0.00016879251085496002,-0.00011813929169858249,-0.01106052979929376,0.007712181727177296,0.9811614107903343
2016-01-26,-1,-0.0012604790651564231,-0.0010314966475349335,-0.01106052979929376,0.007712181727177296,0.9813880437062764
2016-01-28,-1,-0.0008263330551395267,-0.0006797943380944904,-0.011612972811475403,0.007435082048060099,0.9808671508181207
2016-02-01,1,0.00047981558131360996,0.000480614037620369,-0.011612972811475403,0.002824600054916245,0.9812036732457327
2016-02-03,1,0.0005757947444993546,0.000588089612393236,-0.011612972811475403,0.0005428397267056914,0.982340072938012
2016-02-05,1,6.90653971826076e-05,0.0001553586040061637,-0.00922836407461098,0.0006126008067597734,0.9830508967376914
2016-02-09,-1,-0.0003329832981726176,-0.00021475648564576305,-0.008121126076127617,0.004047654480487436,0.9838871837685826
2016-02-11,-1,-0.0036055124109977948,-0.0030744024964989266,-0.006754238620934865,0.008210405471004626,0.9880544123405256
2016-02-16,-1,-0.0021110257350459125,-0.0017526209036217038,-0.006754238620934865,0.004125013799779594,0.9910559283165736
2016-02-18,-1,-0.0024871440970947053,-0.002079622116409493,-0.0066244445636208776,0.01081526667249797,0.9899280388850558
2016-02-22,-1,-0.0031169306026698237,-0.002588408482380977,-0.0066244445636208776,0.01081526667249797,0.9892473204267758
2016-02-24,-1,-0.0025106785462249144,-0.002085013245805293,-0.0066244445636208776,0.008925622907920983,0.9906533808358667
2016-02-26,-1,-0.0024315135306510038,-0.002058342778603824,-0.0010619720807010001,0.008925622907920983,0.9909556991761287
2016-03-01,-1,-0.0017249523176058156,-0.0014458821416512562,-0.000661280267176182,0.008365184338998568,0.9927209580045806
2016-03-03,-1,-0.0018788045419524271,-0.0015971550473789407,7.296541249895917e-05,0.008925622907920983,0.9916535620565998
2016-03-07,-1,-0.0015652822753935507,-0.001324460108035037,-0.0022301114737546877,0.008365184338998568,0.9922905005209621
2016-03-09,-1,-0.0013533527069536774,-0.00113537707429368,-0.003674705880498235,0.008925622907920983,0.9912234562119401
2016-03-11,-1,-0.0004654357391490542,-0.00037785979386899585,-0.003674705880498235,0.008591051814983895,0.9920046408693435
2016-03-15,-1,-0.00038405925742219675,-0.00030782571166383237,-0.003674705880498235,0.009889924144360329,0.9910782266134298
2016-03-17,1,0.0002684468232079636,0.00027891754863430124,-0.004440206260669533,0.008591051814983895,0.9917290442995818
2016-03-21,1,0.0005405058546904876,0.0005964748340651243,-0.004440206260669533,0.009243631424894276,0.9913083976847433
2016-03-23,1,0.0004876372884257959,0.0005399058575440125,-0.004440206260669533,0.009243631424894276,0.9912806311059754
2016-03-28,1,0.000607511807575562,0.0006863966796178063,-0.004811605583075301,0.009243631424894276,0.991173610828297
2016-03-30,1,0.0007358109675567562,0.0008320783355085148,-0.004811605583075301,0.009243631424894276,0.991548749728795
2016-04-01,1,0.0010311817260323488,0.0011631365405264861,-0.004811605583075301,0.008705468720121347,0.9926400901476286
2016-04-05,1,0.000611313432717408,0.0006653147238597526,-0.0042130191944596785,0.008705468720121347,0.9927782969291996
2016-04-07,1,0.0010064133039945095,0.0011313082944931683,-0.0042130191944596785,0.006419089523182463,0.9942122189213831
2016-04-11,1,0.0006680292054777517,0.0006981721088597967,-0.0042130191944596785,0.006419089523182463,0.9941879552103611
2016-04-13,1,0.0014926628808167503,0.0016727685904482014,-0.0056573598986707765,0.00560712095491896,0.9915213324173086
2016-04-15,1,0.001692134020655674,0.0019245422638938165,-0.004286066877814033,0.0063267693659532056,0.9910828754898362
2016-04-19,1,0.002126582806794895,0.0024225970234174584,-0.004286066877814033,0.003528490933580532,0.990984943141292
2016-04-21,1,0.0018566082819082394,0.002134326500344801,-0.004286066877814033,0.006886996474673031,0.991271180315746
2016-04-25,1,0.0018078076815068562,0.0020752745389828837,-0.0026995616278274147,0.0048391398390776885,0.99161110086516
2016-04-27,1,0.0018086864741183835,0.0020791879696273803,-0.0026995616278274147,0.007090700710071826,0.991542902088873
2016-04-29,1,0.0017125019528242361,0.001978387149686654,-0.0012312442208420441,0.007090700710071826,0.9918896671784164
2016-05-03,1,0.0016504397271201693,0.001904858286646865,-0.0012312442208420441,0.007090700710071826,0.9918765516164997
2016-05-05,1,0.0012018962163690013,0.0013663787335849113,-0.0018084985910622935,0.007090700710071826,0.992008631528973
2016-05-09,1,0.0011981101997897334,0.0013388775173772045,-0.0018084985910622935,0.005478612378635667,0.9922197573559374
2016-05-11,1,0.0022336466509992464,0.002559056287380332,-0.0018084985910622935,0.005478612378635667,0.9948220005442212
2016-05-13,1,0.002091137973458726,0.002341646865684858,-0.002709629512686367,0.0043194394438663755,0.9946171969711832
2016-05-17,1,0.0025359222761080677,0.002880634586724814,-0.003920196240010664,0.003378558146985366,0.994549355435925
2016-05-19,1,0.0026125936121356216,0.0029695884515632777,-0.0030679579579269887,0.0027298259527395465,0.9948231768524356
2016-05-23,1,0.002640920757764103,0.003010907126406134,-0.0030679579579269887,0.003378558146985366,0.9946566434059066
2016-05-25,1,0.0025887426452400734,0.002933687688439516,-0.0033284972700305853,0.0029824791480624908,0.9945246816682426
2016-05-27,1,0.0025285827706162806,0.0028549522303852573,-0.008286132642384803,0.0023826917516898425,0.9914339334470458
2016-06-01,1,0.002172715912351959,0.002423342378911404,-0.008286132642384803,0.0043194394438663755,0.9904984422486354
2016-06-03,1,0.002109002657364382,0.0023583928586919964,-0.008286132642384803,0.0068730969794418995,0.9900563154160866
2016-06-07,1,0.002034904257006592,0.0022546599723601416,-0.008286132642384803,0.010613625803571926,0.989661239203774
2016-06-09,1,0.0019728571580439926,0.0021704446064493964,-0.0045640464438026435,0.010745200707437065,0.9899062963997741
2016-06-13,1,0.0010822877700130064,0.001119029801427781,-0.002848255276855768,0.012288842321729967,0.990214410056828
2016-06-15,1,0.0010734282688587304,0.0011262252905474457,-0.002848255276855768,0.012288842321729967,0.9901949219915703
2016-06-17,1,0.0005909773277753235,0.0006309422535638457,-0.001542924669131577,0.012288842321729967,0.990360008485841
2016-06-21,1,0.0008621805217497683,0.0008713943387251046,-0.001542924669131577,0.011305249724961268,0.9904857308648372
2016-06-23,1,0.0014247579338427655,0.0015635668440650361,-0.001542924669131577,0.011305249724961268,0.9901695682144399
2016-06-27,1,0.00020838919146151235,0.00020948259312178317,-0.0005274649281680935,0.011305249724961268,0.9920507466277924
2016-06-29,1,0.0008372741714114014,0.0009066636026633207,-0.001542924669131577,0.009412554340052424,0.9934902546143031
2016-07-01,1,0.0008874378383833387,0.0009324729629667081,-0.001542924669131577,0.008823386590756214,0.9943472984480217
2016-07-06,-1,-0.0009435091264613513,-0.0005430908231868171,-0.0017948457177917171,0.008749170855263944,0.9940055644251089
2016-07-08,1,0.0008218246964285651,0.0009209629007478045,-0.003753662964551913,0.008749170855263944,0.9940126471410583
2016-07-12,1,0.0007999714891929455,0.0009232823880187017,-0.004476454891528157,0.008749170855263944,0.9929320167006893
2016-07-14,1,0.0006363850485996477,0.0007780556016400691,-0.006172182727876033,0.008749170855263944,0.9930141767543633
2016-07-18,1,0.0006484061777808886,0.0007704632890731683,-0.006172182727876033,0.008749170855263944,0.9928386155512242
2016-07-20,1,0.0004393392855074269,0.0006229458260443578,-0.006618151529796925,0.004949302522767013,0.9927126226623403
2016-07-22,1,0.0006887279901102643,0.000820038298361926,-0.006172182727876033,0.008879801736405478,0.9923473950730525
2016-07-26,1,0.00025855501712119015,0.0004722870583637377,-0.004463617863936312,0.004968107571316768,0.9929672574455901
2016-07-28,0,-3.696758069380917e-05,0.00020025424622494145,-0.0034554650849183406,0.005900761831564615,0.9930637459060464
2016-08-01,0,-4.5798412331179614e-05,0.00018359934292255385,-0.004463617863936312,0.007864049299240786,0.9919871726348818
2016-08-03,1,0.00035350813410472016,0.0005115520365090065,-0.004020707697034299,0.0073440807012981404,0.992282714986633
2016-08-05,1,0.00018317329775034133,0.00036262058272356614,-0.0020761192329447013,0.005518208587434305,0.9932176785474317
2016-08-09,1,0.0010420188777098475,0.0010865014578340722,-0.001603529686009678,0.0045937331696947244,0.9948838213174734
2016-08-11,1,0.0009500967690990658,0.0009968663724516764,-0.0020761192329447013,0.0045937331696947244,0.993635098105274
2016-08-15,1,0.0006840029647662423,0.0007754425938559407,-0.001603529686009678,0.0045937331696947244,0.9938254546000529
2016-08-17,1,0.00010595437570778222,0.00026869738995162175,-0.001603529686009678,0.004999701448735334,0.9941020083549589
2016-08-19,1,0.0008861383162395689,0.0009517271569365608,-0.001603529686009678,0.0045937331696947244,0.99444951566255
2016-08-23,1,0.0011134699545260003,0.0011290828433476703,-0.001603529686009678,0.004999701448735334,0.9935111675509732
2016-08-25,1,0.000858752547111969,0.0009257990220669334,-0.002001840919309311,0.005300712909178528,0.9932144118265538
2016-08-29,1,0.000664554681944858,0.0007445783261550412,-0.002001840919309311,0.005300712909178528,0.9936827193832051
2016-08-31,1,0.0008991524211945201,0.0009475005674705859,-0.002001840919309311,0.0051758707609625984,0.9937631839482695
2016-09-02,1,0.0012435005147689172,0.001270149196830325,-0.0037001012592618324,0.005300712909178528,0.9933880442300085
2016-09-07,1,0.0011778591003110237,0.0011897209292026432,-0.005523549419869596,0.005300712909178528,0.9923424486066816
2016-09-09,1,0.0002817563024543649,0.000349034453022668,-0.005208127698010844,0.005300712909178528,0.9935994955280953
2016-09-13,0,-0.00013977486971420062,1.0021591353598011e-05,-0.0060310094656356224,0.005300712909178528,0.9928344331109662
2016-09-15,-1,-0.00022303574579471668,-5.0796564386925954e-05,-0.007468059616792446,0.00527523920054504,0.9913476760224661
2016-09-19,1,0.00033641077389316725,0.0004442831933458634,-0.007468059616792446,0.0037412909347381384,0.9916711353053695
2016-09-21,1,0.0008914654102302918,0.0009515223194863982,-0.007468059616792446,0.002765345682599089,0.9920187200848679
2016-09-23,1,0.0006210440979176158,0.0007213964671642009,-0.007468059616792446,0.0025182985300589347,0.9924645082869437
2016-09-27,1,0.0003798674813492414,0.0005263876323081166,-0.007468059616792446,0.0025182985300589347,0.9928984853077962
2016-09-29,1,0.0005786211538242733,0.0006871398396060431,-0.007468059616792446,0.004618023768719487,0.9920577978538031
2016-10-03,1,0.0011535895145198941,0.0011577726336710033,-0.009221368918132865,0.004618023768719487,0.9907435514412269
2016-10-05,1,0.0005885048643285302,0.000619339827244098,-0.007353760258752066,0.006193714858195467,0.9898473409262923
2016-10-07,1,0.0003949053244643252,0.0004336745109702968,-0.009111696481209576,0.006193714858195467,0.9895365456187062
2016-10-11,-1,-0.00016294593518023913,-7.265970274819214e-05,-0.009111696481209576,0.007402686530182217,0.9877295857371187
2016-10-13,-1,-0.001454126255797453,-0.0012184633779741645,-0.011832980481686534,0.007402686530182217,0.9868661142486803
2016-10-17,-1,-0.001698658334253503,-0.0014430615914478046,-0.011832980481686534,0.007402686530182217,0.9868299037365564
2016-10-19,-1,-0.0015694775061195372,-0.0013328811809895462,-0.011832980481686534,0.009021529665928398,0.9858653425600583
2016-10-21,-1,-0.001600084579661949,-0.0013527267140441561,-0.012591642074516003,0.009021529665928398,0.9854649151056131
2016-10-25,-1,-0.0015138006027782393,-0.0012680255215800486,-0.012591642074516003,0.009021529665928398,0.9855263909506209
2016-10-27,-1,-0.0005712083302626516,-0.0004502618648610884,-0.012591642074516003,0.003220750821344081,0.986592486674485
2016-10-31,-1,-0.0012440989152523937,-0.0010472492524498714,-0.010662383362065124,0.003220750821344081,0.9878951080494318
2016-11-02,-1,-0.0016910729442713816,-0.0014088881712890047,-0.010662383362065124,0.0025023725163046484,0.989216053052918
2016-11-04,-1,-0.002445371446196178,-0.002059421675387675,-0.00842961642118635,0.005315778208417857,0.9883919034154496
2016-11-08,-1,-0.0032897378957586288,-0.0027946329915123306,-0.003095212919363729,0.0067038539103978795,0.98916393951205
2016-11-10,-1,-0.0052052710730862315,-0.004509974673734994,-0.00085551306978758,0.007565847769003511,0.9900455257839548
2016-11-14,-1,-0.005515208606868165,-0.0047839113585748825,-0.002151532893249572,0.007565847769003511,0.9893460821310511
2016-11-16,-1,-0.0061188726128358194,-0.005199969107041206,-0.005598576342843879,0.007565847769003511,0.9890341781218669
2016-11-18,-1,-0.0055254007048926145,-0.004744014269317805,-0.005685679114184619,0.007565847769003511,0.9891103372804966
2016-11-22,-1,-0.004891315345559883,-0.004217982075217404,-0.005685679114184619,0.007565847769003511,0.9894272106285975
2016-11-25,-1,-0.004638205310553504,-0.004010058438367868,-0.009917650716450023,0.008077587375436507,0.9890766762094518
2016-11-29,-1,-0.0038321751432064603,-0.0033361391451450675,-0.009917650716450023,0.008077587375436507,0.9894305605187629
2016-12-01,-1,-0.004321737480587421,-0.003793978745453199,-0.009074462775014367,0.008077587375436507,0.9897235366456569
2016-12-05,-1,-0.003325599048448884,-0.002924810350703253,-0.009074462775014367,0.006483489103717127,0.9909761745060377
2016-12-07,-1,-0.002051276842556536,-0.0018079921469158155,-0.009722541417678138,0.0023633012100484816,0.9922957070037972
2016-12-09,-1,-0.0015139687931745283,-0.0013580648024501545,-0.009722541417678138,0.0011007095248257675,0.9927132503986387
2016-12-13,-1,-0.002479898349642548,-0.002215441944793321,-0.008956587574139219,0.0023633012100484816,0.9930988934326714
2016-12-15,-1,-0.002739889959767372,-0.0024540276005450513,-0.006436590241762205,0.0023633012100484816,0.9942049052563787
2016-12-19,-1,-0.0034945317129287837,-0.003109266425927728,-0.004373949651383691,0.004514434785739935,0.9942348872656325
2016-12-21,-1,-0.0032165413748618363,-0.0028694379105364018,-0.0058093766802530785,0.005606264337842151,0.9942105478747538
2016-12-23,-1,-0.003003121914060593,-0.0026936821689150397,-0.004373949651383691,0.005606264337842151,0.9938518278849667
2016-12-28,-1,-0.0026566355900734416,-0.002391266353293073,-0.004373949651383691,0.0030757527410303093,0.9941736675006341
2016-12-30,-1,-0.0025976816361685797,-0.0023802296363728105,-0.0058093766802530785,0.0030757527410303093,0.9938056326976054
2017-01-04,-1,-0.002629516874591356,-0.002408957249261822,-0.005895551119319812,0.003249664372801878,0.9937611321087433
2017-01-06,-1,-0.0029301549231234595,-0.002677911184800963,-0.004671143475419512,0.005732277253431384,0.9935188377302836
2017-01-10,-1,-0.0032160504634432627,-0.002912715751917365,-0.005819473881721598,0.007508636833545915,0.9928307899584076
2017-01-12,-1,-0.00252602994220189,-0.0023549335656267815,-0.004671143475419512,0.006140120261316483,0.9934803510016667
2017-01-17,-1,-0.0016937852844249339,-0.0016327624981813372,-0.005819473881721598,0.006140120261316483,0.9927246059616076
2017-01-19,-1,-0.0012253212141992839,-0.0012157504663411608,-0.005819473881721598,0.00982309410101656,0.9906637544156212
2017-01-23,-1,-0.0012215177516048388,-0.0012167656393583866,-0.006129023480618012,0.00982309410101656,0.9903985262859987
2017-01-25,-1,-0.00020963589965871212,-5.5817129478161046e-05,-0.006129023480618012,0.00982309410101656,0.9901074388181642
2017-01-27,1,1.092978865638891e-06,0.00019080613322178697,-0.006129023480618012,0.00982309410101656,0.9900967474385904
2017-01-31,-1,-0.0005503727189282603,-0.00042164471931120694,-0.004671143475419512,0.010187808414872906,0.990216851977776
2017-02-02,-1,-0.001085211532519883,-0.0010800788751169476,-0.006129023480618012,0.010187808414872906,0.9898451181900342
2017-02-06,-1,-0.0007286941148841428,-0.0006776768372154503,-0.006129023480618012,0.010187808414872906,0.99014063004552
2017-02-08,-1,-0.00042556443903938196,-0.0003251696478714892,-0.0059676127499123394,0.008900142583627322,0.990526702409145
2017-02-10,1,4.582129602720647e-05,0.0002493605316820257,-0.0059676127499123394,0.010799691082466784,0.9895307631557331
2017-02-14,1,0.0006235353154084612,0.0009559429645044323,-0.005219980069375555,0.010799691082466784,0.9904709548336212
2017-02-16,1,0.002458793973809888,0.0030380540438233405,-0.005219980069375555,0.010384326390290542,0.9916048520151834
2017-02-21,1,0.002013473061155546,0.002547156026094984,-0.0032560725261504427,0.011729420249027435,0.9914249898103986
2017-02-23,1,0.0031801309485245755,0.003882049688467368,-0.004261885776958644,0.011665579904517144,0.9913588533528922
2017-02-27,1,0.003210515809299617,0.003920770986428745,-0.005219980069375555,0.011665579904517144,0.9905736185353546
2017-03-01,1,0.0034555716340114563,0.004151131957497173,-0.00634016199331464,0.010912264609300311,0.990443050120991
2017-03-03,1,0.0028948827609436498,0.003504094011692228,-0.004794765029866475,0.010912264609300311,0.9915563285265651
2017-03-07,1,0.0023970130427833315,0.002914603581308165,-0.004794765029866475,0.010912264609300311,0.9916469512964641
2017-03-09,1,0.0016663081552731281,0.0020083548001039245,-0.0034336989437863865,0.010912264609300311,0.9915415021148182
2017-03-13,1,0.002286698257983487,0.0026943790364890863,-0.0050320944549687155,0.007327491593716928,0.9920362842288682
2017-03-15,1,0.002728943013026744,0.0032008949665404086,-0.006027716283702745,0.005042018153558323,0.9923897394346607
2017-03-17,1,0.0037356655136230855,0.004344596178212051,-0.006027716283702745,0.004239163627231531,0.9926038391578044
2017-03-21,1,0.004531973343495491,0.00525618321959191,-0.006027716283702745,0.004239163627231531,0.9932718865574423
2017-03-23,1,0.0048403809330899075,0.005645652258962926,-0.0050320944549687155,0.004239163627231531,0.9940528705813616
2017-03-27,1,0.003845879810276541,0.004479874045080178,-0.001967202164616692,0.0077329973924435335,0.99536144519831
2017-03-29,1,0.0035980127295628323,0.0041949983957929255,-0.0013191627002579931,0.0077329973924435335,0.9955977893741956
2017-03-31,1,0.0034498727355405916,0.003997776090439619,-0.0027329721968920536,0.0077329973924435335,0.9951110268218449
2017-04-04,1,0.0033819084259937224,0.003893769703661107,-0.0027329721968920536,0.0077329973924435335,0.9953785125847562
2017-04-06,1,0.00251206548500756,0.0027736272793060903,-0.003114100524770621,0.006945044538321447,0.9950897542897217
2017-04-10,1,0.0022577828003525115,0.0024600893865565536,-0.004874911283603163,0.006945044538321447,0.9916022788734831
2017-04-12,1,0.0024361402741166875,0.0027213452078590755,-0.003114100524770621,0.0077329973924435335,0.991720761981924
2017-04-17,1,0.0022704263515315884,0.002511708549640319,-0.002211975508492877,0.0077329973924435335,0.9915694569994848
2017-04-19,1,0.002623154107564831,0.0029158782174123774,-0.002211975508492877,0.006945044538321447,0.9917089448194228
2017-04-21,1,0.0029193059873623443,0.0032462638218859067,-0.002211975508492877,0.006945044538321447,0.9917710229260456
2017-04-25,1,0.0036437754896379414,0.004075781796167025,-0.002211975508492877,0.00600814384309018,0.9923474293635125
2017-04-27,1,0.0032376771567080172,0.003562242681819829,-0.0014507179716156792,0.0062617412155882585,0.9923295354446561
2017-05-01,1,0.003273917659004468,0.003640944965601893,-0.0014507179716156792,0.0062617412155882585,0.9921201507284846
2017-05-03,1,0.0035907605173981037,0.0040570904841616805,-0.00032385889262140485,0.006855989537406891,0.9925032219742205
2017-05-05,1,0.0036869018103816665,0.0041721680131418465,0.0001437611491353326,0.007682091239506863,0.99263208410957
2017-05-09,1,0.0005512200365633156,0.0005599621609126759,0.0001437611491353326,0.007682091239506863,0.9946234774145749
2017-05-11,1,0.0006995159060398827,0.0007006221448639667,-0.00032385889262140485,0.007682091239506863,0.9939910135489285
2017-05-15,1,0.0006269900897123725,0.0006735375540186832,-0.0012216595245933021,0.006845145030920014,0.9944085614039451
2017-05-17,1,0.0007332406996684049,0.0007665757305558802,-0.004880673579977498,0.006845145030920014,0.9940911919491145
2017-05-19,1,0.0010510445278926672,0.0010520525991994214,-0.004880673579977498,0.006845145030920014,0.9938555386259631
2017-05-23,1,0.0014135949038293328,0.0014642199574338875,-0.004880673579977498,0.004416246778073709,0.9941989716677808
2017-05-25,1,0.0015719011693681344,0.001620115143333044,-0.0058295753152698485,0.0032197521986039456,0.9939616028987156
2017-05-30,1,0.0009469184368757571,0.0009897094664336895,-0.0058295753152698485,0.006616671336974562,0.993812536588847
2017-06-01,1,0.0007977746450425118,0.0008836811849118878,-0.006770550156109324,0.004681185690425284,0.9931228144937574
2017-06-05,1,0.0008205544850819965,0.0009210917071413585,-0.006770550156109324,0.004681185690425284,0.9928859106774034
2017-06-07,1,0.0001280414405853892,0.00032055425004248164,-0.007836412598592326,0.004681185690425284,0.992712625672129
2017-06-09,1,4.93831082683568e-05,0.00023174485243474137,-0.0058997802687676335,0.0013270844443482553,0.9938588814882098
2017-06-13,0,-0.00019852650966186878,8.252423484763575e-06,-0.005581395111649635,0.004681185690425284,0.9935182561144453
2017-06-15,-1,-0.0007972122327434708,-0.0005129855023323171,-0.005389716178228756,0.006951536969866994,0.9934518225275119
2017-06-19,-1,-0.00019448202785123862,-1.5037584827528499e-05,-0.005389716178228756,0.006951536969866994,0.9936022574437342
2017-06-21,-1,-0.0003672028453983897,-0.0001626459059638997,-0.006406128216340039,0.006951536969866994,0.9929326801632733
2017-06-23,-1,-0.0010088766029496263,-0.0006835875717585373,-0.005389716178228756,0.004681185690425284,0.9934665161812432
2017-06-27,-1,-0.0014791261326197389,-0.0010885610710873177,-0.00409803829423146,0.00365746617688062,0.9939940004198602
2017-06-29,-1,-0.0020672561129725336,-0.0016112965111348813,-0.0033541070946318577,0.0031427579202848287,0.9947741449468487
2017-07-03,-1,-0.0017445418505345645,-0.001328967725653043,-0.0033541070946318577,0.0031427579202848287,0.9948130509732113
2017-07-06,-1,-0.002665779262077884,-0.0021384345476103584,-0.0028292228151100465,0.0035754658621050357,0.994958268390091
2017-07-10,-1,-0.002925665371776306,-0.0023644468152520344,-0.0028292228151100465,0.0035754658621050357,0.9945031182022703
2017-07-12,-1,-0.0013867535381348961,-0.001092698056387613,-0.0028292228151100465,0.0035754658621050357,0.9938757311219871
2017-07-14,-1,-0.001820819946364361,-0.0014429694084372902,-0.0033541070946318577,0.0035108692435972936,0.9930808082910231
2017-07-18,-1,-0.0009510067100759742,-0.0007206302345940198,-0.0033541070946318577,0.0035108692435972936,0.9930851331325182
2017-07-20,-1,-0.001558691363586386,-0.0012504524156049669,-0.0033541070946318577,0.0035754658621050357,0.9920418299815477
2017-07-24,-1,-0.0014784698898429875,-0.0012090628821440899,-0.003245930975301373,0.0035754658621050357,0.9920353310907479
2017-07-26,-1,-0.0016266732099801426,-0.0013117708558049428,-0.0038510004959073927,0.004562268190771196,0.9918587866550503
2017-07-28,-1,-0.001983728546633257,-0.001607759291309263,-0.0038510004959073927,0.005643248672055547,0.9915420765485992
2017-08-01,-1,-0.0017305923385961231,-0.0013778313835270876,-0.0038510004959073927,0.004021455836146766,0.9921405153014061
2017-08-03,-1,-0.0013803890041312378,-0.0011064111733330322,-0.0018783329532028154,0.0047442895805701255,0.9922130439601076
2017-08-07,-1,-0.001063327174149928,-0.0008453029941462283,-0.0018783329532028154,0.00744048879825051,0.991593399007185
2017-08-09,1,0.0008134845707753476,0.000873926106178156,-0.0019087084205820178,0.00744048879825051,0.9932313026471871
2017-08-11,1,0.0001765556208293236,0.00019711090633210343,-0.00029413602388318787,0.009085586594381242,0.993793968829024
2017-08-15,1,0.0005781188189295928,0.0006511548036193656,-0.0007155428750184893,0.008232502982579513,0.9945153885167138
2017-08-17,-1,-0.0002698217062089013,-0.00020155583672868917,0.00015593403427157415,0.00744048879825051,0.9956567319310539
2017-08-21,-1,-0.0005098314045614998,-0.00040460696729359403,0.0007328425154296211,0.00744048879825051,0.9954001832813424
2017-08-23,-1,-0.00038268632564645693,-0.0002989155546833219,0.0007328425154296211,0.00581805173437722,0.9955388162879101
2017-08-25,-1,-0.00038253454083148064,-0.0002830363985105663,0.0007487244013725059,0.0055276954975696825,0.9954567064268407
2017-08-29,-1,-0.00015506035243869606,-0.00010171438705217859,0.00024460121503638995,0.0055276954975696825,0.9943986147139089
2017-08-31,1,2.1656805700849026e-05,5.8848117772502e-05,0.00024460121503638995,0.008232502982579513,0.9941411820841477
2017-09-05,1,0.0005677656918746242,0.0005914566192891182,0.00024460121503638995,0.009085586594381242,0.9942291096679484
2017-09-07,1,0.0008935794474251405,0.0009647808455533016,0.0007487244013725059,0.006062493819977336,0.9946220455213773
2017-09-11,1,0.0016365961414750367,0.0018271942248603685,0.00024460121503638995,0.004804359110035623,0.9949324821194754
2017-09-13,1,0.0017895212550600088,0.0020221082665304235,-0.0002672445515397426,0.005091173724876616,0.9943719128087083
2017-09-15,1,0.002285418321101949,0.00262636607663585,-0.0016044512620591157,0.005091173724876616,0.9945152241885373
2017-09-19,1,0.0025228585926941865,0.0029029905169644255,-0.004510064192486187,0.006354399222971642,0.9937105926597013
2017-09-21,1,0.0022008743902552402,0.002525871213852336,-0.004510064192486187,0.006769418953937683,0.9934558689612857
2017-09-25,1,0.0024100517084392125,0.0027587269589451494,-0.004510064192486187,0.010175043137486997,0.9928338552945372
2017-09-27,1,0.0015168697187700679,0.0017527394941260126,-0.0018912887509403152,0.010175043137486997,0.9936348871450082
2017-09-29,1,0.0005055821034425519,0.0005573093389769745,-0.004529124433520645,0.006769418953937683,0.9931478447273234
2017-10-03,1,0.0014296989017497052,0.0015201535792182396,-0.007547021785699522,0.005203015910381703,0.9933807813837277
2017-10-05,1,0.0018622934743501999,0.0020314219781919964,-0.007547021785699522,0.00544731245292998,0.9933396034873653
2017-10-09,1,0.0016469400870903696,0.0017940169603167344,-0.007547021785699522,0.00544731245292998,0.9933932939420468
2017-10-11,1,0.0016490486938055345,0.001828828109230239,-0.008196176606668248,0.00544731245292998,0.9922154972835432
2017-10-13,1,0.0019034498346931457,0.0021343890043184926,-0.008196176606668248,0.00544731245292998,0.9919710352677833
2017-10-17,1,0.002116423716701474,0.002396473992367599,-0.007731468134508699,0.0058038149977096476,0.991784305942944
2017-10-19,1,0.0017924473612246482,0.002009738851403969,-0.007944093290245171,0.005547730215083002,0.9914397617068795
2017-10-23,1,0.002222256546297192,0.002508172181440454,-0.007944093290245171,0.005547730215083002,0.9918511412167893
2017-10-25,1,0.002121554588538962,0.0024072065096522916,-0.00641610228294706,0.00613168771492789,0.9915948761428556
2017-10-27,1,0.0017717492919325862,0.001989144554725787,-0.005509082255394726,0.00665866360860785,0.9915837545960755
2017-10-31,1,0.0014254322314123755,0.0015862821619009747,-0.004947612564729458,0.008318215374406624,0.9914695108782524
2017-11-02,1,0.0014247222590580177,0.0015738727682479208,-0.004947612564729458,0.008318215374406624,0.9912901962872729
