JNU-Tangyin/eata/results/Batch4_SP500/Batch4_SP500-OXY.csv
Date,Action,Predicted_Q25,Predicted_Q75,Actual_Q25,Actual_Q75,RL_Reward
2010-12-14,0,0.0,0.0,-0.0034946000870465935,0.007721242068119475,0.9946013667824686
2010-12-16,0,0.0,0.0,-0.004561827757772978,0.008759671857905979,0.9925322435136409
2010-12-20,1,0.0023395132303223837,0.0025970961729975487,-0.004561827757772978,0.009924179007114196,0.9922300795262226
2010-12-22,0,0.0,0.0,-0.0057914466136502665,0.008759671857905979,0.9915426100551131
2010-12-27,0,0.0,0.0,-0.006344921233583132,0.008759671857905979,0.991579516094938
2010-12-29,0,0.0,0.0,-0.006344921233583132,0.005261066303089288,0.9925494471364724
2010-12-31,0,0.0,0.0,-0.006344921233583132,0.0068217564050499216,0.9903955556093437
2011-01-04,0,0.0,0.0,-0.004561827757772978,0.009949815945099633,0.9898412288581699
2011-01-06,0,0.0,0.0,-0.005354939156046155,0.009949815945099633,0.9897338083524414
2011-01-10,0,0.0,0.0,-0.005354939156046155,0.009949815945099633,0.9899490838341267
2011-01-12,-1,-0.9961134516100068,-0.9959546732491917,-0.005618732768744261,0.01016032532181401,0.5007856492489648
2011-01-14,1,0.0011037959787917211,0.001108481159273967,-0.004953123816656135,0.01326385539498808,0.9894216393565374
2011-01-19,1,0.0013585212764187188,0.0015045481489495026,-0.004953123816656135,0.016454433589343682,0.988522859471522
2011-01-21,1,0.0014126329727459615,0.001522519802451878,-0.0032631845393703424,0.015673269791071365,0.9892730769000248
2011-01-25,0,0.0,0.0,-0.0032631845393703424,0.015673269791071365,0.9867956077630806
2011-01-27,0,0.0,0.0,-0.004953123816656135,0.015673269791071365,0.9857085198869141
2011-01-31,0,0.0,0.0,-0.005618732768744261,0.014554789693670264,0.9874146746687825
2011-02-02,0,0.0,0.0,-0.005618732768744261,0.014554789693670264,0.9871378393553004
2011-02-04,0,0.0,0.0,-0.0031898978608703105,0.014554789693670264,0.9874054521722729
2011-02-08,1,0.0003723596534092685,0.0005529702976700326,-0.006652750566295114,0.014554789693670264,0.9864573955042664
2011-02-10,1,0.0008839397970982143,0.0009951335692835758,-0.011133939720504882,0.013751123999558131,0.9852933159349722
2011-02-14,1,0.0008753637232126572,0.001027176658602586,-0.011133939720504882,0.013263193929971046,0.9857105336623541
2011-02-16,1,0.0018984103893088483,0.0019199867459854649,-0.013031728669600694,0.009313224701548413,0.985355798587821
2011-02-18,1,0.002085316521525426,0.0021103477602993125,-0.013031728669600694,0.009313224701548413,0.9848970933123041
2011-02-23,1,0.0009173664514985075,0.0010226743696608287,-0.011133939720504882,0.007557678890273075,0.9871776839518667
2011-02-25,1,0.0013456596839297125,0.0013774950889334447,-0.010693014774635627,0.006921195849925156,0.9876434942912395
2011-03-01,1,0.0005809602847831846,0.0006652835535472452,-0.004352756657772228,0.011353744808927289,0.9877728231386822
2011-03-03,1,0.0017294706534095425,0.0017841122532944484,-0.004352756657772228,0.007932179174294656,0.9887751864373321
2011-03-07,1,0.0013335312486823041,0.0013399733188492755,-0.007638885720864838,0.007932179174294656,0.9885095091243449
2011-03-09,1,0.0007140254536208804,0.0007707002864353897,-0.007753610653671659,0.007932179174294656,0.988729831074951
2011-03-11,1,0.00039062375709200177,0.0004801351402583348,-0.007516629654171613,0.007932179174294656,0.9898851682345771
2011-03-15,-1,-0.0009231705107127968,-0.000596522862584453,-0.007753610653671659,0.007932179174294656,0.9874254773570171
2011-03-17,-1,-0.00175462936962472,-0.0012925070667584595,-0.007516629654171613,0.006867787249420012,0.9889353492933777
2011-03-21,-1,-0.0010779808067115238,-0.000675338055701292,-0.007753610653671659,0.006867787249420012,0.9892289562067724
2011-03-23,-1,-0.0017754974197907146,-0.001274841751815113,-0.007516629654171613,0.011067676725003993,0.9875319170579262
2011-03-25,-1,-0.0014913103436576943,-0.0010355762539823298,-0.007516629654171613,0.008377591286652174,0.9881329421416815
2011-03-29,0,-6.897881727809029e-05,0.00018273141210549718,-0.007516629654171613,0.008377591286652174,0.9882634235064348
2011-03-31,1,0.00015946129544164495,0.00035774769083221495,-0.007516629654171613,0.01791976477047035,0.9833602362325087
2011-04-04,0,0.0,0.0,-0.009836242420028167,0.01791976477047035,0.9813866127402396
2011-04-06,0,0.0,0.0,-0.019068293423052496,0.01791976477047035,0.9800661073460902
2011-04-08,0,0.0,0.0,-0.019068293423052496,0.013765231828732055,0.9806523587745071
2011-04-12,0,0.0,0.0,-0.007792418945179991,0.013765231828732055,0.982140548632288
2011-04-14,-1,-0.002045801871038563,-0.001627118955436961,-0.009614277267672704,0.013765231828732055,0.9820488452859284
2011-04-18,-1,-0.0023952123288097137,-0.0019269354336221738,-0.008632515773242972,0.013765231828732055,0.9826393363254915
2011-04-20,-1,-0.0012842196213974301,-0.0009256848331119251,-0.014416891179747912,0.008407300690642489,0.983397235863151
2011-04-25,-1,-0.001490535623355203,-0.001114738952869824,-0.015283749094955404,0.008407300690642489,0.982818904163397
2011-04-27,0,-3.498208518159699e-05,0.00012039453837284903,-0.015283749094955404,0.010642186659988296,0.9814202604155213
2011-04-29,1,0.0044230754112755035,0.004884940890517918,-0.015283749094955404,0.008407300690642489,0.9851541827610995
2011-05-03,1,0.0023687079464524623,0.0024937912284295803,-0.015283749094955404,0.008407300690642489,0.9851917056707779
2011-05-05,1,0.0009851255476379227,0.0010002543985445768,-0.008632515773242972,0.008407300690642489,0.9877330423158459
2011-05-09,1,0.0016054627163561252,0.0016834025376994098,-0.013575389553072343,0.007513562315890039,0.9868602839581854
2011-05-11,1,0.00026069701185925723,0.00033614019069121853,-0.008632515773242972,0.010616542242144748,0.9876655180240165
2011-05-13,-1,-0.00012196278390511246,-8.898702725989129e-06,-0.012389229835664102,0.010616542242144748,0.9873640968993938
2011-05-17,1,3.222569583533606e-05,8.393372756749736e-05,-0.0126781824740666,0.012593891081908908,0.9857180080260056
2011-05-19,-1,-0.0007891895855643012,-0.0006182156587086352,-0.007617934244166038,0.012593891081908908,0.9862609547095548
2011-05-23,-1,-0.0007664673305655487,-0.0006393722117620942,-0.006283430647605165,0.012593891081908908,0.9861919980159591
2011-05-25,1,0.0009745463904803717,0.001037144063975207,-0.012656501538567483,0.009188215007420678,0.987420422047327
2011-05-27,1,0.0012275506615641862,0.0013067353614466771,-0.012656501538567483,0.0071359788861625854,0.9876886828839997
2011-06-01,0,-3.1066394880784596e-05,6.472148064955819e-05,-0.010040362311663845,0.009188215007420678,0.988386377338506
2011-06-03,1,0.00019124497214888497,0.000275344948340749,-0.010040362311663845,0.012012775831567983,0.9873805835522089
2011-06-07,-1,-0.0007203818893606562,-0.0005543588290723537,-0.009084003331951002,0.012298726043290471,0.9876399008437642
2011-06-09,1,0.0001731120258320247,0.0002323997307715215,-0.010040362311663845,0.012298726043290471,0.987405529503311
2011-06-13,-1,-0.0004493280228938038,-0.0003247904893879214,-0.010107974747681622,0.012298726043290471,0.986060946643437
2011-06-15,-1,-0.0005051100757179445,-0.00037091881093177055,-0.009084003331951002,0.011370586280714839,0.9878643286191019
2011-06-17,-1,-0.0006865601149772993,-0.000515915413490287,-0.009084003331951002,0.012298726043290471,0.9874978223051302
2011-06-21,-1,-0.0007385301836115457,-0.0005556033734664438,-0.009084003331951002,0.01473035628006552,0.9871090183613451
2011-06-23,-1,-0.0015340739241714988,-0.0012650239926292398,-0.003210810413098521,0.01646150149756862,0.9872749843792713
2011-06-27,-1,-0.0016565366847945727,-0.0013901080420240857,-0.005368541479351585,0.01646150149756862,0.9866893440086094
2011-06-29,-1,-0.0005219597661642724,-0.00036782861875151633,-0.009834881933857115,0.012298726043290471,0.9865548284885767
2011-07-01,1,0.0004933244471442398,0.000525160290882615,-0.013205299133500171,0.009823835803197872,0.9866691721051463
2011-07-06,1,0.00050682863432465,0.0005135961341482995,-0.01587257494257305,0.00514391009513757,0.9858392258531294
2011-07-08,1,0.0009260940819371909,0.0010109441830868065,-0.018118290420832878,0.0029368533421012103,0.9835132365821667
2011-07-12,1,0.00034828929830788284,0.00042075445284593877,-0.018118290420832878,0.00514391009513757,0.9787651377882831
2011-07-14,0,0.0,0.0,-0.02587291523646091,0.0034918011622935294,0.9756286050185167
2011-07-18,1,0.001432324530762365,0.0016111184080762038,-0.02587291523646091,0.0068915734058707535,0.9735544012420977
2011-07-20,1,0.0017806965436252742,0.0020065986956868866,-0.02587291523646091,0.0030035993579884033,0.9733890083402275
2011-07-22,0,0.0,0.0,-0.03257142055131457,-0.0022466215244919666,0.9712661490092601
2011-07-26,0,0.0,0.0,-0.03257142055131457,0.0030035993579884033,0.9710353989539647
2011-07-28,1,0.0005781568194549835,0.0008853401589908104,-0.02480731048121979,0.004009284545841355,0.9720340979130673
2011-08-01,-1,-0.0017963069693778056,-0.001545582107920639,-0.02480731048121979,0.014403081165787474,0.9711406580367485
2011-08-03,-1,-0.0032691616842713232,-0.002817032257904045,-0.021850533109671194,0.01609889637676495,0.9715862033161461
2011-08-05,0,0.0,0.0,-0.021850533109671194,0.01609889637676495,0.9732954850000535
2011-08-09,0,0.0,0.0,-0.021679927767232245,0.014670490036027882,0.9789182505674403
2011-08-11,0,0.0,0.0,-0.021679927767232245,0.01053084545897889,0.9805168215533829
2011-08-15,0,0.0,0.0,-0.021679927767232245,0.010334369445973303,0.9819196685480694
2011-08-17,0,0.0,0.0,-0.017215628233844524,0.01393881029135248,0.9807549059514897
2011-08-19,0,0.0,0.0,-0.01254043643066859,0.01393881029135248,0.9833817970537004
2011-08-23,-1,-0.005703203368406017,-0.005103523416610406,-0.016892540593497138,0.011637232630939603,0.9821623294641995
2011-08-25,-1,-0.007307482720011712,-0.006480549925893447,-0.016892540593497138,0.011637232630939603,0.9806603045349873
2011-08-29,-1,-0.004688515403926595,-0.004048903551301515,-0.016892540593497138,0.013910883011917246,0.9784879020775433
2011-08-31,-1,-0.0028418572000282073,-0.00265855934001986,-0.02252693485188488,0.01332145497290048,0.9769681747498313
2011-09-02,-1,-0.006375956337001661,-0.005690331054805116,-0.03427538249126106,0.01332145497290048,0.9752981001380999
2011-09-07,-1,-0.004302992749679708,-0.003674637359573,-0.03427538249126106,0.018991477317235113,0.9711268376318569
2011-09-09,-1,-0.006381471846237014,-0.005554046617440753,-0.02548992063843349,0.021702328419640066,0.9705529283559327
2011-09-13,-1,-0.0053800809945549885,-0.004714784296296994,-0.02548992063843349,0.03058242277245438,0.9684678188397385
2011-09-15,-1,-0.0071131327502539,-0.006405373128824837,-0.02548992063843349,0.022617433141850933,0.9704214087076236
2011-09-19,-1,-0.0035293285477811156,-0.0032657518270672566,-0.03426741560916061,0.03456096068705062,0.9672095805816402
2011-09-21,-1,-0.004067794223290998,-0.00393208111020178,-0.020525552055425337,0.03456096068705062,0.9683834834046836
2011-09-23,-1,-0.0050017966013374635,-0.004735014668889821,-0.013259205794031989,0.03456096068705062,0.9692213549849188
2011-09-27,-1,-0.004960043299963562,-0.00461678627542727,-0.018719839316816738,0.029258373104721146,0.9722351604151741
2011-09-29,-1,-0.00490543911984795,-0.004553234129734821,-0.013259205794031989,0.03456096068705062,0.9683926007154806
2011-10-03,-1,-0.007926137390881561,-0.007112195892929029,-0.010102164034376495,0.03456096068705062,0.9680420462069961
2011-10-05,-1,-0.0070017173331538545,-0.006358788117588257,-0.013259205794031989,0.028152391451804225,0.9711436190969622
2011-10-07,-1,-0.006597271487209557,-0.006018981319300406,-0.010102164034376495,0.026096474468514146,0.970934020911702
2011-10-11,-1,-0.004281951447415581,-0.00395527776653419,-0.0019175197628280285,0.026096474468514146,0.9726401456527766
2011-10-13,-1,-0.002075680077116922,-0.0017580954333356992,-0.015303921083639475,0.026096474468514146,0.9712010839177069
2011-10-17,-1,-0.003107256197471748,-0.0030552918203750365,-0.014099941972297098,0.025443161124723133,0.9726869011246306
2011-10-19,1,0.0005628121328425405,0.0006679168604014069,-0.014193763273983119,0.024500714234252666,0.9749397146674782
2011-10-21,1,0.0014724740601768996,0.0016193674897765696,-0.021242047851612066,0.02259179320896538,0.9749973052296723
2011-10-25,1,0.002015592145610173,0.0022615200939740273,-0.020117609220044474,0.02259179320896538,0.9750879900429401
2011-10-27,1,0.005066908974359196,0.0056637712575658165,-0.021696045108802218,0.018181386892053994,0.9777303695132541
2011-10-31,1,0.00381237007748311,0.004241960656146468,-0.020117609220044474,0.01832865387481017,0.9785833226969265
2011-11-02,1,0.0027260863991329315,0.0030173190056884992,-0.020117609220044474,0.01832865387481017,0.9766574864162414
2011-11-04,1,0.0043554470529308525,0.004835891888198936,-0.020117609220044474,0.017065572287369605,0.9769710327413631
2011-11-08,1,0.007441813648800394,0.008412560959649967,-0.020117609220044474,0.016921183609198576,0.9761650133785985
2011-11-10,1,0.006587167729044423,0.007498503803599566,-0.020117609220044474,0.017065572287369605,0.9767730775265543
2011-11-14,1,0.005102983225994564,0.005751160190855971,-0.02049972504829424,0.011971136027625763,0.9769664520057557
2011-11-16,1,0.0033773293917347385,0.0038431570006631933,-0.022636203767982078,0.003486005960547889,0.9761078509377558
2011-11-18,1,0.0028016337659899446,0.0032778421916660238,-0.02115863267682019,0.017576710543160547,0.9763042928380308
2011-11-22,1,0.0018178942292646388,0.002193014089734482,-0.02115863267682019,0.01900011682649583,0.9752961258494218
2011-11-25,1,0.00018706411863623877,0.00036642236824754816,-0.013326594535921889,0.01900011682649583,0.9774116149143083
2011-11-29,1,0.004104767844810101,0.004766295221235955,-0.02115863267682019,0.01352753452950303,0.9784832245719699
2011-12-01,1,0.003521321168348349,0.004139749637838232,-0.013555018997671591,0.010602425015749458,0.9825822371266517
2011-12-05,1,0.004362158882249865,0.005129270632021524,-0.013555018997671591,0.010602425015749458,0.9827655587003878
2011-12-07,1,0.0035120901974587527,0.004391658570345755,-0.013095028022883034,0.010602425015749458,0.983337883331896
2011-12-09,1,0.00322611457028453,0.004087424231531382,-0.008503220265643405,0.010602425015749458,0.9853704533471576
2011-12-13,1,0.0021300039496127436,0.002827510444138391,-0.008503220265643405,0.011888541000219072,0.9855946918287528
2011-12-15,0,0.0,0.0,-0.002521478083927026,0.012294036302592617,0.9860572684277076
2011-12-19,0,0.0,0.0,-0.002521478083927026,0.012294036302592617,0.9867784287501916
2011-12-21,1,0.003197539318262046,0.0036345501299488636,-0.002521478083927026,0.012294036302592617,0.9900943398328838
2011-12-23,1,0.002968506906255503,0.003326583692142778,-0.004950327757954844,0.013733041103879792,0.9887127921999955
2011-12-28,1,0.001479599237997151,0.0015454387126179114,-0.004950327757954844,0.013733041103879792,0.9883554270731053
2011-12-30,1,0.00173890946566852,0.0018426951594850373,-0.006699380031091147,0.013733041103879792,0.988462210219242
2012-01-04,0,0.0,0.0,-0.008022977149685463,0.012294036302592617,0.9892445275939847
2012-01-06,0,0.0,0.0,-0.006777641940970162,0.01411542514759967,0.9871161239238205
2012-01-10,0,0.0,0.0,-0.008673291071675065,0.01411542514759967,0.9873069723713522
2012-01-12,0,0.0,0.0,-0.008673291071675065,0.01411542514759967,0.9876628471109212
2012-01-17,0,0.0,0.0,-0.008673291071675065,0.013269073352950217,0.9879280118493677
2012-01-19,0,0.0,0.0,-0.006777641940970162,0.009368303711597348,0.9888666017835112
2012-01-23,0,0.0,0.0,-0.006777641940970162,0.006139328558106297,0.9895172952280431
2012-01-25,1,0.0024413474116311736,0.002498397117956178,-0.006777641940970162,0.006139328558106297,0.9898393001315814
2012-01-27,0,-6.864036265772885e-05,0.0002356912693847632,-0.006647857334094419,0.0065686659767025465,0.9911489466108301
2012-01-31,1,0.0006996779523484212,0.0008358052945502982,-0.007868409058695283,0.008378472300071244,0.9904814093218598
2012-02-02,-1,-0.0007112547430988957,-0.00031335448474126867,-0.0055820140512971485,0.008378472300071244,0.990726917856711
2012-02-06,1,0.0006020761961377157,0.0008276058384785276,-0.008516763237406893,0.005636576809822803,0.9917677402652244
2012-02-08,1,0.0017871571564028897,0.0017901570410819734,-0.00862071663006651,0.005636576809822803,0.9914007784623485
2012-02-10,1,0.0002104374109233694,0.00044121530803376875,-0.00862071663006651,0.005636576809822803,0.9913696841237246
2012-02-14,-1,-0.001172545916441163,-0.0006670844917881062,-0.01040228653656556,0.005636576809822803,0.9911403109807458
2012-02-16,-1,-0.002032090231945889,-0.0014079194039243327,-0.01040228653656556,0.006870217055220765,0.9907461674793553
2012-02-21,-1,-0.0011537814837814144,-0.0006684574142384848,-0.010705140150148479,0.009180990803513363,0.988872850175241
2012-02-23,-1,-0.002271576256255517,-0.0015930320783630507,-0.010772512381347158,0.006836172144516586,0.9893272803370365
2012-02-27,-1,-0.003813755049948157,-0.002887790189799872,-0.010772512381347158,0.009390019136327222,0.9881104476317942
2012-02-29,-1,-0.0017509652358403524,-0.001206870647408754,-0.013527824362621493,0.009287884404214687,0.9869585767158027
2012-03-02,-1,-0.0017741427828943165,-0.0012323791950750156,-0.013527824362621493,0.009287884404214687,0.9868040991338224
2012-03-06,-1,-0.0015497923058309811,-0.001125295307162486,-0.010772512381347158,0.011194025676544945,0.9864986860379369
2012-03-08,-1,-0.001963506889286282,-0.0014656042559197922,-0.01404083031168523,0.01077121014232844,0.9861323347548719
2012-03-12,-1,-0.0028213997386141937,-0.0022045000275941152,-0.019592225842705074,0.01077121014232844,0.9855757146535132
2012-03-14,-1,-0.002655293840419186,-0.002074214073899561,-0.019592225842705074,0.010829676980184971,0.9851139705797123
2012-03-16,-1,-0.0016368060308175408,-0.0012187413932706116,-0.02031333298337709,0.008640647951059111,0.9838441665626907
2012-03-20,-1,-0.002431781846187068,-0.0019047607444976577,-0.019592225842705074,0.010323379038434895,0.9850798347229855
2012-03-22,-1,-0.0010450636245500006,-0.0008305014113343613,-0.015935322426538903,0.010323379038434895,0.9850438523885174
2012-03-26,-1,-0.0017167613441757892,-0.001343777986161864,-0.015935322426538903,0.003664363854505996,0.9865522638907646
2012-03-28,-1,-0.002519581090197582,-0.0021519968947573986,-0.012673500411862522,0.010565456497845996,0.986469456789556
2012-03-30,1,0.0006665927945617182,0.0008009894385279193,-0.012673500411862522,0.007527102046297267,0.9862462452060494
2012-04-03,-1,-0.00019595104039424945,-0.00018268023449510224,-0.012673500411862522,0.007527102046297267,0.9868622815391594
2012-04-05,-1,-0.0008424548928324158,-0.0007529585946304471,-0.015935322426538903,0.007527102046297267,0.9862350717729171
2012-04-10,-1,-0.001997297970620644,-0.0017662853856880536,-0.00881685753491966,0.007527102046297267,0.9879193364400044
2012-04-12,-1,-0.0009136456512240216,-0.0008225624700548238,-0.010282598136423071,0.0055106324945173105,0.9874517355980258
2012-04-16,-1,-0.0033250966776143297,-0.0028979826500754296,-0.010289985645583168,0.0055106324945173105,0.9879671031455549
2012-04-18,-1,-0.0034229859260100914,-0.0029559610808086276,-0.016503257919823162,0.003664363854505996,0.9880756091764126
2012-04-20,-1,-0.0036005077800212457,-0.0030487768623171825,-0.016503257919823162,0.004754253647279192,0.9878494334879647
2012-04-24,-1,-0.002631468175101277,-0.002287103124460879,-0.016503257919823162,0.009699513324936404,0.9871612795380116
2012-04-26,-1,-0.0009282090624787608,-0.0008138255029945858,-0.016503257919823162,0.003331640700405796,0.9883738422541664
2012-04-30,-1,-0.0009720548147464014,-0.0008882453289833694,-0.016503257919823162,0.004700004550013512,0.9873077768099999
2012-05-02,-1,-0.000946267843373537,-0.000834170081059478,-0.02156427907418886,0.003331640700405796,0.9864105516881725
2012-05-04,-1,-0.002323245322920184,-0.0020347622212326917,-0.01323301763430474,0.004700004550013512,0.9876423955527798
2012-05-08,-1,-0.0028616602574204984,-0.002459552558538974,-0.01323301763430474,0.012524010271351988,0.9851669340026679
2012-05-10,-1,-0.0049260178622696675,-0.004217974610148824,-0.009798894174907941,0.012524010271351988,0.9864826323030269
2012-05-14,-1,-0.005946877569200811,-0.005120609657661363,-0.008496797697662067,0.012524010271351988,0.9864079104375457
2012-05-16,-1,-0.005466451355287089,-0.004795442072985023,-0.005084774817716679,0.012524010271351988,0.986914185916485
2012-05-18,-1,-0.004906502026076101,-0.004308308926163728,-0.00552539949480767,0.013372688154230707,0.9862487454086982
2012-05-22,-1,-0.004974660166868853,-0.004337787233063075,-0.00552539949480767,0.006969063482697072,0.9866192600559955
2012-05-24,-1,-0.004652884415971221,-0.004063318312905666,-0.009798894174907941,0.006969063482697072,0.9844282336301371
2012-05-29,-1,-0.004579793942854929,-0.00404862420934987,-0.013722029942123662,0.006969063482697072,0.9833805292215804
2012-05-31,-1,-0.005138396851797135,-0.00457437683040856,-0.0049894507171649415,0.013529288590429785,0.9832218617004175
2012-06-04,-1,-0.004481677652984484,-0.003990091305114622,4.3983065983116366e-05,0.013529288590429785,0.9814850025563745
2012-06-06,-1,-0.0024091762990344186,-0.0021900212440125796,-0.006975852638272314,0.010057597243613797,0.9832151212081884
2012-06-08,-1,-0.0018987680707543933,-0.001754818823051782,-0.014775770226853915,0.010057597243613797,0.9831736559019224
2012-06-12,-1,-0.002236410199480633,-0.002058839952542014,-0.014775770226853915,0.015951999203064088,0.9825361880036889
2012-06-14,-1,-0.00162789425745111,-0.001544080474215013,-0.014775770226853915,0.016123291971644166,0.9817979362298812
2012-06-18,-1,-0.0008930197507877361,-0.0008237905986312501,-0.009114314278032564,0.015951999203064088,0.9830546491643107
2012-06-20,-1,-0.0015155960245511065,-0.0014354856500015767,-0.009114314278032564,0.015951999203064088,0.9828206095274695
2012-06-22,-1,-0.003290836064462527,-0.0030081079205506885,-0.009114314278032564,0.015951999203064088,0.9840797047106717
2012-06-26,-1,-0.0033229603853420792,-0.0030280048331089954,-0.009114314278032564,0.013374051686096799,0.9858903052860629
2012-06-28,-1,-0.0015293143491097842,-0.0015259720363921287,-0.009114314278032564,0.015160338031876776,0.9845343504779637
2012-07-02,1,5.962300411953107e-06,0.00020497505904764528,-0.014171648773895956,0.013110164629034363,0.9864830252209665
2012-07-05,0,-8.246986708335211e-05,0.0001003008346865137,-0.014171648773895956,0.009937382248378153,0.9868782338281099
2012-07-09,0,-6.719419465532649e-06,0.00016823376332959588,-0.009176981061551051,0.013110164629034363,0.9857783888977307
2012-07-11,1,3.58246229835255e-05,0.00023093147232321556,-0.004487381210290731,0.013110164629034363,0.9861156618057928
2012-07-13,1,0.00040505433341234,0.0006502183869316285,-0.004353129710794555,0.010504228305014978,0.9865958060672684
2012-07-17,1,0.0010939557273123954,0.0014511789867498153,-0.008774226563062522,0.00926625318251897,0.9864449915404101
2012-07-19,1,0.0011470535789047875,0.0015138675887755536,-0.010765314274337658,0.00926625318251897,0.9860754770341191
2012-07-23,1,0.0006263480731784447,0.0009175637897284084,-0.007576114946357935,0.00926625318251897,0.9869755621200528
2012-07-25,1,0.0003739410362816598,0.0006438808208869604,-0.0063494179453390635,0.00926625318251897,0.9872125925085167
2012-07-27,1,0.001813589230161318,0.0022397404932192966,-0.007576114946357935,0.007486514775354992,0.9888195428141224
2012-07-31,1,0.0012509527980830658,0.0015999765425451875,-0.0063494179453390635,0.007486514775354992,0.9899871063231281
2012-08-02,1,0.0008755894574712279,0.0011462974671839483,-0.007576114946357935,0.005139749027686474,0.9897874314081383
2012-08-06,1,0.0015358306599322893,0.0018992105631943533,-0.01066311992266564,0.005139749027686474,0.9899456022828782
2012-08-08,1,0.00266387787466998,0.0032341659634451863,-0.01066311992266564,0.0037711322081492686,0.9896522608169298
2012-08-10,1,0.00266342889104492,0.0031817677692769124,-0.01066311992266564,0.0037711322081492686,0.9883449041248127
2012-08-14,1,0.00186948994650633,0.0022558410668307156,-0.009534707411056435,0.005477780419491197,0.9895366112393772
2012-08-16,1,0.0018690485737661146,0.002327773673784075,-0.007002282100238563,0.008122548030508839,0.9875406765930738
2012-08-20,1,0.0012814824341811435,0.001584024115010068,-0.010630624676089002,0.008122548030508839,0.9865037238522795
2012-08-22,1,0.0023311678444093015,0.00283585050101094,-0.01488171059286368,0.0076662074856832605,0.985872593626513
2012-08-24,1,0.0016863069557679089,0.002133487870171743,-0.010630624676089002,0.0058095866447613245,0.9866174735291444
2012-08-28,1,0.0009222750791187985,0.001223499889067847,-0.014725334684901663,0.0058095866447613245,0.9860652782618278
2012-08-30,-1,-0.0003229453573574138,-0.00023123790134341453,-0.009126487001702831,0.010172262814212065,0.9871505895502471
2012-09-04,-1,-0.00040427190124773984,-0.00027991998811973285,-0.009126487001702831,0.007320223297479746,0.9878099863393343
2012-09-06,-1,-0.0005810778456747976,-0.0005128239956092661,-0.010702751981871251,0.007320223297479746,0.9872065905220121
2012-09-10,1,0.00022498656231798654,0.00036513705427493207,-0.010706079385186367,0.004003478089800571,0.9885623331855594
2012-09-12,1,0.0006737969853865593,0.0008915241362502353,-0.014246247591325955,0.002044200192544998,0.9874898708473455
2012-09-14,1,0.0022477052478652214,0.002668163195774396,-0.014246247591325955,-0.001367389619699307,0.9887272413981341
2012-09-18,1,0.0022997414996459723,0.0027993898074566773,-0.010706079385186367,0.002044200192544998,0.9894051895273788
2012-09-20,1,0.0019333206766017845,0.002371647592855055,-0.00941887608793519,0.006367421991062196,0.9895630302279469
2012-09-24,1,0.0021475056449588286,0.0026199238184147185,-0.013820548663493557,0.006367421991062196,0.9883910556470562
2012-09-26,1,0.0010045557617346897,0.0012375107010077861,-0.013820548663493557,0.006367421991062196,0.9884019588800868
2012-09-28,1,0.0010425686970025978,0.0013068894186601247,-0.014246247591325955,0.006367421991062196,0.9868894786875234
2012-10-02,1,0.0003084124548449357,0.00045853813207519353,-0.015016065176828224,0.006367421991062196,0.9869842557996775
2012-10-04,-1,-0.00015700193911488426,-0.00015028614037724663,-0.013827415313927182,0.00216613444598288,0.9881659978523746
2012-10-08,-1,-0.0011132592040884832,-0.0009733438189358108,-0.015264461625739375,0.006367421991062196,0.986754063787243
2012-10-10,-1,-0.0016778953392555735,-0.0014860269672152323,-0.014825029397039727,0.006367421991062196,0.9871313621117513
2012-10-12,-1,-0.0015468823854577068,-0.0013895218499492801,-0.018292678636563555,0.005074387661780863,0.9867358639402695
2012-10-16,-1,-0.001764890234807576,-0.0015649705611494812,-0.018292678636563555,0.001735123002889103,0.9872756373630102
2012-10-18,-1,-0.0006810144842830395,-0.0006283329994320589,-0.018292678636563555,-0.00019035379394932467,0.9871794037673026
2012-10-22,-1,-0.002551138940274554,-0.0022081044860071896,-0.014670711957523185,0.001735123002889103,0.9886308690183997
2012-10-24,-1,-0.003205125215469961,-0.0028087130795996307,-0.012514169674644459,0.003157100975894836,0.9884048713574088
2012-10-26,-1,-0.0022222323752717115,-0.0020252369289722625,-0.011968971787223344,0.0031937329164278237,0.9898193625208969
2012-11-01,-1,-0.0026472221486043544,-0.0023590014517753696,-0.011968971787223344,0.0031937329164278237,0.9900791145046515
2012-11-05,-1,-0.0033207406839338882,-0.0029300823143512773,-0.012514169674644459,0.0031937329164278237,0.9893884059590228
2012-11-07,-1,-0.0033762174258370435,-0.002978881060204764,-0.011968971787223344,0.0031937329164278237,0.9909220672559751
2012-11-09,-1,-0.003607628278744347,-0.0032087186564642334,-0.00883628612038155,0.004788903951349663,0.9907722999963634
2012-11-13,-1,-0.004058852922790913,-0.0036106172314822943,-0.0030707482352609517,0.008954118658248994,0.9905285395992316
2012-11-15,-1,-0.0051210825138970845,-0.004419224909043973,-0.0030707482352609517,0.009606829334774553,0.9896020086444727
2012-11-19,-1,-0.0049018684996140595,-0.004245178455984786,-0.0021537549974928326,0.009606829334774553,0.98922990738226
2012-11-21,-1,-0.004767149066554186,-0.004186686723677623,-0.000931815391903185,0.009850196927029079,0.9889718415600529
2012-11-26,-1,-0.003745807962587468,-0.0033821127270515254,-0.004181904301243322,0.009606829334774553,0.9901614000574017
2012-11-28,-1,-0.0032178236705944006,-0.0029309669969845666,-0.007982621044332101,0.009021999290378176,0.9908806239427448
2012-11-30,-1,-0.0035005139016368696,-0.0031593917634198483,-0.007982621044332101,0.009850196927029079,0.9897233366558612
2012-12-04,-1,-0.004197850681674647,-0.0037559554341319162,-0.004181904301243322,0.010191102316786122,0.9890533978714002
2012-12-06,-1,-0.0037044672679593937,-0.003316754638672533,-0.004181904301243322,0.010328620047929253,0.9889328088197835
2012-12-10,-1,-0.0030087372258275308,-0.0027249835819237135,-0.004181904301243322,0.011556354218541827,0.9883928049822311
2012-12-12,-1,-0.002091584169852334,-0.0019298439917996193,-0.004181904301243322,0.012300038257565345,0.9887964290702187
2012-12-14,-1,-0.0025111101465834194,-0.002265735411684433,-0.0034320292786150473,0.012300038257565345,0.9896637097835324
2012-12-18,-1,-0.0017875038090069955,-0.0016042163223690786,-0.0034320292786150473,0.010217268694304546,0.9913360094836727
2012-12-20,-1,-0.00031152148383977856,-0.00019728805399167886,-0.0030521581916521873,0.011308616500876213,0.9914707476260644
2012-12-24,-1,-0.0011146799422165862,-0.001092610395233375,-0.0022390962166408995,0.011308616500876213,0.9913206854835982
2012-12-27,0,0.0,0.0,-0.0022390962166408995,0.011308616500876213,0.991658869748295
2012-12-31,0,0.0,0.0,-0.0001685693290970476,0.011308616500876213,0.9925928620418177
2013-01-03,1,0.0005020967777718007,0.000777635790990258,-0.0022390962166408995,0.011308616500876213,0.9921211169409626
2013-01-07,0,0.0,0.0,-0.0022390962166408995,0.008675524654956027,0.9922279488766644
2013-01-09,0,0.0,0.0,-0.002472708073939948,0.006319961998664142,0.9931642201599525
2013-01-11,0,0.0,0.0,-0.003196675071072167,0.005027095162584737,0.9929982597708714
2013-01-15,0,0.0,0.0,-0.002765578795495516,0.005027095162584737,0.9931849833799143
2013-01-17,1,0.0017734146178135062,0.002227886313581082,-0.003845728092022522,0.005027095162584737,0.992541695192113
2013-01-22,1,0.001889288185549501,0.002314827560823334,-0.005984269455688626,0.005027095162584737,0.9916803247567056
2013-01-24,1,0.0018568154458026697,0.002286876734783164,-0.005984269455688626,0.003845044375065795,0.9916327826978316
2013-01-28,1,0.0011895711059575218,0.0014594314601048186,-0.008207988620186962,0.0031743603807988094,0.9908567749247554
2013-01-30,0,0.0,0.0,-0.008207988620186962,0.0031743603807988094,0.9913726492129773
2013-02-01,0,0.0,0.0,-0.012360081252269587,0.0031743603807988094,0.9926102285123243
2013-02-05,0,0.0,0.0,-0.012360081252269587,0.002381641009567436,0.9921963516964811
2013-02-07,0,0.0,0.0,-0.012360081252269587,0.0025898575482988847,0.9920817377843484
2013-02-11,0,0.0,0.0,-0.008149052035694292,0.005583180518520851,0.9921200256960581
2013-02-13,0,0.0,0.0,-0.008149052035694292,0.0065105753567875355,0.9914397756735934
2013-02-15,1,0.0016509459424156037,0.002053852567927514,-0.009542040072910382,0.0065105753567875355,0.991732391053604
2013-02-20,1,0.0025226847911220592,0.002978346781747511,-0.012360081252269587,0.005583180518520851,0.9903638425685711
2013-02-22,1,0.0019223621206703395,0.0022631399934055,-0.009542040072910382,0.005583180518520851,0.9908825152567616
2013-02-26,1,0.001530097654371379,0.001844386575210086,-0.007978516135869378,0.005583180518520851,0.9916218919650839
2013-02-28,1,0.0015938063040954642,0.0018985233793722169,-0.007978516135869378,0.004371407540949527,0.9917409063367859
2013-03-04,1,0.001410106456316059,0.0016967744365151524,-0.007032724711761093,0.007692198128007434,0.991277849671859
2013-03-06,0,0.0,0.0,-0.004720144316844364,0.007692198128007434,0.9912616763851704
2013-03-08,1,0.0011143394493016894,0.0012946399774109514,-0.007978516135869378,0.006219115849584333,0.991481799406783
2013-03-12,1,0.0014838393811828546,0.0017063711991572974,-0.007978516135869378,0.004919350470303923,0.991644858186319
2013-03-14,1,0.0018089855262309966,0.002096291998062939,-0.008716677338805457,0.004919350470303923,0.9902629555609651
2013-03-18,1,0.0015579442537051811,0.001855714634316749,-0.008045882419143748,0.006010705203377563,0.9894702225036585
2013-03-20,-1,-9.51949731347071e-05,-6.828934110199894e-05,-0.006972948177803412,0.006010705203377563,0.9906104192634594
2013-03-22,0,0.0,0.0,-0.006972948177803412,0.007894496148379039,0.9901914839317765
2013-03-26,0,0.0,0.0,-0.004493702671541281,0.011347559832506425,0.9883283250044197
2013-03-28,0,0.0,0.0,-0.004493702671541281,0.013237839992458322,0.9872144850057278
2013-04-02,0,0.0,0.0,-0.004493702671541281,0.013892120440100759,0.9871916659142127
2013-04-04,0,0.0,0.0,-0.007263912767631685,0.013892120440100759,0.9866442951324158
2013-04-08,0,0.0,0.0,-0.007439212300128122,0.014136880470163739,0.9848733474012473
2013-04-10,0,0.0,0.0,-0.007439212300128122,0.014136880470163739,0.9851913495814786
2013-04-12,0,0.0,0.0,-0.008058411729373213,0.013892120440100759,0.9862325473833697
2013-04-16,0,0.0,0.0,-0.004493702671541281,0.014136880470163739,0.987334604406128
2013-04-18,0,0.0,0.0,-0.0011316751469074068,0.014136880470163739,0.9882423723889863
2013-04-22,0,0.0,0.0,-2.2561544854705668e-05,0.014663205146833287,0.9875908223484748
2013-04-24,0,0.0,0.0,-0.0026042852521288894,0.0140021666570318,0.9884966745487075
2013-04-26,1,0.0007145726217646912,0.0007717540576988556,-0.006373731063853447,0.011710118718146902,0.9895324314280532
2013-04-30,0,0.0,0.0,-0.006373731063853447,0.012061255565331677,0.9888436049127421
2013-05-02,1,0.0006956770699889946,0.0007771861718909436,-0.006373731063853447,0.012061255565331677,0.9887419038700919
2013-05-06,1,0.0012237038124032619,0.0012293324343055695,-0.002487435267062511,0.012061255565331677,0.9898023189033286
2013-05-08,1,0.0012743743902126849,0.0012947246072934652,-0.007265308194692272,0.012061255565331677,0.9889617349476134
2013-05-10,0,0.0,0.0,-0.007265308194692272,0.01067960801602507,0.989236091942065
2013-05-14,1,0.0012158342857135937,0.0012784633589476967,-0.008894594125399774,0.006907964374679366,0.989434895600927
2013-05-16,0,0.0,0.0,-0.00901887488019268,0.011837538329430354,0.9879205052076231
2013-05-20,0,0.0,0.0,-0.00901887488019268,0.006577938781713675,0.9888612754203983
2013-05-22,0,0.0,0.0,-0.00901887488019268,0.006577938781713675,0.9883630628362539
2013-05-24,0,0.0,0.0,-0.00981911421718304,0.008631244689367651,0.9875653078000296
2013-05-29,0,0.0,0.0,-0.00981911421718304,0.006254340543999424,0.989231667278961
2013-05-31,1,0.0006812074296106476,0.0007107435892565265,-0.00981911421718304,0.006864659194873729,0.9894065868942171
2013-06-04,1,0.002126131320834165,0.0023404534111747255,-0.00981911421718304,0.006864659194873729,0.989708347764097
2013-06-06,1,0.001590677658117282,0.0017534892260014179,-0.009524740289348186,0.008089965459794003,0.9898298252338945
2013-06-10,1,0.0012252487997376276,0.0013159481055914951,-0.010247819199599334,0.008089965459794003,0.989964863127432
2013-06-12,1,0.000533249533073369,0.0005395758442697461,-0.009184405243446046,0.00939477934470021,0.9898476790096822
2013-06-14,1,0.001195884924110988,0.0013130786805379934,-0.007739545832329791,0.008089965459794003,0.9913015267856239
2013-06-18,1,0.0013089356194418418,0.0014324723942182164,-0.009055346008084199,0.007119170746651248,0.9911589874477053
2013-06-20,1,0.0007824812554403533,0.0008462890023327476,-0.007739545832329791,0.00949286907346288,0.9920418118339861
2013-06-24,1,0.0009453412268510867,0.0010710251861418168,-0.0034934916837727342,0.008886196691380783,0.99321153254964
2013-06-26,1,0.0018388872672170783,0.0021569076577184275,-0.007739545832329791,0.008886196691380783,0.9928881981549394
2013-06-28,1,0.001914465975149091,0.002262528589008039,-0.004305703435077076,0.006795672469818048,0.9935496572576104
2013-07-02,1,0.002309609863082385,0.0027253970288513034,-0.007739545832329791,0.004477144582659191,0.9923930712867325
2013-07-05,1,0.0016467719414453533,0.001876181538985641,-0.007851512900384994,0.004477144582659191,0.9926039052079834
2013-07-09,1,0.0012939108380360625,0.001469907814057553,-0.007668551214162474,0.004477144582659191,0.9927637468186656
2013-07-11,1,0.0010032778364407694,0.0010975968862305197,-0.004716482408337084,0.004117662381601015,0.9933102511082371
2013-07-15,1,0.0009294550059934927,0.0010090078977727781,-0.004716482408337084,0.0040490537540790374,0.9933905670825253
2013-07-17,1,0.0005567957874763608,0.000567185132227045,-0.0037408834328544445,0.002196195059812653,0.9937329314266865
2013-07-19,1,0.000758838379554827,0.0007602973602838098,-0.006105838329364752,0.00039259781924182754,0.9940029551873567
2013-07-23,1,0.0007384435399790949,0.0007438847264485004,-0.006105838329364752,0.0001700504322592213,0.9937287472331309
2013-07-25,1,0.00019383622651566234,0.0002673422297066765,-0.005796420360642341,0.0001700504322592213,0.9938909510392026
2013-07-29,0,-3.425086119869568e-05,6.65898933582649e-05,-0.005796420360642341,0.0019621024358815924,0.9930026377470237
2013-07-31,-1,-0.0004729954300131879,-0.0003269439408545483,-0.005759248681503081,0.0019621024358815924,0.9939500261141372
2013-08-02,-1,-0.0003445378291211416,-0.00023070615617222534,-0.004947244867137518,0.00036864697563378983,0.9948094138989866
2013-08-06,-1,-0.00048230672349341974,-0.0003643685285421737,-0.004656988734093333,0.003917539819286305,0.9943708419944578
2013-08-08,-1,-0.000836750048410226,-0.0006435336495937982,-0.004947244867137518,0.0010771407571703371,0.9945555708766374
2013-08-12,-1,-0.0017975293726661503,-0.0014250027963412586,-0.004947244867137518,0.004176970087443179,0.9943272279988518
2013-08-14,-1,-0.0021143712621794824,-0.00170136914552266,-0.0048472290358016765,0.008065680528555833,0.9935464486792849
2013-08-16,-1,-0.0027568826121165827,-0.002254174693345999,-0.003282502697955759,0.008065680528555833,0.9928783469034377
2013-08-20,-1,-0.002980063331086048,-0.0024539559454404888,-0.0010433114753207872,0.010275045650777526,0.9911984820271762
2013-08-22,-1,-0.0024987225518996728,-0.002067181966926253,-0.0023338223795312655,0.010275045650777526,0.9919585456648583
2013-08-26,-1,-0.0017287132825284349,-0.0014033420463214457,-0.0020979929059803198,0.010275045650777526,0.9926651473136847
2013-08-28,-1,-0.001878356083513216,-0.001520313203837056,-0.0008532280560200136,0.00913334940660041,0.9928109300769526
2013-08-30,-1,-0.0018913961186155343,-0.0015339200650097337,-0.0020979929059803198,0.0102872280612741,0.9920691075108816
2013-09-04,-1,-0.001062609447662081,-0.0008277379727274033,-0.0020979929059803198,0.00916620989394269,0.9925201220869176
2013-09-06,-1,-0.0019607216762687054,-0.0015762837497564754,-0.0020979929059803198,0.00972758051373656,0.991910925677761
2013-09-10,-1,-0.0022546210194275256,-0.001797700303577488,-0.002706073623356755,0.00972758051373656,0.9915818030984477
2013-09-12,-1,-0.0017070171538338297,-0.0013240404484765962,-0.002706073623356755,0.00972758051373656,0.9916490516253462
2013-09-16,-1,-0.001358994371064366,-0.00109058703566834,-0.0020979929059803198,0.00972758051373656,0.9921577984721747
2013-09-18,1,9.597502197782284e-05,0.0001498619834803528,-0.002706073623356755,0.00916620989394269,0.9927311299982092
2013-09-20,1,0.0003348721753004027,0.00035551399374927136,-0.0015406382895543774,0.00972758051373656,0.9925566109887837
2013-09-24,1,0.0004918276793348111,0.000507682568303742,-0.0021029729526806404,0.00916620989394269,0.9924763319372686
2013-09-26,1,0.0009278465491963984,0.0010269982676641863,-0.00449713109466465,0.00972758051373656,0.9912303737350168
2013-09-30,1,0.0008523667832067135,0.0009378974198466351,-0.0022405342090325844,0.009490073664926038,0.9917297871701096
2013-10-02,1,0.0011606923146179828,0.0012828812880132032,-0.004518742712967056,0.008625348201515032,0.9915253970839758
2013-10-04,1,0.0016114707509634224,0.0018281558610381103,-0.0046104108348276164,0.007092900038328725,0.9919837617805487
2013-10-08,1,0.0010003784622752364,0.001134640203382442,-0.0046104108348276164,0.008812279921098023,0.9914074727955
2013-10-10,1,0.0018539407827219147,0.002149837986145403,-0.006421751973496731,0.007092900038328725,0.9914429396485882
2013-10-14,1,0.0015330147539384179,0.001737719150375051,-0.006421751973496731,0.007277818271056737,0.9911175915140095
2013-10-16,1,0.0017983449394582815,0.0020303295609080106,-0.010697994514748125,0.007277818271056737,0.9908834453258604
2013-10-18,1,0.0027959533884531285,0.0032277803913727593,-0.010697994514748125,0.006874148242083912,0.9911431822230974
2013-10-22,1,0.002240913123617422,0.0025532706567157532,-0.00619736950461593,0.005458995050296937,0.9915889526497602
2013-10-24,1,0.0023899599921001395,0.00276248410108184,-0.004535616678534016,0.005458995050296937,0.9927480016281779
2013-10-28,1,0.0022586151487177055,0.0025809145979455066,-0.00619736950461593,0.0055206344612062745,0.9918484684313682
2013-10-30,1,0.0017395861892161753,0.0019868713681802127,-0.00619736950461593,0.0055206344612062745,0.9914700359509583
2013-11-01,1,0.0013900506471450156,0.0015631165396676147,-0.00619736950461593,0.0055206344612062745,0.9914370209521463
2013-11-05,1,0.0018140080250228015,0.002060446041350435,-0.004750560643935573,0.004963295239621732,0.9926481565516355
2013-11-07,1,0.0016121962127368249,0.0018408657542754495,-0.005727878788223173,0.004963295239621732,0.9922229649250045
2013-11-11,1,0.0013602783400160597,0.0014826553484534953,-0.007321205386745659,0.0035435971611395924,0.9920587010933348
2013-11-13,1,0.001309530958476942,0.0014118669711214147,-0.007321205386745659,0.002936010238539389,0.9926524588352408
2013-11-15,1,0.001521353898829284,0.0016615651712675143,-0.007321205386745659,0.001953541841370066,0.992495389644961
2013-11-19,1,0.0012478429052688886,0.0013470429397828031,-0.008189419565570236,0.002936010238539389,0.9915309412153451
2013-11-21,1,0.002027448808482067,0.0022568231018350185,-0.008189419565570236,0.001999975790197402,0.9915241631755745
2013-11-25,1,0.0015767803745454854,0.001749157191915857,-0.007268166288503774,0.0027799987719625964,0.9928499325176082
2013-11-27,1,0.0005579857339715105,0.0005733541219813123,-0.0053854349637064295,0.004797448554633896,0.9937535269916093
2013-12-02,1,0.0004501417093977063,0.00045852703629361977,-0.0053854349637064295,0.005420807499529833,0.9936021295747046
2013-12-04,1,0.0003486607540791743,0.0003524695221700928,-0.007268166288503774,0.005420807499529833,0.993144594454954
2013-12-06,-1,-0.0006161169163514375,-0.0004870352416862752,-0.0033370414401937224,0.005833651384931924,0.9932276373352421
2013-12-10,-1,-0.00017464365439499006,-0.00013934572286894374,-0.0033370414401937224,0.005833651384931924,0.9933657143072988
2013-12-12,-1,-0.0006901018352472526,-0.0005932791447978344,-0.004625689653840817,0.005833651384931924,0.9923377674734299
2013-12-16,-1,-0.0010246978806955878,-0.0008706119937129529,-0.00799955685791836,0.006228207066592071,0.9915630099152325
2013-12-18,-1,-0.0006462401219843759,-0.0005247033208507655,-0.008267492369379592,0.005833651384931924,0.9922901608296301
2013-12-20,-1,-0.0008058284750555695,-0.0006382473592572231,-0.008267492369379592,0.005833651384931924,0.9918590430762115
2013-12-24,-1,-0.000632851475287529,-0.0004805020342175248,-0.01109799958993845,0.005833651384931924,0.9907242350497153
2013-12-27,-1,-0.00035657785207157883,-0.00022014409859704126,-0.01109799958993845,0.003996329432072683,0.9902379217684009
2013-12-31,-1,-0.0002691625628647383,-0.00014854436775706842,-0.01109799958993845,0.0039085090530796346,0.9901147587538922
2014-01-03,-1,-0.0009611602112217357,-0.0007554543886302405,-0.010365316132965733,0.0039085090530796346,0.9905110807017099
2014-01-07,-1,-0.00043219813008606417,-0.0002744310848717496,-0.010365316132965733,0.002138367847473942,0.9913409336804913
2014-01-09,-1,-0.0010708248999735212,-0.0008126135862678058,-0.010365316132965733,0.006202203894433545,0.990052567680361
2014-01-13,-1,-0.0025311432439479474,-0.0020882931031351182,-0.008502499141204482,0.008817272050980436,0.991025205151772
2014-01-15,-1,-0.002597719239400733,-0.002148142558023724,-0.007035354481403655,0.007339373699171302,0.9912888163251893
2014-01-17,-1,-0.0023955112149198635,-0.002010048687470012,-0.005817669706922402,0.010276529726209634,0.9897502035747924
2014-01-22,-1,-0.0022370478856645008,-0.0018733089339678718,-0.006228315329970589,0.007339373699171302,0.9897278146385173
2014-01-24,-1,-0.0033213502458730136,-0.0028313094769203935,-0.0018017719500413502,0.00785501076036801,0.9901070070427735
2014-01-28,-1,-0.0028126427896610624,-0.002410844206778983,-0.002893825932167079,0.006612991137653051,0.9913059287557837
2014-01-30,-1,-0.0029816512710085737,-0.0025468185534206758,-0.0015102353262317944,0.00785501076036801,0.9908093602310014
2014-02-03,-1,-0.0031600240221271387,-0.002717638581750715,-0.0003651863168321374,0.01011644314762796,0.9901450813065399
2014-02-05,-1,-0.002835440669262489,-0.0024546754527360343,-0.00290317222472175,0.01011644314762796,0.9904444297948399
2014-02-07,-1,-0.001865511874123552,-0.0015772076402418714,-0.00290317222472175,0.007579762472202677,0.9921463319737508
2014-02-11,-1,-0.0009712637933110703,-0.0008311281052056222,-0.004071745175535581,0.006612991137653051,0.9926471581480275
2014-02-13,-1,-0.0008992202701864796,-0.0007551616852694773,-0.005149288338143097,0.00719911137392353,0.9924547013450198
2014-02-18,1,0.0006001603260582221,0.0006569160510871142,-0.005149288338143097,0.005416061767617258,0.9943013817903266
2014-02-20,1,0.00046453253939333206,0.0005160884849507953,-0.00599576541897455,0.0049571847858279165,0.9929535275425037
2014-02-24,1,0.0006525938224590419,0.0007274000555437905,-0.00599576541897455,0.005027667960901688,0.9925929450967089
2014-02-26,1,0.0005778979287199809,0.0006659615928429415,-0.00599576541897455,0.007635250588995278,0.9921283015774943
2014-02-28,1,0.0010852050764620135,0.0012514855806799556,-0.00599576541897455,0.008465281066975295,0.9917729420736341
2014-03-04,1,0.0009782478899972766,0.0010945836301574112,-0.00599576541897455,0.007635250588995278,0.9921601760147534
2014-03-06,1,0.0009442149662016426,0.001084956439485221,-0.004573876245091273,0.008465281066975295,0.992029317375876
2014-03-10,1,0.0013522236325676658,0.0015584745763027158,-0.008787067249995388,0.007635250588995278,0.9908154917159067
2014-03-12,1,0.0013270550773835303,0.0015558411644149978,-0.007051285148343657,0.00989713377375782,0.9902902366373785
2014-03-14,1,0.0016070399727482836,0.0018992954159561407,-0.011733933796308554,0.00989713377375782,0.9894838541898656
2014-03-18,1,0.001758455650364823,0.002061238470552595,-0.011733933796308554,0.010641236656759206,0.9890437724021864
2014-03-20,1,0.00022731562917395438,0.00031352066608477937,-0.005607899748962636,0.010641236656759206,0.9903149819817831
2014-03-24,1,0.0006647040003915294,0.0008200788839551555,-0.006540390513685535,0.009863395446551631,0.9904545150040182
2014-03-26,1,0.00031796105050315446,0.0003987878757847193,-0.004403578033538566,0.009863395446551631,0.9910568779028616
2014-03-28,1,0.0009251102755972021,0.0010782877353994209,-0.005983732247845763,0.008996585405853635,0.9916259397111818
2014-04-01,1,0.0009222514759027153,0.0010975583098035238,-0.00848338086243843,0.008996585405853635,0.991404655148511
2014-04-03,1,0.001321599101133146,0.0015331183992741296,-0.008491340164427,0.008383936949242169,0.9913846538421157
2014-04-07,1,0.0005638051011682904,0.0006990642969299893,-0.0063242263041643305,0.008996585405853635,0.9922425684682898
2014-04-09,1,0.001366036748032398,0.0016072116589122287,-0.007929375697261515,0.006673376832884636,0.9928280485175208
2014-04-11,1,0.000607711095609883,0.0007601237124061564,-0.005449566817034321,0.008383936949242169,0.9935620831682683
2014-04-15,1,0.0010394321166161773,0.0012367216958180164,-0.005449566817034321,0.008383936949242169,0.9938037620071426
2014-04-17,1,0.0018979430095059525,0.0022429738301537852,-0.0063242263041643305,0.003911153481013554,0.9936690959040513
2014-04-22,1,0.0018120998592935436,0.00212348045964346,-0.0063242263041643305,0.0033749667449786405,0.9939838776385324
2014-04-24,1,0.0014828957809602794,0.0017064990778721382,-0.0063242263041643305,0.003462601342723524,0.9929271563603481
2014-04-28,1,0.0012393898438701474,0.001421237906824916,-0.005199859655452525,0.004368038859853143,0.9930790053050574
2014-04-30,1,0.0008964236198215315,0.0010287095767159392,-0.004017457771812229,0.008322356742235656,0.9926168422272053
2014-05-02,1,9.477436803585339e-05,0.00010662067737912082,-0.0028271078620105963,0.008322356742235656,0.993052606881263
2014-05-06,1,0.0005024716690761844,0.0005388707564418257,-0.0028271078620105963,0.005681200081471219,0.9935446449337714
2014-05-08,0,-2.3761910731132698e-05,2.912269263034145e-05,-0.0028271078620105963,0.007509815417685161,0.9936224150402397
2014-05-12,1,0.00029186856936152497,0.000315023073180203,-0.0028271078620105963,0.005559522062072603,0.9940164701535308
2014-05-14,1,0.0007978230270608096,0.0008623372705136043,-0.0028271078620105963,0.005559522062072603,0.9938895498258189
2014-05-16,1,0.0003164269840161994,0.0003263211305136045,-0.0019435995875496208,0.007509815417685161,0.9938249912650245
2014-05-20,1,0.0003326850550830487,0.0003573814246506931,-0.0019435995875496208,0.007509815417685161,0.9936744403685754
2014-05-22,1,0.0011192761701666826,0.0012742278819963867,-0.0015250145033408487,0.006564028929473794,0.9947956148793642
2014-05-27,1,0.0012203275061385085,0.0013926475108713542,-0.0015250145033408487,0.007509815417685161,0.9928493177631239
2014-05-29,1,0.0017338542778551277,0.0019386951404375566,-0.0015250145033408487,0.006564028929473794,0.9932683274765784
2014-06-02,1,0.002063776915245204,0.0023536772748218257,-0.0019435995875496208,0.006564028929473794,0.993084869234892
2014-06-04,1,0.0020208487221201094,0.0022874444270569293,-0.002619391998874608,0.006564028929473794,0.9929513748709713
2014-06-06,1,0.0013788057278082458,0.0014848015565161205,-0.002619391998874608,0.005295364476556705,0.9931552040495913
2014-06-10,1,0.0011264843740826753,0.0011943010055656276,-0.0017225140913858625,0.005295364476556705,0.9933951090919658
2014-06-12,1,0.001272074203350519,0.0013357066318998466,-0.00450396018133929,0.0043229298859851235,0.9932544272688619
2014-06-16,1,0.0019144761013889762,0.0020659745783365,-0.005504795460331231,0.0043229298859851235,0.9928416650082633
2014-06-18,1,0.0011189534831400577,0.0011430852742254788,-0.005504795460331231,0.004654250429311625,0.9915647909464399
2014-06-20,1,0.0013051391047530034,0.0013113425665151027,-0.005504795460331231,0.004923070978649104,0.9911303179707288
2014-06-24,1,0.0001505147169724317,0.00030086964179561844,-0.00450396018133929,0.004796976205982885,0.9931629177452267
2014-06-26,1,0.00013275477318465867,0.0003158635214670233,-0.0060292330176034935,0.003471282203038497,0.9929819179840772
2014-06-30,0,-6.910737752021247e-05,0.00014233701013033882,-0.0060292330176034935,0.0029556316259363863,0.9930260469165161
2014-07-02,1,0.00047074249915461067,0.0005526516533666305,-0.007272745327430814,0.0029556316259363863,0.9924049605035952
2014-07-07,1,0.00032585541102567883,0.00040796512032175564,-0.007272745327430814,0.004159033205451285,0.9912926304090232
2014-07-09,1,0.0004947768965283263,0.0005451512482090913,-0.008943920104568244,0.004159033205451285,0.9904510867559164
2014-07-11,1,0.0008305557780067038,0.0009043436875748286,-0.008689975380597974,0.006986323985887468,0.9898982365658995
2014-07-15,1,0.00021489321411745845,0.0002421495141628639,-0.007272745327430814,0.004159033205451285,0.9910878419106518
2014-07-17,1,0.0004933276394736499,0.0005122043163506823,-0.005453294279156334,0.003084832824560898,0.9929011940724445
2014-07-21,1,0.00048030838767854994,0.00048558242889079937,-0.005453294279156334,0.003084832824560898,0.993290110103588
2014-07-23,1,0.0010668144949955364,0.0011670725020400926,-0.005453294279156334,0.00213833340359822,0.9930463401428149
2014-07-25,1,0.0006063463760864326,0.0006599562701772006,-0.0030424277225240895,0.0034955465597712697,0.9936415887762976
2014-07-29,1,4.6327152702127546e-05,8.58464229213897e-05,-0.000756755742883382,0.0049784610411653316,0.9935154887304609
2014-07-31,-1,-0.00043155512228936887,-0.0003553801114871642,-0.00022521007810318922,0.0054305322060361205,0.9937210827847536
2014-08-04,1,0.0006113769388263433,0.0006425814007642183,-0.000756755742883382,0.0049784610411653316,0.9947465172396015
2014-08-06,1,5.972580482976525e-05,9.441940955688512e-05,-0.0006372895826646736,0.0049784610411653316,0.9955349270072529
2014-08-08,1,0.0003691422754175796,0.0003862938962458845,-0.0009003346794026767,0.0028976794002441306,0.9950053120643664
2014-08-12,-1,-0.0007806078642730331,-0.0005716084598719927,-0.0014514064290422248,0.0028976794002441306,0.994774214827111
2014-08-14,-1,-0.000557487549965755,-0.00039196699205974023,-0.002195081771420412,0.0028976794002441306,0.994409889292709
2014-08-18,-1,-0.0004699456224154354,-0.00030565762046290667,-0.002195081771420412,0.0033626190628991822,0.9941329693367743
2014-08-20,1,0.0004076431625955678,0.000430053983948413,-0.0032811717505749675,0.0023590654074887476,0.9942897105091146
2014-08-22,1,0.0004252477088779789,0.0004614708820271005,-0.005014653060775163,0.002006327137480541,0.9940594333249423
2014-08-26,1,0.0009312202231580896,0.0009917343348656543,-0.005529500296005692,0.002006327137480541,0.9931469459708341
2014-08-28,1,0.0004688480761575193,0.0005251117892492412,-0.00855545816959955,0.0011424155334994164,0.9920263093528799
2014-09-02,1,0.0003101092907234822,0.00033993987087872085,-0.009833176117243757,0.0011424155334994164,0.9917579983943394
2014-09-04,-1,-0.00038905535725514714,-0.0002234139074075632,-0.010542894340734892,0.002135649836989153,0.9907117362932562
2014-09-08,-1,-0.0015321599003904826,-0.0012590927752251097,-0.00855545816959955,0.008113015938805871,0.9918212060211529
2014-09-10,-1,-0.0011299019054671876,-0.0009373411237088068,-0.01002143810771422,0.008113015938805871,0.9904293410436217
2014-09-12,-1,-0.0015078129986320276,-0.0012761866939735218,-0.011177734689151467,0.008113015938805871,0.9890200003047764
2014-09-16,-1,-0.0010562897020765342,-0.0008799520520731634,-0.015684994244884714,0.007397663646815279,0.9869675875870324
2014-09-18,-1,-0.001510440753262074,-0.0012691838700706415,-0.015684994244884714,0.00829443939766192,0.9859642790194445
2014-09-22,-1,-0.0021810201312380973,-0.001841183757212208,-0.015684994244884714,0.010315287182091841,0.9850039552307578
2014-09-24,-1,-0.001840793422213109,-0.0015180449646603682,-0.015684994244884714,0.010315287182091841,0.9841662796133271
2014-09-26,-1,-0.0015288481628183933,-0.0012698496086773273,-0.015611713216351398,0.010315287182091841,0.9842046294404027
2014-09-30,-1,-0.002522688419379808,-0.002135798487015652,-0.017115087141660042,0.012243374672438988,0.982642091561228
2014-10-02,-1,-0.002602408038407184,-0.0022288318308653528,-0.015611713216351398,0.012243374672438988,0.9831569218247744
2014-10-06,-1,-0.0016391296835550876,-0.0013962637311730527,-0.0173109255100699,0.012019239872514879,0.9826533954906619
2014-10-08,-1,-0.0025806802193605264,-0.0021975526140404706,-0.0173109255100699,0.013598781519191774,0.9825992084212218
2014-10-10,-1,-0.00407103783525714,-0.003512615627949265,-0.015611713216351398,0.01412024122292044,0.9832505758028357
2014-10-14,-1,-0.00562307354425145,-0.004918306325317145,-0.015026044165805521,0.01412024122292044,0.9842208648375251
2014-10-16,-1,-0.005454520498410562,-0.004777626481505828,-0.015375505085270929,0.013760104747415956,0.9846293602045753
2014-10-20,-1,-0.003760758539348876,-0.0033273639530868064,-0.015375505085270929,0.013434540209788536,0.9858187747870759
2014-10-22,-1,-0.0032611279743121136,-0.00288801350567313,-0.011858857494989541,0.01188446244149058,0.9870647262111351
2014-10-24,-1,-0.00317042217670393,-0.0028181399330149226,-0.009166059526672984,0.010078227820614568,0.9873946212399219
2014-10-28,-1,-0.0034988560340145536,-0.0031164874653359987,-0.009166059526672984,0.009047307178006407,0.9885352806176103
2014-10-30,-1,-0.0035759635862940816,-0.0031820289712843628,-0.011609468589409033,0.009047307178006407,0.9859555159043667
2014-11-03,-1,-0.0029850294242942527,-0.0026791328182293747,-0.007558306436524819,0.010590009763650729,0.9846714044330416
2014-11-05,-1,-0.0026630331670702695,-0.0024303358372127545,-0.0068427934303075585,0.010590009763650729,0.9846063943126092
2014-11-07,-1,-0.0019904573238477908,-0.0018410827843215725,-0.009787989163317004,0.009047307178006407,0.9821323635280935
2014-11-11,-1,-0.0013011493700841937,-0.0012462873556396555,-0.015013521410303828,0.009047307178006407,0.9805090207233084
2014-11-13,-1,-0.0024844250212512544,-0.002257880840973136,-0.011801375956593363,0.009047307178006407,0.9814909864076762
2014-11-17,-1,-0.002263199785955591,-0.002084079006054395,-0.013202147789892696,0.011136883278940963,0.9805858612403535
2014-11-19,-1,-0.0022510840533602303,-0.002086308213214169,-0.013202147789892696,0.017215868869486367,0.9781079086959205
2014-11-21,-1,-0.0015595389576239706,-0.0014740700922111544,-0.013202147789892696,0.017606884353577518,0.9772921503535711
2014-11-25,-1,-0.0019703630363796126,-0.0018305650033528676,-0.011801375956593363,0.019736192417972833,0.9770799234477524
2014-11-28,-1,-0.004182578513211271,-0.00379522852203212,-0.00957975507889221,0.019736192417972833,0.9803971634190997
2014-12-02,-1,-0.002552432585549352,-0.0023394283780238186,-0.010142485130185654,0.017606884353577518,0.9828533940307669
2014-12-04,-1,-0.0018290195914373803,-0.0016902389340280389,-0.011801375956593363,0.017215868869486367,0.9826479272421076
2014-12-08,-1,-0.004075870549824019,-0.003686714259246272,-0.009142443759956318,0.017215868869486367,0.9860479231088632
2014-12-10,-1,-0.0041154274965456115,-0.003737779904398643,-0.00861262078378086,0.010894005702457903,0.987623093550553
2014-12-12,-1,-0.0040512393576773425,-0.003703553584199491,-0.00861262078378086,0.010894005702457903,0.9864968681387221
2014-12-16,-1,-0.004015323608281249,-0.003657821237417692,-0.008095721559980444,0.007309554004880887,0.9869938942216343
2014-12-18,-1,-0.001920685519440308,-0.001801734477497884,-0.008095721559980444,0.006768239602159285,0.989011832029321
2014-12-22,-1,-0.0014294008240197246,-0.0013472669095279572,-0.005587053192946718,0.006768239602159285,0.9898776345003802
2014-12-24,-1,-0.00025054982015483676,-0.00012838372628229243,-0.004306777565538484,0.006768239602159285,0.9905984808867392
2014-12-29,-1,-0.0005190988691742643,-0.00045093796769643253,-0.00880019746754534,0.006768239602159285,0.9885376958226767
2014-12-31,-1,-0.0006893581272668157,-0.0006381439335220105,-0.005721325568390081,0.010564373284071433,0.9868465960934929
2015-01-05,-1,-0.001658347254778646,-0.0015996293312724947,-0.002647005713544399,0.016486186031485522,0.9869305421493201
2015-01-07,-1,-0.00163891307106935,-0.001586487223774934,-0.002647005713544399,0.016486186031485522,0.9858199482889405
2015-01-09,-1,-0.001139562672145966,-0.0011153498600299794,-0.005095159614910741,0.016486186031485522,0.9861196906700913
2015-01-13,-1,-0.0017103964088292863,-0.0016897155953436327,-0.005095159614910741,0.016486186031485522,0.9867632247764537
2015-01-15,-1,-0.0010050572358134917,-0.0009163763817682867,-0.005095159614910741,0.019377444614177244,0.9857830974514927
2015-01-20,1,1.555935818448235e-05,0.0002559565351594824,-0.008066417407545165,0.016486186031485522,0.9864033554144749
2015-01-22,1,0.0006175098491291532,0.0009607085894300261,-0.00983750867619374,0.016441784827682368,0.9865935091030598
2015-01-26,1,0.0010706395996709429,0.001455117800417673,-0.00983750867619374,0.013708784595969794,0.987089776892429
2015-01-28,0,-7.849483099405278e-05,0.00016052966001414226,-0.007569018683284318,0.013708784595969794,0.9882465228048369
2015-01-30,1,0.0007655190672120205,0.001057463869296271,-0.007569018683284318,0.0029420247782584574,0.989808506433775
2015-02-03,1,0.0016106384597084134,0.002018758634720407,-0.007569018683284318,0.003630332188630738,0.9904482757848296
2015-02-05,1,0.0015516808996002436,0.0019379026977741573,-0.009686040091193993,0.0013297918927637935,0.9895768355429948
2015-02-09,1,0.0015384692265151996,0.0019465567258537412,-0.011318269156866257,0.0013297918927637935,0.9894786481591159
2015-02-11,1,0.0011170335525049794,0.0014622536664368514,-0.009686040091193993,0.004153850840379729,0.9902254827101945
2015-02-13,1,0.0021298234941833074,0.002596237852957076,-0.011318269156866257,0.003531497509822455,0.9902947289123618
2015-02-18,1,0.0018916360924343362,0.00235863965512116,-0.0103748530106928,0.003805560083994321,0.9900239189791412
2015-02-20,1,0.001539566355426106,0.0019605803761219053,-0.011318269156866257,0.004153850840379729,0.9890670657104309
2015-02-24,1,0.001207926742639408,0.0015525617759979116,-0.011318269156866257,0.004153850840379729,0.9890864479262416
2015-02-26,1,0.0006743791888500402,0.0009351690693674407,-0.0103748530106928,0.004153850840379729,0.9896842919279216
2015-03-02,1,0.0008792668585486402,0.0012043438124598313,-0.011318269156866257,0.0047220287415035865,0.9886424432087595
2015-03-04,1,0.0009596479419590126,0.0012708843926051419,-0.013137889734738511,0.007427094313643028,0.987418920620484
2015-03-06,-1,-0.0007416418897036992,-0.0007220978114441057,-0.010969291658581765,0.01311677436356646,0.987861169162329
2015-03-10,-1,-0.0019085755436569563,-0.0017140685605703614,-0.006785041749892447,0.01311677436356646,0.9879610618189003
2015-03-12,-1,-0.0015257838646216392,-0.0013763369292997141,-0.006785041749892447,0.016289620239986702,0.9873746041074687
2015-03-16,-1,-0.0015295398069863349,-0.0014188236951696268,-0.006482999630462553,0.017071411742060415,0.9872483898318537
2015-03-18,-1,-0.0008756041654395966,-0.0008630185312789786,-0.0034572932182512285,0.017071411742060415,0.9875488822102171
2015-03-20,-1,-0.0012380466081020468,-0.0011836981271205918,-0.0034572932182512285,0.017071411742060415,0.9889764170421776
2015-03-24,-1,-0.0014786373484413778,-0.0013794868122571791,-0.004313079574834287,0.017071411742060415,0.9886793299304779
2015-03-26,-1,-0.0008999824548126355,-0.0008691075829809161,-0.004792554820269737,0.016289620239986702,0.9892615067636997
2015-03-30,-1,-0.000812536973425418,-0.000782000789623021,-0.0035955353269373704,0.009988945909882889,0.990414459152644
2015-04-01,-1,-0.0007656242375296661,-0.0007349549673272052,-0.0028938116148536233,0.006232005727366224,0.9915830680651617
2015-04-06,1,0.00036769893368727356,0.000513264584149944,-0.0035955353269373704,0.005271769739639048,0.9927450523972581
2015-04-08,1,0.0006148996205691156,0.0008121313223985806,-0.0046563351530384415,0.006232005727366224,0.9917312149955416
2015-04-10,1,0.0008185059352060619,0.0009942234759315336,-0.006641463498683171,0.005031434834942505,0.9915069714467233
2015-04-14,1,0.0010643055282077932,0.001267388832267654,-0.006959693678769592,0.00405090181708912,0.992039429313237
2015-04-16,1,0.00173476929524927,0.002029246946504109,-0.007569076712282636,0.0034835460664129547,0.9929355060246371
2015-04-20,1,0.0016670416443690821,0.0019793738910611042,-0.006041626109344668,0.005031434834942505,0.9933404348673522
2015-04-22,1,0.001261954559209427,0.0015002445637668452,-0.006041626109344668,0.005159667502544317,0.9925895610962703
2015-04-24,1,0.00035125244890699115,0.0003530586761844653,-0.006041626109344668,0.005031434834942505,0.9926957506572586
2015-04-28,1,0.0010406610986692776,0.00121727939739363,-0.006041626109344668,0.005031434834942505,0.992956359613371
2015-04-30,1,0.0015288723316336354,0.0018082368057896036,-0.006041626109344668,0.005383631332486315,0.9925118048630726
2015-05-04,1,0.0003814081402506377,0.00038431134929238297,-0.004487041400349732,0.007031127902783133,0.99203631454962
2015-05-06,-1,-7.984990056597132e-05,-9.15338181708801e-06,-0.008355587137049533,0.006181326706606513,0.9919751407879863
2015-05-08,-1,-0.0009207574975967296,-0.0007316369173722621,-0.008355587137049533,0.007031127902783133,0.9908103071472859
2015-05-12,-1,-0.0013044534554746878,-0.0010780199124768484,-0.004487041400349732,0.007645147873214084,0.9903500032568914
2015-05-14,-1,-0.0003517885801955689,-0.00032002120764767415,-0.006191619394541553,0.007645147873214084,0.990277255221349
2015-05-18,1,0.0002178763799995508,0.0002852662905246773,-0.0065493653851669085,0.009285649340981434,0.9902305409943389
2015-05-20,1,0.00031092929443219064,0.0004183439055267922,-0.003884967483055525,0.007466947917319958,0.991340844157289
2015-05-22,1,0.00038265422052879354,0.0004919944540593485,-0.0065493653851669085,0.009343688925049698,0.9903633978026314
2015-05-27,1,0.0001994890525052585,0.00026755994545207156,-0.0065493653851669085,0.009343688925049698,0.9901036169226003
2015-05-29,1,0.00016602141478778672,0.0001809830547677554,-0.010837083743573166,0.008732453131471325,0.9900025099401532
2015-06-02,1,0.00038139303239800203,0.00041346781742610157,-0.013515296023220862,0.007971341442970011,0.9894054428737841
2015-06-04,-1,-0.00014678547489377076,-0.00012084282466697329,-0.010987319424174118,0.007971341442970011,0.9893906173375409
2015-06-08,-1,-0.00065130499337867,-0.0005280233640104336,-0.010987319424174118,0.005813021006585706,0.990299488556791
2015-06-10,0,-1.8585918469825774e-06,2.979314566110715e-05,-0.014124136804747018,0.005813021006585706,0.9898349121556054
2015-06-12,1,3.441464170163283e-05,3.5476590788684586e-05,-0.011041192386892332,0.005813021006585706,0.9903285248672791
2015-06-16,1,0.0003304110576870899,0.00038365995188053474,-0.014719444823377078,0.005813021006585706,0.989926395945725
2015-06-18,1,0.0006652083973432158,0.0007844687641313772,-0.014719444823377078,0.005813021006585706,0.9894343546930537
2015-06-22,1,8.541688541032241e-05,9.871005695340257e-05,-0.01760838546535507,0.004337172882188803,0.9894894286337356
2015-06-24,1,0.0006741142009490264,0.0007905268621153245,-0.01760838546535507,0.003390032359602816,0.9891656077410985
2015-06-26,1,0.0010045878341524692,0.0012009254080957176,-0.01926063523162457,0.0027405378897695743,0.9885674494402173
2015-06-30,1,0.0006836130148363546,0.0008411435915750202,-0.01657126213689316,0.003390032359602816,0.9879041695464075
2015-07-02,1,3.785534476760091e-05,9.838660280240964e-05,-0.016217064608505374,0.004949824214717993,0.9880908029076081
2015-07-07,-1,-0.0005937685304888808,-0.0005585644645785033,-0.012552108918993206,0.004280291046593837,0.9887580954157461
2015-07-09,-1,-0.00033514685101478656,-0.0002846226098228876,-0.010859541682766958,0.004280291046593837,0.9893954867293318
2015-07-13,-1,-0.00039712488495698454,-0.0003834835841441911,-0.010859541682766958,0.008482698585989146,0.9874251391526003
2015-07-15,-1,-0.0006432438775829976,-0.0006087649905049937,-0.009904954629010402,0.008482698585989146,0.9870993483037052
2015-07-17,-1,-0.0010420194816559102,-0.0009588163062114166,-0.01072313918555207,0.008482698585989146,0.9870039575928535
2015-07-21,-1,-0.001806443242861831,-0.0016161392930958184,-0.009904954629010402,0.008482698585989146,0.987729594483094
2015-07-23,-1,-0.0020604149579799523,-0.0018344952425633273,-0.010986766995411831,0.008482698585989146,0.9863731788305942
2015-07-27,-1,-0.0027887019715883603,-0.002492257842819849,-0.012748661312695251,0.008482698585989146,0.9844541307974511
2015-07-29,-1,-0.0017419163252668925,-0.0015160303438576626,-0.012748661312695251,0.006738542801121416,0.9855660830370464
2015-07-31,-1,-0.0021744929611967386,-0.0018841603073278398,-0.010986766995411831,0.012836893942164128,0.9832449122458953
2015-08-04,-1,-0.0023490938281707243,-0.002051045628767594,-0.012430393368437827,0.016749749443530172,0.9810550225299508
2015-08-06,-1,-0.0022314108638973977,-0.001930982023434158,-0.012430393368437827,0.016749749443530172,0.9809852395705614
2015-08-10,-1,-0.0014800641442133337,-0.001280682553872486,-0.017099602931431545,0.015534212752447263,0.9824763948987372
2015-08-12,-1,-0.0010426704920065391,-0.0008754189891019423,-0.018400284262447587,0.008654285800900116,0.9828861099558691
2015-08-14,-1,-0.0011913822810786555,-0.0010027990227216965,-0.018400284262447587,0.00729495112376621,0.9827257972669249
2015-08-18,-1,-0.0008452984248937674,-0.0007155347382987294,-0.018400284262447587,0.015534212752447263,0.981329095388116
2015-08-20,-1,-0.0018257677457174937,-0.0015841233249044464,-0.017099602931431545,0.015534212752447263,0.9824823171487403
2015-08-24,-1,-0.0033069188073816466,-0.0028969934156560656,-0.01319245132377943,0.015534212752447263,0.9847286184159165
2015-08-26,-1,-0.002307187635710013,-0.0020488636456336834,-0.014612994496238454,0.010166302388995517,0.985219646353846
2015-08-28,-1,-0.0007013093723611721,-0.0006331315525068444,-0.015945628687508765,0.005123397574378117,0.9859329659143347
2015-09-01,-1,-0.0008806529447881236,-0.0008176231077512093,-0.014612994496238454,0.00960592782453102,0.9867620224053565
2015-09-03,-1,-0.0004247161864632662,-0.0004200592489618364,-0.014612994496238454,0.00960592782453102,0.9853679529573197
2015-09-08,-1,-0.0005087720351325945,-0.0004674988915879208,-0.012873834211283379,0.013973940032692676,0.984280890180736
2015-09-10,-1,-0.0011746682450305044,-0.0011237196445697813,-0.011059728382486408,0.018127628104138434,0.9837746498010297
2015-09-14,-1,-0.0018290315483125616,-0.0016963729595190448,-0.006661240146655144,0.018127628104138434,0.9840728627338272
2015-09-16,-1,-0.0007981971397082618,-0.0007935034943520295,-0.006661240146655144,0.01607690785322674,0.9849604691079582
2015-09-18,-1,-0.001308175792459609,-0.0012478993719436515,-0.006398557119568836,0.01607690785322674,0.9850670478965233
2015-09-22,-1,-0.0015286649987766908,-0.0014543558824221124,-0.006398557119568836,0.01607690785322674,0.984824517834741
2015-09-24,-1,-0.0016464084953242432,-0.001562037782457363,-0.006398557119568836,0.018789418442779364,0.9837575835754967
2015-09-28,-1,-0.002306694336600435,-0.002145799174345638,-0.0068205909279451665,0.018789418442779364,0.9847423718464968
2015-09-30,-1,-0.0013953903049183528,-0.0013222169309707646,-0.007669830034222128,0.019034439109159893,0.9832890784820646
2015-10-02,-1,-0.00040906326895648364,-0.00038117625861543495,-0.007669830034222128,0.014070414651353093,0.984858611679245
2015-10-06,1,0.0006342979083414331,0.0007947917197833647,-0.007669830034222128,0.0136097692271732,0.9855522181939991
2015-10-08,1,0.0017620306198489312,0.0020932248962574193,-0.008008694585360372,0.01169601364588555,0.9863705225796379
2015-10-12,1,0.0013039067177662831,0.0015628969749271985,-0.008161439648574728,0.01169601364588555,0.9867894995826948
2015-10-14,1,0.0017347251050898991,0.002060869619345175,-0.008412865572218951,0.01169601364588555,0.9866606046201315
2015-10-16,1,0.0018513873809078932,0.0021903030384101928,-0.009097440159834196,0.00752200969711819,0.9856606957365861
2015-10-20,1,0.0015445618594938293,0.0018738220279865415,-0.008756908946619213,0.0136097692271732,0.9855378636299698
2015-10-22,1,0.0024954985052905365,0.00297911234135759,-0.008756908946619213,0.0136097692271732,0.9861738818984295
2015-10-26,1,0.0011618529489982197,0.0014260528672973504,-0.008695196505225381,0.0136097692271732,0.9871784941766443
2015-10-28,1,0.002067931861035536,0.0024542062995277316,-0.008140868834776785,0.0136097692271732,0.9891464402572635
2015-10-30,1,0.0026756077509015644,0.0031782648269987907,-0.008140868834776785,0.0136097692271732,0.9889456359878178
2015-11-03,1,0.0032272693177025206,0.0037804136027585946,-0.008695196505225381,0.0074800520521449984,0.9882519767579679
2015-11-05,1,0.0031633202712462415,0.0037290025750873236,-0.009653570504486526,0.0074800520521449984,0.9864994636160385
2015-11-09,1,0.0032422986449689908,0.003838867567685137,-0.01655036397810938,0.0074800520521449984,0.9837684146241559
2015-11-11,1,0.0032418715663516504,0.0038264827404766526,-0.01655036397810938,0.007602190724494356,0.9844016660528977
2015-11-13,1,0.0026167823684242492,0.0031328787098010916,-0.01655036397810938,0.009456860492934241,0.9841826263806861
2015-11-17,1,0.002942913525667494,0.0035024176444241597,-0.01655036397810938,0.009456860492934241,0.9842792514112558
2015-11-19,1,0.003145935457355709,0.0037039560348626327,-0.02078087395101166,0.00753506082209103,0.9831532566309998
2015-11-23,1,0.00227599125597981,0.0026724289809207614,-0.02078087395101166,0.009456860492934241,0.9837692982176406
2015-11-25,1,0.002450294326610091,0.002833263231410873,-0.02078087395101166,0.009456860492934241,0.9836513775050081
2015-11-30,1,0.002251161529382143,0.0025803736949763694,-0.02078087395101166,0.009456860492934241,0.9830154880230986
2015-12-02,1,0.002170535471574168,0.0024950947889649765,-0.020399165634258917,0.0089499380093906,0.9833314029503314
2015-12-04,1,0.0007073616809188112,0.0008300960754283292,-0.017239784573672846,0.009456860492934241,0.9846807667053338
2015-12-08,-1,-0.001502308318317753,-0.0013285913146536342,-0.017239784573672846,0.009456860492934241,0.9843438690151004
2015-12-10,-1,-0.0013860320764068656,-0.0011897709315866277,-0.017622065602631777,0.0089499380093906,0.9831204623171539
2015-12-14,-1,-0.0023424953339005006,-0.002023576595433478,-0.017239784573672846,0.006912979345950149,0.9848881375716633
2015-12-16,-1,-0.0017114007933447745,-0.001427244626614484,-0.017622065602631777,0.004406971375598639,0.982763082587331
2015-12-18,-1,-0.002153923177435846,-0.0018854820160195548,-0.018250398607098876,0.004406971375598639,0.9824262559034895
2015-12-22,-1,-0.0018614606914034396,-0.0016142398351891587,-0.018250398607098876,0.010756189551041911,0.9797781035641886
2015-12-24,-1,-0.0010569008581707172,-0.0008821224160908206,-0.01947511880844778,0.010756189551041911,0.9786457505728794
2015-12-29,-1,-0.0013960172240054108,-0.0011892560889154012,-0.01947511880844778,0.01761871813024819,0.9776332809506091
2015-12-31,-1,-0.0011637107061185368,-0.0010222657028604418,-0.023370839080733716,0.02129918798395803,0.9750873473588002
2016-01-05,-1,-0.0001593827706187738,-0.00013120632778045824,-0.023370839080733716,0.024141601211723127,0.9730919748171453
2016-01-07,-1,-0.002031548841514761,-0.0018353126400531268,-0.021522299250229006,0.024141601211723127,0.9746354605288549
2016-01-11,-1,-0.0033190671407468163,-0.0029853391928007485,-0.01947511880844778,0.024141601211723127,0.9756931356753538
2016-01-13,-1,-0.00432691146769354,-0.0038132072968551844,-0.01947511880844778,0.024141601211723127,0.9750221105570651
2016-01-15,-1,-0.00455232100186163,-0.003908566927388637,-0.017955007324299006,0.02129918798395803,0.9771047981645405
2016-01-20,-1,-0.005761672108411974,-0.005011496273542789,-0.015047599428560326,0.024141601211723127,0.9766928574108322
2016-01-22,-1,-0.002095552156833642,-0.00188377768786814,-0.015047599428560326,0.020984189974743495,0.9798629727405066
2016-01-26,-1,-0.0028756995532978184,-0.002537677721074944,-0.015047599428560326,0.016083801004367758,0.9802239549391029
2016-01-28,-1,-0.001124796377059113,-0.0010138095715204695,-0.015047599428560326,0.01328478905939165,0.9822727872931272
2016-02-01,-1,-0.0010965394794086485,-0.0009571959321231664,-0.014193825613626292,0.01328478905939165,0.98424108340612
2016-02-03,-1,-0.0007637038068404364,-0.0006211946532880934,-0.014193825613626292,0.01328478905939165,0.98553250354856
2016-02-05,-1,-0.002651691409668434,-0.002249315815570041,-0.006341177559238109,0.01328478905939165,0.9858340443779569
2016-02-09,-1,-0.0020534502310162028,-0.0017769039694594414,-0.006341177559238109,0.014741245239521108,0.9830285941102117
2016-02-11,-1,-0.0019969247327158153,-0.0016898570267875413,-0.006341177559238109,0.017401889565506774,0.9827197329372441
2016-02-16,-1,-0.0014155501560736477,-0.0011493650152330954,-0.01140917757132238,0.017401889565506774,0.9833699067713041
2016-02-18,-1,-0.0005688841274037649,-0.00038250414106720423,-0.01140917757132238,0.016814815120958334,0.9838969324832305
2016-02-22,-1,-0.0004465237336822148,-0.00023385488787514897,-0.01140917757132238,0.01608036550721021,0.9840783568730702
2016-02-24,-1,-0.0008080727430353999,-0.0006149163682807738,-0.013159725323972436,0.01608036550721021,0.9845647166054317
2016-02-26,1,0.0001437030238782218,0.00016152701454173429,-0.013159725323972436,0.01608036550721021,0.9843615358558994
2016-03-01,1,0.001064890786277939,0.0012383270685081783,-0.01140917757132238,0.011385286431006829,0.9856235737311675
2016-03-03,1,0.0016023046410095282,0.0019069445719851765,-0.010551304889146036,0.00925885369824583,0.9867333714673165
2016-03-07,1,0.0013471762632360784,0.001594018236219395,-0.010643443035510179,0.00925885369824583,0.9870256452783672
2016-03-09,1,0.0008322956574822918,0.0010328147703156793,-0.010458786664397316,0.00925885369824583,0.9889243251374793
2016-03-11,1,0.0015419355391782827,0.001843623211912718,-0.010458786664397316,0.00925885369824583,0.9890022447723812
2016-03-15,1,0.0005906711979873083,0.0007300669578945438,-0.0074637371107217874,0.011385286431006829,0.9890413598534966
2016-03-17,1,0.0019183657892757938,0.002275739887269479,-0.00926533331519521,0.00925885369824583,0.9876208305650409
2016-03-21,1,0.0013770179227633366,0.0016008265988445357,-0.007893097693136477,0.01635036169744819,0.9868802494576687
2016-03-23,1,0.0009000529792002782,0.0011136169640956117,-0.004019452129515292,0.01635036169744819,0.9882483772578508
2016-03-28,1,0.0009876796335224168,0.0012311683326394853,-0.004019452129515292,0.01675867809989363,0.9874760480584155
2016-03-30,1,0.001677071756766352,0.0020591339272078265,-0.004019452129515292,0.017782143584692756,0.9867215902052825
2016-04-01,1,0.0014159193533901844,0.001746879538028375,-0.006967757674529729,0.017782143584692756,0.9860230845881097
2016-04-05,1,0.0010713684326960039,0.0013484180744358244,-0.006967757674529729,0.017782143584692756,0.9857935029501868
2016-04-07,1,0.0019712149178128377,0.0023753579153952143,-0.006967757674529729,0.017782143584692756,0.9860345011916143
2016-04-11,1,0.0020851940771537047,0.0024573698182385837,-0.007599482188774063,0.016956485146679964,0.9862060737870693
2016-04-13,1,0.002752105035507784,0.003228203571495472,-0.007599482188774063,0.016075142218110593,0.9868969177661356
2016-04-15,1,0.0029455177266877646,0.003470066250337054,-0.007599482188774063,0.014183437670441229,0.9887900966485916
2016-04-19,1,0.0036437287310252513,0.004233676869125751,-0.007599482188774063,0.012037394443008357,0.9892054500314493
2016-04-21,1,0.0038070355186757714,0.004446120134331131,-0.009905151291830313,0.012037394443008357,0.9883691088776964
2016-04-25,1,0.003996130173099044,0.00466381793523566,-0.007616696564483159,0.007011491524138536,0.9891842950351911
2016-04-27,1,0.004798353074870533,0.005566941577294511,-0.007616696564483159,0.003048277850856337,0.9891195405887103
2016-04-29,1,0.0035935530623318465,0.004121142271369652,-0.0048402783980680845,0.0017595508724698155,0.990351311776555
2016-05-03,1,0.0023173976064339834,0.002577557011865958,-0.0035712048383738067,0.0017595508724698155,0.9913293813524655
2016-05-05,1,0.0026528525210211974,0.0029787918211898216,-0.00354973945400216,0.0008934624264811491,0.9929350227801225
2016-05-09,1,0.0019628673699885286,0.0021552918719776526,-0.00262424507359191,0.003608605029351435,0.9928965986562919
2016-05-11,1,0.002573777109108045,0.0028922237331810334,-0.00354973945400216,0.002147586403731413,0.9921538336564727
2016-05-13,1,0.0015700228398238506,0.0016875451088147176,-0.0027502475372223013,0.001732802585612956,0.9930944142181055
2016-05-17,1,0.0019548585985241563,0.002142392870182661,-0.0031851951516496694,0.0008934624264811491,0.9933352958614922
2016-05-19,1,0.0018353120375086793,0.002052780496066403,-0.0031851951516496694,0.001732802585612956,0.9939913842129277
2016-05-23,1,0.0016101281133175296,0.0017713955288090827,-0.0031851951516496694,0.006974669329567039,0.9929771442850348
2016-05-25,1,0.0018231405170089296,0.0019955509523900427,-0.0031851951516496694,0.006974669329567039,0.9928964207157597
2016-05-27,1,0.0018573181399722362,0.0020518690796510934,-0.0051253728335252605,0.006974669329567039,0.9895959248659196
2016-06-01,1,0.000594907309364951,0.0006537123386130867,-0.003958850247358899,0.012200806176283652,0.9891938866675574
2016-06-03,-1,-0.00053919939109974,-0.0002851853486859423,-0.0028866178016745472,0.012200806176283652,0.9893330911512642
2016-06-07,0,-0.00023146050188959787,8.24255234794472e-06,-0.004031739926467789,0.007943114041497648,0.990254380567951
2016-06-09,-1,-0.00023003354381211582,-1.796133362066911e-05,-0.0028866178016745472,0.009665622939974437,0.9908013648358757
2016-06-13,-1,-0.0013893897504110967,-0.0009757841811693392,-0.0021942301748027857,0.012200806176283652,0.9899260200883792
2016-06-15,-1,-0.0006061797601236873,-0.00036757966818638257,-0.0019192646001037358,0.012200806176283652,0.9897231785131656
2016-06-17,-1,-0.0009228031895438942,-0.0006213090488411777,-0.00206996273266552,0.012200806176283652,0.9897977398275194
2016-06-21,1,0.0004960546503203734,0.0005775707578832511,-0.005394425618396791,0.0069475280635378014,0.9912453306773132
2016-06-23,1,0.0009587120648846763,0.0009681982347683235,-0.006204991046907026,0.005274254641449804,0.9913346126355956
2016-06-27,-1,-0.000682011036842944,-0.0005080003397647196,-0.005394425618396791,0.005274254641449804,0.9938981477136705
2016-06-29,-1,-0.0006434234173384902,-0.00042631244230077454,-0.006204991046907026,0.0025762505000871097,0.9948570148961823
2016-07-01,-1,-0.0006251113081301304,-0.0004012666581141484,-0.007008590791042071,0.0025762505000871097,0.9939931712421604
2016-07-06,-1,-0.000586325979519877,-0.00038439258575977283,-0.007008590791042071,0.0030483275508308523,0.9932603674533084
2016-07-08,0,-3.268855164473397e-05,7.123193608112098e-05,-0.007100318881637736,0.001672467168334973,0.9931527651395919
2016-07-12,1,0.0007617121827459081,0.00079568695423828,-0.007254192061432175,0.001672467168334973,0.9927135921043646
2016-07-14,1,0.0009125604057286544,0.0009892467258890677,-0.007254192061432175,0.001672467168334973,0.9923188450320568
2016-07-18,1,0.0002488763270437008,0.00029090564717591165,-0.0072411760500457265,0.004102145576051777,0.9924911179891394
2016-07-20,1,0.0001327972233768114,0.00018353864721274864,-0.0072411760500457265,0.008250103835103793,0.9918127073587183
2016-07-22,-1,-0.00010219462522343602,-3.3173868174613474e-05,-0.0072411760500457265,0.009695469632931858,0.9913096975725314
2016-07-26,-1,-0.000337793583584026,-0.00024217676755006602,-0.006563982972659435,0.009695469632931858,0.991552713617148
2016-07-28,-1,-0.0006585911010764329,-0.000520927686850578,-0.005770152668570587,0.010869641647611953,0.991272045477467
2016-08-01,-1,-0.0011592355985475585,-0.0009339706401088123,-0.0048651784422404434,0.010279320776930749,0.9919497880720749
2016-08-03,-1,-0.0007142393966044303,-0.0005589173735416851,-0.0048651784422404434,0.009448711974675532,0.992484844460775
2016-08-05,-1,-0.0013523284486819651,-0.0010924895613669298,-0.0030000659164008377,0.009448711974675532,0.9923339762920266
2016-08-09,-1,-0.0008779558658108894,-0.0007140766768712715,-0.0030000659164008377,0.009066504427032586,0.9924144380785385
2016-08-11,-1,-0.0007143328733584338,-0.0005697473081095175,-0.0030000659164008377,0.008208682708341231,0.9919335134903801
2016-08-15,-1,-0.000981909366357065,-0.0007674017368392976,-0.006262485440977716,0.008208682708341231,0.9909432235356815
2016-08-17,-1,-0.0006593736163626807,-0.0004728559257544411,-0.011398459555671571,0.007215196163212769,0.9905356339090549
2016-08-19,-1,-0.0006597418189621598,-0.00047956291793861867,-0.011545003491250634,0.006644601266127395,0.9907514155266754
2016-08-23,-1,-0.0007267279229963438,-0.0005288726816565467,-0.011545003491250634,0.006919006765896574,0.9901013177089929
2016-08-25,-1,-0.0008823780625542653,-0.000644526896045897,-0.013828240251654687,0.006377770765718636,0.9894643743139215
2016-08-29,-1,-0.0003696278532842519,-0.0002193633304941476,-0.013828240251654687,0.0014828207365860896,0.9892539693896529
2016-08-31,-1,-0.0005469973744915883,-0.00039270792729290593,-0.012654873877211682,0.006377770765718636,0.9874567660139957
2016-09-02,0,-3.99904987848463e-05,2.9305447263062203e-05,-0.012654873877211682,0.006377770765718636,0.9871479112084921
2016-09-07,-1,-0.0002307455253379251,-0.0001381513488810749,-0.011538433263826964,0.004139922581737137,0.9878903009626445
2016-09-09,-1,-3.896160488285632e-05,-1.5217631879177929e-05,-0.006490133077779552,0.004139922581737137,0.9885466486626034
2016-09-13,-1,-0.0009988413889365825,-0.0008589371906742034,-0.006490133077779552,0.0076124767424073855,0.9889296757620765
2016-09-15,-1,-0.001332858369709784,-0.001162841014662943,-0.004746806518149254,0.005858157430951716,0.9901943562469843
2016-09-19,-1,-0.001309175231919599,-0.0011843859830300962,-0.006374216546186442,0.005858157430951716,0.9902045674653053
2016-09-21,-1,-0.0010367824474152576,-0.0009311639216797848,-0.006374216546186442,0.005858157430951716,0.9897961595694821
2016-09-23,-1,-0.0019747393195374543,-0.0017435045113948625,-0.004392894813791646,0.007865038190040823,0.9905245292405106
2016-09-27,-1,-0.00240184048409011,-0.002133960247296384,-0.0031265402830122466,0.007865038190040823,0.9901864862490991
2016-09-29,-1,-0.0010310332788849574,-0.0009138655773294635,-0.006126194835553062,0.005942590736809954,0.9927327413100785
2016-10-03,-1,-0.0005471401030409657,-0.0005020730198930987,-0.008013980746850268,0.004562396195758598,0.9927565112519323
2016-10-05,-1,-0.0009351934033306416,-0.0008281790978368494,-0.009345854859058074,0.004562396195758598,0.9895188867327234
2016-10-07,-1,-0.00019502941619942566,-0.00019344269227537444,-0.009894677828824317,0.002086589951670495,0.9892073338806783
2016-10-11,-1,-0.0004871011780170367,-0.00042369287096764125,-0.009345854859058074,0.002086589951670495,0.9901153163055577
2016-10-13,-1,-0.00038123744357316397,-0.00033098441837304686,-0.009894677828824317,0.0004571133996027893,0.9894716445691846
2016-10-17,-1,-0.0006581481410519403,-0.0006037198840058772,-0.01026301144762994,0.002442207095681322,0.9892738456253002
2016-10-19,1,0.000246101041573731,0.00030524672822464683,-0.01026301144762994,0.005828018561878871,0.9880422728354482
2016-10-21,1,0.0001489154166207782,0.00017872422391441214,-0.011974876698407896,0.005733525740276271,0.9875898010466254
2016-10-25,-1,-6.75301984664209e-05,-5.533457240742894e-05,-0.011974876698407896,0.006140852899334444,0.9875445089928417
2016-10-27,1,0.00013577562741894328,0.0001998529181839236,-0.011974876698407896,0.006838733265473959,0.987495544746373
2016-10-31,-1,-0.0005308553489016052,-0.0004834813105298334,-0.013624748132090603,0.006838733265473959,0.9866036684895053
2016-11-02,-1,-0.0030534422698400322,-0.002706370912346172,-0.01178484112898585,0.008539317639048822,0.9870749216780366
2016-11-04,-1,-0.003670451480697624,-0.003245800489725401,-0.007348902242375029,0.008539317639048822,0.9871416223852008
2016-11-08,-1,-0.003375331595370807,-0.0029907719018307634,-0.01178484112898585,0.006838733265473959,0.9866512594165551
2016-11-10,-1,-0.0032111219741478743,-0.002898458629519693,-0.008951929141521011,0.010586346361276018,0.9858350295193276
2016-11-14,-1,-0.0028403843087289444,-0.0026061153577595013,-0.00642739952895504,0.01196904021635949,0.9855939267883843
2016-11-16,-1,-0.0025666953699552816,-0.0022486335025926887,-0.009020332988725885,0.010299149335127286,0.9871551079941352
2016-11-18,-1,-0.002246135902506193,-0.0020174872537218136,-0.009020332988725885,0.01196904021635949,0.9861753358300408
2016-11-22,-1,-0.0013686677994375154,-0.0012595716702536843,-0.009020332988725885,0.010299149335127286,0.9871546998515066
2016-11-25,-1,-0.00109613656652348,-0.001016249230683667,-0.009020332988725885,0.010299149335127286,0.9872870923073584
2016-11-29,-1,-0.002004753876155312,-0.0018390684741476115,-0.006078382202034442,0.010299149335127286,0.9881443302788421
2016-12-01,1,0.00041838068845169375,0.0005891581242256014,-0.006078382202034442,0.006070306932570913,0.9906015534439983
2016-12-05,1,0.0003126927741692525,0.0004668351074382534,-0.00698337444733923,0.010299149335127286,0.9897314718335342
2016-12-07,-1,-0.0008392479020180072,-0.0008335570583656317,-0.005534236539942556,0.010299149335127286,0.9904106314599805
2016-12-09,1,0.00011313757598540431,0.00022421829414476924,-0.009063662932396221,0.005222046389406228,0.9906067104520724
2016-12-13,1,0.0007794483093681716,0.0009542080083614771,-0.009063662932396221,0.0029107368589179838,0.9913172951754795
2016-12-15,1,0.0001592373340993153,0.00023459708856856415,-0.007086060674672611,0.0029107368589179838,0.9922418853893602
2016-12-19,1,0.0005442999158316321,0.0006487145797800809,-0.007086060674672611,0.0012361692834064635,0.993495898847266
2016-12-21,1,0.000340568446835236,0.0004101391126451751,-0.008458678346151632,0.0012361692834064635,0.9932471219310328
2016-12-23,1,0.0005216395715567014,0.0006378969375120254,-0.008458678346151632,0.001375329949248334,0.9932179385170844
2016-12-28,1,0.0002556511573554265,0.0003179646220953824,-0.008458678346151632,0.0043318458881132635,0.9932400842547534
2016-12-30,0,-2.1694843518918085e-05,4.933891233114274e-06,-0.008570301796889352,0.0043318458881132635,0.9929053667855358
2017-01-04,1,0.0002578135792918996,0.00033814675627302933,-0.008458678346151632,0.0043318458881132635,0.9933337136278739
2017-01-06,1,0.0003071734538457175,0.0004181117939785572,-0.008458678346151632,0.0043318458881132635,0.9930482798869289
2017-01-10,0,-7.874289436072212e-05,2.6927025618837125e-05,-0.0065377056480129155,0.0043318458881132635,0.9933400528393238
2017-01-12,-1,-0.000152873025859537,-5.2849403917742076e-05,-0.0065377056480129155,0.005917493271043769,0.9923208960731904
2017-01-17,1,0.0003696031288192347,0.0005500298335395653,-0.008570301796889352,0.004538383788624621,0.9917633189933188
2017-01-19,1,9.787032726735423e-05,0.0002594570610109565,-0.009424851474743775,0.004538383788624621,0.9919669105019652
2017-01-23,0,-1.2599863471270416e-05,0.00015461601490597413,-0.005423824108121708,0.005917493271043769,0.9918780810947173
2017-01-25,0,-7.13602266114338e-05,6.085190925081164e-05,-0.01217004987029603,0.005917493271043769,0.9908639890981095
2017-01-27,1,0.0005929409791822624,0.0008362506249763186,-0.01217004987029603,0.005314174761678487,0.9905749667275416
2017-01-31,1,5.5587582194885734e-05,0.00022429224613629587,-0.010374427164225083,0.00918542649974142,0.9910140476858537
2017-02-02,1,0.0003004768431161667,0.0004768943600642916,-0.01124274394297958,0.005314174761678487,0.9906867181077553
2017-02-06,-1,-0.00037449209275377567,-0.00035346550931492104,-0.01030314891620862,0.001943010210687986,0.9918622773509459
2017-02-08,-1,-0.001429053992654818,-0.0012966753041151566,-0.01030314891620862,0.004852089583489634,0.9906631522221819
2017-02-10,-1,-0.0008894379811207366,-0.0007853075490307988,-0.01030314891620862,0.0023182029387311094,0.9915450033609375
2017-02-14,-1,-0.0012594481641454733,-0.0011387502271499735,-0.00983166478354009,0.005127136423359914,0.9905970785190489
2017-02-16,-1,-0.0022338731131793443,-0.001946147980395442,-0.00983166478354009,0.005127136423359914,0.9900384331850317
2017-02-21,-1,-0.002194697356204219,-0.001888492475582031,-0.00983166478354009,0.004291168339032242,0.9903527353768753
2017-02-23,-1,-0.0019504240852495757,-0.0017638583781848683,-0.006882037671398553,0.004291168339032242,0.9909088884984206
2017-02-27,-1,-0.0015098427843222698,-0.0013948146876347945,-0.006882037671398553,0.0029660441240767117,0.9914272009944587
2017-03-01,-1,-0.0010576710558201062,-0.0009919026751072694,-0.006882037671398553,0.004291168339032242,0.9913125144813104
2017-03-03,-1,-0.0014020510484401268,-0.0013234954553846276,-0.005211707690496353,0.004853075594334191,0.991106573283792
2017-03-07,-1,-0.0013054033237883248,-0.0012471915908511566,-0.005211707690496353,0.0059946084263949,0.9905599515656326
2017-03-09,-1,-0.002321625024988799,-0.0021560032526413584,-0.005211707690496353,0.004853075594334191,0.9923433719746498
2017-03-13,-1,-0.0023476044960143968,-0.0021496201066811306,-0.005211707690496353,0.0059946084263949,0.9917568527705817
2017-03-15,-1,-0.0004060565479824317,-0.00030897257520806957,-0.005211707690496353,0.0059946084263949,0.9928888124287718
2017-03-17,-1,-0.0007338070761591867,-0.0006722715239081503,-0.005211707690496353,0.0059946084263949,0.9932732108569501
2017-03-21,-1,-0.0009987676171774958,-0.0009715603963423175,-0.007815554679282728,0.0059946084263949,0.992208134169584
2017-03-23,-1,-0.0011741354480320136,-0.0011676205221808704,-0.005702348762797703,0.0059946084263949,0.9926243165030909
2017-03-27,-1,-0.0013579897954531096,-0.0013131095401574147,-0.005702348762797703,0.006230035477544594,0.9921653611276234
2017-03-29,-1,-0.00219515455835422,-0.001929276136004143,-0.009746399251979234,0.004676347125839225,0.9923124883922289
2017-03-31,-1,-0.002753006059650314,-0.002393130809053329,-0.009720766174011025,0.00360505206284402,0.9927122994993458
2017-04-04,-1,-0.002272354078649397,-0.00197739383316292,-0.011725360247154183,0.0014645884133670365,0.992777795350168
2017-04-06,-1,-0.0029455856197874125,-0.002544493603227937,-0.012057871786109241,0.002472569937530823,0.9892873820557256
2017-04-10,-1,-0.0024090383148672426,-0.002073035338463136,-0.012117036384907236,0.002451684971419113,0.989728258172326
2017-04-12,-1,-0.0008611774281480873,-0.0007875570729146695,-0.012117036384907236,0.002451684971419113,0.9891951861895698
2017-04-17,-1,-0.001542670249841999,-0.0013738632016484422,-0.011821981013991477,0.0033320926348149957,0.9894224362448186
2017-04-19,-1,-0.002257696227465962,-0.0020341647194965797,-0.011745081780086849,0.0033320926348149957,0.9901449962648746
2017-04-21,-1,-0.002057151189873749,-0.0018716453233728603,-0.011745081780086849,0.0039973729272146825,0.9897635390335133
2017-04-25,-1,-0.0022358423806197944,-0.001980459652854951,-0.011745081780086849,0.003934718028879552,0.9895470075831089
2017-04-27,-1,-0.0014720146299313243,-0.00139577851616565,-0.00844325378455645,0.003934718028879552,0.9896428928869293
2017-05-01,-1,-0.001779251598114585,-0.0016650986142009723,-0.008488608395457325,0.005033929472632796,0.9893110334047162
2017-05-03,-1,-0.0026633795120264195,-0.002398951436618058,-0.008488608395457325,0.006161076839971431,0.9878434731240993
2017-05-05,-1,-0.001690882212965503,-0.0015856820019228082,-0.008154233778109516,0.005033929472632796,0.9908480386027062
2017-05-09,-1,-0.0013463074917573865,-0.0013261108527541806,-0.008154233778109516,0.006161076839971431,0.9890433218434512
2017-05-11,-1,-0.0008271010450256279,-0.0008036969073483567,-0.011088303684586479,0.006161076839971431,0.9871999281812317
2017-05-15,-1,-0.00034366196229779135,-0.00020731615613995581,-0.011088303684586479,0.005033929472632796,0.9874686413723046
2017-05-17,-1,-0.0007795942025377776,-0.0007015411573693682,-0.012588565482085761,0.005033929472632796,0.9870270271217605
2017-05-19,-1,-0.00044040708300023594,-0.0003117333799288056,-0.012588565482085761,0.007584932834248795,0.985169370760435
2017-05-23,1,0.0001270017203989477,0.0003282112706606368,-0.014481028784134464,0.003620175434809933,0.9842436239934671
2017-05-25,-1,-0.00030026793557527985,-0.0001665132184392705,-0.014481028784134464,0.004960364399986164,0.9846112777335099
2017-05-30,-1,-0.00038887717711620716,-0.0002514191444279334,-0.014481028784134464,0.0038037169077551527,0.9851860249597862
2017-06-01,0,-0.00010541779887313074,6.564180477401096e-05,-0.012588565482085761,0.003391218752128976,0.9871737440133326
2017-06-05,-1,-0.0006044350963754191,-0.0005401983934978469,-0.012588565482085761,0.004273494351943293,0.9866527542979399
2017-06-07,-1,-0.0005084853648512833,-0.0004359042877697135,-0.014481028784134464,0.003391218752128976,0.9872644795410569
2017-06-09,1,0.00028219867407139007,0.00048616520985697955,-0.012588565482085761,0.002657483966701667,0.9901662655168182
2017-06-13,1,0.0001510732227738046,0.00031562236431444926,-0.012588565482085761,0.003359127260858993,0.9901263667061967
2017-06-15,-1,-0.0007491926237354673,-0.000719564189646048,-0.004003628374479457,0.004240283680112707,0.9907575702799762
2017-06-19,1,0.0007730244102934877,0.0010115024103251997,-0.004003628374479457,0.003764721722507168,0.9928510558820067
2017-06-21,0,-2.3688021493414695e-05,0.0001381593865232805,-0.0021791198888909246,0.004240283680112707,0.9936247937994337
2017-06-23,0,-7.659531071242231e-05,4.9995812093861665e-05,-0.006140443567522326,0.003764721722507168,0.9930332283516663
2017-06-27,0,-3.982234698506141e-05,0.00011593979197391827,-0.0039396987763047325,0.005470391856336037,0.9916620359713059
2017-06-29,1,0.00010447205548186605,0.00027492693029864735,-0.0039396987763047325,0.00907117951330938,0.991059921258894
2017-07-03,1,0.0006152967807404027,0.0008163627803449245,-0.006868328541534474,0.006542848947586052,0.9914060664465931
2017-07-06,0,-8.27678063023642e-05,7.795964588774423e-05,-0.0039396987763047325,0.006542848947586052,0.992905940956045
2017-07-10,-1,-0.0003347895015859332,-0.00023779759856755299,-0.004659710561441225,0.008812529658865576,0.9923879683386004
2017-07-12,-1,-0.0001910816917218441,-9.256960647959498e-05,-0.006172117932637175,0.008812529658865576,0.9921430920838802
2017-07-14,1,0.00039224947442247126,0.0005888327671741449,-0.006172117932637175,0.008812529658865576,0.9923475396475542
2017-07-18,1,0.0002560711702651142,0.00038784196649559817,-0.006785016316898096,0.008812529658865576,0.9920396645561753
2017-07-20,1,0.0005264944807802177,0.0007039557677157401,-0.008603430140510663,0.00598309042880564,0.9914115847089995
2017-07-24,1,0.00022191348612308071,0.00038596711138842016,-0.006785016316898096,0.00598309042880564,0.991954904522152
2017-07-26,1,0.0010891801174383567,0.001329182064633757,-0.006785016316898096,0.005149365940435322,0.993065243171672
2017-07-28,1,0.001668133071957136,0.0019811943603094385,-0.007793922529748655,0.0031756894420507434,0.993250083412752
2017-08-01,1,0.0004779386199055552,0.0005678678671545115,-0.005871520961354032,0.0031756894420507434,0.9942796198005682
2017-08-03,1,0.0006040050471712139,0.0007229548252227465,-0.005871520961354032,0.004190990707481844,0.9940892674520734
2017-08-07,1,0.001389545825870665,0.0016829526377897617,-0.005871520961354032,0.004190990707481844,0.9939576123240098
2017-08-09,1,0.0010778648352173102,0.001302029364491576,-0.005202542983864137,0.004287359402582453,0.9937983388441626
2017-08-11,1,0.0006073363673575532,0.0007460394252552581,-0.005902167691027992,0.004287359402582453,0.992795758298702
2017-08-15,1,0.00028405487042021036,0.0003715688365354108,-0.002450053541933412,0.006452955717126852,0.9923931352923333
2017-08-17,-1,-0.0006618481267874217,-0.0006254198020243407,-0.0010141259972105618,0.006452955717126852,0.9932007355351458
2017-08-21,-1,-0.00035920789017183436,-0.00032985354316381076,0.0001541926873531019,0.00736059059453386,0.9933216949456558
2017-08-23,1,8.038210015141406e-06,7.602195834596629e-05,0.0001541926873531019,0.007740553448201699,0.9934549917108957
2017-08-25,1,4.233894194731144e-05,0.00013739338122711864,0.0007499938011814345,0.00926404053832076,0.9925224671771309
2017-08-29,-1,-0.00016593246550307517,-0.00011922801883084983,0.0009375490518897134,0.010547911515759652,0.9917888441405434
2017-08-31,1,0.00045358128310647695,0.0006108631342925293,-0.00017637300696611298,0.010547911515759652,0.9919717074079852
2017-09-05,1,0.0013063088277734838,0.0016069240671240349,-0.0020627971435228805,0.008047308024118857,0.992753892772549
2017-09-07,1,0.0016625468522549886,0.001980679961745272,-0.0020627971435228805,0.006639931665754087,0.9931971143800437
2017-09-11,1,0.000393087336585617,0.0004812152523838013,-0.0020627971435228805,0.006639931665754087,0.9940431174035534
2017-09-13,1,0.0009640820988552825,0.0011248073310611813,-0.0020627971435228805,0.006639931665754087,0.9944948486849897
2017-09-15,1,0.0010408402975988855,0.0012318086439552633,-0.0020627971435228805,0.007454356957600799,0.9942521095450734
2017-09-19,1,0.0010435709341610447,0.0012047027644547788,-0.0020627971435228805,0.006759312679887154,0.994370528879447
2017-09-21,1,0.001279024778477238,0.0014481283444030017,-0.0020627971435228805,0.004039000824665202,0.9947545481825316
