JNU-Tangyin/eata/results/Batch4_SP500/Batch4_SP500-A.csv
Date,Action,Predicted_Q25,Predicted_Q75,Actual_Q25,Actual_Q75,RL_Reward
2010-12-14,0,0.0,0.0,-0.0022265934121707288,0.011750339384065061,0.9915965618901871
2010-12-16,0,0.0,0.0,-0.0022265934121707288,0.0077771123832749,0.99264386763908
2010-12-20,0,0.0,0.0,-0.002726429435582116,0.0077771123832749,0.9903759971868442
2010-12-22,0,0.0,0.0,-0.0037440340767473357,0.0077771123832749,0.990523131408977
2010-12-27,0,0.0,0.0,-0.0037440340767473357,0.0077771123832749,0.9906897720949578
2010-12-29,0,0.0,0.0,-0.00340204956820267,0.0077771123832749,0.9911064334822242
2010-12-31,0,0.0,0.0,-0.00340204956820267,0.011750339384065061,0.988699535038239
2011-01-04,0,0.0,0.0,-0.00340204956820267,0.008665707802335713,0.9884754452677345
2011-01-06,0,0.0,0.0,-0.003846368750408056,0.014730404526385417,0.9860138771166751
2011-01-10,1,0.0030819034094355614,0.003083414119696386,-0.004647554999577509,0.01601830405215428,0.9846467559375256
2011-01-12,1,0.0028892790010489546,0.0029899925266584516,-0.005884672915488236,0.013761760121481278,0.9840173970563104
2011-01-14,1,0.001669046081851775,0.0019956513634337408,-0.005884672915488236,0.016940385475813304,0.983479311366869
2011-01-19,1,0.0009975558834724415,0.00137112758907042,-0.005884672915488236,0.016940385475813304,0.9835859879211849
2011-01-21,1,0.00021481323536996148,0.0006905842217276893,-0.005884672915488236,0.016940385475813304,0.9838055387335148
2011-01-25,1,0.0012164044551695285,0.0015250304174806184,-0.017440273278000462,0.015028904415495412,0.9804563491112865
2011-01-27,1,0.0021513295536154473,0.0023062993221592974,-0.017440273278000462,0.02094909529315381,0.9786771219297778
2011-01-31,1,0.0007850302671921288,0.0011860519737181122,-0.017440273278000462,0.018371716155460426,0.9794472115542951
2011-02-02,1,0.00014760021172092368,0.0006306246419446964,-0.009145854782126959,0.02197365327921877,0.9782810991114979
2011-02-04,1,0.0019041564554110966,0.0021809885423210466,-0.017271012924766613,0.02197365327921877,0.9755059391172716
2011-02-08,1,0.002535397840209872,0.0026798324124035523,-0.017271012924766613,0.019773252347047972,0.9772744100643638
2011-02-10,1,0.002895709626798991,0.0029285733002189394,-0.02046944536963457,0.019773252347047972,0.9769139898986791
2011-02-14,1,0.00246249210112478,0.0025749236269338076,-0.0234124228992702,0.01777249157146037,0.9764875037567622
2011-02-16,1,0.00239109685095393,0.0024614767760713922,-0.0234124228992702,0.012013471507034978,0.9780373770800507
2011-02-18,1,0.0023210666485747864,0.002398525096751932,-0.0234124228992702,0.01777249157146037,0.9769887017628028
2011-02-23,-1,-0.0005736336643087838,-0.00023330852945834262,-0.017675182242621768,0.01777249157146037,0.9793837454855001
2011-02-25,0,0.0,0.0,-0.017675182242621768,0.011221003498501563,0.9811339561989662
2011-03-01,0,0.0,0.0,-0.01259396028926692,0.012069416909390443,0.9823104718403444
2011-03-03,-1,-0.17379525474262603,-0.1731328700623242,-0.01259396028926692,0.011221003498501563,0.8503311029820387
2011-03-07,1,0.00196663019660814,0.0020069444819646965,-0.007913288526199623,0.010465563494976932,0.988954191955818
2011-03-09,1,0.003135429699545049,0.0032314795828183736,-0.007913288526199623,0.011179340357233745,0.9884552541318383
2011-03-11,1,0.0025811972094517267,0.0026235218897049575,-0.007474706814224686,0.011179340357233745,0.9894846422738077
2011-03-15,1,0.0009349464894313332,0.0011003400777536089,-0.003079264520175728,0.011179340357233745,0.9911395909032202
2011-03-17,-1,-0.0007088805642412783,-0.000345712803738683,-0.0012875881586304396,0.011417982192105786,0.9908905329392984
2011-03-21,1,0.00039872653781534994,0.0006360399320916279,-0.003079264520175728,0.011179340357233745,0.9909456393347091
2011-03-23,0,0.0,0.0,-0.0012875881586304396,0.011505767059395322,0.9899607915373504
2011-03-25,0,-0.00020935891479865825,0.00012124273339679157,-0.003079264520175728,0.01233277151125905,0.9886746703306429
2011-03-29,1,0.0003745554726666923,0.0006240739345405418,-0.0025503328104611728,0.013162606372020607,0.9876792314445478
2011-03-31,1,0.0009149872264049479,0.0010465185427715586,-0.0025503328104611728,0.013162606372020607,0.9879416937246812
2011-04-04,1,7.631741111653817e-05,0.00036401887233127224,-0.0011049319392987856,0.013162606372020607,0.9879163102734135
2011-04-06,1,0.0005039392165612553,0.0007261349028135822,-0.007037016222435131,0.013162606372020607,0.9872026509278691
2011-04-08,0,0.0,0.0,-0.002500138684368792,0.013162606372020607,0.9867018260067623
2011-04-12,0,0.0,0.0,-0.007037016222435131,0.014753135398700283,0.9854800409628126
2011-04-14,0,0.0,0.0,-0.007037016222435131,0.014753135398700283,0.9848430147409268
2011-04-18,0,0.0,0.0,-0.007037016222435131,0.013162606372020607,0.9853816589256573
2011-04-20,1,0.0008743444175338906,0.0009524921052893466,-0.008865618575578953,0.01173006939733324,0.9866730982109818
2011-04-25,1,0.0006252357415033841,0.0007658525409080705,-0.009498224523160724,0.011055240356298363,0.9864670152636983
2011-04-27,0,0.0,0.0,-0.009498224523160724,0.007737912577920641,0.9874455056483296
2011-04-29,0,0.0,0.0,-0.009498224523160724,0.008315725780573595,0.9875500712758598
2011-05-03,0,0.0,0.0,-0.011421777850980343,0.006970123484322862,0.9861306860877124
2011-05-05,0,0.0,0.0,-0.011421777850980343,0.006970123484322862,0.9865728251626162
2011-05-09,0,0.0,0.0,-0.011421777850980343,0.006970123484322862,0.9862325139656185
2011-05-11,1,0.0009561735596992202,0.001025151914995957,-0.009498224523160724,0.006970123484322862,0.9867052152344576
2011-05-13,1,0.004143179386468016,0.004514172793076105,-0.011688030717522243,0.005777067756698081,0.987204866911545
2011-05-17,1,0.002941537164224048,0.0031592332050953097,-0.011688030717522243,0.006970123484322862,0.9860109239173223
2011-05-19,0,0.0,0.0,-0.011430511666963709,0.006970123484322862,0.9864832164068957
2011-05-23,0,0.0,0.0,-0.008931537380134809,0.009296619936335543,0.9860336201350245
2011-05-25,0,0.0,0.0,-0.011430511666963709,0.009988263465067676,0.9854933572498964
2011-05-27,0,0.0,0.0,-0.014163493920658172,0.009988263465067676,0.9848310635865596
2011-06-01,0,0.0,0.0,-0.011430511666963709,0.0152070667622989,0.9851897910321987
2011-06-03,0,0.0,0.0,-0.008519579380963154,0.01806744008688381,0.9847834985237448
2011-06-07,1,0.000262737008557533,0.00027465951353329967,-0.007577006277976668,0.01806744008688381,0.9854381248200095
2011-06-09,1,0.0003886860291970657,0.0005235964203301308,-0.011430511666963709,0.012458361877270398,0.984020708034395
2011-06-13,-1,-0.0009514999878433641,-0.0008558510094367231,-0.01760303429198997,0.012458361877270398,0.9828147877169312
2011-06-15,-1,-0.0015311250155800246,-0.0013563293417129612,-0.01698516427873316,0.010410697412516726,0.984911785299502
2011-06-17,-1,-0.0011151086943047145,-0.0010159467554474307,-0.01760303429198997,0.010410697412516726,0.9838277756307637
2011-06-21,1,0.00041613392639308633,0.00048398174067672284,-0.01760303429198997,0.009158044312467271,0.9847299058811712
2011-06-23,1,0.00041070665775501093,0.00045329458511434405,-0.017125313236680165,0.008137843156754216,0.9859179287026609
2011-06-27,-1,-0.0004109211808193272,-0.0003177023134169172,-0.017813987413351946,0.004892542794173095,0.9851165194084692
2011-06-29,1,0.0010641599072111544,0.001259006599828635,-0.021257546706369056,0.0018664503167175519,0.9834987504635349
2011-07-01,1,0.001930427146264201,0.002255858148569424,-0.025145550159796488,-0.00031953371822045456,0.9824189157689622
2011-07-06,1,0.0019144712446776922,0.002258588078002559,-0.032776625741101836,-0.00031953371822045456,0.9803865394891078
2011-07-08,1,0.0008672836945011145,0.001044855958583263,-0.032776625741101836,-0.00046215164278644983,0.9802320419098622
2011-07-12,0,0.0,0.0,-0.033817963242533215,-0.00031953371822045456,0.9757000736404825
2011-07-14,-1,-0.0012994696056670878,-0.0010186622830883417,-0.03714570975988671,-0.00031953371822045456,0.9698488886276782
2011-07-18,-1,-0.004259590095767976,-0.0035015039151461923,-0.03655415978672556,0.013146720670721607,0.9677516900938649
2011-07-20,-1,-0.0023369986157794377,-0.0018815829979075206,-0.03655415978672556,0.001669233621012053,0.9673458888865787
2011-07-22,-1,-0.003517916894888461,-0.0028405178006744875,-0.04728511722229716,0.0013135932176324215,0.9618721131197494
2011-07-26,-1,-0.003988117213266395,-0.0033402319433463038,-0.04728511722229716,0.01391407929430731,0.9608363936302907
2011-07-28,-1,-0.004553338632301102,-0.0039523486279088235,-0.03809934080687261,0.03629226437271847,0.9612736590984178
2011-08-01,-1,-0.005368145455551637,-0.004688686131666646,-0.03809934080687261,0.045757892169019584,0.9573919293083732
2011-08-03,-1,-0.006611130695234125,-0.005766860482400901,-0.026320221146061848,0.045757892169019584,0.9590996462672287
2011-08-05,-1,-0.009608288642181873,-0.008360478649922749,-0.029872249251568474,0.045757892169019584,0.9589887267329973
2011-08-09,-1,-0.011235911564105663,-0.009749303764407611,-0.024383963803803928,0.045757892169019584,0.9628675045234176
2011-08-11,0,0.0,0.0,-0.024383963803803928,0.039866928979918975,0.9667421191775385
2011-08-15,0,0.0,0.0,-0.024383963803803928,0.038970824267159136,0.9687266780109681
2011-08-17,0,0.0,0.0,-0.024119311269986447,0.04190185283453619,0.967860810616154
2011-08-19,0,0.0,0.0,-0.019707924958555605,0.04190185283453619,0.9715534465266987
2011-08-23,0,0.0,0.0,-0.024119311269986447,0.038970824267159136,0.9706477275068455
2011-08-25,0,0.0,0.0,-0.02839387287541792,0.01968284765029784,0.9705333809405852
2011-08-29,0,0.0,0.0,-0.02839387287541792,0.015034329465550207,0.9729047006849098
2011-08-31,0,0.0,0.0,-0.03195159866013355,0.023761982009157964,0.9693458058722904
2011-09-02,0,0.0,0.0,-0.038641117904618424,0.023761982009157964,0.9679319241377707
2011-09-07,0,0.0,0.0,-0.038641117904618424,0.02980839886934756,0.9667892479409197
2011-09-09,0,0.0,0.0,-0.038641117904618424,0.0358767153958299,0.9648010012709326
2011-09-13,0,0.0,0.0,-0.038641117904618424,0.0358767153958299,0.963037912448894
2011-09-15,0,0.0,0.0,-0.03884851362388358,0.02980839886934756,0.9640186500552683
2011-09-19,-1,-0.0028786420006058056,-0.002736281179504435,-0.03884851362388358,0.02980839886934756,0.9648482668513183
2011-09-21,-1,-0.005065825055768757,-0.004612857794816206,-0.032020730566555265,0.02980839886934756,0.9673505619746026
2011-09-23,-1,-0.00482898604587686,-0.004430691600897776,-0.0206717772263358,0.0358767153958299,0.9657138798045185
2011-09-27,-1,-0.0037511699121533094,-0.0034660655418501064,-0.03884851362388358,0.03789847963268262,0.9639526760594577
2011-09-29,-1,-0.0031609220870515856,-0.002939825354821108,-0.0206717772263358,0.04457109104217186,0.9630974942047444
2011-10-03,-1,-0.006829646173587696,-0.0062275921049052205,-0.009732659517202282,0.04457109104217186,0.9610661386656216
2011-10-05,-1,-0.0003333320592478566,-9.036205841052953e-05,-0.0206717772263358,0.031147807665768548,0.9633931601283046
2011-10-07,-1,-0.0016687864865603573,-0.0016475238468244744,-0.009732659517202282,0.026801812331334825,0.9666971949740465
2011-10-11,1,0.0006452557820001087,0.0009740202590734211,-0.009732659517202282,0.026770016331873557,0.9685391653125314
2011-10-13,-1,-0.0005395904024860968,-0.00043992816043338735,-0.009732659517202282,0.026770016331873557,0.9660195554668178
2011-10-17,0,-2.5081922825642656e-05,0.00014675074623331252,-0.008102795145611214,0.025180183363995183,0.9669150781573972
2011-10-19,1,0.0005632509695912729,0.0008223811630285084,-0.004403604536259709,0.025180183363995183,0.9671763223381484
2011-10-21,1,0.0022759257388773753,0.0027152360738217462,-0.01693997194268005,0.023028598079884322,0.9685049537735593
2011-10-25,1,0.0028326413375064415,0.003332687667362896,-0.014989772292909825,0.022309281472235078,0.9717691603921811
2011-10-27,1,0.0060672646813694844,0.0070061955381243764,-0.029660080110490004,0.021988919756667478,0.9739470256943172
2011-10-31,1,0.0033538604228397317,0.003967518652470366,-0.014989772292909825,0.022048213611338574,0.977228313221091
2011-11-02,1,0.0020640313133147474,0.0024797597895579505,-0.007131334708159325,0.022048213611338574,0.9770060491310066
2011-11-04,1,0.00249462416823694,0.002967311519138939,-0.014989772292909825,0.01945683070025543,0.976932857328672
2011-11-08,1,0.0038348701325005598,0.004481135886390391,-0.014989772292909825,0.010540036038033274,0.9781975480958119
2011-11-10,0,0.0,0.0,-0.014989772292909825,0.010540036038033274,0.978211863845371
2011-11-14,0,0.0,0.0,-0.027789288323994844,0.008556879464112627,0.9761206283102051
2011-11-16,1,0.004006234301437631,0.004857624722451373,-0.027789288323994844,0.008254113889821873,0.9754734100845628
2011-11-18,0,0.0,0.0,-0.01982401513885527,0.008254113889821873,0.9782179354878828
2011-11-22,0,0.0,0.0,-0.010788859340968772,0.010347781540737008,0.9775767207488673
2011-11-25,0,0.0,0.0,-0.007318790957826353,0.01514178744028424,0.9791848385213113
2011-11-29,1,0.004172890764955528,0.005032551910836335,-0.010788859340968772,0.014208637120457153,0.9791234295947004
2011-12-01,1,0.0054547264227856156,0.006458388778424244,-0.010788859340968772,0.014208637120457153,0.9806303735062282
2011-12-05,0,0.0,0.0,-0.008125569124602692,0.01514178744028424,0.9810821534982526
2011-12-07,0,0.0,0.0,-0.007142864666141178,0.017438782656346165,0.9800062353412413
2011-12-09,0,0.0,0.0,-0.006695861455734333,0.01966533738270832,0.9820550859186491
2011-12-13,0,0.0,0.0,-0.00504320599123568,0.01966533738270832,0.9841069908996712
2011-12-15,0,0.0,0.0,-0.00504320599123568,0.022738836344044992,0.983476846261856
2011-12-19,1,1.604254433214638e-05,0.00039333084192664006,-0.003931813462400866,0.024407918805949443,0.9818330562142044
2011-12-21,1,0.0007101741083160324,0.0011378936590546547,-0.003931813462400866,0.022738836344044992,0.983274109410677
2011-12-23,1,0.001268512431602335,0.0017100796418697158,-0.003931813462400866,0.026615142806614034,0.9812592287577406
2011-12-28,-1,-0.000563612232802645,-0.00051478994437996,-0.003931813462400866,0.026615142806614034,0.980736001282865
2011-12-30,-1,-0.0007987095521492442,-0.0007927154575025393,-0.0054401015719709265,0.024407918805949443,0.9808271283855203
2012-01-04,1,0.0005068258215034147,0.0007092400448106658,-0.006111666895711713,0.024407918805949443,0.981448843146909
2012-01-06,1,0.002162227174884534,0.002681577298338582,-0.010886838673241127,0.02765437568753,0.9809480709165839
2012-01-10,1,0.002487666996829371,0.0029735059717556182,-0.010886838673241127,0.025859132184464707,0.9824023502571002
2012-01-12,1,0.0005843470041522117,0.0006313859727729673,-0.012152864214150162,0.025859132184464707,0.9820002255712427
2012-01-17,1,0.0012003437162274807,0.001314925168775214,-0.011400060578068767,0.018542310798558538,0.9832297148342226
2012-01-19,1,0.002414060562950026,0.0027411570393410063,-0.011400060578068767,0.00903359129210065,0.9848190063409804
2012-01-23,1,0.0034744645868357072,0.0040661893506904094,-0.012637346157161158,0.00903359129210065,0.9842214697185541
2012-01-25,1,0.0053207477166667405,0.006146585995276144,-0.012637346157161158,0.005339335603257038,0.9858873493617589
2012-01-27,1,0.003122121468667252,0.0035090431132175186,-0.011048332654244793,0.007827129812618232,0.9878523779737672
2012-01-31,1,0.0022693972600104444,0.002716315457938738,-0.009397073185950643,0.006762021905794405,0.9891179216417891
2012-02-02,0,0.0,0.0,-0.009229039839293109,0.006762021905794405,0.9905444638027808
2012-02-06,0,0.0,0.0,-0.010394760534823765,0.004880114958289798,0.9913391666410278
2012-02-08,0,0.0,0.0,-0.010394760534823765,0.006762021905794405,0.9895176609711519
2012-02-10,0,0.0,0.0,-0.010394760534823765,0.006762021905794405,0.9893592864852074
2012-02-14,0,0.0,0.0,-0.010394760534823765,0.008848039763898786,0.9879372815186636
2012-02-16,0,0.0,0.0,-0.010394760534823765,0.013322625711423777,0.9870853346358271
2012-02-21,0,0.0,0.0,-0.009229039839293109,0.013322625711423777,0.9876041800726836
2012-02-23,0,0.0,0.0,-0.010393898087785087,0.008848039763898786,0.987296773149061
2012-02-27,0,-0.00023419775989954282,0.00028106522854689196,-0.010393898087785087,0.014356039759554552,0.9868850936229411
2012-02-29,1,0.0022231927674574454,0.0022606951959367556,-0.011685142574427453,0.01455441572375862,0.9849343513434196
2012-03-02,1,0.001527985169380061,0.001614521120420823,-0.011685142574427453,0.01455441572375862,0.9858682286719377
2012-03-06,1,0.0018127260150453584,0.0018361786635862861,-0.005349793700477208,0.01455441572375862,0.9871438225794321
2012-03-08,1,0.002209766299309795,0.002214761765057148,-0.007195551963304449,0.01356417850909669,0.9868282422600432
2012-03-12,1,0.0013589433727371533,0.0014628067232288567,-0.014409461387040062,0.01356417850909669,0.9854836694963603
2012-03-14,1,0.0021253334069944252,0.00213028915562513,-0.014409461387040062,0.01356417850909669,0.9858379684869241
2012-03-16,1,0.003448595011070186,0.0038053465154341453,-0.022850740287917795,0.009440575459121615,0.9848470484342063
2012-03-20,1,0.0028684401543584183,0.0031310586740011777,-0.022850740287917795,0.01356417850909669,0.9849890419685461
2012-03-22,0,0.0,0.0,-0.01300079220254295,0.01356417850909669,0.9858819022604004
2012-03-26,0,0.0,0.0,-0.023814468951036463,0.005242397868954759,0.9846730020959016
2012-03-28,0,0.0,0.0,-0.02086470667613262,0.00999557023118521,0.9838528108148791
2012-03-30,0,0.0,0.0,-0.02086470667613262,0.014110527896335337,0.9829600377682252
2012-04-03,1,0.0037899516946511514,0.004202362862597148,-0.02086470667613262,0.016470830475001516,0.9823854818175674
2012-04-05,1,0.0033106602929348877,0.003650396595892086,-0.021598777765109912,0.014110527896335337,0.9820689855463658
2012-04-10,1,0.001884860159512672,0.0020688331310106138,-0.015650812560007277,0.014110527896335337,0.984112889283612
2012-04-12,1,0.0031891759383649567,0.003602545446277137,-0.015650812560007277,0.006614050424004801,0.9840311968162646
2012-04-16,1,0.0010079147212868115,0.0010241388635525732,-0.014066179571410715,0.006614050424004801,0.9854191596720915
2012-04-18,1,0.000770698968400007,0.000771532308911546,-0.015458206065616695,0.006614050424004801,0.9837167119310535
2012-04-20,-1,-0.0005257168638652642,-0.00028756740305546614,-0.018706594224137073,0.0046154604421833586,0.9836075458208116
2012-04-24,-1,-0.0017123493466973984,-0.0013399695323453454,-0.014066179571410715,0.01486332609538714,0.9843243310614872
2012-04-26,1,0.00032858730545903624,0.00046969733675059213,-0.014066179571410715,0.008312223745936827,0.9858409300507813
2012-04-30,-1,-0.0004231485371083858,-0.00014909931004838354,-0.014066179571410715,0.008312223745936827,0.9857347288103145
2012-05-02,1,0.00038773422743020286,0.0005669805671816397,-0.017143623607010924,0.006327791752122064,0.9846595835460681
2012-05-04,-1,-0.002290647616517571,-0.0017586710128157004,-0.01500141802470484,0.006327791752122064,0.9845493881868705
2012-05-08,-1,-0.0042409334218294695,-0.0033740839927511816,-0.014627985418542124,0.012044908929131827,0.9829029579399188
2012-05-10,-1,-0.0052673402056143985,-0.004319405618183902,-0.014627985418542124,0.012044908929131827,0.9824482244021587
2012-05-14,-1,-0.006864036139380025,-0.005773266913835571,-0.015914090386306694,0.012519996490427834,0.9814101967165252
2012-05-16,-1,-0.006207241094102556,-0.005160264302315936,-0.01284497200597007,0.012044908929131827,0.983394330724331
2012-05-18,-1,-0.006476177198228031,-0.005446472317063689,-0.010433759888422885,0.012519996490427834,0.9826898136163216
2012-05-22,-1,-0.005075890691169339,-0.004155181543607879,-0.012029267383945897,0.01206175235978645,0.983873326899143
2012-05-24,-1,-0.004648048441987251,-0.0038354855871318267,-0.013209394793636718,0.01206175235978645,0.9832488113799531
2012-05-29,-1,-0.003960947327823668,-0.003297183913342396,-0.015914090386306694,0.009703783155583411,0.9828344715793923
2012-05-31,-1,-0.0037265408008285944,-0.0030943513679964835,-0.013209394793636718,0.010080184790644922,0.982991018633897
2012-06-04,-1,-0.004986792960923782,-0.00431318776956695,-0.012029267383945897,0.01206175235978645,0.9834591719233036
2012-06-06,-1,-0.002979318717971422,-0.002567826328918206,-0.012029267383945897,0.010249776264846671,0.9854259119755938
2012-06-08,-1,-0.0029547111329732683,-0.0024746491145256743,-0.013209394793636718,0.010249776264846671,0.9842291139514487
2012-06-12,-1,-0.001933362564837243,-0.0016571273362343646,-0.012029267383945897,0.00909979112393682,0.9850574332106765
2012-06-14,-1,-0.002549386431536246,-0.0021699450205754176,-0.013402192720556726,0.010666835348880424,0.9846659789096402
2012-06-18,-1,-0.0008450929084703699,-0.0008074433303820038,-0.013402192720556726,0.010568998831816053,0.9843170558495842
2012-06-20,-1,-0.0011616236184143053,-0.0010185824690541188,-0.01102030340058818,0.010568998831816053,0.9846981913351609
2012-06-22,-1,-0.0023777257464123926,-0.0020911111460928376,-0.01682467034139036,0.010568998831816053,0.9846577776793239
2012-06-26,-1,-0.0022673694495034848,-0.0020343204713080395,-0.01682467034139036,0.013945253567333595,0.9845932581095438
2012-06-28,-1,-0.0015545564470573006,-0.0014384412148621473,-0.011417273374589277,0.014399929641909594,0.9831323102960404
2012-07-02,-1,-0.0004301537661912194,-0.0003992027168950446,-0.011417273374589277,0.013945253567333595,0.9848568808133141
2012-07-05,-1,-0.0004712406167083274,-0.00045438075757535287,-0.012950742083330226,0.0132156024137803,0.98520283127216
2012-07-09,-1,-0.0012468705655451237,-0.0011240895672861326,-0.008817207875040083,0.013945253567333595,0.9853722533236838
2012-07-11,-1,-0.0018399396905568782,-0.001761228895110034,-0.007067791198717386,0.014399929641909594,0.9837395172979015
2012-07-13,-1,-0.0020042266481203747,-0.0017629956207072394,-0.005906581752595667,0.014106420090716477,0.984865910365205
2012-07-17,-1,-0.0012653023716172338,-0.0011533776051411155,-0.004430124042572009,0.013474605454227555,0.9856375807770055
2012-07-19,-1,-0.0005156649711140888,-0.0004952944355890799,-0.007778834351610595,0.010890993789178356,0.9833248483698441
2012-07-23,-1,-0.0020008150505613775,-0.0018451805819629978,-0.004430124042572009,0.010890993789178356,0.9843867242957248
2012-07-25,-1,-0.0020758306519258426,-0.001920905116664973,-0.0030798493217531558,0.010706824894045045,0.9852884143240137
2012-07-27,-1,-0.0006549513508120445,-0.0006195365178952456,-0.0030798493217531558,0.009201089970435894,0.9876607950295078
2012-07-31,1,0.00011304059216037078,0.00026657677564939284,-0.007671274225455177,0.009201089970435894,0.9872491905902463
2012-08-02,-1,-0.0005557345784942094,-0.0005201676432880544,-0.004430124042572009,0.009201089970435894,0.9872906176176551
2012-08-06,1,0.0007123339814463237,0.0009717328643146111,-0.004430124042572009,0.006484438262540478,0.9891731239140573
2012-08-08,1,0.0020068407706341183,0.0024610343365224297,-0.007054978902055458,0.004003244434592417,0.9893869785190894
2012-08-10,1,0.001751145632337959,0.0021398479019393304,-0.005215115365554183,0.006484438262540478,0.9884729711819341
2012-08-14,1,0.0013023708587860078,0.0016022273217995093,-0.00944872489813384,0.006484438262540478,0.987667785091697
2012-08-16,0,0.0,0.0,-0.008522170452748177,0.01067320143648256,0.9889297644680778
2012-08-20,0,0.0,0.0,-0.005215115365554183,0.01067320143648256,0.9895098984307931
2012-08-22,1,0.002574121437247406,0.003055005683351428,-0.008522170452748177,0.008793276574154388,0.9890522801155389
2012-08-24,1,0.0030480409616939815,0.0036054774493200848,-0.008522170452748177,0.006348500463779977,0.9884293499106606
2012-08-28,1,0.0022636967461657186,0.0027349825457569383,-0.008053328136649081,0.006348500463779977,0.9892984649592469
2012-08-30,1,0.0014509196778937335,0.0017090793195817758,-0.008053328136649081,0.008161252491633934,0.9893433467990737
2012-09-04,1,0.002172896476246137,0.0025971958696157788,-0.008053328136649081,0.00892370018480883,0.988979134949326
2012-09-06,1,0.0019593697113847856,0.0022712283982218046,-0.006384321611951107,0.008161252491633934,0.9902018223006075
2012-09-10,1,0.0027106070491669694,0.0031388415374108995,-0.008129931226164143,0.006257984509577949,0.9905344581140736
2012-09-12,1,0.0018524141845318756,0.002153095461737928,-0.008129931226164143,0.006257984509577949,0.9901643324126381
2012-09-14,1,0.0031653881957903313,0.003561801447899692,-0.008895870486316048,0.0035334231168805347,0.9914615515874355
2012-09-18,1,0.003533462842464697,0.004080526623223436,-0.008895870486316048,0.005703085037516953,0.9909071787867826
2012-09-20,1,0.0033023902219478604,0.0038187160973872903,-0.008895870486316048,0.004378566694368471,0.9901750379596266
2012-09-24,1,0.0032269376320240677,0.0037834474423824576,-0.009896229570516824,0.005703085037516953,0.9897216341901468
2012-09-26,1,0.0019169555101070002,0.0021985259785233784,-0.011469648514401257,0.006158841963574029,0.9895522622266002
2012-09-28,1,0.0018318492918452014,0.0020752603191303656,-0.011469648514401257,0.006158841963574029,0.9895189917905427
2012-10-02,1,0.0017327257950714406,0.0019228951693692682,-0.011469648514401257,0.006158841963574029,0.9885726579391789
2012-10-04,1,0.0017760709013222623,0.0019287527730190036,-0.011469648514401257,0.007057875447909669,0.9878450787059493
2012-10-08,0,0.0,0.0,-0.013296744502050538,0.007833032767608628,0.9869093499538053
2012-10-10,0,0.0,0.0,-0.011574454042688012,0.007833032767608628,0.9875501023589146
2012-10-12,0,0.0,0.0,-0.013383815728437304,0.007833032767608628,0.9876003290092967
2012-10-16,0,0.0,0.0,-0.013383815728437304,0.007057875447909669,0.9878289897558975
2012-10-18,0,0.0,0.0,-0.011420500622867131,0.007833032767608628,0.9874444432234536
2012-10-22,0,0.0,0.0,-0.012422931412434557,0.007833032767608628,0.9867801172763844
2012-10-24,0,0.0,0.0,-0.01112546644625216,0.01611992746562298,0.9857184445211524
2012-10-26,0,0.0,0.0,-0.01112546644625216,0.016582827777133886,0.9853114425510693
2012-11-01,-1,-0.000786008459240441,-0.0007259958277615838,-0.01112546644625216,0.01611992746562298,0.9864448320006902
2012-11-05,-1,-0.0004421314117609766,-0.0004110696109375537,-0.01112546644625216,0.011307837198070202,0.9865918021416735
2012-11-07,0,0.0,0.0,-0.009945150676908132,0.010783362991422123,0.9871873379733705
2012-11-09,0,0.0,0.0,-0.009945150676908132,0.014424332568164819,0.9865200030172163
2012-11-13,0,0.0,0.0,-0.009011725565271298,0.017612982313401217,0.9848575794649692
2012-11-15,0,0.0,0.0,-0.009011725565271298,0.017612982313401217,0.984723666490258
2012-11-19,0,0.0,0.0,-0.009011725565271298,0.017612982313401217,0.9852506029017026
2012-11-21,0,0.0,0.0,-0.0048007040250202405,0.019186644667911628,0.9855720434129487
2012-11-26,0,0.0,0.0,-0.007820003526745162,0.017396532332211397,0.9873739534377111
2012-11-28,0,0.0,0.0,-0.007820003526745162,0.016708691920210992,0.9878540703770823
2012-11-30,0,0.0,0.0,-0.009011725565271298,0.019186644667911628,0.9860641406979652
2012-12-04,0,0.0,0.0,-0.007820003526745162,0.019977751376572466,0.9855130886053203
2012-12-06,0,0.0,0.0,-0.007298402727143039,0.019977751376572466,0.9853049905429604
2012-12-10,0,0.0,0.0,-0.007298402727143039,0.020885701010231805,0.9852150281830333
2012-12-12,0,0.0,0.0,-0.007298402727143039,0.019164586744789686,0.9870183788419069
2012-12-14,0,0.0,0.0,-0.006975861134511143,0.019164586744789686,0.9874745057043484
2012-12-18,0,0.0,0.0,-0.006975861134511143,0.01898956183747959,0.9881988999466857
2012-12-20,0,0.0,0.0,-0.006307986115074445,0.013085797217218231,0.9896074619345198
2012-12-24,0,0.0,0.0,-0.006307986115074445,0.013085797217218231,0.9888368438265965
2012-12-27,0,0.0,0.0,-0.005844396243661961,0.01534180273196463,0.9885417068080632
2012-12-31,0,0.0,0.0,-0.005844396243661961,0.011850510364622124,0.9900327882888676
2013-01-03,0,0.0,0.0,-0.005844396243661961,0.011171106767982044,0.9903560843631187
2013-01-07,1,0.0021022053411432705,0.002343333078156204,-0.005844396243661961,0.011171106767982044,0.9900853199489682
2013-01-09,1,0.0025263760335530543,0.0028184811329979263,-0.005406182895975101,0.009193576220389115,0.991608580840119
2013-01-11,1,0.002311725399724068,0.002541633344430378,-0.0057547863608280216,0.009193576220389115,0.991537923116451
2013-01-15,1,0.0017790040708434917,0.0019054100120142585,-0.004639630359952515,0.009193576220389115,0.9918696563200632
2013-01-17,1,0.0025136982969133034,0.0027816629312143303,-0.005936352999033013,0.008234467564694843,0.9900119666029115
2013-01-22,1,0.003589926428078873,0.004032142157917983,-0.008374303219299582,0.008234467564694843,0.9884815007843358
2013-01-24,1,0.0029873256767949403,0.0032906450434287146,-0.010973897548306199,0.005202314957722392,0.9885482578885879
2013-01-28,1,0.003377097088481035,0.0037280917270392996,-0.01201439917331151,0.003205983264648425,0.9878773208298124
2013-01-30,1,0.00257972095724084,0.0028188880605766542,-0.011036086440621696,0.005202314957722392,0.9881609368249498
2013-02-01,0,0.0,0.0,-0.011036086440621696,0.003205983264648425,0.9887770548853494
2013-02-05,1,0.0026215432606486178,0.002914976813707255,-0.008474460047136206,0.005774811883032915,0.9892590418751313
2013-02-07,1,0.002174888423264689,0.0023724550568305627,-0.008474460047136206,0.005774811883032915,0.9891049042647961
2013-02-11,1,0.0026599571383131002,0.003025650595180478,-0.006430636252301159,0.005774811883032915,0.9889937669879271
2013-02-13,1,0.002304050389293392,0.002586045080188914,-0.006430636252301159,0.009399179715001671,0.9886446366121749
2013-02-15,1,0.001035648712345685,0.0011446919775256917,-0.0073045204057513285,0.009399179715001671,0.9905704723102629
2013-02-20,1,0.0007728246681761661,0.0008230057834593237,-0.0073045204057513285,0.009399179715001671,0.9908781513305533
2013-02-22,0,0.0,0.0,-0.008213474161166244,0.009399179715001671,0.9901394278459009
2013-02-26,0,0.0,0.0,-0.006282137844832872,0.01153541224109962,0.9901524579875396
2013-02-28,1,0.0008301765555486809,0.0008585364914437797,-0.005623494149831375,0.009399179715001671,0.9908540977770204
2013-03-04,1,0.0012690527076754591,0.0013693224232439781,-0.0077679789387613855,0.007810373845831551,0.989691833198232
2013-03-06,1,0.0017270001182664572,0.0018548515114390277,-0.0077679789387613855,0.006702618751651584,0.9895417545672643
2013-03-08,1,0.0008831888876348665,0.0009204351940159405,-0.0077679789387613855,0.006702618751651584,0.9899724663049101
2013-03-12,1,0.0003619858468168214,0.000473223691828041,-0.0077679789387613855,0.007810373845831551,0.9898852473395716
2013-03-14,1,0.0011571377459826623,0.0011635274703963323,-0.0077679789387613855,0.015151048225037576,0.9877160193788377
2013-03-18,0,-5.5825730159170446e-05,0.00011653894802240528,-0.007348417342249527,0.015151048225037576,0.9865260445616064
2013-03-20,-1,-0.0003716167395005006,-0.00013520274342606708,-0.008800593292441532,0.009760409110324466,0.9862613018468872
2013-03-22,-1,-0.0017946163875726365,-0.00137840225155686,-0.004327719491468465,0.009760409110324466,0.9874901199114928
2013-03-26,-1,-0.001434219265920368,-0.0010590820993182854,-0.004327719491468465,0.009760409110324466,0.9871748820042848
2013-03-28,-1,-0.0007060360089728209,-0.00047346494967945784,-0.007080665186331233,0.009760409110324466,0.9859816060473187
2013-04-02,-1,-0.001523966266733881,-0.0012191273595706389,-0.0034752561130064943,0.009760409110324466,0.9870244367993863
2013-04-04,-1,-0.0010034784273022504,-0.0007489273768631967,-0.003245629490240569,0.0062573674915898225,0.9880311368719675
2013-04-08,-1,-0.0012732406989906693,-0.000955232390797841,-0.003245629490240569,0.008806531371806769,0.9876744580866877
2013-04-10,-1,-0.0012104362278240388,-0.0008678305769414623,-0.003245629490240569,0.009850441070097773,0.9873249792677866
2013-04-12,0,-2.2186501678680146e-06,0.0002335067662953094,-0.003245629490240569,0.008479908290513625,0.9896197584585253
2013-04-16,-1,-0.0004543597799608224,-0.0002055385399697587,-0.003245629490240569,0.009850441070097773,0.9900882831070512
2013-04-18,-1,-0.003014959394523945,-0.002372877844256602,-0.002884642322133652,0.010845164406020468,0.9884097051958494
2013-04-22,-1,-0.0021324463610544763,-0.0016715983847299712,-0.0010619446715383735,0.012686102027016885,0.9873719403410923
2013-04-24,-1,-0.0010640732560332398,-0.0007522085610475328,-0.002884642322133652,0.011334673212032877,0.9880992869119175
2013-04-26,-1,-0.0020419529609265914,-0.0016208965418025706,-0.0031726237115896317,0.011334673212032877,0.9888689026838154
2013-04-30,-1,-0.0021100081186332265,-0.0016740901077827357,-0.004505636692128871,0.012686102027016885,0.9879180637079478
2013-05-02,-1,-0.0020820741929140794,-0.001654798001612356,-0.008841551433464809,0.012686102027016885,0.9876391035020928
2013-05-06,0,0.0,0.0,-0.008841551433464809,0.012686102027016885,0.9884365638383672
2013-05-08,0,0.0,0.0,-0.010837125047181616,0.011334673212032877,0.9880403324080349
2013-05-10,0,0.0,0.0,-0.010837125047181616,0.011251813247903232,0.988216101755488
2013-05-14,0,0.0,0.0,-0.010811398838311117,0.009330498003037356,0.9890440571832047
2013-05-16,0,0.0,0.0,-0.010811398838311117,0.009330498003037356,0.9905137227311186
2013-05-20,0,0.0,0.0,-0.010811398838311117,0.008689198661111255,0.9910875052834824
2013-05-22,1,0.08391682649353545,0.11739542837279136,-0.010863301772385873,0.004491924572068238,0.9049799295962762
2013-05-24,1,0.0003845572629531329,0.0004095764245201113,-0.011517593487875916,0.00884322747085844,0.9884026648995482
2013-05-29,0,0.0,0.0,-0.011517593487875916,0.00517259099637808,0.9894114637200431
2013-05-31,0,0.0,0.0,-0.010861528924998063,0.00884322747085844,0.9888304979122525
2013-06-04,0,0.0,0.0,-0.011127905445583992,0.00979258443227891,0.9874838014336125
2013-06-06,0,0.0,0.0,-0.010861528924998063,0.010342300742108616,0.98767707964821
2013-06-10,0,0.0,0.0,-0.010861528924998063,0.010342300742108616,0.987875309728043
2013-06-12,0,0.0,0.0,-0.008324467657242873,0.013632450788765918,0.9875446095350244
2013-06-14,0,0.0,0.0,-0.00432877540511502,0.01099663956157832,0.9882993766513105
2013-06-18,0,0.0,0.0,-0.0067579011790665335,0.010685397466938779,0.9886524999234686
2013-06-20,0,0.0,0.0,-0.003556132108742599,0.010685397466938779,0.9907707680577792
2013-06-24,0,0.0,0.0,-0.003556132108742599,0.010033279404557475,0.991318119283272
2013-06-26,0,0.0,0.0,-0.0026883613058088793,0.010033279404557475,0.9912657586085628
2013-06-28,0,0.0,0.0,-0.004678566949445757,0.008163825459134976,0.9910931602456415
2013-07-02,0,0.0,0.0,-0.004678566949445757,0.006869170141193474,0.9919483926776725
2013-07-05,0,0.0,0.0,-0.004678566949445757,0.007505824106965436,0.9914438281245288
2013-07-09,0,0.0,0.0,-0.005909985333636403,0.007505824106965436,0.9912381932325777
2013-07-11,1,0.0006777876275058839,0.0007881451397778426,-0.0066637214911015406,0.006402680802353081,0.9918444560040262
2013-07-15,1,0.0008963607020707261,0.0010305769796482075,-0.0066637214911015406,0.006402680802353081,0.9916425983101036
2013-07-17,1,0.0002804732000829698,0.0003153612558561069,-0.007473087141015404,0.00674815658836567,0.9912278844667806
2013-07-19,1,0.0003962202760669917,0.00043779449648104267,-0.007473087141015404,0.007556055317161212,0.9911825439460764
2013-07-23,1,0.0005087084028132833,0.0005788769149848383,-0.007794775405372311,0.007556055317161212,0.9911901337057151
2013-07-25,1,0.0008543754228405065,0.0010073926716026925,-0.007794775405372311,0.00847117357267516,0.990367612953768
2013-07-29,1,0.00028134694209063074,0.0004007284621883638,-0.0064041532857479315,0.00847117357267516,0.9913662160390398
2013-07-31,-1,-0.0001825720755152394,-0.00013630904322239115,-0.0064041532857479315,0.00847117357267516,0.9910999982630058
2013-08-02,1,0.0007767225812417157,0.0009257074416708995,-0.0064041532857479315,0.005749587163996088,0.992641246318358
2013-08-06,1,0.0009158155156485482,0.0011152545943616038,-0.005183909271447398,0.00847117357267516,0.9920767637991896
2013-08-08,1,0.0005049151998889787,0.0006216591850782767,-0.004983357410170801,0.00847117357267516,0.9921953705162158
2013-08-12,1,0.0010548699813526477,0.0012445302241693122,-0.004983357410170801,0.010329737437404165,0.9916619114453774
2013-08-14,1,0.0003642563339518014,0.0004010777963655359,-0.004983357410170801,0.00999737339366365,0.9918295548786755
2013-08-16,1,0.0005088597976171557,0.0005958509997088925,-0.004983357410170801,0.009074508653710293,0.9920465053685098
2013-08-20,1,0.0007740178799066816,0.0009019502578458604,-0.004201029095845399,0.008635652031748105,0.9925316574019495
2013-08-22,1,0.0004596059254940006,0.0005855466751291951,-0.004201029095845399,0.009646947292753697,0.991076431233182
2013-08-26,1,0.00037813622807757283,0.0005499086344663801,-0.004201029095845399,0.009646947292753697,0.9909548839221181
2013-08-28,-1,-0.00016105465668388787,-5.797866773700418e-05,-0.0033228838516719114,0.009646947292753697,0.9912628554455273
2013-08-30,1,0.00012148656391868467,0.00029235539275932723,-0.00428765799707162,0.009646947292753697,0.9908079089240042
2013-09-04,1,0.0018810430946476703,0.0023790808142090465,-0.005522016062291534,0.009646947292753697,0.9915006080994124
2013-09-06,1,0.0007615266348966989,0.001042690470843683,-0.006504843211465298,0.011350892064685656,0.9906274884342662
2013-09-10,1,0.000587921123333924,0.0007646124625395159,-0.007727744521366171,0.008635652031748105,0.9899790304757053
2013-09-12,1,0.0005692771274327708,0.0007517167867223947,-0.007727744521366171,0.010076777858337172,0.9895400757796008
2013-09-16,1,0.0009475383107593573,0.001212368736493928,-0.007727744521366171,0.010083799661481698,0.9894801338531659
2013-09-18,1,0.0011841735414957937,0.0014163778720569105,-0.008924199640559089,0.012853318024597127,0.9888048549415006
2013-09-20,1,0.0010416583204365727,0.001244780950071047,-0.008924199640559089,0.010083799661481698,0.9902256318204229
2013-09-24,1,0.0005365955318069608,0.0006620337409470912,-0.00948167443707199,0.010083799661481698,0.9889187376832262
2013-09-26,1,0.0011410237798406301,0.0013682579464177132,-0.00948167443707199,0.010130284643007517,0.9884354430368051
2013-09-30,1,0.0009686367669905565,0.0012078535718356446,-0.00948167443707199,0.012853318024597127,0.9883002567982658
2013-10-02,1,0.0012712632254306302,0.0015708083468781672,-0.01007669611133356,0.010300763246630483,0.9885096866187617
2013-10-04,1,0.0015646251847531742,0.001932881336260041,-0.009668892947609031,0.009232948068826151,0.9889852231795203
2013-10-08,-1,-0.00043056458639095953,-0.00036303615331508606,-0.007400643345152641,0.009232948068826151,0.9904314125096395
2013-10-10,1,0.00039538653696749007,0.0006475523788328519,-0.008054886695688025,0.00732795493901124,0.9905967290104895
2013-10-14,1,0.00046731488787227064,0.0007104103100686826,-0.008054886695688025,0.00951963607779521,0.9899744481879675
2013-10-16,1,0.00018904511567364643,0.0003672604071937917,-0.007400643345152641,0.0073434499328531785,0.9909310766654414
2013-10-18,1,0.000606005215884524,0.0008196418334890813,-0.008378039594133243,0.0073434499328531785,0.9873039578908319
2013-10-22,-1,-0.000552797182114191,-0.0005439251638210149,-0.007400643345152641,0.0073434499328531785,0.9881839379336921
2013-10-24,-1,-0.0005553329809218914,-0.000543415719093514,-0.007400643345152641,0.00758365296029642,0.9882096766762323
2013-10-28,-1,-0.000501753106384325,-0.0004906083340301061,-0.008378039594133243,0.004733388204158112,0.9884351903308952
2013-10-30,-1,-0.0008799467203019763,-0.0008291460911915357,-0.005947329394108757,0.007565477292165038,0.9884837132999105
2013-11-01,-1,-0.0011318851038697798,-0.0010257489220642587,-0.005721226314819091,0.004778592121156718,0.9887706420724631
2013-11-05,-1,-0.0009036366803767414,-0.000831583854081992,-0.005721226314819091,0.010185718155730787,0.988064536989528
2013-11-07,-1,-0.0020471166828870016,-0.0019578120053063606,-0.0052937008767558365,0.010342223801340233,0.9878681134533113
2013-11-11,-1,-0.0023157122068264016,-0.0020587618627910453,-0.0052937008767558365,0.006355920938677616,0.9886945487508437
2013-11-13,-1,-0.0025560289683426458,-0.0022495005216956877,-0.005721226314819091,0.008285889581739512,0.9880244446188974
2013-11-15,-1,-0.00289759524374733,-0.0025461808518878314,-0.0052937008767558365,0.005728703303390985,0.9926883188440885
2013-11-19,-1,-0.0038062567165291937,-0.0033559477154978114,-0.004781321842062326,0.010287696796946088,0.9905968900372362
2013-11-21,-1,-0.0033498071069068933,-0.002966802859349241,-0.005626688747606395,0.008285889581739512,0.9910051340118322
2013-11-25,-1,-0.0033879336488964722,-0.003018757688452838,-0.005293525449433579,0.010171305710998594,0.9908024657071082
2013-11-27,-1,-0.0023737029791627284,-0.0021172283766650963,-0.005293525449433579,0.0082896528051387,0.9914595337204288
2013-12-02,-1,-0.0029456269839571907,-0.0026996858277975938,-0.005100793054282371,0.0082896528051387,0.9913026753872313
2013-12-04,-1,-0.0019611567979160513,-0.0017967061618914797,-0.005132130149364346,0.0082896528051387,0.9910053960297867
2013-12-06,-1,-0.001181753372048111,-0.0011221273904423446,-0.005132130149364346,0.0082896528051387,0.9914250886623468
2013-12-10,-1,-0.0012129446451558568,-0.0011465597403084388,-0.005132130149364346,0.010794755934805424,0.9910610682795689
2013-12-12,-1,-0.001042977218938138,-0.0009984344736956112,-0.004951150801189703,0.010794755934805424,0.991347274488362
2013-12-16,-1,-0.001030722095362672,-0.0009969652147805048,-0.004951150801189703,0.013048639786845034,0.9902345593188644
2013-12-18,-1,-0.00031422933455325783,-0.0003103860133383451,-0.004951150801189703,0.00922258302453882,0.9924566323865646
2013-12-20,-1,-0.0012563227137541906,-0.001128338851711614,-0.0005669977491280231,0.00922258302453882,0.9926257232549482
2013-12-24,-1,-0.0004740936267482453,-0.0004646855309244529,-0.0029307939627034735,0.007987150861706592,0.991245503349464
2013-12-27,-1,-0.00040753538992544663,-0.0003972928298704655,-0.002558609784166493,0.007987150861706592,0.9911840082867197
2013-12-31,-1,-0.0008164111567741999,-0.0007438852617039947,-0.003802650325666675,0.009834743578148088,0.9893410088497827
2014-01-03,-1,-0.0006227257255359447,-0.0006004035048122812,-0.00562573906334986,0.007987150861706592,0.9881026357752525
2014-01-07,-1,-0.00015484067778068176,-9.836204076672653e-05,-0.006866337495796342,0.007987150861706592,0.9874352639612065
2014-01-09,-1,-6.306414782490266e-05,-3.385090066171548e-05,-0.006866337495796342,0.010420629568882461,0.9865853615066008
2014-01-13,1,0.00038804796178194123,0.000547972796345753,-0.007111390753945127,0.01289470128859938,0.9862594066350754
2014-01-15,1,0.0012804805667342364,0.0015325648399573347,-0.007111390753945127,0.008623112372350238,0.9873565227695258
2014-01-17,1,0.0012287502893928255,0.0014252930345888103,-0.011522347707120599,0.008623112372350238,0.9833695652724346
2014-01-22,1,0.0009778783333832428,0.0011087258530164856,-0.011522347707120599,0.01448714205349992,0.9816569174227407
2014-01-24,-1,-0.0007713578907890932,-0.0006776278843681522,-0.007111390753945127,0.01448714205349992,0.9828705498334133
2014-01-28,1,0.00016658239416087972,0.0002266505639460202,-0.007111390753945127,0.01448714205349992,0.9831879081096552
2014-01-30,1,0.00023916119473504877,0.00028465533607939406,-0.00841498245912337,0.012732154786909113,0.9840126599849843
2014-02-03,-1,-0.0017319811004247831,-0.001576720324344391,-0.0045416303086902145,0.01448714205349992,0.9852035667886121
2014-02-05,-1,-0.0009657001735496116,-0.0008958523242869232,-0.0023236113747608757,0.01448714205349992,0.986205256383859
2014-02-07,1,0.000243605298747003,0.00033150372519118377,-0.004955161629360055,0.010635520040460235,0.9877956147538549
2014-02-11,1,0.0006419464645890655,0.000806734577621959,-0.004955161629360055,0.00798628811003495,0.9875624551911657
2014-02-13,1,0.0011174818867078409,0.001299592038441298,-0.00874577844029483,0.00798628811003495,0.9862776887548129
2014-02-18,-1,-0.0016552409539733063,-0.0014926077022747281,-0.006301864290261271,0.011166333628760414,0.988869165463453
2014-02-20,-1,-0.0002526721621659196,-0.00025088666496240125,-0.006301864290261271,0.0066894355663154135,0.9907586481821582
2014-02-24,-1,-0.0008114608979880549,-0.000743045637431731,-0.008195460758109651,0.004391890200052283,0.9907345282241891
2014-02-26,-1,-0.0005636297517920547,-0.0005135954675726656,-0.008195460758109651,0.004261457436395482,0.9909822326014825
2014-02-28,-1,-0.00035077787626667763,-0.0003295560430856761,-0.007680956450075926,0.0018064332483179834,0.9916541971094064
2014-03-04,-1,-0.0006605941004702107,-0.0005731914572951774,-0.007680956450075926,0.004261457436395482,0.9912802609055014
2014-03-06,-1,-0.00016805087667535725,-0.00014633888537400353,-0.007680956450075926,0.004013161828639634,0.9917724750346765
2014-03-10,0,-2.426884750577865e-06,3.925831721513578e-06,-0.011768237925171275,0.004013161828639634,0.9902965805364414
2014-03-12,-1,-0.0006759432210592347,-0.00060420575369887,-0.009214930837437671,0.005901192336250298,0.9904948780960309
2014-03-14,-1,-0.0013516486022693828,-0.0012411619329686348,-0.011768237925171275,0.005901192336250298,0.9894063982174769
2014-03-18,-1,-0.0012818171972042809,-0.0011500011478660687,-0.011768237925171275,0.005551188696968173,0.9901902117853332
2014-03-20,-1,-0.0014507543873225636,-0.0012998330824601952,-0.011768237925171275,0.008085518030030471,0.988855531856616
2014-03-24,-1,-0.0022469688255762838,-0.0019873071655936896,-0.0038805733425139647,0.008085518030030471,0.9893378528468373
2014-03-26,-1,-0.002362329922059419,-0.0020800500840297475,-0.0038805733425139647,0.008085518030030471,0.9889436323667177
2014-03-28,-1,-0.0025242562678420843,-0.002226097607562009,-0.01312590169151353,0.008085518030030471,0.9881659592363358
2014-04-01,-1,-0.0015310969375908296,-0.001352379072930236,-0.01312590169151353,0.006462042102017608,0.9889638063943976
2014-04-03,-1,-0.0018051983314546225,-0.0015598256471248207,-0.01312590169151353,0.00815196787550058,0.9887063274223676
2014-04-07,-1,-0.0025645469776189355,-0.0022701602975514715,-0.006338333837287298,0.009235803962166647,0.9892905784635349
2014-04-09,-1,-0.001875137422511423,-0.0016582929496627653,-0.006338333837287298,0.00815196787550058,0.9903068697642362
2014-04-11,-1,-0.002689857884489741,-0.0022947526298351486,-0.00029583098161590723,0.009235803962166647,0.991132203194957
2014-04-15,-1,-0.002988312304833455,-0.0025098798665864975,-0.001173203897558267,0.008650855662369563,0.9904109614104356
2014-04-17,-1,-0.0018724586636835632,-0.001530514120943688,-0.006338333837287298,0.0075733121777350285,0.9907871394628819
2014-04-22,-1,-0.00225590827385835,-0.0018428021870861427,-0.009003883149064426,0.0075733121777350285,0.9906489810873053
2014-04-24,-1,-0.0017778728791724098,-0.00143279577067698,-0.009003883149064426,0.00993299867348901,0.9899196506283747
2014-04-28,-1,-0.003099946547648652,-0.0025773849006697274,-0.0022636110056994995,0.01038221616169343,0.9897725137536552
2014-04-30,-1,-0.0025876357461654103,-0.0021391203040510105,-0.0014743758560903043,0.01038221616169343,0.9901979083965139
2014-05-02,-1,-0.0018248236696064295,-0.0015047809803755683,-0.0014743758560903043,0.01038221616169343,0.9910046689757874
2014-05-06,-1,-0.001334633533938547,-0.0010872955877701332,-0.0009311935513381323,0.00993299867348901,0.9915797241207095
2014-05-08,-1,-0.0011942934882132059,-0.0009542307878998545,-0.0009311935513381323,0.01038221616169343,0.9905899775152142
2014-05-12,-1,-0.0006033988024966822,-0.00042849553409121644,-0.0014743758560903043,0.00993299867348901,0.9913168721164821
2014-05-14,1,7.529548793098058e-05,9.173225393331206e-05,-0.0014743758560903043,0.00993299867348901,0.9921485035297953
2014-05-16,-1,-0.0008058989558422237,-0.0006561812133873844,-0.0014743758560903043,0.007747937116436084,0.9934654359858758
2014-05-20,-1,-0.0013252109259785205,-0.0011224764607321751,-0.0004828604428023211,0.00957347989144616,0.9928864039331109
2014-05-22,-1,-0.0004916121844478714,-0.00038420154027971195,-0.001315237158935796,0.006845101135058943,0.993774811053557
2014-05-27,0,-3.1695723164598504e-05,2.4369551399441836e-05,-0.003952414329924859,0.006049185443218648,0.9936062167283168
2014-05-29,1,0.00031551116805401486,0.00033420292254457916,-0.003952414329924859,0.005613277347213012,0.9940755514507478
2014-06-02,1,0.00043812199338553017,0.00044954156095472215,-0.005795610354077752,0.005613277347213012,0.9938091305074485
2014-06-04,1,0.0008586835341691439,0.0009694171439297576,-0.005795610354077752,0.005861746456334223,0.9933890977627491
2014-06-06,1,0.0018360390382100968,0.0020926609198759637,-0.006006667147299906,0.0048193435783903445,0.9938287271300328
2014-06-10,1,0.002312710756118064,0.002671778909461059,-0.006340937079336302,0.003306836957668269,0.9929626990355792
2014-06-12,1,0.002088562349302746,0.0024313124223625387,-0.006163307241864608,0.003306836957668269,0.9932082852825038
2014-06-16,1,0.002086436250644929,0.0024364033782805425,-0.006163307241864608,0.004302894541601983,0.9931833496481308
2014-06-18,1,0.0017326400895578456,0.0019414169147345564,-0.007383200320800705,0.0028908692432295284,0.9920233678608764
2014-06-20,1,0.0014771903475094411,0.0016623445102307063,-0.006163307241864608,0.005358749407487753,0.9915332318254889
2014-06-24,1,0.0013125260998258018,0.0014695876332820287,-0.004664501236131956,0.005928804320115547,0.9915463931550753
2014-06-26,1,0.00022219176362381137,0.0003326098331528312,-0.00560482936815432,0.005736756042685098,0.9911962026119246
2014-06-30,1,0.00038487141932107814,0.0004313412856300676,-0.0055444559931255395,0.005736756042685098,0.9910264828976386
2014-07-02,1,0.0015204312974487033,0.0016933630341275335,-0.006163307241864608,0.005736756042685098,0.9904610990931992
2014-07-07,1,0.001572867536607243,0.0017631977612714367,-0.005891877073613674,0.0042388784491251665,0.9909059322066166
2014-07-09,1,0.0009153705215084458,0.0010355604351445801,-0.005891877073613674,0.00555502878731255,0.990937767739121
2014-07-11,-1,-0.0003521012935621004,-0.00029744596149186163,-0.006518970774573352,0.00555502878731255,0.9908349142400089
2014-07-15,1,0.0004768771938283972,0.0006099699055247534,-0.0100260062313196,0.00555502878731255,0.9902634288312815
2014-07-17,-1,-0.0008619734550940966,-0.0008010431376026132,-0.006518970774573352,0.008566132810356787,0.9910290212079821
2014-07-21,1,0.0002658715683483016,0.0004183077678558243,-0.006518970774573352,0.009419218884070714,0.9898671673289126
2014-07-23,1,0.0003818886718133186,0.000546568327530501,-0.006518970774573352,0.006776203763381009,0.9907210181223872
2014-07-25,1,2.238092345450797e-05,0.00016606311464257922,-0.005880590730648664,0.006776203763381009,0.9909700394592167
2014-07-29,1,9.128152302369664e-05,0.00027920423736703447,-0.005880590730648664,0.006776203763381009,0.9912767385282388
2014-07-31,1,1.3496763991818859e-05,0.00017169561605520194,-0.005880590730648664,0.004172565054761511,0.9919031441576258
2014-08-04,0,-5.990330775416415e-05,5.013564158016609e-05,-0.005880590730648664,0.006776203763381009,0.9912700213071705
2014-08-06,-1,-0.0010788598036365756,-0.0010013451897023836,-0.005880590730648664,0.00461285361392513,0.9920173614477746
2014-08-08,-1,-0.0007442408347598746,-0.0007286939297221986,-0.004953459296682377,0.005014378252047705,0.9922686303178383
2014-08-12,-1,-0.00149868779639871,-0.0014218810406284863,-0.0041716733225356534,0.00515740834234902,0.9925115209234092
2014-08-14,-1,-0.0008324131601458856,-0.0007848683777614072,-0.0041716733225356534,0.004034491219206756,0.992910800683987
2014-08-18,-1,-0.0007350876026279346,-0.0006928707999518042,-0.004953459296682377,0.0017774857620058765,0.9949705565360095
2014-08-20,-1,-0.0011389066248315702,-0.0010332951148082515,-0.005880590730648664,0.0024254881501020913,0.9939833103114127
2014-08-22,-1,-0.000953508780477041,-0.0009257371375316891,-0.005089403361790478,0.0024254881501020913,0.9938084357696427
2014-08-26,-1,-0.000625349500652386,-0.0006028411780750077,-0.006810642535077927,0.004034491219206756,0.9927087588095729
2014-08-28,-1,-0.0020420448954876417,-0.0018105410284949522,-0.007221614677673004,0.004034491219206756,0.9922781615660297
2014-09-02,-1,-0.0007057098782222858,-0.0006814896885857518,-0.007221614677673004,0.004034491219206756,0.9922157187321364
2014-09-04,-1,-0.0026443120946232704,-0.00227068968848825,-0.00871651734027521,0.004034491219206756,0.9922147874791345
2014-09-08,-1,-0.002361828560790827,-0.0020421260924476286,-0.00871651734027521,0.006009251060947243,0.9913178733097298
2014-09-10,-1,-0.001632534871620886,-0.0014415791816838532,-0.010329359403105115,0.012859025724173303,0.9888131002414606
2014-09-12,-1,-0.0007157659202905199,-0.0006397248790392931,-0.012435148153803125,0.0027466305116356517,0.9870429912190083
2014-09-16,-1,-0.0009417765353193785,-0.0008579779073933502,-0.016500083188300665,0.0009497429131111266,0.9860798151791296
2014-09-18,-1,-0.0013402734749794107,-0.0011516259286443995,-0.016500083188300665,-0.0011585180565914306,0.9874423633546661
2014-09-22,-1,-0.00203661199755472,-0.001756923669011477,-0.016500083188300665,0.0038552702253490997,0.9875291297171663
2014-09-24,-1,-0.0014108853988803575,-0.001225121589404605,-0.01780971320294771,0.0038552702253490997,0.986271581781288
2014-09-26,-1,-0.0022478734412962774,-0.0019831369001916148,-0.01628297117357299,0.01099828271984071,0.9864045511579521
2014-09-30,-1,-0.001705672079454458,-0.0015157170103141191,-0.01628297117357299,0.011224596331437435,0.9863632484026631
2014-10-02,-1,-0.0020212438069548634,-0.0018367947346774138,-0.01628297117357299,0.011224596331437435,0.9870130262429432
2014-10-06,-1,-0.0018679605431098669,-0.0016710705918524524,-0.01628297117357299,0.012417545151529097,0.9856351356783865
2014-10-08,-1,-0.0025969433130481174,-0.0023190090183667638,-0.015924976636472646,0.011224596331437435,0.9874574745722946
2014-10-10,-1,-0.0049465976897662325,-0.004354003848746572,-0.005136028142242233,0.012417545151529097,0.9868099634810215
2014-10-14,-1,-0.00617751285500881,-0.00550124954668264,-0.0018903103510980953,0.012995606443457717,0.9858713254717567
2014-10-16,-1,-0.005497658874784967,-0.004926565903524272,-0.0030210784766815327,0.012995606443457717,0.9864408848837016
2014-10-20,-1,-0.0045098888529665395,-0.004080496976089195,-0.003737300922318381,0.012995606443457717,0.9875020251795975
2014-10-22,-1,-0.00416812759890701,-0.003783620495189338,-0.003737300922318381,0.012417545151529097,0.9895189062883053
2014-10-24,-1,-0.0030010579275167254,-0.0027735731596328097,-0.003737300922318381,0.0129720552738254,0.9891534852690504
2014-10-28,-1,-0.0018779222872467316,-0.001828012930305256,-0.003737300922318381,0.012120649884101501,0.9893983994058954
2014-10-30,-1,-0.0019515911404111334,-0.001893799480501102,-0.0021934820440431724,0.012120649884101501,0.9892709876124661
2014-11-03,-1,-0.00032804741866924525,-0.0001896815419084003,-0.005765180795472795,0.009754817652143364,0.9907540934782738
2014-11-05,-1,-0.000959126111177653,-0.0009011504975900285,-0.001260196142833767,0.009754817652143364,0.9908466997114319
2014-11-07,1,5.122373936922045e-05,0.0002839212197594636,-0.001260196142833767,0.006810722485567933,0.992506378915289
2014-11-11,1,0.0006514850499193082,0.0009572262930949706,-0.005765180795472795,0.0036600755538704803,0.9919010504930502
2014-11-13,1,0.00022390859685136432,0.00042757424240208116,-0.008621105080413537,0.006201655426305519,0.9907787579499859
2014-11-17,1,0.0002505375390520184,0.0004743148420205238,-0.01267102016648837,0.006201655426305519,0.9897336390904762
2014-11-19,0,-5.503093677648014e-06,0.00017241721770740073,-0.008740890212268891,0.009754817652143364,0.9874812895560451
2014-11-21,1,0.0015421550295285629,0.0019285418336595908,-0.008740890212268891,0.009754817652143364,0.9877806852292789
2014-11-25,1,0.002008930308967142,0.0024660017755423168,-0.013802312073680326,0.007550038260000313,0.9871419552376105
2014-11-28,1,0.0015753612929816096,0.0019230397380494105,-0.013802312073680326,0.007550038260000313,0.9870237715005847
2014-12-02,1,0.000640524312151923,0.0008554327846932496,-0.010839935004118853,0.006293958947297673,0.9883531721004806
2014-12-04,1,0.0009492592017202576,0.0012135111466615666,-0.013802312073680326,0.006293958947297673,0.9870732270867173
2014-12-08,-1,-0.00041182325526886796,-0.00039651684266425833,-0.013027741572885932,0.008226511309530123,0.9868427043874397
2014-12-10,-1,-0.000941068388176286,-0.0009304293046723169,-0.010839935004118853,0.012380371019639076,0.9864121197502614
2014-12-12,-1,-0.0013862812314545826,-0.0013610978931281558,-0.011913596391133083,0.012380371019639076,0.9867408301494083
2014-12-16,-1,-0.003117703227334301,-0.0028703448511430245,-0.012230607534828426,0.012380371019639076,0.9866384746192604
2014-12-18,-1,-0.0015660424250646962,-0.0014895585514521463,-0.012230607534828426,0.006137259221731229,0.9886289441951427
2014-12-22,-1,-0.00030507560759874186,-0.00021164057804635224,-0.012230607534828426,0.006067414265999367,0.987497706221737
2014-12-24,-1,-0.0008690720181791243,-0.0008362740891412301,-0.012782404969995236,0.006137259221731229,0.9869777325114927
2014-12-29,-1,-0.0008891713378915224,-0.0008792229074569626,-0.014365695434928803,0.006126385291579665,0.9859740876626474
2014-12-31,-1,-0.0013519292597298084,-0.001298368826886566,-0.016168567768786016,0.006925787305257036,0.9852153932080991
2015-01-05,-1,-0.0029368945140135026,-0.0026720553637927277,-0.014365695434928803,0.012396951591511409,0.9842229006588359
2015-01-07,-1,-0.0023065192885218366,-0.002177698251483613,-0.013144593432655142,0.011080480612422268,0.9843535284905515
2015-01-09,-1,-0.00110738022772604,-0.0010918565865635354,-0.013144593432655142,0.009255197859593762,0.9854986069690373
2015-01-13,-1,-0.002107116035942323,-0.002000779454672562,-0.012510056244110508,0.011080480612422268,0.985583111734619
2015-01-15,-1,-0.0031551376801781128,-0.00289187488042207,-0.008982250379420713,0.01311323538642985,0.9860670608179282
2015-01-20,-1,-0.0033460513982868584,-0.003096331215272729,-0.008982250379420713,0.016488874241685242,0.9847675213453709
2015-01-22,-1,-0.002020871593030405,-0.001905149171583243,-0.009595682759430594,0.016488874241685242,0.9859288074409345
2015-01-26,-1,-0.001881050186802209,-0.001821912063548362,-0.008775093885107716,0.016488874241685242,0.9867278527004932
2015-01-28,-1,-0.0032536235214401135,-0.003025841532995133,-0.005839727303403287,0.016488874241685242,0.987160439918873
2015-01-30,-1,-0.0030981300629563395,-0.0028980571878833494,-0.004915923001999984,0.016488874241685242,0.9879152956800478
2015-02-03,-1,-0.0011983994175071252,-0.0011604080208635935,-0.006520714547230075,0.010956336737500717,0.9901674803820331
2015-02-05,-1,-0.0009158794591882159,-0.0008062104004215337,-0.006520714547230075,0.009813727245452238,0.9903348519940134
2015-02-09,-1,-0.0013949383470264884,-0.0013722652796858005,-0.006756916976479356,0.009813727245452238,0.9891620883284383
2015-02-11,-1,-0.0006485561480691596,-0.0005338129380591824,-0.005471363249777546,0.008234871661673592,0.9899469578552755
2015-02-13,-1,-0.00017574501010270388,-3.2555964956692434e-05,-0.005735159717840611,0.008234871661673592,0.9897350628283412
2015-02-18,1,0.0006736594525937762,0.0009616929217173849,-0.005735159717840611,0.006566969410734154,0.9906914039865281
2015-02-20,1,0.0007097215084779179,0.0009512394115483352,-0.005524822907617693,0.005590978468657762,0.9919804572471408
2015-02-24,1,0.0009468794030587326,0.0012410946106388774,-0.005735159717840611,0.005282256777311476,0.9912690923750506
2015-02-26,1,0.0007719527805804947,0.0009949248449581298,-0.006317832949645319,0.005282256777311476,0.9909367239890904
2015-03-02,1,0.0012712150975021596,0.0015825939182726708,-0.006317832949645319,0.005590978468657762,0.9905396559187563
2015-03-04,1,0.0005675689980302607,0.0008050509128743961,-0.005524822907617693,0.005590978468657762,0.9909932789581297
2015-03-06,-1,-0.0009591994078113162,-0.0008939658642754828,-0.004431390069642157,0.007108389985690106,0.9910413896875828
2015-03-10,-1,-0.002764942029926375,-0.002394737009791462,-0.0041164460619994726,0.01059605182829603,0.9917843189020179
2015-03-12,-1,-0.002155067195113572,-0.0018775510434433118,-0.0041164460619994726,0.012369052351870524,0.9908657747721071
2015-03-16,-1,-0.0010449200824670627,-0.0009198018849271876,-0.0041164460619994726,0.01059605182829603,0.9916846968271582
2015-03-18,-1,-0.0004922818964254671,-0.000437489742652825,-0.0041164460619994726,0.00791663948067655,0.9919714247600266
2015-03-20,-1,-0.00033203889911264436,-0.0003298667520246425,-0.0041164460619994726,0.00791663948067655,0.9916839091082538
2015-03-24,-1,-0.0012809940817119236,-0.0011843478018384206,-0.004207914515761945,0.00791663948067655,0.9925881805366807
2015-03-26,-1,-0.0018313198348776777,-0.0016616042972041397,-0.0041053211880491,0.00791663948067655,0.9928908061992313
2015-03-30,-1,-0.0001393653663572462,-2.8416526248005534e-05,-0.004207914515761945,0.005025123794170192,0.9931047821351333
2015-04-01,-1,-0.0005881944210543107,-0.0005868438496769993,-0.005352584293661868,0.005025123794170192,0.9925900166752385
2015-04-06,1,0.0002685054422115073,0.000375429298633079,-0.005352584293661868,0.005025123794170192,0.992745577314278
2015-04-08,1,0.0005918416477042138,0.000818010883280392,-0.006058776940759145,0.004794636790341301,0.9930866795911701
2015-04-10,1,0.0017851733361470496,0.0021249717075595754,-0.006058776940759145,0.004794636790341301,0.9931942602421846
2015-04-14,1,0.000956572429430758,0.0012196165419386174,-0.006058776940759145,0.004794636790341301,0.9931110411669688
2015-04-16,1,0.0010953961147118388,0.0013273836330034558,-0.005648336941096302,0.004794636790341301,0.9933096856800663
2015-04-20,1,0.0016843793551758633,0.0020643038108077447,-0.005648336941096302,0.004835460897104724,0.9929612674195162
2015-04-22,1,0.0015892722521585235,0.0019723877031427414,-0.005436588540035064,0.005203057731269318,0.9931322789367355
2015-04-24,1,0.0014376904047240192,0.0018019867136325023,-0.006275764832460519,0.005203057731269318,0.9930091051662385
2015-04-28,1,0.0008424321660680674,0.0011309534828456715,-0.006275764832460519,0.005683369263011794,0.9926414376624135
2015-04-30,1,0.0004523932445525379,0.0006576909594345492,-0.007190756374342985,0.005683369263011794,0.9918933659947818
2015-05-04,1,0.00045722835886437914,0.0006561977568478906,-0.007190756374342985,0.005203057731269318,0.9919597609534466
2015-05-06,-1,-0.00016638228064219595,-9.800330315265561e-05,-0.007692678835977394,0.005203057731269318,0.9916889241072666
2015-05-08,1,0.00012379971465096494,0.00021529321255246345,-0.009286328147843663,0.004350803059470718,0.9919876704849779
2015-05-12,-1,-0.0008342623332588902,-0.0006944890240095775,-0.007337151930678345,0.004898555828968449,0.9923731327433881
2015-05-14,1,0.00012958837529928268,0.00020824468101395392,-0.009286328147843663,0.004352271457207297,0.9918092007529175
2015-05-18,1,0.0009567477243749092,0.0012031718222267815,-0.009286328147843663,0.004352271457207297,0.9915959325212249
2015-05-20,1,0.0004872234573445496,0.0006396318961521129,-0.009286328147843663,0.004352271457207297,0.9916751466627135
2015-05-22,1,0.0005579785399972056,0.0007260669029568965,-0.01029499097030848,0.005190448422499236,0.9912995677766979
2015-05-27,1,0.0005604417402944226,0.0007171146825671699,-0.00926702218336622,0.005190448422499236,0.9914551222633741
2015-05-29,-1,-0.0009975626970540796,-0.0009004458090234413,-0.006924280511087504,0.005190448422499236,0.993139330206395
2015-06-02,-1,-0.000947692657101009,-0.0008489208347517857,-0.008256790928079948,0.004899453752914642,0.9920008305545109
2015-06-04,-1,-0.001002825958319233,-0.0009266429902435392,-0.006263078375070472,0.007707703504990603,0.9912918975309838
2015-06-08,-1,-0.0018272503360454867,-0.0016043889744528311,-0.0053459452196866,0.008115201754379301,0.9911057128948958
2015-06-10,-1,-0.001970286684479001,-0.0016729743578440637,-0.006176825251141835,0.007707703504990603,0.9905137406619646
2015-06-12,-1,-0.002488359860702223,-0.0021284623727871503,-0.0053459452196866,0.00884436059400155,0.9898631485156337
2015-06-16,-1,-0.001573334013658681,-0.0013947606758996929,-0.0053459452196866,0.011276872644664138,0.989494322924064
2015-06-18,-1,-0.0018221675782340474,-0.0015990776819638781,-0.006391569776298762,0.011276872644664138,0.9893700392713212
2015-06-22,-1,-0.0022365793117648533,-0.0019071693753215436,-0.006391569776298762,0.011276872644664138,0.9895550431487982
2015-06-24,-1,-0.0017358860489442172,-0.0014583589470608944,-0.006391569776298762,0.011276872644664138,0.989525312471442
2015-06-26,-1,-0.0016636334519024116,-0.0014767451122700427,-0.00908527627628869,0.011276872644664138,0.988100636537683
2015-06-30,-1,-0.0027938890990755402,-0.002471140487144612,-0.006391569776298762,0.012565640307453078,0.9882518562069887
2015-07-02,-1,-0.0023236254655225387,-0.0020383020892004136,-0.006391569776298762,0.012565640307453078,0.9890062653333113
2015-07-07,-1,-0.0019237268250637128,-0.0016942552496926075,-0.008985403876544052,0.012565640307453078,0.9894121388969425
2015-07-09,-1,-0.0024264933175996073,-0.0021664837835152725,-0.008985403876544052,0.012565640307453078,0.9898958669946488
2015-07-13,-1,-0.0013824973380456667,-0.0012968177545273076,-0.008985403876544052,0.008724466862416678,0.9908235050506272
2015-07-15,-1,-0.0012472571366528413,-0.0012157964994082703,-0.010308779750304078,0.005832633919309466,0.9900934447275476
2015-07-17,-1,-0.0013570005420736838,-0.001312729423673857,-0.010009162551070169,0.003972999324851953,0.9902902238789288
2015-07-21,-1,-0.0014620132197546076,-0.0014130277339555258,-0.00868114541138427,0.005771908959744069,0.9904073330048223
2015-07-23,-1,-0.000737464525529815,-0.000688368028388976,-0.013767398552723093,0.004586800845201291,0.9896929395571975
2015-07-27,-1,-0.0018745743006126554,-0.0018662262023663254,-0.015023437371562552,0.0029460234163687735,0.987548709161214
2015-07-29,0,-3.0969863381933975e-06,6.066937690627405e-05,-0.015023437371562552,0.0029460234163687735,0.9862600362246955
2015-07-31,0,-1.914387456675669e-05,7.13981223040089e-05,-0.015023437371562552,0.0029460234163687735,0.9854190986201099
2015-08-04,-1,-0.00015851698306906532,-6.814265079761126e-05,-0.017711236453398036,0.0029460234163687735,0.9836154384458842
2015-08-06,1,8.327426000669699e-05,0.00011129645361933304,-0.017711236453398036,0.0054119986640846236,0.9829824771791333
2015-08-10,1,0.0005839353854214198,0.000639529717369871,-0.020269787129937995,0.0054119986640846236,0.9811193336031118
2015-08-12,-1,-0.0003319397682161623,-0.0002615713918929807,-0.018702509585565304,0.00689497137673747,0.9818463927473207
2015-08-14,-1,-0.0008937291238855921,-0.0007332847046516663,-0.018702509585565304,0.00689497137673747,0.9817789884232585
2015-08-18,-1,-0.0009017859462901107,-0.0007301787826852033,-0.018702509585565304,0.011895751532658361,0.9809391413535632
2015-08-20,-1,-0.0007796661758787763,-0.0006645506813396316,-0.018224678839465505,0.011895751532658361,0.9817515737039505
2015-08-24,0,-2.461370914125832e-06,2.7340104843219222e-05,-0.013034209369757134,0.011895751532658361,0.98441981261854
2015-08-26,1,0.0009131034544300256,0.0010166868731907377,-0.013066767914022408,0.009311723158024568,0.9858027529042946
2015-08-28,1,0.0020016093711181585,0.0022362359140102503,-0.017982098905232724,0.00689497137673747,0.9853309872274967
2015-09-01,1,0.0013159752125754232,0.001552515796191647,-0.013066767914022408,0.010448297583153006,0.9867860160783585
2015-09-03,1,0.001836481689920257,0.0021148247646848176,-0.017372647948285927,0.010448297583153006,0.9857744473893326
2015-09-08,1,0.002372671201210781,0.0027187951466155595,-0.013634366122184664,0.010448297583153006,0.9866853608834544
2015-09-10,1,0.001939430477719425,0.0022268057417760183,-0.011696334075969159,0.014137772273296077,0.9867563512161261
2015-09-14,1,0.0015044061600817632,0.001722025596202101,-0.011696334075969159,0.014137772273296077,0.9868376255521902
2015-09-16,1,0.002183756483047942,0.0024743043165034685,-0.013407448587892931,0.011622030159976416,0.9863800855792607
2015-09-18,1,0.001511347309007403,0.001715531608255691,-0.011696334075969159,0.013698679226033746,0.9869041638745096
2015-09-22,-1,-1.913144827962313e-05,-1.130525454228193e-05,-0.010363337462822652,0.013698679226033746,0.9871682037693388
2015-09-24,1,0.000730492308439626,0.0008123266726004828,-0.010393052865174276,0.013698679226033746,0.9872317061780199
2015-09-28,-1,-0.00025040693990197244,-0.00019533564527069466,-0.008159526058234917,0.01571266385713862,0.9869254788297307
2015-09-30,1,0.0012379892762514823,0.0014098716264113209,-0.008159526058234917,0.013698679226033746,0.9879158527285469
2015-10-02,1,0.0017466744889279213,0.0019714918815376967,-0.006854489955847165,0.012820310548417677,0.9901295240178493
2015-10-06,1,0.0013979508575648082,0.00157356730972269,-0.006854489955847165,0.012820310548417677,0.9900535655651148
2015-10-08,1,0.0027097921451906407,0.0030896690335313294,-0.006854489955847165,0.007726306259660008,0.9915781356549549
2015-10-12,1,0.002370927894666742,0.002696414739289748,-0.006212466593593497,0.007624210479542656,0.9914362667536563
2015-10-14,1,0.0017434704617842792,0.0019850714156664858,-0.004575219952556504,0.007624210479542656,0.9923556040439528
2015-10-16,1,0.002479681342019785,0.0028241705351523217,-0.006212466593593497,0.005462660604992105,0.9917078806922331
2015-10-20,1,0.0023109308246354442,0.002577715807165454,-0.006212466593593497,0.007651388712115317,0.9903459440677971
2015-10-22,1,0.002188257496330166,0.0024216309447292654,-0.006212466593593497,0.013321655963578377,0.9889117051612953
2015-10-26,1,0.0024902047313013656,0.0027422597642659447,-0.004827582122917983,0.016195804786693656,0.9889464277699007
2015-10-28,1,0.002827360941663555,0.0030882763668932645,-0.004827582122917983,0.01712900350127746,0.9882430496218315
2015-10-30,1,0.0029805019443316354,0.0032857213247358746,-0.004827582122917983,0.01712900350127746,0.9874869200130973
2015-11-03,1,0.0029750729903893947,0.003245184074600468,-0.00643256061889642,0.016109522929867667,0.986994126301259
2015-11-05,1,0.002964888070639089,0.0032340202531449657,-0.007116203820730307,0.01712900350127746,0.9857871594037071
2015-11-09,1,0.0025493214397222627,0.0027592752732966274,-0.008752185566047824,0.01712900350127746,0.9855088217608652
2015-11-11,1,0.001990154775808946,0.0021129180377122496,-0.007442910221925657,0.01712900350127746,0.9854511318101141
2015-11-13,1,0.0015756538738008969,0.001676052725568494,-0.007442910221925657,0.01712900350127746,0.985374938798142
2015-11-17,1,0.0031760406755776227,0.0034558778825509407,-0.007442910221925657,0.016109522929867667,0.9863226398715779
2015-11-19,1,0.0021779201332602547,0.0022703041284586126,-0.011195984440231881,0.015426626021894395,0.9865866237178098
2015-11-23,1,0.0039565248055118745,0.004330812609867123,-0.011195984440231881,0.01520412191933845,0.9872959508213979
2015-11-25,1,0.004816065338568894,0.005306984043012724,-0.011195984440231881,0.013485533241620795,0.9878562044853896
2015-11-30,1,0.0041981717541929985,0.004549675360149849,-0.011195984440231881,0.013477834976816795,0.9876084344593473
2015-12-02,1,0.0036384036436099033,0.003964492620091467,-0.00853834087279382,0.013477834976816795,0.9886077539773145
2015-12-04,1,0.004515082543592581,0.004955130515265056,-0.008840301196545306,0.01199664031180595,0.9882069829856815
2015-12-08,1,0.004003297437528912,0.004352680657178844,-0.010329512724936681,0.010499593191590002,0.9869651868377326
2015-12-10,1,0.003598253411887563,0.00386983517946195,-0.015935575310087338,0.010499593191590002,0.9858156393275688
2015-12-14,1,0.003064257373773769,0.003294085974928012,-0.015935575310087338,0.010499593191590002,0.985379352058953
2015-12-16,1,0.003929667541662373,0.004259991615697721,-0.015935575310087338,0.00903145100150863,0.9847188439727849
2015-12-18,1,0.0027005339857250205,0.002885217259416056,-0.01120819654944705,0.00903145100150863,0.9866687373814949
2015-12-22,1,0.003701225221939504,0.004033349228953754,-0.01120819654944705,0.007156515487738307,0.9864784079559505
2015-12-24,1,0.0037768998680665807,0.004104483369010761,-0.01120819654944705,0.0029286627507247687,0.9861380117072267
2015-12-29,1,0.0035411147837709593,0.003815613485002327,-0.014181697641700299,0.001815934768628773,0.9851335237946686
2015-12-31,1,0.0030209747059800948,0.0032386942298155,-0.014181697641700299,0.0029286627507247687,0.9843649479578718
2016-01-05,1,0.0017347940454164722,0.0017476403053837786,-0.01408324204608602,0.0035375605957547254,0.9855750501504803
2016-01-07,1,0.0006123577252283987,0.0007819698946166831,-0.01408324204608602,0.003973929159795166,0.9860219730851649
2016-01-11,1,0.00020920220588345484,0.0003735861861455105,-0.01408324204608602,0.006285672542030801,0.9849501849366982
2016-01-13,-1,-0.0012094645303488446,-0.0008530243411094111,-0.013596949405027172,0.008031037130152392,0.9856720732504207
2016-01-15,-1,-0.0017212441067221839,-0.0014447682135443735,-0.012823726533997272,0.014272933132724425,0.984678044868263
2016-01-20,-1,-0.0009960034221237401,-0.0009256634858347231,-0.014991081070597394,0.017320737592573764,0.9830869131026185
2016-01-22,-1,-0.0012397894804416997,-0.0011604279003951338,-0.014991081070597394,0.015913739230199415,0.9829165847258284
2016-01-26,-1,-0.0034870120686140184,-0.0031151536517881693,-0.016826512844188728,0.015913739230199415,0.9816416807889876
2016-01-28,-1,-0.0042179530593138455,-0.003785158469827604,-0.014991081070597394,0.015913739230199415,0.9824110722410717
2016-02-01,-1,-0.0030649420719856654,-0.0027838488785265954,-0.014991081070597394,0.015913739230199415,0.9832542312177102
2016-02-03,-1,-0.003278816228301674,-0.0029539997978814837,-0.008414738158712905,0.015913739230199415,0.9830958103747132
2016-02-05,-1,-0.005115256050513561,-0.004567415017665252,-0.002393434822777281,0.015913739230199415,0.9838296624614868
2016-02-09,-1,-0.0052182567675693025,-0.004695744459924739,-0.002393434822777281,0.0141177455646239,0.9845267929190212
2016-02-11,-1,-0.006265006101645436,-0.00558670384581212,-0.001780742025947127,0.017145215403930422,0.9834613025424181
2016-02-16,-1,-0.005477245890024024,-0.004875010219975143,-0.0056109474978377795,0.009170340361017156,0.9861343266786942
2016-02-18,-1,-0.004679593051514309,-0.0041583714202646505,-0.004288718376636148,0.009170340361017156,0.9865971455252469
2016-02-22,-1,-0.004847982818532707,-0.0042375697875249455,-0.0056109474978377795,0.009170340361017156,0.9863669082413745
2016-02-24,-1,-0.0043906066182193984,-0.003881938108793435,-0.0056109474978377795,0.008879891674966247,0.9872055307775044
2016-02-26,-1,-0.004035813802798518,-0.003606051423633229,-0.0056109474978377795,0.008879891674966247,0.9873758725714196
2016-03-01,-1,-0.0034567751401987533,-0.0030718395276136835,-0.004288718376636148,0.008879891674966247,0.9883798171899659
2016-03-03,-1,-0.0027048218355236217,-0.0024474061480608115,-0.005697222686726432,0.008850463852774187,0.9887319250869107
2016-03-07,-1,-0.0025432113699127975,-0.0022988717472899696,-0.008152007700110995,0.008850463852774187,0.9882612710251351
2016-03-09,-1,-0.004151111133232577,-0.003691423576657719,-0.008152007700110995,0.012706099479187964,0.9877761711157498
2016-03-11,-1,-0.002880432402977566,-0.002606966791426691,-0.008152007700110995,0.008850463852774187,0.9893553764869306
2016-03-15,-1,-0.0034380545583900498,-0.0031188649156738708,-0.006907965982526819,0.012706099479187964,0.9882600261339893
2016-03-17,-1,-0.0024631652946970634,-0.0022479306447026476,-0.006907965982526819,0.00935628203417365,0.9894985909531709
2016-03-21,-1,-0.0019790207726749975,-0.001842984383252253,-0.004148333102023555,0.008914841362176027,0.9905950725728063
2016-03-23,-1,-0.0015064920756568821,-0.0014570948301402414,-0.0015820475006541332,0.00980188721724328,0.9907405939814539
2016-03-28,-1,-0.0011308516450048221,-0.0011265939795670947,-0.0034826130414489817,0.00980188721724328,0.9908288500741547
2016-03-30,-1,-0.0006911119184144019,-0.0006197003082098894,-0.004732661975601916,0.008914841362176027,0.9911377458335834
2016-04-01,-1,-0.0002996918572017801,-0.00016341386206484085,-0.00659594663815421,0.00687611705633807,0.9913930461242657
2016-04-05,-1,-0.001094248995180213,-0.001073816358812719,-0.004628655527477713,0.008914841362176027,0.9909277230241869
2016-04-07,-1,-0.0009504899263924583,-0.0009219855819642992,-0.004628655527477713,0.008914841362176027,0.9917361346832771
2016-04-11,-1,-0.0012452437232415685,-0.0012026109577175717,-0.004628655527477713,0.00980188721724328,0.9912527157668412
2016-04-13,1,0.0008149157687434117,0.0011578370243853454,-0.004628655527477713,0.010120766808420136,0.9920879961428263
2016-04-15,1,0.000181857221507999,0.0004446125057270316,-0.004628655527477713,0.010120766808420136,0.9917151246333441
2016-04-19,1,0.0011696086866814536,0.0016205405902775679,-0.004628655527477713,0.010882190635113718,0.990454844068576
2016-04-21,1,0.0012023119959612314,0.0017277504594511584,-0.004628655527477713,0.010882190635113718,0.990620322528334
2016-04-25,1,0.0009353382185964506,0.0014173856642509274,-0.006517479703868489,0.010882190635113718,0.9903494702817683
2016-04-27,1,0.0009863438544901817,0.0014371612444241777,-0.0035091876507085834,0.010882190635113718,0.9901917722712433
2016-04-29,1,0.0011629548366168395,0.0016717491117313253,-0.0021233487822978833,0.010882190635113718,0.9908577500534429
2016-05-03,1,0.0009441843343526285,0.0014356191187753621,0.0004739847450323882,0.010455317641781299,0.9922184322177391
2016-05-05,1,0.0010061338634216603,0.0015158049897718126,-0.0013227355038206905,0.009075865350499222,0.993308653548967
2016-05-09,1,0.0008447832629522034,0.001302603785880359,-0.0013227355038206905,0.007796373705733345,0.9936279865102547
2016-05-11,1,0.0018764301325406732,0.0025151805211691206,-0.0014817470511355204,0.007431326522480989,0.9946577885490124
2016-05-13,1,0.001568697472904953,0.002114259924386923,-0.002119584957650718,0.007431326522480989,0.9935929369033519
2016-05-17,1,0.0024536254810274116,0.0031596070514614103,-0.002119584957650718,0.005764330314111412,0.995091897083124
2016-05-19,1,0.002716602850284009,0.003472461992710751,-0.0015747579737238361,0.006960215203595316,0.994883540307016
2016-05-23,1,0.0026082855878186025,0.003347808597503218,-0.0011411265091783964,0.007274009978655896,0.9948122506128076
2016-05-25,1,0.00295412251106532,0.0037243349893373045,-0.0015747579737238361,0.003999507894195838,0.9944174327005793
2016-05-27,1,0.002263051446939208,0.002810614218034374,-0.003092629518873088,0.0019113088289077723,0.9898880356442641
2016-06-01,1,0.0019240507861578444,0.002363437842774428,-0.003092629518873088,0.008949482161028973,0.9886336855620712
2016-06-03,1,0.001703295603666981,0.0020761268872509036,-0.0025030418715366338,0.01060404143395816,0.9883721904396807
2016-06-07,1,0.0010215462423004275,0.0012320212933025119,-0.00453729324722679,0.013813718127913545,0.9868982885356372
2016-06-09,1,0.0018509059292276633,0.0022183262527038527,-0.00453729324722679,0.014360357829599078,0.9861623051292204
2016-06-13,1,0.0013904768507119823,0.0017160777173074145,-0.001283059406628852,0.015422533851509638,0.9862866921119023
2016-06-15,1,0.001183025161552288,0.0014439988837389884,-0.001963968118873103,0.015422533851509638,0.9858244369623484
2016-06-17,1,0.0014150816417702644,0.0016838205165686944,-0.0026286689724846555,0.015422533851509638,0.9860566740438885
2016-06-21,1,0.0008956065857494136,0.0010255130419373384,-0.0026286689724846555,0.014360357829599078,0.9865883309915402
2016-06-23,1,0.0015467736655535359,0.0018217676038576394,-0.0026286689724846555,0.01405281714550385,0.9869484340581542
2016-06-27,-1,-0.0004565477666430149,-0.0004150321147630523,-0.0020910060717570763,0.015422533851509638,0.990099949701804
2016-06-29,-1,-0.002176627520327724,-0.001903936368623497,-0.0020910060717570763,0.009730312307291395,0.9908846047789226
2016-07-01,-1,-0.0018217024777025066,-0.001588678217142193,-0.0026286689724846555,0.009459753377902565,0.9912724965835225
2016-07-06,-1,-0.0025181855335262827,-0.002144925362560287,-0.0026286689724846555,0.007052874651963729,0.9922321043538687
2016-07-08,-1,-0.0017322946190559203,-0.001441039822848259,-0.003330501157059368,0.007052874651963729,0.9927419533633518
2016-07-12,1,5.282069448659884e-06,6.26836821612366e-05,-0.005110172416842558,0.005618093643671314,0.9934349833207502
2016-07-14,1,0.0002431344237962812,0.00026241332079222576,-0.005110172416842558,0.005618093643671314,0.9932756299910744
2016-07-18,1,0.00023614584846887583,0.00026977988952331833,-0.005110172416842558,0.006324535257247164,0.9932603005080084
2016-07-20,1,8.262821616826938e-06,8.296417801834829e-05,-0.005110172416842558,0.006324535257247164,0.9931455040295872
2016-07-22,1,0.0003339622437428403,0.00033857153067044587,-0.005110172416842558,0.008109279808993923,0.9909240668896928
2016-07-26,1,0.0007875524908579838,0.0008576588045132962,-0.0037244398748667363,0.006324535257247164,0.9920433890289648
2016-07-28,1,0.0007904009503244853,0.0008667512828751886,-0.005110172416842558,0.007671701612106317,0.9908102079334229
2016-08-01,1,0.000251617120924295,0.0002980530618878252,-0.0038460096015825967,0.006258805545838819,0.991313000899613
2016-08-03,1,0.00021887213446755897,0.00023775230378751658,-0.003914326829302624,0.006258805545838819,0.9914342547546418
2016-08-05,-1,-0.00014372008286272868,-3.529876942264318e-05,-0.0033258246790200913,0.005341020344373438,0.9923503083851537
2016-08-09,1,0.00022347552240893986,0.00024977313647550007,-0.001623623233304811,0.005341020344373438,0.9926804804557698
2016-08-11,1,0.0002912732629286081,0.00031158575107706796,-0.0033258246790200913,0.0038169308390676227,0.9909891511378756
2016-08-15,1,8.118928243335617e-05,0.000129408873360174,-0.0050655536843742,0.0038169308390676227,0.989455417733327
2016-08-17,1,8.561229783572987e-05,0.000133093147726839,-0.0050655536843742,0.005368017812436321,0.9890924427768272
2016-08-19,-1,-6.444783860836461e-05,-1.869652428947136e-05,-0.0050655536843742,0.003940189622626217,0.9908897834135847
2016-08-23,1,7.08776722399126e-05,8.506555450745101e-05,-0.0050655536843742,0.006559715218505652,0.9899862689920627
2016-08-25,-1,-0.0008425229894949154,-0.0006737032899889344,-0.002281354699066573,0.006559715218505652,0.9909860952266029
2016-08-29,-1,-0.000523297457143514,-0.0004009239868364056,-0.002281354699066573,0.004484033603634785,0.9912319034943301
2016-08-31,-1,-0.0011104418369289088,-0.0009142688745249338,-0.0014417840528595824,0.007984190923172287,0.9904881135457723
2016-09-02,-1,-0.0003996149189721132,-0.00033976107556463046,-0.0014417840528595824,0.010941039065886216,0.989769253116399
2016-09-07,-1,-0.00037976431792907065,-0.0003166000595966432,-0.0030768453287004106,0.010941039065886216,0.9893354553445877
2016-09-09,-1,-0.001710349669741379,-0.0015090572379506144,-0.0009895592661938908,0.010941039065886216,0.9908400467403778
2016-09-13,-1,-0.0013001785168193906,-0.0011686423964498067,-0.0009895592661938908,0.007984190923172287,0.9905219334259853
2016-09-15,-1,-0.0011082360189274528,-0.0009888950953712298,-0.005255277134195598,0.006929781591222394,0.9908464456865252
2016-09-19,-1,-0.0014000199895339233,-0.0012538910961670487,-0.0025323267923773726,0.006929781591222394,0.9914824727292044
2016-09-21,-1,-0.0007829961001481524,-0.0006956946280676616,-0.0025323267923773726,0.006615400000038257,0.9918709659982453
2016-09-23,-1,-0.0006439520351580966,-0.0005636693808597896,-0.005255277134195598,0.006452925777390535,0.9920857368652354
2016-09-27,-1,-0.0006870904668550889,-0.0005962943955785335,-0.006636506320763361,0.006452925777390535,0.9894561627997932
2016-09-29,-1,-0.0012488760780157986,-0.0011026620153447757,-0.005255277134195598,0.006214017346410736,0.9905133782146789
2016-10-03,-1,-0.0004356924328255638,-0.0004193109235770965,-0.005255277134195598,0.006214017346410736,0.9908308052563609
2016-10-05,-1,-0.0004135605600229641,-0.00040073946672293867,-0.00493341329539094,0.003922057259894187,0.9911796364584352
2016-10-07,-1,-9.912588418959201e-05,-9.157607894023075e-05,-0.00493341329539094,0.006452925777390535,0.9902204254601942
2016-10-11,-1,-0.001134728528990007,-0.0009859150508607069,-0.003969999365318277,0.006841744224880001,0.9910366861283475
2016-10-13,-1,-0.0017045786227687708,-0.001487044663930465,-0.0022811127766614618,0.00838516355853925,0.9898173800159499
2016-10-17,-1,-0.001358879205209113,-0.001209240478541216,-0.004088411290206909,0.00838516355853925,0.9883518403129302
2016-10-19,-1,-0.0005872531883806214,-0.0005451930212519417,-0.004088411290206909,0.00838516355853925,0.9883897857788145
2016-10-21,-1,-0.0009499682703912391,-0.0008785171434974579,-0.005219980753018393,0.00838516355853925,0.987790994792666
2016-10-25,-1,-0.0025113247739136832,-0.002252871359796593,-0.005219980753018393,0.00838516355853925,0.9901057104547865
2016-10-27,-1,-0.0028760157201140565,-0.0025699698438253946,-0.005219980753018393,0.00838516355853925,0.9894840899338591
2016-10-31,-1,-0.0024150170019257714,-0.002179204975222682,-0.00680172208376648,0.010714041554560225,0.9877613936038315
2016-11-02,-1,-0.0031976618385767368,-0.002831754870076782,-0.012014104017937805,0.010714041554560225,0.9866828046300298
2016-11-04,-1,-0.002148263080024092,-0.0019029264299309427,-0.012014104017937805,0.012812067836482291,0.9865255219346617
2016-11-08,-1,-0.0013448492748518348,-0.0012119772744037366,-0.012014104017937805,0.008099819116117943,0.9875206655925111
2016-11-10,-1,-0.0004065246032879557,-0.0004024437721097044,-0.012014104017937805,0.011026746568074078,0.9876292075283271
2016-11-14,-1,-0.0014545380732676413,-0.0013326885773063159,-0.0067080703129868986,0.011026746568074078,0.9888016338502168
2016-11-16,-1,-0.0034337763927618755,-0.0029294020635732016,-0.006852071238280966,0.009556338135995282,0.9889999028165123
2016-11-18,-1,-0.003815400773081049,-0.003322746883293564,-0.01065167325797176,0.009556338135995282,0.9889127450432174
2016-11-22,-1,-0.0036624732299782104,-0.0032170168877498836,-0.006655626554294598,0.011026746568074078,0.9883879915681056
2016-11-25,-1,-0.0033132533493927113,-0.0029147139904192798,-0.006655626554294598,0.011026746568074078,0.9887396700295054
2016-11-29,-1,-0.0029508057822786316,-0.002623840913498262,-0.006655626554294598,0.009556338135995282,0.9900028027063735
2016-12-01,-1,-0.0034816175116778327,-0.003132683786630582,-0.0035114946871742593,0.009556338135995282,0.9908214508687766
2016-12-05,-1,-0.002316058190441652,-0.0021036517791139155,-0.0035114946871742593,0.009556338135995282,0.9910376695128835
2016-12-07,-1,-0.0015815852215076357,-0.001463930072436725,-0.004106386515747468,0.011468031040383558,0.9897741372901847
2016-12-09,-1,-0.0007642857387011235,-0.0007480242891258884,-0.004106386515747468,0.007308121299014384,0.9910210811039907
2016-12-13,-1,-0.0008851270256142348,-0.0008433163009127504,-0.006655626554294598,0.010107338426836622,0.9895776652633373
2016-12-15,-1,-0.00027240551388182916,-0.00020776145784811407,-0.008313113094212607,0.008312685794371371,0.9896971976554675
2016-12-19,-1,-0.0010621284827464984,-0.0010391839310449004,-0.004658882029053471,0.008312685794371371,0.9902398506719123
2016-12-21,-1,-0.0003819661343174459,-0.0003053991292686324,-0.00552218907330487,0.005429915618867779,0.9910172437527462
2016-12-23,-1,-0.00045300142684268644,-0.0004143312977971891,-0.00552218907330487,0.008312685794371371,0.9901956287527299
2016-12-28,-1,-0.0006471626723262294,-0.0006122601804786513,-0.0048618424392987145,0.010753841772803103,0.9906432174438449
2016-12-30,-1,-0.0006136674601913806,-0.0005739769853821086,-0.005618034698936543,0.014943936122692505,0.9884342938303547
2017-01-04,1,0.0005464764449374488,0.0007708332705434614,-0.00738084063441496,0.006932644877972881,0.9893475971467982
2017-01-06,1,0.0015434108081175194,0.0019126807611875348,-0.0055452900434231935,0.006895435592962767,0.9907290956958065
2017-01-10,1,0.0013424710212428395,0.0016915582210150848,-0.0055452900434231935,0.00808619956800946,0.9904538133370375
2017-01-12,1,0.0016760326980398265,0.002057795615261401,-0.0048618424392987145,0.00808619956800946,0.9917001156763451
2017-01-17,1,0.0014776561513709615,0.001829938533959578,-0.0031374180547783194,0.00808619956800946,0.9919692354003682
2017-01-19,1,0.0007222151458977337,0.0009700461376574993,-0.0031374180547783194,0.009853150537737936,0.990829907073829
2017-01-23,1,0.0007377394671543941,0.0009976504562568453,-0.0031693665966555434,0.01017737366152403,0.99014917686041
2017-01-25,1,0.0013580824373291482,0.001678258198072382,-0.0031693665966555434,0.009853150537737936,0.9912500451039755
2017-01-27,1,0.001379388956258068,0.00170446227205998,-0.002314040983655438,0.00808619956800946,0.9916544914115861
2017-01-31,1,0.001679564585310133,0.0020532044595999413,-0.002314040983655438,0.00808619956800946,0.9929925207507342
2017-02-02,1,0.0006023178613695293,0.0007247507745717138,-0.002314040983655438,0.010065745806493689,0.9921967527027817
2017-02-06,1,0.0009003084477219414,0.0010685646589778646,-0.003285758003827401,0.008336004121775327,0.9920189618612291
2017-02-08,1,0.0015766583347167898,0.0018595143583878919,-0.003285758003827401,0.006638127122049748,0.9923918601535476
2017-02-10,1,0.0014129045202377435,0.00164674617989247,-0.003285758003827401,0.007233882785498497,0.9922044030908886
2017-02-14,1,0.0018207546255856928,0.002153986874865511,-0.004787677221913384,0.012258157939062257,0.9905346448089002
2017-02-16,1,0.001589962836142659,0.0019526903014479898,-0.004787677221913384,0.007233882785498497,0.9912966542515874
2017-02-21,1,0.0019508468525319845,0.002369140007926874,-0.005174027036095527,0.005372492711874421,0.9915405424017051
2017-02-23,1,0.0019623205188281797,0.002369625347276476,-0.005174027036095527,0.006545767272638997,0.991275961587787
2017-02-27,1,0.0022794738939198905,0.002755356285362319,-0.005174027036095527,0.006545767272638997,0.9913697664576202
2017-03-01,1,0.002509098376658846,0.0030142412860411807,-0.004928868397346428,0.0051139632791527105,0.9919335104427677
2017-03-03,1,0.002730378606908526,0.0032776099994831563,-0.004928868397346428,0.004154395907328952,0.9925221182846751
2017-03-07,1,0.001640901343971308,0.0019694403136484963,-0.004928868397346428,0.0051139632791527105,0.9926007377318076
2017-03-09,1,0.0016814333296781962,0.0019879357868249196,-0.004928868397346428,0.005874906306583829,0.9924356003656659
2017-03-13,1,0.0021665028909048437,0.002532663534402978,-0.005871435893163166,0.004049075283553321,0.9925697741310432
2017-03-15,1,0.00316147571748701,0.003692363220363902,-0.005871435893163166,0.0037586560937897784,0.9938802262363573
2017-03-17,1,0.0024044983085535765,0.0028167391691230692,-0.005433194649065776,0.0037586560937897784,0.9940534732774294
2017-03-21,1,0.0009401407292836887,0.0010807459426004477,-0.005433194649065776,0.0037586560937897784,0.9944734585895093
2017-03-23,1,0.0007686563257183229,0.0008833270136262069,-0.005433194649065776,0.003199865415244649,0.9947693091677441
2017-03-27,1,0.0009269740452251186,0.0010631658303917007,-0.005433194649065776,0.004384245945692925,0.9936986126213084
2017-03-29,1,0.0005961924971105924,0.0006687865301097144,-0.00446484677874502,0.00638045075991789,0.9935757944781894
2017-03-31,1,0.0008058716879921028,0.0009655670362643356,-0.00446484677874502,0.007184295002136297,0.9932504193855438
2017-04-04,1,0.000973688077569642,0.0011793911667998792,-0.00274984988334568,0.007184295002136297,0.9939242541285972
2017-04-06,1,0.0018468276065432823,0.0021521227130442584,-0.00274984988334568,0.0075012430892653185,0.9938489023724759
2017-04-10,1,0.0007872979655944605,0.0008731350045016686,-0.0018402788873014243,0.009652953584327648,0.9934244394297839
2017-04-12,1,0.0008279255603589513,0.0009073366454501039,-0.0018402788873014243,0.009652953584327648,0.9931531125740409
2017-04-17,1,0.0008943143725400392,0.0009264152963710247,-0.0011048893616505088,0.009615400943634927,0.9938693404306798
2017-04-19,1,0.0005188050886560392,0.0005595152495330654,-0.0011048893616505088,0.009615400943634927,0.9932157113775192
2017-04-21,1,0.000624978051367819,0.0006478547246469867,-0.0011048893616505088,0.009615400943634927,0.993093726361844
2017-04-25,1,0.0008276632374947649,0.0008404174693937008,-0.0011048893616505088,0.009615400943634927,0.9921521627087754
2017-04-27,1,0.0005004861617620116,0.0005738467222627028,-0.0011048893616505088,0.009615400943634927,0.9921899709279143
2017-05-01,1,0.0007106480954838061,0.0007282981350162449,-0.0009326380385280245,0.009615400943634927,0.9923909725409537
2017-05-03,1,0.000974869783788825,0.001014588688226764,-0.0009326380385280245,0.009615400943634927,0.9923602535443125
2017-05-05,1,0.001036315101209907,0.0010947909050334965,-0.000979302135916561,0.0072513732968410285,0.9925122685316503
2017-05-09,1,0.0010515803097659192,0.0011122682650358342,-0.000979302135916561,0.007052192809062014,0.992596871824593
2017-05-11,1,0.000723270877564537,0.0007461852698481114,-0.0021753956947448455,0.007052192809062014,0.9919050313704387
2017-05-15,1,0.0004930740689483303,0.0005397521731475757,-0.004028393077177161,0.005375947577751734,0.9919835301110854
2017-05-17,-1,-0.0002922159252209183,-0.00016886850142840961,-0.0030760988286567923,0.005375947577751734,0.9926817966938465
2017-05-19,-1,-0.00010946755626062461,-1.1433191999616005e-05,-0.0030760988286567923,0.007052192809062014,0.9919103079115108
2017-05-23,-1,-0.0014297863812757835,-0.0011551497821491333,-0.004028393077177161,0.005415865193160558,0.9934950580397118
2017-05-25,-1,-0.0012273453732906075,-0.000970133611942619,-0.005410780727697506,0.005415865193160558,0.9928146007359827
2017-05-30,-1,-0.0002946462226540661,-0.00018175307775033465,-0.007035948380057919,0.004953703363612113,0.9929952703859943
2017-06-01,1,0.00018445242176490709,0.00020584522386266573,-0.008154474922630932,0.004953703363612113,0.992274489849865
2017-06-05,-1,-0.00045018322833180875,-0.0003484927524429923,-0.008154474922630932,0.005968400630536138,0.9922518743884412
2017-06-07,0,-2.4988844638741773e-05,7.037653399503889e-06,-0.008888174606320453,0.005968400630536138,0.9918333489014067
2017-06-09,-1,-0.0010091557740726255,-0.0008484185038170071,-0.0067745649241980534,0.007360876951110535,0.9925271933697748
2017-06-13,-1,-0.0013288058991827029,-0.001108979831210465,-0.0067745649241980534,0.00871301171141918,0.9921452733642749
2017-06-15,-1,-0.001380731511550728,-0.0011460933844037453,-0.0067745649241980534,0.00871301171141918,0.9916064724361323
2017-06-19,-1,-0.00033910171650584865,-0.0002589874806124663,-0.0067745649241980534,0.00784924778907089,0.9924947953404926
2017-06-21,-1,-0.0008812217524872853,-0.0007375095477183079,-0.006186940224915566,0.00784924778907089,0.992609346511003
2017-06-23,-1,-0.0010813785157499775,-0.0009097443355930623,-0.005662221390129287,0.0070861242705523705,0.9934404521741582
2017-06-27,-1,-0.0017496042754557234,-0.0014942035447592966,-0.005772176467314523,0.0070861242705523705,0.9925941034346889
2017-06-29,-1,-0.0018298706557466733,-0.001568455145370683,-0.0036571715317177114,0.006527480667897583,0.993033547716975
2017-07-03,-1,-0.0014482836383632068,-0.0012503617685047344,-0.005001176122116703,0.005643683482458505,0.9933595689604541
2017-07-06,-1,-0.0016998465611531852,-0.0014890768269381635,-0.0019584994318541694,0.004601547088209574,0.9937360542175686
2017-07-10,-1,-0.001052078799961695,-0.0009029236066798482,-0.004188315038011913,0.004601547088209574,0.9938485368104536
2017-07-12,-1,-0.0010905186340932588,-0.0009572352526802822,-0.005772176467314523,0.003470544688462374,0.9937823844172551
2017-07-14,-1,-0.000666995089722166,-0.0005974940067494763,-0.006799805161280611,0.0029235897941886366,0.9929732496320848
2017-07-18,-1,-0.0007436559108455343,-0.0006681562217782744,-0.006799805161280611,0.003470544688462374,0.992826035503317
2017-07-20,-1,-0.0007209808345412099,-0.0006398580522356924,-0.008734794249355724,0.004475246566249371,0.9899916200556275
2017-07-24,-1,-0.0003327025603281126,-0.0003052305758348901,-0.008734794249355724,0.005267934466316455,0.9897108806367406
2017-07-26,-1,-0.0015067518838619326,-0.0013428029681857349,-0.004225822421663512,0.006806111670190086,0.9898424375795688
2017-07-28,-1,-0.0015813852533972756,-0.0013852429842984779,-0.004225822421663512,0.006806111670190086,0.990040109430871
2017-08-01,-1,-0.0015935958235740576,-0.00140331186917953,-0.003987951658099246,0.00822576596206991,0.9897825401132493
2017-08-03,-1,-0.0009879168991770797,-0.0008919892745949231,-0.003987951658099246,0.009753894512898304,0.989262672072426
2017-08-07,-1,-0.0006010180853903177,-0.0005774609212108693,-0.004332459395930874,0.00822576596206991,0.9898251316206998
2017-08-09,-1,-0.0016496019342548858,-0.0014781307688235346,-0.0018297981100791475,0.00822576596206991,0.9897651307246654
2017-08-11,-1,-0.0024020313539253857,-0.00212030151765712,-0.0015359133446181021,0.00822576596206991,0.9900445122431757
2017-08-15,-1,-0.002175305194615599,-0.0019374996133406071,-0.0015359133446181021,0.00822576596206991,0.9900463377262896
2017-08-17,-1,-0.0027492781662910295,-0.0024529833179252826,-0.001406871732725316,0.0069837842182874565,0.9923747547581961
2017-08-21,-1,-0.0022119029441452142,-0.00196995133461833,-0.001406871732725316,0.006560911046922634,0.9932657227902326
2017-08-23,-1,-0.0019525037641883332,-0.0017322207850889585,-0.001406871732725316,0.006476497784286474,0.9944895186868947
2017-08-25,-1,-0.001921490189529785,-0.001699201781623713,-0.0019126154837059862,0.006476497784286474,0.9941065262123266
2017-08-29,-1,-0.001272936706210385,-0.0011556232358937973,-0.002235888505646133,0.004890032541699972,0.9941869103488672
2017-08-31,-1,-0.0008539686207669375,-0.0007689870511288791,-0.0032425319140398042,0.003816355456904988,0.9947621197330867
2017-09-05,-1,-0.001090417343875271,-0.0009737269950068828,-0.002235888505646133,0.004329098039986689,0.9941714695487296
2017-09-07,-1,-0.0002678125564911461,-0.0002475056633573956,-0.002235888505646133,0.004276382876274206,0.994340065549151
2017-09-11,-1,-5.6140681426194064e-05,-3.0877656002459056e-05,-0.002235888505646133,0.004276382876274206,0.9946333931336673
2017-09-13,-1,-0.00045474255765030967,-0.0004416680555604889,-0.002012087540550554,0.004276382876274206,0.9950040595455367
2017-09-15,1,0.00011901492206779161,0.00021847321722370198,-0.002235888505646133,0.004329098039986689,0.9945202448799169
2017-09-19,1,0.0004103585570400853,0.0005732887765248308,-0.003521028312461705,0.004329098039986689,0.9940168242884069
2017-09-21,1,0.0004371131835906457,0.0006083687534592425,-0.00318469441887842,0.005285370009852285,0.9937419712969033
2017-09-25,0,-0.00010575960492313532,7.261677855699411e-06,-0.0023361743052719296,0.005804863015830469,0.994062516093836
2017-09-27,-1,-0.00018579924428452653,-7.484160576785685e-05,-0.001389305593018962,0.005804863015830469,0.9944372215188171
2017-09-29,0,-5.929229286997422e-05,8.107428509416457e-05,-7.32570496982914e-05,0.005804863015830469,0.9945606571717177
2017-10-03,1,8.726824891479654e-05,0.0002303368708819173,-0.001389305593018962,0.005804863015830469,0.9946104993951128
2017-10-05,1,0.0005383115165864795,0.0007633221399199955,-0.0004087994262728953,0.0050128449392528454,0.995341778600514
2017-10-09,1,0.0006022024279870872,0.0007639714831282995,-0.0014440829157549154,0.004771276038974621,0.9956161048620858
2017-10-11,1,0.0007249437886380568,0.0009176776770073086,-0.0020869465669055625,0.004771276038974621,0.9955212638566946
2017-10-13,1,0.0007283473245745787,0.0008310362342721887,-0.00250050627347979,0.004544359752703026,0.9955313775483824
2017-10-17,1,0.0004390227588769894,0.0005150376132720922,-0.0020869465669055625,0.004802193461689114,0.995773796637532
2017-10-19,1,0.0011070214458401072,0.0013100710350643762,-0.0022013658379811387,0.004758780324895398,0.9952551940044001
2017-10-23,1,0.001242350561704221,0.001456942045329748,-0.0020869465669055625,0.004758780324895398,0.9948983893562188
2017-10-25,1,0.0014041312669105693,0.0016181392970940165,-0.0022013658379811387,0.004758780324895398,0.9940192106848011
2017-10-27,1,0.0016788333591336308,0.0019447350285736029,-0.0022013658379811387,0.004821238916831755,0.9937138091195699
2017-10-31,1,0.0011450006138578155,0.0012826877216642247,-0.0022013658379811387,0.004821238916831755,0.9922990486508196
2017-11-02,1,0.001026156369967914,0.0011524970371781407,-0.00365350175822403,0.00568862706591681,0.9916199709241762
2017-11-06,1,0.000996818618477877,0.0011187383466353831,-0.008306628428071497,0.00568862706591681,0.989743508660279
