JNU-Tangyin/eata/results/Batch4_SP500/Batch4_SP500-HUM.csv
Date,Action,Predicted_Q25,Predicted_Q75,Actual_Q25,Actual_Q75,RL_Reward
2010-12-14,0,-0.0005352691464241326,0.0,-0.00686189547688167,0.006004582115718435,0.990293899048745
2010-12-16,-1,-0.001230018133739942,-0.0008970328353547892,-0.00522717221786975,0.006820648878685191,0.9898379915464078
2010-12-20,-1,-0.001463221307428317,-0.0010863798276740987,-0.00522717221786975,0.006820648878685191,0.98988668683893
2010-12-22,-1,-0.0005060893644976207,-0.00031565358424198557,-0.00686189547688167,0.004369022881531582,0.9900229884414059
2010-12-27,-1,-0.0006530732336710373,-0.0003929299901556433,-0.004445770954180396,0.004369022881531582,0.990407246335508
2010-12-29,-1,-0.0006245877383307586,-0.00040467043946938307,-0.004198526753826766,0.008294605424186243,0.9888629298794928
2010-12-31,-1,-0.0006550650772259686,-0.00043082261547323334,-0.00522717221786975,0.008294605424186243,0.9874019841257611
2011-01-04,-1,-0.001110735574296632,-0.0007653956503881566,-0.007501832171446688,0.014203257245976384,0.986249388576484
2011-01-06,1,6.7127895131178e-05,0.00029582207491990844,-0.009674054418543122,0.014203257245976384,0.9856983816994808
2011-01-10,-1,-0.0005722484187014248,-0.00031534726706172766,-0.009674054418543122,0.014203257245976384,0.9850415706061829
2011-01-12,-1,-0.0007592996051496025,-0.0003978752133313537,-0.009674054418543122,0.008294605424186243,0.9864733946399441
2011-01-14,1,0.0005229018260655147,0.0007829928263993275,-0.009674054418543122,0.005102018453033331,0.9877966470581112
2011-01-19,0,-0.0002356997075733283,9.159628706054829e-05,-0.007889209176494537,0.011039785384762475,0.9872442641839503
2011-01-21,0,0.0,0.0,-0.005957651289436256,0.014034520990670905,0.9864722131170479
2011-01-25,0,0.0,0.0,-0.007967626730159253,0.018827186522158045,0.9840428626241514
2011-01-27,0,0.0,0.0,-0.007967626730159253,0.014034520990670905,0.9855306944132102
2011-01-31,0,0.0,0.0,-0.007967626730159253,0.018827186522158045,0.9840670558324668
2011-02-02,0,0.0,0.0,-0.005957651289436256,0.0167847175229119,0.9850331358723152
2011-02-04,0,0.0,0.0,-0.005957651289436256,0.01351887537199908,0.9861171786202989
2011-02-08,0,0.0,0.0,-0.00353621566646032,0.0167847175229119,0.9866798110998025
2011-02-10,0,0.0,0.0,-0.004832667385286634,0.0167847175229119,0.9857548878659791
2011-02-14,0,0.0,0.0,-0.007453152965685294,0.0167847175229119,0.985244837630024
2011-02-16,0,0.0,0.0,-0.013584239180312112,0.017091306905087582,0.9849478168328915
2011-02-18,0,0.0,0.0,-0.013584239180312112,0.01330776487664837,0.9853560508607531
2011-02-23,0,0.0,0.0,-0.008498773371050386,0.013099117003495094,0.9870399484951587
2011-02-25,0,0.0,0.0,-0.008498773371050386,0.013099117003495094,0.9867488152033561
2011-03-01,1,0.0002819570891970059,0.00047173539370228554,-0.00421309204645823,0.010839955842525104,0.9896842242216125
2011-03-03,1,0.0012586774477614333,0.0013005277381963297,-0.00421309204645823,0.013099117003495094,0.9883944310410001
2011-03-07,1,0.0007428126959467975,0.0008120394845729104,-0.0006026076874232082,0.01446733767021225,0.9889213883306699
2011-03-09,1,0.0019823487227819906,0.0021253107332265984,-0.007286464449445161,0.012776736089690188,0.9892465645108003
2011-03-11,1,0.0021193001726109934,0.0023117891175305685,-0.00421309204645823,0.012776736089690188,0.9903090141940637
2011-03-15,1,0.001927109607834835,0.002105061047231926,-0.00421309204645823,0.01446733767021225,0.9899335817463162
2011-03-17,0,0.0,0.0,-0.0006026076874232082,0.012776736089690188,0.9907440741470088
2011-03-21,0,0.0,0.0,-0.006043855888022516,0.0107979570910206,0.9905113237540385
2011-03-23,0,0.0,0.0,-0.003928523250002164,0.012375686528695242,0.9903605319271365
2011-03-25,1,0.0023628411085291953,0.002699208032613685,-0.00121286230127797,0.013213453435647804,0.990971303930813
2011-03-29,1,0.002355905468932132,0.0027482542715388907,-0.006432758060076962,0.013554914876615788,0.9882054071535645
2011-03-31,1,0.0035381511023093205,0.004076028748112904,-0.009003987450082967,0.013213453435647804,0.9886246391138601
2011-04-04,1,0.0034900553689596625,0.004010786342090283,-0.01077287384134312,0.01232742625723831,0.9883637649714329
2011-04-06,0,0.0,0.0,-0.007100011482388181,0.01232742625723831,0.9884523039966797
2011-04-08,0,0.0,0.0,-0.007100011482388181,0.013213453435647804,0.9876040772274095
2011-04-12,1,0.0016622622675991185,0.001690353026776851,-0.0030308722561776537,0.013213453435647804,0.9886269634161577
2011-04-14,1,0.00147774369353128,0.001632202199732055,-0.003064008100394598,0.013213453435647804,0.988668857740053
2011-04-18,0,0.0,0.0,-0.0021324459257870366,0.013213453435647804,0.9888420498862657
2011-04-20,0,0.0,0.0,-0.0035292474989471493,0.013408737326979822,0.9882074194411472
2011-04-25,0,0.0,0.0,-0.007074910577199532,0.0070818793432408204,0.9885281418574956
2011-04-27,0,0.0,0.0,-0.007074910577199532,0.004486711786945394,0.9907177424220373
2011-04-29,0,0.0,0.0,-0.0063387000288440375,0.004486711786945394,0.9913003009570325
2011-05-03,0,0.0,0.0,-0.0063387000288440375,0.006839208610980678,0.9911361546535448
2011-05-05,0,0.0,0.0,-0.007074910577199532,0.006839208610980678,0.9899716632939466
2011-05-09,0,0.0,0.0,-0.0076399169260598365,0.0041712912795663516,0.990488840797304
2011-05-11,1,0.0025762329039368355,0.002704962714931443,-0.0076399169260598365,0.0046628800786418945,0.9894613908042681
2011-05-13,1,0.0020356510260638953,0.002074413570467322,-0.008575311908087534,0.0046628800786418945,0.9885895486478211
2011-05-17,1,0.0019473560494802787,0.002011753668426041,-0.008690106643375,0.007633467557006604,0.987483107574683
2011-05-19,1,0.0021345225336786206,0.002181275880455416,-0.009533503968347621,0.0046628800786418945,0.9886275458653622
2011-05-23,1,0.0017558090800670174,0.0017872703219665457,-0.009533503968347621,0.014972298486084334,0.9868887584036922
2011-05-25,1,0.0005291398165361165,0.0007098567026662274,-0.00798006608856692,0.014972298486084334,0.9879972689228735
2011-05-27,1,0.0016995756842428191,0.0017309666336576793,-0.009533503968347621,0.008596501314836524,0.9879142047362388
2011-06-01,1,0.0020608524655083304,0.00211762799916805,-0.011715627524712887,0.009337096630869055,0.9873619282700522
2011-06-03,1,0.00048793303970166163,0.0006739469292572625,-0.011715627524712887,0.01765776557735145,0.986753946725626
2011-06-07,1,0.0005500293535660944,0.0006977606892841985,-0.009585505860288649,0.01765776557735145,0.9870425270477653
2011-06-09,1,0.002218004157516637,0.0023334485124157835,-0.012060519013281663,0.009337096630869055,0.9865076955156733
2011-06-13,1,0.0006260779360464912,0.0007590801184823544,-0.011783767170117008,0.009337096630869055,0.9872308766015535
2011-06-15,1,0.0001978621335003047,0.00039539086213508925,-0.01138000260279579,0.006656350900956438,0.9888317566734953
2011-06-17,-1,-0.00043909942945711384,-0.00016034387786509308,-0.01138000260279579,0.006656350900956438,0.9890945379862193
2011-06-21,1,0.0022570483354364176,0.002362756809743221,-0.01138000260279579,0.006260199342753837,0.9901215508426158
2011-06-23,1,0.0011132083276380023,0.0012367144953572139,-0.01138000260279579,0.006260199342753837,0.9904203365681769
2011-06-27,1,0.000902800542593238,0.0010313060603288173,-0.009617603316109908,0.0051419343066409166,0.9910625857271699
2011-06-29,1,0.0015512582299600137,0.0015751607513888822,-0.009617603316109908,0.003502844795602065,0.9895182137497924
2011-07-01,1,0.002107033425730557,0.0021326097199890447,-0.009617603316109908,0.0015107095958195038,0.9895472127932942
2011-07-06,1,0.001755721665978038,0.0017825010975649124,-0.009617603316109908,0.0028218310108966494,0.9896509374878978
2011-07-08,1,0.0004940174858172258,0.0006686654643536357,-0.006885330660022419,0.003502844795602065,0.9891151800250428
2011-07-12,1,0.0005499910131171203,0.0006443693122465967,-0.006885330660022419,0.003502844795602065,0.981845562120367
2011-07-14,1,0.001625804904070968,0.0017665540061810123,-0.01391182611689351,0.003502844795602065,0.9774572879631641
2011-07-18,1,0.0006202223327204685,0.0006716780607641496,-0.01391182611689351,0.003502844795602065,0.9778949581658909
2011-07-20,0,-0.00011786410743250405,3.097268846037133e-05,-0.011725411457421881,0.00524171180952847,0.9782058924851712
2011-07-22,-1,-0.000981614990853905,-0.0006563832662819373,-0.02989671030398743,0.003961612647812893,0.9757868595499396
2011-07-26,-1,-0.0009088359127389136,-0.0006287337443974929,-0.02989671030398743,0.007416521055037603,0.9744759194761677
2011-07-28,-1,-0.0017865520199513976,-0.0013280814260070708,-0.02876572866191631,0.010141814843479258,0.9756192489089528
2011-08-01,-1,-0.0053003475947014074,-0.004501565111542041,-0.02651076895871616,0.01433922343588226,0.9733530240553254
2011-08-03,-1,-0.003930092973779869,-0.003294754656632322,-0.02651076895871616,0.02274932611980563,0.9726415893600776
2011-08-05,-1,-0.0060256832309139065,-0.005116793742340749,-0.02650818147228606,0.02274932611980563,0.9730564416180936
2011-08-09,-1,-0.0028493174553806695,-0.002302451623955442,-0.018928953009390438,0.02274932611980563,0.9799322171234597
2011-08-11,-1,-0.000493928099803237,-0.00022450293071863726,-0.018928953009390438,0.013806123984323137,0.981876483358466
2011-08-15,-1,-0.0020151305300692337,-0.0015920181625179528,-0.018928953009390438,0.02274932611980563,0.9793534161101058
2011-08-17,-1,-0.0021404793807582997,-0.0016890828081496518,-0.018928953009390438,0.02274932611980563,0.9786027269873233
2011-08-19,-1,-0.0038553550692440068,-0.0032289944013079216,-0.004916181143422633,0.02274932611980563,0.9798527366517484
2011-08-23,-1,-0.0015929316401387282,-0.001299206254820019,-0.018543074151326087,0.017402947130434263,0.9797868369392496
2011-08-25,-1,-0.0023944736652021454,-0.002022664442617129,-0.014352542988851842,0.018157731658301396,0.9799295480115902
2011-08-29,-1,-0.0005873132345893577,-0.00038483789917009164,-0.014352542988851842,0.01617850404635162,0.9815418869077005
2011-08-31,1,0.0003959981783638189,0.00047127843462590167,-0.018543074151326087,0.014906842543684216,0.980667821911852
2011-09-02,-1,-0.0011984941082504876,-0.0009438285788657606,-0.02572238425359093,0.014906842543684216,0.9790676826431729
2011-09-07,1,5.9112314452848254e-05,0.00016418902784976933,-0.02572238425359093,0.014906842543684216,0.9793920763164574
2011-09-09,-1,-0.002510688785875484,-0.0020603055072689596,-0.01846217907374332,0.014906842543684216,0.9810984973785253
2011-09-13,1,0.0002929051969645432,0.00037362272407612794,-0.01846217907374332,0.014906842543684216,0.981990932168987
2011-09-15,1,0.0003755866250160613,0.0004057157777623126,-0.01846217907374332,0.01498035638479968,0.9804991730261784
2011-09-19,1,0.001160012555034084,0.0012588716650758578,-0.01846217907374332,0.01570751327829586,0.9798980213186694
2011-09-21,-1,-0.0008440099876386982,-0.0007007947026199783,-0.011075956713555792,0.01570751327829586,0.9818720603839108
2011-09-23,1,8.837068776462842e-05,0.00015390674644243975,-0.011075956713555792,0.01570751327829586,0.9817330049336236
2011-09-27,1,0.00077022813922508,0.0007853693431449019,-0.011075956713555792,0.01570751327829586,0.9806427614659516
2011-09-29,-1,-0.0006945309510300213,-0.0005482884724779067,-0.009177088617075557,0.01570751327829586,0.9826466433558086
2011-10-03,-1,-0.0035065287022817337,-0.0030888487605132816,-0.0072409651062714155,0.01889610428276134,0.982949727257394
2011-10-05,-1,-0.003402984286623458,-0.0029869317165888837,-0.0072409651062714155,0.02607131905169241,0.9823837602408619
2011-10-07,-1,-0.003281054670602841,-0.0028716876859277473,-0.0072409651062714155,0.02607131905169241,0.9825007090282104
2011-10-11,-1,-0.001629735123298251,-0.0014647673071369214,-0.003949847326332856,0.01809925153460622,0.9842968925883379
2011-10-13,-1,-0.0006479446698178608,-0.0005976006278230188,-0.003949847326332856,0.011788770757089425,0.9864807425133728
2011-10-17,-1,-0.0011568392729473219,-0.00100355901441111,-0.0032647394534851062,0.01235195081131186,0.9866369443673642
2011-10-19,-1,-0.0006677566384834341,-0.0006193034395142823,-0.0032647394534851062,0.012484227232834426,0.9850336036055887
2011-10-21,1,0.0005287458614293431,0.0006386446500675325,-0.0032647394534851062,0.010583665533849826,0.9864432862795037
2011-10-25,1,0.00029348686120243426,0.00033012137956997864,-0.005111386240193699,0.008745268632506555,0.9878788770094966
2011-10-27,1,0.0005436337783987787,0.0006026998097949304,-0.010556777636315642,0.006974418951008005,0.9864858353098527
2011-10-31,1,0.0014324590144976297,0.0017120003346519964,-0.010556777636315642,0.008789360773014076,0.9870229748989887
2011-11-02,1,0.0016166480105728547,0.0018423797056657232,-0.005729358668159549,0.008789360773014076,0.9870515056306034
2011-11-04,1,0.002865788871544199,0.003238563546787636,-0.010643175740039448,0.007616612678460777,0.9861931369125972
2011-11-08,1,0.001844215505451534,0.002075897630930747,-0.010643175740039448,0.007146462128026736,0.986127236300355
2011-11-10,1,0.0024563796500580532,0.0028759945168363313,-0.013708374459471576,0.011958058050970262,0.9851844674703292
2011-11-14,1,0.002769718652535384,0.0032275344050797052,-0.013708374459471576,0.007146462128026736,0.9855062451765688
2011-11-16,1,0.0011960880399720973,0.001475384467170418,-0.013708374459471576,0.0044492271554098725,0.9871656345328795
2011-11-18,1,0.0017612551729974328,0.002076164707062264,-0.013708374459471576,0.0044492271554098725,0.9872478336291998
2011-11-22,1,0.0020967381955010133,0.0025074421754720873,-0.008094150748487485,0.015175889991812075,0.9865223451856644
2011-11-25,1,0.0006677565982295817,0.0009486993604600018,-0.003568793845657897,0.01522167268703848,0.9879380050611419
2011-11-29,1,0.0017276118807614956,0.002086027123717888,-0.004236983220510464,0.006711664411472362,0.9893299015014259
2011-12-01,1,0.0028093755754822723,0.003296657047347511,-0.006492954118830134,0.004668811402203018,0.9902194030981043
2011-12-05,1,0.002482333398744742,0.002859377199928648,-0.004236983220510464,0.009915286488094052,0.9907394721727077
2011-12-07,1,0.0019538763535247,0.0023319942104450507,-0.004236983220510464,0.015021645441570277,0.9900234599789017
2011-12-09,1,0.0017569754034608273,0.0020830804355198964,-0.0016003169141418161,0.012277045668716086,0.9907328429316933
2011-12-13,1,0.0013365566140922842,0.0016113094679109329,0.00020754278754583542,0.012277045668716086,0.9907571013358514
2011-12-15,1,0.0007872603381525872,0.0009780503663352974,0.002142897127215866,0.012277045668716086,0.9906082541524718
2011-12-19,1,7.749255162874493e-05,8.047061304233263e-05,0.0024819237297920437,0.012277045668716086,0.9894918454067841
2011-12-21,1,0.00047594754212958407,0.0005270516901604745,-0.004677723572092452,0.009260243045697551,0.9898958317761659
2011-12-23,1,0.0018153335419806092,0.001955694467868789,-0.008004542111257791,0.008439351808363572,0.9898462134782484
2011-12-28,1,7.664298885014784e-05,0.00025047756571996115,-0.008004542111257791,0.009260243045697551,0.9888702769805283
2011-12-30,1,0.0004742627869978384,0.0005665705581517533,-0.0075643742206965275,0.009768601020355714,0.9891014193265544
2012-01-04,1,0.0022647890671943878,0.0024716324720953035,-0.010311307773443162,0.009768601020355714,0.9883905031824011
2012-01-06,1,0.0023553797578471764,0.0025483697735632083,-0.011340755773280118,0.008903073918788118,0.9864323021350498
2012-01-10,1,0.0030745940173543818,0.0033682833042822896,-0.012373687447701252,0.008439351808363572,0.9859907584309647
2012-01-12,1,0.0016818430153012279,0.0016925434840713905,-0.012373687447701252,0.008439351808363572,0.9863613030767966
2012-01-17,1,0.0028397388841495145,0.003060071867085047,-0.012373687447701252,0.009756515764499117,0.9854403193119026
2012-01-19,1,0.001851567456094081,0.0019167861391342351,-0.012807416437742608,0.009756515764499117,0.9855214702613563
2012-01-23,1,0.0018823225235774154,0.0019403237435607391,-0.011981603888800499,0.011394254639606489,0.9862155923518289
2012-01-25,1,0.0017662915517928889,0.0018647600232461706,-0.011981603888800499,0.011394254639606489,0.986143606473748
2012-01-27,1,0.00027576995229325405,0.0004415872795003828,-0.011113204089952627,0.01144699078438458,0.98727916674897
2012-01-31,1,0.0010273220197773878,0.0011242953089211165,-0.011981603888800499,0.01144699078438458,0.9867832122489939
2012-02-02,1,0.0008428849210701855,0.0009764396972385707,-0.011113204089952627,0.00970329284913674,0.9883737200018907
2012-02-06,1,0.0008044259707088105,0.0008351100853083149,-0.011113204089952627,0.00970329284913674,0.9900165099174941
2012-02-08,1,0.0010993952296207863,0.0011390829324876965,-0.006821978212789771,0.010358516255863696,0.9900511722950744
2012-02-10,1,0.0015375632045464389,0.0016546555068956978,-0.009609741917636956,0.010358516255863696,0.9894465781220199
2012-02-14,1,0.0014700280655708295,0.0014726817528713414,-0.009609741917636956,0.008215507129404307,0.9904198443359128
2012-02-16,1,0.0017305333548376348,0.0018130194597580393,-0.00861848438643726,0.008215507129404307,0.9906869037801275
2012-02-21,1,0.0027215314857917438,0.002977047953273422,-0.009609741917636956,0.006367511238250027,0.990345197798696
2012-02-23,1,0.001575359331637628,0.0016102068909857284,-0.0062110728840111375,0.006367511238250027,0.9917697786626448
2012-02-27,-1,-0.0006461607583367248,-0.00025747986515336444,-0.0062110728840111375,0.007126524365634642,0.9916011920403249
2012-02-29,-1,-0.00047855428301860916,-0.00013173620733690917,-0.004643084228892615,0.007126524365634642,0.9920104003000041
2012-03-02,-1,-0.000969551480884769,-0.0005518151021684412,-0.0034972484634012676,0.008215507129404307,0.9903337145963913
2012-03-06,-1,-0.0016604527808651264,-0.0011756253745310856,-0.004978169696738083,0.008215507129404307,0.9906008232494132
2012-03-08,-1,-0.0006250833249553415,-0.000255787603477246,-0.004978169696738083,0.006384866143999484,0.9917272169042732
2012-03-12,-1,-0.0007162054865550261,-0.0004963240283504927,-0.004978169696738083,0.006384866143999484,0.9906228066756008
2012-03-14,-1,-0.0014344137286871343,-0.000964218447769594,-0.004978169696738083,0.006384866143999484,0.9901028914070963
2012-03-16,-1,-0.0012173967178543822,-0.00098274268837781,-0.010185210855399763,0.006384866143999484,0.9890654444794525
2012-03-20,-1,-0.0013663577112180748,-0.0011487729025130597,-0.0074228028102579675,0.007930618773550106,0.9896819291018432
2012-03-22,-1,-0.0010312085296756415,-0.0008799784464052175,-0.0074228028102579675,0.010274180168021249,0.9888498353828892
2012-03-26,1,5.573021286346425e-05,0.00010042896266689228,-0.008646901729271015,0.0071642470684556096,0.9899924054895659
2012-03-28,1,0.00041185865120985197,0.0004574179603912726,-0.008646901729271015,0.00693299665904323,0.9900433850316168
2012-03-30,1,0.0024632523880609566,0.0028041575123897767,-0.013183866103817742,0.00498548185245218,0.9868734157249978
2012-04-03,1,0.0017679888008384434,0.001975790176552741,-0.013183866103817742,0.005254402361993645,0.9855889104330614
2012-04-05,1,0.0017162287764978948,0.0018980769442964712,-0.01447413842552961,0.005174372741704791,0.9835811717516921
2012-04-10,1,0.0005002135601146782,0.0005425867410869423,-0.013183866103817742,0.006938415280145995,0.9851051782148533
2012-04-12,1,0.0006464206291473425,0.0006533718433277387,-0.01391364578085953,0.00398904635359069,0.9845926377169676
2012-04-16,-1,-0.00047112933944369297,-0.00033266873854164385,-0.01376460756436236,0.00398904635359069,0.9850595633388722
2012-04-18,-1,-0.000258386529797226,-0.00012927052015542564,-0.01376460756436236,0.0030055848320846017,0.9845322902816668
2012-04-20,-1,-0.0006641573595468087,-0.0004025117049523501,-0.01447413842552961,-0.0004053120456239869,0.9846544461965234
2012-04-24,-1,-0.0002567952881697082,-0.00012827156581187468,-0.01447413842552961,0.00398904635359069,0.9835546333015481
2012-04-26,1,0.0006324326278774863,0.0006828049447090764,-0.01447413842552961,0.0038536594743079546,0.9833345882034402
2012-04-30,-1,-0.001793332904780346,-0.0014982208109095712,-0.01236393268774683,0.00450989842026233,0.9880599511315011
2012-05-02,-1,-0.00020061956716703504,-9.351727007920167e-05,-0.01236393268774683,0.0038536594743079546,0.9895818235543974
2012-05-04,0,0.0,0.0,-0.010290807692342247,0.00450989842026233,0.9905965730784456
2012-05-08,0,0.0,0.0,-0.010290807692342247,0.00569795116984269,0.9901217090090867
2012-05-10,0,0.0,0.0,-0.010290807692342247,0.009885620323663871,0.9890088264977871
2012-05-14,0,0.0,0.0,-0.010290807692342247,0.009885620323663871,0.9893572780933223
2012-05-16,-1,-0.0046390033388514305,-0.004090462756799532,-0.005801734544258483,0.009885620323663871,0.9892770830102494
2012-05-18,0,0.0,0.0,-0.004637847844641046,0.009885620323663871,0.9902462245241703
2012-05-22,-1,-0.0012041174959865806,-0.0010667554398936592,-0.004637847844641046,0.007885564953118505,0.9911036102595769
2012-05-24,-1,-0.003710763811260556,-0.0032787241368764037,-0.005801734544258483,0.008038161571277683,0.9895946443003095
2012-05-29,-1,-0.002914425481354849,-0.0026216704416514537,-0.007113892328770711,0.008038161571277683,0.9896905684769898
2012-05-31,0,0.0,0.0,-0.006475805510591761,0.009825330306293007,0.9896001573356237
2012-06-04,0,0.0,0.0,-0.007113892328770711,0.008038161571277683,0.9891059345492338
2012-06-06,-1,-0.0009307024291443833,-0.0009006718597925985,-0.008823369448052579,0.0067917724976618256,0.9897871248157681
2012-06-08,-1,-0.00030960193838646,-0.0001591309452373624,-0.007113892328770711,0.0036725179840604526,0.9922768586429296
2012-06-12,-1,-0.0004997497106297983,-0.00037865351924534893,-0.007113892328770711,0.0036725179840604526,0.9917961514322207
2012-06-14,-1,-0.0007997361662074477,-0.0007732053248426733,-0.008823369448052579,0.0036725179840604526,0.9905943768010147
2012-06-18,-1,-0.0010095403295057107,-0.0009729443918636063,-0.011976578661037629,0.0021915230589934194,0.9900511839073056
2012-06-20,-1,-0.0009032560010794559,-0.0008580634897915686,-0.011976578661037629,0.0008616793382928654,0.9903989434764354
2012-06-22,-1,-0.0007876700057576061,-0.0007731910932325537,-0.011976578661037629,0.0008271591922700207,0.9911159773206897
2012-06-26,-1,-0.0008899587835910844,-0.0008867968272786202,-0.012406264483663429,0.0008271591922700207,0.990272870433554
2012-06-28,-1,-0.0014265010335009062,-0.0012779268329833424,-0.014074178278803725,0.0008271591922700207,0.988362876509928
2012-07-02,-1,-0.002590169743405541,-0.0023074548346924406,-0.014074178278803725,0.0008271591922700207,0.9851940774672507
2012-07-05,-1,-0.0024427989103961464,-0.002189680775868692,-0.01605029121575887,0.0013947773288563326,0.9830791016545191
2012-07-09,-1,-0.0016241695235211502,-0.0015223024896215524,-0.01605029121575887,0.0013947773288563326,0.9825453424713434
2012-07-11,-1,-0.0024317001817347195,-0.002225094014255396,-0.014074178278803725,0.012191579146271473,0.9801523821805138
2012-07-13,-1,-0.0013667817058454848,-0.001335097580450187,-0.014074178278803725,0.009496377014135604,0.9806839912364175
2012-07-17,-1,-0.0025630222582419316,-0.002353958784652116,-0.012877588936950707,0.009496377014135604,0.9813367538926805
2012-07-19,-1,-0.002156420917831782,-0.0020158656497356055,-0.012877588936950707,0.012613460436118851,0.9804230809634601
2012-07-23,-1,-0.002807580248482318,-0.002568517062244068,-0.010388138956768711,0.012613460436118851,0.9808292856223576
2012-07-25,-1,-0.0036708988769342996,-0.0033395720443956003,-0.005389659079664556,0.012613460436118851,0.9811578252184587
2012-07-27,-1,-0.0035615428771666848,-0.003222333669411815,-0.003117803486867885,0.01071745571298614,0.9830502563901635
2012-07-31,-1,-0.006173435221148005,-0.005575401952112681,-0.0021509207704766575,0.01071745571298614,0.9860052687351165
2012-08-02,-1,-0.005513507682842235,-0.004972891419824253,-0.0021509207704766575,0.01071745571298614,0.9872273070877694
2012-08-06,-1,-0.004806559044526904,-0.004377110889380563,-0.0024061240328185516,0.011684656892625147,0.9873506046295193
2012-08-08,-1,-0.0023903180278937947,-0.002238229204577048,-0.0024061240328185516,0.01071745571298614,0.9904351831872898
2012-08-10,-1,-0.00247197054361806,-0.002292702916139643,-0.0024061240328185516,0.010130093141748838,0.9897356729735998
2012-08-14,-1,-0.0027639650053922138,-0.0025568418371946173,-0.0016565832354412057,0.010130093141748838,0.9891334074299134
2012-08-16,-1,-0.001318820619844673,-0.001297585088484046,-0.0016565832354412057,0.010130093141748838,0.9890801698040209
2012-08-20,1,0.00020560350992420893,0.0004430946484293921,-0.005575206345231918,0.010130093141748838,0.9892557212730677
2012-08-22,1,0.00031756441336058426,0.0006568852723625208,-0.005575206345231918,0.010130093141748838,0.9896987466323172
2012-08-24,1,0.0007197546465474145,0.0010908882476187384,-0.005575206345231918,0.00872016159543665,0.9901822458116778
2012-08-28,1,0.0009409654273485255,0.0013545288467470369,-0.007999022406518825,0.00872016159543665,0.9892413780752716
2012-08-30,1,0.00012151873060091509,0.0003656781852431567,-0.005575206345231918,0.00872016159543665,0.9902756994455111
2012-09-04,1,0.000994122185373455,0.001403159788378069,-0.004385812402854119,0.010149591526387605,0.9897710481820348
2012-09-06,1,0.001565166810371088,0.0020100543749584513,-0.004385812402854119,0.010415096175994166,0.9897577835270526
2012-09-10,1,0.00124756701430539,0.0016775704579033792,-0.004385812402854119,0.010415096175994166,0.990929370820996
2012-09-12,1,0.0011745191354673471,0.0016341400891772123,-0.0032945014887511633,0.010415096175994166,0.9914176956085435
2012-09-14,1,0.0021360218842488227,0.0027070240354347833,-0.0043559120312551165,0.010411282135315529,0.9921195833888555
2012-09-18,0,0.0,0.0,-0.0017043676299834045,0.010411282135315529,0.9922430838961248
2012-09-20,0,0.0,0.0,-0.0032945014887511633,0.010466573898050413,0.9915398193394241
2012-09-24,0,0.0,0.0,-0.003661897845808673,0.010899561646822278,0.9905276989287632
2012-09-26,0,0.0,0.0,-0.003661897845808673,0.010899561646822278,0.9902257109899097
2012-09-28,0,0.0,0.0,-0.004688196708678463,0.010888119524786369,0.9900825531565938
2012-10-02,0,0.0,0.0,-0.004688196708678463,0.010411282135315529,0.990621835961273
2012-10-04,0,0.0,0.0,-0.007480903485715574,0.007935273147329273,0.9913830250230604
2012-10-08,-1,-0.0015178468762866216,-0.0014517660228852147,-0.007480903485715574,0.008531375527831921,0.9877525971182399
2012-10-10,0,0.0,0.0,-0.009652876851479444,0.008531375527831921,0.9873076899761865
2012-10-12,0,0.0,0.0,-0.01047450541805931,0.0063720522829601505,0.9872580887492318
2012-10-16,0,0.0,0.0,-0.013008471693898143,0.0063720522829601505,0.9860012773530163
2012-10-18,0,0.0,0.0,-0.013008471693898143,0.0063720522829601505,0.9852626669729659
2012-10-22,0,0.0,0.0,-0.013008471693898143,0.004509114889634569,0.986244677462732
2012-10-24,1,0.0033717725123632407,0.0038463021670210452,-0.010354563307047726,0.0030211955999158427,0.9859897714002241
2012-10-26,1,0.0033922717315936855,0.003926457759305184,-0.010354563307047726,0.004509114889634569,0.9850971981343617
2012-11-01,1,0.004206396688761839,0.004863464262958202,-0.010354563307047726,0.004509114889634569,0.9852854278907371
2012-11-05,1,0.003678075841941267,0.004238546193633329,-0.010065182431100453,0.0028826937851635496,0.9855948871666297
2012-11-07,1,0.003809038861567121,0.0043947311281308365,-0.008717016488531553,0.001964456492060098,0.9893934371115957
2012-11-09,0,0.0,0.0,-0.007878293790582322,0.005356262322317361,0.9907243639616322
2012-11-13,0,0.0,0.0,-0.005927065221132494,0.006202836307493145,0.9908747752857537
2012-11-15,0,0.0,0.0,-0.006149968510299163,0.006202836307493145,0.9913632703927384
2012-11-19,0,0.0,0.0,-0.004989036305865066,0.009402403600130173,0.991266132655139
2012-11-21,0,0.0,0.0,-0.005915765007333769,0.009402403600130173,0.9908746038756991
2012-11-26,0,0.0,0.0,-0.004989036305865066,0.009402403600130173,0.9910811927926209
2012-11-28,-1,-0.0005663350032335278,-0.0005132406124005722,-0.004989036305865066,0.006909765792476781,0.9924251355417898
2012-11-30,-1,-0.0008424990357758541,-0.000754885364265752,-0.005475211444300525,0.007254693604866691,0.991931542429924
2012-12-04,-1,-0.000532265098743881,-0.0004687390191436516,-0.006187444280012639,0.007254693604866691,0.9906131808846307
2012-12-06,-1,-0.0006479524258212364,-0.000602166807124113,-0.006187444280012639,0.010850269227951606,0.9897214016625889
2012-12-10,-1,-0.0003336254730305386,-0.00029101317863913963,-0.007306935614895606,0.010850269227951606,0.9895119934940787
2012-12-12,1,6.85397986190763e-05,0.00010189843644497289,-0.007306935614895606,0.011236470405049822,0.9882907806198781
2012-12-14,-1,-0.0007045009802386672,-0.0006049053799369592,-0.0044229162656444524,0.014373255866883494,0.9878684014923532
2012-12-18,-1,-0.00036335918455121367,-0.00029432096413649464,-0.006187444280012639,0.011357986331402711,0.9885012079808411
2012-12-20,0,0.0,0.0,-0.0044229162656444524,0.011357986331402711,0.988734850867195
2012-12-24,0,0.0,0.0,-0.0035740707490179964,0.014373255866883494,0.9877397103000617
2012-12-27,-1,-0.0015184732867701903,-0.0012367779576723382,-0.002780320471200901,0.015012662581334471,0.9872783959689994
2012-12-31,-1,-0.003485932261440338,-0.002838326836691097,-0.002780320471200901,0.01384745607978324,0.9877500332266987
2013-01-03,-1,-0.0032963519114205227,-0.002827856850795966,-0.00207679041357376,0.01384745607978324,0.9882198495834167
2013-01-07,0,0.0,0.0,-0.001656891324743183,0.015274070859126177,0.9870230674586201
2013-01-09,0,0.0,0.0,-0.0004854323774014728,0.015274070859126177,0.9880713928943086
2013-01-11,0,0.0,0.0,-0.0020309393369176048,0.013606901171025941,0.989194261761213
2013-01-15,0,0.0,0.0,-0.002504156379049915,0.011277801361816945,0.9893222444386072
2013-01-17,0,0.0,0.0,-0.002504156379049915,0.010105833532866157,0.990138702354485
2013-01-22,0,0.0,0.0,-0.0039009958385547005,0.010105833532866157,0.9871814963186748
2013-01-24,0,0.0,0.0,-0.007267424610181074,0.004476279860557054,0.987079361097419
2013-01-28,0,0.0,0.0,-0.01253044130387058,0.0024034244292793815,0.986750762627223
2013-01-30,0,0.0,0.0,-0.013522180270487906,0.0034912448466691073,0.9861606565742436
2013-02-01,0,0.0,0.0,-0.013798512099156711,0.0024034244292793815,0.9858061685241356
2013-02-05,0,0.0,0.0,-0.013798512099156711,0.0010304883472339456,0.9884213044922616
2013-02-07,1,0.00433190401049661,0.004735996019337305,-0.013798512099156711,0.0010304883472339456,0.9858452850332471
2013-02-11,1,0.004126936821641964,0.004570640653877771,-0.013522180270487906,0.0032113028944457094,0.987147183827229
2013-02-13,1,0.0025790941540736823,0.002762727537919567,-0.010900190668956736,0.004385170495033174,0.9892786070783409
2013-02-15,1,0.0024542266212366514,0.0026234010048245163,-0.010900190668956736,0.00570428144980655,0.9890646263209943
2013-02-20,1,0.0036564716013985773,0.003984970459643341,-0.010453973229504355,0.00570428144980655,0.9918199192335067
2013-02-22,1,0.002260177227681323,0.0023644930552856437,-0.012115489305073408,0.00570428144980655,0.9914722382636181
2013-02-26,1,0.0015072990009075843,0.0015267136040930786,-0.0078105833742972905,0.00570428144980655,0.9922911797922692
2013-02-28,1,0.0016318556359063373,0.0017445166576118983,-0.006102044523415336,0.006387900586760562,0.9915895047758906
2013-03-04,1,0.0012722134212917163,0.00138816964055197,-0.002449712870014403,0.008331963253479645,0.9859799099424265
2013-03-06,1,0.0009729678141278307,0.0010386049230448008,-0.0016172036418194218,0.008337616114995571,0.9860500107805633
2013-03-08,1,0.0015504135562992526,0.0016987326160874657,-0.0063873943441860835,0.008108546016940485,0.9855191735044633
2013-03-12,1,0.001831910160902845,0.002023914033647268,-0.0063873943441860835,0.008337616114995571,0.9852112667111612
2013-03-14,1,0.002198256445629932,0.0024472548800829087,-0.00866663283660953,0.008337616114995571,0.984533364951054
2013-03-18,1,0.0028843322228440946,0.003237666052857223,-0.012675626994201461,0.006468496116593077,0.9837906805960853
2013-03-20,1,0.00242328550633628,0.002727709732405239,-0.016166504689063336,0.006468496116593077,0.9818931534532013
2013-03-22,1,0.0009569597315662219,0.0010354113067729915,-0.011491355075368461,0.009199426746206808,0.9827882540719853
2013-03-26,1,0.0003062872274797708,0.00033929123619503724,-0.01202333565725002,0.009199426746206808,0.9822591283557758
2013-03-28,1,0.002109378471162868,0.0023576310371309075,-0.01202333565725002,0.009199426746206808,0.9831778558142468
2013-04-02,1,0.003659827267574511,0.004112484900718534,-0.01202333565725002,0.008019596889155366,0.9888063613077435
2013-04-04,1,0.0035772760472107343,0.003993036800241041,-0.016166504689063336,0.008370623397193137,0.9856745928242931
2013-04-08,1,0.0019703026592687643,0.0021148135526877156,-0.016570419142336118,0.010597577936832654,0.9851748796578005
2013-04-10,1,0.0021782346085838403,0.0023291568317414203,-0.016570419142336118,0.013266995405937518,0.9838411071210439
2013-04-12,1,0.000713437585057649,0.0008168000467125786,-0.012607937226521522,0.0147577750071427,0.983000472020411
2013-04-16,1,0.00020952191313529882,0.00034969107727229664,-0.01017052777009693,0.0147577750071427,0.9837901606024193
2013-04-18,-1,-0.001630908425838543,-0.0012581563531513516,-0.005903516999243602,0.0147577750071427,0.9862736434616234
2013-04-22,-1,-0.0020382179181761594,-0.0016002904901230937,-0.005903516999243602,0.015000218021692987,0.9861458939840829
2013-04-24,-1,-0.002670861686415842,-0.0021273161693417535,-0.004559700161651552,0.015000218021692987,0.9868294619416518
2013-04-26,-1,-0.0019591563601783425,-0.0014965772380765249,-0.005903516999243602,0.015000218021692987,0.9870504837042285
2013-04-30,-1,-0.001763525280153691,-0.001310015472835118,-0.005428584857960946,0.018940907984113207,0.9863940152175452
2013-05-02,-1,-0.0020584120545404762,-0.0015687396984091996,-0.005428584857960946,0.018940907984113207,0.9876601872635068
2013-05-06,-1,-0.00152788223976415,-0.0011485636614674752,-0.004696294980531958,0.015000218021692987,0.9893463632888806
2013-05-08,1,0.000356446469598245,0.0005075215549290912,-0.006313301455884819,0.00880922551182847,0.9899833621880715
2013-05-10,1,0.0003390959586398195,0.0005423755099540108,-0.004696294980531958,0.009404872014185788,0.9906547547912093
2013-05-14,1,0.0005453320955807856,0.0006567778314764559,-0.005660128173762617,0.009404872014185788,0.9904286763865439
2013-05-16,1,0.00016636266144924767,0.0003366302189610008,-0.006049669927083374,0.009404872014185788,0.9899877656614141
2013-05-20,1,1.4343362640862538e-05,0.00021340641187720982,-0.005660128173762617,0.010637216189996681,0.9896095894544079
2013-05-22,-1,-0.000422346061189139,-0.00016358038393549492,-0.005997509567756796,0.010637216189996681,0.9892511134821134
2013-05-24,-1,-0.0004307673194823674,-0.0001919205290144342,-0.005660128173762617,0.013578772119479079,0.9892833899815417
2013-05-29,-1,-0.0003663591500357179,-4.8605551802901725e-05,-0.005660128173762617,0.010637216189996681,0.9905325274461407
2013-05-31,-1,-0.0005117257100815352,-0.00020149751837104924,-0.005660128173762617,0.010386645803758695,0.9919241448339721
2013-06-04,-1,-0.001192240437071108,-0.0007860353690974326,-0.005997509567756796,0.010386645803758695,0.990530875311339
2013-06-06,-1,-0.0004447141627282194,-0.00019670063958630857,-0.004959730279496399,0.010199840900096874,0.9910563454729178
2013-06-10,1,0.0010371852583030894,0.001055924313305049,-0.004959730279496399,0.009899286545483303,0.9912899704007805
2013-06-12,1,0.00028336979382246187,0.0004000195397068391,-0.0031340470600463347,0.011099221713813574,0.9909419071288752
2013-06-14,1,0.0002822799106045344,0.00039035184641744193,-0.003995108932845322,0.011099221713813574,0.9909299805700913
2013-06-18,1,0.002086800156255453,0.0022579722217601766,-0.003995108932845322,0.008089191991411435,0.9923456365637776
2013-06-20,1,0.0020121916052886456,0.0021920787115659378,-0.0031340470600463347,0.009899286545483303,0.9911167665302477
2013-06-24,1,0.002225663708924538,0.0024174624707772535,-0.0029416545017885813,0.009753492668216193,0.9914519473618193
2013-06-26,1,0.0021928510427873084,0.0024089686694996598,-0.0034580907808260254,0.010361285727398672,0.9907604778795654
2013-06-28,1,0.003204295332567879,0.003670909846963206,-0.0034580907808260254,0.01007561533468973,0.9913044478600032
2013-07-02,1,0.002811593412811915,0.003245406380738885,-0.0034580907808260254,0.010361285727398672,0.9911529416672674
2013-07-05,1,0.0027965464791437204,0.003186358917033632,-0.005485977901004102,0.010361285727398672,0.9904011301620591
2013-07-09,1,0.0027283375643483033,0.0030478613764266657,-0.005485977901004102,0.01036612103063412,0.9902036316114029
2013-07-11,1,0.0030955219639770483,0.0034538721528333868,-0.005485977901004102,0.01036612103063412,0.9901319003607257
2013-07-15,1,0.002864062267524073,0.003229782656421692,-0.0017889618591934592,0.01036612103063412,0.990492979341617
2013-07-17,1,0.002434901352935684,0.0026829618129415363,-0.004914015786079709,0.01036612103063412,0.9899307377421005
2013-07-19,1,0.003467777565177608,0.003806522769898263,-0.006993600068785622,0.01007561533468973,0.9907308416698346
2013-07-23,1,0.003483065652359689,0.003787365603625383,-0.006993600068785622,0.006863401807770888,0.9908960553600041
2013-07-25,1,0.002820084951589928,0.0029837741218132893,-0.004914015786079709,0.006863401807770888,0.9911496439019626
2013-07-29,1,0.002715839248389499,0.0028607382044078355,-0.004470786048885122,0.00662936370959855,0.9913192338833027
2013-07-31,1,0.0030481394747074115,0.0032730855318316163,-0.004470786048885122,0.002926980224107296,0.9921979325712572
2013-08-02,1,0.002301706366824317,0.0024287717455022772,-0.004470786048885122,0.00444173105418887,0.9927464804564359
2013-08-06,1,0.003031910037412305,0.0032678652390376777,-0.004470786048885122,0.0037787417422766784,0.9921191549158427
2013-08-08,1,0.003941531331423034,0.004332338441084492,-0.005426645300037284,0.0037787417422766784,0.9915750695158951
2013-08-12,1,0.003012698542031583,0.0032339568782534397,-0.005426645300037284,0.0052628889632737215,0.9916167271447663
2013-08-14,1,0.0020093919858013023,0.002038632622313682,-0.0031094193844967777,0.009071063793283329,0.9918107798400206
2013-08-16,1,0.0011693533418108207,0.0012685777766756402,-0.0021807844271626983,0.010178747895248906,0.9918545074930711
2013-08-20,1,0.0017133066235896608,0.0017418731692900788,-0.0031094193844967777,0.010178747895248906,0.9905277527735993
2013-08-22,1,0.002929129140143538,0.0032126452529608693,-0.005426645300037284,0.009071063793283329,0.9902536896293428
2013-08-26,1,0.002901048149270712,0.0031972823353171274,-0.0034944375155667074,0.008759455617640547,0.9904671176063004
2013-08-28,1,0.002189597784571325,0.00234700397879895,-0.007363934769134457,0.008759455617640547,0.9897926186727507
2013-08-30,1,0.0019345780182688918,0.002077406757162697,-0.006004100085700416,0.008759455617640547,0.9901319398664519
2013-09-04,1,0.0025043470825293753,0.0026831770825682093,-0.006004100085700416,0.008759455617640547,0.9899182680114145
2013-09-06,1,0.00222027148740194,0.0023253007347923812,-0.005338388807518518,0.008759455617640547,0.9896929780616969
2013-09-10,1,0.0016557169205322574,0.0016993853923205448,-0.010880995161889291,0.00775269854891789,0.9887511735094102
2013-09-12,1,0.001376271092770384,0.001466923186748713,-0.010880995161889291,0.00775269854891789,0.9881051158462557
2013-09-16,1,0.0015588330245600705,0.0016452760971531909,-0.010880995161889291,0.003556273393493574,0.9886147147892856
2013-09-18,1,0.0006010577635825385,0.0007684899095271776,-0.00919676558584177,0.00775269854891789,0.9889619716001967
2013-09-20,1,0.00040971132959945113,0.0005696815943010787,-0.010880995161889291,0.003556273393493574,0.98772714987025
2013-09-24,1,0.0008048086509018428,0.0009519577373207761,-0.010880995161889291,0.005826193448295649,0.9873349536769908
2013-09-26,-1,-0.0003503753369558377,-5.13557595694953e-05,-0.009222226635775675,0.005826193448295649,0.9879334506157181
2013-09-30,1,0.0004955980330128304,0.0006284946145212415,-0.009222226635775675,0.005826193448295649,0.9879886548153738
2013-10-02,1,0.001010569525674248,0.001061271248412539,-0.009222226635775675,0.002464386908754482,0.988855370271797
2013-10-04,1,0.0012079701272656109,0.0012593927065537144,-0.009222226635775675,0.004552790991091371,0.9893311935914999
2013-10-08,-1,-0.0005340608640172408,-0.0002717981306109661,-0.005070144756880867,0.009575940853756624,0.9905900286979351
2013-10-10,1,0.0005946218293888578,0.0007278078655869949,-0.005070144756880867,0.009575940853756624,0.9908645874256735
2013-10-14,1,8.097063498042195e-05,0.00027095341700410886,-0.005070144756880867,0.010140290917210854,0.9903271098362535
2013-10-16,1,0.00022142740081747302,0.0004002038812293636,-0.0042512265702569635,0.009520733031943247,0.9915215365522735
2013-10-18,-1,-0.001366822183699542,-0.0010454732754753714,-0.00219351293069641,0.009520733031943247,0.9929639714309254
2013-10-22,-1,-0.0009200381758258383,-0.0006262268126267486,-0.00219351293069641,0.009245233865939416,0.9937949188352394
2013-10-24,-1,-0.0017791353657015607,-0.001380841543905239,-0.00047806307879504593,0.009520733031943247,0.9930465618417037
2013-10-28,-1,-0.0016450957784802434,-0.0012668186749333278,-0.00047806307879504593,0.010739851579547384,0.991405841881391
2013-10-30,-1,-0.001673505311904931,-0.0013105307893670772,-0.00026470452160413363,0.010739851579547384,0.991334970191291
2013-11-01,-1,-0.0013083512319624635,-0.0009569505826384119,-0.00026470452160413363,0.012060389992626631,0.9918134485888656
2013-11-05,-1,-0.0012387829402849704,-0.0008938056731713325,-0.001553437259123673,0.010592954936497308,0.9919628827855121
2013-11-07,-1,-0.0004910385519417173,-0.0002929323073285476,-0.001553437259123673,0.010592954936497308,0.9915008300302884
2013-11-11,-1,-0.0003980128619406666,-0.00019641214866857807,-0.0019580039775665982,0.009941222394857327,0.9916142605572479
2013-11-13,-1,-0.00019497801669660206,-2.5217815713786135e-05,-0.006079656967644005,0.009941222394857327,0.9904114561197671
2013-11-15,1,0.00010138175957481884,0.0002519799594351041,-0.006079656967644005,0.006057975564074154,0.9909150095140845
2013-11-19,1,5.766848339717117e-05,0.0002114957729860034,-0.008060613996985678,0.01292316480976861,0.9897701818980855
2013-11-21,-1,-0.00027885947017529074,-5.3680648778086336e-05,-0.008060613996985678,0.01017695646742359,0.9903145820846051
2013-11-25,1,0.001369241248397569,0.0013851298509786442,-0.008060613996985678,0.005411437566616414,0.9915345828502841
2013-11-27,1,0.0012904315507285677,0.0013027316853143735,-0.008060613996985678,0.005411437566616414,0.9914152081433899
2013-12-02,1,0.0018436080675084657,0.0019239685707225676,-0.008060613996985678,0.004834057967493047,0.991386865118751
2013-12-04,1,0.0008620508251936236,0.0009392294423291511,-0.008271352433078527,0.004834057967493047,0.9913904854946324
2013-12-06,1,0.0009304456394706061,0.0010058649904630306,-0.008130967974781139,0.0029706557061730714,0.9925941677824591
2013-12-10,1,0.001437570513321248,0.0015031108507785964,-0.00996742827715715,0.0021550098266403007,0.992198920464602
2013-12-12,1,0.0006078173919144635,0.0006282181174242644,-0.009650451502031941,0.0021550098266403007,0.9923752919914006
2013-12-16,1,0.0004276056391908176,0.0004758302280647453,-0.009650451502031941,0.004439766303686449,0.9922774925778268
2013-12-18,1,0.000682932226201378,0.0007016774878159135,-0.009650451502031941,0.0037004627108091,0.9928738297345601
2013-12-20,1,0.0009348672768797399,0.0009549079120991046,-0.009650451502031941,0.0037004627108091,0.9926111089825397
2013-12-24,1,0.0008263287235668107,0.0008581150559424694,-0.009650451502031941,0.002839225151570872,0.9930591042486181
2013-12-27,1,0.0010717932464695602,0.0011149402836943992,-0.009650451502031941,0.001268260406143161,0.9932229873415018
2013-12-31,1,0.001519039949940256,0.0016630070559880176,-0.009650451502031941,0.0037004627108091,0.9927096772947465
2014-01-03,1,0.0006937185413223375,0.0007080647107897957,-0.009608907433040556,0.0037004627108091,0.992790252905396
2014-01-07,1,0.00024105485883410755,0.0003015585957757249,-0.009608907433040556,0.004452195881018545,0.9921022481222328
2014-01-09,-1,-0.0009896121198683218,-0.0007568225281339323,-0.009465278299793526,0.005065106981625773,0.9920779246844544
2014-01-13,-1,-0.0010514052334375222,-0.0008138931630329806,-0.0075693683154940405,0.005886024991826333,0.9926981628836768
2014-01-15,-1,-0.0001462818516738424,-5.026572396470879e-05,-0.00900239002817157,0.005980642518998004,0.9918565114187758
2014-01-17,-1,-0.0005189003071358594,-0.0003685775525946362,-0.0075693683154940405,0.010324226341875187,0.9898341579173573
2014-01-22,-1,-0.0010642628432546923,-0.0008298264222112915,-0.004203687999498964,0.010324226341875187,0.9901503277127858
2014-01-24,-1,-0.0013720295157580963,-0.0010831157148602079,-0.004203687999498964,0.012379413553765768,0.9849325033275863
2014-01-28,-1,-0.0010679193086459448,-0.0008977673907363424,-0.0075693683154940405,0.012379413553765768,0.983744921968263
2014-01-30,-1,-7.248146153254292e-05,-3.0677838235650966e-05,-0.0075693683154940405,0.012379413553765768,0.9840007868752612
2014-02-03,-1,-0.0004687980042993354,-0.0004080588069128754,-0.0024069134969302874,0.012379413553765768,0.9846288913690767
2014-02-05,1,0.00016558574655905394,0.00017617407454029627,-0.00328689833646802,0.011184331019336113,0.9858212408730661
2014-02-07,-1,-0.00010719249340451204,-9.834761946030235e-05,-0.00328689833646802,0.009959446348494019,0.9863495123125648
2014-02-11,1,0.0001001608376867621,0.00010151057213549531,-0.0036976032594066405,0.008021355758899337,0.9865067523699539
2014-02-13,-1,-0.0003983092265227853,-0.0003152556273540493,-0.0036976032594066405,0.005681849644066586,0.9874939141137828
2014-02-18,1,0.0011221025035696734,0.0012374366007864672,-0.0036976032594066405,0.005681849644066586,0.9882343761342599
2014-02-20,1,0.0006094599491996021,0.0006173353680059505,-0.0036976032594066405,0.015829026429377398,0.9863139518768139
2014-02-24,1,0.004953496928616501,0.005530704266323915,-0.004750815972896572,0.008171642118754605,0.9879837800861067
2014-02-26,1,0.0027462717656703338,0.0030433816418387973,-0.004750815972896572,0.008171642118754605,0.9898106302213159
2014-02-28,1,0.0034515353274305383,0.003875358527156515,-0.0056265456409920755,0.006557000104293604,0.9894769515161133
2014-03-04,1,0.002354663098405295,0.002544168984481827,-0.0056265456409920755,0.006557000104293604,0.9896426370738385
2014-03-06,1,0.0025954025189625675,0.0028782288303238037,-0.008205757767527997,0.010716946982186623,0.9889759268403339
2014-03-10,1,0.002290758986332193,0.0025210227631097372,-0.010063674941385721,0.010716946982186623,0.9883434756867615
2014-03-12,1,0.002447847298494297,0.0027101099924810588,-0.010063674941385721,0.015949869800574216,0.9873788991796778
2014-03-14,1,0.0008522687901069506,0.0009181546385885952,-0.011760269304780316,0.015949869800574216,0.9856255195268435
2014-03-18,1,0.002356817273668571,0.0025164539287532983,-0.011760269304780316,0.00934613585639991,0.9865970707829359
2014-03-20,1,0.0031939497977254766,0.00341672475272483,-0.014026453202933546,0.003965832496262305,0.9859620176260036
2014-03-24,1,0.0013592249775331135,0.0013686601846101207,-0.010063674941385721,0.006858348363624986,0.9873081559257825
2014-03-26,1,0.0008435610552862017,0.0009290453211749745,-0.008241766989963081,0.008880727748745529,0.9876773535201389
2014-03-28,1,0.0011696862221919958,0.0011836182850364601,-0.008241766989963081,0.006784489290631621,0.9881774672763284
2014-04-01,1,0.0012298033318700852,0.0012298161316972025,-0.008241766989963081,0.007016001410016645,0.9882813112331882
2014-04-03,1,0.001546474408234595,0.0016065315732590629,-0.006826396326788118,0.006187533535386448,0.9890504727766376
2014-04-07,1,0.0007670967850310031,0.0007943496147388248,-0.005262254552809409,0.007016001410016645,0.9894653523118787
2014-04-09,1,0.0014837996447952398,0.0015516342502684285,-0.005570763764119011,0.007016001410016645,0.9858166812667687
2014-04-11,1,0.00015333287180587253,0.0002291433775703455,-0.002999273143328134,0.01038217989082534,0.9855751400493569
2014-04-15,1,0.0007197881923985596,0.0007318703989871468,-0.005570763764119011,0.009429110005822382,0.9847382102486922
2014-04-17,-1,-0.0008801587123334251,-0.0006907837752715799,-0.0038586810386393583,0.009429110005822382,0.9865481645205962
2014-04-22,1,0.0011135927869409907,0.0012463255458842705,-0.0038586810386393583,0.009429110005822382,0.9869176511154144
2014-04-24,1,0.0011070640712430965,0.0012332792575623377,-0.0038586810386393583,0.009499977299526442,0.9866741780983262
2014-04-28,1,0.0014407766266972336,0.0016397914360076209,-0.0038586810386393583,0.01000099399007852,0.986317863774463
2014-04-30,1,0.0013183895378951222,0.0014714922710405555,-0.00472379291016283,0.01000099399007852,0.9861158478889486
2014-05-02,1,0.0010195279662019532,0.001135258401028539,-0.0038586810386393583,0.01000099399007852,0.9861763515545294
2014-05-06,1,0.0010952077095732601,0.0012055780303508092,-0.0053691533531325655,0.009068363964208268,0.9861596172343114
2014-05-08,1,0.0024900046556934883,0.002723482660189689,-0.0052894530800066016,0.009068363964208268,0.9902293266347026
2014-05-12,1,0.004322112408524186,0.004787415749869521,-0.0071860513177540945,0.007889824866448467,0.9919180071738808
2014-05-14,1,0.003087281971869527,0.0034004046702070297,-0.0052894530800066016,0.007889824866448467,0.9929216358743713
2014-05-16,1,0.0028214796573609842,0.0031062834792574693,-0.0071860513177540945,0.007889824866448467,0.9924774959502969
2014-05-20,1,0.003481641410289926,0.0038683099115973413,-0.0071860513177540945,0.007889824866448467,0.9926109988152801
2014-05-22,1,0.0038329319910926584,0.004255741167860878,-0.0071860513177540945,0.007977461194494958,0.9924934216620239
2014-05-27,1,0.004081321936290092,0.004538859562631795,-0.0071860513177540945,0.006952448296345425,0.9923581187911087
2014-05-29,1,0.0034696928902068903,0.0038048652057095264,-0.007307924427902035,0.007977461194494958,0.9919691504058655
2014-06-02,1,0.0033558032402562672,0.003659608642630253,-0.007307924427902035,0.007377262469139395,0.9920066868703857
2014-06-04,1,0.0027447942287675,0.0029154779464993065,-0.005249884301119253,0.01001204094317678,0.992381883909033
2014-06-06,1,0.002318400868683044,0.0023628209657027897,-0.005451457684393158,0.00584307188668894,0.9926008211746572
2014-06-10,1,0.002441811142583535,0.002519714855293505,-0.0051494495408711816,0.0045540075873637485,0.9929848176208791
2014-06-12,1,0.0014895589895633006,0.001545755772277179,-0.0046870693120923896,0.0045540075873637485,0.993424388230847
2014-06-16,1,0.0004874395947335365,0.0006775698959725544,-0.0022355768844805127,0.005688648668333015,0.993911818793133
2014-06-18,1,0.0009819067705226258,0.0011247361248120956,-0.0035025015299679756,0.005688648668333015,0.9929393096214197
2014-06-20,1,0.0011656889780706965,0.0013035974717829977,-0.0035025015299679756,0.005688648668333015,0.993187442851873
2014-06-24,1,0.0012180752811893323,0.0013197660048877965,-0.004021499687784572,0.005688648668333015,0.9929541370190119
2014-06-26,1,0.0007964643595696319,0.0009939623820876254,-0.004021499687784572,0.00422131563967937,0.9923173043209123
2014-06-30,1,0.0005245766845403239,0.000751570312588286,-0.005317471317299469,0.005688648668333015,0.9903614136667767
2014-07-02,1,0.0007116232128221343,0.0009370503433038054,-0.010779322409819388,0.00422131563967937,0.9871137731681686
2014-07-07,1,0.00015127326141928623,0.0004292643951063094,-0.007379980866481695,0.008919350248084944,0.9870068129989509
2014-07-09,-1,-0.00041544400906953186,-5.617564944295178e-05,-0.007648122498168415,0.008919350248084944,0.9868620511717995
2014-07-11,1,0.00040073501957991163,0.0005792901207739014,-0.012642888039893137,0.010056562279348067,0.9846437318851625
2014-07-15,1,0.0006260322275284556,0.0007906583032224826,-0.012642888039893137,0.010056562279348067,0.9845306677459471
2014-07-17,1,0.0032429983109574373,0.003640020230645562,-0.011112850909932819,0.010056562279348067,0.9858228112676226
2014-07-21,1,0.0026347899492485693,0.002839329036288902,-0.011112850909932819,0.010402897431515496,0.9856326039392447
2014-07-23,1,0.002660755003221384,0.0029042110672165135,-0.011112850909932819,0.010402897431515496,0.9857200925725653
2014-07-25,1,0.0014269876866974487,0.0014922019411023042,-0.007138110121514975,0.010402897431515496,0.9870483891399525
2014-07-29,1,0.0007263968945010093,0.0007719238912310691,-0.003345087088323281,0.008714485763783746,0.988342413921115
2014-07-31,-1,-0.002097118079067568,-0.0017162980355277663,0.0022744238698387082,0.010402897431515496,0.9898665947893667
2014-08-04,-1,-0.001189005856102781,-0.0009123638686675866,0.0008157168801985388,0.008425302633019124,0.9906698442321779
2014-08-06,-1,-0.001839011180222167,-0.0014551492478213294,-0.001703432047708616,0.008425302633019124,0.9909295963160772
2014-08-08,-1,-0.0014636478981626092,-0.0011898812837737016,0.0009499299947484431,0.008425302633019124,0.9924441616326087
2014-08-12,-1,-0.0007954194783690161,-0.0006750468838817645,0.0009499299947484431,0.008425302633019124,0.9923104136162516
2014-08-14,-1,-0.0011165475176557699,-0.0008762167022829214,-0.001703432047708616,0.008241334819263991,0.9927657655972825
2014-08-18,-1,-0.0006837576484701682,-0.0004866474978274827,-0.0023064744601828833,0.008241334819263991,0.9916631989381645
2014-08-20,-1,-0.00044781140231185755,-0.0002802678217719351,-0.0023064744601828833,0.007300572587508548,0.9919052365900483
2014-08-22,-1,-0.0005970845715238258,-0.00041061451874728646,-0.0019038351165331703,0.008425302633019124,0.9914101446056298
2014-08-26,1,8.631987209999168e-05,0.00017513102084830166,-0.0033502444091674855,0.009711032372167696,0.9902220086251979
2014-08-28,1,9.156702212134423e-05,0.00022509927832398325,-0.005710916854302129,0.007364817026809435,0.9895513215554169
2014-09-02,1,0.00031501278891657544,0.00038726825352022605,-0.005710916854302129,0.005471988834223042,0.9897907290425956
2014-09-04,-1,-0.00122622555213051,-0.0008718689896575221,-0.009462897173511906,0.005471988834223042,0.9888177674273879
2014-09-08,0,-0.0001792393123909976,2.600333491823315e-05,-0.011618000135329112,0.005471988834223042,0.9881891679412825
2014-09-10,-1,-0.0016918750287794465,-0.0012043435931529695,-0.012022530626912028,0.006982724896839736,0.9875447140934118
2014-09-12,-1,-0.0013848474185197536,-0.0009871145103809308,-0.013567889982093776,0.01140555121975956,0.9866763356818326
2014-09-16,0,-3.472629859190544e-05,0.00020529021726063972,-0.014857100421358047,0.00645456809145778,0.987788770758406
2014-09-18,0,-0.00026815848368983385,1.0185065898008524e-05,-0.014857100421358047,0.01129891158148598,0.9875110873104328
2014-09-22,1,3.789782498255488e-05,0.0002875776894445132,-0.014857100421358047,0.012902732235083845,0.9864606889327826
2014-09-24,0,-6.662295375022996e-06,0.0002738870899332222,-0.01361112082895885,0.012902732235083845,0.986675449907796
2014-09-26,-1,-0.0012827802025413666,-0.0008615633311879294,-0.012531276020718251,0.012902732235083845,0.987760793332667
2014-09-30,0,-4.820570420373401e-05,0.00014584337196131222,-0.012347584624488282,0.0140862178358433,0.9875114792688816
2014-10-02,1,0.00034535572731083346,0.000373896209721755,-0.005577986405929861,0.014704485204626961,0.9877915645987723
2014-10-06,-1,-0.0009387219400422191,-0.0006909531579813508,-0.0030036676101884863,0.014704485204626961,0.9885781632648806
2014-10-08,-1,-0.000707067984660653,-0.00046936915307487555,-0.0030036676101884863,0.013068410379025076,0.9895995415577034
2014-10-10,-1,-0.0006916631458711987,-0.0005064674799600179,-0.0030036676101884863,0.013068410379025076,0.9874475031263407
2014-10-14,-1,-0.000885134806195856,-0.0006754242681216042,-0.0008473572382783163,0.014704485204626961,0.9859192586959431
2014-10-16,0,-1.8846092480161376e-05,6.67016144240606e-05,0.0005584732145306275,0.014704485204626961,0.9861621018179042
2014-10-20,1,0.0008962117090590418,0.0009057020576118927,-0.0027123201620224526,0.012990199865963916,0.9866120503337849
2014-10-22,1,0.0011969559954483793,0.0012553986632465744,-0.0027123201620224526,0.012700663075582428,0.9870048940855065
2014-10-24,1,0.001530408984614875,0.0016266926045076866,-0.0027123201620224526,0.012700663075582428,0.9874073124576856
2014-10-28,1,0.0022058245612330465,0.00240430745926813,-0.0033164877205653378,0.012700663075582428,0.9864459512892138
2014-10-30,1,0.0025766074300491897,0.0028254238926687355,-0.0033164877205653378,0.012260701761686485,0.9869943156442217
2014-11-03,1,0.002265329319100853,0.0024367925837909922,-0.0032950284530445604,0.009609430310714814,0.9871140432517919
2014-11-05,1,0.0018942470923974549,0.0019728557528552954,-0.003018034786901406,0.01164091290504266,0.9869090232756282
2014-11-07,1,0.001628043179296155,0.0017074911929409076,-0.0017484391864849794,0.012700663075582428,0.9893961841145028
2014-11-11,1,0.0033644299202404077,0.003705312645626121,-0.00505943137497542,0.009175692740249349,0.9903195104184676
2014-11-13,1,0.003361402209663187,0.0036873910922403017,-0.00505943137497542,0.008870798596460717,0.9902724588275302
2014-11-17,1,0.0031930533328301137,0.0035099006565506895,-0.00505943137497542,0.00790692697856375,0.9906527503768197
2014-11-19,1,0.002636121302327459,0.0028676104061207326,-0.0037567781358987255,0.008870798596460717,0.9898282947281678
2014-11-21,1,0.0027580971075788275,0.0030363912503907305,-0.00505943137497542,0.008870798596460717,0.9890052226692105
2014-11-25,1,0.0026301076985978796,0.002852081179073739,-0.00505943137497542,0.00790692697856375,0.9900298155964726
2014-11-28,1,0.00252063622384448,0.0027082905296637824,-0.00505943137497542,0.00790692697856375,0.9898334852723693
2014-12-02,1,0.0030250207710746427,0.0032665450292906923,-0.00862915545969471,0.008127776793380836,0.9891013800006243
2014-12-04,1,0.003277213466652249,0.0035716543454896335,-0.011828556621527254,0.007479876547726801,0.9879759296914368
2014-12-08,1,0.004165190763161397,0.004614004697405312,-0.011828556621527254,0.007479876547726801,0.9878227338598397
2014-12-10,1,0.0033275346861802385,0.0036717576347558905,-0.0082980437784661,0.008127776793380836,0.9869906913565968
2014-12-12,1,0.0036294350880262034,0.004000440292399977,-0.009156104252999259,0.00898154267705277,0.9864458572623759
2014-12-16,1,0.0025072313375703896,0.0026806586635607925,-0.007591721420963007,0.00898154267705277,0.9876878517316761
2014-12-18,1,0.00435494766602188,0.0047510850403381134,-0.007591721420963007,0.00585858816835206,0.9886871437264456
2014-12-22,1,0.0025465526204687923,0.0025986701859656474,-0.006678372118962765,0.00898154267705277,0.9889594873657748
2014-12-24,1,0.0023376665494843117,0.0024029831714283603,-0.006678372118962765,0.00898154267705277,0.9890119476120969
2014-12-29,1,0.002101080869789106,0.0021114425703280576,-0.008280208631768779,0.00898154267705277,0.9881863305718687
2014-12-31,1,0.0012619138940012647,0.001380847579445386,-0.008280208631768779,0.005911500010208947,0.9881243470539297
2015-01-05,-1,-0.00039488520641469305,-5.8948340122476155e-05,-0.007535196999720544,0.010269223486786948,0.9887009671751184
2015-01-07,1,0.000616005660907638,0.0008062307040641024,-0.007535196999720544,0.010153080894065747,0.9889816569800125
2015-01-09,1,0.0018641048540334099,0.0018846297551846337,-0.008280208631768779,0.005911500010208947,0.990241977975048
2015-01-13,1,0.0018336234850917564,0.0018446323462302063,-0.006907867855898022,0.011557088339764088,0.9892415075767331
2015-01-15,1,0.0017448519240085907,0.0017774638870988852,-0.007227313695836454,0.011557088339764088,0.9889638531368377
2015-01-20,1,0.0021617763344310963,0.0022026362142810465,-0.007227313695836454,0.011557088339764088,0.9892935948291538
2015-01-22,1,0.003370583129329828,0.003610253701320999,-0.009219166703318658,0.011557088339764088,0.9890518519613175
2015-01-26,1,0.002792216865755792,0.0029406095348749692,-0.007227313695836454,0.013479787008065902,0.9872885375689904
2015-01-28,1,0.00159394796723146,0.0016245982299036281,-0.004718982880459483,0.013479787008065902,0.9875291154282666
2015-01-30,1,0.0011988616354043137,0.0012381072121726777,-0.004718982880459483,0.013479787008065902,0.9877508100716053
2015-02-03,1,0.001661008503894826,0.0016629640330514926,-0.007872009927155492,0.011557088339764088,0.9880990908014033
2015-02-05,1,0.0013874269174858078,0.0014405953660242682,-0.0111555935724107,0.011208285151542905,0.9875355041329593
2015-02-09,1,0.0011769081823049653,0.0011859156865265277,-0.0111555935724107,0.012433377443402352,0.9868728565247448
2015-02-11,1,0.0024060975288404864,0.002545282415190561,-0.0111555935724107,0.013020132545922323,0.9874861820762462
2015-02-13,1,0.002221054433801598,0.002353935035964064,-0.0111555935724107,0.01484353037853255,0.9852115716553289
2015-02-18,1,0.002912220615442627,0.0031465577916675587,-0.0111555935724107,0.01688709859265499,0.9846029697813736
2015-02-20,1,0.002363895234424582,0.002445886511988092,-0.004034437329855666,0.01422016031663296,0.9851345716235814
2015-02-24,1,0.0029628182303196296,0.003084570787541877,-0.00966108839087727,0.01316117892610736,0.9869870160235676
2015-02-26,1,0.0019353135176858787,0.002003497485304067,-0.00966108839087727,0.01316117892610736,0.9862628178609407
2015-03-02,1,0.0009493684978592558,0.001161535005404603,-0.009129498068154461,0.01422016031663296,0.9859481191284319
2015-03-04,1,0.0005111797245812533,0.0007514585477867301,-0.009129498068154461,0.01422016031663296,0.9855040038845829
2015-03-06,0,-0.00025794621774347234,0.00010170056965331945,-0.0051008455335701,0.01422016031663296,0.9866000644307873
2015-03-10,-1,-0.0011494508072765273,-0.0006550299025258656,-0.002544652643569685,0.01316117892610736,0.9880757283887531
2015-03-12,1,0.0001204116471775834,0.00044591048154473745,-0.004229823125818189,0.010943622846438673,0.9893454235107777
2015-03-16,1,0.002715842130070825,0.00275279014047886,-0.004229823125818189,0.006601973921702862,0.9917001973963026
2015-03-18,1,0.0030823549833995535,0.003173860676697799,-0.006466054153427257,0.005389497247465358,0.9920092218596817
2015-03-20,1,0.003615130217291873,0.00379766384385694,-0.006466054153427257,0.00450876672425512,0.9922937954620622
2015-03-24,1,0.0029838170900077596,0.003093999294770569,-0.0029997221835220706,0.005389497247465358,0.992998676694854
2015-03-26,1,0.0020665302114484456,0.0020706233158850605,-0.00095452573540782,0.005792314796537349,0.9941963337786316
2015-03-30,1,0.0028984697950281465,0.003004200693113572,-0.001377856220020211,0.005389497247465358,0.9945519413624526
2015-04-01,1,0.002683772239870411,0.002789464621821827,-0.002242959407404636,0.005389497247465358,0.9912859210403027
2015-04-06,1,0.0024731829452724593,0.0024734661491476496,-0.002242959407404636,0.005447901147921425,0.9906986267917295
2015-04-08,1,0.003199666328035344,0.003396862346110468,-0.008445416745696868,0.005447901147921425,0.9890630699055861
2015-04-10,1,0.003174258043302394,0.0033802630600635753,-0.008445416745696868,0.007156086494305231,0.9884320107777234
2015-04-14,1,0.0029996528653545304,0.0031520147867349062,-0.008775006191428477,0.008255323981164457,0.9862927153085063
2015-04-16,1,0.0023068106708410323,0.0023417591657299407,-0.007293989028523931,0.008255323981164457,0.987072624588094
2015-04-20,1,0.002195322004236355,0.0022025278069255708,-0.007293989028523931,0.009128114980472432,0.9869922419895041
2015-04-22,1,0.0023379056915158697,0.002372014019115377,-0.007293989028523931,0.009128114980472432,0.9871557952467558
2015-04-24,1,0.0025103632439572735,0.0025598085729259474,-0.007293989028523931,0.007052341525043465,0.987481261346627
2015-04-28,1,0.0022694307710975376,0.00230911381030277,-0.006488748441442687,0.007052341525043465,0.9878362060863887
2015-04-30,-1,-0.0010019617521917332,-0.0006599199244617598,0.00036502466164335646,0.009128114980472432,0.9862828564145412
2015-05-04,1,2.9225817990163796e-05,0.00022774193258065165,-0.0006715073640721442,0.007052341525043465,0.987523561425455
2015-05-06,-1,-0.0020393617152899947,-0.0015502463877490567,-0.0006715073640721442,0.007052341525043465,0.9878668232982311
2015-05-08,-1,-0.0006909611040575833,-0.0003820813597249956,-0.0013420337497870066,0.004975242305869636,0.9892545309322408
2015-05-12,1,2.2364446694849056e-06,0.0002713623619273975,-0.0006715073640721442,0.004975242305869636,0.9913148740783866
2015-05-14,1,0.0012731141821275848,0.001292769329659967,-0.0016931635870238069,0.004975242305869636,0.991129934487868
2015-05-18,1,0.0011476363377513525,0.0012270436391045017,-0.005510889080965816,0.0038236676534107675,0.9885740786326729
2015-05-20,1,0.0009687656395523722,0.0010990412299132137,-0.006671407228215192,0.0019064416676530008,0.9883420083514647
2015-05-22,1,0.0008123138422711871,0.0009712998407342024,-0.00792047213692132,0.004314168749027972,0.9847079478982947
2015-05-27,1,0.00029698355693290573,0.0005520629875563821,-0.00834382240045611,0.002559134185842754,0.9838450238216307
2015-05-29,1,0.00347784046948537,0.003514007898522179,-0.009496543074236755,0.002559134185842754,0.9833169138577641
2015-06-02,1,0.003428697727934568,0.0034867013158320827,-0.010496670890724858,0.002110234101860598,0.9822755352719801
2015-06-04,1,0.0035321152024901485,0.0036701216283931155,-0.016904837382202213,0.006466893053960238,0.9811057133168591
2015-06-08,1,0.0030351911564990013,0.003096767207902802,-0.016904837382202213,0.006793844631590079,0.9812027796253305
2015-06-10,1,0.0032169375242637015,0.003306846211292038,-0.016904837382202213,0.0028263239302219086,0.9809968158666931
2015-06-12,1,0.002654344795797763,0.0026745585615013693,-0.016904837382202213,0.006007091920010993,0.9811257111366494
2015-06-16,1,0.0004627861929202159,0.000643992119336862,-0.010253002821291608,0.006646884740891989,0.9843796212196837
2015-06-18,0,-0.00015875392233430775,0.00012556409417481638,-0.010253002821291608,0.006191084643435653,0.9846445547752581
2015-06-22,-1,-0.002990758145254337,-0.0023242473895494957,-0.00956676376644135,0.00567770070759159,0.9883399088751541
2015-06-24,-1,-0.0050044435301942955,-0.004058883852442534,-0.00866722311707524,0.00567770070759159,0.9894871786181728
2015-06-26,-1,-0.0021873225197997425,-0.0015920687225111515,-0.008759420518567353,0.00567770070759159,0.9919018337789464
2015-06-30,-1,-0.00307319795921194,-0.0023942443950999647,-0.006962056234312014,0.00567770070759159,0.9923268980471223
2015-07-02,-1,-0.004743296183634276,-0.0038168764284165187,-0.006962056234312014,0.005508291200998197,0.9938223020171529
2015-07-07,-1,-0.003989109787119241,-0.0032299806835092934,-0.006677837137042363,0.0038555169844562576,0.9942967488722861
2015-07-09,-1,-0.004496831698401753,-0.003664299141309314,-0.005947653969338728,0.005508291200998197,0.9934619385201386
2015-07-13,-1,-0.004450155303783607,-0.003655532690648533,-0.005536536761413672,0.005508291200998197,0.9934120733999721
2015-07-15,-1,-0.003908166105957241,-0.003183137688283765,-0.005536536761413672,0.002106041845254019,0.9942562697598577
2015-07-17,-1,-0.002623269785276535,-0.0021576737406573706,-0.004261966649075871,0.0018814706631995074,0.9946612483607788
2015-07-21,-1,-0.003253793401682867,-0.0026979385152623063,-0.002832281495551289,0.0035152986343469066,0.993343094444048
2015-07-23,-1,-0.0038036758113323037,-0.0031644559923751352,-0.004261966649075871,0.0035152986343469066,0.9927735662663415
2015-07-27,-1,-0.00450539495727988,-0.0037513254873989977,-0.005605768431684151,0.0026431294651187262,0.9913954359273517
2015-07-29,-1,-0.00427279644312987,-0.003551425752340929,-0.005605768431684151,0.0028415850881833714,0.99004720167898
2015-07-31,-1,-0.004989576523500629,-0.004173929823885835,-0.004620941953676783,0.006071151058307887,0.9886869982079859
2015-08-04,-1,-0.004201175671731493,-0.0035413165958659946,-0.006105657976767075,0.006071151058307887,0.9885514318522622
2015-08-06,-1,-0.002180237690003549,-0.001878795118667948,-0.006105657976767075,0.006071151058307887,0.9888002934812086
2015-08-10,-1,-0.0011251345700072038,-0.0009979820874018895,-0.006105657976767075,0.006500010213070119,0.9884088997185388
2015-08-12,-1,-0.0005229685189256255,-0.0005144330705348175,-0.006105657976767075,0.006500010213070119,0.9884763894902826
2015-08-14,-1,-0.0006889241828046207,-0.0006367147058067645,-0.006105657976767075,0.011961368303696396,0.9880058303059968
2015-08-18,-1,-0.000419528338302245,-0.00034653694161904363,-0.006105657976767075,0.005615508543641318,0.9889311985968705
2015-08-20,-1,-0.0006232132826939657,-0.0005890517026819393,-0.0038660013274823806,0.006725642441594367,0.9895404381438427
2015-08-24,-1,-0.003539952413529727,-0.003128334078619419,-0.0021596071048302187,0.006725642441594367,0.9910461809360585
2015-08-26,-1,-0.0020126652447145467,-0.0017894253649305752,-0.0035629784349900185,0.005084608026431597,0.9927229921900349
2015-08-28,-1,-0.0011301869223141238,-0.0010170165115397341,-0.004441324983973685,0.004031422883154133,0.9912010542847003
2015-09-01,-1,-0.0022045273088755024,-0.001965174433804267,-0.0021596071048302187,0.0061742488096397765,0.9905130090963588
2015-09-03,-1,-0.0012834719472516508,-0.0011658897855032096,-0.0021596071048302187,0.00677999635233712,0.990410141854677
2015-09-08,-1,-0.00084212822136879,-0.0007571917427590588,-0.0022091941433445344,0.005371947006010756,0.9904998690140921
2015-09-10,-1,-0.0006017414298101033,-0.0005579199041647856,-0.0034981114441043825,0.00677999635233712,0.9899199739369928
2015-09-14,0,-2.3128837754814277e-06,4.587176989366695e-05,-0.0034981114441043825,0.005371947006010756,0.9902583255401379
2015-09-16,1,0.00043401381535192044,0.0005719888972809814,-0.005399679842776857,0.00677999635233712,0.9892114827182461
2015-09-18,1,0.0003913733803101177,0.0005099958192271865,-0.005186051736348275,0.00677999635233712,0.9892302340964848
2015-09-22,-1,-0.001641223477638416,-0.0013227434655305407,-0.005629214256952125,0.009712988426075554,0.9883489852184197
2015-09-24,-1,-0.0018859855333384682,-0.00157532389160907,-0.013928568355705193,0.009712988426075554,0.9835586745413397
2015-09-28,-1,-0.00583682628085715,-0.0049895789793393455,-0.0035746229154961385,0.012448688310077047,0.9832242523024355
2015-09-30,-1,-0.003746330703079283,-0.00320834401134118,-0.0035746229154961385,0.014106375550844511,0.9833787624790788
2015-10-02,-1,-0.0016746011276696153,-0.001451585419659946,-0.005629214256952125,0.013666569242861241,0.9841689458799588
2015-10-06,-1,-0.0026593345426478036,-0.0023337134369779333,-0.005629214256952125,0.013666569242861241,0.9839731219809272
2015-10-08,-1,-0.0018573588629809592,-0.0016572983512091791,-0.0095474577196446,0.013666569242861241,0.9838008255904545
2015-10-12,-1,-0.0011587456260298249,-0.0010663960728030692,-0.010197545918820945,0.013666569242861241,0.9837712482587646
2015-10-14,-1,-0.0007545331836305664,-0.0007170865949709798,-0.010267612981171946,0.012553481437731072,0.9833852610368464
2015-10-16,-1,-0.0003491306821985304,-0.0003418662867008502,-0.010978000300478814,0.012553481437731072,0.9828562527111193
2015-10-20,1,0.002253287632249606,0.0028513477479815376,-0.010978000300478814,0.012163400614103224,0.9833170966891912
2015-10-22,-1,-0.0021272391556738796,-0.0021006545944305386,-0.010267612981171946,0.012163400614103224,0.9860467790477772
2015-10-26,-1,-0.0007597240871677613,-0.0005743474195518925,-0.010267612981171946,0.011506257072957533,0.9866397799353794
2015-10-28,1,0.0011081433015747463,0.0015398420500184952,-0.010267612981171946,0.009411378794919746,0.988928752732218
2015-10-30,1,0.0016286228812559115,0.0021589391617575938,-0.010025015997117567,0.004572097940584646,0.9899944576317757
2015-11-03,1,0.001610008560529946,0.0021241530447697185,-0.00943084667892401,0.004572097940584646,0.98957072436199
2015-11-05,1,0.0006280172943982303,0.0008760601533870967,-0.010025015997117567,0.004572097940584646,0.9885764753026555
2015-11-09,1,0.0004216669098407071,0.0006437531862502515,-0.008208711140532489,0.004823145071813577,0.9886337900886539
2015-11-11,-1,-0.0018210640615898429,-0.0016611066558074772,-0.0037181799492915467,0.007967489899998025,0.9893032661040395
2015-11-13,-1,-0.0032874568087904914,-0.002902903249825779,-0.00044431271517311266,0.009411378794919746,0.9883955812726452
2015-11-17,-1,-0.0010853683647266423,-0.00107187467518307,-0.00044431271517311266,0.007967489899998025,0.9897356171639923
2015-11-19,-1,-0.00257104514646808,-0.002350492433200579,-0.00044431271517311266,0.005202504177987411,0.9908531666954493
2015-11-23,-1,-0.002027801693621106,-0.0018413283230175551,-0.00044431271517311266,0.0044066086431192196,0.9921096759212805
2015-11-25,-1,-0.001885909943491326,-0.0017159686947291746,-0.001670686351124408,0.005202504177987411,0.9913839558996065
2015-11-30,-1,-0.00183925220648848,-0.0016689465323580554,-0.002431972106818358,0.007159959665073772,0.9911998449282153
2015-12-02,-1,-0.0008683107486874119,-0.0008034943834968592,-0.002535188687872668,0.005070544039004102,0.9929568127425333
2015-12-04,-1,-0.0009971449457004385,-0.0009437685106859764,-0.0011176161949291315,0.005050149293498922,0.994417596029921
2015-12-08,-1,-0.0010636813820509945,-0.0010052289377475588,-0.002535188687872668,0.005050149293498922,0.9937960447754639
2015-12-10,-1,-0.0007167527103232296,-0.0006857038784112614,-0.005583497317266609,0.0044066086431192196,0.9928851613003534
2015-12-14,-1,-0.000172974441495513,-0.00014633551000546943,-0.008320211762068793,0.004015059642854226,0.9922517054627993
2015-12-16,1,6.346908376687649e-05,0.00011375816167929435,-0.00955748972213709,0.0032377484734639698,0.990115808316672
2015-12-18,0,-4.186824535327666e-05,1.4646162087758033e-06,-0.009397376073802439,0.005120776598657966,0.9899370670099112
2015-12-22,-1,-0.00010196603911311077,-9.147530332757488e-05,-0.009397376073802439,0.006966815289574924,0.9896970927225335
2015-12-24,1,0.0003612154948885704,0.0004361366574820467,-0.013794826942301155,0.006966815289574924,0.9894328987560139
2015-12-29,1,0.0007682131743801035,0.0009236013480522678,-0.017016092000841747,0.005120776598657966,0.9882838049034491
2015-12-31,1,0.0008481370813957999,0.0010348578692984164,-0.017016092000841747,0.00833458967453825,0.9862693962897057
2016-01-05,1,0.0010669866410889517,0.001281316553716705,-0.017016092000841747,0.00833458967453825,0.9862560271757063
2016-01-07,1,0.00028865065569053116,0.00040648610585759576,-0.018321888382239734,0.00909562027511332,0.9860187553043871
2016-01-11,-1,-0.00044886286454143645,-0.00037873557690448463,-0.018321888382239734,0.011245958571780176,0.9846458715852814
2016-01-13,-1,-0.0019737419428335146,-0.0018177609494924533,-0.01795443757865042,0.011245958571780176,0.9844553762092904
2016-01-15,-1,-0.003779149087855849,-0.0033029849212477588,-0.011427946162818526,0.01222796556580696,0.9837798521181091
2016-01-20,-1,-0.002344614717693698,-0.0021003600544706362,-0.011427946162818526,0.012127129019571473,0.9843983800069445
2016-01-22,-1,-0.00140584531443779,-0.001310915919909773,-0.01518180126819195,0.015246994461160401,0.9824900374280227
2016-01-26,-1,-0.002330559646619705,-0.002079909032040807,-0.010612783714950719,0.015246994461160401,0.9832886730322896
2016-01-28,-1,-0.0030749865453980198,-0.002774593527976289,-0.003554590170886764,0.01697382096435044,0.982319406970455
2016-02-01,-1,-0.0005463037228008045,-0.000511481789885677,-0.005611735560007663,0.015246994461160401,0.9836377794962722
2016-02-03,-1,-0.000592761610986805,-0.0005578970838475295,-0.0049295032812624075,0.015246994461160401,0.9832216976555614
2016-02-05,-1,-0.0007258575981909121,-0.0006818954303190901,-0.003175175078484697,0.015246994461160401,0.984500121467922
2016-02-09,-1,-0.001716396753425049,-0.0016522612885043965,-0.003175175078484697,0.012678800162009198,0.9862630029127124
2016-02-11,-1,-0.0018793978413501797,-0.0018056309134011602,-0.0006583285521538256,0.012678800162009198,0.9867606995916558
2016-02-16,1,0.0004637059598138003,0.000705625430667175,-0.003175175078484697,0.010757599078390523,0.9897311787203599
2016-02-18,1,0.000544219250378281,0.0007691831567138818,-0.003502121305249183,0.010757599078390523,0.9899644077784091
2016-02-22,1,0.00022635546761231974,0.0002631962552597797,-0.003502121305249183,0.010669724226955422,0.9916506105197584
2016-02-24,1,0.0009069039343901225,0.0010972216730703434,-0.004291216684026581,0.010669724226955422,0.9918926322719488
2016-02-26,1,0.002781174964821295,0.0032759034522233926,-0.004654460437053645,0.00612058113761194,0.9931356362400814
2016-03-01,1,0.0028220418262212945,0.0032654118606620405,-0.0046470823350717606,0.00612058113761194,0.9937806824986464
2016-03-03,1,0.0033615975345162395,0.0038930632667523854,-0.004690814487180058,0.006538804661727174,0.992870064858622
2016-03-07,1,0.0036669301552715817,0.004252549319121013,-0.0050830554356057645,0.005409642341212503,0.9916221873406176
2016-03-09,1,0.0037429552061613233,0.004349141632852724,-0.0050830554356057645,0.0035595975171436984,0.9898318630080584
2016-03-11,1,0.004383639560430493,0.005093824335569648,-0.009359204341530685,0.002818178862123822,0.9879704684771867
2016-03-15,1,0.003966858009634438,0.00464250183421307,-0.006890371415830124,0.0035595975171436984,0.9885202729238665
2016-03-17,1,0.0013029422081501174,0.0013716610905701622,-0.009266028436753991,0.005385726667814681,0.9890146543880106
2016-03-21,1,0.001995929977318707,0.002217520218263711,-0.009266028436753991,0.009712393864095857,0.9885305383840882
2016-03-23,1,0.0027201592288760706,0.003130250380951433,-0.009266028436753991,0.009712393864095857,0.9882156849293242
2016-03-28,1,0.0026186756300353347,0.003021488001558998,-0.009266028436753991,0.0100045889956838,0.9882387704613957
2016-03-30,1,0.002967535644029338,0.003414389752687327,-0.009266028436753991,0.0100045889956838,0.988300249598351
2016-04-01,1,0.0029766975381127804,0.003429795954924792,-0.006758246992791289,0.009932841975490332,0.9888385336301203
2016-04-05,1,0.0020884481748990776,0.0024056706468850372,-0.005370274146033076,0.009932841975490332,0.9899870276235855
2016-04-07,-1,-0.0003505137082992815,-0.00027542695843516104,-0.006250876604779069,0.009932841975490332,0.991682371213002
2016-04-11,-1,-0.002032351510464273,-0.0017197865783609417,-0.005370274146033076,0.009932841975490332,0.9920673255378408
2016-04-13,-1,-0.0011805846427643016,-0.0009905164934475206,-0.006250876604779069,0.009932841975490332,0.9913992521228641
2016-04-15,-1,-0.0020923253799373003,-0.001728407381818166,-0.006250876604779069,0.006131960562184521,0.9912144655071141
2016-04-19,-1,-0.00035815044273025974,-0.0002408525839037615,-0.006250876604779069,0.0037916987821462315,0.9903235950034261
2016-04-21,-1,-0.00069827140373165,-0.0005432996891538632,-0.007476282400361744,0.0037916987821462315,0.9900651829178614
2016-04-25,0,-6.58526319410696e-05,1.3631664553500071e-05,-0.007476282400361744,0.0031660490751470073,0.9902883180045632
2016-04-27,1,0.0008138994144005841,0.0008997015469265504,-0.007476282400361744,0.004390774134347531,0.9895613646946718
2016-04-29,1,0.0003800931183265127,0.0003845766509257873,-0.007476282400361744,0.004390774134347531,0.989612773881153
2016-05-03,1,0.00016641127925618024,0.00020674193525563623,-0.0075720792514315195,0.0071488855750493005,0.9882909921893273
2016-05-05,-1,-0.0002821691570990665,-0.000211301209851661,-0.0064133835555977205,0.008957231071786156,0.9861346617126141
2016-05-09,-1,-0.0005608265941317314,-0.0004919909434531196,-0.0054289563123556045,0.01416566591795002,0.9862076259364804
2016-05-11,-1,-0.0006307709515385715,-0.0005716016083053309,-0.004442035840461341,0.009928160167323789,0.9876351254072204
2016-05-13,-1,-0.0019550675979510537,-0.0017317726122255874,-0.0054289563123556045,0.009928160167323789,0.9882772982699711
2016-05-17,-1,-0.000337935184560488,-0.0003128762691098851,-0.0054289563123556045,0.0071488855750493005,0.9897932823947638
2016-05-19,-1,-0.0005982482758512295,-0.0005706040147405661,-0.0034888079933911953,0.007666078811573782,0.9899935769650985
2016-05-23,-1,-0.00013945958515551896,-9.756582805141588e-05,-0.0034888079933911953,0.00969611986727776,0.9896495220736455
2016-05-25,1,0.0009789904179172025,0.0011619626242556427,-0.0054289563123556045,0.006068390627971232,0.9903121541775423
2016-05-27,1,0.0009138404227851752,0.0011035051932446927,-0.007420153396811399,0.006068390627971232,0.9878570264971905
2016-06-01,1,0.0011876392419752618,0.0013547200580149247,-0.006753929795515593,0.006068390627971232,0.9877824890967518
2016-06-03,1,0.0022472594576828406,0.0024700612669471887,-0.011469519912986897,0.0042232436108140346,0.9877502719208954
2016-06-07,1,0.0019488398611797189,0.0020561936691223977,-0.011469519912986897,0.006068390627971232,0.9874618733308467
2016-06-09,1,0.0016571178601664646,0.0016870334200042132,-0.021282059004011075,0.006068390627971232,0.9815258558211017
2016-06-13,1,0.0010123470298946675,0.001031139192158764,-0.0242181264622328,0.006068390627971232,0.981262101984809
2016-06-15,1,0.0012606047502128055,0.0012864493848463478,-0.0242181264622328,0.00969611986727776,0.9794576649737963
2016-06-17,1,0.0012272684739811808,0.0012335018630380732,-0.0242181264622328,0.007213709078375761,0.9788794431283391
2016-06-21,1,0.000891621329556918,0.001004661764226573,-0.026731796780404632,0.007447962414132484,0.9762037814315081
2016-06-23,1,0.001293818440941463,0.001321748524463814,-0.026731796780404632,0.020424011012903434,0.9718545925499895
2016-06-27,-1,-0.00147306866120008,-0.001160189549346715,-0.021956307832431004,0.020424011012903434,0.9733370807345985
2016-06-29,-1,-0.00022088549906402566,-2.496703902586943e-05,-0.021956307832431004,0.01633541071246508,0.9747559317945118
2016-07-01,-1,-0.0036113879260003833,-0.0029483032050744637,-0.015385384502217787,0.01633541071246508,0.9764307549245335
2016-07-06,-1,-0.0025197435849225467,-0.0019564029749366846,-0.015385384502217787,0.009882875761348272,0.9768804571831244
2016-07-08,-1,-0.006691386712100103,-0.00575761396303222,-0.009770055050113243,0.023881466135737238,0.9798797727485079
2016-07-12,-1,-0.007394628323069065,-0.006395814656961769,-0.008306145502714395,0.023881466135737238,0.9809879453834893
2016-07-14,-1,-0.004837136936858371,-0.004189752193367589,-0.008306145502714395,0.01664636795440043,0.9827548365700729
2016-07-18,-1,-0.00511986664742009,-0.004448907777496943,-0.0074750540554062985,0.01664636795440043,0.9830930730619094
2016-07-20,-1,-0.004260073368867427,-0.003773590666559191,-0.006930648305120394,0.007745580209051423,0.9865180072428033
2016-07-22,1,0.0009200928050252547,0.0010905340603011488,-0.0074750540554062985,0.0035845304394081044,0.9920275931212591
2016-07-26,1,0.0007145501949850048,0.0008858899424491121,-0.006930648305120394,0.0035845304394081044,0.9923460769601732
2016-07-28,1,0.0004818756092112471,0.0006381959074300255,-0.006930648305120394,0.0035845304394081044,0.9921521275711409
2016-08-01,1,0.00031772457993855857,0.0004569659960494187,-0.004831640953048121,0.0035845304394081044,0.9924985876706732
2016-08-03,1,0.0012261351010952062,0.0015213758560507847,-0.0033717036902255067,0.0035845304394081044,0.9936293239637327
2016-08-05,1,0.002191898259852077,0.0025771844856280835,-0.004831640953048121,0.0035845304394081044,0.9939246775502972
2016-08-09,1,0.0016300427690111156,0.0019231626033225256,-0.003674179607904567,0.0035845304394081044,0.9942762740995916
2016-08-11,1,0.002442077609704434,0.002858690499494538,-0.003674179607904567,0.0019454629845009194,0.9944367360953796
2016-08-15,1,0.0023189224986671104,0.002717195126508058,-0.003674179607904567,0.0015035236562938896,0.9945724248400128
2016-08-17,1,0.002075165344001582,0.0024324744948159456,-0.0037680711832310068,0.0015035236562938896,0.9946376764941623
2016-08-19,1,0.002119665520036597,0.0025095301881599627,-0.003204680556292525,0.0013775708864798334,0.9948743237101942
2016-08-23,1,0.0025225427711616354,0.002963884730669765,-0.003202973546164404,0.0013775708864798334,0.9950233318180627
2016-08-25,1,0.0015455130820216088,0.0018098560565555546,-0.0026781411503146234,0.0013775708864798334,0.9963412045780772
2016-08-29,1,0.0004388478917027777,0.00044091255912900043,-0.0026505116951512342,0.0015035236562938896,0.9963245258710074
2016-08-31,1,1.0883499050900374e-06,0.00011822825212349483,-0.0035331991256514674,0.0009660721166813865,0.9965109792112247
2016-09-02,0,-3.9489335210726826e-05,5.244373680941941e-05,-0.003202973546164404,0.0009660721166813865,0.9969705935833972
2016-09-07,-1,-0.00044594821043372876,-0.00030289997850178977,-0.001727395685361962,0.0020079911676256757,0.9970223395797612
2016-09-09,1,0.0003365324767976147,0.00034629289153497936,-0.002676589487776595,0.0029764485253696033,0.9966592213667564
2016-09-13,-1,-8.647942614069769e-05,-2.7896975508151056e-05,-0.002676589487776595,0.0032896577373630583,0.9966320246023826
2016-09-15,1,3.297313382693607e-05,4.5478494321171704e-05,-0.002676589487776595,0.003588248477077798,0.9940366769144232
2016-09-19,1,0.00017603653431997793,0.00020127508380120605,-0.0033072495757203698,0.0047705125194919,0.993444525656532
2016-09-21,1,0.0004036934503071755,0.00045196673331958283,-0.0033072495757203698,0.0047705125194919,0.992730820330592
2016-09-23,1,0.00030306598623952325,0.0003355459949152708,-0.0033072495757203698,0.006107859476440094,0.9923459080870006
2016-09-27,1,0.00030862486638968874,0.0003152100102309866,-0.0037844870691477648,0.0047705125194919,0.9924322984664088
2016-09-29,-1,-0.0005632930095897039,-0.0004171141874923995,-0.0027768153064877815,0.0047705125194919,0.9925447228639743
2016-10-03,-1,-0.0006017380422454012,-0.00043432011142381796,-0.0037655112001947775,0.0038864019938973883,0.9919019561538125
2016-10-05,-1,-0.0011868727163834116,-0.0008853135015824596,-0.005455746373084731,0.0038864019938973883,0.9914421748735361
2016-10-07,-1,-0.0003759497702367175,-0.00024079221975110434,-0.0061171767882462705,0.004792647841361909,0.9901877675216348
2016-10-11,-1,-0.0009027636478748931,-0.0006733080781043828,-0.006083058404758314,0.007691354264749929,0.9872999787138493
2016-10-13,-1,-0.0028330096588886425,-0.002390805484855526,-0.0034511023349620353,0.014546740292444042,0.9859010079396889
2016-10-17,-1,-0.0019059898884038486,-0.001637690780808773,-0.002672012351410201,0.020810177031234448,0.9850503983589964
2016-10-19,-1,-0.001001356156606854,-0.0008259181601780727,-0.002672012351410201,0.01546166218826381,0.9860669789717234
2016-10-21,1,5.887973063640209e-05,6.506941352231314e-05,-0.004089787161131604,0.01546166218826381,0.985960602380726
2016-10-25,1,0.0009515317854402167,0.0011873984205699076,-0.002672012351410201,0.02481656588645108,0.9852405090563927
2016-10-27,1,0.0011309970271555884,0.0014234339554194066,-0.0013336531818247657,0.02481656588645108,0.9850594907216184
2016-10-31,1,0.0005981035390853323,0.0008230556877682359,-0.00039263297677915893,0.02481656588645108,0.9854832198349005
2016-11-02,-1,-0.0005180964211939833,-0.00048517247109318705,0.00040779242199970723,0.02481656588645108,0.9842773926071967
2016-11-04,-1,-0.0004836001134044785,-0.0004298655832187485,-0.0001354978106175052,0.02481656588645108,0.9840210227141789
2016-11-08,1,0.0025494665074074557,0.0030283130728269952,-0.002227785092002303,0.01427243109154606,0.986646457485124
2016-11-10,1,0.005988419280091376,0.0069605707208159106,-0.007123184042619713,0.011236723593800995,0.9882718450282865
2016-11-14,1,0.0068719829249141275,0.007922060879660516,-0.007123184042619713,0.009909494187389414,0.9890906426890449
2016-11-16,1,0.005935133068553068,0.0067155555614529915,-0.007123184042619713,0.009909494187389414,0.9888576663658964
2016-11-18,1,0.006598786935637544,0.007557245509505274,-0.008382376186976046,0.009909494187389414,0.9879231086080885
2016-11-22,1,0.006368438611797183,0.007153627644324671,-0.008382376186976046,0.008465103881742979,0.98853576334226
2016-11-25,1,0.007332154951630958,0.008322437290188743,-0.008382376186976046,0.010354394877786601,0.9881450851145326
2016-11-29,1,0.004682517006807501,0.00499445737898593,-0.008923926695601153,0.009204114144144964,0.9884518145882147
2016-12-01,1,0.0051018022608627644,0.0053975543498533726,-0.009768358189344148,0.004995700621831873,0.9886498674938302
2016-12-05,1,0.00405259833558895,0.004307407121245515,-0.007366750737211089,0.004995700621831873,0.9894129865419669
2016-12-07,1,0.002349508382347312,0.002357025391677733,-0.003927373185918207,0.006123023546179312,0.9907714876087129
2016-12-09,1,0.0019392715693296659,0.0020387679426548616,-0.003927373185918207,0.005664109523780688,0.991724402303595
2016-12-13,1,0.004273899558923936,0.00475379619550703,-0.003927373185918207,0.006859181855935952,0.991488285980969
2016-12-15,1,0.003829155267718193,0.004212582137938391,-0.007366750737211089,0.006859181855935952,0.9910358434394639
2016-12-19,1,0.0025640590549546854,0.0027467832261558215,-0.0034567002217799478,0.009060275041708324,0.9918949326319314
2016-12-21,1,0.002128763455171001,0.002230093729064497,-0.007366750737211089,0.010756377038722904,0.9897725035838871
2016-12-23,1,0.00336744391379806,0.0036570012111328573,-0.008670836165452512,0.00877467757662547,0.9894376170876231
2016-12-28,1,0.0036810595979745184,0.004081717979705651,-0.008670836165452512,0.00877467757662547,0.9893285245791241
2016-12-30,1,0.003171212584757177,0.003471286400186256,-0.01037535314303812,0.00877467757662547,0.9887996146111769
2017-01-04,1,0.0021345383955622666,0.0023339068463471887,-0.00849787838529113,0.00877467757662547,0.9902344241090416
2017-01-06,1,0.002752172424015586,0.00302108661134122,-0.009208894042080855,0.007908434528197172,0.9900228756208969
2017-01-10,1,0.002345793049114555,0.0025439444786446806,-0.008217577076335482,0.00877467757662547,0.9894177662478894
2017-01-12,1,0.002992372425252115,0.003254442573186315,-0.008217577076335482,0.00798444732388264,0.98792825747004
2017-01-17,1,0.0028147612530436735,0.0030731395772295497,-0.0077914265209000095,0.00798444732388264,0.9883109052582656
2017-01-19,1,0.002713332735970209,0.0029135400209015895,-0.0077914265209000095,0.00798444732388264,0.9878618171790232
2017-01-23,1,0.002272392866201114,0.0024041300568447164,-0.0077914265209000095,0.00654788775342232,0.9891664642510583
2017-01-25,1,0.0016689073045525501,0.0017399204575738736,-0.006627451519524648,0.00498419140838893,0.9906655143882481
2017-01-27,1,0.0013053797013586632,0.001307523157664137,-0.005890789420022617,0.006409597231686406,0.9907131432006538
2017-01-31,1,0.00019798793200819566,0.0003509376499220161,-0.0040906410046526185,0.011298500781294483,0.9904924624750506
2017-02-02,1,0.00026864458929092434,0.0004147429077160082,-0.005890789420022617,0.011298500781294483,0.9900769969725095
2017-02-06,-1,-0.0007184449806287576,-0.00044225481237203444,-0.004085863217528761,0.012224645979225478,0.9892308534667609
2017-02-08,-1,-0.00030303091510622,-5.6439970093748204e-05,-0.0033987256021225693,0.011298500781294483,0.990516538238619
2017-02-10,1,0.0007866886916837277,0.0009163604287470717,-0.003205430184799269,0.00808705970283662,0.9926105307311194
2017-02-14,1,0.000847660276123811,0.0009611153078681878,-0.003205430184799269,0.00808705970283662,0.9925821366720952
2017-02-16,1,0.0011784402646166014,0.001264826924937409,-0.0025591810207433855,0.006712493209259475,0.9934484927592055
2017-02-21,1,0.0004301122366159675,0.0005896835462161437,-0.0038617260612276707,0.006712493209259475,0.9932680838520286
2017-02-23,0,-0.00010568049053505738,0.00014156213501104577,-0.005474864594844066,0.006712493209259475,0.9926275256610873
2017-02-27,1,0.0006210748435189997,0.0007820665474549591,-0.007124019027011014,0.005149549358094209,0.9918790649654164
2017-03-01,1,0.0016865396624042763,0.0017152080032009406,-0.007124019027011014,0.0024112049710043183,0.9916645440196722
2017-03-03,1,0.0013854082861878571,0.00145870661051885,-0.00645849455279396,0.0021919353619474203,0.9920847791205202
2017-03-07,1,0.0019383567155435398,0.001958771020116426,-0.0061849097364033495,0.004296328012529708,0.992329644193757
2017-03-09,1,0.0002801108328751024,0.0005993423162544627,-0.0061849097364033495,0.005149549358094209,0.9922834252484722
2017-03-13,1,0.0002630648816549152,0.0005915220321517659,-0.00861692644641986,0.005241081431828394,0.9917006819621378
2017-03-15,1,0.0005263863135637548,0.0007855476562885707,-0.00861692644641986,0.0045832726046577,0.9920765281708379
2017-03-17,1,0.000449213166402081,0.0007020043736132681,-0.00861692644641986,0.004960327267799065,0.9917057393708616
2017-03-21,-1,-0.0011657114059130682,-0.0007020496497770891,-0.005168486100877721,0.006241532866285977,0.9925262137809349
2017-03-23,-1,-0.0023584348154322655,-0.001739175447996546,-0.004739806524696196,0.006241532866285977,0.9928501109802931
2017-03-27,-1,-0.0044874159997120395,-0.0035774685196474287,-0.0030600192482101154,0.00716611005778779,0.9920766120936729
2017-03-29,-1,-0.004683785034286571,-0.0037040642242866643,-0.0032072697591875084,0.006413473100549671,0.9924438441541467
2017-03-31,-1,-0.005069455799147488,-0.004028408067566543,-0.002770477397561642,0.00716611005778779,0.9911564647421932
2017-04-04,-1,-0.002564745943048434,-0.0019403418785440248,-0.0034859356301755223,0.00716611005778779,0.9929852088156264
2017-04-06,-1,-0.0002812342704250905,-9.19069132086697e-05,-0.002770477397561642,0.00716611005778779,0.9929292903144611
2017-04-10,1,0.0004287189972121618,0.0004692860178447732,-0.0023299131758964986,0.006413473100549671,0.9935721592478148
2017-04-12,1,0.0006323241091971986,0.0006340891366783399,-0.0023299131758964986,0.006413473100549671,0.9935826798551105
2017-04-17,1,0.0004542368252059945,0.0004825641175101384,-0.0023299131758964986,0.006413473100549671,0.9936084397731346
2017-04-19,1,0.0010696049067242873,0.0011852769635391932,-0.002770477397561642,0.006279159283937404,0.9929013030849563
2017-04-21,1,0.0013625374893677712,0.0015410822100265509,-0.0032734003302412355,0.007244247879930944,0.9922761257832927
2017-04-25,1,0.0023606215092936223,0.002694514938980227,-0.0038501647633814523,0.007244247879930944,0.9925669056032705
2017-04-27,1,0.003131990456677649,0.003645098286863011,-0.0038501647633814523,0.010028177487125419,0.9927557223749519
2017-05-01,1,0.0031511732039967684,0.003573210061567628,-0.004122852529679957,0.006879719673174231,0.9926968414487148
2017-05-03,1,0.0024926864708305976,0.0027544435193232854,-0.0038501647633814523,0.008693706852687947,0.9928728353142334
2017-05-05,1,0.003409263961824751,0.0037908120764563362,-0.004122852529679957,0.00643489612836174,0.992904245471906
2017-05-09,1,0.0035499475447495306,0.00395891413839502,-0.004122852529679957,0.006146775782580155,0.9930936069242831
2017-05-11,1,0.0034159819721566705,0.003802344358893236,-0.0047364440500710855,0.006146775782580155,0.9922535000843469
2017-05-15,1,0.002889456380722227,0.003149080587289217,-0.00579179711280334,0.008693706852687947,0.9917085077592505
2017-05-17,1,0.0015881170897814188,0.0016615202933364152,-0.004122852529679957,0.008693706852687947,0.993217428849193
2017-05-19,1,0.0025743612064964916,0.002842301861562095,-0.003628511202969059,0.00835830101560372,0.9938746711103673
2017-05-23,1,0.0025832851923457975,0.0028355808127104734,-0.004069024441239808,0.00835830101560372,0.9933923997266997
2017-05-25,1,0.0028665608492268323,0.0031432965317559573,-0.004069024441239808,0.0065447127862945705,0.9935825013864719
2017-05-30,1,0.0017099453417066324,0.0017501294581993014,-0.004069024441239808,0.00835830101560372,0.992778508043984
2017-06-01,1,0.0027638275998854117,0.0029839104563986496,-0.004069024441239808,0.0066988230231163695,0.9930417658068258
2017-06-05,1,0.002116338512058455,0.0022332078911580133,-0.003587160494565771,0.0066988230231163695,0.9930671645530704
2017-06-07,1,0.002562596282005405,0.002784601542235259,-0.0069268673344466,0.009086195119598428,0.991795097848896
2017-06-09,1,0.0015680662216178986,0.001637954814309376,-0.003044397520327399,0.009086195119598428,0.9924102088604612
2017-06-13,1,0.0020380465200980453,0.002187827762069063,-0.0012139337888727583,0.0066988230231163695,0.9935550892957754
2017-06-15,1,0.0018517795801014018,0.001960055254204666,-0.002526085158392911,0.0066988230231163695,0.9932606772947602
2017-06-19,1,0.0018564747585755165,0.0019182707215607772,-0.006534543272829448,0.005508914933438741,0.9926799211330782
2017-06-21,1,0.0017889291798164311,0.0018322232503784608,-0.005236645843736721,0.005070092476974046,0.9935625814346144
2017-06-23,1,0.0015666359675284777,0.001595452546544085,-0.005236645843736721,0.004489337651389457,0.9936562286737052
2017-06-27,1,0.001174733168122686,0.0012469535030963457,-0.005137409688894884,0.003631707842437334,0.9944927432154952
2017-06-29,1,0.000936106580946631,0.0010766275222432533,-0.005137409688894884,0.0023977239358535787,0.9949588031603684
2017-07-03,1,0.0009739280106219877,0.0010762894465849893,-0.005137409688894884,0.0010806864782292266,0.9949453473311147
2017-07-06,1,0.0012429391717399222,0.0012474530522960056,-0.004103049729032727,0.0023977239358535787,0.9926091292310198
2017-07-10,1,0.0012486787553467793,0.0012490823010589726,-0.005137409688894884,0.002629366408184608,0.9915068617265713
2017-07-12,1,0.0013861461924613181,0.0014250258048147343,-0.005137409688894884,0.004489337651389457,0.9906551575540326
2017-07-14,1,0.0008271572035473777,0.0008959028933145658,-0.006468288955651025,0.0030471197455525212,0.990180150114305
2017-07-18,0,-8.749483357321439e-05,9.676408238155226e-05,-0.006170580491125514,0.0030471197455525212,0.9905663511677782
2017-07-20,1,0.0003077271679513481,0.000416364950444465,-0.006170580491125514,0.002211335919037298,0.9906911437283235
2017-07-24,1,0.0006974377489454489,0.0007159585117603204,-0.006170580491125514,0.003905639727391141,0.9902627885568334
2017-07-26,1,0.00022420808533376424,0.00030140863023624505,-0.005488708075644108,0.010059713536385084,0.9897153849901704
2017-07-28,1,0.0004767746222392487,0.0004906789388982995,-0.005488708075644108,0.010059713536385084,0.98974371577866
2017-08-01,0,-1.3953406551216933e-05,6.0877019718287556e-05,-0.0024240737454103733,0.010059713536385084,0.9897014413399167
2017-08-03,1,0.0027443251660966487,0.0030331675874103034,-0.0052181429733080716,0.008239266537129815,0.9926914181840351
2017-08-07,1,0.002718414753845196,0.0029972186938255893,-0.0047515840092429455,0.005470101058032171,0.9935674512808772
2017-08-09,1,0.003289917921354757,0.003636530225030415,-0.0047515840092429455,0.004431289760883775,0.9936864705074644
2017-08-11,1,0.0019746737881083712,0.0020885408268793825,-0.0018011285839582844,0.004431289760883775,0.9951662496486284
2017-08-15,1,0.000982609836386041,0.0010350205822413968,-0.0031104598706672548,0.004431289760883775,0.994744054018572
2017-08-17,1,0.00017317099276677585,0.00038434690261693403,-0.0047515840092429455,0.004431289760883775,0.9944880001159006
2017-08-21,1,0.0004938589219002779,0.0006513257060378785,-0.005186305671242497,0.00299670360571081,0.9929978398120881
2017-08-23,1,0.0006872448072221149,0.0008352124625702942,-0.004844738652571633,0.002397568780279005,0.9935957549523383
2017-08-25,1,0.0011615735343694297,0.0012152921815428521,-0.005497606903294134,0.0020023194480142774,0.9931577151505548
2017-08-29,1,0.0015083627337432245,0.0015144161231253543,-0.005497606903294134,0.0005591236634449998,0.9928938218284141
2017-08-31,1,0.0015936147807198496,0.0015999235430599877,-0.004844738652571633,0.0020476287407090923,0.9929612095208604
2017-09-05,1,0.0013732623304259887,0.0014091034251471398,-0.004620760609731989,0.002806409705731907,0.9928803804714106
2017-09-07,1,0.0009368090055713926,0.0010332560271554062,-0.00486526776878267,0.002806409705731907,0.9928192187998061
2017-09-11,1,0.0008184694358906417,0.0009296980482123946,-0.006065103323740248,0.0041246768984997345,0.9913753867843519
2017-09-13,0,-0.0002258378823779255,3.6128441906609033e-06,-0.004420593332250026,0.0041246768984997345,0.9927685654471994
2017-09-15,-1,-0.0003131085838386157,-0.00010352478117715803,-0.004420593332250026,0.004713071077567287,0.992230023219434
2017-09-19,-1,-0.0018195837457835057,-0.0014383393861922122,-0.0037526399248725834,0.0057865618645505604,0.9931717739240994
2017-09-21,-1,-0.0016327420503265979,-0.0013117976934583324,-0.0026559915256497493,0.005858220020081045,0.9927104523095407
2017-09-25,-1,-0.0018344771738300293,-0.0014955310445156486,-0.0016549460964506988,0.006815185108131111,0.9922453899039542
2017-09-27,-1,-0.0010652822825043809,-0.0008602727306702756,-0.0009319523236291057,0.006603971901922369,0.9924386794842956
