JNU-Tangyin/eata/results/Batch4_SP500/Batch4_SP500-FFIV.csv
Date,Action,Predicted_Q25,Predicted_Q75,Actual_Q25,Actual_Q75,RL_Reward
2010-12-14,0,0.0,0.0035506170903220127,-0.006246803148110211,0.009369664137434746,0.9891676432184502
2010-12-16,1,0.002882111523207424,0.0031307697354926198,-0.004429997289898839,0.008101232446909176,0.9890733180501975
2010-12-20,0,0.0,0.0,-0.00994204434482774,0.006178521807255013,0.988281222511992
2010-12-22,1,0.006151106792558582,0.006421711892684997,-0.0125950553674922,0.006139278752377324,0.9817727995028696
2010-12-27,1,0.005469885909305735,0.005663109425507652,-0.016639284943699966,0.007910161960853292,0.9811492525424971
2010-12-29,0,0.0,0.0,-0.016639284943699966,0.010023083246219429,0.9812443183533623
2010-12-31,1,0.002500363680469306,0.002533347949958072,-0.013338574768957058,0.010023083246219429,0.9815190749211044
2011-01-04,1,0.00030781176627185246,0.0007860971814195529,-0.011277929756950727,0.012572320870316567,0.9818369629038788
2011-01-06,1,0.001662979333477091,0.0019938919082018378,-0.011277929756950727,0.01582762755936548,0.9799610174091419
2011-01-10,1,0.0035716015645412625,0.0035944882476688592,-0.011277929756950727,0.012572320870316567,0.9807320916618704
2011-01-12,0,0.0,0.0,-0.011277929756950727,0.01582762755936548,0.9792492733170832
2011-01-14,0,0.0,0.0,-0.011277929756950727,0.01582762755936548,0.9789481047237774
2011-01-19,0,-6.670318581262894e-05,0.00020350851677449302,-0.007024180927470949,0.01582762755936548,0.9798746396649879
2011-01-21,-1,-0.0010582577905552198,-0.0007558975002807969,-0.011277929756950727,0.01582762755936548,0.9831038761200809
2011-01-25,-1,-0.0027369833746475674,-0.0021629770779560084,-0.013184965474302753,0.01582762755936548,0.9816666474973056
2011-01-27,0,0.0,0.0,-0.013184965474302753,0.026742144830716935,0.9794317939836583
2011-01-31,0,0.0,0.0,-0.01720421842455648,0.026742144830716935,0.9777998735805375
2011-02-02,-1,-0.0017827928378241987,-0.001134095295219743,-0.01720421842455648,0.017325051051431953,0.9799458974256571
2011-02-04,1,0.0016669816367271292,0.0018500629594687724,-0.01901241712944811,0.00611871902647107,0.9808043644174992
2011-02-08,1,0.0014218974533910561,0.0016098689990747465,-0.021925603173270716,0.01117320007593421,0.9794997716409677
2011-02-10,0,0.0,0.0,-0.021925603173270716,0.01117320007593421,0.9799954536471047
2011-02-14,0,0.0,0.0,-0.021925603173270716,0.011519417226738004,0.9791950916542923
2011-02-16,0,0.0,0.0,-0.028040543893702075,0.011519417226738004,0.9770067158984781
2011-02-18,0,0.0,0.0,-0.032217478016684405,0.011519417226738004,0.9752380631804627
2011-02-23,0,0.0,0.0,-0.032217478016684405,0.01606856979571445,0.9747559967993303
2011-02-25,0,0.0,0.0,-0.032217478016684405,0.008945369814609062,0.977392219677626
2011-03-01,0,0.0,0.0,-0.024256777240036845,0.011519417226738004,0.9773207353293735
2011-03-03,0,0.0,0.0,-0.024256777240036845,0.017497201569408555,0.975380647536578
2011-03-07,0,0.0,0.0,-0.024256777240036845,0.017497201569408555,0.9732669985824167
2011-03-09,0,0.0,0.0,-0.02268545961973393,0.01606856979571445,0.9742148308730947
2011-03-11,-1,-0.006142920133968809,-0.004820757057048871,-0.02268545961973393,0.012255807230008013,0.9757155371282868
2011-03-15,-1,-0.006584166132082543,-0.005181047670521457,-0.02268545961973393,0.009029957026202148,0.9772167662192346
2011-03-17,-1,-0.007971481140402468,-0.006566210873356376,-0.00977770282685605,0.01299816771086838,0.9779064284908882
2011-03-21,-1,-0.009955361369714234,-0.008356420509349708,-0.009435468552787681,0.01299816771086838,0.979495716630637
2011-03-23,-1,-0.006992068172137664,-0.005817873327969345,-0.008317449148296992,0.01299816771086838,0.9804465793424588
2011-03-25,-1,-0.007541400273157474,-0.006449646244521278,-0.009086419294220209,0.02173919626380683,0.9771304453511473
2011-03-29,-1,-0.004800717677132981,-0.004153642252622342,-0.009086419294220209,0.014813683935836526,0.9785071508124272
2011-03-31,-1,-0.003628535708482765,-0.0031011817643396165,-0.012641879957459034,0.00751483664195527,0.9797505544139934
2011-04-04,-1,-0.007009364925308414,-0.006036206485676212,-0.011719882645207229,0.007303766810748478,0.9843010565448395
2011-04-06,-1,-0.005739335474710874,-0.004995218635630007,-0.011719882645207229,0.006448944082652463,0.9842284840058532
2011-04-08,0,0.0,0.0,-0.011719882645207229,0.009181581582473956,0.9818515686434368
2011-04-12,0,0.0,0.0,-0.011719882645207229,0.01079096673227042,0.981824852439845
2011-04-14,-1,-0.004567994661917662,-0.003965715605611975,-0.011719882645207229,0.01079096673227042,0.9828942609215173
2011-04-18,0,0.0,0.0,-0.010973287106018612,0.01079096673227042,0.9827866821975187
2011-04-20,0,0.0,0.0,-0.010973287106018612,0.01079096673227042,0.984320752793169
2011-04-25,-1,-0.0030540875179260064,-0.002768882494073749,-0.011383338870068788,0.008258048495987378,0.9872013980457193
2011-04-27,-1,-0.0020567395869445725,-0.001924328082343218,-0.011383338870068788,0.008258048495987378,0.9864813697954447
2011-04-29,-1,-0.0035555395853707076,-0.0033297553937392758,-0.01076190859207294,0.018688108336167047,0.9839232691137445
2011-05-03,-1,-0.004394907057115835,-0.004043004161745851,-0.01076190859207294,0.018688108336167047,0.9824749098061404
2011-05-05,-1,-0.002831823728996021,-0.002776166590805192,-0.01129066367066692,0.019024277021274516,0.9815869643913777
2011-05-09,0,0.0,0.0,-0.012665751744681278,0.019024277021274516,0.9798214391345503
2011-05-11,1,0.00019485421682611647,0.00033924831173746364,-0.01725502795092211,0.019024277021274516,0.979280848062474
2011-05-13,1,0.00033795519537180866,0.0005040578185850544,-0.019393727153243442,0.01892802331624151,0.9785842964967139
2011-05-17,1,0.00041887154834616575,0.0005965194299939906,-0.0211059665897652,0.020441342901009414,0.9768578939710438
2011-05-19,1,0.0016141321826662995,0.0019391322332055027,-0.025152557002272057,0.01892802331624151,0.9758114264778164
2011-05-23,0,0.0,0.0,-0.025152557002272057,0.020441342901009414,0.9748704447995223
2011-05-25,0,0.0,0.0,-0.025152557002272057,0.02360259653382245,0.9747275014339546
2011-05-27,0,0.0,0.0,-0.025152557002272057,0.020441342901009414,0.9763486356366314
2011-06-01,1,0.0008860148833667173,0.0013470696461101036,-0.02026803220539413,0.02197366546172296,0.9771651816531232
2011-06-03,1,0.0032347084147364676,0.003906970618132775,-0.02026803220539413,0.02349862704954315,0.9771278153880348
2011-06-07,0,0.0,0.0,-0.015343397797266204,0.02197366546172296,0.9793764153937146
2011-06-09,0,0.0,0.0,-0.011359008404396237,0.02197366546172296,0.9794520739904818
2011-06-13,1,0.0011476359678905704,0.0014357619158675756,-0.01586860819832443,0.02197366546172296,0.9792675447184941
2011-06-15,-1,-0.0002964312639608823,-0.00026679548435787977,-0.014496338455802407,0.021207646951454617,0.9796742122594477
2011-06-17,-1,-0.0029558420924284115,-0.002601342200252724,-0.01130892653961866,0.022938986791722182,0.9801594717434722
2011-06-21,0,0.0,0.0,-0.014496338455802407,0.022938986791722182,0.9775179547369001
2011-06-23,0,0.0,0.0,-0.01636202394706902,0.02223189900183178,0.9737494089902284
2011-06-27,0,0.0,0.0,-0.01923048286885157,0.021207646951454617,0.9733428423022038
2011-06-29,1,0.004296791470052014,0.005095326359122146,-0.023643781427955708,0.02051657843159782,0.9720726855836695
2011-07-01,1,0.004395976771167321,0.005174964483243783,-0.023643781427955708,0.019010710145319826,0.972814188534585
2011-07-06,1,0.005611003082025632,0.0066366449217553514,-0.03227403671328005,0.019176680567754165,0.970037186260312
2011-07-08,0,0.0,0.0,-0.03776533950748995,0.019176680567754165,0.9671357806342753
2011-07-12,1,0.006516035305746071,0.007795857238350653,-0.0421348293753412,0.019176680567754165,0.9630639970496002
2011-07-14,1,0.005930588631676775,0.007033748490323442,-0.04503372229814442,0.019814618113023756,0.9606734194213385
2011-07-18,0,0.0,0.0,-0.04503372229814442,0.021917200697062118,0.959579869127389
2011-07-20,0,0.0,0.0,-0.0421348293753412,0.019264938385384726,0.9624437023612706
2011-07-22,0,0.0,0.0,-0.0421348293753412,0.017197435183608046,0.9625149446957424
2011-07-26,0,0.0,0.0,-0.0421348293753412,0.017898296044954166,0.9618849109759048
2011-07-28,0,0.0,0.0,-0.03681779617981868,0.017898296044954166,0.9628512050999326
2011-08-01,-1,-0.0016178486418370437,-0.0014504252715067522,-0.03681779617981868,0.03705779214388361,0.9591555842415769
2011-08-03,-1,-0.00041042428868164586,-0.0003836594645143022,-0.033877040289607634,0.03187413215863114,0.9604776107094598
2011-08-05,0,0.0,0.0,-0.030278950381088885,0.03187413215863114,0.9626976447140495
2011-08-09,-1,-0.006160945471655968,-0.005405862595907811,-0.028817202582976313,0.04302552896267142,0.9654937825392499
2011-08-11,-1,-0.007917927551417923,-0.006862537998415099,-0.028817202582976313,0.03187413215863114,0.9671784931936862
2011-08-15,-1,-0.00521040676861472,-0.004505483583581297,-0.028817202582976313,0.03668186485015259,0.9681389782433014
2011-08-17,-1,-0.007322406174188835,-0.006341729994091941,-0.024707256321079635,0.037058225986353464,0.9672815794119842
2011-08-19,-1,-0.01023178349489937,-0.008972636538730837,-0.01206513194918421,0.037058225986353464,0.9713707471071836
2011-08-23,-1,-0.006109616784631055,-0.005397493221854885,-0.020217328262544597,0.03598725104278262,0.9728976103523185
2011-08-25,-1,-0.009707584486994016,-0.008451302256110505,-0.02177399253723021,0.03598725104278262,0.9720864892950805
2011-08-29,-1,-0.006272289770614446,-0.005429861135579288,-0.02177399253723021,0.03014278904086348,0.9744817970983586
2011-08-31,-1,-0.005248613486512,-0.004534407540685875,-0.02712134243278881,0.0207714833934053,0.9752155143844279
2011-09-02,-1,-0.007619574841934282,-0.006617396451403871,-0.020843443935651258,0.0207714833934053,0.9759188864074296
2011-09-07,-1,-0.005311316789522133,-0.004620732892712392,-0.020843443935651258,0.03598725104278262,0.9700638787377925
2011-09-09,-1,-0.008559871947955613,-0.007444495201498539,-0.015641964012555236,0.03690090435323044,0.9707674644957004
2011-09-13,-1,-0.00409161014389017,-0.0036299688663507996,-0.015641964012555236,0.029382592533332343,0.9728418562445185
2011-09-15,-1,-0.0016574181599640252,-0.0015689546436717147,-0.015641964012555236,0.013138857849709357,0.9745664118333731
2011-09-19,0,0.0,0.0,-0.020843443935651258,0.027781691884277503,0.9721291759187365
2011-09-21,0,0.0,0.0,-0.016639429970581186,0.027781691884277503,0.9738417183199876
2011-09-23,0,0.0,0.0,-0.010170287391895726,0.027781691884277503,0.9741449091686888
2011-09-27,0,0.0,0.0,-0.016639429970581186,0.027781691884277503,0.971609965964985
2011-09-29,-1,-0.14200324796257052,-0.14094022038857237,-0.008653856373404269,0.03989584131168497,0.8636837940047821
2011-10-03,-1,-0.006484779729561997,-0.005842053990756879,-0.005147229637951876,0.03989584131168497,0.965034987195373
2011-10-05,-1,-0.000187828497248625,-6.70653877635906e-05,-0.012234998973407792,0.03209820240606593,0.9713209662878423
2011-10-07,1,0.0001763628933812552,0.00034163989377475963,-0.008752515914338897,0.027781691884277503,0.9714356340652549
2011-10-11,1,0.001668589484358606,0.002112926187729073,-0.013015075982041638,0.026516728502190764,0.9725240113035738
2011-10-13,0,0.0,0.0,-0.025441100276341836,0.026516728502190764,0.9701801911091648
2011-10-17,0,0.0,0.0,-0.013015075982041638,0.028840738307398615,0.9710854861324824
2011-10-19,0,0.0,0.0,-0.012025475629227761,0.028840738307398615,0.9712148270518672
2011-10-21,0,0.0,0.0,-0.021923906475542557,0.028609600222164935,0.970718041361141
2011-10-25,0,0.0,0.0,-0.021923906475542557,0.02282358209587944,0.9737387654368865
2011-10-27,1,0.011084502104620815,0.012688792943898363,-0.03095946664195396,0.018008758734214557,0.9765601847692569
2011-10-31,1,0.009912622478004687,0.01134276830010831,-0.02199717989696997,0.019011582448779003,0.9754156933462106
2011-11-02,1,0.0078123077359497336,0.00899568220846313,-0.01911688086512248,0.019011582448779003,0.9740751557606941
2011-11-04,1,0.008622377273000501,0.00975166517295541,-0.01911688086512248,0.013613236067575607,0.9741930584024219
2011-11-08,1,0.007108576002091852,0.007922952262020137,-0.01911688086512248,0.013613236067575607,0.9740725834080511
2011-11-10,1,0.006218614663717474,0.007131721960545843,-0.01911688086512248,0.020697256395734387,0.9735905585219551
2011-11-14,1,0.00821819139086706,0.009360846125344068,-0.020941367972985243,0.013613236067575607,0.9723217588248716
2011-11-16,1,0.007980521168240152,0.009228558278410641,-0.023620032399775347,0.007625334053921527,0.971334837371054
2011-11-18,1,0.007047224964404923,0.00820402536485906,-0.02175773108226546,0.007625334053921527,0.972335860197598
2011-11-22,1,0.005662534551771719,0.006778239650897777,-0.02175773108226546,0.016320998571067218,0.9686636165543104
2011-11-25,1,0.004176203373572215,0.005143044415104039,-0.020941367972985243,0.024462598279849722,0.9706061986501084
2011-11-29,1,0.005556443130043502,0.0067729840719597595,-0.020941367972985243,0.019463216554935207,0.9736305607339943
2011-12-01,1,0.00850792586220802,0.009904038076961483,-0.020941367972985243,0.013686105634682491,0.977131811261621
2011-12-05,1,0.010439009008423126,0.01192381612227678,-0.020941367972985243,0.007589637152820906,0.9754970484096214
2011-12-07,0,0.0,0.0,-0.020941367972985243,0.012548631760635347,0.9789415998556595
2011-12-09,0,0.0,0.0,-0.016654406284378226,0.012548631760635347,0.9798736033456439
2011-12-13,1,0.008412948264770688,0.00944408334821042,-0.008029441078078018,0.012548631760635347,0.9809198446572787
2011-12-15,1,0.006803059112853865,0.00758387237920103,-0.008029441078078018,0.012548631760635347,0.9812372527067482
2011-12-19,1,0.0051274036918413325,0.005587852750913838,-0.007693190731866832,0.018766701219208454,0.9779885200479592
2011-12-21,1,0.0042087350872662774,0.004670676961109864,-0.005201877437577444,0.01518982264843447,0.9842368430883383
2011-12-23,1,0.005236455244749958,0.00584325962138242,-0.0056780758617495045,0.012548631760635347,0.9846947010568619
2011-12-28,1,0.0033632857027951386,0.003492157926408243,-0.0060881034334092825,0.012548631760635347,0.9840367978457466
2011-12-30,1,0.0014251965871169162,0.0015191819943860454,-0.005143046762263655,0.011134973938649394,0.9848017249998936
2012-01-04,0,0.0,0.0,-0.005143046762263655,0.014916393954555044,0.9838050180129575
2012-01-06,0,0.0,0.0,-0.005143046762263655,0.017946415137570178,0.9831171174747125
2012-01-10,0,0.0,0.0,-0.005143046762263655,0.01269682350156159,0.9842869885191224
2012-01-12,0,-0.0002508384934947459,0.00025713505572000817,-0.00607482726780865,0.01269682350156159,0.9842704568090846
2012-01-17,0,0.0,0.0,-0.005143046762263655,0.01269682350156159,0.9852984373656497
2012-01-19,0,0.0,0.0,-0.005143046762263655,0.007600841707028807,0.9905193104697757
2012-01-23,1,0.003038729203739549,0.0032008612299208317,-0.00607482726780865,0.007600841707028807,0.9899972042088809
2012-01-25,1,0.003536226659572836,0.003800633198765343,-0.00607482726780865,0.008299645584088343,0.9901716814088458
2012-01-27,1,0.001975869265594457,0.002077071470790016,-0.004225978478672326,0.008299645584088343,0.9903651551026995
2012-01-31,1,0.002192173281606435,0.002193771372323632,-0.009584375160874063,0.008299645584088343,0.9892404021842655
2012-02-02,1,0.0008530392718418334,0.0011707945891160712,-0.00830338420931969,0.008299645584088343,0.9898800017642552
2012-02-06,1,0.0026935183666481396,0.002735281286878121,-0.01088380597408781,0.007600841707028807,0.9892958201204005
2012-02-08,1,0.0030565997492166207,0.0031845927279944945,-0.01088380597408781,0.007600841707028807,0.9886829352253501
2012-02-10,1,0.0022240058330136626,0.0022400838765610684,-0.009584375160874063,0.008299645584088343,0.9889457850147494
2012-02-14,1,0.00115730873490599,0.0015027680000624698,-0.009584375160874063,0.009652790785005094,0.9865535808893593
2012-02-16,1,0.0007174283425303496,0.0011489257022587174,-0.009584375160874063,0.009652790785005094,0.9868008673200583
2012-02-21,1,0.00025655442523499195,0.0007034426389213998,-0.009584375160874063,0.009652790785005094,0.9864864086517483
2012-02-23,0,0.0,0.0,-0.009584375160874063,0.009053625203532782,0.9864162688227907
2012-02-27,0,0.0,0.0,-0.007334713968354537,0.011719392956659153,0.9860787119671924
2012-02-29,0,0.0,0.0,-0.004225557029862304,0.011719392956659153,0.9870788761954455
2012-03-02,0,0.0,0.0,-0.004225557029862304,0.009053625203532782,0.9877952899042082
2012-03-06,0,0.0,0.0,-0.002680732643729358,0.011297303616027812,0.9889160336823729
2012-03-08,0,0.0,0.0,-0.002680732643729358,0.010399343994214497,0.9897608355662736
2012-03-12,-1,-0.0003093717259467091,-1.3870713937512327e-05,-0.005458987181070382,0.008898638438708145,0.9877557099938995
2012-03-14,1,0.0004929287007380407,0.0007180887406903749,-0.007370102250718419,0.008898638438708145,0.9879538506205698
2012-03-16,1,0.0006276538655974097,0.0008104618157038391,-0.014680998459248619,0.008898638438708145,0.9873448595524745
2012-03-20,0,-8.334201099471179e-05,0.0002091163612506254,-0.007370102250718419,0.010740748519960494,0.9880946707037804
2012-03-22,1,0.0020236199068618893,0.002161768759173518,-0.014680998459248619,0.010740748519960494,0.9841062970404446
2012-03-26,0,0.0,0.0,-0.014680998459248619,0.007092966630101068,0.9846073146747141
2012-03-28,0,0.0,0.0,-0.014680998459248619,0.01141145523631855,0.9833413430309044
2012-03-30,1,0.002191066749162558,0.0023812743831021993,-0.01610018113686497,0.012321517193265803,0.9817936983496423
2012-04-03,1,0.0023044603879672433,0.0025111945159380887,-0.01610018113686497,0.012675389744517322,0.9816357445520634
2012-04-05,0,0.0,0.0,-0.016648349423919843,0.012675389744517322,0.9812015583460154
2012-04-10,0,0.0,0.0,-0.01610018113686497,0.012675389744517322,0.982835541519991
2012-04-12,0,0.0,0.0,-0.01610018113686497,0.011856922589163476,0.9833764676924377
2012-04-16,0,0.0,0.0,-0.013003024085246092,0.014195984817894478,0.9833397052764027
2012-04-18,0,0.0,0.0,-0.016397352515299966,0.012041115604005857,0.9813719400377839
2012-04-20,0,0.0,0.0,-0.017217168709790308,0.005810988771678926,0.9837264478224182
2012-04-24,0,0.0,0.0,-0.017217168709790308,0.012041115604005857,0.9822030991812842
2012-04-26,0,0.0,0.0,-0.02356047039377768,0.0058150627798986805,0.9794042945641289
2012-04-30,0,0.0,0.0,-0.02356047039377768,0.004131717827965863,0.9806687910515012
2012-05-02,0,0.0,0.0,-0.03190912475550196,0.0008436580699001409,0.9794735718385813
2012-05-04,0,0.0,0.0,-0.03365059976406476,0.002550277592770183,0.9780521371746744
2012-05-08,0,0.0,0.0,-0.03365059976406476,0.006104894028281169,0.9763697520317643
2012-05-10,-1,-0.00332303581860205,-0.0029364430662336353,-0.020562233260643874,0.009066416479344464,0.9781065307853759
2012-05-14,-1,-0.003423998857759797,-0.0029826346452597094,-0.024769961893303417,0.009066416479344464,0.9772494824334317
2012-05-16,-1,-0.006574771953844589,-0.005686520643320002,-0.01805788411462788,0.009066416479344464,0.980103877921296
2012-05-18,-1,-0.007386426318016254,-0.006468069481302944,-0.010388477743293031,0.01196186878778126,0.9799049476255856
2012-05-22,-1,-0.006642405903316365,-0.0057922890806688665,-0.01805788411462788,0.009213679543314441,0.9809578789160049
2012-05-24,0,0.0,0.0,-0.01805788411462788,0.010020619447016082,0.9805030710117458
2012-05-29,0,0.0,0.0,-0.022346176057165077,0.010020619447016082,0.9792694988156084
2012-05-31,0,0.0,0.0,-0.022346176057165077,0.014891089329119141,0.9782855041448932
2012-06-04,0,0.0,0.0,-0.01805788411462788,0.01761139000365242,0.9773151850011997
2012-06-06,0,0.0,0.0,-0.01805788411462788,0.014891089329119141,0.9784373336443214
2012-06-08,-1,-0.005134460516567678,-0.0045066643266481275,-0.022346176057165077,0.014891089329119141,0.9758997828358278
2012-06-12,-1,-0.004862266934033278,-0.004329905775654692,-0.020489768587907575,0.01313427052587422,0.9763980587525201
2012-06-14,0,0.0,0.0,-0.022336827980786914,0.01313427052587422,0.9748563492093866
2012-06-18,0,0.0,0.0,-0.022336827980786914,0.011202815258590562,0.9753375482636066
2012-06-20,-1,-0.005971031888458779,-0.005297676374846925,-0.02040608925257053,0.02260600539701771,0.9711019260987351
2012-06-22,-1,-0.006373777879945794,-0.005632474715476425,-0.023219523752777218,0.01432936870970862,0.9719231327420288
2012-06-26,-1,-0.007361052777743079,-0.0065181366151998875,-0.023219523752777218,0.02260600539701771,0.9699385246413873
2012-06-28,-1,-0.007294039384178828,-0.006515738418507678,-0.02040608925257053,0.028055373306734892,0.969475441032966
2012-07-02,-1,-0.005906552241772413,-0.005299498340399111,-0.023007000155962402,0.02711068903455087,0.9719084464166965
2012-07-05,-1,-0.004800846967198593,-0.004312735986402026,-0.025481078284314812,0.016015410663517613,0.9720564549028153
2012-07-09,-1,-0.007098988951189733,-0.006373378036913629,-0.023007000155962402,0.028055373306734892,0.9716699047430197
2012-07-11,-1,-0.006368312603833285,-0.00575566153568925,-0.023007000155962402,0.02976032542092462,0.9704272821288301
2012-07-13,-1,-0.006639129150392268,-0.005979840673976763,-0.02127307026996424,0.02976032542092462,0.9705107722041837
2012-07-17,-1,-0.005375624876018119,-0.004918007291836587,-0.025481078284314812,0.02976032542092462,0.9694894894934205
2012-07-19,-1,-0.001305988677368027,-0.0012796425031336598,-0.025481078284314812,0.028055373306734892,0.9713985243277112
2012-07-23,-1,-0.004787986509725894,-0.004363102714321733,-0.018600586443317375,0.028055373306734892,0.9748155827801828
2012-07-25,-1,-0.004833120525684698,-0.004438716986743609,-0.018600586443317375,0.0256254431020333,0.9770010540223517
2012-07-27,-1,-0.003470326182433822,-0.0031889551107793083,-0.018600586443317375,0.021581277983485164,0.9797764234177292
2012-07-31,-1,-0.0046930621397078,-0.004296544669531373,-0.012746884254437608,0.021581277983485164,0.9802387836847296
2012-08-02,-1,-0.005033547919957829,-0.004631271480613185,-0.012746884254437608,0.021581277983485164,0.9793817357313775
2012-08-06,-1,-0.0015511544241482425,-0.0014735688554102224,-0.015616402071463817,0.014035110091718771,0.981397314147001
2012-08-08,-1,-0.0010338310054362923,-0.0008755042648648005,-0.015616402071463817,0.014035110091718771,0.9814313361983413
2012-08-10,-1,-0.000717765627645741,-0.0005322958464292621,-0.01869785398533194,0.012361766437522513,0.9805667714001781
2012-08-14,-1,-0.0014770643719491034,-0.0013356778705940404,-0.014783688671620618,0.013726391908629138,0.9814056920837418
2012-08-16,1,0.0010883872150784842,0.001595098449248651,-0.014783688671620618,0.013726391908629138,0.9818935937604256
2012-08-20,1,0.0003381664080787494,0.0007506533555428857,-0.012469313121156542,0.017725607330409565,0.9807916036015114
2012-08-22,1,0.0004918115092377585,0.0009488045520785571,-0.011225539303953353,0.01812729026001986,0.9807331098372928
2012-08-24,1,0.0005258108746370783,0.0010281506149394533,-0.011590792989700388,0.01812729026001986,0.9804249402697843
2012-08-28,1,0.001238080479142999,0.0018273220215901799,-0.014762371601500695,0.01755078345719003,0.9796687867688834
2012-08-30,-1,-0.0004200120123069134,-0.00015530904585542586,-0.014611461983929036,0.01755078345719003,0.9806487366590245
2012-09-04,-1,-0.0012926996396380828,-0.001152713487582333,-0.013565074178397644,0.018908992846090662,0.9807558923565394
2012-09-06,1,0.00018604658144463077,0.0004974123244500303,-0.013565074178397644,0.01755078345719003,0.9834178888535765
2012-09-10,-1,-0.00044503047568916494,-0.0001762608496571487,-0.013565074178397644,0.01755078345719003,0.9835490641281989
2012-09-12,0,0.0,0.0,-0.01736193025299067,0.014623238486222661,0.9826122549587012
2012-09-14,0,0.0,0.0,-0.01736193025299067,0.0083802587878108,0.9851461565277209
2012-09-18,0,0.0,0.0,-0.01736193025299067,0.010667979834693636,0.9855081548803089
2012-09-20,0,0.0,0.0,-0.01761570408096661,0.005928056088056914,0.984919598002561
2012-09-24,1,0.005125757593763309,0.006363775445470159,-0.01761570408096661,0.004101705610025597,0.9835220492196954
2012-09-26,0,0.0,0.0,-0.01736193025299067,0.004101705610025597,0.9858524599656592
2012-09-28,0,0.0,0.0,-0.018804819975611706,0.0020220323939785264,0.9818007606510777
2012-10-02,0,0.0,0.0,-0.018804819975611706,0.004101705610025597,0.9803499102142056
2012-10-04,0,0.0,0.0,-0.025533664723028884,0.005739202450939676,0.977130223739935
2012-10-08,-1,-0.0053368892968876785,-0.004796109433238801,-0.018804819975611706,0.01010141892334192,0.9778089933850833
2012-10-10,-1,-0.004386312034074449,-0.0038093861638607293,-0.016038802664910656,0.011390287689521592,0.978365003714854
2012-10-12,1,0.0008827611576478963,0.0011430169399761847,-0.01858670060173399,0.011390287689521592,0.9778750430549932
2012-10-16,1,0.0014079807403779016,0.001659502321127527,-0.01858670060173399,0.0102017256949881,0.9791207424646757
2012-10-18,0,0.0,0.0,-0.015523248234756103,0.01169120800446013,0.9795972670365977
2012-10-22,0,0.0,0.0,-0.015523248234756103,0.014269223533862731,0.978525319916526
2012-10-24,0,0.0,0.0,-0.01282416980177449,0.018323253425301785,0.9787872898845693
2012-10-26,0,0.0,0.0,-0.0072145795638312695,0.018323253425301785,0.9833266844395545
2012-11-01,-1,-0.0013912298387897374,-0.0012291286407249194,-0.0072145795638312695,0.01679580123090315,0.9845701656272172
2012-11-05,-1,-0.001533756482963152,-0.0013186210490208367,-0.0072145795638312695,0.014269223533862731,0.987405897441938
2012-11-07,-1,-0.0017756788987651029,-0.0015400711572456423,-0.0072145795638312695,0.01169120800446013,0.9891307388051906
2012-11-09,-1,-0.001124016158859106,-0.0009952450997880583,-0.005252926582529738,0.012108936455279542,0.9899149349321498
2012-11-13,0,0.0,0.0,-0.005252926582529738,0.01298714267186907,0.990290306926483
2012-11-15,0,0.0,0.0,-0.0070053157329729825,0.01298714267186907,0.9889722181018537
2012-11-19,-1,-0.0022567705091545197,-0.001895398383848149,-0.0054449802220306945,0.01569768320643678,0.9866775852957824
2012-11-21,-1,-0.0021087615944055324,-0.0017325233642791179,-0.005638324319581322,0.01298714267186907,0.9876031541762188
2012-11-26,-1,-0.00019808345876250286,-0.00010509851129031757,-0.007794611856483149,0.009987413747975626,0.988356105359837
2012-11-28,0,0.0,0.0,-0.005638324319581322,0.012110584829822121,0.988293168024774
2012-11-30,0,0.0,0.0,-0.007873198669856878,0.010894007333045536,0.9882789904212649
2012-12-04,-1,-0.001692534656061152,-0.0014197443472927925,-0.007873198669856878,0.012110584829822121,0.9852293484101473
2012-12-06,-1,-0.0018419524828562758,-0.0015339071843391726,-0.009100688895917742,0.012110584829822121,0.9846772193471056
2012-12-10,-1,-0.0012773775864790486,-0.0010506065383180752,-0.010839503961584007,0.010894007333045536,0.9845059239903404
2012-12-12,1,0.0008054720301277233,0.0010463942604820374,-0.010839503961584007,0.010894007333045536,0.9843965981595765
2012-12-14,-1,-0.0018680308685118147,-0.0016054686109431022,-0.009100688895917742,0.010894007333045536,0.9855031253959949
2012-12-18,1,0.0002380220373056792,0.00028074825723932033,-0.009100688895917742,0.009547780756222118,0.988746295951339
2012-12-20,1,0.0007496844438787747,0.0008655312985814483,-0.010839503961584007,0.007757434537927016,0.9886988621586451
2012-12-24,0,-7.50790525620897e-05,0.000141117270252841,-0.007911265329589441,0.012127174294828699,0.9862363423875438
2012-12-27,-1,-0.00038194850742055567,-8.025782402343903e-05,-0.007911265329589441,0.014600461236233715,0.9857761184038272
2012-12-31,1,0.0010621788227636424,0.0010754731708195009,-0.007374321654313755,0.014600461236233715,0.986384558458702
2013-01-03,1,0.0020007681818750523,0.002169531277859614,-0.003335836899057758,0.010805731651218755,0.9898088098492357
2013-01-07,1,0.0017031746859642214,0.0018543895482745244,-0.002161567849608222,0.010805731651218755,0.9902137936740895
2013-01-09,0,0.0,0.0,-0.002161567849608222,0.012565474356232224,0.989054963805946
2013-01-11,0,0.0,0.0,-0.0036280453657665792,0.010805731651218755,0.9892742209844219
2013-01-15,0,0.0,0.0,-0.003851514505965146,0.010805731651218755,0.9890402001761409
2013-01-17,0,0.0,0.0,-0.009342074534190042,0.008744475023064736,0.9886366146917692
2013-01-22,0,0.0,0.0,-0.009342074534190042,0.011040781099876641,0.9879639497178487
2013-01-24,0,0.0,0.0,-0.013323117907914057,0.005959276126369443,0.9903560945808362
2013-01-28,0,0.0,0.0,-0.013618597610921632,0.005872751489961919,0.987659498764749
2013-01-30,0,0.0,0.0,-0.013873855159249006,0.007967225932941446,0.9865649912398095
2013-02-01,0,0.0,0.0,-0.013873855159249006,0.005872751489961919,0.9861770410425876
2013-02-05,0,0.0,0.0,-0.013873855159249006,0.007967225932941446,0.9859735013186082
2013-02-07,1,0.0015845637206272614,0.0016629050239496904,-0.013618597610921632,0.007967225932941446,0.9869688367760701
2013-02-11,1,0.002151162167625103,0.002441039551672436,-0.013530520855609013,0.007967225932941446,0.986822278101557
2013-02-13,1,0.0022876061004464807,0.0026763781724740998,-0.013618597610921632,0.007967225932941446,0.9862917564821695
2013-02-15,1,0.0022587876297966995,0.0026661730559588595,-0.013558979570969807,0.007793989633390644,0.9865444061710181
2013-02-20,1,0.0023100340251687042,0.0027096460693530437,-0.010831180052391268,0.007793989633390644,0.9871338151896097
2013-02-22,1,0.0011724258921365462,0.0013403308261493469,-0.014120493789685423,0.007793989633390644,0.9859913923442167
2013-02-26,-1,-0.00090815923483052,-0.0008076349184913273,-0.010831180052391268,0.0059925403350847214,0.9902374060611883
2013-02-28,-1,-0.0003802773640827142,-0.00037224483590511865,-0.00923552637273814,0.0059925403350847214,0.9907344018675941
2013-03-04,-1,-0.0009651517853073071,-0.0009119768110046764,-0.008811052466959058,0.007928506069782949,0.989989456919008
2013-03-06,0,0.0,0.0,-0.008811052466959058,0.007702109669307613,0.9900201682090444
2013-03-08,0,0.0,0.0,-0.013228342428637407,0.00597154830962852,0.985549126766735
2013-03-12,0,0.0,0.0,-0.008811052466959058,0.00597154830962852,0.9857320464836329
2013-03-14,0,0.0,0.0,-0.00855778927695595,0.009038977010159302,0.9846128750530122
2013-03-18,0,0.0,0.0,-0.012374450942965529,0.01293569810678701,0.9832800600828401
2013-03-20,0,0.0,0.0,-0.01297872589083385,0.008980024676060648,0.9833238805757177
2013-03-22,0,0.0,0.0,-0.012322612735585195,0.008980024676060648,0.9846361853276415
2013-03-26,-1,-0.005483442299572922,-0.0045845399872874205,-0.012322612735585195,0.012669013427986892,0.9843214938702277
2013-03-28,-1,-0.00300208749377552,-0.002583046216297861,-0.012322612735585195,0.012669013427986892,0.9833312144105202
2013-04-02,-1,-0.00275507334082032,-0.0023539183813634313,-0.009940456308948499,0.012669013427986892,0.9833180667293387
2013-04-04,-1,-0.002129852659957766,-0.0018278739375642704,-0.012322612735585195,0.012669013427986892,0.9821269759590695
2013-04-08,-1,-0.0025112592272593373,-0.0021569382121738763,-0.009940456308948499,0.01293569810678701,0.9848775080573484
2013-04-10,-1,-0.002740348546791238,-0.0023177855112382286,-0.009940456308948499,0.015309839359625411,0.9842758393000985
2013-04-12,-1,-0.0014163775177191093,-0.0011794991949738553,-0.007721319727451582,0.012669013427986892,0.9857398920235385
2013-04-16,-1,-0.001868958590641824,-0.0015840229706129594,-0.007721319727451582,0.011908359240171244,0.9862214732174328
2013-04-18,-1,-0.0021987656353986765,-0.0019227624710521063,-0.0015986297419161633,0.01563836020666684,0.9843399265140933
2013-04-22,-1,-0.002217393833116004,-0.0019729135011617876,0.00034150202057449164,0.01563836020666684,0.9847391343002301
2013-04-24,-1,-0.0015529649052756687,-0.001392505858017883,-0.0037967499449440573,0.01563836020666684,0.9854966225108365
2013-04-26,-1,-0.0017848069291529689,-0.0016101205268666055,-0.0037967499449440573,0.012087110304085541,0.9868927053927147
2013-04-30,-1,-0.0005133996420463842,-0.00047201809311295945,-0.005212192006884803,0.012087110304085541,0.9873297327814524
2013-05-02,-1,-0.0014192772257230445,-0.0012707934635067825,-0.005212192006884803,0.012087110304085541,0.9878407700637202
2013-05-06,1,0.00029567066582912344,0.0003821289644580395,-0.00824539913989535,0.010063266581396321,0.9866961976254284
2013-05-08,1,0.000765258456559693,0.0009127613133802191,-0.00824539913989535,0.010063266581396321,0.9864991790579146
2013-05-10,1,0.0005016474015461357,0.0005357192312231078,-0.010019727995218799,0.0074696417972357,0.9861873187681931
2013-05-14,1,0.0013867754359621373,0.001694597061695384,-0.011056480741402083,0.005630887861582805,0.98515490573162
2013-05-16,1,0.0009678240532675031,0.001180880429269583,-0.012097101818543416,0.0033156806883654476,0.9862114537473659
2013-05-20,1,0.0009557381411343103,0.0011411952042394641,-0.012097101818543416,0.007965023044441386,0.9850957715572669
2013-05-22,1,0.0007445533779754456,0.0009255258008865576,-0.01763589669619604,0.007965023044441386,0.9832485337456331
2013-05-24,1,0.0009758301704744502,0.001184065922038082,-0.021686658959976297,0.007965023044441386,0.9808456239722966
2013-05-29,1,0.0009983120105397912,0.001145981154240478,-0.021686658959976297,0.007117172320837244,0.9819998833662373
2013-05-31,1,0.0006992096255280106,0.0007841173595490765,-0.021686658959976297,0.007117172320837244,0.9811753851898095
2013-06-04,-1,-0.0006532236818665224,-0.0005716719944061615,-0.018222904126571623,0.008408954101136214,0.9839475256938608
2013-06-06,1,0.0009890219141026045,0.0011716641652474219,-0.018222904126571623,0.007117172320837244,0.984986698904988
2013-06-10,1,0.0001787296074805993,0.0002541577171669881,-0.018222904126571623,0.008408954101136214,0.9850033675550597
2013-06-12,-1,-0.0011275326294422454,-0.0010657464548309058,-0.014265054012259939,0.011894728078647372,0.9824471231138945
2013-06-14,-1,-0.001324402778049594,-0.0012532646641033865,-0.011723771820377612,0.020359655291626533,0.9801839198339725
2013-06-18,1,0.0014390880749304024,0.0017070891316637153,-0.013489504433065201,0.014270272257569355,0.9811234246582654
2013-06-20,1,0.0002521483433974791,0.0004069218406448718,-0.010272141270736843,0.014270272257569355,0.9820570883349188
2013-06-24,-1,-0.000890698673681882,-0.0008899150027026966,-0.006420378373488853,0.014270272257569355,0.984283134588439
2013-06-26,-1,-0.000896186332955609,-0.0007676697711488805,-0.006420378373488853,0.020586207225256184,0.9803657447465056
2013-06-28,-1,-0.0007059877684774574,-0.0006020024700669616,-0.006420378373488853,0.01924797409755634,0.9816307639070351
2013-07-02,-1,-0.0006654598969882324,-0.0005745671365502046,-0.0027445312755009998,0.01924797409755634,0.9820113015720187
2013-07-05,-1,-0.000621039236766352,-0.0005545221055797564,-0.005670691474789158,0.01924797409755634,0.9813655163474037
2013-07-09,-1,-0.0004048508219200544,-0.0003140342714363598,-0.0036202809684729724,0.01924797409755634,0.9822010676041241
2013-07-11,1,0.0010581218817713907,0.0013299418695126913,-0.0036202809684729724,0.015316283679816366,0.9861194318857271
2013-07-15,1,0.003188271655483529,0.00374756467571749,-0.0041644977389518195,0.012948916294243659,0.9877650734186104
2013-07-17,1,0.002665590808230668,0.0031464916760929372,-0.0041644977389518195,0.012948916294243659,0.9882095481570305
2013-07-19,1,0.001420306807149814,0.0016335485325668637,-0.005358207524319534,0.012948916294243659,0.986619197411964
2013-07-23,1,0.0013112887953991563,0.0015171025679015238,-0.005688828036491129,0.013244870210266449,0.9853707132305574
2013-07-25,1,0.0021817039295913003,0.0024488550897785013,-0.0073941208096034465,0.012656212360271691,0.9874846475426226
2013-07-29,1,0.0021337672714472995,0.002402676932268281,-0.008605340587590146,0.012656212360271691,0.9869168723375428
2013-07-31,1,0.0026623942976364955,0.003017804532785242,-0.014795554254985284,0.006678452900659057,0.9855749294815997
2013-08-02,1,0.0028284655757409194,0.0031919763552906042,-0.014795554254985284,0.006144092876518554,0.9856011027320255
2013-08-06,1,0.0021591828453557914,0.002381890586811451,-0.014795554254985284,0.011349086203872974,0.9850291485655407
2013-08-08,1,0.0028899485706212927,0.0032042562802050336,-0.014795554254985284,0.011349086203872974,0.9855133999957496
2013-08-12,1,0.0038541804760971483,0.004296357129209092,-0.014795554254985284,0.01299279887928193,0.9858932855673446
2013-08-14,1,0.0027050274055993315,0.0028972907035884135,-0.015447244482312869,0.014132711234824532,0.9842963300686246
2013-08-16,1,0.0010948917691156607,0.0011101784232782665,-0.012770116288827975,0.015716789054905686,0.9854749826056527
2013-08-20,1,0.0013607157176888879,0.0014153834192999972,-0.009668097946514659,0.015716789054905686,0.9862111706829834
2013-08-22,1,0.0018717600584076885,0.0020004763580906025,-0.0072454746527540635,0.014529213704159213,0.9883390680916098
2013-08-26,1,0.0011039389422942288,0.0011331730453056526,-0.009668097946514659,0.014529213704159213,0.9855530558012471
2013-08-28,-1,-0.0010366319156182335,-0.0009438469779257793,-0.0012616436642810466,0.014529213704159213,0.9860179346547313
2013-08-30,-1,-0.0006716480101742509,-0.0006415675530837376,-0.011624526268092957,0.014529213704159213,0.9859028962481554
2013-09-04,1,0.0008291583493504015,0.001036891101115332,-0.011624526268092957,0.014529213704159213,0.9854837878290265
2013-09-06,1,0.0011943547187606082,0.0014239819455965134,-0.012899971776637863,0.015716789054905686,0.9838928535230482
2013-09-10,1,0.001986617699012058,0.002266793152361269,-0.014843282021325897,0.011498813773759848,0.9835849153585396
2013-09-12,1,0.0015972410874347778,0.0017891891580999715,-0.012899971776637863,0.011498813773759848,0.984163700241472
2013-09-16,1,0.0019932927211886208,0.00227321616568474,-0.012243171487000309,0.011498813773759848,0.9846947665008728
2013-09-18,1,0.0028209581040154197,0.0031692397361629647,-0.015044457135083898,0.010694469982163023,0.983565288650696
2013-09-20,1,0.0034353984054138528,0.003931172923450701,-0.017820205892043823,0.011896118514590645,0.9812805541574928
2013-09-24,1,0.0006466670090031789,0.0007209090337650485,-0.012243171487000309,0.014514174170399938,0.9833108401615975
2013-09-26,1,0.0020182580917643715,0.002128989107812982,-0.015044457135083898,0.014514174170399938,0.9808119764393214
2013-09-30,1,0.0010448819368370278,0.001070387307662409,-0.019096415257648318,0.016008291277927834,0.9798384288037485
2013-10-02,1,0.0023643901582320907,0.0026161048340376126,-0.019096415257648318,0.014514174170399938,0.9814217807928013
2013-10-04,1,0.0026277528920500845,0.0028911641395398336,-0.026571493659323393,0.011896118514590645,0.981209616007133
2013-10-08,1,0.0021072756898932914,0.0023676206630578473,-0.023986260306868297,0.011896118514590645,0.983212607600626
2013-10-10,1,0.002464014182601833,0.00278083357242181,-0.023986260306868297,0.011896118514590645,0.9829783240507138
2013-10-14,1,0.0023808486700776345,0.002656468111915805,-0.023986260306868297,0.012886855943095632,0.9826133982898386
2013-10-16,1,0.0017637301001287682,0.0019536229917370583,-0.01591892384623781,0.016072636521900618,0.98375832707666
2013-10-18,1,0.0018805396171309046,0.0021154229416150173,-0.010841474890670274,0.011512844258641266,0.9856049407337268
2013-10-22,1,0.002541411203061468,0.00285448437410206,-0.01565269229364917,0.007646618602909251,0.9851380646181709
2013-10-24,-1,-0.0005353529264210119,-0.000339606062261311,-0.008963966115442984,0.011512844258641266,0.9874048476687038
2013-10-28,-1,-0.00038190846626064736,-0.00023910214271719596,-0.008963966115442984,0.007646618602909251,0.9884844454892993
2013-10-30,-1,-0.0013452916720803872,-0.0010531733176672876,-0.008963966115442984,0.01058589467276703,0.9878897081914976
2013-11-01,-1,-0.003904126869128397,-0.0032399131246501804,-0.005948947003040005,0.01058589467276703,0.9894724737405387
2013-11-05,-1,-0.003912655295813088,-0.0032418873039493997,-0.005948947003040005,0.01058589467276703,0.9892109286922157
2013-11-07,-1,-0.003142057406166669,-0.0026095176660822766,-0.005948947003040005,0.01058589467276703,0.9887810985037645
2013-11-11,-1,-0.003129516695198088,-0.0025146338424067386,-0.005948947003040005,0.009575087128813229,0.9894341754313114
2013-11-13,-1,-0.0011820810362005735,-0.0006706664386459393,-0.007384702553479725,0.007309682754924651,0.9893959830958432
2013-11-15,-1,-0.001273094992271167,-0.0007446505726446334,-0.0069133574514191765,0.009575087128813229,0.9885925593479988
2013-11-19,-1,-0.0027528433047518735,-0.0020828052465850467,-0.0056227234294295905,0.010185463250559867,0.989339680491673
2013-11-21,-1,-0.002134360814591481,-0.001493223375341868,-0.005466678941580335,0.010662527366464036,0.9880368731860453
2013-11-25,-1,-0.0034075855345506016,-0.0026322494728873136,-0.0032647319215699743,0.012715559573452766,0.9878174852961114
2013-11-27,-1,-0.002794936381213584,-0.002084372112287139,-0.0032647319215699743,0.01175886822196627,0.9890861532630095
2013-12-02,-1,-0.0010869808390400158,-0.0007354961276819071,-0.002691791733310753,0.012094380827759503,0.9884738754890523
2013-12-04,1,0.000687771091575827,0.0007286354896314905,-0.005834870461419557,0.012094380827759503,0.9873078680791118
2013-12-06,1,0.0009823460776027108,0.0010065357238296612,-0.005466678941580335,0.012094380827759503,0.9881218882871059
2013-12-10,1,0.0012716009876175226,0.001272639642764549,-0.005834870461419557,0.010455467784566281,0.9882884077380385
2013-12-12,0,-3.731621667472278e-05,0.00015450340011743913,-0.0028829584175126943,0.012094380827759503,0.9880356217116297
2013-12-16,-1,-0.0008633426752050854,-0.0007685023615120622,-0.002051697488422213,0.017300772661638153,0.986506187000341
2013-12-18,-1,-0.0006812287014134957,-0.0005987448578392012,-0.0028829584175126943,0.017300772661638153,0.9865535182869093
2013-12-20,1,0.0011215381571043803,0.001289421947360324,-0.004091985704743889,0.013906212627533984,0.9879525094305555
2013-12-24,1,0.0013360890053859865,0.0015397862765968863,-0.004091985704743889,0.02179503736500219,0.9852761691280715
2013-12-27,1,0.0012265504763749268,0.0014121081187650447,-0.004091985704743889,0.024528983380447848,0.9834147210483347
2013-12-31,1,0.0019890256323418357,0.0023080147221638033,-0.0076216997260757586,0.024528983380447848,0.9822965497282127
2014-01-03,1,0.0015596572620026714,0.0018659765734084718,-0.0076216997260757586,0.024528983380447848,0.9814919107787622
2014-01-07,1,0.0034670191226385426,0.003763975802172172,-0.010032855567675275,0.024528983380447848,0.9810678087142646
2014-01-09,1,0.001876049209084245,0.001887917552015658,-0.0076216997260757586,0.024528983380447848,0.9803741121926889
2014-01-13,1,0.0023509047174089482,0.0023765363899763015,-0.0076216997260757586,0.024010462325241864,0.9805051540115562
2014-01-15,1,0.004099138103643683,0.004403145981914446,-0.0076216997260757586,0.021265382783786296,0.9830038202851487
2014-01-17,1,0.0034775213235014135,0.003594246547748215,-0.00657642412384073,0.021265382783786296,0.9832910250097046
2014-01-22,1,0.0030527899503888477,0.003064222936350046,-0.009625703087871697,0.021265382783786296,0.9827364749125558
2014-01-24,1,0.002769255290519272,0.0027872349599407037,-0.009625703087871697,0.01646547117887897,0.9852543089839725
2014-01-28,1,0.004764691900758891,0.005049897376505371,-0.016208338175247368,0.0161840641175315,0.9847763686900667
2014-01-30,1,0.005214119034591956,0.005590461625108593,-0.01606367165442999,0.014702495491882194,0.9857036218811915
2014-02-03,1,0.004647831152227303,0.00500341029042281,-0.007324886919823996,0.0154477531183581,0.9871175861526958
2014-02-05,1,0.004361889117100318,0.004725941228215078,-0.0032097988786588755,0.0154477531183581,0.9883751774307239
2014-02-07,1,0.0056593393015248765,0.006196997245757015,-0.007324886919823996,0.01390555261632401,0.987596449813961
2014-02-11,1,0.007699425871675835,0.008568579700808647,-0.007324886919823996,0.006066478076176712,0.9874651331691457
2014-02-13,1,0.007518857706276387,0.00836449540037662,-0.011519681809229826,0.006066478076176712,0.9859842897920862
2014-02-18,1,0.0062511593849485445,0.006809904955117135,-0.011519681809229826,0.009354186200252758,0.9859727867577237
2014-02-20,1,0.005903908468117883,0.006422862101402786,-0.004658615164552188,0.01390555261632401,0.9866493805261811
2014-02-24,1,0.0057218615453026745,0.006145658627222938,-0.01205825920706017,0.007567912412195803,0.9842543680844612
2014-02-26,1,0.006193064616939471,0.006748461612635717,-0.01302048875530557,0.006389343289468758,0.9840974187859772
2014-02-28,1,0.005705157614602717,0.006212756974141373,-0.01101511585397306,0.010078161780826298,0.9842803974346414
2014-03-04,1,0.005321356825336267,0.005735677014611025,-0.01101511585397306,0.013753291990201342,0.9842401154175429
2014-03-06,1,0.005847034425742375,0.0063195193913260705,-0.01345547504866949,0.010217584622020206,0.9829223260633702
2014-03-10,1,0.004988717920769371,0.005377917418051534,-0.01345547504866949,0.010217584622020206,0.9833385605287035
2014-03-12,1,0.004571901777451211,0.004842985165388717,-0.01345547504866949,0.016880155402852995,0.982442129359026
2014-03-14,1,0.00341868784643593,0.003540297031996752,-0.014306614471816219,0.016880155402852995,0.9811463344496393
2014-03-18,1,0.00536978304234817,0.005765653670411101,-0.014306614471816219,0.016880155402852995,0.9807692127948704
2014-03-20,1,0.005586371537628195,0.005885151060413031,-0.014306614471816219,0.01459426046778072,0.9813631032038863
2014-03-24,1,0.003887536517524579,0.00394435484015645,-0.011298828995021968,0.01459426046778072,0.9842751055844353
2014-03-26,1,0.0030392095473216803,0.003163432343669879,-0.011298828995021968,0.01459426046778072,0.9847450661678544
2014-03-28,1,0.0017820124698041894,0.0021177898169646827,-0.014240792504719059,0.010077714032907501,0.9841778366669082
2014-04-01,1,0.003273112215086911,0.003437510909446698,-0.014240792504719059,0.006942405548812852,0.9843946458919005
2014-04-03,1,0.0021474370339864685,0.0024295252797345915,-0.014240792504719059,0.01017178978335973,0.9839152899831703
2014-04-07,1,0.0022787583581387874,0.002483092728378483,-0.011593754499074257,0.008401096792890268,0.9849508049068458
2014-04-09,1,0.00468964051029945,0.004794116453429583,-0.014240792504719059,0.004467523765450815,0.9847000713430453
2014-04-11,1,0.0025922817859852136,0.0027352282421596566,-0.009922563673761372,0.008168841336574775,0.9869593649307331
2014-04-15,1,0.0023033455263568345,0.002555267275595916,-0.011864280706686575,0.004467523765450815,0.9878248470048604
2014-04-17,1,0.0024737540991423656,0.0026839478033658286,-0.011864280706686575,0.004143435883835905,0.9873578101553505
2014-04-22,1,0.00209480662544378,0.00243255202518888,-0.012408679532950426,0.006526290199387646,0.9848750598983897
2014-04-24,1,0.0010472842477543428,0.0014810177788512425,-0.011580233117004403,0.010981181202332076,0.9862457570281393
2014-04-28,0,-0.0006040977476403854,6.263578658438152e-05,-0.006261665138394707,0.013851097146645498,0.987245862685393
2014-04-30,1,0.00033066769792162716,0.0008717087014640976,-0.0075520701456211845,0.013851097146645498,0.9872993757826215
2014-05-02,0,-7.498179916683254e-05,0.000491085229546449,-0.0075520701456211845,0.010981181202332076,0.9880481818467953
2014-05-06,0,-0.0004517566513872612,0.00011977759960666331,-0.010139508653448509,0.010981181202332076,0.9876752154988869
2014-05-08,-1,-0.001868375223861974,-0.0010480765260229203,-0.007124144641003815,0.014692090212470893,0.9877227039823427
2014-05-12,1,4.541181684485822e-05,0.0006137825746979392,-0.007124144641003815,0.010315075343863275,0.9893605499116086
2014-05-14,-1,-0.0008640195699553444,-0.0001914582321377535,-0.006495037965079943,0.010315075343863275,0.9897387352290632
2014-05-16,-1,-0.0008510243997321997,-0.00026629758581111335,-0.0033120339252621137,0.010315075343863275,0.9891319778219204
2014-05-20,-1,-0.0011063652921615202,-0.0005145570387046368,-0.0033120339252621137,0.009604725766071565,0.9913015004298211
2014-05-22,-1,-0.0007455145640209086,-0.0001796501642923492,-0.007785248530504003,0.009407165351056401,0.990706589929198
2014-05-27,1,0.0005533614343834986,0.0009441511165359229,-0.007785248530504003,0.007459428723987456,0.9913684837644897
2014-05-29,0,-0.0001366169780758974,0.0003916559372435498,-0.007785248530504003,0.006183726910779826,0.9918088585674208
2014-06-02,0,-6.357924784810946e-05,0.0004420096198947687,-0.006708701815397075,0.006183726910779826,0.9911620132129245
2014-06-04,-1,-0.0010930357490145518,-0.00042437539349294076,-0.006166568149690989,0.006750988668516643,0.9911568734845929
2014-06-06,0,-0.00014516727355044215,0.00033911153150379065,-0.006166568149690989,0.006750988668516643,0.9918642254007989
2014-06-10,1,0.0015762716602290383,0.001756267371535857,-0.006708701815397075,0.006750988668516643,0.9895766474844948
2014-06-12,1,0.000648433383804001,0.0009474891464830885,-0.0071076211586843605,0.006750988668516643,0.9894986565195014
2014-06-16,1,0.00046656646165025857,0.000709031764068851,-0.0071076211586843605,0.006162817061081773,0.9896726076153658
2014-06-18,1,0.0007626335169346851,0.0007790394548170823,-0.007187803152852767,0.006162817061081773,0.989399179474779
2014-06-20,1,0.00038419015919881946,0.0004433840773002307,-0.006791994394262809,0.006806845088675961,0.9904137330555887
2014-06-24,1,0.0006029602790398585,0.000694144060876592,-0.00906408188656823,0.007183513151552176,0.9887946302223494
2014-06-26,-1,-0.0012500756724832722,-0.0010244164775735426,-0.007677553336173019,0.0077198901923206265,0.988706544719132
2014-06-30,1,3.185913158723099e-05,0.00012690699206568251,-0.007677553336173019,0.008007687433490465,0.9896603656146017
2014-07-02,1,0.000665522421214081,0.0007062621369458953,-0.00906408188656823,0.008170990846017169,0.9883062155713788
2014-07-07,1,0.0017323575505724294,0.002012074644302542,-0.00906408188656823,0.008170990846017169,0.9884584173084155
2014-07-09,1,0.0015424930351066305,0.0017862522210150037,-0.007677553336173019,0.008170990846017169,0.9904354324873743
2014-07-11,1,0.0010830625361697211,0.0012719859979180995,-0.007677553336173019,0.009505282728567276,0.9897381724124342
2014-07-15,1,0.0009764222667931717,0.0011205072122758807,-0.00906408188656823,0.012125844515048188,0.9879169935371288
2014-07-17,1,0.0007843025963457544,0.0009299088170372355,-0.007677553336173019,0.012311202716038926,0.9877838390716974
2014-07-21,1,0.001067912882144569,0.001291016483825321,-0.006192219476948593,0.013415876867220901,0.9872863650991383
2014-07-23,1,0.0013277202561105337,0.0015548658873807538,-0.0040584996642389045,0.017647137009517012,0.9868690005968465
2014-07-25,1,0.002016770535570842,0.002351492150099701,-0.00374337473996532,0.013415876867220901,0.9879278311101168
2014-07-29,1,0.002885971205200271,0.003367182246682922,-0.00374337473996532,0.017086641854334266,0.9875650281059208
2014-07-31,1,0.002016963828282147,0.0023237941416666165,-0.0035193628483788184,0.017086641854334266,0.9891492675632868
2014-08-04,1,0.0020018679118097528,0.002282369888303353,-0.0034633721940986826,0.017086641854334266,0.9888325548505238
2014-08-06,1,0.0017301671776000776,0.0018886780062326624,-0.004397699700021435,0.017086641854334266,0.9880343116436262
2014-08-08,1,0.002321603630502429,0.002632734653107282,-0.00374337473996532,0.014055164357149022,0.9892802032695241
2014-08-12,1,0.002641691055581984,0.0030643228132243715,-0.00374337473996532,0.013693219133513715,0.9904656971259961
2014-08-14,1,0.0018757318012406457,0.002067510615182176,-0.004397699700021435,0.013689451925433475,0.9904400356520621
2014-08-18,1,0.0018998636698096872,0.002010268013414988,-0.0045522413542943355,0.013235842443280695,0.9905413555041638
2014-08-20,1,0.0036405931861882867,0.003985586988276436,-0.0045522413542943355,0.008671623348100923,0.9915863011521295
2014-08-22,1,0.004028317552668258,0.0045190482966022,-0.0075695824976669155,0.008671623348100923,0.989815438567051
2014-08-26,1,0.004073179575304431,0.00450959927358622,-0.008603041743476106,0.008671623348100923,0.9894445506593811
2014-08-28,1,0.00357021323186554,0.003891766382025901,-0.010692340229473414,0.011432739098138038,0.9884653428816391
2014-09-02,1,0.004594814410064615,0.005144274089727889,-0.013929832880785774,0.008349082572796214,0.9873813366117221
2014-09-04,1,0.002253629893002357,0.0023806763979734484,-0.013805990631139837,0.011568637025066122,0.9878635052664665
2014-09-08,1,0.0034153368091315904,0.0037606467253300632,-0.013805990631139837,0.013188485065610813,0.9861459976288952
2014-09-10,1,0.0035192164570990447,0.003911461109137544,-0.014368076789001137,0.011568637025066122,0.9851595714083378
2014-09-12,1,0.0034811743025122475,0.003876292170078636,-0.019846907158450763,0.011568637025066122,0.9806151944552449
2014-09-16,1,0.0029434397291418944,0.00320174457310873,-0.019846907158450763,0.011568637025066122,0.9810405994288028
2014-09-18,1,0.0025526181410680674,0.0026876361391437193,-0.019846907158450763,0.009901595987303089,0.9816027216112038
2014-09-22,1,0.0012906788220038452,0.0013049641078383555,-0.014368076789001137,0.011568637025066122,0.9819138464903063
2014-09-24,1,0.0008298853877333359,0.0009026601122615244,-0.016502404920305077,0.011813168958912433,0.98008214511067
2014-09-26,1,0.0001825702049641784,0.00034295691056634227,-0.014368076789001137,0.014499574367166704,0.9807585464410125
2014-09-30,-1,-0.001064982534220903,-0.0007269087850060434,-0.008903991978914174,0.016842139340599166,0.9793600786414296
2014-10-02,-1,-0.0002714373649490554,-0.00010004519037254498,-0.011916239905526453,0.02226528732324125,0.9776003991466031
2014-10-06,1,5.3928155075205785e-05,0.0002188845674090859,-0.011916239905526453,0.016842139340599166,0.9784343999621294
2014-10-08,-1,-0.0008746657134116831,-0.0005876798561830016,-0.005610821791382227,0.016842139340599166,0.9797904313186043
2014-10-10,-1,-0.0038273352907605765,-0.0032434287236766633,-0.0016935362275027313,0.016842139340599166,0.9826358352861104
2014-10-14,-1,-0.002669102467676822,-0.002244696085758225,-0.0016935362275027313,0.012743449713763854,0.984462105944057
2014-10-16,-1,-0.0022650452533644035,-0.001919350968646971,-0.0016935362275027313,0.012743449713763854,0.9846459585269364
2014-10-20,-1,-0.0012634405505460538,-0.0010444384724213889,-0.0016935362275027313,0.012743449713763854,0.9857317424394295
2014-10-22,-1,-0.0015965679332163912,-0.0013243802552308367,-0.0016935362275027313,0.01137212950681702,0.9883165156333776
2014-10-24,-1,-0.0011189299435058488,-0.0008877086772350082,-0.0016935362275027313,0.01137212950681702,0.9885103233390243
2014-10-28,1,0.0008791831014202446,0.0009188004599558281,-0.0016935362275027313,0.011351238496428146,0.9904283118621426
2014-10-30,1,0.001212216025789804,0.0013144297879869537,-0.0016935362275027313,0.010484240319414792,0.9932031548876598
2014-11-03,1,0.0015778330314427569,0.0017045219585495822,-0.0029131836924485483,0.007006996351943682,0.9933763469194191
2014-11-05,1,0.0019175271669380962,0.002116210685356187,-0.002855675493241128,0.010663490530671185,0.992767504963799
2014-11-07,1,0.002085811909365823,0.0022897275015006683,-0.0067782940599397335,0.007981475362821466,0.9923244075922596
2014-11-11,1,0.0012766558376650018,0.0013078314696984374,-0.00800999302152798,0.007981475362821466,0.991583294132167
2014-11-13,1,0.0011425060159250258,0.0011622945520334813,-0.008389983504619402,0.010663490530671185,0.9907337704282555
2014-11-17,1,0.0010241449155519973,0.0010573493120433217,-0.009337592605741515,0.007981475362821466,0.9912341019101203
2014-11-19,1,0.0011165685442099007,0.0011553198410460548,-0.008389983504619402,0.01174801385329322,0.9902806389019745
2014-11-21,1,0.0014998442147449186,0.0015841058882900192,-0.008389983504619402,0.010663490530671185,0.9909831079319861
2014-11-25,1,0.0018057558224181653,0.001938271038020003,-0.008389983504619402,0.009147842640837962,0.9909633005226689
2014-11-28,1,0.0014738604018175883,0.0015523034240076412,-0.009185016151687007,0.009147842640837962,0.9908219843291768
2014-12-02,1,0.0010552086602526028,0.0010674751883142618,-0.010885376634364471,0.009147842640837962,0.9900696553405502
2014-12-04,1,0.0017543932416789407,0.0018370643942787715,-0.010885376634364471,0.007208785207579644,0.9908377855139315
2014-12-08,1,0.0010246808475685046,0.001061433885894974,-0.010885376634364471,0.007654975933434069,0.9902686939859557
2014-12-10,1,0.0006179636061771562,0.0007112943816494667,-0.008904039651498781,0.009083545357291271,0.9907130694417526
2014-12-12,1,0.0006947689986553569,0.0007642421064001359,-0.008904039651498781,0.007654975933434069,0.9909779015325858
2014-12-16,1,0.0001644940353262955,0.00027501521914433943,-0.010795789989767117,0.007654975933434069,0.990144232879246
2014-12-18,1,0.0014899798005053783,0.0015704732556484362,-0.010795789989767117,0.006221001526999677,0.9908446853405837
2014-12-22,1,0.0009040019714745411,0.000928261819864057,-0.012032101801035002,0.006221001526999677,0.9859507709514586
2014-12-24,1,0.000661603825950715,0.0006697076717740021,-0.012032101801035002,0.0028541449719058595,0.9858515204764943
2014-12-29,1,0.0004755391966988086,0.00048344370227405554,-0.012032101801035002,0.0028541449719058595,0.9858163313594788
2014-12-31,1,0.00019335992257463278,0.00021069584027027318,-0.012032101801035002,0.006922995351851329,0.985674724165148
2015-01-05,-1,-0.00022127616770880102,-0.0001258842372645427,-0.012032101801035002,0.009177734907410851,0.9855276899291439
2015-01-07,-1,-0.00026445000200022405,-0.00016892640438279896,-0.012032101801035002,0.008877276594459525,0.9858862106188171
2015-01-09,1,0.00021664442772398364,0.00023461941149382012,-0.014105099411008059,0.008361533216490571,0.9852559253038281
2015-01-13,1,0.0004336859378753715,0.0004921981501401244,-0.011678238615610702,0.008877276594459525,0.9848225853001782
2015-01-15,-1,-0.0005320652315376952,-0.0004421060006242503,-0.00601943421826256,0.010548438070523091,0.9853871011412374
2015-01-20,1,0.00014300324442674306,0.00015883007725146095,-0.00601943421826256,0.010132335825074536,0.9856070490186577
2015-01-22,-1,-0.0012908251171229754,-0.0011276430726568742,-0.0035163536626032204,0.010132335825074536,0.9897002229159142
2015-01-26,-1,-0.0015442037481037535,-0.0013650871655125165,-0.004057592018067505,0.009296151741745013,0.9897381187743173
2015-01-28,-1,-0.00249446505944958,-0.0021799959961810865,-0.0033411791683996273,0.009296151741745013,0.9895390896335318
2015-01-30,-1,-0.002432243993555922,-0.0021336427216182468,-0.0033411791683996273,0.009325624610059906,0.990092955135959
2015-02-03,-1,-0.0016502623696286818,-0.0014740527161927882,-0.0050596466830638235,0.009325624610059906,0.9905447758647838
2015-02-05,1,0.0002312445096697841,0.0003339173248597412,-0.0050596466830638235,0.009325624610059906,0.9919225093361675
2015-02-09,1,7.48870623809822e-05,0.00017195566187404434,-0.006567016492388138,0.009325624610059906,0.9905655868703716
2015-02-11,1,0.0012133066691793568,0.001484173779884722,-0.006567016492388138,0.008849109910396304,0.9919059496589218
2015-02-13,1,0.0012643149431113398,0.00143178068233991,-0.006567016492388138,0.006488240110319635,0.9922579580530607
2015-02-18,1,0.0012751037410455835,0.0014565706714831767,-0.006567016492388138,0.006488240110319635,0.9918252647224145
2015-02-20,1,0.0018509968329487071,0.0020457246529321017,-0.006567016492388138,0.006099009080613346,0.9915790779805368
2015-02-24,1,0.0013598921361762852,0.0014653007220807167,-0.006760694123917921,0.0032614847864821856,0.9916952281541876
2015-02-26,1,0.0007556704657957938,0.0008127553979544594,-0.007794641117274505,0.0032614847864821856,0.9908788671528594
2015-03-02,1,0.00146225933135921,0.0016223957399311999,-0.0065099610011182755,0.006099009080613346,0.9905642208739448
2015-03-04,1,0.0007976599295740164,0.0008070862107315448,-0.0065099610011182755,0.006099009080613346,0.9904284408364119
2015-03-06,-1,-0.0023892084710163777,-0.0020014431591745267,-0.0065099610011182755,0.006099009080613346,0.9906235296010454
2015-03-10,-1,-0.0028258223121007033,-0.002402935271325719,-0.0059516686506959635,0.009125923427011403,0.9918672213342615
2015-03-12,-1,-0.0031068115485140702,-0.002674150134617778,-0.006006411356266696,0.012242708309523285,0.9903605418239276
2015-03-16,-1,-0.0029203130536803066,-0.0025413056457172134,-0.0059516686506959635,0.012242708309523285,0.9909601062627307
2015-03-18,-1,-0.002501662194839927,-0.0021701763094261806,-0.005594481955116268,0.012242708309523285,0.9896613304915726
2015-03-20,-1,-0.0014939977465557414,-0.001298013198781969,-0.006449110959171198,0.010860184949348602,0.9893102572783766
2015-03-24,-1,-0.0003470530935889633,-0.00022732186262559682,-0.005594481955116268,0.01239469679349587,0.9883252931940052
2015-03-26,-1,-0.0029580990905995162,-0.0026400192265819285,-0.003394464648235695,0.01258966183203968,0.9877789185237664
2015-03-30,-1,-0.00028099131116742426,-0.000277107998982809,-0.003394464648235695,0.01258966183203968,0.9886432908227687
2015-04-01,-1,-0.0007148470945509083,-0.00065677160729261,-0.007431609808273811,0.01258966183203968,0.9875959978860341
2015-04-06,-1,-0.0006639620493739872,-0.0006331147544380244,-0.0018460709013678961,0.01258966183203968,0.9876116392235105
2015-04-08,-1,-0.0006145909589307297,-0.0005731630483562205,-0.005474913070252222,0.01258966183203968,0.9870649156236442
2015-04-10,-1,-0.0006565280986944714,-0.0006126370205529741,-0.0018460709013678961,0.01258966183203968,0.9878777718403434
2015-04-14,-1,-0.0005564552513737057,-0.0005363286001387234,-0.0011061804034534334,0.01258966183203968,0.9874817951605753
2015-04-16,-1,-5.611703239259577e-05,-2.8079228777656677e-05,-0.0011061804034534334,0.01197497244289341,0.9887650388143795
2015-04-20,1,5.033883917809583e-05,0.00010589283231944105,0.00025599352409960696,0.01197497244289341,0.989877580250444
2015-04-22,1,0.00035297842194286774,0.00045653618739209875,-0.0033342794783440266,0.010845804262694153,0.9910764685112341
2015-04-24,1,0.0006036440491600334,0.0007342214509571633,-0.0033342794783440266,0.009951536487630752,0.9920890090520647
2015-04-28,1,0.000949061082559063,0.0011425701650055898,-0.003943097836586162,0.008741867635958458,0.9925989127754444
2015-04-30,1,0.0002787852293234135,0.0003857825678853157,-0.0033342794783440266,0.008741867635958458,0.9932859422294412
2015-05-04,1,0.0007371693145827276,0.0008902108063915191,-0.00373601156848891,0.007271090565563871,0.9939040193527038
2015-05-06,1,0.0004497278887997198,0.0005600793724313336,-0.00373601156848891,0.00715611818431589,0.9942547227107384
2015-05-08,1,0.000558487295635996,0.0006877642524152543,-0.00373601156848891,0.002031026971021827,0.9952616700315283
2015-05-12,1,0.0003572404994852836,0.00045054002112780223,-0.0033342794783440266,0.0037143877021353494,0.9949146353270091
2015-05-14,1,0.0008992416098483429,0.0010969038486082923,-0.003812563408380159,0.001271479680246938,0.9949711708453437
2015-05-18,1,0.000840782934257334,0.0010177786044569188,-0.003812563408380159,0.003001080810172037,0.9948861702032493
2015-05-20,1,0.0007129695663368597,0.0008859997500221353,-0.003812563408380159,0.0037411357026121495,0.9949971636005167
2015-05-22,1,0.0006597014959820531,0.0008186536511411884,-0.003812563408380159,0.00427841994282414,0.9947618238564321
2015-05-27,1,0.0005281378539366975,0.000652940468492036,-0.003812563408380159,0.00427841994282414,0.9943471515833546
2015-05-29,1,0.0005825302490361689,0.0007220290705607785,-0.003812563408380159,0.004048200781391976,0.993776771129027
2015-06-02,1,0.00026302054955723206,0.0003019419008465914,-0.0052087398257888206,0.004048200781391976,0.9924832306380204
2015-06-04,1,0.0003709531341935571,0.00042323494148652674,-0.0028803447724421827,0.00373928633764281,0.9934212346611591
2015-06-08,1,0.0004570915242811554,0.0004627713069197053,-0.0052087398257888206,0.004048200781391976,0.9920462169447414
2015-06-10,0,-5.987292614950375e-05,6.058788711954142e-05,-0.01058968998274141,0.00373928633764281,0.9918127177330699
2015-06-12,-1,-0.0005481445622143824,-0.00041238296894938615,-0.005982871652312001,0.00427841994282414,0.9917185275387473
2015-06-16,1,0.0013288164929582272,0.0013788648529197028,-0.005982871652312001,0.004323530804493032,0.9914940680758224
2015-06-18,1,0.0015769538432983535,0.00166546509681262,-0.012318602976520364,0.004323530804493032,0.9907748910517958
2015-06-22,1,0.001170423269118623,0.0012094669919751012,-0.012318602976520364,0.004323530804493032,0.9903716672451083
2015-06-24,1,0.00033231163877106405,0.00041884350291950114,-0.006540458561461593,0.005503895565482356,0.987421646317558
2015-06-26,-1,-0.0001762855899134985,-8.464624737721183e-05,-0.0035512134422037624,0.005503895565482356,0.9885264564194948
2015-06-30,-1,-0.0008019027776096744,-0.0006268627550965095,-0.0019617549547757155,0.007785496433873147,0.9881142600545653
2015-07-02,-1,-0.0012232556774174137,-0.0009772641894637726,-0.0019617549547757155,0.009454577088642528,0.9874151153733001
2015-07-07,-1,-0.0009361276591344677,-0.0007667024690068565,-0.0019617549547757155,0.009454577088642528,0.9878134812009424
2015-07-09,-1,-0.0013989931623088394,-0.001205223117992719,-0.0013213147852683686,0.009454577088642528,0.9875960384266136
2015-07-13,-1,-0.0009041120773699081,-0.0007749282940396442,-0.0013213147852683686,0.01151183364996216,0.9875200090758094
2015-07-15,-1,-0.00031700684877534406,-0.00017594019073279948,-0.0013213147852683686,0.01108442126254448,0.9875918076182366
2015-07-17,-1,-0.0006820228191873096,-0.00048603908499759074,-0.0013213147852683686,0.01108442126254448,0.9874392978401981
2015-07-21,0,-8.366419258037147e-05,5.742930474973202e-05,-0.0027222425844982013,0.009619674203624862,0.9877064430549947
2015-07-23,-1,-0.0002225109107587169,-8.081847313972474e-05,-0.006650874199943897,0.007940343109077383,0.989211335234432
2015-07-27,1,0.0013584768567415687,0.0015429858589546324,-0.010547551055864465,0.007940343109077383,0.9858539113094034
2015-07-29,1,0.0018744797716046015,0.0020799026729369256,-0.010547551055864465,0.007940343109077383,0.9853271678197383
2015-07-31,1,0.00011647206420123629,0.00031085937938646324,-0.010547551055864465,0.006657229221104684,0.986114198356862
2015-08-04,-1,-0.000772518964282974,-0.0004998021538451181,-0.013958507745876467,0.006657229221104684,0.9854534460800602
2015-08-06,-1,-0.0009877545691853859,-0.0006708331529216654,-0.009275044311109483,0.007940343109077383,0.985400754305783
2015-08-10,1,0.0010689179118830877,0.0011438923902440347,-0.014463365746235697,0.007940343109077383,0.9840478099242477
2015-08-12,1,0.0013641793908869375,0.0014865340294776693,-0.016164046832433197,0.003943776637931291,0.9839651034350474
2015-08-14,1,0.0008694358985843558,0.000898382943293497,-0.016164046832433197,0.002181759063786486,0.9836152684708857
2015-08-18,1,0.0003051942800122208,0.00036708798713046926,-0.016164046832433197,0.004092333079123368,0.9837553257461831
2015-08-20,-1,-0.00039815770991249484,-0.00028512803203621515,-0.016164046832433197,0.004092333079123368,0.9846183116741895
2015-08-24,-1,-0.0013675006653564483,-0.0011218696279670962,-0.01357219879055524,0.006112082886926564,0.9868876645619117
2015-08-26,-1,-0.0010289749955693273,-0.0007970712754522746,-0.01357219879055524,0.006112082886926564,0.9878465030119483
2015-08-28,-1,-0.0010961237401437248,-0.0008729531098821037,-0.01357219879055524,0.006112082886926564,0.987480182733854
2015-09-01,-1,-0.002272208779122859,-0.0019080471930062047,-0.0103980226162027,0.008045603232718662,0.9883811853181779
2015-09-03,-1,-0.0018788432102421996,-0.0015540469038730655,-0.0103980226162027,0.008354297467564362,0.9878838065684984
2015-09-08,-1,-0.0007892754058362126,-0.0006499910055243728,-0.0103980226162027,0.008354297467564362,0.9867382698865859
2015-09-10,-1,-0.001243469532337458,-0.0010515723293142048,-0.00922790589050585,0.008354297467564362,0.9869271654678092
2015-09-14,-1,-0.0014816858468689525,-0.001284169283876529,-0.0063978390025326,0.008354297467564362,0.9874941928658025
2015-09-16,-1,-0.0006219330862759524,-0.000551556905447071,-0.008039926767232078,0.008574277677859695,0.9868802707503973
2015-09-18,-1,-0.0010963213939774745,-0.0009908281425890866,-0.00629668316421985,0.010132149532628885,0.9872283501262118
2015-09-22,-1,-0.001600536079136134,-0.0013900930342416124,-0.0006854910672664898,0.010764330806593933,0.9875780009697444
2015-09-24,-1,-0.0003268342673078227,-0.0003037389093037171,-0.00629668316421985,0.010764330806593933,0.9865876287311813
2015-09-28,-1,-0.001487299948986864,-0.001310458637159525,-0.0009701952108925674,0.010764330806593933,0.9862432277693671
2015-09-30,-1,-0.0008410575363304216,-0.000758258803814565,-0.0009701952108925674,0.010764330806593933,0.9866628160918226
2015-10-02,1,0.000402376021816655,0.00045824647674236004,-0.007520058923858639,0.009101091652579699,0.9843293407426772
2015-10-06,-1,-4.2882873350966735e-05,-2.777326485051206e-05,-0.0009701952108925674,0.009101091652579699,0.9862202534210166
2015-10-08,1,0.00038420726833941017,0.0004572756969149979,-0.009646284473290443,0.009101091652579699,0.9854073575266135
2015-10-12,-1,-0.00030876304779936,-0.00028015416675677014,-0.009646284473290443,0.009101091652579699,0.9852931257444003
2015-10-14,-1,-0.00053728503498785,-0.0004823696982607129,-0.009646284473290443,0.005604680243477888,0.9858668723264555
2015-10-16,-1,-7.94334351175722e-05,-7.775425914658845e-05,-0.01476998557674371,0.004203465831909999,0.9842955357519745
2015-10-20,1,0.00011363058331972828,0.0001351547063657469,-0.01476998557674371,0.004203465831909999,0.9831710411348903
2015-10-22,1,0.0002164559120205671,0.0002584925407613012,-0.013141668361087551,0.0037824031552690187,0.9854340185265424
2015-10-26,-1,-9.759085771016024e-05,-8.489055996022918e-05,-0.013141668361087551,0.00320946626757071,0.9856135961421568
2015-10-28,1,0.00024280205781893917,0.00028045354095658135,-0.013141668361087551,0.0011074812397078864,0.9861123799113374
2015-10-30,-1,-0.0003247734561140404,-0.00010795034240055896,-0.009679760171291879,0.0013805297768610283,0.9907630356711212
2015-11-03,1,0.00028896627473372035,0.0005358680467344295,-0.009679760171291879,0.0013805297768610283,0.9909541576108694
2015-11-05,-1,-0.00040396992199704393,-0.00020968411415203442,-0.007525765522249035,0.00267306468761938,0.9902267618578499
2015-11-09,-1,-0.0002722601253313243,-4.905859231806031e-05,-0.007525765522249035,0.00267306468761938,0.9898255608195758
2015-11-11,-1,-0.0007208967730340136,-0.0005139601423513541,-0.009693516322237576,0.0013805297768610283,0.988934904917842
2015-11-13,-1,-0.0020448756705389085,-0.002020635667517564,-0.009693516322237576,0.0013805297768610283,0.9901788985018289
2015-11-17,-1,-0.0016000384515111113,-0.0015809475061613046,-0.008546798670344392,0.0034119427732850188,0.9897489896663902
2015-11-19,-1,-0.0023388825450123586,-0.0022709421662282874,-0.012919571283797754,0.0034119427732850188,0.9888842725994731
2015-11-23,-1,-0.0022135340577175344,-0.0021456069315576956,-0.012919571283797754,0.0034119427732850188,0.9891450193045065
2015-11-25,-1,-0.0024525917676882793,-0.0023321158823263848,-0.012919571283797754,0.003803960283650854,0.9891262801504714
2015-11-30,-1,-0.0028520442821568757,-0.0026668474038324228,-0.012919571283797754,0.0061323001637733805,0.9890187292277611
2015-12-02,-1,-0.0020916401943345255,-0.0020129249435169912,-0.012919571283797754,0.0032312689568049753,0.9891278597291643
2015-12-04,-1,-0.002225699751660167,-0.0021569701840177657,-0.012770618936620983,0.0010264936489388266,0.991142372576291
2015-12-08,-1,-0.002729046486966243,-0.002589139845282849,-0.013715884433383459,0.0010264936489388266,0.9894216279278333
2015-12-10,-1,-0.003631772344687132,-0.0034188013341975468,-0.012919571283797754,0.0038391160645769697,0.9900460365284295
2015-12-14,-1,-0.004444474055882939,-0.004272886796918369,-0.010102274282935274,0.005338557402374293,0.989654008588299
2015-12-16,-1,-0.0035967534230222573,-0.0035591520027822583,-0.010102274282935274,0.0027682970832980693,0.9918145173602432
2015-12-18,-1,-0.0011714780300263014,-0.0011252361763455332,-0.007530385954274413,0.0027682970832980693,0.991272472863548
2015-12-22,-1,-0.0008734475430685292,-0.0008477700752770954,-0.007530385954274413,0.0038391160645769697,0.9887974255408755
2015-12-24,-1,-0.005093630540084243,-0.00491087487951896,-0.007530385954274413,0.005338557402374293,0.987136676135305
2015-12-29,-1,-0.005029806090701596,-0.004821264314367421,-0.011128283635957456,0.0038391160645769697,0.9862046767053931
2015-12-31,-1,-0.004976394788153191,-0.004815012075189974,-0.010072499967326278,0.005991564303564372,0.9857128390075577
2016-01-05,-1,-0.00534910919245412,-0.005176478880087722,-0.012209087264218826,0.005991564303564372,0.9842122224440886
2016-01-07,-1,-0.006372280339360834,-0.006079767467064073,-0.010072499967326278,0.010532604975869261,0.9844743010588908
2016-01-11,-1,-0.00593090446872689,-0.0057150947594121135,-0.013294011730576783,0.004502240647964868,0.9851796592354393
2016-01-13,-1,-0.005948709162828807,-0.005651958401076954,-0.013294011730576783,0.00255427971787552,0.9861304945358746
2016-01-15,-1,-0.0046994201837324764,-0.004506229839863563,-0.013294011730576783,0.009574306692049322,0.984642545927551
2016-01-20,-1,-0.004880845741971177,-0.004695211766156824,-0.007828915851382404,0.010962929789587477,0.9846736557540907
2016-01-22,0,-6.0551081847957174e-05,7.716777637809457e-06,-0.007828915851382404,0.010962929789587477,0.9866428188860116
2016-01-26,-1,-0.0003951449961644884,-0.0003870319166813551,-0.011022493346398385,0.009574306692049322,0.9870128729871301
2016-01-28,-1,-0.002352774762552077,-0.002285016229418621,-0.00653279833191125,0.012604889997307493,0.9867845088340159
2016-02-01,-1,-0.0011002517346479729,-0.001078654049285104,-0.007499728571671917,0.0135197547360036,0.986406799177215
2016-02-03,-1,-0.004402999739005941,-0.004194598538525867,-0.00653279833191125,0.015625048189175882,0.9859743756848769
2016-02-05,-1,-0.004939750186949151,-0.004647180325923875,-0.00653279833191125,0.015625048189175882,0.9863880680242137
2016-02-09,-1,-0.005212054299122332,-0.004905574670999153,-0.002198381932222932,0.015625048189175882,0.9866587219504058
2016-02-11,-1,-0.005609939987257747,-0.005205795308274257,-0.0015416701984228523,0.017904928625803593,0.9850872125083557
2016-02-16,-1,-0.005113227846390126,-0.0047474991006516065,-0.007521584398792777,0.015625048189175882,0.9868329748069059
2016-02-18,-1,-0.004050973428304586,-0.0038386954883216588,-0.007521584398792777,0.012895676267118319,0.9874566225120491
2016-02-22,-1,-0.003440706500367515,-0.0032759861727092053,-0.007521584398792777,0.012563637664563183,0.9880302653281483
2016-02-24,-1,-0.0031452922421956004,-0.0030320270632693443,-0.007521584398792777,0.01324733531565963,0.9877434382711442
2016-02-26,-1,-0.002514511972506058,-0.002511462006323951,-0.007521584398792777,0.011920405574830416,0.9891167078388929
2016-03-01,-1,-0.0016007371053033406,-0.0015075795492465738,-0.004935538289044292,0.011738802977899428,0.9900561664923732
2016-03-03,-1,-0.0009657070731041654,-0.0007657298996472715,-0.004935538289044292,0.010998402287550531,0.9910606046613415
2016-03-07,-1,-0.0006978144486185907,-0.00045128702800284817,-0.009190614786937104,0.008790424465378754,0.9910476883671548
2016-03-09,-1,-0.0014566675522507309,-0.0012982887744315736,-0.009519164676668801,0.008790424465378754,0.9882217621351228
2016-03-11,-1,-0.0011263934480229899,-0.0009337589687898483,-0.0053982629668232664,0.00762980742282385,0.9899347904305617
2016-03-15,-1,-0.0014701913764313217,-0.0012892584357238554,-0.004227052796128639,0.008790424465378754,0.9885076361901307
2016-03-17,-1,-0.001107333240302406,-0.0008698218962134733,-0.009640973235868905,0.007018201391539983,0.9889819496190757
2016-03-21,-1,-0.00045723350687783704,-0.0001584307523006187,-0.012000179402853577,0.005878404758046361,0.9888101872735057
2016-03-23,1,0.0011086811960194691,0.0015071104018443361,-0.009405493231332322,0.008754888101493582,0.9866981435750526
2016-03-28,1,0.001990761509686889,0.0025584038366998872,-0.009405493231332322,0.012657404199629992,0.985671638043355
2016-03-30,1,0.0031256335485945674,0.0037198317550150156,-0.009405493231332322,0.013749303999524974,0.9856399172827204
2016-04-01,1,0.002783995320206397,0.0032821582053314032,-0.012000179402853577,0.013749303999524974,0.9844830945624824
2016-04-05,1,0.0022958798104047093,0.0027313454263488846,-0.012024345104509015,0.013749303999524974,0.9837691782064234
2016-04-07,1,0.0010658583713033273,0.0013234631905335893,-0.010817058912498775,0.013749303999524974,0.9866452322529229
2016-04-11,1,0.00035333937306240967,0.0004501671379943303,-0.010817058912498775,0.013749303999524974,0.9863842657312393
2016-04-13,1,0.000887628766844505,0.001093774767108422,-0.0072256354877478415,0.013749303999524974,0.9869820585252729
2016-04-15,1,0.0002427532804433367,0.0003439739302167919,-0.004282296326925241,0.013749303999524974,0.9867390661034852
2016-04-19,1,0.0005728617579654377,0.0008023546816058216,-0.004282296326925241,0.0137575432616014,0.9858885164116057
2016-04-21,1,0.001870557412651461,0.0022647052135380385,-0.00644659716350471,0.01342368476420915,0.9881169299942496
2016-04-25,1,0.0027427836214466003,0.003243476793050543,-0.00644659716350471,0.01342368476420915,0.9883549873729104
2016-04-27,1,0.003450112992304784,0.004070419211241677,-0.00644659716350471,0.01342368476420915,0.9880274902009273
2016-04-29,1,0.002937226636207901,0.0034989915127771826,-0.005911007677160395,0.01342368476420915,0.9887598210711794
2016-05-03,1,0.0020319415976854053,0.0023953986806375537,-0.004208036308152929,0.01342368476420915,0.9898189848869173
2016-05-05,1,0.0011827582268099522,0.0013707104374415615,-0.005654390390363161,0.01342368476420915,0.989159420914195
2016-05-09,1,0.0012027912761928758,0.001314639137791044,-0.005654390390363161,0.014419743060584213,0.9847305700341303
2016-05-11,1,0.0028788872091869804,0.003230883456224953,-0.005654390390363161,0.01342368476420915,0.9845352332691839
2016-05-13,1,0.0029676441116894855,0.0032780659186722036,-0.005988266515421325,0.012956743802186641,0.9844386850698373
2016-05-17,1,0.002399036780640048,0.002621846505034206,-0.005654390390363161,0.012441048543676413,0.986149219639587
2016-05-19,1,0.0025877004111187537,0.0028267765548854245,-0.0055737117782813,0.01005505460384395,0.9868063743000639
2016-05-23,1,0.002959582077772513,0.003241556502457675,-0.0055737117782813,0.009120432707824493,0.987276049160278
2016-05-25,1,0.003658095031046424,0.00399453072141465,-0.005620302603850876,0.0066303066743935895,0.9866264643987418
2016-05-27,1,0.002888701218033675,0.00314792055223886,-0.00588600315588447,0.0066303066743935895,0.9820373414277381
2016-06-01,1,0.002268423845824841,0.0023644469020013166,-0.005620302603850876,0.009878707654960298,0.9816848223752215
2016-06-03,1,0.0026132782085332047,0.002764402041272806,-0.005600409747777322,0.009729049147640594,0.9817655228033372
2016-06-07,1,0.0053029704969066605,0.005815348830066977,-0.006222371072919716,0.009640426654623124,0.9850341217466277
2016-06-09,1,0.00414952103293352,0.004491940269035537,-0.004386545142890915,0.011465377936920136,0.9859785332864014
2016-06-13,1,0.003114617950566192,0.0032686536281959803,-0.003519231182651667,0.011465377936920136,0.98639103319475
2016-06-15,1,0.0015185262304690296,0.0015257167037328189,-0.004386545142890915,0.011465377936920136,0.9862911545350234
2016-06-17,1,0.003939100488727503,0.004280865933949137,-0.004969846735564583,0.011465377936920136,0.9860135663273468
2016-06-21,1,0.0006985934272090058,0.000808642821046631,-0.004969846735564583,0.012641397469397398,0.9845127829192172
2016-06-23,1,0.002919970547844413,0.0031596079415160162,-0.0032898026591461588,0.011465377936920136,0.9854079205560293
2016-06-27,-1,-0.000884999045122072,-0.0005988970066449402,-0.0013066344391029065,0.011465377936920136,0.9899878759494598
2016-06-29,0,-0.0001625428790305017,6.126082807306188e-05,-0.002495611973121502,0.008992852059282387,0.9915854158119551
2016-07-01,-1,-0.0007067589472257551,-0.00037334767804369606,-0.0013066344391029065,0.007464378254432954,0.9919131764089698
2016-07-06,-1,-0.0009162385470447816,-0.0005389543433977721,-0.0013066344391029065,0.005220607792774021,0.9923176656021532
2016-07-08,1,0.0002610896401061269,0.000464156171271257,-0.0014480292676780585,0.005220607792774021,0.9930443987136197
2016-07-12,1,0.000613951846265195,0.0007456530302700065,-0.001304383164734817,0.005220607792774021,0.9931084806642061
2016-07-14,1,0.000527880283421849,0.0006331544609065229,-0.0020144722419033908,0.005220607792774021,0.9931821404423081
2016-07-18,1,0.000194625938749291,0.0003477250721059525,-0.0018218147112932968,0.005220607792774021,0.9932941271822415
2016-07-20,1,0.0018928209280198042,0.00198401399064252,-0.002032181883042229,0.0035237135784143437,0.994872850753895
2016-07-22,1,0.0023815077684105584,0.0025588073652402636,-0.002032181883042229,0.0033708663990754746,0.9951595318359457
2016-07-26,1,0.0025711737455846153,0.002795932363050894,-0.002222048305451683,0.00339419083349686,0.9947558129520366
2016-07-28,1,0.0033013609442652542,0.003519340627906168,-0.002222048305451683,0.00339419083349686,0.9946080216558851
2016-08-01,1,0.0030644831451035054,0.0032218488134959076,-0.0026409981229948572,0.0045896776821076415,0.9943317043695814
2016-08-03,1,0.0029723172583888662,0.0031222684102417985,-0.002951510787871363,0.0032403734384557513,0.9937731464093265
2016-08-05,1,0.003071280268103724,0.0031865972879131198,-0.002951510787871363,0.0032403734384557513,0.9944383687500372
2016-08-09,1,0.0031143637908569092,0.0032838133186895925,-0.0037448498221400086,0.00315749342426236,0.9931048526232916
2016-08-11,1,0.0028418328643145174,0.0030096143282881127,-0.004617044448172807,0.00315749342426236,0.9928116493834448
2016-08-15,1,0.002464285356623187,0.002586549077869124,-0.007209764728659768,0.004441592728598839,0.992245003610716
2016-08-17,1,0.0019361986578251677,0.0019922859308937053,-0.004617044448172807,0.0060627065336923665,0.9924136397434711
2016-08-19,1,0.0022759232339519702,0.002402391477277775,-0.004617044448172807,0.0060627065336923665,0.9922086650505405
2016-08-23,1,0.002235567092129337,0.002353421204028769,-0.004617044448172807,0.0060627065336923665,0.9921251516354186
2016-08-25,1,0.0017525024351232048,0.0017632569100771369,-0.006051327317584022,0.006509390254999976,0.9914379329898355
2016-08-29,1,0.0007874786977245398,0.0010003223394677617,-0.006858901503168159,0.007439391614895397,0.9901563252009453
2016-08-31,1,0.0001424735246733943,0.00048457756385642827,-0.006051327317584022,0.00792457273774316,0.9903554768453552
2016-09-02,0,-3.777029012144218e-05,0.00031584828713067436,-0.006051327317584022,0.009221521061858686,0.9902001493465596
2016-09-07,-1,-0.0014210266292690537,-0.000860032164611006,-0.005304316499715524,0.009221521061858686,0.9915472905370539
2016-09-09,-1,-0.0023860133679792514,-0.0017184445047753938,-0.0046164474996773855,0.009221521061858686,0.9919427922289085
2016-09-13,-1,-0.0017826218511574655,-0.0013131171774682796,-0.005376560345690562,0.009221521061858686,0.9922164524929991
2016-09-15,-1,-0.0009515987561187553,-0.0006448413797847065,-0.0066349236968391125,0.006447945969229469,0.9908806063094646
2016-09-19,-1,-0.0007908506427679617,-0.0005196422161918121,-0.0066349236968391125,0.006447945969229469,0.9907769968097836
2016-09-21,-1,-0.0010646941243829828,-0.0007085738286540818,-0.0066349236968391125,0.009633664929103745,0.9903559018788481
2016-09-23,-1,-0.0016166478943544689,-0.0011299723905709414,-0.0066349236968391125,0.006950272341143918,0.9912992581862937
2016-09-27,-1,-0.001700523247539467,-0.0012734889667811646,-0.0066349236968391125,0.005906181156490694,0.9921831498572242
2016-09-29,-1,-0.0005872508369865041,-0.00013929739402733466,-0.0066349236968391125,0.0070609178731052035,0.987105887059204
2016-10-03,1,0.00015532711231218508,0.00042657055609826924,-0.0066349236968391125,0.010004829048894237,0.9849453514121737
2016-10-05,1,0.0006613277163451511,0.0008375522831372639,-0.009555488562831737,0.010004829048894237,0.984164872592558
2016-10-07,0,-0.00014445556529993288,0.00017123959009821552,-0.011672029392098028,0.012192072341687052,0.9832867317058621
2016-10-11,-1,-0.0007879436100725345,-0.0004114342538146735,-0.009704303156121336,0.012192072341687052,0.9834006680841574
2016-10-13,-1,-0.002112162258040157,-0.0016099870275444494,-0.00357379917774319,0.01799202671937073,0.9843090618456148
2016-10-17,-1,-0.0014833602057933457,-0.0011019224647418674,-0.0034218013447137726,0.01799202671937073,0.9839502064647055
2016-10-19,-1,-0.0010195420089453612,-0.0006783100877641551,-0.0052587236584617034,0.01799202671937073,0.984413975866623
2016-10-21,-1,-0.0011738614512630423,-0.0008204175430591393,-0.006094137218923773,0.01799202671937073,0.9835877692077852
2016-10-25,-1,-0.0013966701858669941,-0.0010313204961025656,-0.0033220673723150422,0.01799202671937073,0.9837170678137412
2016-10-27,1,0.000658712200870438,0.0006633628060763339,-0.0033220673723150422,0.010970910171781263,0.9897152910774322
2016-10-31,1,0.0021736049633967977,0.002314027186742389,-0.006094137218923773,0.009390171459785115,0.9918461818031263
2016-11-02,1,0.0009221639125506375,0.0009632422335762523,-0.006338157699091524,0.009390171459785115,0.9916484107062538
2016-11-04,1,0.0011667524430472656,0.0011777199735844295,-0.0033220673723150422,0.009381928342183907,0.9927095066904312
2016-11-08,1,0.0012747325512944547,0.0012807959947715411,-0.0033220673723150422,0.008683427428628494,0.9931646060600925
2016-11-10,1,0.002117313940376534,0.002222701066414764,-0.0032809668293464055,0.008683427428628494,0.9934898655004867
2016-11-14,1,0.0032965604851604865,0.0035503512022916346,-0.006184368067135058,0.0081742235605468,0.992855403802298
2016-11-16,1,0.001662302734611801,0.0017627020373564516,-0.00430634521041849,0.008769769526743798,0.9930975553831207
2016-11-18,1,0.0022792227816470032,0.002321647942769796,-0.0035371757394263696,0.00846461859714214,0.9935829083731843
2016-11-22,1,0.0027550477290851807,0.0028737913745658676,-0.003848751888389512,0.00846461859714214,0.9935070708236023
2016-11-25,1,0.0026424789577515024,0.002744690169881223,-0.00695299479737495,0.008701791326548308,0.9926183392046004
2016-11-29,1,0.0027039557377158945,0.0028931741714461716,-0.006822559451781181,0.008701791326548308,0.9926285828606727
2016-12-01,1,0.0015790811696431257,0.0015831500484931051,-0.002758817926761931,0.008701791326548308,0.9935912254239722
2016-12-05,1,0.0015374698189137364,0.0015391406533675847,-0.0022904326987465283,0.008151564160481635,0.993995167502329
2016-12-07,1,0.0014291940974719072,0.0014601851885806358,-0.003848751888389512,0.008151564160481635,0.9936644905512148
2016-12-09,1,0.002750478248513464,0.0029709011255125315,-0.003848751888389512,0.006495431024002608,0.9939489163204882
2016-12-13,1,0.0029648289334416934,0.00323790299227791,-0.003848751888389512,0.004910961976019459,0.9940417552122641
2016-12-15,1,0.003772106102902276,0.004174912366953314,-0.006425316569582826,0.002874581277021355,0.9935880317752873
2016-12-19,1,0.0033812719444295688,0.003698517810958849,-0.00409024313158951,0.00313260093515919,0.993789877716001
2016-12-21,1,0.003657452417988276,0.0040092573345747555,-0.006854337120710913,0.0011326865412131463,0.9934051550418243
2016-12-23,1,0.0033116768437791463,0.0036107847838714015,-0.004004035459970743,0.00313260093515919,0.9934120955742075
2016-12-28,1,0.002674057383897371,0.002986802052381658,-0.004004035459970743,0.004910961976019459,0.9897636494423612
2016-12-30,1,0.0027417772730869375,0.0030897030889725898,-0.006392321342829372,0.00313260093515919,0.9892567524204929
2017-01-04,1,0.002623453124747672,0.0029194828547307395,-0.006854337120710913,0.004128923642315655,0.9881074821387253
2017-01-06,1,0.0022766275764726706,0.0025017541586919577,-0.006392321342829372,0.009182393277875043,0.9882627781666287
2017-01-10,1,0.0018464055661569537,0.001979368807685412,-0.006392321342829372,0.0116344723120539,0.9879732189513674
2017-01-12,1,0.0015681673296450256,0.0016692407586531574,-0.005242912177381594,0.0116344723120539,0.9882251716569589
2017-01-17,1,0.0011367746397796105,0.0011973443084871793,-0.003540114319253135,0.0116344723120539,0.9885042945210752
2017-01-19,1,0.0012149940468606892,0.0012648233662451058,-0.003540114319253135,0.013331952679464376,0.9883679069081498
2017-01-23,1,0.0007541965548665606,0.0007594399442761,0.0005044050277553827,0.013331952679464376,0.988261680516756
2017-01-25,1,0.0014486631402815871,0.0014925797880096009,-0.0021905333570818803,0.01220407666213315,0.9895046610447888
2017-01-27,1,0.0006398126543275208,0.0006697186388266159,-0.0021905333570818803,0.007555010265520648,0.9937771119018054
2017-01-31,-1,-0.00047650719266425286,-0.00024600944309184495,-0.0005766194692770714,0.012052666218943582,0.9933198127764306
2017-02-02,-1,-0.0009208767164879384,-0.0005960998702005491,-0.0005766194692770714,0.007555010265520648,0.9932885322868189
2017-02-06,-1,-0.0008254674580575207,-0.0005055479706499721,-0.001677741574279954,0.007555010265520648,0.9929122279741037
2017-02-08,1,0.00046495967990538956,0.0006256593601927675,-0.002880289425345058,0.006129979607519176,0.9934360175141349
2017-02-10,1,0.0003345020819666344,0.0005136655847208662,-0.002880289425345058,0.007583972384978515,0.9929083261807188
2017-02-14,1,0.0006027178225748676,0.0007477158288203656,-0.004567482546365511,0.00994122236674011,0.992550725978013
2017-02-16,1,0.001451921529376597,0.001487381776735993,-0.004567482546365511,0.00918654991790534,0.9925557120473381
2017-02-21,1,0.0023176208928327624,0.0024368912826033405,-0.00514540278706797,0.007208476208479245,0.9919110382957808
2017-02-23,1,0.001858741011053898,0.0019308638066667019,-0.00514540278706797,0.007208476208479245,0.9920923769743616
2017-02-27,1,0.0016618181001693713,0.001718136124963372,-0.0030291071979597324,0.007208476208479245,0.9922751079290935
2017-03-01,1,0.0018087542835310394,0.001939813841067233,-0.005742795969107133,0.006259691198921358,0.9911655633467644
2017-03-03,1,0.0009353617548104382,0.0009652099272382716,-0.0016651007015425338,0.006259691198921358,0.9922893007845497
2017-03-07,1,0.0008020278469842864,0.0009198470291770418,-0.005742795969107133,0.0059669469559054935,0.9924736440775718
2017-03-09,-1,-0.0005355301037998472,-0.00018026199268667876,-0.008349665090064786,0.004598180830352088,0.9925462802530995
2017-03-13,0,-5.419264427448034e-06,0.00029057473720477795,-0.009289857630125622,0.0030463895397485827,0.992908757655665
2017-03-15,1,0.00034775989063243467,0.0005768030708281223,-0.009925866949189994,0.0018091219948519093,0.9928962474694419
2017-03-17,1,0.0005066569565423278,0.0007297515833638908,-0.009925866949189994,0.000854010759416183,0.9928107760114634
2017-03-21,-1,-0.0006986699696872251,-0.00030625860471924734,-0.009289857630125622,0.0018091219948519093,0.9938580011689098
2017-03-23,-1,-0.00040782561301547866,-0.00019933471828411232,-0.009289857630125622,0.0018091219948519093,0.9935948328584387
2017-03-27,1,0.0006015557441007274,0.0006520442247509871,-0.009289857630125622,0.0029285610822385733,0.9928233059374749
2017-03-29,-1,-0.0007817034550628391,-0.0006204476235986553,-0.009289857630125622,0.0020823387752207413,0.9909533457073088
2017-03-31,-1,-0.0007421166278746107,-0.0005981743230531138,-0.009925866949189994,0.002336799873630838,0.9896795073757932
2017-04-04,-1,-0.0008458377216529593,-0.0007208980579557873,-0.00712604428669593,0.002336799873630838,0.9904812783179665
2017-04-06,-1,-0.0006940779319864098,-0.0005962820820598957,-0.004976505958751299,0.00449779388240962,0.9899326274841007
2017-04-10,-1,-0.002401932015891084,-0.002203361926521495,-0.004155686289939283,0.008556193856701318,0.9894120741175192
2017-04-12,-1,-0.0010478343182348416,-0.0009284003266560757,-0.004155686289939283,0.008556193856701318,0.989178934728822
2017-04-17,-1,-0.0007301026319023999,-0.0006349458685391857,-0.004867095308534308,0.008556193856701318,0.9886606953519571
2017-04-19,-1,-0.0007837796804017164,-0.0006979612767731736,-0.006112171652538807,0.008556193856701318,0.9876703503268126
2017-04-21,-1,-0.0006442977538623537,-0.0005792660331313668,-0.007983804953759308,0.00942379727627924,0.986879508292489
2017-04-25,-1,-0.0005807252253721563,-0.0005058480578994217,-0.012809851003145897,0.00942379727627924,0.986019423974073
2017-04-27,-1,-0.0020424705327166818,-0.0017824731935438683,-0.007655573003108334,0.00942379727627924,0.989236720423115
2017-05-01,-1,-0.0020436769000688956,-0.0018008061688145518,-0.004867095308534308,0.008556193856701318,0.9902237934049612
2017-05-03,-1,-0.0018157955219521562,-0.001613733532427115,-0.004867095308534308,0.00942379727627924,0.9894874005051083
2017-05-05,-1,-0.0013150586849465544,-0.0011648399117090927,-0.0059975701102216415,0.008556193856701318,0.9901814821369948
2017-05-09,-1,-0.0010125932961200152,-0.0009054333065133303,-0.007493892479327925,0.006660852311964834,0.9906278608341339
2017-05-11,-1,-0.0010587866873678796,-0.0009711505570934003,-0.007425709744868901,0.0076015862885189965,0.9898519143826654
2017-05-15,-1,-0.0004417503342742669,-0.0004126228374583305,-0.007420518852768726,0.0076015862885189965,0.9902962641739499
2017-05-17,-1,-0.001454492988711695,-0.0013102946733521135,-0.005095307756827336,0.0076015862885189965,0.9914650959650183
2017-05-19,-1,-0.0012399246268144457,-0.0011298262218651135,-0.00368371487019284,0.007872114957434435,0.9921040220338165
2017-05-23,-1,-0.0022740243767476113,-0.0020847763239159644,-0.00368371487019284,0.006660852311964834,0.9927493098702743
2017-05-25,-1,-0.0011081847066358292,-0.0010046639189002374,-0.00368371487019284,0.006970668426277427,0.9931479874813467
2017-05-30,-1,-0.0008529312314832687,-0.0007916299790986813,-0.006323966879575981,0.0040463428481568794,0.9928607417645362
2017-06-01,-1,-0.0005636851404385774,-0.0005251044791586937,-0.00788359812368167,0.0040463428481568794,0.9926122758213719
2017-06-05,-1,-0.0007906735343756645,-0.0007225619149864367,-0.00788359812368167,0.006443344423260743,0.9927061341111774
2017-06-07,-1,-0.0008929913317322211,-0.0008165142173094334,-0.00788359812368167,0.008200549295492002,0.9921929338364265
2017-06-09,-1,-0.0007421513394274738,-0.0006723670850338669,-0.0054234348235484,0.006443344423260743,0.9935009094387797
2017-06-13,-1,-0.00046094981970155934,-0.00042778366446144143,-0.0043120192889230975,0.005932353382074061,0.9936687856851626
2017-06-15,-1,-0.0007854544745591637,-0.0007110044545734505,-0.008548526283233666,0.005932353382074061,0.9918464755330659
2017-06-19,0,-2.2336124711923186e-05,4.974570853903142e-05,-0.008548526283233666,0.005932353382074061,0.99139129684318
2017-06-21,-1,-0.0010260787833162367,-0.0009097336789699235,-0.007529990799589838,0.006509935387798873,0.9914280957370492
2017-06-23,-1,-0.0009874361248322092,-0.0008588122863499408,-0.007529990799589838,0.005932353382074061,0.9918283025557928
2017-06-27,-1,-0.0011218432821833682,-0.0010021644486164064,-0.0027875216682247553,0.006509935387798873,0.9918819598481307
2017-06-29,-1,-0.0006723065791400315,-0.0006017733383172576,-0.0027875216682247553,0.006509935387798873,0.9884017810085265
2017-07-03,-1,-0.0031750646173452635,-0.002908317075375304,-0.004342649210830827,0.006509935387798873,0.9875980710005049
2017-07-06,-1,-0.003381405540361188,-0.003114316673327521,-0.004342649210830827,0.005586221799592765,0.9875247086022879
2017-07-10,-1,-0.0028118128733523842,-0.0026328333745728135,-0.004342649210830827,0.005586221799592765,0.9878238023391694
2017-07-12,-1,-0.001925768843472795,-0.0018806516465854474,-0.00802556927504176,0.0036391578244483005,0.9881733307465596
2017-07-14,-1,-0.0015884292606185666,-0.0015618152352776425,-0.004342649210830827,0.005458031415120131,0.9886626527478949
2017-07-18,-1,-0.001080146803024539,-0.0010018150283241315,-0.004828204785589171,0.005458031415120131,0.9893699734224236
2017-07-20,-1,-0.0011123274435070741,-0.0010375070850103117,-0.007176464160662694,0.0036391578244483005,0.9895381662636002
2017-07-24,-1,-0.0010660726464870123,-0.0009699999422947967,-0.008799168346948804,0.0036391578244483005,0.9890413861731177
2017-07-26,-1,-0.0009235241060480538,-0.0008402117307806879,-0.009363564401791537,0.0036391578244483005,0.9888977487200106
2017-07-28,1,2.383110572641979e-06,0.00020323940157036563,-0.008157251398622646,0.0036391578244483005,0.9928891362104191
2017-08-01,-1,-0.0003595076522070995,-0.00019408463067105463,-0.007364596178943604,0.002845302498698156,0.9933020348291632
2017-08-03,-1,-0.00047497731937829656,-0.00030150095055877884,-0.004563986379029491,0.006486625904750409,0.9936273148370486
2017-08-07,-1,-0.00038774883224887,-0.00019471262311088493,-0.007364596178943604,0.006486625904750409,0.9926873198511381
2017-08-09,-1,-0.0006753865609292654,-0.0003851061393313923,-0.007157074507924616,0.006486625904750409,0.9928609509350375
2017-08-11,-1,-0.0012475834892473978,-0.001175120967242828,-0.0068168383100456476,0.006486625904750409,0.9932747707136237
2017-08-15,-1,-0.0009970461943080995,-0.0008726258676958966,-0.007157074507924616,0.002396635367978041,0.993591187050198
2017-08-17,-1,-0.0012382185918634236,-0.0011501316309413328,-0.007061667063867251,0.003940509025351739,0.9936130396991188
2017-08-21,-1,-0.0011860457775527277,-0.0011016901411330638,-0.0035566702122624065,0.003940509025351739,0.9940426217339136
2017-08-23,-1,-0.001983259428874805,-0.0019753979851602032,-0.0015183367502630094,0.003940509025351739,0.9938718778389578
2017-08-25,-1,-0.001887778470954116,-0.0018456434529132266,-0.0035566702122624065,0.003940509025351739,0.9936112277856716
2017-08-29,-1,-0.0018870187041093544,-0.001820935948811026,-0.0035566702122624065,0.006561076121333977,0.9927496641708743
2017-08-31,-1,-0.0015209113054911278,-0.0014689148192892905,-0.006879937919851323,0.003085993618532451,0.9931976485682276
2017-09-05,-1,-0.0028488573824231225,-0.002620550054616164,-0.003651572303420536,0.00426424641121297,0.9901982242291447
2017-09-07,-1,-0.0029672422407967273,-0.0027392652580529742,-0.00188263783634633,0.008895691305224275,0.9893449234344606
2017-09-11,-1,-0.002467218154622423,-0.0023061394520127593,-0.007294484089922746,0.006596101036562357,0.9893191231910813
2017-09-13,-1,-0.0027647376628617167,-0.002589263500953348,-0.004432937187085822,0.006596101036562357,0.9894459764898336
2017-09-15,-1,-0.002395155902259842,-0.0022809296521902845,-0.004432937187085822,0.00783176112560724,0.9892652920771288
2017-09-19,-1,-0.0012399564233002208,-0.0011813499962849603,-0.007294484089922746,0.00783176112560724,0.989115126337197
2017-09-21,-1,-0.0008405630021452922,-0.0008271352050940536,-0.007294484089922746,0.0068955738832519285,0.9890608653456503
2017-09-25,-1,-0.000629800333588321,-0.0006208477069091045,-0.007322917713356894,0.0068955738832519285,0.9889280411385726
2017-09-27,1,9.803581825767213e-06,0.0001330768842959033,-0.007322917713356894,0.00657318984404239,0.9897230236411751
2017-09-29,1,0.0003517646711469675,0.0005424755700841962,-0.008138059092466373,0.0077630275480473345,0.9872578124994079
2017-10-03,-1,-0.0005241817754296002,-0.0005069460814770101,-0.008138059092466373,0.0077630275480473345,0.9892988955002723
2017-10-05,1,0.00043122116532311595,0.0005784699451304662,-0.008138059092466373,0.006036117304569358,0.9900225781940142
2017-10-09,-1,-0.0009266142838676211,-0.0008481437385237734,-0.0060930697676608095,0.006036117304569358,0.990547817060063
2017-10-11,-1,-0.0006305480330658593,-0.0005872835206066558,-0.0060930697676608095,0.0077630275480473345,0.9902736336552451
2017-10-13,-1,-0.0005266673113176123,-0.0004906753330082218,-0.008380122168158224,0.006036117304569358,0.9902384778736971
2017-10-17,-1,-0.0005175577852414656,-0.000497806078847084,-0.00667545366236859,0.007961234862784917,0.9901529782383562
2017-10-19,0,-2.7985469956822654e-06,4.784933602985667e-05,-0.01017895408601395,0.00966036023158963,0.98923134405576
2017-10-23,1,3.972773761628734e-05,0.00011897173326038895,-0.008895205082046486,0.00966036023158963,0.9895971899892976
2017-10-25,1,0.00034840948215694587,0.00046022505936775917,-0.008895205082046486,0.00966036023158963,0.9897886525329946
2017-10-27,1,0.0005044587922559749,0.0006244150080942301,-0.006247537327712769,0.009539416647838375,0.992245994293665
2017-10-31,1,0.0008577861409616802,0.001040423888601241,-0.004014941720190887,0.009709583401225902,0.9912548206003235
2017-11-02,1,0.0008625488881675796,0.0011377856045389745,-0.004737632115506058,0.010667542432448319,0.9895612013062383
2017-11-06,1,0.0004960762668780063,0.0007071935412538489,-0.003226665135509877,0.010667542432448319,0.990166784691913
2017-11-08,1,0.0010832596933763742,0.0013148415174335524,-0.004737632115506058,0.010304711681194557,0.9901476672615984
2017-11-10,1,0.0002779170538570088,0.0004519494674432664,-0.0018952104560823195,0.010304711681194557,0.9903357727508385
