JNU-Tangyin/eata/results/Batch4_SP500/Batch4_SP500-BR.csv
Date,Action,Predicted_Q25,Predicted_Q75,Actual_Q25,Actual_Q75,RL_Reward
2010-12-14,0,0.0,0.0,-0.006105278073780744,0.008519733291453129,0.991930655148908
2010-12-16,0,0.0,0.0,-0.005911942741068171,0.00886956119060236,0.9917683661539254
2010-12-20,0,0.0,0.0,-0.005500119015655613,0.01061565561022515,0.9915311985160368
2010-12-22,0,0.0,0.0,-0.005500119015655613,0.01061565561022515,0.9912426285337896
2010-12-27,-1,-0.1748676346813528,-0.17447136516126183,-0.005500119015655613,0.01061565561022515,0.8492622752676159
2010-12-29,-1,-0.000604937437191069,-0.0004628957936430645,-0.005500119015655613,0.01061565561022515,0.9912247942156467
2010-12-31,0,0.0,0.0,-0.005880341611896121,0.007652231416328048,0.9913668348579661
2011-01-04,0,0.0,0.0,-0.0053405421770420765,0.006002780947056883,0.9924002269387471
2011-01-06,0,0.0,0.0,-0.005880341611896121,0.006002780947056883,0.992104234391645
2011-01-10,0,0.0,0.0,-0.008046347769020029,0.007009133864768448,0.9887356472311134
2011-01-12,0,0.0,0.0,-0.008046347769020029,0.009504165223998016,0.9871683842415047
2011-01-14,-1,-0.0007710170992149427,-0.0007417457283526448,-0.008046347769020029,0.009908818808015828,0.9874052742446287
2011-01-19,0,0.0,0.0,-0.00701400539620979,0.008444960349517838,0.9885329691737355
2011-01-21,0,0.0,0.0,-0.004613454553769785,0.009407417401852532,0.9885348768078631
2011-01-25,1,0.0033259579876781993,0.003399283298012169,-0.008046347769020029,0.008444960349517838,0.9881930416870591
2011-01-27,1,0.0014137462560772703,0.0015920252074344214,-0.00701400539620979,0.009661647622299086,0.987989210593858
2011-01-31,1,0.0011943504353741866,0.0013284538202573176,-0.007646481641836547,0.009661647622299086,0.9876135511597495
2011-02-02,1,0.0014431841437372527,0.0016358100697065727,-0.007646481641836547,0.011333290523425323,0.9867972482374423
2011-02-04,1,0.0012735319541563434,0.0014366996821006694,-0.011245009163406676,0.011333290523425323,0.9858642530737265
2011-02-08,1,0.0031509828219589424,0.003576238595365566,-0.007781767064483908,0.009661647622299086,0.9892909452636173
2011-02-10,1,0.004389141834822703,0.005025766445414559,-0.013553043787442499,0.00901733690353155,0.9887195868964609
2011-02-14,1,0.004166103731169809,0.004716552556733114,-0.013553043787442499,0.003496917289150559,0.988185217636058
2011-02-16,1,0.004584711427796456,0.005219475758568143,-0.01366958426074183,0.0039597231095798695,0.98695973937713
2011-02-18,1,0.004494216649074314,0.005095476862735678,-0.01366958426074183,0.002943899257467613,0.9872771851518197
2011-02-23,1,0.0035963130325598705,0.004082591759594515,-0.013553043787442499,0.002943899257467613,0.9888775576249224
2011-02-25,1,0.004396720921172672,0.004984848048807393,-0.013553043787442499,0.0019650789460996768,0.9885835006153202
2011-03-01,1,0.0034548121925765344,0.003886621197573054,-0.011707002840873178,0.002943899257467613,0.9893970480412204
2011-03-03,1,0.004031319534124186,0.004518285101481622,-0.011707002840873178,0.005793415962916309,0.9881417245275559
2011-03-07,1,0.002401114741990264,0.002621475279293661,-0.00434462164616967,0.00804259799237342,0.9899038460412515
2011-03-09,1,0.0015326333380542238,0.0015650279468176864,-0.00434462164616967,0.008942603532165506,0.9898114465265029
2011-03-11,1,0.00010466630491619527,0.00024131587125079121,-0.003805903079878986,0.008942603532165506,0.9914384594850855
2011-03-15,1,2.7090033326841625e-05,0.00012883899587050188,-0.0035577717975616863,0.008942603532165506,0.9919285058266287
2011-03-17,-1,-0.00023443302576684367,-0.00011154235518730558,-0.003344363792545166,0.007848850551675364,0.99318010403154
2011-03-21,0,-4.73609189906391e-06,7.472378831714191e-05,-0.003344363792545166,0.007848850551675364,0.9929294836852517
2011-03-23,0,-4.7071684347588076e-05,3.421978574942133e-05,-0.0025104199000909938,0.007848850551675364,0.9927922092514827
2011-03-25,1,0.00020294836578401215,0.0002658556877258468,-0.0025104199000909938,0.005518394405891282,0.9933327823716445
2011-03-29,1,0.0006269966040902087,0.0006275863578906128,-0.0008742683824325334,0.00781403393389471,0.993257163973556
2011-03-31,1,0.0015193624413956427,0.0016004396956709765,-0.0025104199000909938,0.003838512472513139,0.995204973952511
2011-04-04,1,0.0016782223607465722,0.0017804927012060362,-0.0008742683824325334,0.0031939101939050312,0.9958486157090702
2011-04-06,1,0.0017489838541755928,0.0018454188393452714,-0.0041089372534630665,0.0027445604762187915,0.9954452057213785
2011-04-08,1,0.0012096272595863698,0.0012237508047882564,-0.0005463203550536668,0.0038258602811840465,0.9952953429093787
2011-04-12,1,0.0011782841941527702,0.0011954983999463847,-0.005678470836914133,0.0038258602811840465,0.9936286320231276
2011-04-14,1,0.0007097616207463961,0.0007864186540442394,-0.007373283652960022,0.004803619732175098,0.9927346611889355
2011-04-18,1,0.00015210758193226357,0.0003044496679770603,-0.007373283652960022,0.004803619732175098,0.9926167493645147
2011-04-20,1,0.0004046968320570326,0.0005238309665840054,-0.007373283652960022,0.005745623060720712,0.992419108114062
2011-04-25,-1,-0.00036388282420047983,-9.076721194685314e-05,-0.008558244567493723,0.005745623060720712,0.9918903068830698
2011-04-27,1,0.001444113640785026,0.0014796436187290707,-0.008558244567493723,0.002871887373850694,0.9922652071967438
2011-04-29,1,0.001163310978764407,0.0011798652018361706,-0.007399072658054845,0.00536081028548875,0.9925432124906532
2011-05-03,1,0.0013578569813733937,0.0014194133159644152,-0.007399072658054845,0.00536081028548875,0.9925489700596017
2011-05-05,1,0.0007982939506698072,0.0008219456832239228,-0.008217678108798376,0.007307190322859999,0.9919894472351318
2011-05-09,1,0.0011298786764228114,0.0011328523171024094,-0.008885614544603166,0.0037395215298794216,0.9923164798615299
2011-05-11,-1,-0.00045586202558285573,-0.0002489409902921248,-0.007209538495081993,0.0037395215298794216,0.9932266895764801
2011-05-13,-1,-0.0009485884984915536,-0.0006327943513920103,-0.008885614544603166,0.002331457788647584,0.9933841291959775
2011-05-17,-1,-0.0016865130536638663,-0.0012785033370354077,-0.008885614544603166,0.0037395215298794216,0.9922843619411975
2011-05-19,-1,-0.0010060509552009406,-0.0007041328257138666,-0.008885614544603166,0.0037395215298794216,0.9912385148124216
2011-05-23,-1,-0.001473127853311922,-0.0011293456888928244,-0.00566231668259514,0.007307190322859999,0.9907235513863247
2011-05-25,-1,-0.0011583542576853285,-0.0008565382525282879,-0.00566231668259514,0.005643580843742571,0.9907995534654426
2011-05-27,-1,-0.0008794725967534083,-0.0006180334873233213,-0.00566231668259514,0.004584310122079082,0.9910059624736595
2011-06-01,-1,-0.0006366898638917655,-0.0004181501847384559,-0.00566231668259514,0.008374676749903002,0.9901587492549119
2011-06-03,-1,-0.0009216727654915413,-0.0006600812501976876,-0.003463115732286668,0.008872802057348875,0.9904068062907537
2011-06-07,-1,-0.0012214140013877871,-0.0009356280411313044,-0.002803522560829306,0.00988652209855368,0.9902065210988514
2011-06-09,-1,-0.0015607906533822513,-0.001258848701332204,-0.0006864927333510072,0.00988652209855368,0.9899242434381255
2011-06-13,-1,-0.0020121224464369446,-0.0016734871999029267,-0.00010393265956736415,0.00988652209855368,0.9896387321753963
2011-06-15,-1,-0.001957414804971443,-0.0016001594124235245,-0.00010393265956736415,0.008013744291103056,0.990707488459792
2011-06-17,-1,-0.0008797226357294348,-0.0006608767443200827,-0.002954561039435824,0.006798987251981946,0.9923282142445041
2011-06-21,-1,-0.00042653993745789905,-0.0002528832210359197,-0.002954561039435824,0.006798987251981946,0.9927314013500758
2011-06-23,-1,-0.00028183263824718815,-0.00011885132176252836,-0.002954561039435824,0.006798987251981946,0.9930260091409562
2011-06-27,-1,-0.00035433917126748116,-0.00018282445721040208,-0.005482326954948608,0.006798987251981946,0.9926921786428784
2011-06-29,1,0.00017296025071086802,0.00028988306284803743,-0.007748783493081684,0.0036730027486968127,0.9932174819085757
2011-07-01,1,0.0017183812769814822,0.0018744196661427783,-0.00875590351039248,0.0014643381629059244,0.9927673876523493
2011-07-06,1,0.0022482123557949867,0.002517698612461104,-0.009547384231815722,0.0014643381629059244,0.9910448236223338
2011-07-08,1,0.0022721520282942237,0.002577888894400406,-0.01222631288650401,0.0008426568661018082,0.988909660732672
2011-07-12,1,0.0017971417981600718,0.0020530072045018026,-0.01222631288650401,0.0014643381629059244,0.9854718567947132
2011-07-14,1,0.0016067355421929001,0.001850729252763127,-0.01222631288650401,0.0014741422634739422,0.982329566921858
2011-07-18,1,0.0007540144639278932,0.0008373968785717475,-0.011320722880433754,0.0058357954574911625,0.9815689923094896
2011-07-20,1,0.0014593937114917932,0.0016789303567592805,-0.012456979476251274,0.0014736094861251682,0.9811825172064359
2011-07-22,1,0.0013247331754678686,0.00149622968886334,-0.024720411028426238,-0.00271894951881869,0.9777274404441291
2011-07-26,1,0.001238510601688681,0.0014382940583440853,-0.024720411028426238,0.012538075135877466,0.9769072604950167
2011-07-28,1,0.0004046954809974674,0.00043633363142749255,-0.024720411028426238,0.012538075135877466,0.9762641699896791
2011-08-01,0,-1.4361513821605442e-05,9.868523714353481e-06,-0.024720411028426238,0.016272066900928722,0.9752365291317024
2011-08-03,-1,-0.0011616285066512854,-0.0009442049885403467,-0.02329569161315886,0.016272066900928722,0.9765016583958563
2011-08-05,-1,-0.0032387774890531356,-0.002754411020504552,-0.01548605063362505,0.016272066900928722,0.9785028481672285
2011-08-09,-1,-0.004098721604121487,-0.0035039712834103167,-0.012033651811662681,0.016272066900928722,0.9815553972763974
2011-08-11,-1,-0.0036030392313752754,-0.00307154214317335,-0.014626045332388649,0.012807910715364024,0.9836080795329349
2011-08-15,-1,-0.0033180927599575282,-0.0028136966241097076,-0.014626045332388649,0.0099702202720096,0.9846862613404781
2011-08-17,-1,-0.0035392482773139045,-0.003025418374169463,-0.014626045332388649,0.014693426863312993,0.9828700765117887
2011-08-19,-1,-0.005637424695839829,-0.004893170920005439,-0.00548471727844076,0.014693426863312993,0.9851879363021265
2011-08-23,-1,-0.003193565123055326,-0.002812708793445748,-0.007948020891531293,0.010526994221228377,0.986822665409722
2011-08-25,-1,-0.0035607021019094815,-0.003150507603147448,-0.007948020891531293,0.010526994221228377,0.9868191894145276
2011-08-29,0,0.0,0.0,-0.007948020891531293,0.008302472971445199,0.9873425747790753
2011-08-31,0,0.0,0.0,-0.014626045332388649,0.007477101738380039,0.9868193387943811
2011-09-02,0,0.0,0.0,-0.01981083121725221,0.007477101738380039,0.984726687911212
2011-09-07,-1,-0.0019249482046446867,-0.0017195325196456067,-0.01981083121725221,0.007477101738380039,0.9844495887438779
2011-09-09,-1,-0.004177567098939728,-0.0036946675870516707,-0.009411387309396902,0.009834746719001832,0.9843709431649399
2011-09-13,-1,-0.003318160220701274,-0.002954985811412613,-0.009411387309396902,0.016216572191588167,0.9831850253877621
2011-09-15,-1,-0.00143954367423713,-0.0013090721338596437,-0.009411387309396902,0.010712309146399082,0.9846614026133486
2011-09-19,-1,-0.001063537027779541,-0.001025046401676197,-0.013664139102002143,0.010712309146399082,0.9832974238237576
2011-09-21,-1,-0.0022712873136596233,-0.0020724212601561215,-0.009411387309396902,0.018871788386534243,0.9829955811395068
2011-09-23,-1,-0.0024287901306135483,-0.0022203506608540675,-0.008943735409069049,0.018871788386534243,0.9836058826468981
2011-09-27,-1,-0.00169581502247494,-0.001550304736903706,-0.009888229380460611,0.019206914393547457,0.9823574075171521
2011-09-29,-1,-0.0014662305415644318,-0.0014009323771038394,-0.008943735409069049,0.02254863230572529,0.981515308858529
2011-10-03,0,0.0,0.0,-0.008501672484472726,0.02254863230572529,0.9834611857192057
2011-10-05,-1,-0.0013185204144456287,-0.0011897775218356072,-0.008943735409069049,0.02254863230572529,0.9802604257681716
2011-10-07,-1,-0.0005600224487746035,-0.0005104568199341916,-0.009998648708837442,0.022579482455388024,0.9800214778835916
2011-10-11,0,0.0,0.0,-0.009998648708837442,0.019206914393547457,0.9818695408121747
2011-10-13,-1,-0.0001810880232836147,-0.00017207605937814602,-0.01220326303533097,0.016530093841518923,0.9799737008108561
2011-10-17,0,0.0,0.0,-0.010402635421106643,0.016530093841518923,0.9804327149178294
2011-10-19,0,0.0,0.0,-0.010402635421106643,0.013819666330710956,0.9811418753711524
2011-10-21,1,0.0001285497757406516,0.00019222575286311397,-0.010402635421106643,0.013819666330710956,0.9810661313658391
2011-10-25,1,0.0007781019643515142,0.0009270034142079332,-0.013848862566316575,0.011253072533749823,0.9822544517094464
2011-10-27,1,0.0012235602808483982,0.001421346536513522,-0.013848862566316575,0.00881524227336691,0.9835258572617862
2011-10-31,1,0.0004286980454530154,0.0005087103254413614,-0.01087303606148612,0.011253072533749823,0.9832507890599294
2011-11-02,1,0.00022566058982908163,0.0002715653777554945,-0.008303762624153829,0.011253072533749823,0.9860341732035109
2011-11-04,0,0.0,0.0,-0.006019581802735254,0.00881524227336691,0.9881166427685146
2011-11-08,1,0.0008329397890495991,0.000978767047253454,-0.008045111352499025,0.00881524227336691,0.9872637351358615
2011-11-10,1,0.0004633548008298579,0.000583782734663668,-0.0063004372146166455,0.00881524227336691,0.9890350366307208
2011-11-14,0,0.0,0.0,-0.0063004372146166455,0.0067852389477526575,0.9895569570694533
2011-11-16,-1,-0.0028261255440068453,-0.002677964006324112,-0.008045111352499025,0.0039514366041172875,0.9899797594973333
2011-11-18,1,0.0011101309506729785,0.0013453401105229812,-0.009781254777840906,0.002466744963693021,0.9886541523409971
2011-11-22,1,0.0005515567351971061,0.000711237511427406,-0.0049802570891870354,0.004282238746479755,0.9891870628212482
2011-11-25,0,0.0,0.0,-0.00444485134981192,0.00888495697309432,0.9886594064920144
2011-11-29,0,0.0,0.0,-0.007877747791570149,0.004282238746479755,0.9894983133664919
2011-12-01,0,0.0,0.0,-0.007877747791570149,0.004282238746479755,0.9908889731729703
2011-12-05,0,0.0,0.0,-0.007877747791570149,0.005567040258758298,0.9906507752472123
2011-12-07,1,0.0015920892706200401,0.001900015941125414,-0.006244649360973687,0.004036743644857385,0.9912941108726703
2011-12-09,1,0.0018767061780846747,0.002208675407343634,-0.005848730200403514,0.005874190309949507,0.9916459110298185
2011-12-13,1,0.001574856859004877,0.0018786112379097072,-0.00389397109832316,0.008138266820212037,0.991646983452197
2011-12-15,0,0.0,0.0,-0.00389397109832316,0.010409960203306718,0.9908235790751985
2011-12-19,0,0.0,0.0,-0.002842249039321161,0.012319886281832422,0.9910532597340437
2011-12-21,0,0.0,0.0,-0.002842249039321161,0.011159896384550273,0.9916880996912552
2011-12-23,1,0.0014692244965573379,0.001692694971164163,-0.00389397109832316,0.01020666870275862,0.9926125060915868
2011-12-28,0,0.0,0.0,-0.0015987924876451059,0.01020666870275862,0.9927711050764545
2011-12-30,0,0.0,0.0,-0.0022228962142393895,0.008138266820212037,0.9934464140555842
2012-01-04,0,0.0,0.0,-0.002418499212957847,0.01020666870275862,0.9920843711751981
2012-01-06,0,0.0,0.0,-0.001457542545524001,0.01020666870275862,0.9920532779532016
2012-01-10,1,0.00037846227611841425,0.0005676690983971017,-0.002418499212957847,0.00866451774049893,0.9926580338192577
2012-01-12,1,0.000843934677659461,0.0008975469537446625,-0.0032107176671001504,0.0061007107365277525,0.992656596267643
2012-01-17,1,0.0012660411098228725,0.0013192247856461585,-0.001457542545524001,0.00448419562021377,0.993772576792122
2012-01-19,1,0.0014961683979760167,0.0015525744499069304,-0.0022840733809921573,0.00448419562021377,0.993970150686236
2012-01-23,1,0.0022599383197463817,0.0024714236127054163,-0.0032937268321409415,0.0029135699954142315,0.9939948499424524
2012-01-25,1,0.0020920056371888252,0.002280700477913227,-0.0022840733809921573,0.003505241212746321,0.9939830096715023
2012-01-27,1,0.001706281234129913,0.0018137891154261603,-0.0022840733809921573,0.0040758005257039345,0.9940623016402803
2012-01-31,1,0.001944054462767495,0.002119844451127822,-0.004985288792178839,0.0040758005257039345,0.9931352091877012
2012-02-02,1,0.0013841846134941146,0.001399136217942788,-0.004985288792178839,0.0030672803564248644,0.9941677566938226
2012-02-06,1,0.0015565607393538852,0.001606585443241458,-0.0064784521266724624,0.002587251859591749,0.9938613310370377
2012-02-08,1,0.0016089233720812976,0.0017277850282319748,-0.004985288792178839,0.0030672803564248644,0.9944329120100763
2012-02-10,0,0.0,0.0,-0.004915056892392633,0.0030672803564248644,0.9939832950373644
2012-02-14,0,0.0,0.0,-0.006227929852189415,0.004618345199466332,0.9931734558505928
2012-02-16,0,0.0,0.0,-0.00645696925930016,0.004571889648605584,0.993224331039833
2012-02-21,0,0.0,0.0,-0.00645696925930016,0.004571889648605584,0.993102476974802
2012-02-23,0,0.0,0.0,-0.00645696925930016,0.002171523676550763,0.993809949660939
2012-02-27,-1,-0.0010002853355673344,-0.0006374626063352633,-0.00645696925930016,0.007420495137135651,0.9934437529352361
2012-02-29,-1,-0.00018435612849691503,-2.370981979440707e-06,-0.006612345907485185,0.007420495137135651,0.9930793397084587
2012-03-02,0,0.0,0.0,-0.006246273559941541,0.007420495137135651,0.9931845273822091
2012-03-06,0,0.0,0.0,-0.006168496854325546,0.007921219619061837,0.992896338307292
2012-03-08,0,0.0,0.0,-0.006278670265708554,0.007781852966479596,0.9923444007291695
2012-03-12,0,0.0,0.0,-0.006612345907485185,0.0015342244672335937,0.992378508897589
2012-03-14,0,-4.226150332413417e-05,1.1394573970249685e-05,-0.0063790157906372,0.0015342244672335937,0.9925430788413281
2012-03-16,1,0.00012041051248547788,0.00021275024643265797,-0.006476231102740548,-0.0013824420799749756,0.9923064209160156
2012-03-20,1,0.00034036808963250993,0.0003670204842161976,-0.0073237066420262925,-0.0003092854293351321,0.992153603885254
2012-03-22,1,0.000701486381931982,0.000765785492911838,-0.0073237066420262925,0.0013169329265551456,0.9917509843306934
2012-03-26,1,0.0007146360161929395,0.0007536368328877579,-0.0073237066420262925,-0.0020741140901041058,0.9921138841960058
2012-03-28,1,8.647055533444177e-05,0.00012482217802446615,-0.006135356315150542,0.0013169329265551456,0.9927245294325165
2012-03-30,1,0.00012002839857694355,0.0001427497795983416,-0.006135356315150542,0.005569266820627416,0.9925168550173916
2012-04-03,1,0.00018944435034520525,0.0002044531770435108,-0.006432156769140309,0.004871455159124477,0.9925239394857365
2012-04-05,-1,-0.0006280465710858735,-0.00048532200665339745,-0.008649980322495043,0.004871455159124477,0.9923253804898735
2012-04-10,-1,-0.001129349530428989,-0.0009252093862948956,-0.009154597520553951,0.004871455159124477,0.9924580920986201
2012-04-12,-1,-0.0007722840207906863,-0.0006144775945303473,-0.012637271736202146,0.001184840744189777,0.9920518557968375
2012-04-16,-1,-0.0011939580448437363,-0.0009851335660685085,-0.00944992443519401,0.001184840744189777,0.992517669572362
2012-04-18,-1,-0.0017657817279129722,-0.001457925231662478,-0.01194491284640366,0.004871455159124477,0.9921525742266863
2012-04-20,0,0.0,0.0,-0.013689993406917669,-0.00046282436695990704,0.9900722119547032
2012-04-24,-1,-0.0019461079119796173,-0.0016240585299199192,-0.013689993406917669,0.0068744074774637395,0.9902162206117816
2012-04-26,-1,-0.0010680807119434687,-0.0008842876468930753,-0.013689993406917669,0.001184840744189777,0.9908959975022947
2012-04-30,-1,-0.0011030780062703267,-0.0009103659313313507,-0.013689993406917669,0.001184840744189777,0.9910075695337967
2012-05-02,-1,-0.0013526491711567175,-0.0011278209918738178,-0.014721082312230032,-0.0014534523750558523,0.9910189933793182
2012-05-04,-1,-0.001981803175631217,-0.00169932466076379,-0.012222000017879282,0.001974309700671262,0.9923096826502825
2012-05-08,-1,-0.0027907306673749495,-0.0023992103162799603,-0.009286350330053468,0.005275044565851414,0.9920759029717806
2012-05-10,-1,-0.003820437161614923,-0.0032903235936169546,-0.005435527957104229,0.006765807942168932,0.9918949863675043
2012-05-14,-1,-0.00461524576989069,-0.003958740889638121,-0.006267190760840779,0.006765807942168932,0.9910284551971666
2012-05-16,-1,-0.004355130244339351,-0.0037657634583953513,-0.007286497110813314,0.0062810330428493075,0.991626910401164
2012-05-18,0,0.0,0.0,-0.0032917318936290557,0.006453281770503257,0.9932974003111531
2012-05-22,-1,-0.00371892198963155,-0.003230280959487827,-0.0032917318936290557,0.0062810330428493075,0.9926018108782482
2012-05-24,0,0.0,0.0,-0.004758624953732612,0.006453281770503257,0.9924655752091521
2012-05-29,0,0.0,0.0,-0.007286497110813314,0.006405242029897726,0.9913843388173871
2012-05-31,0,0.0,0.0,-0.0035878013491769728,0.007776427988905254,0.9913108093566226
2012-06-04,0,0.0,0.0,-0.0035878013491769728,0.010744741700092004,0.9903091916861833
2012-06-06,0,0.0,0.0,-0.006867248882571991,0.007776427988905254,0.9904967048392294
2012-06-08,0,0.0,0.0,-0.010647017220037936,0.006619885611215091,0.9900696077045072
2012-06-12,-1,-0.0006008047664480928,-0.0005256958066143878,-0.008273944957220367,0.0067183883243223125,0.9903334837999862
2012-06-14,0,0.0,0.0,-0.004056700040726432,0.007721148992621991,0.9905961827294552
2012-06-18,0,0.0,0.0,-0.004056700040726432,0.009975280592482476,0.9902502033734583
2012-06-20,0,0.0,0.0,-0.004056700040726432,0.007673418383299848,0.9907575281478535
2012-06-22,0,0.0,0.0,-0.008273944957220367,0.00675043247488826,0.9900690195305599
2012-06-26,0,0.0,0.0,-0.008273944957220367,0.007027153529440758,0.9905901706852658
2012-06-28,0,0.0,0.0,-0.008273944957220367,0.007892622969885223,0.9904954859229301
2012-07-02,-1,-0.0005315079662246642,-0.0004965791026753621,-0.010934237894038221,0.007027153529440758,0.9907828246513024
2012-07-05,-1,-0.0006605408143959011,-0.0006314666616036648,-0.013532283403806201,0.007027153529440758,0.9898641262322636
2012-07-09,-1,-0.001188592229530341,-0.0011740982645188328,-0.01312672994015978,0.007892622969885223,0.9893162608872392
2012-07-11,0,-8.882406969854987e-05,4.629039513421321e-05,-0.01312672994015978,0.009975280592482476,0.9896034320251317
2012-07-13,0,0.0,0.0,-0.01312672994015978,0.0099988531884864,0.9882706622055382
2012-07-17,0,0.0,0.0,-0.01312672994015978,0.010633658345427274,0.9880332710857231
2012-07-19,0,0.0,0.0,-0.01312672994015978,0.011594879713527101,0.9872689162169012
2012-07-23,0,0.0,0.0,0.003285922547966583,0.013403834916354428,0.9881073419949571
2012-07-25,0,0.0,0.0,0.003285922547966583,0.013403834916354428,0.9879356405614662
2012-07-27,0,0.0,0.0,0.000903052270823652,0.012576863404145017,0.9887509867909174
2012-07-31,0,0.0,0.0,0.0007412125772913616,0.012576863404145017,0.98951052387922
2012-08-02,0,0.0,0.0,0.0016465123951712305,0.013415792850462325,0.9895175008462986
2012-08-06,0,0.0,0.0005183906957964901,0.0032660630851415124,0.013415792850462325,0.9897541007497214
2012-08-08,0,0.0,0.0,0.0007412125772913616,0.013415792850462325,0.990146724624015
2012-08-10,1,0.0033262520198028434,0.004047040251848981,5.966246298484473e-06,0.012576863404145017,0.9929372813511003
2012-08-14,1,0.00290943296879574,0.0034822310701758752,-0.0014672137049047617,0.011087676837860182,0.9928057619577698
2012-08-16,0,0.0,0.0,-0.0014672137049047617,0.009858002035950851,0.9925394986500613
2012-08-20,0,0.0,0.0,-0.002634587632974155,0.006872572229422082,0.9928465668535377
2012-08-22,0,0.0,0.0,-0.002098152664914894,0.005262304420172432,0.9939742606520242
2012-08-24,0,0.0,0.0,-0.004585359377775041,0.005014591719467425,0.9937719174415708
2012-08-28,1,0.001245029460433657,0.00156885877631663,-0.005981651610753197,0.005014591719467425,0.9927698140785893
2012-08-30,0,0.0,0.0,-0.0049865477672804345,0.005014591719467425,0.9940566776810849
2012-09-04,0,0.0,0.0,-0.005981651610753197,0.0019128217833480135,0.9945702233203074
2012-09-06,1,0.0038384992988118173,0.004441592654115003,-0.005981651610753197,0.004181019961737736,0.9924174273058074
2012-09-10,1,0.0037705522733732745,0.004351034789136222,-0.006334497931090281,0.0012995631760494859,0.9921106083188181
2012-09-12,1,0.0035800781269685706,0.004139736707121519,-0.007157006501972423,0.0012995631760494859,0.9915317815141464
2012-09-14,1,0.0038559975808117744,0.004435995728666003,-0.009993061761324423,-0.0003142091075695367,0.9905440962030524
2012-09-18,1,0.003759968446726846,0.004366953784621667,-0.007157006501972423,0.0012995631760494859,0.9907433534391672
2012-09-20,1,0.003717188349564123,0.004315992241771787,-0.007157006501972423,0.004865575106948938,0.99085694069219
2012-09-24,1,0.003285664958415849,0.0038143280634859843,-0.010697104087617548,0.004865575106948938,0.9901477666446158
2012-09-26,1,0.00225428580002826,0.0025894014570670165,-0.009762585145316246,0.004865575106948938,0.9910821056141107
2012-09-28,1,0.002030495642806456,0.002298841449420736,-0.009762585145316246,0.004626325784995921,0.9915950311753693
2012-10-02,1,0.0013362353960751836,0.0014586739396797626,-0.007157006501972423,0.0069150169219998016,0.9910463186187973
2012-10-04,1,0.0017338995530831332,0.0018846602750819262,-0.009762585145316246,0.0069150169219998016,0.9898765956384964
2012-10-08,1,0.0012695937299335063,0.0013440064040097718,-0.011648976631832977,0.0069150169219998016,0.9876880639264239
2012-10-10,0,0.0,0.0,-0.010697104087617548,0.00956354228648513,0.9875945739930029
2012-10-12,0,0.0,0.0,-0.006249375079177117,0.00956354228648513,0.9880204547779216
2012-10-16,0,0.0,0.0,-0.00657099028266393,0.0069150169219998016,0.9891177610508947
2012-10-18,0,0.0,0.0,-0.008240832288783174,0.007353418575989736,0.9884121756132714
2012-10-22,0,0.0,0.0,-0.004950829349528636,0.010715181592127794,0.9888828343118894
2012-10-24,0,0.0,0.0,-0.001978919191936566,0.010715181592127794,0.9885981850517815
2012-10-26,-1,-0.0003401962324464659,-0.00021292127406784056,-0.005829058555055198,0.010715181592127794,0.9886591380823969
2012-11-01,1,0.0006807363493145499,0.0006866030662961424,-0.005829058555055198,0.008142331367067242,0.9900425937910177
2012-11-05,1,0.0001269227179589571,0.0002810955508312172,-0.005648529129245766,0.00703952446016598,0.9913647360282546
2012-11-07,0,0.0,0.0,-0.0010847261892126384,0.007336274061944553,0.9934138689006513
2012-11-09,0,0.0,0.0,-0.0022203226527239485,0.0066313118650107895,0.9944129226499248
2012-11-13,0,0.0,0.0,-0.004163815876656294,0.0066313118650107895,0.9941315112233797
2012-11-15,0,0.0,0.0,-0.006105941328022956,0.0066313118650107895,0.9931974757574045
2012-11-19,0,0.0,0.0,-0.0043162866095820245,0.0066313118650107895,0.993375270000408
2012-11-21,-1,-0.001235975574445469,-0.0009576806656043551,-0.006105941328022956,0.0061833475211869856,0.9934229422033141
2012-11-26,-1,-0.00040976651427382507,-0.00026587121229151124,-0.006105941328022956,0.005664519079437049,0.9937526003515704
2012-11-28,-1,-0.0008713855069948984,-0.0006552249595245044,-0.007724176340539372,0.005664519079437049,0.9927993031380111
2012-11-30,-1,-0.0012645531099874999,-0.0009615868583256495,-0.007724176340539372,0.005664519079437049,0.9928946442907671
2012-12-04,0,0.0,0.0,-0.007053334810625613,0.005976660102840412,0.991500114687958
2012-12-06,0,0.0,0.0,-0.007053334810625613,0.00455517134668429,0.9918756257387547
2012-12-10,1,0.0001720347129413186,0.00026016717699235144,-0.008039559251714365,0.004899827255354405,0.9916477634832758
2012-12-12,1,4.921950762335511e-05,0.0001507521571646104,-0.008039559251714365,0.004899827255354405,0.9918481317878605
2012-12-14,0,0.0,0.0,-0.006276976627944402,0.004899827255354405,0.9925331811993988
2012-12-18,0,0.0,0.0,-0.007434854022724096,0.003740413112831776,0.9927662232288291
2012-12-20,0,0.0,0.0,-0.006276976627944402,0.004419300625131354,0.9928844819762924
2012-12-24,0,0.0,0.0,-0.006276976627944402,0.004706384917301794,0.9928216207893006
2012-12-27,0,0.0,0.0,-0.004988522965010792,0.004706384917301794,0.9938659352546002
2012-12-31,1,0.0003093654219990537,0.0003102230560792832,-0.005966328054563747,0.004706384917301794,0.9935024519013689
2013-01-03,0,0.0,0.0,-0.005966328054563747,0.004706384917301794,0.9944565090946447
2013-01-07,0,0.0,0.0,-0.005966328054563747,0.004706384917301794,0.9940785878961693
2013-01-09,0,0.0,0.0,-0.005966328054563747,0.004446799567075984,0.9920478455066022
2013-01-11,0,0.0,0.0,-0.00651066093052635,0.005088041177492185,0.9908786016181353
2013-01-15,-1,-2.1618930921178223e-05,-1.3796328386936579e-05,-0.005944165797317786,0.005088041177492185,0.9910762072154027
2013-01-17,0,0.0,0.0,-0.0034033226752418475,0.004856607788050598,0.991492707883333
2013-01-22,0,0.0,0.0,-0.0034033226752418475,0.004856607788050598,0.9915611036601663
2013-01-24,0,0.0,0.0,-0.005745638552779534,0.004412387356753033,0.9915937793505079
2013-01-28,0,0.0,0.0,-0.005745638552779534,0.004860435698731699,0.9908863164913075
2013-01-30,1,0.0004899790880953784,0.0006266106940522249,-0.0011022370373484649,0.005032091677266178,0.9912636042387789
2013-02-01,1,0.0010051109305985813,0.0011987822685785672,-0.003712011183517818,0.004412387356753033,0.9919281886880741
2013-02-05,1,0.000971749609404938,0.0011650864000484259,-0.0020710746701902857,0.005032091677266178,0.991831553756179
2013-02-07,-1,-0.0011638896322748158,-0.0010707681324801837,0.000863491719945562,0.007565496570381249,0.9921949790631693
2013-02-11,-1,-0.0005181919962288094,-0.0005022207023006877,0.0006330587098733352,0.005238680048031456,0.993827993885737
2013-02-13,-1,-0.0005445173126444581,-0.0005282404151430263,0.0006330587098733352,0.0069079208893980115,0.9936277497858758
2013-02-15,-1,-0.0003629623893716208,-0.00035523191623558676,-0.0013835289889323381,0.0069079208893980115,0.993601815079891
2013-02-20,0,0.0,0.0,-0.0013835289889323381,0.0069079208893980115,0.9934476331642583
2013-02-22,0,0.0,0.0,-0.001358644927276995,0.007940375949323696,0.9933086215948702
2013-02-26,0,0.0,0.0,-0.001358644927276995,0.007940375949323696,0.9939577697888242
2013-02-28,0,0.0,0.0,-0.001358644927276995,0.007603971967843525,0.9942438546883446
2013-03-04,0,0.0,0.0,-0.001358644927276995,0.007603971967843525,0.9931606007129853
2013-03-06,0,0.0,0.0,-0.002791782686217909,0.006480409211552227,0.9931727403986707
2013-03-08,0,0.0,0.0,-0.004088045905128148,0.004091270310126,0.9932862206771769
2013-03-12,1,0.00012229570397333776,0.0001371916143911533,-0.004088045905128148,0.006480409211552227,0.9920481017431043
2013-03-14,1,0.001007115351108547,0.0011534474211972346,-0.006537160781625569,0.006515062734075738,0.9904979376797413
2013-03-18,1,0.0014996142464377296,0.0017144264382733308,-0.010002491431494532,0.00804433651689423,0.9880275217786949
2013-03-20,1,0.0014653211018276857,0.001603088412571292,-0.010002491431494532,0.006515062734075738,0.9886353471515379
2013-03-22,1,0.001572688075906697,0.0017120022084598679,-0.010002491431494532,0.006515062734075738,0.988646027389014
2013-03-26,0,0.0,0.0,-0.010002491431494532,0.005022331359987656,0.9888310002966815
2013-03-28,0,0.0,0.0,-0.010002491431494532,0.0035936931854299724,0.989307375259958
2013-04-02,0,0.0,0.0,-0.00295790316024329,0.005775762956874754,0.9892387288172225
2013-04-04,0,0.0,0.0,-0.0029301539349136305,0.010449345754555844,0.98918472199814
2013-04-08,-1,-0.00039680108556096295,-0.00028029799518104737,-0.0018949501893029256,0.010449345754555844,0.9902095042840499
2013-04-10,0,0.0,0.0,-0.0018949501893029256,0.010449345754555844,0.9899385100954102
2013-04-12,0,0.0,0.0,-0.002154243526602033,0.007781960170060305,0.9915618324204615
2013-04-16,0,0.0,0.0,-0.0016637542419526954,0.007781960170060305,0.9936875124552091
2013-04-18,0,0.0,0.0,-0.0010063398881603638,0.007781960170060305,0.9935864454527079
2013-04-22,1,0.0012126936778554863,0.002182255711003419,-0.0010063398881603638,0.007781960170060305,0.9939993704881518
2013-04-24,1,0.0015459225795696114,0.0017351485527052552,-0.0016637542419526954,0.007781960170060305,0.9929319378546656
2013-04-26,0,0.0,0.0,-0.0016637542419526954,0.010452986693529731,0.9915989442208043
2013-04-30,1,0.00260935337123807,0.0029527445199710772,-0.00223656609286294,0.010452986693529731,0.9917328050651336
2013-05-02,0,0.0,0.0,-0.002740998977887014,0.008750213036911498,0.990506974641753
2013-05-06,0,0.0,0.0,-0.007303754977530123,0.008750213036911498,0.9895133420421007
2013-05-08,1,0.0037284266200772274,0.004215031187293889,-0.008648106081257458,0.007309583661582974,0.9909123737174517
2013-05-10,1,0.002750119885827634,0.0030464796206801717,-0.008648106081257458,0.008750213036911498,0.9907152364564024
2013-05-14,1,0.003557798164601608,0.003998617085135641,-0.008648106081257458,0.007309583661582974,0.9904792125003176
2013-05-16,1,0.003672558241696911,0.004117515714414191,-0.008648106081257458,0.007309583661582974,0.9900166176912111
2013-05-20,1,0.004294720152189804,0.004816298290266903,-0.008648106081257458,0.007322330857810855,0.990457869978349
2013-05-22,1,0.003024996080801772,0.0033036217241166825,-0.008795463623565272,0.007322330857810855,0.9900624453145775
2013-05-24,1,0.0037643619078113156,0.004153828164471678,-0.01037827376378507,0.006040120579620832,0.9892945189570396
2013-05-29,1,0.0041028643440080455,0.004580018239034983,-0.008795463623565272,0.0056599579474374455,0.990936350966049
2013-05-31,1,0.0036688840577592677,0.004085572235174031,-0.008117544503717988,0.00606467314421491,0.991406813603883
2013-06-04,1,0.002615151448315865,0.0028799139089687666,-0.005936850081541767,0.007322330857810855,0.991668412562227
2013-06-06,1,0.0022745174197227576,0.0024762814835945523,-0.005406181887292269,0.008018586843991147,0.9919593901159176
2013-06-10,1,0.0024837874332578006,0.0026968862527062144,-0.005936850081541767,0.008018586843991147,0.9914235355678611
2013-06-12,1,0.0019062121848466068,0.002023432486471087,-0.005936850081541767,0.009355611006397256,0.9913227123629819
2013-06-14,1,0.0020767800960552448,0.0022500424622760133,-0.005936850081541767,0.010213411793088286,0.9914660380369636
2013-06-18,1,0.0025390121213830067,0.0027739118188071284,-0.005936850081541767,0.010213411793088286,0.9916708192460656
2013-06-20,1,0.0014621097919664983,0.0015249408160831108,-0.0017710734254119077,0.010687561445997315,0.9921708607898058
2013-06-24,1,0.00027547114970548044,0.00037321559836741913,0.0002664359418476566,0.010687561445997315,0.9926618993768759
2013-06-26,1,0.0007214622097135065,0.0007397000816227017,9.037557184482005e-05,0.010687561445997315,0.9927636847587553
2013-06-28,1,0.0015524750306724713,0.001629358230584949,-0.0012269924426447031,0.00882657747339251,0.993930183382041
2013-07-02,0,0.0,0.0,-0.00017606037000283652,0.00882657747339251,0.9939853787576569
2013-07-05,0,0.0,0.0,-0.000432564190799212,0.00984242814438655,0.9941511546396798
2013-07-09,0,0.0,0.0,-0.000432564190799212,0.006649470872954333,0.9951984501735271
2013-07-11,0,0.0,0.0,-0.0012269924426447031,0.006649470872954333,0.992994356786017
2013-07-15,-1,-3.3208365054110327e-08,-3.3208365054110327e-08,-0.0012269924426447031,0.006807520757257343,0.9923460696472651
2013-07-17,0,0.0,0.0,-0.0012269924426447031,0.01032899547240476,0.9903538611613188
2013-07-19,1,0.0005638844789184771,0.0005797193066773558,-0.00296995232894792,0.006819938432366525,0.9907104478963543
2013-07-23,1,0.0015901723282780314,0.0015906067048705567,-0.00296995232894792,0.005780989735154759,0.9908068301953502
2013-07-25,1,0.0012251513969508245,0.001282987305488497,-0.0011300221518357146,0.010707227076609321,0.9905431385654535
2013-07-29,0,0.0,0.0,-0.001142161676720232,0.010707227076609321,0.990460732184627
2013-07-31,0,0.0,0.0,-0.0042928886186142535,0.005780989735154759,0.9896224521048497
2013-08-02,1,0.0017676708012707917,0.001837768810374155,-0.005324156358642531,0.005108024998564106,0.9888467801621716
2013-08-06,1,0.001653354971327463,0.0017165544776003273,-0.005689535945034683,0.008120646687922482,0.9884868685690488
2013-08-08,1,0.0028973771290518795,0.0031127514754841013,-0.005010959330999198,0.006938697000212652,0.9908655207036781
2013-08-12,1,0.0035415369413933973,0.003866072102782043,-0.005010959330999198,0.007405824431471041,0.9910238927497834
2013-08-14,1,0.002853780681433963,0.0030892154041210506,-0.005010959330999198,0.006849175293579768,0.9929996593143431
2013-08-16,1,0.002612779779670264,0.002811659532012978,-0.004001058297119406,0.006849175293579768,0.993426010667123
2013-08-20,1,0.002705416784707503,0.002929699378503853,-0.004001058297119406,0.007481307978104919,0.9931669490404039
2013-08-22,1,0.002427766637003727,0.002556730434256935,-0.004001058297119406,0.007341463907049451,0.9933393282519459
2013-08-26,1,0.0018685243663443673,0.0018973741656673271,-0.0035040883914572124,0.007341463907049451,0.9933167304000693
2013-08-28,1,0.0003656632117155431,0.0005479352437617363,-0.0009638545741005749,0.007341463907049451,0.9943783606958883
2013-08-30,1,0.0005296598275220381,0.0006485930266465468,0.00015696871665094904,0.006883656702943643,0.9951973350182738
2013-09-04,1,0.0007505139060103653,0.0008251040866730666,0.00015696871665094904,0.006883656702943643,0.994933800258157
2013-09-06,1,0.0005635625183934724,0.0006869416089601661,-0.00047443143899229064,0.006883656702943643,0.9945764421030011
2013-09-10,1,0.0009495434635768271,0.0010373912139561494,-0.0030108747279372176,0.004530527386297778,0.9949285558772888
2013-09-12,1,0.000971014038839669,0.0010371963984287865,-0.0030108747279372176,0.0059610792251784265,0.9936328727407632
2013-09-16,1,0.000645447828091463,0.0007625461688551853,-0.0030108747279372176,0.007512659952853524,0.9928006445644229
2013-09-18,1,0.0009124040149743633,0.00100805266843868,-0.0036577552034132315,0.007319505504190725,0.9927109663388886
2013-09-20,1,0.0011203607321109707,0.00114973352336489,-0.0036577552034132315,0.007752767867730704,0.9924288052502387
2013-09-24,1,0.001342845520162382,0.0013466236217592126,-0.0036577552034132315,0.009725398817621422,0.991417398098929
2013-09-26,1,0.0011017727274911936,0.001144718101336062,-0.0036577552034132315,0.011121102345241001,0.9911481352925502
2013-09-30,1,0.0016987766000013441,0.0017801848081845095,-0.0036577552034132315,0.011121102345241001,0.9912654203107141
2013-10-02,1,0.001709770638704071,0.0017666033126399437,-0.0040745860224433725,0.011121102345241001,0.9915173708867263
2013-10-04,1,0.0015842514391551663,0.0016496939337728765,-0.0022675270063152965,0.011121102345241001,0.9919622544930682
2013-10-08,1,0.0011166450165086101,0.0011271518190758979,-0.0022002291508089415,0.011121102345241001,0.9919361841061509
2013-10-10,1,0.0016931592674311402,0.00181707994740594,-0.0022002291508089415,0.010816375989106976,0.9929337651274147
2013-10-14,1,0.0018238950660617122,0.0019484147212080701,-0.003757365122165825,0.010816375989106976,0.991852707608622
2013-10-16,1,0.0018625000362204782,0.002031148307433435,-0.0022002291508089415,0.010920540162731243,0.9921987508357096
2013-10-18,1,0.0019729623318112937,0.0021362413744274895,-0.0022002291508089415,0.010920540162731243,0.9924767288106701
2013-10-22,1,0.0024925913545409536,0.0027195935216309183,-0.0022002291508089415,0.010759328112505642,0.9932665064552861
2013-10-24,1,0.0022852174536755906,0.0024373757940820097,-0.0022002291508089415,0.010759328112505642,0.992496816611372
2013-10-28,1,0.002175596315713852,0.0023030587617175026,-0.0028915075042567863,0.010759328112505642,0.992336007617135
2013-10-30,1,0.0022625556203812675,0.002409959531686846,-0.002022444481116616,0.010759328112505642,0.9923880561621576
2013-11-01,1,0.002075730238951124,0.002177384120031884,-0.0028915075042567863,0.010759328112505642,0.9918111408411294
2013-11-05,1,0.0015487783353838002,0.0015730408283693334,-0.002022444481116616,0.010759328112505642,0.9915026834760539
2013-11-07,1,0.0016455204759924184,0.0016996704058236125,-0.002022444481116616,0.010958147276626688,0.9911483190159035
2013-11-11,1,0.0018422426514106381,0.0018963341357598157,-0.002022444481116616,0.010579523697672762,0.9924426217122446
2013-11-13,1,0.0016001300963170441,0.0016248258550288976,-0.003337597837822173,0.009041486089110116,0.9924472702203824
2013-11-15,1,0.0013103072944952096,0.0013656676633316896,-0.003337597837822173,0.01067417868816954,0.9916733442129312
2013-11-19,1,0.001832022728089992,0.0018749722920229776,-0.004847994560962158,0.010517714962957366,0.9914156583598274
2013-11-21,1,0.0024555080411075908,0.0025832115197683475,-0.004847994560962158,0.010517714962957366,0.991676896413333
2013-11-25,1,0.0021436252114733277,0.0022396665049270945,-0.004847994560962158,0.010517714962957366,0.9916407871872734
2013-11-27,1,0.0021198665834079415,0.002208472438905154,-0.004936433262683847,0.009041486089110116,0.991916236788254
2013-12-02,1,0.0023331954402565974,0.002464739075455807,-0.004668662781549768,0.007625532795978895,0.9921520868870938
2013-12-04,1,0.0021214219668427474,0.0022291768246593723,-0.004668662781549768,0.006105257760501512,0.9926104991247372
2013-12-06,1,0.001998935171220936,0.002080716204576794,-0.004668662781549768,0.005243372056397045,0.9934676272150158
2013-12-10,1,0.001771378949211891,0.0018173880412928473,-0.004668662781549768,0.005243372056397045,0.992978813395853
2013-12-12,1,0.001538749330830428,0.0015579945873738133,-0.004668662781549768,0.005243372056397045,0.993147291611736
2013-12-16,1,0.001854423245093768,0.0019089978087903864,-0.004668662781549768,0.0033616688138262676,0.9937407626826336
2013-12-18,1,0.001817333370908348,0.0018528289702568687,-0.004019492840231324,0.002450519513743217,0.994137082536609
2013-12-20,1,0.0022055375266442686,0.0023109774196817916,-0.004116705595012336,0.002450519513743217,0.9945753451860992
2013-12-24,1,0.0020877714101380927,0.0021753026218690233,-0.005162970364234038,0.0013661917350128842,0.992533739080596
2013-12-27,1,0.0017914107564941523,0.001817119793792044,-0.0066375769354794535,0.002450519513743217,0.9921680583771345
2013-12-31,1,0.0023998651387539963,0.0025499624618987075,-0.009490108145112383,0.0033616688138262676,0.9909808495794377
2014-01-03,1,0.0022672048000627405,0.0024338682741479236,-0.012631699265065735,0.002450519513743217,0.989276734399063
2014-01-07,1,0.001980225703094017,0.002057634330630179,-0.012631699265065735,0.0033231846211548904,0.9890736226500823
2014-01-09,1,0.0010932710471244825,0.0011400477211306458,-0.011080525595260637,0.006455406618144472,0.9884488137520637
2014-01-13,1,0.0008096672889095751,0.000894591348593916,-0.011080525595260637,0.006455406618144472,0.9882545194421446
2014-01-15,1,0.0010612763205205338,0.0011040429351920464,-0.011080525595260637,0.006455406618144472,0.9881706611085157
2014-01-17,1,0.000666893957860489,0.0007689470047264799,-0.011080525595260637,0.007575327579451223,0.9878826636010867
2014-01-22,0,-6.0424394757061244e-05,0.00017915530016523453,-0.011080525595260637,0.00723861965941343,0.9877663715451935
2014-01-24,-1,-0.0018653475451713185,-0.0013994064213812482,-0.007092676898478147,0.00723861965941343,0.9901295129295357
2014-01-28,-1,-0.0020466160759276646,-0.001567615855847826,-0.005467091189274122,0.010142036524741018,0.9902731524766173
2014-01-30,-1,-0.00176026952562797,-0.0013207064881095463,-0.004549150141884081,0.006876501411574089,0.9912185145276404
2014-02-03,-1,-0.0027705185351807444,-0.002240823684365233,-0.002758513007064684,0.010142036524741018,0.9911891418147013
2014-02-05,-1,-0.0026204343190537344,-0.002106492048941708,-0.002758513007064684,0.006876501411574089,0.9918371114402248
2014-02-07,-1,-0.0013206625954755899,-0.0009535622859030296,-0.003892027882779942,0.005319535194399365,0.994065136637338
2014-02-11,-1,-0.0014234536259349994,-0.0010609254201115561,-0.004573878555530577,0.004900781124854594,0.9939900278127818
2014-02-13,-1,-0.0017865933615116175,-0.0013669271881648283,-0.0058670071248774535,0.004900781124854594,0.9934150907221774
2014-02-18,-1,-0.0011321492508331052,-0.0008051307346680014,-0.0058670071248774535,0.005862717202342542,0.9935741357939231
2014-02-20,-1,-0.001837630895193565,-0.001424368831411945,-0.0058670071248774535,0.005862717202342542,0.9931016970363956
2014-02-24,-1,-0.0019993397113935362,-0.001571699889578725,-0.007229185911786332,0.005862717202342542,0.9919159189175644
2014-02-26,-1,-0.0014340081284316458,-0.0010856751998639396,-0.007229185911786332,0.005862717202342542,0.9923062078062146
2014-02-28,-1,-0.0015746721215617978,-0.0011939288358022789,-0.007229185911786332,0.004697602301852752,0.9925281960642706
2014-03-04,-1,-0.0011306592095429386,-0.0007725436740982092,-0.007229185911786332,0.005917532353791811,0.9918619079970353
2014-03-06,-1,-0.0014073930458034332,-0.00103385390489006,-0.007274731576140045,0.005917532353791811,0.9916409178668408
2014-03-10,-1,-0.0011604222663904086,-0.0008376914592848106,-0.008243094504957292,0.004697602301852752,0.990503432414855
2014-03-12,-1,-0.0017208734057728248,-0.0013229642864109247,-0.008243094504957292,0.006224233576027982,0.9894597408800233
2014-03-14,-1,-0.0023735879678182777,-0.0019115300927779165,-0.010006646844515183,0.006224233576027982,0.988150181269206
2014-03-18,-1,-0.0013493085990761394,-0.0010588280695721297,-0.010006646844515183,0.005095576256308303,0.9886167270705886
2014-03-20,-1,-0.0014656841537335516,-0.0011799068956607171,-0.008243094504957292,0.010161961023876176,0.9879806380383322
2014-03-24,-1,-0.002292639235908778,-0.0019134394468720123,-0.006556718329013807,0.010297393277445537,0.9883154590799101
2014-03-26,-1,-0.0021127764090542217,-0.0017615976376693545,-0.006556718329013807,0.01164544770681896,0.9881526514536058
2014-03-28,-1,-0.0022652308750362293,-0.0019030867937434644,-0.008243094504957292,0.011652196866118934,0.9872849843850283
2014-04-01,-1,-0.0010618933869592194,-0.0008170080967284727,-0.008243094504957292,0.011023750768244382,0.9887942637322048
2014-04-03,-1,-0.0015934051299735796,-0.0012763235199585784,-0.004271623992529263,0.011023750768244382,0.9887890647760679
2014-04-07,-1,-0.0023429890511711127,-0.0019825034592381796,-0.0013160450044640544,0.011023750768244382,0.9896426255250108
2014-04-09,-1,-0.0010135894048147159,-0.0008303652131748317,-0.0032528360718232134,0.009088662889077132,0.9911077981711508
2014-04-11,-1,-0.0027313905687054545,-0.0023478061657424805,-0.0001995914883733961,0.009673446619104301,0.9914920471112832
2014-04-15,-1,-0.0021620884328741523,-0.0018679095368277616,-0.0013160450044640544,0.011023750768244382,0.9904592017216197
2014-04-17,-1,-0.00041148380346976384,-0.00038061498480983544,-0.0032528360718232134,0.009673446619104301,0.9912734248506836
2014-04-22,-1,-0.00026873602979389516,-0.0002409347467386319,-0.005245570333131661,0.011023750768244382,0.9900158421405508
2014-04-24,1,0.0003447826222957581,0.0004160356918502953,-0.005245570333131661,0.011130008885326947,0.9894216104084642
2014-04-28,1,0.00047580583175996927,0.0005799218640442864,-0.0032528360718232134,0.01252472175940715,0.989382570530358
2014-04-30,1,0.0011420325435743852,0.0013285845418492376,-0.0032528360718232134,0.010757678557328919,0.9901348365585956
2014-05-02,1,0.001090364200372194,0.0012768673971465688,-0.004697009980988955,0.011801525986377705,0.9895462740543649
2014-05-06,1,0.0009103003083688643,0.0010496913015925113,-0.0061071991530664005,0.013643692442516061,0.988515896862771
2014-05-08,1,0.0006912028590329301,0.0007903155377750127,-0.0061071991530664005,0.013643692442516061,0.9882222918560455
2014-05-12,1,0.0016724658401582283,0.0019462765862195948,-0.007819929311744571,0.013643692442516061,0.9886406389085567
2014-05-14,1,0.0019755364711514225,0.0023038481490948387,-0.007819929311744571,0.01113066878503189,0.9896812694092889
2014-05-16,1,0.0020191694395589673,0.0023897806111698905,-0.0061071991530664005,0.01113066878503189,0.9905167129110778
2014-05-20,1,0.0020522593312900872,0.0024324061087350785,-0.005258002366429572,0.009861079325570897,0.9919332835570197
2014-05-22,1,0.002839225485086615,0.0033128482417508452,-0.005258002366429572,0.00925257173015901,0.9923586964540515
2014-05-27,1,0.003540450425060288,0.004094904581425705,-0.0057095536924555105,0.0013995766294504404,0.9923048489655311
2014-05-29,1,0.003781033618806406,0.004363825660655579,-0.0057095536924555105,0.0013995766294504404,0.9922666657103026
2014-06-02,1,0.0039094828520416245,0.004497351637774299,-0.005391809580428643,0.0022447859096821447,0.9921952544908768
2014-06-04,1,0.003900447452097862,0.004440458641549603,-0.005391809580428643,0.0013995766294504404,0.9925571836553
2014-06-06,1,0.0032066278095995698,0.0036417625662083196,-0.005391809580428643,0.0017170719033922613,0.9930303497119801
2014-06-10,1,0.002977871498217847,0.003396049516426688,-0.005391809580428643,0.0017170719033922613,0.993341038343123
2014-06-12,1,0.002445750659068797,0.002783744805793584,-0.004046078838480936,0.003197665105641376,0.994140611362385
2014-06-16,1,0.0022803614169631726,0.0025993057002816505,-0.0029379591077176646,0.003441835041267137,0.9944670989854685
2014-06-18,1,0.001687178987369134,0.0018320979924800885,-0.006225170528783057,0.003197665105641376,0.9936762401222007
2014-06-20,1,0.0013736547732589996,0.0014640564712128487,-0.006225170528783057,0.003441835041267137,0.9930860541953884
2014-06-24,1,0.0013569956649766785,0.0014558185476662416,-0.005315722164796124,0.004532938081701237,0.9930351857107553
2014-06-26,1,0.00039804267418346804,0.0004997146513339821,-0.005315722164796124,0.005977642070698432,0.9929788313881573
2014-06-30,1,0.0014660536038441027,0.0015010595397373632,-0.005315722164796124,0.004532938081701237,0.9937359431517067
2014-07-02,1,0.0015352091826243042,0.001669923160251681,-0.005315722164796124,0.004532938081701237,0.9933350708554565
2014-07-07,1,0.0013471142931188432,0.0014456958974499838,-0.004662515450887224,0.004532938081701237,0.9939235381302457
2014-07-09,1,0.0010472952325014072,0.0010982852398154154,-0.004662515450887224,0.004532938081701237,0.9938894231007716
2014-07-11,1,0.0013801441535878979,0.0015019271129099439,-0.0050782747706546606,0.005977642070698432,0.9926619556788784
2014-07-15,1,0.0011945195749598135,0.001253673629455021,-0.0056887507470834014,0.007147224256932233,0.9922458095052813
2014-07-17,1,0.00013013624155863463,0.0002119053155188749,-0.004662515450887224,0.007147224256932233,0.9931088765664302
2014-07-21,1,0.000703328237523952,0.0007109245101486632,-0.0024355775299682624,0.006392767537340485,0.9939070866666433
2014-07-23,1,0.0011114038612541955,0.0011828170834258253,-0.0024355775299682624,0.007147224256932233,0.9933596628765482
2014-07-25,1,0.0019363572690312904,0.002172268267995337,-0.0030995720486364114,0.006487440163429294,0.9934413608826048
2014-07-29,1,0.0014770308477354138,0.001627586558781421,-0.002663841858307903,0.006487440163429294,0.9934616118701939
2014-07-31,1,0.0006864222594186316,0.0007324481607103783,-0.002663841858307903,0.0077075686387226925,0.9936941749142132
2014-08-04,1,0.0009229742163348051,0.0009689462438341067,-0.002663841858307903,0.006487440163429294,0.9939479274946544
2014-08-06,1,5.550184357408164e-05,0.00015845408134907682,0.00022495541798723336,0.006487440163429294,0.9938014773480734
2014-08-08,1,8.303446287300539e-05,0.00016122845535379742,0.000991978698610024,0.006127101201254646,0.9951900412884686
2014-08-12,-1,-0.0002996980440179237,-0.00015474147819351887,0.000991978698610024,0.005203627251824796,0.9952400935299335
2014-08-14,-1,-0.0006895623005052832,-0.0004472254718583072,-0.002663841858307903,0.004794114248698701,0.995056358120599
2014-08-18,-1,-0.0005290370648197317,-0.00031146786233357353,-0.002663841858307903,0.005203627251824796,0.995002054603215
2014-08-20,1,0.0002108080929118279,0.00035954407928231503,-0.0029513823141796803,0.004794114248698701,0.9956231128577315
2014-08-22,1,0.0010488635305350188,0.001080792137294445,-0.004206560988603024,0.004412195354834409,0.9953490735671847
2014-08-26,1,0.0007470002436312085,0.0007735009366862658,-0.005138491922470148,0.004412195354834409,0.9951811359641165
2014-08-28,1,1.2059007801175966e-05,0.00019362360535167935,-0.006478336450407233,0.004412195354834409,0.9946177550813688
2014-09-02,1,0.0008455858949491682,0.0008786620654309819,-0.006478336450407233,0.0025718905047477196,0.9948827608523484
2014-09-04,0,-0.00019506139279637036,5.660019423881033e-05,-0.007015565704813768,0.0020371917983684536,0.9943079970146963
2014-09-08,0,-0.00017236898830986895,7.066319271747522e-05,-0.007015565704813768,0.0020545817888053446,0.9934213008074504
2014-09-10,1,8.72149439259906e-05,0.0002534461620351966,-0.0076914581712090105,0.003618981496314788,0.9919163715252475
2014-09-12,-1,-0.000282675195479725,-8.570568107985315e-05,-0.010777968917713501,0.003618981496314788,0.9907957611986313
2014-09-16,1,6.48249808299947e-06,0.0001570767692961131,-0.012119969844339044,0.0031803898263461925,0.9901566789262465
2014-09-18,-1,-0.00020660864814658105,-2.5285766462915704e-05,-0.012119969844339044,0.001037024611768369,0.9906171257906314
2014-09-22,-1,-0.00032649476386483633,-0.00016667570663675407,-0.012119969844339044,0.005816213898233424,0.9894779781157138
2014-09-24,-1,-0.0006122828968239067,-0.00040875866947590056,-0.012119969844339044,0.010245020423330734,0.9883642157483432
2014-09-26,-1,-0.0010047387237505337,-0.0007569237464468379,-0.010777968917713501,0.01492797907933032,0.9883973920608057
2014-09-30,-1,-0.001229193682034298,-0.0009463362921860275,-0.010777968917713501,0.01550510947426355,0.9874878156505904
2014-10-02,-1,-0.0017829780507381044,-0.0014638165085204486,-0.0059487898757659575,0.01550510947426355,0.9879511202850603
2014-10-06,-1,-0.0012965395211663872,-0.0010458234396220104,-0.0037559273068166884,0.015210919664497023,0.9884075076337298
2014-10-08,-1,-0.0013826762394384773,-0.0011015622417454563,-0.0022433776294301633,0.010096510388401468,0.9896158525243355
2014-10-10,-1,-0.002857313109105761,-0.00240479224163775,-0.00014691257929814138,0.010096510388401468,0.9902406419571673
2014-10-14,-1,-0.0026367739315459066,-0.0022592301383289022,0.0003253183129622519,0.011470804448273548,0.9905900769702308
2014-10-16,-1,-0.0022319466614007044,-0.0019497446982646703,0.001516345675959454,0.011470804448273548,0.9907925750716811
2014-10-20,-1,-0.000646296560200513,-0.0005672166110634306,0.00044351194035482304,0.008153055864066757,0.9934767059955545
2014-10-22,1,0.00046098481145363096,0.0005342968259061172,0.00044351194035482304,0.008153055864066757,0.9950814815956126
2014-10-24,1,0.0015286646327875991,0.001771662946540362,-0.0002779654095009082,0.004751490897413184,0.996497197852818
2014-10-28,1,0.0017953680366357143,0.0020424761772074016,-0.0002779654095009082,0.003975206154874492,0.9968851427346317
2014-10-30,1,0.0017472746424703031,0.0019670769121765156,-0.0008281620279650037,0.0038704219749307934,0.9966860126517078
2014-11-03,1,0.0018185058269821067,0.002021936899993366,-0.0020490069418400516,0.0038704219749307934,0.9962961552209347
2014-11-05,1,0.0019347031331598465,0.0021397670633689757,-0.0022955155598990756,0.0032253683663594815,0.9961220826931511
2014-11-07,1,0.0020014577345305274,0.002233253415245235,-0.00253728164957416,0.0038704219749307934,0.9958628741907358
2014-11-11,1,0.0021947713937089178,0.0024421296873571134,-0.004519207928487838,0.0032253683663594815,0.9944287152465119
2014-11-13,1,0.0020621458387460488,0.0022807728162188264,-0.005000091627925781,0.0038704219749307934,0.9930804463944359
2014-11-17,1,0.0019832423392194785,0.0021867924021366884,-0.005778712445473387,0.0038704219749307934,0.9926525868446849
2014-11-19,1,0.002593409698633925,0.002925240794040017,-0.005778712445473387,0.00484738188914881,0.9914394975046336
2014-11-21,1,0.0022422864281131686,0.0024931090773080873,-0.005778712445473387,0.005561857896179802,0.9914104320355684
2014-11-25,1,0.0020549130730453794,0.0022778631282864364,-0.005000091627925781,0.00789403342271453,0.9917093581117102
2014-11-28,1,0.001902064286036567,0.0020888912729030195,-0.005000091627925781,0.00789403342271453,0.9917147458750043
2014-12-02,1,0.002040620963678849,0.0022432523334231166,-0.005588599145018742,0.00597321780055775,0.9917889095961883
2014-12-04,1,0.001976572551728693,0.0021784096443624897,-0.006969013426913523,0.00597321780055775,0.9907054470877081
2014-12-08,1,0.0014047664414180412,0.0014795013874089277,-0.006969013426913523,0.00789403342271453,0.9902628864104827
2014-12-10,1,0.00025149087451369474,0.00030704333155195696,-0.002903545604986249,0.010128089752847496,0.9911351022138354
2014-12-12,1,0.0006486999694375711,0.0006600504696925688,-0.0009651318801419752,0.00789403342271453,0.9925268375621414
2014-12-16,1,0.0003996494945808994,0.00040666277250677916,-0.002903545604986249,0.00789403342271453,0.9921378886649375
2014-12-18,1,0.001630935693722807,0.001773833134173178,-0.005623382092169878,0.0075994284669124714,0.9929147625782945
2014-12-22,1,0.0014399285314496664,0.001507407794025798,-0.005623382092169878,0.007802793866623478,0.9923154557290207
2014-12-24,1,0.0018814388537924998,0.002031694723159384,-0.005623382092169878,0.009426753997623424,0.9917362624533584
2014-12-29,1,0.0017560613173515098,0.0018703370239590933,-0.007176927517723171,0.009426753997623424,0.9911166227729846
2014-12-31,1,0.0011410179966978855,0.0011644154343287162,-0.007845051408719095,0.013478009405404555,0.990622358384649
2015-01-05,1,9.020322258503657e-05,0.00019506821839568203,-0.005922421079744068,0.015337481508577694,0.9906538374158443
2015-01-07,1,0.0009632162375145143,0.0009715440454350409,-0.005922421079744068,0.015685714089129117,0.9903929021566756
2015-01-09,1,0.001336411478766227,0.001407204634092436,-0.007176927517723171,0.014163753348686341,0.9903172649816343
2015-01-13,1,0.0016331604007785504,0.001784917426751926,-0.007176927517723171,0.017095215343438535,0.9896449498233874
2015-01-15,1,0.0010573212740501285,0.0011331293061850923,-0.005503167199813657,0.017769550097353384,0.9892543670759335
2015-01-20,1,0.001324357812461004,0.0014317559150597045,-0.0022267286113722045,0.017095215343438535,0.9900056911226659
2015-01-22,1,0.0019110000881109907,0.002102498258352775,-0.00236215575419593,0.016960045126282516,0.9901240212541278
2015-01-26,1,0.002619261265648515,0.0029179250626987672,-0.0051342803624595135,0.013947843156841028,0.9905905009166844
2015-01-28,1,0.0021810248046944558,0.002428232866549638,-0.002245538481737536,0.013947843156841028,0.9908365264959885
2015-01-30,1,0.002252701637641064,0.002510510054587353,-0.00118606980282595,0.016960045126282516,0.9907159807913218
2015-02-03,1,0.0029400599428422236,0.003274194249125313,-0.0051342803624595135,0.011142468240040485,0.9903593766624503
2015-02-05,1,0.0036026919048883573,0.003997952080432033,-0.006253586739151095,0.008589706820965989,0.9908421261086222
2015-02-09,1,0.0034989886142648427,0.0038811469589830187,-0.006358606033132284,0.004332857066653378,0.9903930175258511
2015-02-11,1,0.0038616026615557134,0.004283143635460011,-0.007736851651768762,0.004332857066653378,0.9896522904722094
2015-02-13,1,0.003877298678746843,0.004273277307480659,-0.009482275211916986,0.004332857066653378,0.9892612186577553
2015-02-18,1,0.003813844408640874,0.0041861980786810525,-0.009482275211916986,0.0077336021105272575,0.9891123440397046
2015-02-20,1,0.003965822447968197,0.004331285498449782,-0.009482275211916986,0.003420725206234359,0.989462218509387
2015-02-24,1,0.0035998632573180037,0.0039058447276889676,-0.009482275211916986,0.003420725206234359,0.9892779467879378
2015-02-26,1,0.0027654924464258195,0.002908073473537392,-0.009482275211916986,0.004323001059235316,0.9894266900803365
2015-03-02,1,0.0035518720450920817,0.003805334073123378,-0.009482275211916986,0.00714765170210642,0.9890805561236075
2015-03-04,1,0.0026337325396878376,0.0027632644577761213,-0.0074444612995424354,0.010342503970928969,0.9901578312177697
2015-03-06,1,0.0014018614336287795,0.0014957251142793115,-0.004333233425788612,0.01084230806073726,0.9904419517921362
2015-03-10,1,0.00018653996919334298,0.0004531206301865849,-0.004333233425788612,0.01084230806073726,0.9905764006795639
2015-03-12,1,0.00024185254209408325,0.0005270745221554421,-0.003968790748256117,0.009154089618137105,0.9916047395136655
2015-03-16,1,0.0008048842574688797,0.0009727967172800193,-0.0027733642234957093,0.005792635986045125,0.9929439997682339
2015-03-18,1,0.0017876758237493709,0.0017986853610205346,-0.0027733642234957093,0.0024239102613689747,0.9933511473223662
2015-03-20,1,0.0019260787450302464,0.001967868453127964,-0.003968790748256117,0.005387951815509499,0.9919437206306613
2015-03-24,1,0.001637215210937004,0.001662889316781969,-0.0021772722814682364,0.008455695404409783,0.9922891389868779
2015-03-26,1,0.0011986902711827382,0.0012248725970606972,-0.0020099852743591523,0.009154089618137105,0.992462772863014
2015-03-30,1,0.0022210440898214404,0.0023359561713620844,-0.0021772722814682364,0.008067380258123341,0.992703109339854
2015-04-01,1,0.0023732755323495882,0.0025186050257251067,-0.0034051080722614538,0.0064810459994001195,0.992610827956566
2015-04-06,1,0.0025026609860688267,0.0026572001250586876,-0.0034051080722614538,0.00642912714690894,0.9925332261811479
2015-04-08,1,0.001943339345238155,0.0020358555296481726,-0.0034051080722614538,0.00642912714690894,0.9930654217941294
2015-04-10,1,0.0015955380946511449,0.0016440121737332206,-0.004057352069056873,0.00642912714690894,0.99060963784417
2015-04-14,1,0.0013467714957302835,0.0013498257637626415,-0.003649154352360954,0.00642912714690894,0.9907298617468553
2015-04-16,1,0.0012059401003123036,0.0012143418282986951,-0.0028149296288156023,0.00642912714690894,0.9908306473576557
2015-04-20,1,0.0006194545534360129,0.0007030432750834414,-0.0009223155284186135,0.007841273413049642,0.9904861790846775
2015-04-22,1,0.0006322660234824378,0.0007283547131092924,-0.0009223155284186135,0.007386155093756258,0.9903128862485078
2015-04-24,1,0.0011382142143055941,0.0011803980102158417,-0.002942041998507504,0.006935738694494886,0.9907780448005375
2015-04-28,1,0.0007811450276948924,0.0008623940493995189,-0.0022630439465191375,0.006935738694494886,0.9908687012762315
2015-04-30,1,0.00031093063956060305,0.0004600335030762195,-0.0030729593636061,0.006935738694494886,0.9908920421556423
2015-05-04,1,0.00034629438196626095,0.0004961302329693476,-0.00474706782370188,0.006170221315618166,0.9908078120978207
2015-05-06,-1,-0.0009312513700033668,-0.0005666332469880873,-0.00474706782370188,0.006935738694494886,0.9902411482431904
2015-05-08,-1,-0.00291917819665778,-0.0023196301939924337,-0.00474706782370188,0.006935738694494886,0.9923272907110751
2015-05-12,-1,-0.0029825410757998274,-0.0023574411681207465,-0.004962435721985492,0.006935738694494886,0.9925688897410063
2015-05-14,-1,-0.00207063545146048,-0.0016194330346172927,-0.006874739685361648,0.006935738694494886,0.9921896792091601
2015-05-18,-1,-0.0006317962125535417,-0.0003577488416292914,-0.007524769250764052,0.0045425370489109015,0.9932753493604923
2015-05-20,0,-0.0001065888925539032,9.585244725389289e-05,-0.007524769250764052,0.0034608136735237603,0.9931854487995583
2015-05-22,-1,-0.0004975177103124633,-0.000252159747672041,-0.007524769250764052,0.0045425370489109015,0.9930772700864681
2015-05-27,-1,-0.00041915723325757783,-0.00016348929997819165,-0.009034829150464264,0.0034608136735237603,0.9931071148422911
2015-05-29,-1,-0.0015838697572671868,-0.0011384331820884187,-0.010480472281309735,0.0034608136735237603,0.9930769607255013
2015-06-02,-1,-0.0015411574142029628,-0.00113440487729956,-0.011731635911578855,0.0034608136735237603,0.9929796266952311
2015-06-04,-1,-0.0015402245598576888,-0.0011526460228383666,-0.010779341511747692,0.0034608136735237603,0.9920293232798134
2015-06-08,-1,-0.002235554685078713,-0.001763646080320409,-0.007384067080229788,0.005024190018064065,0.9919019677986493
2015-06-10,-1,-0.002778458581063783,-0.0022080948977271564,-0.007384067080229788,0.006038669799758702,0.9912216435399489
2015-06-12,-1,-0.003102320478831618,-0.0025124060343566495,-0.006335041611602741,0.007872451650735602,0.9911137320769977
2015-06-16,-1,-0.0029563556825245845,-0.0024154680929984835,-0.003867549521176799,0.007872451650735602,0.9917099517361495
2015-06-18,-1,-0.002300510273497337,-0.0018715142311739816,-0.006335041611602741,0.005444864437582353,0.9918484539630585
2015-06-22,-1,-0.0025077113399979917,-0.0020238076477248914,-0.006335041611602741,0.003725694690885261,0.9921758195814803
2015-06-24,-1,-0.0033210235857649567,-0.0027423773297374178,-0.002473883493521886,0.005444864437582353,0.9918712774611327
2015-06-26,-1,-0.003522513902611015,-0.0029660529814218755,-0.004386221753866516,0.005444864437582353,0.9918247744312407
2015-06-30,-1,-0.003465556096856813,-0.002970582255221666,-0.002473883493521886,0.010749278114995478,0.9903425137174069
2015-07-02,-1,-0.0020410871589854017,-0.0017125561508828716,-0.002473883493521886,0.008066922087485405,0.9927266579264312
2015-07-07,-1,-0.0011826467507265752,-0.0009851061145499736,-0.002473883493521886,0.005110533260300838,0.9935009388989534
2015-07-09,-1,-0.00041319218248628926,-0.00033569431419202026,-0.002473883493521886,0.0025197401789368175,0.9944736000097287
2015-07-13,1,0.0003515085449616156,0.0003759250253338582,-0.002473883493521886,0.005110533260300838,0.9925080248212661
2015-07-15,1,0.0006095809747453617,0.0007093800163551012,-0.00549833836854041,0.005110533260300838,0.9914634426458107
2015-07-17,1,0.00021830631124047082,0.0002553168080301867,-0.004008428392202539,0.007428386515172701,0.9917228950654753
2015-07-21,-1,-7.793313183217659e-05,-5.684837890182837e-05,-0.00543809040106758,0.008319647999827328,0.9912060221148418
2015-07-23,1,0.0009271918640120991,0.0011063266575507612,-0.008064991917860836,0.006746399456781503,0.9900008113760511
2015-07-27,-1,-0.0005319389490907214,-0.00047009299069975235,-0.008175190707015707,0.006746399456781503,0.9880375232063149
2015-07-29,1,0.0007306942897336973,0.0008088959522541001,-0.008177138446560744,0.003214307397849657,0.9875671311880763
2015-07-31,1,0.00022406204324268403,0.0002527272021933594,-0.008177138446560744,0.006746399456781503,0.986688625475561
2015-08-04,1,0.0005329917765930037,0.0005689986654759539,-0.014218859286937995,0.006746399456781503,0.9843511898648443
2015-08-06,1,0.00039301675961429783,0.0004208728425395433,-0.014218859286937995,0.009354993906509868,0.9839355727017793
2015-08-10,1,0.0025429986851442433,0.002897163085556718,-0.016189394031693057,0.006746399456781503,0.9833780469158254
2015-08-12,1,0.001689693573370314,0.0019259990742248633,-0.015004769130594325,0.006746399456781503,0.9842557597172505
2015-08-14,1,0.0017328835299293397,0.0019503329376671184,-0.015004769130594325,0.007064063044788471,0.9838452543556998
2015-08-18,1,0.001467991649190264,0.0016251031768217878,-0.015004769130594325,0.010065141637930678,0.9825674555795976
2015-08-20,1,0.0008264079397799896,0.0009637500045568542,-0.01112724776889439,0.010065141637930678,0.9838130142828552
2015-08-24,-1,-0.0011178263720394762,-0.001025227523851231,-0.0064624371880424815,0.014617102849213972,0.9860756115327066
2015-08-26,1,0.0001201922575186646,0.00020411833489646244,-0.005349222308001032,0.010065141637930678,0.9880475772129307
2015-08-28,1,0.0005342171253325631,0.0006395812020932219,-0.007107759370385592,0.007594701358396348,0.9879604989457124
2015-09-01,-1,-0.001204857055248589,-0.001082675345933113,-0.003988095403489851,0.007594701358396348,0.9894456843915505
2015-09-03,-1,-0.000727236617555566,-0.0006548198684919833,-0.005349222308001032,0.007594701358396348,0.9883070055984248
2015-09-08,1,2.566324809051365e-05,3.984700863542394e-05,-0.005349222308001032,0.007594701358396348,0.9901158501818756
2015-09-10,-1,-0.0005497939007289546,-0.0004743815577197694,-0.003503791957304784,0.008813886502038851,0.9898367439148963
2015-09-14,-1,-0.000343432637520224,-0.0003060013482853566,-0.0025644656381366734,0.008813886502038851,0.9900701667438465
2015-09-16,1,0.0015798228599517574,0.0018309610914609563,-0.007192497984177655,0.007172343503690892,0.991814184607995
2015-09-18,1,0.0010343733170039698,0.0011984787726147734,-0.00370323827124601,0.009694205436847977,0.9912604693859004
2015-09-22,1,0.0014720316763657878,0.0016826022778184894,-0.00370323827124601,0.008844356133428967,0.9915331712524164
2015-09-24,1,0.0015582462298213422,0.0017932313685769651,-0.007163420407456354,0.009694205436847977,0.9903652155692948
2015-09-28,1,0.0010894737561182577,0.0012419015737929675,-0.00370323827124601,0.009930598599119603,0.990727526385764
2015-09-30,1,0.0005555444537044686,0.0005766600958331662,-0.006631470897602907,0.010714711795802334,0.9901834266488927
2015-10-02,1,0.0015118925225041662,0.0016274862355110328,-0.003772245815761901,0.009930598599119603,0.9919128990314201
2015-10-06,1,0.0013771774060386626,0.0014814952569302206,-0.0035590868581590065,0.009930598599119603,0.9926460850346942
2015-10-08,1,0.00222591081788406,0.002519454535933428,-0.006317959415729439,0.008923153854186175,0.9914049697493399
2015-10-12,1,0.0026847922752275943,0.0030647429717242302,-0.006317959415729439,0.008923153854186175,0.9908128947574897
2015-10-14,1,0.0018983039751256459,0.00215490777400547,-0.004442529494595617,0.008923153854186175,0.9919512122113601
2015-10-16,1,0.002914188828465358,0.0033265492196658452,-0.006317959415729439,0.0011065112276105087,0.9902825057250154
2015-10-20,1,0.0028952490793032635,0.003281931548325296,-0.006317959415729439,0.0011065112276105087,0.9902522391100239
2015-10-22,1,0.003134940676681159,0.0035358376493136298,-0.005835516495962015,0.0019183555957454405,0.9914537194101517
2015-10-26,1,0.0032080681939623728,0.0036067274121632477,-0.006317959415729439,0.0019183555957454405,0.9907996594714094
2015-10-28,1,0.0030783955162044653,0.0034235623397398515,-0.005835516495962015,0.001873438421450685,0.9915020679444119
2015-10-30,1,0.002753301216297469,0.0030494707654583745,-0.005835516495962015,0.003323611166514997,0.9919506938053478
2015-11-03,1,0.0022077229810575734,0.002401761874331036,-0.007182214901814343,0.003504504907229356,0.9919010083873487
2015-11-05,1,0.000864038398224344,0.0008652206836843664,-0.005519943938283416,0.003778031446782474,0.9925326468157997
2015-11-09,1,0.0006512546787282202,0.000664859442426429,-0.00936448100524673,0.003778031446782474,0.9921755694397875
2015-11-11,1,0.0006888646807936781,0.0006902533699620496,-0.010043660709163009,0.004452558619003659,0.9905992304060629
2015-11-13,-1,-0.0013661424299512745,-0.001086511703251717,-0.0063819036574090954,0.005324298795549647,0.9920799807543659
2015-11-17,-1,-0.0016995304727634541,-0.0013471626024553667,-0.0063819036574090954,0.006077088163302352,0.9913897908939006
2015-11-19,-1,-0.00181653053806116,-0.0014202101320840215,-0.009397609424778797,0.006077088163302352,0.9913430884373982
2015-11-23,-1,-0.001456618649200079,-0.0011656684042833767,-0.006742448337184703,0.005827086900060034,0.991772456779227
2015-11-25,-1,-0.001260393277347011,-0.0010121036672259066,-0.006742448337184703,0.0065324081980989235,0.9915778633946638
2015-11-30,-1,-0.0010604359199861448,-0.0008507395205045416,-0.006742448337184703,0.0065324081980989235,0.9915489276705398
2015-12-02,-1,-0.0010157661348692045,-0.0008356684053198515,-0.006742448337184703,0.0065324081980989235,0.9913392181946957
2015-12-04,-1,-0.0008687392673460083,-0.0007015925021614513,-0.006742448337184703,0.0065324081980989235,0.9909904940047963
2015-12-08,-1,-0.0016063306767026082,-0.001340273674518705,-0.008427116882134222,0.0065324081980989235,0.9897320510729736
2015-12-10,-1,-0.0024436644041824647,-0.002079754823712995,-0.007100825852831993,0.0065324081980989235,0.9908837983865937
2015-12-14,-1,-0.002025221155812521,-0.0017259449979165808,-0.008427116882134222,0.0065324081980989235,0.9894005926888917
2015-12-16,-1,-0.001629163699116487,-0.0013397349768013592,-0.008427116882134222,0.005827086900060034,0.9893504208655813
2015-12-18,-1,-0.0014596322195465218,-0.0012499335099184108,-0.008614122053296407,0.006439733688849126,0.9890415220188754
2015-12-22,-1,-0.0010612094466042467,-0.0008970814939039343,-0.008614122053296407,0.008027638347569291,0.9879611676810831
2015-12-24,-1,-0.0007765265751976517,-0.0006476447584391615,-0.008614122053296407,0.0085280549164302,0.987559041999832
2015-12-29,-1,-0.0007170393446353316,-0.0005884948102125435,-0.008614122053296407,0.0085280549164302,0.987505440908546
2015-12-31,-1,-0.0002518275184601237,-0.00024410860381972153,-0.007100825852831993,0.010447366802752399,0.9869663312533368
2016-01-05,-1,-0.0009944581279311359,-0.0008855851977406675,-0.007100825852831993,0.008997779792866699,0.9870654242089476
2016-01-07,-1,-0.0020162927897050846,-0.0018024640602625672,-0.006452359526537863,0.008997779792866699,0.9875939987511505
2016-01-11,-1,-0.0020558072394884983,-0.0018410966509781069,-0.006205707121051964,0.00941718729694874,0.9872262329557147
2016-01-13,-1,-0.003099811036522293,-0.0027154930363965826,-0.005081982199093039,0.00941718729694874,0.9877502306220263
2016-01-15,-1,-0.003978161816536677,-0.0033966406305137877,-0.0030010605749959643,0.011508493289964172,0.9870007319175554
2016-01-20,-1,-0.003570690751244254,-0.0030781545077750504,-0.002099991885155943,0.011508493289964172,0.9873361215377294
2016-01-22,-1,-0.0021386031349673006,-0.0018465802631484258,0.0006106308058297938,0.00941718729694874,0.9890486176064718
2016-01-26,-1,-0.0029685514274789423,-0.002503744778862921,0.0006106308058297938,0.008514347972275392,0.9885055680778685
2016-01-28,-1,-0.0025468634992956646,-0.002153008770079525,-0.0012694234160628495,0.010058197828190254,0.9882249974931817
2016-02-01,-1,-0.0012681143095331126,-0.0010542935935787395,-0.0030010605749959643,0.010058197828190254,0.9886420660700045
2016-02-03,-1,-0.0019991422211905812,-0.0016858456712359011,-0.002301316288957026,0.010058197828190254,0.9898401364081522
2016-02-05,-1,-0.0029367353923558546,-0.00251549886431797,-0.0012270310165698808,0.010058197828190254,0.9903399196176388
2016-02-09,-1,-0.0015278153291655135,-0.0013456658687874296,-0.002301316288957026,0.00860450978121506,0.9910344034191915
2016-02-11,-1,-0.0009826287634340093,-0.0008453020120371951,-0.0026072324148052445,0.007038750116511641,0.9914401462964201
2016-02-16,1,0.00036286517956227236,0.000415501790412659,-0.0026072324148052445,0.006457977122438115,0.993156890776417
2016-02-18,1,0.0005891834157265587,0.0006706308649748725,-0.0026072324148052445,0.007038750116511641,0.9924907547806253
2016-02-22,1,0.0007836249369291186,0.0008750064847708715,-0.00398955363376047,0.0072908806681687595,0.9922010485011509
2016-02-24,1,0.000750524111978945,0.0008616055369958823,-0.00398955363376047,0.0072908806681687595,0.992838056689549
2016-02-26,1,0.0015075566138922183,0.0017633072659531972,-0.0050099734276126545,0.0072908806681687595,0.9925970778961888
2016-03-01,1,0.002010078036332215,0.00232772752225069,-0.00398955363376047,0.0072908806681687595,0.9931120407763528
2016-03-03,1,0.0020757420867915767,0.0024144097453236545,-0.00398955363376047,0.0072908806681687595,0.9933414284409271
2016-03-07,1,0.0020888370185033044,0.0024431698139891237,-0.005259166399048712,0.0072908806681687595,0.992834203390459
2016-03-09,1,0.0015079739427021998,0.0017541765135590842,-0.005259166399048712,0.008357692573965562,0.9922822467873563
2016-03-11,1,0.0016446649728096214,0.001953687789252023,-0.0050099734276126545,0.008357692573965562,0.9932567599382107
2016-03-15,1,0.0017300692301437772,0.002061643385825932,-0.005259166399048712,0.01130915780870808,0.992034189328208
2016-03-17,1,0.00250809686383858,0.002963069391347512,-0.005259166399048712,0.0063244941252164,0.9924907431687022
2016-03-21,1,0.002830816754035388,0.0033437321652545027,-0.005259166399048712,0.011803951196403102,0.9922620988436164
2016-03-23,1,0.002800926978358064,0.0033240448107239103,-0.00693766374601552,0.011803951196403102,0.9916268431642492
2016-03-28,1,0.0030015782508686605,0.0035443555307768477,-0.00693766374601552,0.0065681967156755285,0.9922197673926981
2016-03-30,1,0.003636913430587658,0.004255499035505544,-0.00693766374601552,0.005687670272481666,0.9927449106989068
2016-04-01,1,0.0031830499009799455,0.0036813654471801664,-0.007839483327058791,0.005687670272481666,0.9919328493131823
2016-04-05,1,0.002634312367482852,0.003046737830424878,-0.009256922610325775,0.008741688201192655,0.9914564133653248
2016-04-07,1,0.002620294083771693,0.003029352351812869,-0.009256922610325775,0.005687670272481666,0.9916207628383326
2016-04-11,1,0.0022067395784224433,0.0024915450181102737,-0.009256922610325775,0.008741688201192655,0.9909294546100098
2016-04-13,1,0.002537562672184187,0.0028701159451833304,-0.008190048077962808,0.008741688201192655,0.9913658221880566
2016-04-15,1,0.002520690388118251,0.0028632183414747736,-0.008190048077962808,0.00922727957219868,0.9913649649420004
2016-04-19,1,0.0029516842863593806,0.003331968874195944,-0.008190048077962808,0.008006985170742545,0.9914529381816469
2016-04-21,1,0.002304110096831107,0.0025953853731626054,-0.006018040451788238,0.008920044018113995,0.9914455605848661
2016-04-25,1,0.0022772957970988955,0.0025642989121093954,-0.006018040451788238,0.011918622822303127,0.9907108882269328
2016-04-27,1,0.0025165540894293128,0.002820856450074478,-0.00781779914732959,0.017349443617043245,0.989279845066191
2016-04-29,1,0.002121001651581711,0.002379270406696623,-0.006018040451788238,0.017349443617043245,0.9898346001834777
2016-05-03,1,0.0020002818235393778,0.0022128516953731944,-0.005636054177498191,0.011918622822303127,0.9908383599502462
2016-05-05,1,0.000967506821896016,0.0009991350230910655,-0.003936304502859649,0.011918622822303127,0.9918622266111718
2016-05-09,1,0.0015270092277954196,0.0016387722356142945,-0.005411650409627459,0.008920044018113995,0.9921813926799102
2016-05-11,1,0.002134314015523722,0.0023631725902466174,-0.005411650409627459,0.003758651101597567,0.992789930350873
2016-05-13,1,0.0020213219891505067,0.002202679344831585,-0.005622314488280766,0.0018274267204490807,0.9925268395993159
2016-05-17,1,0.0021307380035026956,0.0023436502769245693,-0.006151595906231311,0.0018274267204490807,0.9919471534844839
2016-05-19,1,0.00241153213114079,0.002668866310155102,-0.006151595906231311,0.0018274267204490807,0.9917656964929732
2016-05-23,1,0.00268199220502152,0.002978587533346501,-0.006151595906231311,0.002572559396056499,0.9923180557128658
2016-05-25,1,0.002705790328378743,0.0029689903630353565,-0.0055834976525384996,0.002572559396056499,0.9933831226045116
2016-05-27,1,0.0020994000105909847,0.002260546171715493,-0.0067059008592310065,0.002572559396056499,0.9911625488856797
2016-06-01,1,0.0013225928517485975,0.001338800534957265,-0.006664681791578732,0.009878726869000164,0.9903403841201843
2016-06-03,1,0.0011168455868139143,0.0011679587992834309,-0.006664681791578732,0.011292244413397245,0.9892757700877893
2016-06-07,1,0.000288596536012102,0.0004625942958803232,-0.004356640304993407,0.011292244413397245,0.9897580080032805
2016-06-09,1,0.0003489613499924265,0.0005144482136444048,-0.004356640304993407,0.012243121874924833,0.9891142575856383
2016-06-13,0,-0.00023343879036157944,1.7453132589414014e-05,-0.00037944392273460826,0.012243121874924833,0.989174306950215
2016-06-15,1,0.00041391052879722663,0.0005503835568522555,-0.00037944392273460826,0.011292244413397245,0.9902405719384898
2016-06-17,1,0.00013420611779540418,0.00030181314770001813,-0.0006540915932732197,0.01003373074164986,0.9910855219293774
2016-06-21,1,0.00043595975530218216,0.0005675491143825815,-0.0006540915932732197,0.009093309179111542,0.9911178477950214
2016-06-23,1,0.001165361196017941,0.0011758890222060374,-0.0011967731097430878,0.00863991764697622,0.9912878764861818
2016-06-27,-1,-0.0010040173573209264,-0.0007091159496943965,-0.0004112655887986896,0.010268010473138111,0.9924857993220427
2016-06-29,-1,-0.0006279603915567676,-0.0003409166877578324,-0.0025985750566936707,0.0063273697363428714,0.9939454830219021
2016-07-01,1,0.0001850155702486924,0.00036033382851893825,-0.0025985750566936707,0.0063273697363428714,0.9946801713535939
2016-07-06,1,0.0005260050770012762,0.0006462393147450586,-0.00282415495392712,0.0063273697363428714,0.9943430335662639
2016-07-08,1,0.0013240038497145717,0.0013410589041968897,-0.00282415495392712,0.006033519579350247,0.9943879338660317
2016-07-12,1,0.001426358009651871,0.001462875343796239,-0.0032013332335592156,0.006033519579350247,0.994381017908497
2016-07-14,1,0.0015430767944207163,0.0016044168452968113,-0.00434774632407314,0.007323776424055406,0.9938693108797604
2016-07-18,1,0.001073781963368149,0.0010941114880088213,-0.005824488290099495,0.007323776424055406,0.9934686462120322
2016-07-20,1,0.0015590174158150935,0.0016206331689014456,-0.0066382655733875275,0.005067227898949607,0.992826168086353
2016-07-22,1,0.0018795904361823715,0.0020063013914054808,-0.0066382655733875275,0.0040294433145924005,0.9932699915407421
2016-07-26,1,0.0018901137721878867,0.0020084921548946663,-0.006486129129146175,0.004077653549038393,0.9933422389665589
2016-07-28,1,0.001363476606477169,0.0013996896896842478,-0.0057737761420190445,0.005067227898949607,0.9935619944684071
2016-08-01,1,0.0014676578663757208,0.0014903796145326691,-0.0057737761420190445,0.004077653549038393,0.9940224306942862
2016-08-03,1,0.0008163647357788984,0.0008944878082500344,-0.00434774632407314,0.004077653549038393,0.9944945533421542
2016-08-05,1,0.0009799156787781,0.001049013039245616,-0.00434774632407314,0.005570569229557832,0.9939067308171223
2016-08-09,1,0.0011324055441497426,0.001153482688579736,-0.0022712516857692133,0.0057687856455565225,0.9939487684346532
2016-08-11,1,0.0012824617182925421,0.0012829785782990444,-0.0053467445070506945,0.004031945167524571,0.9933538981118137
2016-08-15,1,0.00040524010429542404,0.0005247778383902145,-0.0021289078074464302,0.005081288694399768,0.9930336687813232
2016-08-17,-1,-0.000288064189137421,-9.491694910090888e-05,-7.002046175130891e-05,0.0078593033170874,0.9928100061940073
2016-08-19,1,0.00023170979366938973,0.0003253145515617425,-0.0012325542473628902,0.0078593033170874,0.9930734454428475
2016-08-23,1,0.000822344387017262,0.0008450790987859019,-0.0012325542473628902,0.0078593033170874,0.9934543192835864
2016-08-25,1,0.0007367599329355094,0.0007968687153017925,-0.0023522583491528363,0.005360908339713411,0.9929819890569506
2016-08-29,1,0.000586433820846072,0.0006747789942823253,-0.00654543747192962,0.0078593033170874,0.9917280432619481
2016-08-31,1,0.000685242876458166,0.0007537582040965564,-0.011155814258675673,0.0078593033170874,0.9902630692540935
2016-09-02,1,0.0014734291983525762,0.00151467890983814,-0.011155814258675673,0.004973477397300772,0.9909454036546471
2016-09-07,1,0.0014727707931012184,0.0015032061792150662,-0.011155814258675673,0.004973477397300772,0.9907967958102073
2016-09-09,1,0.0008535969178709534,0.0008634832733055837,-0.011155814258675673,0.006472377199791373,0.9911242120374862
2016-09-13,0,-2.31707006523934e-05,0.0001240449825399431,-0.011155814258675673,0.004973477397300772,0.9911094630977182
2016-09-15,-1,-0.00022890822764417933,-5.620407856613159e-05,-0.006001938733477779,0.004408344885718716,0.9918404867364531
2016-09-19,0,-0.00010044548335963487,4.09205157966767e-05,-0.006001938733477779,0.004973477397300772,0.9914591544341632
2016-09-21,0,-7.314278845833833e-05,8.979798051789818e-05,-0.00870218877618736,0.004408344885718716,0.9917257840918818
2016-09-23,-1,-0.0004401539597058327,-0.0002401704052398837,-0.00870218877618736,0.003965607928590541,0.9920595294099459
2016-09-27,-1,-0.0008073185780515556,-0.0005323112202661847,-0.005086042113480781,0.003965607928590541,0.9928689219772678
2016-09-29,-1,-0.0012959460461539909,-0.000997215845407073,-0.008067753131955614,0.0036401003409808107,0.9937083994457446
2016-10-03,-1,-0.0010439425597208755,-0.0007931127782543474,-0.008067753131955614,0.0036401003409808107,0.9934237853592486
2016-10-05,-1,-0.0011008534340098337,-0.0008533368985677336,-0.008375648985510587,0.0036401003409808107,0.9931887459012068
2016-10-07,-1,-0.0012959311708729327,-0.0010300896660272708,-0.007888924107375354,0.0031241244391236587,0.9942589111921617
2016-10-11,-1,-0.0019814563394181224,-0.0016498343556650135,-0.004456474482446917,0.0047185241724067815,0.9939467371268983
2016-10-13,-1,-0.0013642905885343,-0.0011401859447720828,-0.008375648985510587,0.00451896858255577,0.9906534786452527
2016-10-17,-1,-0.0009580626295560449,-0.0008059138297415265,-0.008375648985510587,0.0031241244391236587,0.991106105616308
2016-10-19,-1,-0.001222264164185605,-0.0010345965947799662,-0.008375648985510587,0.007345724003365682,0.9896262920085154
2016-10-21,-1,-0.00174670357745737,-0.001483679836156563,-0.003335661583044533,0.007607565537700075,0.9882949194509226
2016-10-25,-1,-0.0014093293458861894,-0.0011887735228689163,-0.003335661583044533,0.007748374550859876,0.9886001943021069
2016-10-27,-1,-0.0021108666083169856,-0.0017955043934481801,-0.0013392005733156714,0.007748374550859876,0.9886555373068903
2016-10-31,-1,-0.0017832766671083153,-0.0015055487121088187,-0.0013392005733156714,0.007748374550859876,0.9886888746288417
2016-11-02,-1,-0.002347229798153614,-0.0019860099396239736,-0.0013392005733156714,0.007748374550859876,0.9869231690655318
2016-11-04,-1,-0.002216967086926098,-0.0018831189054723308,-0.0031121430951877496,0.008071523950287672,0.9862866115424942
2016-11-08,-1,-0.0015675961169330207,-0.001301366748634071,-0.0031121430951877496,0.008071523950287672,0.9867141984107906
2016-11-10,-1,-0.003699469830991126,-0.003202797991403254,-0.0009737469168238783,0.008071523950287672,0.9886279756257644
2016-11-14,-1,-0.0036363129121887603,-0.003165843395988713,-0.0006836163443142756,0.008071523950287672,0.988340113448472
2016-11-16,-1,-0.003708104827462873,-0.00313825949300229,-0.0021397028652752285,0.006615454011627553,0.9899159529528114
2016-11-18,-1,-0.001765301837543508,-0.0014762053344105613,-0.0021397028652752285,0.006185726234247277,0.9921348514373313
2016-11-22,-1,-0.0010049236742553265,-0.0008472032110930168,-0.006487634550400103,0.006185726234247277,0.9919795076082608
2016-11-25,-1,-0.0008123555816454533,-0.0006833682607817422,-0.006487634550400103,0.006403424270949171,0.9918496726059921
2016-11-29,0,-7.383238444532958e-06,4.249969585109899e-06,-0.006487634550400103,0.006185726234247277,0.9925342027736227
2016-12-01,-1,-0.0012390737317596388,-0.001092781199756821,-0.001454590673797871,0.006185726234247277,0.9933651055229601
2016-12-05,-1,-0.0012239455597490892,-0.0010855471028360635,-0.0013951837464214918,0.006185726234247277,0.9936974522423709
2016-12-07,-1,-0.0005896909219077263,-0.0005137568075634408,-0.005237325752013008,0.005260832337890595,0.9946842025802266
2016-12-09,-1,-0.00015264036461676314,-0.00015058935137304938,-0.005237325752013008,0.005260832337890595,0.9948425523500383
2016-12-13,-1,-0.00021799158752630978,-0.00021521250304153464,-0.002977563764017763,0.005260832337890595,0.9952318021821376
2016-12-15,-1,-9.923072727497657e-05,-7.094861733870029e-05,-0.0020395948165647278,0.004307071855936456,0.9958541709043657
2016-12-19,1,1.5041409327806426e-05,4.033391566787767e-05,-0.002977563764017763,0.0036244328725881896,0.9959586640347605
2016-12-21,1,0.00012389873880413758,0.00018957798030810812,-0.0020395948165647278,0.0032508488089591434,0.9967884311533096
2016-12-23,1,0.0002323169024092167,0.0002976545419665279,-0.0020395948165647278,0.0036244328725881896,0.9958860798445601
2016-12-28,1,0.0006354343655185488,0.0007757081900789217,-0.0023997294464473745,0.0023913396922940634,0.9958621561933447
2016-12-30,1,0.0005282070818869269,0.0006517350149269239,-0.0023997294464473745,0.0018115159987983035,0.9958289729973467
2017-01-04,1,0.0007079664107273208,0.0008694817021090277,-0.0023997294464473745,0.0018115159987983035,0.9943382555374504
2017-01-06,1,0.0004562987657279512,0.0005570685893940893,-0.0023997294464473745,0.0018115159987983035,0.9940440759740891
2017-01-10,1,2.889873618319273e-06,6.318191966214566e-06,-0.003240182228025255,0.0029115839200857963,0.9937612511788001
2017-01-12,1,0.00018478449632513313,0.000222598937187572,-0.004793823078475219,0.0031054813779249953,0.9930683821773001
2017-01-17,1,0.0005232390099281017,0.0006437476028123457,-0.004934841473327941,0.006707179762105968,0.9924592870279693
2017-01-19,1,0.0005144089770009088,0.0006548164279323185,-0.004573178832197192,0.008365379079088308,0.9921574797671354
2017-01-23,1,0.0005968284087141389,0.0007483570661833258,-0.004573178832197192,0.008365379079088308,0.9918312035664557
2017-01-25,1,0.0014685733458163223,0.0017430597832252914,-0.004573178832197192,0.007103011908212648,0.992827724898664
2017-01-27,1,0.0017281964027691986,0.0020816075798638966,-0.005322396320295625,0.008203818277317568,0.9918944956419534
2017-01-31,1,0.0015781220928172968,0.001926954920671641,-0.005290151880153017,0.00837179086834457,0.9913536475414755
2017-02-02,1,0.0018362721736473644,0.0021686948609667307,-0.005290151880153017,0.008203818277317568,0.9925323645998173
2017-02-06,1,0.0017358857447780898,0.0020375508693820333,-0.006532292182143746,0.007103011908212648,0.9923997985871577
2017-02-08,1,0.0017307064250531132,0.002026435941259872,-0.006532292182143746,0.007103011908212648,0.9924576798768712
2017-02-10,1,0.0013708073219244356,0.0016205746729977776,-0.005198827476539575,0.007103011908212648,0.9930707600311532
2017-02-14,1,0.0017003452306208642,0.002018627541045943,-0.005198827476539575,0.0052011088399911,0.9935407069534747
2017-02-16,1,0.001997985001642772,0.002335815418292779,-0.005198827476539575,0.003799015742185869,0.9936527484862928
2017-02-21,1,0.002271499085641602,0.002652851100043015,-0.007182218924945667,0.0020739943165150434,0.9926236239789726
2017-02-23,1,0.0018496769912426496,0.00213180653138975,-0.007182218924945667,0.003799015742185869,0.9924443034745523
2017-02-27,1,0.0022520868130366843,0.002591688773376785,-0.006532292182143746,0.0013121513493916286,0.9930823142367636
2017-03-01,1,0.0024937419881098173,0.0028565223905825774,-0.005432544190638976,0.0013121513493916286,0.9937865538009683
2017-03-03,1,0.001942461721854354,0.002219251719993013,-0.004886214107962272,0.0037009679931901077,0.9947195099640321
2017-03-07,1,0.0010149370282139835,0.0011172895708124878,-0.004623683894814554,0.0037009679931901077,0.9950202706613318
2017-03-09,1,0.001001477986908863,0.001104253958944235,-0.004457112516695851,0.0015486235442142516,0.9953941664933401
2017-03-13,1,0.0010779157527863316,0.001196280147624023,-0.004457112516695851,0.0015728008798042451,0.9952258241248623
2017-03-15,1,0.000926443558847972,0.0010070943543394968,-0.004457112516695851,0.0037734999999600883,0.9945984463492278
2017-03-17,1,0.0009014055727770253,0.0009576008523040486,-0.004701589466181021,0.0037734999999600883,0.9938896895498553
2017-03-21,1,0.0003356212940324688,0.0003357411342081899,-0.004354143634510401,0.00427461828390528,0.9948925771429126
2017-03-23,1,2.2694721913639758e-05,9.280313598321072e-05,-0.003839820084869359,0.003767367219531942,0.9954544028935087
2017-03-27,0,-3.1041883181629544e-05,2.6648070490984624e-05,-0.0024105324767138277,0.004481109089418186,0.9948737309968042
2017-03-29,-1,-0.0003068820009241475,-0.00019865562530147786,-0.001002790609659248,0.005116585780557679,0.9949047428701872
2017-03-31,-1,-0.00016109932605870396,-6.802630589196053e-05,-0.0022181000156462237,0.004462710748133748,0.9950753521562744
2017-04-04,-1,-0.0002132810980465102,-0.00015397130488406302,-0.001002790609659248,0.004462710748133748,0.995304980513027
2017-04-06,-1,-0.002372589867644435,-0.0018877304324607276,-0.003052807613497133,0.004462710748133748,0.9946845299393466
2017-04-10,-1,-0.0026155013577763083,-0.00209253471665016,-0.003052807613497133,0.004462710748133748,0.9946389729201583
2017-04-12,-1,-0.0012261784227191618,-0.0009453821536779626,-0.003052807613497133,0.004462710748133748,0.9938414523865664
2017-04-17,-1,-0.00022197229774096786,-0.0001356963135672972,-0.0011497380302516137,0.004462710748133748,0.9942519122620908
2017-04-19,1,0.00012970143598301588,0.00016299442265824468,-0.003052807613497133,0.005469356888521315,0.9934863044751101
2017-04-21,1,0.00030005554034790577,0.00030785129047288483,-0.003052807613497133,0.008379072882901463,0.9928426147109147
2017-04-25,1,0.0012242612971477005,0.0013696554794111664,-0.003052807613497133,0.007748524127734436,0.993017078666783
2017-04-27,1,0.0005614616937249899,0.0005921360404172117,-0.003052807613497133,0.011082532037648345,0.9924341786747741
2017-05-01,1,0.00021747571043962812,0.0002973943050575571,-0.0031020613305749803,0.011082532037648345,0.9922342247302639
2017-05-03,1,0.00034231751660182287,0.0003666824262757949,-0.002479390884649342,0.012426571886494433,0.991309811265953
2017-05-05,1,0.0001018927529368463,0.0001486261806826398,-0.0008896681393258854,0.012426571886494433,0.9909611239425659
2017-05-09,-1,-0.00046530464494221247,-0.000336293333005557,-0.0008896681393258854,0.012426571886494433,0.990380826599156
2017-05-11,1,0.0009011151849953606,0.0009324775176869438,-0.006899676556253401,0.011082532037648345,0.9912415364107511
2017-05-15,1,0.001628014233018253,0.0017704781932549548,-0.006899676556253401,0.010485009661984913,0.991621231233347
2017-05-17,1,0.0016815280012370025,0.001815583180025642,-0.0034310663392644485,0.009543812174441267,0.9923088753516118
2017-05-19,1,0.002161610419838038,0.0023712458816447985,-0.005040988550575297,0.00918250689262715,0.9925365213813617
2017-05-23,1,0.0025284405865099225,0.002797393962353259,-0.005617252656914502,0.008768302561224597,0.9927216274977767
2017-05-25,1,0.003167978580802028,0.0035082558116493927,-0.005617252656914502,0.004661012613549195,0.993527867523864
2017-05-30,1,0.0027624025741454,0.003045701342398034,-0.005617252656914502,0.004661012613549195,0.9933174333038836
2017-06-01,1,0.003595648866337486,0.003981127000142572,-0.0074964802438509635,0.003631723342082424,0.9932777581375272
2017-06-05,1,0.00307363676216037,0.003373869046555952,-0.005617252656914502,0.004320261147094418,0.9936109527442605
2017-06-07,1,0.0025768587975223828,0.00281176741559814,-0.005617252656914502,0.005543982911533832,0.9934267763140786
2017-06-09,1,0.001533189688645434,0.0016247933498507985,-0.004788974671059397,0.005964463752521091,0.9939152268830036
2017-06-13,1,0.0017134082056407152,0.0018082727888586948,-0.004788974671059397,0.005964463752521091,0.993696509058781
2017-06-15,1,0.001832207498061366,0.0019412136088119455,-0.005473455795456697,0.005543982911533832,0.9934932169841731
2017-06-19,1,0.0023384041343371,0.0025667791372755025,-0.005617180272036122,0.005272239290075987,0.9935911029137696
2017-06-21,1,0.002036374307572672,0.0022090583082813938,-0.005617180272036122,0.005543982911533832,0.9932392947953742
2017-06-23,1,0.001925407800676413,0.002054722134948295,-0.005617180272036122,0.005964463752521091,0.9928972608560843
2017-06-27,1,0.0016771532677110344,0.001821000682975103,-0.005617180272036122,0.00699909919711247,0.992872985704015
2017-06-29,1,0.0014070475591921577,0.0015119903351881582,-0.005617180272036122,0.00699909919711247,0.9932307022625181
2017-07-03,1,0.0014077511810134953,0.0015109751887897075,-0.005617180272036122,0.00833399627127732,0.9932546716919738
2017-07-06,1,0.0007016034812219922,0.0007182496006587504,-0.005617180272036122,0.008445148702158383,0.9933830418384758
2017-07-10,1,0.0008060233855368313,0.0008085291064657619,-0.005748098316056248,0.008210037121836482,0.9935997456683923
2017-07-12,1,0.001242666568176626,0.001325760683213142,-0.006764474671643896,0.006018878012407021,0.993489598851002
2017-07-14,1,0.0012120204955755713,0.0013043743391683035,-0.007248626752250359,0.008210037121836482,0.9911664456403042
2017-07-18,1,0.0008751325386189162,0.0009089989084710298,-0.007248626752250359,0.008445148702158383,0.9906237180657264
2017-07-20,1,0.0013256109524497656,0.0014432064898273987,-0.007580318622488534,0.008445148702158383,0.9903528496021335
2017-07-24,1,0.0018191467575183022,0.0020224092581690696,-0.007580318622488534,0.008210037121836482,0.9905833438387232
2017-07-26,1,0.0014896043038718182,0.0016158188777568763,-0.007263046557265132,0.006853434935050404,0.9911514927541527
2017-07-28,1,0.0008292914066444427,0.000832300272517811,-0.00588240046330677,0.006853434935050404,0.9912436558126447
2017-08-01,1,0.001186274220156485,0.0012319042900593015,-0.00588240046330677,0.0050696425729682935,0.9916396114715562
2017-08-03,1,0.0010387643016723598,0.0010643231998608478,-0.004971357077995538,0.0050696425729682935,0.9916744419403305
2017-08-07,1,0.0005722261899106819,0.0006063736230423938,-0.0027713411942481563,0.0050696425729682935,0.9920154983700298
2017-08-09,1,0.00011752170832386057,0.0001951665465175351,-0.001574467134140701,0.006497222903633925,0.9921667522236628
2017-08-11,-1,-0.0006746893016182463,-0.0004596275699873493,-0.0005792904029610889,0.006497222903633925,0.9941573324977343
2017-08-15,1,0.00025821027202617804,0.00036046761998268997,-0.001574467134140701,0.0045974051030091894,0.9948847262319144
2017-08-17,1,0.00013956199067353156,0.0002738420866568195,-0.00170912304238963,0.0037861158095399854,0.9956812378488966
2017-08-21,0,-5.440949666316101e-05,0.00010724661933576987,-0.00170912304238963,0.0037861158095399854,0.9954385189737854
2017-08-23,1,0.00021848027212485738,0.0003416450114426778,-0.00170912304238963,0.0037861158095399854,0.9953439469070574
2017-08-25,-1,-0.0003520965802885007,-0.00012713655832452954,-0.001574467134140701,0.006894000323075469,0.9946461881736736
2017-08-29,-1,-0.0005830602747712532,-0.00032483664447887685,-0.001815830725667484,0.006894000323075469,0.9945088861506254
2017-08-31,0,-7.774116092989895e-05,0.00012936803158041064,-0.0021496063301627206,0.0046810435304235065,0.9950360660297719
2017-09-05,1,9.356485560263743e-05,0.000262640464337631,-0.0021496063301627206,0.006894000323075469,0.9947759898175664
2017-09-07,1,0.0003512855508937876,0.0004923638442711341,-0.0021496063301627206,0.0048269056676220985,0.9952033048215583
2017-09-11,1,0.0008429367382798995,0.0009213885613835756,-0.0021496063301627206,0.004310121568336016,0.995574084713792
2017-09-13,1,0.00040708606719431877,0.000536781093337107,-0.001953238384906723,0.0040755732223876715,0.996244975654537
2017-09-15,1,0.00046956329992040166,0.0005628697348741107,-0.0006707077797867616,0.004782819107156831,0.9962135846775618
2017-09-19,1,0.0004416646290736021,0.0005301567016207241,-0.0005144736878427152,0.005492114720224704,0.996228756058291
2017-09-21,1,0.000558702024216463,0.0006460924439428045,-0.0005144736878427152,0.005492114720224704,0.9963209034602969
2017-09-25,1,0.0010354505893691575,0.0010871423683161668,-0.0005976316646871683,0.004782819107156831,0.9968290344549279
2017-09-27,1,0.0004682680335618419,0.0006051245530479734,-0.0002724463270890622,0.004782819107156831,0.9970828641960391
2017-09-29,0,-0.00012298267961394996,0.00010638112991831873,-0.00015301186358507415,0.006499034126149411,0.9964794408510642
2017-10-03,1,0.0010390307778833105,0.0010761261033286065,-0.0002724463270890622,0.005492114720224704,0.9966910300163799
2017-10-05,1,0.0012542993288821285,0.0012749921414791792,-0.0005976316646871683,0.0059083021997574075,0.9964189338183113
2017-10-09,1,0.00142414640493549,0.0014779234847828002,-0.0005976316646871683,0.006312278580628156,0.9963307140402835
2017-10-11,1,0.0014658384488944426,0.001546304376618813,0.0003557398105137059,0.006910546263079679,0.9948279949426989
2017-10-13,1,0.0018640322119830013,0.002013234544746149,-0.0005976316646871683,0.007161979989074754,0.9933600401529515
2017-10-17,1,0.0023874237721431355,0.002653443463115164,-0.0006222232596322879,0.0076647878643657606,0.992212366357403
2017-10-19,1,0.0024340386996539827,0.002684386652466961,-0.001529404448508665,0.007355954953797071,0.9917136603136554
2017-10-23,1,0.0032134309073965856,0.0036286272335956486,-0.001529404448508665,0.006807601959556782,0.9919023007123775
2017-10-25,1,0.0029084163545551284,0.0032639087586157963,-0.0022902130185035187,0.007727221441457082,0.9906523949889758
2017-10-27,1,0.003359208077023704,0.003744061264421626,-0.0034201104035526224,0.00667189325959015,0.9908783974308802
2017-10-31,1,0.002668382621954361,0.002898494546502029,-0.0049774331226675695,0.006807601959556782,0.9898499093842575
2017-11-02,1,0.0028842405205799547,0.003166778422506268,-0.0049774331226675695,0.007743612258507843,0.9895790263146459
2017-11-06,1,0.0032183134997383614,0.0035549221009635217,-0.010135891862575182,0.007743612258507843,0.9886367279119085
2017-11-08,1,0.004529455527023022,0.005043529725846093,-0.010135891862575182,0.007010064391065619,0.9899216564264934
2017-11-10,1,0.003491611138745132,0.0038570083846768584,-0.0049774331226675695,0.006739380736759761,0.991663462041
2017-11-14,1,0.003995935749085843,0.0044367414532227156,-0.0036877115814780317,0.006649533072288092,0.9926738282958347
