JNU-Tangyin/eata/results/Batch4_SP500/Batch4_SP500-CCI.csv
Date,Action,Predicted_Q25,Predicted_Q75,Actual_Q25,Actual_Q75,RL_Reward
2010-12-14,0,0.0,0.0,-0.0063891389847755865,0.004995413285947801,0.9925263147552323
2010-12-16,0,0.0,0.0,-0.0063891389847755865,0.004995413285947801,0.9912691750575625
2010-12-20,0,0.0,0.0,-0.007119062964912184,0.004995413285947801,0.9906700453189864
2010-12-22,0,0.0,0.0,-0.008739750457517372,0.00928827502732453,0.9900243460187075
2010-12-27,0,0.0,0.0,-0.008739750457517372,0.01049550193914338,0.9894467512670957
2010-12-29,0,0.0,0.0,-0.008739750457517372,0.010920816370473149,0.9886989022426779
2010-12-31,0,0.0,0.0,-0.010580378985432445,0.01049550193914338,0.987759991940939
2011-01-04,0,0.0,0.0,-0.010580378985432445,0.01185549419566532,0.9867654707899589
2011-01-06,-1,-0.0020223371185532973,-0.0015574681437733092,-0.006914177555923224,0.015010816457136934,0.9865266684088022
2011-01-10,-1,-0.00029203614508499964,-9.635791257702809e-05,-0.009185113057042359,0.01599849989437424,0.9859040800797956
2011-01-12,-1,-0.0011658259981684412,-0.0008475856574745113,-0.009185113057042359,0.01599849989437424,0.9856966406039213
2011-01-14,0,0.0,0.0,-0.004960173500145987,0.01599849989437424,0.9864472232446205
2011-01-19,0,0.0,0.0,-0.007243629008687423,0.015003286384212527,0.9875196569417961
2011-01-21,-1,-0.0006534833681351844,-0.0005579544870557926,-0.010246692039639878,0.014083731247418739,0.9870486781209593
2011-01-25,-1,-0.00046237398803640993,-0.00031840493307432955,-0.01550063222340106,0.011982685919191174,0.986307372003827
2011-01-27,0,0.0,0.0,-0.01550063222340106,0.011982685919191174,0.986330485571524
2011-01-31,1,0.00032778247158160394,0.00033592096082965225,-0.012767739464564335,0.011982685919191174,0.9861483096339129
2011-02-02,1,0.0013979237266170995,0.0015248100149042854,-0.012767739464564335,0.011354372234279562,0.9867045258318097
2011-02-04,1,0.0024600596202552444,0.002715029222615198,-0.012767739464564335,0.00559940743557644,0.9871334898415042
2011-02-08,1,0.0018261514107020616,0.0019848075539224174,-0.015299739877349259,0.002398832308577777,0.9877113935214605
2011-02-10,1,0.0025823991732188854,0.0028618509498511656,-0.018444671447728843,0.002398832308577777,0.985519623808715
2011-02-14,1,0.0032141961854948633,0.0035893006183587393,-0.018444671447728843,-0.002986705713955628,0.9849022035935284
2011-02-16,1,0.002685231327800753,0.003020266731410261,-0.018444671447728843,0.0006163107813961082,0.9852264286227951
2011-02-18,1,0.001776987691395535,0.0020148599441228623,-0.018737080462646605,0.0006163107813961082,0.9841830140068089
2011-02-23,1,0.00038298601577192715,0.00045820692505925723,-0.01355593081436862,0.012561626702446803,0.9850446130450615
2011-02-25,1,0.0004923535071720529,0.0005776905563942597,-0.01355593081436862,0.012561626702446803,0.9843876181228018
2011-03-01,-1,-0.0011627432348346588,-0.0010347261357349226,-0.005294086340758669,0.016437068980037755,0.9855468499701847
2011-03-03,-1,-0.0012791158935775014,-0.001104919171276344,-0.005294086340758669,0.01691125123976666,0.9845757717276198
2011-03-07,-1,-0.002028130485867659,-0.001735177677727539,-0.00451216774782315,0.01691125123976666,0.9839472750832494
2011-03-09,-1,-0.001966538817798659,-0.0017302207350216611,-0.00451216774782315,0.01691125123976666,0.9840376809608178
2011-03-11,-1,-0.0029103138748321003,-0.002531935981320896,-0.004096632480935784,0.01656985653834994,0.9860564203512612
2011-03-15,-1,-0.0031054645194633947,-0.002717935209161342,-0.0031655731999715186,0.01656985653834994,0.9855431829550506
2011-03-17,-1,-0.0019966656479919083,-0.0017508033504288721,-0.003325043848875734,0.013775281498348732,0.986705200069571
2011-03-21,-1,-0.004227487832637817,-0.0037317286185059853,-0.000758289000606293,0.013775281498348732,0.9882267228841211
2011-03-23,-1,-0.0025236552846178307,-0.002225721891650899,-0.003325043848875734,0.009940546415549556,0.9902312276683923
2011-03-25,-1,-0.0007710435368476749,-0.000707238198635354,-0.003325043848875734,0.009096665306247503,0.9919399521892023
2011-03-29,0,0.0,0.0,-0.003325043848875734,0.01005099062079761,0.9918538125490068
2011-03-31,0,0.0,0.0,-0.006291398032482255,0.009096665306247503,0.9917534491371004
2011-04-04,1,0.0014514583157465887,0.0015975851254448543,-0.0072488037164845955,0.005580613985226128,0.9917706930117539
2011-04-06,1,0.0016149762598593482,0.0018440484143725996,-0.0072488037164845955,0.005400173652787611,0.9915592886449506
2011-04-08,1,0.001106793985549484,0.0012292495214933925,-0.0072488037164845955,0.005400173652787611,0.9918728890394065
2011-04-12,1,0.0005124173718239826,0.000515761009344835,-0.006291398032482255,0.005450643989948567,0.9922701427982527
2011-04-14,1,0.0013773883061854392,0.0015685528650485094,-0.007598284622419962,0.005346490987117342,0.9917230451316847
2011-04-18,0,0.0,0.0,-0.010412587541178464,0.005346490987117342,0.990968695227772
2011-04-20,1,0.0006796596244852941,0.000758580828592323,-0.010412587541178464,0.005283929312832445,0.9918579851920911
2011-04-25,1,0.0006271589263310419,0.0006649005575136895,-0.010412587541178464,0.0037660685773925084,0.991775198736616
2011-04-27,1,0.001994314262903673,0.0022676748430900326,-0.010412587541178464,0.002896770389777766,0.9924368507175523
2011-04-29,1,0.0007456837503343127,0.000856117271507731,-0.00843992459087323,0.0037660685773925084,0.99417084010688
2011-05-03,0,0.0,0.0,-0.00873887379910126,0.0037660685773925084,0.9935378718907436
2011-05-05,0,0.0,0.0,-0.00873887379910126,0.004798873798127693,0.9923588945547241
2011-05-09,0,0.0,0.0,-0.00873887379910126,0.004798873798127693,0.991901834484046
2011-05-11,0,0.0,0.0,-0.00873887379910126,0.006804907192490716,0.9911280260606731
2011-05-13,0,0.0,0.0,-0.00843992459087323,0.004393600026341619,0.9918098822896411
2011-05-17,0,0.0,0.0,-0.006832453750807137,0.004393600026341619,0.9925071747684803
2011-05-19,0,0.0,0.0,-0.006832453750807137,0.004393600026341619,0.9922949913641456
2011-05-23,1,0.0005599495217121481,0.0006156162307008571,-0.0057337177987029034,0.006804907192490716,0.9916227767219554
2011-05-25,1,0.00014745685430081484,0.0002535102086297098,-0.006832453750807137,0.006134329696754358,0.9913069186190192
2011-05-27,1,0.00034821029698708814,0.00045374118440711937,-0.007118701476715882,0.0041700741944295,0.9911768128765484
2011-06-01,-1,-0.0012368352427050819,-0.0010806253735745105,-0.0057337177987029034,0.006563338617072473,0.9915781084056993
2011-06-03,-1,-0.0016374343700199898,-0.0014593100572325287,-0.005445283562363126,0.006563338617072473,0.9913782059127635
2011-06-07,-1,-0.0021026010893933056,-0.0018457737354454526,-0.00508069581545625,0.008474529022230802,0.9914401972150301
2011-06-09,0,0.0,0.0,-0.00508069581545625,0.0060812906778354575,0.9919968303029986
2011-06-13,-1,-0.0013728411220646625,-0.0011925887747426247,-0.004152128150844473,0.0060812906778354575,0.991595661364389
2011-06-15,0,0.0,0.0,-0.0044922096961983364,0.008474529022230802,0.990607254440162
2011-06-17,0,0.0,0.0,-0.007113319306588045,0.008197784680273854,0.9903535394113229
2011-06-21,0,0.0,0.0,-0.007113319306588045,0.006113161426164971,0.9910037681910797
2011-06-23,0,0.0,0.0,-0.0066945969676601895,0.006804679449214975,0.9911432291077391
2011-06-27,0,0.0,0.0,-0.006259845019294939,0.006804679449214975,0.9911958635876639
2011-06-29,0,0.0,0.0,-0.006275013664139918,0.006804679449214975,0.9893326134893374
2011-07-01,0,0.0,0.0,-0.006958537930847491,0.006477049331889387,0.9907068281126933
2011-07-06,0,0.0,0.0,-0.008467229260269316,0.006477049331889387,0.9872604225517676
2011-07-08,0,0.0,0.0,-0.010518774884024508,0.006477049331889387,0.9843716060743232
2011-07-12,1,0.0009995590761273368,0.001268178858723666,-0.010518774884024508,0.00721489432829709,0.9804843354247702
2011-07-14,0,0.0,0.0,-0.010518774884024508,0.00721489432829709,0.9790922002112679
2011-07-18,0,0.0,0.0,-0.007885909426363948,0.01891955496920095,0.9780426790458403
2011-07-20,0,0.0,0.0,-0.009493521563467269,0.01891955496920095,0.9778130406403392
2011-07-22,-1,-0.0001424986246962438,-9.173618204244541e-05,-0.01578875142305856,0.01891955496920095,0.976696152481271
2011-07-26,1,0.00013224277690249261,0.0001420191418626235,-0.01578875142305856,0.023762599254251428,0.9748250777431242
2011-07-28,1,9.057816944757741e-05,9.630595154532209e-05,-0.021215234090463587,0.02158546015599993,0.9753853974846602
2011-08-01,1,0.0001989225202777374,0.00020909068684752592,-0.021215234090463587,0.02158546015599993,0.9749219373888119
2011-08-03,0,-3.410616223604616e-05,7.489073642954184e-06,-0.013139465340277498,0.02158546015599993,0.9774593079240438
2011-08-05,-1,-0.00099622548362972,-0.0008546888708469884,-0.013139465340277498,0.02158546015599993,0.9791736791058767
2011-08-09,0,0.0,0.0,-0.009398858098887285,0.018284170972402047,0.9831312332499985
2011-08-11,-1,-0.002987717779626222,-0.002459045645100592,-0.009398858098887285,0.016602613962402542,0.9846479882632608
2011-08-15,-1,-0.0002975535508949436,-0.00021520789520322394,-0.009398858098887285,0.01603176188040609,0.9854102812219694
2011-08-17,0,0.0,0.0,-0.009087436727346358,0.016655560413934612,0.9846249707570489
2011-08-19,-1,-0.0014320738761998142,-0.0012149455215089678,-0.005995322879813288,0.016655560413934612,0.9858350361546767
2011-08-23,-1,-0.0004650575126285381,-0.0004231906016669016,-0.005714647176069605,0.01603176188040609,0.9877377606565358
2011-08-25,-1,-9.688178786889501e-05,-7.803345306203632e-05,-0.006397221960253512,0.013102045115263274,0.9873653233944406
2011-08-29,0,0.0,0.0,-0.006397221960253512,0.011269141556123458,0.9875694985150089
2011-08-31,0,0.0,0.0,-0.010450080514527501,0.008615768508211342,0.9876651352667056
2011-09-02,1,0.0005083686055309606,0.0006050652271438681,-0.01009910135579224,0.008615768508211342,0.988021786221844
2011-09-07,0,0.0,0.0,-0.011836686702016411,0.008615768508211342,0.9875238530685845
2011-09-09,0,0.0,0.0,-0.011836686702016411,0.010493596054239152,0.9867736691007561
2011-09-13,1,0.00044851438918323133,0.0005395507232897486,-0.011836686702016411,0.010493596054239152,0.985347040175762
2011-09-15,1,0.0010639891252704808,0.0012426528240125241,-0.011836686702016411,0.009373574354178986,0.9857947314248822
2011-09-19,1,0.0012108597281801875,0.001422158452160113,-0.011836686702016411,0.013529249258640946,0.9844305405126247
2011-09-21,1,0.000797969246544669,0.0009088534844436521,-0.0122932585121939,0.013529249258640946,0.9841238913907188
2011-09-23,0,0.0,0.0,-0.010990732694415098,0.013529249258640946,0.9860911433410632
2011-09-27,1,0.0007166298446583817,0.0008111595522111194,-0.010990732694415098,0.011027847537714554,0.9862400050894884
2011-09-29,1,3.159475691692726e-05,3.9475217965839575e-05,-0.010990732694415098,0.013529249258640946,0.9847021262817355
2011-10-03,-1,-0.0005526478954150899,-0.0004994672496987762,-0.010990732694415098,0.013529249258640946,0.9844148708072339
2011-10-05,-1,-0.00030701130937908896,-0.00027264703119390986,-0.011142923297807594,0.011027847537714554,0.9848777130725768
2011-10-07,-1,-0.0010434835796205738,-0.000893040289853294,-0.00912721632842362,0.01179008320421342,0.9854056486158963
2011-10-11,0,0.0,0.0,-0.00908874030373562,0.009613225197679686,0.9877640019961647
2011-10-13,0,0.0,0.0,-0.011231804086110814,0.00900978679507385,0.9873623030770599
2011-10-17,0,0.0,0.0,-0.011231804086110814,0.00900978679507385,0.9872857491855698
2011-10-19,1,0.0009291876893249957,0.0010430152907025187,-0.012264100748146668,0.009254613446082452,0.9866405859153163
2011-10-21,1,0.0008283911921649289,0.000895038746808887,-0.014158281931185662,0.005906145547398471,0.9859285585161566
2011-10-25,1,0.0006140957652297232,0.0006228247003983401,-0.014158281931185662,0.0036211466916504756,0.9863604811883858
2011-10-27,1,0.00010015708634741324,0.0001609843778115529,-0.012597829911440274,0.0025526947549863723,0.9886701722672028
2011-10-31,-1,-0.0007778015062536246,-0.0006248651831554635,-0.01130083081081551,0.005184478200632412,0.9887388736991121
2011-11-02,-1,-0.0014826199303493053,-0.0012303330842330532,-0.009488957012364694,0.008781271947321988,0.9874715643985266
2011-11-04,-1,-0.0007945719208062928,-0.0006114283100259213,-0.009488957012364694,0.008781271947321988,0.9874678632663432
2011-11-08,-1,-0.0005204102709174076,-0.00038851960842268077,-0.010324703873012559,0.008781271947321988,0.9871346826766524
2011-11-10,-1,-0.0009488218682366472,-0.0008052831090822467,-0.00927451559525456,0.012208379423003152,0.9868682203682516
2011-11-14,-1,-0.0005335603266525364,-0.00041690776089843345,-0.00927451559525456,0.008781271947321988,0.9881857054106998
2011-11-16,-1,-0.0011888303005488864,-0.0009793073967768438,-0.00927451559525456,0.010003003730181498,0.9884891165263989
2011-11-18,0,0.0,0.0,-0.010264616663006135,0.010003003730181498,0.9883595301594105
2011-11-22,0,0.0,0.0,-0.010264616663006135,0.015873574771581682,0.9869147151391222
2011-11-25,0,0.0,0.0,-0.0056168156488709195,0.015873574771581682,0.9871154899833018
2011-11-29,-1,-6.589499819629083e-05,-5.780718588528697e-05,-0.010264616663006135,0.011141519541234225,0.9879807863296748
2011-12-01,0,0.0,0.0,-0.010264616663006135,0.011141519541234225,0.9893009048066254
2011-12-05,1,0.0012353115443097722,0.0013852663747984898,-0.010264616663006135,0.007148733095397604,0.9905478859619242
2011-12-07,1,0.0008996178838920089,0.00100114616886885,-0.005630612762398705,0.007148733095397604,0.9910285130373309
2011-12-09,1,0.0009625415823687356,0.0010689856362207355,-0.002176074263428374,0.010080655586994475,0.9915226856962178
2011-12-13,1,0.001183040143461953,0.0013386348917264214,-0.001064111286007658,0.010080655586994475,0.991966981548872
2011-12-15,0,0.0,0.0,-0.0021170797084160003,0.005810318255906209,0.9925455353193398
2011-12-19,0,0.0,0.0,-5.9958580730749605e-05,0.010080655586994475,0.9930631166024811
2011-12-21,1,0.001979688717929019,0.0022907960469182986,-0.001585911813615691,0.005810318255906209,0.9949100853313164
2011-12-23,1,0.002315198772984647,0.002678102116114677,-0.0027110669812683104,0.006102667396539948,0.9943623256632425
2011-12-28,1,0.0008329749699274207,0.0008797144321205342,-0.0027110669812683104,0.0112723859577349,0.9920829447346181
2011-12-30,1,0.0014660662120175513,0.001580889041403799,-0.0036824812912400993,0.0047483364764706075,0.9926930025858783
2012-01-04,1,0.0014232833862806147,0.0015186057676496688,-0.0036824812912400993,0.007980949009017102,0.992412787767208
2012-01-06,1,0.002005515722653498,0.002251953326466727,-0.0036824812912400993,0.007980949009017102,0.9923747774329624
2012-01-10,1,0.002384273973198433,0.0026445769060840134,-0.0036824812912400993,0.003803687751391784,0.9929262673468261
2012-01-12,1,0.0017625227922363736,0.0018748725504724524,-0.0036824812912400993,0.003803687751391784,0.9929840155143351
2012-01-17,1,0.001720820019961733,0.00187120560396236,-0.0026539504783821668,0.003803687751391784,0.9935676591047773
2012-01-19,1,0.001971652940832268,0.0021566226528288083,-0.0026539504783821668,0.003803687751391784,0.9929214159386517
2012-01-23,0,0.0,0.0,0.00030359274972791326,0.005268294050838872,0.9923871857978513
2012-01-25,0,0.0,0.0,0.00030359274972791326,0.005268294050838872,0.9927066918496229
2012-01-27,0,0.0,0.0,0.00030359274972791326,0.005268294050838872,0.9944270683462908
2012-01-31,0,0.0,0.0,0.00030359274972791326,0.005946029435320635,0.9942706084157784
2012-02-02,0,0.0,0.0,0.00030359274972791326,0.006995754346015177,0.9935173047749208
2012-02-06,0,0.0,0.0,-0.0006662415249000155,0.006995754346015177,0.9931032429352852
2012-02-08,0,0.0,0.0,-0.00014112226308936354,0.010542328529454793,0.9921582818265262
2012-02-10,0,0.0,0.0,0.00016247048663854972,0.011134587580299908,0.9911071923055591
2012-02-14,0,0.0,0.0,-0.0020724463343514818,0.011134587580299908,0.9889532175045912
2012-02-16,0,0.0,0.0,-0.005553824610103026,0.010542328529454793,0.9899253852411627
2012-02-21,0,0.0,0.0,-0.0061681302097225214,0.010655511987374171,0.9894404604646639
2012-02-23,1,0.003766459038887847,0.004143280027315196,-0.0061681302097225214,0.009760831702316626,0.9899986264963878
2012-02-27,1,0.0030744975813507555,0.003312050550676197,-0.005553824610103026,0.0077455486836749115,0.9909466418364091
2012-02-29,1,0.0030197238380698602,0.0032605044796639206,-0.0061681302097225214,0.0077455486836749115,0.990633070740368
2012-03-02,1,0.0032345828430029025,0.003476026484384785,-0.0061681302097225214,0.00704636760008033,0.9912611250419022
2012-03-06,0,0.0,0.0,-0.005878703994990764,0.00704636760008033,0.9916325849970967
2012-03-08,0,0.0,0.0,-0.005878703994990764,0.00704636760008033,0.9921894718232843
2012-03-12,0,0.0,0.0,-0.006535389126404792,0.004149987577316821,0.9925516623768899
2012-03-14,0,0.0,0.0,-0.005878703994990764,0.00704636760008033,0.9931709338947159
2012-03-16,1,0.0024247395763836253,0.002648852397946744,-0.005957401293769662,0.0072138126222565085,0.9926761216703335
2012-03-20,1,0.0024786771877903166,0.0027015362904663667,-0.004420493889392762,0.0072138126222565085,0.9930805611762756
2012-03-22,1,0.002415544934694847,0.0025961778310496985,-0.004420493889392762,0.0072138126222565085,0.9932292728505696
2012-03-26,1,0.0019450737424299897,0.002015652608164612,-0.004420493889392762,0.006667977697904538,0.993149613823699
2012-03-28,1,0.001377886756069301,0.001407102444408074,-0.0037217103284360458,0.00784312117129841,0.9929376699517154
2012-03-30,1,0.0017546102846746569,0.0018050562039230022,-0.0037217103284360458,0.00784312117129841,0.9929489457637685
2012-04-03,1,0.0013392511532626993,0.0013500154238098696,-0.0037217103284360458,0.00784312117129841,0.9930129160105365
2012-04-05,1,0.0008482176438596553,0.0009691827895978888,-0.0037479703553275428,0.006522522619781224,0.9930541268887639
2012-04-10,1,0.000659959558253338,0.0007714535917010741,-0.002822265674603814,0.006522522619781224,0.9933759576951741
2012-04-12,1,0.0011399806729171184,0.0012271013635854193,-0.0037479703553275428,0.004731326767331347,0.9944474626807425
2012-04-16,1,0.0003521012891549815,0.0005616008650415452,-0.0037479703553275428,0.0036937006289905847,0.9941518248643255
2012-04-18,1,0.0003885750792460733,0.0006064608057087332,-0.0037479703553275428,0.003130984285487432,0.9947312497453595
2012-04-20,0,-4.251666714794966e-05,0.00024908181299273873,-0.004727888038596582,0.003130984285487432,0.9936941779743568
2012-04-24,1,0.00023266364347691447,0.0004649117466028498,-0.004727888038596582,0.003130984285487432,0.9934361355758138
2012-04-26,1,0.0013603569147989168,0.0013867252434543896,-0.004727888038596582,0.003553120091160459,0.9937217435360011
2012-04-30,1,0.001534877125801469,0.0015420248703918627,-0.004727888038596582,0.003553120091160459,0.9932460364453031
2012-05-02,1,0.0010937055338953023,0.0011570623763466172,-0.0057183034805729956,0.004058545186118719,0.9927172024026426
2012-05-04,1,0.0005947312031156014,0.0007102679243527418,-0.0057183034805729956,0.005065908143261938,0.9916611394544986
2012-05-08,1,0.00041656849051612915,0.0005606479509395479,-0.005093841097330752,0.007330706625921411,0.9911549588948769
2012-05-10,1,4.083617386172172e-05,0.00024657913159310384,-0.0030633232881370842,0.008963870718621956,0.9906039627163128
2012-05-14,-1,-0.0013509153586891535,-0.0009355800391587707,-0.002023678333411248,0.009736817073046859,0.9907652533965012
2012-05-16,-1,-0.0007709298978835025,-0.00046815637325478966,0.0008316587313725418,0.01107303611039059,0.9901682935316385
2012-05-18,-1,-0.0016307397010866783,-0.0012338579277915917,0.0036400530420657557,0.01109882735890716,0.9896505314577878
2012-05-22,-1,-0.0015907743345811465,-0.0011682266264382713,0.0010000278236629882,0.01107303611039059,0.9897405896505744
2012-05-24,-1,-0.0008409900143494329,-0.0005444829762228394,-0.002072745803695051,0.01107303611039059,0.9892711209638926
2012-05-29,-1,-0.0007223186497981283,-0.0004335056141124156,-0.002266775191490333,0.01107303611039059,0.9889877530855249
2012-05-31,-1,-0.0010543926063656059,-0.0007173197626863928,-0.002266775191490333,0.011754828702179506,0.9887247939381144
2012-06-04,-1,-0.001307976870195545,-0.0009764849706421469,0.0010000278236629882,0.014078308312618408,0.9885905070557908
2012-06-06,-1,-0.000789978033888165,-0.0005150710314196561,-0.002266775191490333,0.012242532357252044,0.989078334762216
2012-06-08,-1,-0.00048234827131152214,-0.00021876991965154194,-0.003103597227368187,0.011240483832759808,0.9898012716779405
2012-06-12,0,-0.00013142520323770185,9.360228953863388e-05,-0.004143309811289373,0.011240483832759808,0.9899827020835952
2012-06-14,1,1.7024383606717062e-05,0.00023385043904750188,-0.004143309811289373,0.012535273704359313,0.9895249799578107
2012-06-18,1,0.000877133126595145,0.000974279651890311,-0.006888841188457099,0.00926971818520167,0.9894354833926625
2012-06-20,1,0.0008834394293461054,0.000911348134671913,-0.006888841188457099,0.00926971818520167,0.9890439379985791
2012-06-22,0,-0.00015518728505828133,1.1853146039181707e-05,-0.005695624568295073,0.00926971818520167,0.9901650309188286
2012-06-26,1,0.0005349088537614686,0.000608334184254603,-0.006888841188457099,0.0082610997681684,0.9903574107114653
2012-06-28,1,0.0005029274069593758,0.0005644513083265505,-0.006073138406837238,0.00926971818520167,0.9881696203737514
2012-07-02,1,0.0014369577911708745,0.0014830625866295347,-0.008614780526666666,0.0082610997681684,0.9885429479979908
2012-07-05,1,0.0009346581598955816,0.0009598266320953042,-0.006073138406837238,0.0082610997681684,0.9892767121920212
2012-07-09,1,0.0010465531367998798,0.0010592169866600666,-0.006073138406837238,0.00840288522252346,0.9891945497155102
2012-07-11,1,0.0009838463849165735,0.0010027678363009615,-0.004845433240707509,0.00840288522252346,0.9894225202220777
2012-07-13,1,0.001696355825186022,0.0018200868938382556,-0.004845433240707509,0.008245318703123517,0.9900022708537408
2012-07-17,1,0.0015494016558148128,0.001669212317540924,-0.0034424215859669254,0.006536763221986832,0.9909238241657374
2012-07-19,1,0.0008819713204580953,0.0008973976291178624,-0.0034424215859669254,0.007226412342230764,0.9915114295678676
2012-07-23,1,0.0005605076806964662,0.0005907463410894483,-0.0034424215859669254,0.007226412342230764,0.991498677080687
2012-07-25,1,0.00042272004304311466,0.0004338789245094966,-0.0028128694137085296,0.007226412342230764,0.9921336988429686
2012-07-27,1,0.0019070106626107987,0.002059587901397257,-0.0034097402034413116,0.00452185169536193,0.9946744412551235
2012-07-31,1,0.0021822592576733035,0.002403141515593181,-0.0028128694137085296,0.00452185169536193,0.9955974217790423
2012-08-02,1,0.002544646301510801,0.0028451638464486867,-0.0028128694137085296,0.005961452094824498,0.9954121551815759
2012-08-06,1,0.001751929073687509,0.0018767593234654248,-0.0030379904076297142,0.0054198456876371585,0.9955519949343946
2012-08-08,1,0.0013909986686597975,0.001454760920502609,-0.0021218299214567256,0.006135705753719801,0.9948421648349837
2012-08-10,1,0.0016739971824066933,0.0017833086842247014,-0.004085103185204865,0.005961452094824498,0.9942859671203751
2012-08-14,1,0.0017789188884909273,0.0019032562807508517,-0.0048730592895252665,0.005874438401407679,0.9939433415165859
2012-08-16,1,0.0016412134829124833,0.0017598499802807953,-0.0048730592895252665,0.005390841123164886,0.9941753980583299
2012-08-20,1,0.0011614278405864633,0.0011961906566848198,-0.004085103185204865,0.005874438401407679,0.9941528350216959
2012-08-22,1,0.0010765647286476478,0.0011050401920339446,-0.004085103185204865,0.006135705753719801,0.9938455557715902
2012-08-24,1,0.0008608961768929197,0.000872177628379544,-0.0044362182309187264,0.006135705753719801,0.9930519475751773
2012-08-28,1,0.001107724189861733,0.0011348848284707409,-0.005350623594834413,0.0061357395265150706,0.9928980722812968
2012-08-30,1,0.0010207640646404752,0.0010404257654558528,-0.006062171545474842,0.006335612653774124,0.9920500422945129
2012-09-04,1,0.0014242607357836255,0.001507557689925531,-0.006062171545474842,0.007502953335233924,0.9916904663874339
2012-09-06,1,0.0022012395191769625,0.0023663885300577265,-0.006960480090780196,0.007352252852629209,0.9910835049273302
2012-09-10,1,0.001575699559112851,0.0016772227193731473,-0.005812963551820297,0.007352252852629209,0.9916635914618039
2012-09-12,1,0.0014650895419038702,0.001541788849568861,-0.006439737859509667,0.010364186157989742,0.9907072716739608
2012-09-14,1,0.0012195132103354918,0.0012636818278957617,-0.006628051437373785,0.010492258672496962,0.9902453012985996
2012-09-18,1,0.0018079326351505107,0.0019645297090312465,-0.006628051437373785,0.010580309552448177,0.98906683587198
2012-09-20,1,0.002238306016250855,0.002449394676109456,-0.007544581282476588,0.010343981071555671,0.9889047600029579
2012-09-24,1,0.001512310942647138,0.0016191380120515538,-0.007544581282476588,0.010343981071555671,0.9886918800701469
2012-09-26,1,0.001325122824695434,0.0013765660085359004,-0.007544581282476588,0.010651816097761451,0.9885476652962839
2012-09-28,1,0.001082774512327741,0.0011069436749186054,-0.006080659875239047,0.010343981071555671,0.989570526469646
2012-10-02,1,0.001337884257925958,0.001374605725794354,-0.006080659875239047,0.00897981351142776,0.9899442491622946
2012-10-04,0,0.0,0.0,-0.006080659875239047,0.006790349020625077,0.9907024971979338
2012-10-08,0,0.0,0.0,-0.0050588026431953904,0.006790349020625077,0.9906632304615874
2012-10-10,0,0.0,0.0,-0.0050588026431953904,0.005928040649456382,0.9918032846340274
2012-10-12,0,0.0,0.0,-0.004543987563899501,0.0056922147004056295,0.9925275364749903
2012-10-16,1,0.001659560766211879,0.0017388627435050517,-0.0070683628546150176,0.005459143395716289,0.9925881967236422
2012-10-18,0,0.0,0.0,-0.00552391761672735,0.005928040649456382,0.9919622365367792
2012-10-22,0,0.0,0.0,-0.0035269737229740115,0.006790349020625077,0.992663150642664
2012-10-24,0,0.0,0.0,-0.00552391761672735,0.006790349020625077,0.9919686222545004
2012-10-26,0,0.0,0.0,-0.00552391761672735,0.006511031399506294,0.9919788948725046
2012-11-01,0,0.0,0.0,-0.00552391761672735,0.006536272645693879,0.9920914260858962
2012-11-05,0,0.0,0.0,-0.004346963167052226,0.006536272645693879,0.9927541339761501
2012-11-07,0,0.0,0.0,-0.005340604462021885,0.0076656655388198415,0.9924013269134362
2012-11-09,1,0.001020217273665566,0.001037797643365465,-0.005340604462021885,0.00883766457128191,0.9915968422698285
2012-11-13,1,0.0002999742046056709,0.00040901792782047905,-0.004749638225915818,0.010491242877180122,0.9901192133339799
2012-11-15,-1,-0.0016084785994582352,-0.00123965012760368,-0.001192925642604119,0.010491242877180122,0.9908450892966241
2012-11-19,-1,-0.0003452439478640321,-0.0001513503044362146,-0.001192925642604119,0.00948438238858655,0.9925102149398579
2012-11-21,1,4.9289911910978636e-05,0.0001955279559292504,-0.002950250007313468,0.009851003645307985,0.9920802162751055
2012-11-26,1,0.0006365600363560268,0.0006537868819998662,-0.002856404688185272,0.00948438238858655,0.9932367687869662
2012-11-28,1,0.0005359523063689711,0.0005926127011838158,-0.0038684384642989483,0.00948438238858655,0.9932111132008413
2012-11-30,1,0.0007196438976376643,0.0007430929064653246,-0.004375818200971671,0.009851003645307985,0.9922728490798008
2012-12-04,1,7.538629459447196e-05,0.00019728660923282106,-0.005407221690494621,0.01099448755544328,0.9896234995479963
2012-12-06,1,0.0007331119179959028,0.0007355320286214025,-0.005407221690494621,0.01099448755544328,0.9896419410695925
2012-12-10,1,0.0005237625915596955,0.0005695092286755477,-0.004094282243587082,0.009851003645307985,0.9908040659184606
2012-12-12,1,0.0015109846394544967,0.0015493451574165357,-0.005156510938667969,0.00446570045078566,0.9915998581079455
2012-12-14,1,0.0014117600325104765,0.0014163868349597061,-0.005156510938667969,0.003359132974954464,0.9919404889097513
2012-12-18,1,0.0008297373516337574,0.0009368504540824747,-0.005156510938667969,0.004808193936336163,0.9916218787946307
2012-12-20,0,0.0,0.0,-0.004094282243587082,0.004520842077386244,0.992286302536587
2012-12-24,0,0.0,0.0,-0.005156510938667969,0.005293472527894221,0.991711852845792
2012-12-27,0,0.0,0.0,-0.005716705889990315,0.005293472527894221,0.9914974546011485
2012-12-31,0,0.0,0.0,-0.010650162025098822,0.0041764747744127105,0.9912193661806041
2013-01-03,0,0.0,0.0,-0.007092047278710276,0.0041764747744127105,0.9932396239380687
2013-01-07,0,0.0,0.0,-0.007135753367089291,0.005293472527894221,0.9922955537581399
2013-01-09,0,0.0,0.0,-0.008711359839034639,0.005293472527894221,0.9918971686105027
2013-01-11,0,0.0,0.0,-0.010747327344786946,0.005293472527894221,0.9917089984358232
2013-01-15,0,0.0,0.0,-0.010879636033690998,0.005293472527894221,0.9905982470531016
2013-01-17,0,0.0,0.0,-0.011307570606527463,0.005293472527894221,0.98923509356868
2013-01-22,0,0.0,0.0,-0.011946052859200904,0.002244096898357215,0.9890510256804929
2013-01-24,1,0.005303660040799264,0.005537402519558765,-0.011946052859200904,0.008111526189925986,0.9858910881565972
2013-01-28,0,0.0,0.0,-0.011547450831787683,0.008111526189925986,0.9879837120331915
2013-01-30,0,0.0,0.0,-0.008864674038466996,0.009872878529161407,0.9887763583893239
2013-02-01,0,0.0,0.0,-0.008864674038466996,0.009732539543751695,0.9889216163003015
2013-02-05,0,0.0,0.0,-0.008076263637939339,0.008915768239966334,0.9896213560916143
2013-02-07,0,0.0,0.0,-0.006347791960292193,0.008915768239966334,0.9899013630581552
2013-02-11,0,0.0,0.0,-0.006347791960292193,0.008915768239966334,0.9899611325807621
2013-02-13,-1,-0.0018098986733845414,-0.0014645766808982674,-0.004446679389584331,0.008915768239966334,0.9907751197171405
2013-02-15,-1,-0.0014352209594269661,-0.0011595592295479153,-0.0049653467968500346,0.007770901165343707,0.9918821916671656
2013-02-20,-1,-0.00268861096586473,-0.002224629845255567,-0.004196209171277221,0.008915768239966334,0.9914863379653737
2013-02-22,-1,-0.0006747952624658739,-0.0004508343745996011,-0.0049653467968500346,0.007654287418527232,0.9932866187583028
2013-02-26,-1,-0.0012283869568592194,-0.0009337258957243191,-0.004677385510469416,0.007654287418527232,0.9933594565102246
2013-02-28,-1,-0.0010703439061164727,-0.0008128784230152717,-0.004677385510469416,0.005503810056325148,0.9933824348100494
2013-03-04,0,0.0,0.0,-0.004677385510469416,0.005403463397577585,0.9935167956493369
2013-03-06,0,0.0,0.0,-0.005305442604470322,0.004688499262225823,0.9931532658098402
2013-03-08,0,0.0,0.0,-0.005305442604470322,0.007972036402698906,0.9921028233072329
2013-03-12,-1,-0.0010179251612947578,-0.0007483279623175934,-0.004677385510469416,0.008665365120502476,0.9919344822363847
2013-03-14,0,0.0,0.0,-0.004677385510469416,0.008665365120502476,0.9919556641282816
2013-03-18,0,0.0,0.0,-0.002891042944517034,0.009478735248878366,0.9922909125051772
2013-03-20,0,0.0,0.0,-0.004320878547623801,0.010018933516950738,0.991164144372961
2013-03-22,-1,-0.00024351282795417775,-0.00014210699788476204,-0.004320878547623801,0.010018933516950738,0.991171969722504
2013-03-26,-1,-0.0009702503314012926,-0.0007327037785076679,-0.004721118255161411,0.010018933516950738,0.9904534727043152
2013-03-28,-1,-0.001038903811870353,-0.0008382992228917416,-0.004721118255161411,0.011302041759513971,0.9876779090493362
2013-04-02,-1,-0.0007156073235946551,-0.0005368874526102389,-0.004960112259593613,0.010018933516950738,0.9882945235490382
2013-04-04,0,0.0,0.0,-0.004285873235716386,0.0094579000500636,0.9889761384895539
2013-04-08,0,0.0,0.0,-0.004285873235716386,0.009077716389797378,0.989595234306463
2013-04-10,0,0.0,0.0,-0.004285873235716386,0.009077716389797378,0.9895006713791721
2013-04-12,0,0.0,0.0,-0.004073486853346659,0.009077716389797378,0.9897007298684274
2013-04-16,-1,-0.0001454357260845657,-3.288297696439315e-05,-0.004073486853346659,0.009077716389797378,0.9897509723215374
2013-04-18,0,0.0,0.0,-0.0043278729984404475,0.008170858065989845,0.9902688519007655
2013-04-22,0,0.0,0.0,-0.0043278729984404475,0.006410343744228941,0.9902304681450039
2013-04-24,0,0.0,0.0,-0.0043278729984404475,0.006410343744228941,0.9891962507184713
2013-04-26,1,0.0013682592568291384,0.0014748470617269543,-0.0043278729984404475,0.004950592990247044,0.9918571193709937
2013-04-30,1,0.0009769124125700679,0.0010167702547323244,-0.006229714033473405,0.004950592990247044,0.9908395235307249
2013-05-02,1,0.001154646153226027,0.0012100900809670374,-0.009390180549794444,0.0038765386193729268,0.9905940581272326
2013-05-06,1,0.0014141239193031312,0.0015195769914635136,-0.011410652366764692,0.0023721774838873695,0.9900840425664303
2013-05-08,1,0.002606967493111805,0.002946448252575687,-0.011410652366764692,0.001453147851652035,0.989429993277515
2013-05-10,1,0.002426670565026036,0.002761474242642262,-0.014454401075634683,0.001453147851652035,0.9888815905896747
2013-05-14,1,0.002863463498177736,0.0032603648237449967,-0.014786034662964024,0.001453147851652035,0.9881327240265289
2013-05-16,1,0.0018867965583924725,0.0021581694600949805,-0.014454401075634683,0.002423172304120472,0.9887982630896587
2013-05-20,1,0.001240134786680089,0.0014147636139555148,-0.011410652366764692,0.0038765386193729268,0.9890848808438735
2013-05-22,-1,-0.00046346336905971736,-0.00042161622912254015,-0.014600659837236282,0.0038765386193729268,0.9887401169511362
2013-05-24,-1,-0.0002764506976461209,-0.00027170438614420564,-0.01579624198296055,0.004869011880336036,0.9879031240191182
2013-05-29,-1,-0.0008053489633713304,-0.0007617870626767487,-0.014600659837236282,0.012348658328093077,0.9871761260556676
2013-05-31,0,0.0,0.0,-0.014600659837236282,0.012979622889616365,0.986159377191576
2013-06-04,0,0.0,0.0,-0.007628406305693052,0.012979622889616365,0.9869646131654118
2013-06-06,0,0.0,0.0,-0.007628406305693052,0.012713642076794988,0.9873521063370372
2013-06-10,0,0.0,0.0,-0.004116365777024728,0.014231847120603078,0.9871745573830181
2013-06-12,0,0.0,0.0,-0.0022118239219073347,0.017808961357631783,0.9855590925754739
2013-06-14,0,0.0,0.0,-0.0022118239219073347,0.014870709757323946,0.9868163974932
2013-06-18,0,0.0,0.0,-0.004116365777024728,0.014870709757323946,0.9868086007674209
2013-06-20,-1,-0.0028702664027324856,-0.0025736113852517176,-0.0013474421264668317,0.014870709757323946,0.988036700748237
2013-06-24,-1,-0.0037255878836264726,-0.003268992676677997,-0.0012199040098040362,0.014870709757323946,0.9885425996401653
2013-06-26,-1,-0.001652143061958727,-0.0014571422563188872,-0.0017872578763567003,0.004735745682794312,0.9902128869404896
2013-06-28,-1,-0.0003026888911794843,-0.0002509835777384955,-0.003121751512622558,0.0034430178243350885,0.9912849081029252
2013-07-02,-1,-0.0007017615189436099,-0.0005821492446943382,-0.008045470653676765,0.0034430178243350885,0.9899508436144099
2013-07-05,-1,-0.0007542166023124884,-0.000617833412066767,-0.008686308558741751,0.0033963641188495923,0.989653021113431
2013-07-09,-1,-0.0012761057762162933,-0.0010238360454620681,-0.009454112128419833,0.0033963641188495923,0.9895063971258535
2013-07-11,1,0.0009594582527716711,0.0009667788782849606,-0.011115642563172247,0.0017000523422480715,0.9903649131763463
2013-07-15,1,0.0008260936354430224,0.000867206019653695,-0.012057430037452039,0.0010590085104692942,0.9897668789216476
2013-07-17,1,0.0013036442315569002,0.0014184444419607718,-0.011115642563172247,0.002034798317603618,0.9901550359107696
2013-07-19,1,0.001061531590183991,0.0011263483353548317,-0.011115642563172247,0.002034798317603618,0.9898392298180619
2013-07-23,1,0.0010343189969266003,0.0010930853421688572,-0.011115642563172247,0.003727017991739655,0.9894368869816483
2013-07-25,-1,-0.0008881810853188315,-0.0007488947440129122,-0.010341238762948065,0.003727017991739655,0.9912804818903077
2013-07-29,-1,-0.0012067492739512194,-0.0010565501375571175,-0.010266186017854053,0.005519984638828564,0.9903669024764
2013-07-31,-1,-0.002373630409672777,-0.0020827698711347485,-0.009263641311172074,0.006807193795393355,0.9910065077745703
2013-08-02,-1,-0.0032885433796487236,-0.002860880586705604,-0.007794509331897924,0.006807193795393355,0.9908537174472188
2013-08-06,-1,-0.0027858221528490636,-0.0024308127519727107,-0.00548849594179452,0.006807193795393355,0.9917479450779402
2013-08-08,-1,-0.0037401162533920165,-0.0032401958105857318,-0.00548849594179452,0.0074841011513513645,0.9912866789045744
2013-08-12,-1,-0.004071644716316231,-0.00355977800446475,-0.00329807439358079,0.010314247595820548,0.9899216918879947
2013-08-14,-1,-0.003777763053067597,-0.0033041321263585456,-0.00548849594179452,0.010314247595820548,0.9892948431250326
2013-08-16,-1,-0.003759372877742065,-0.0032830253641886863,-0.007794509331897924,0.010314247595820548,0.9887759382477624
2013-08-20,-1,-0.0032880764102471913,-0.0028477523608286797,-0.007794509331897924,0.010314247595820548,0.9896219155816213
2013-08-22,-1,-0.0034122475133362045,-0.0029854931612446505,-0.00732814281056218,0.010314247595820548,0.9891399688296996
2013-08-26,-1,-0.002974830924310483,-0.002593249306647495,-0.005149296736314252,0.009434791960209025,0.9907109348307642
2013-08-28,-1,-0.0018163344317995618,-0.0016235766016956346,-0.005149296736314252,0.010314247595820548,0.989633027348146
2013-08-30,-1,-0.001651812689998991,-0.0015034988481149496,-0.004111802890171801,0.010314247595820548,0.9896352113539307
2013-09-04,-1,-0.001143150622596473,-0.0010602548448418378,-0.007894120209829329,0.009493383770313831,0.9894578495618903
2013-09-06,-1,-0.00045394936326072146,-0.00043040114692685736,-0.006866192403578239,0.008770469266892277,0.9903301494697562
2013-09-10,1,0.0009408311074111658,0.001163688791956767,-0.007894120209829329,0.005460839695084483,0.9907873176836401
2013-09-12,-1,-0.00028121300350864215,-0.00022254843493499924,-0.006866192403578239,0.006099529737907742,0.9921987658067664
2013-09-16,-1,-0.0004227861361199625,-0.00039252553165919466,-0.006283049192295392,0.007861939934874693,0.9924933787455169
2013-09-18,1,0.00041261733323849246,0.0006144767888023477,-0.006283049192295392,0.008091479645781554,0.9912548561126314
2013-09-20,1,0.0002968761248299021,0.0004804406243625061,-0.006283049192295392,0.008195783066443533,0.9898365143952458
2013-09-24,1,0.00027653786880041343,0.00046599879404332287,-0.006866192403578239,0.008195783066443533,0.9891030702258985
2013-09-26,1,0.0018785036683357267,0.002294520630049342,-0.008589356719542432,0.007861939934874693,0.9888262306226375
2013-09-30,1,0.002176303864777437,0.0026693839566960336,-0.008589356719542432,0.007861939934874693,0.9885816788646823
2013-10-02,1,0.0013681435616217743,0.0017376846249838671,-0.006283049192295392,0.008139138405094998,0.9892632835833317
2013-10-04,1,0.0014003511282648497,0.001812991912741337,-0.007365460374704867,0.008139138405094998,0.9890810301166816
2013-10-08,1,0.0008475757282025482,0.0011339354099993582,-0.0059478874332829085,0.008139138405094998,0.9896002954972677
2013-10-10,1,0.0010788673602048792,0.0013770494023424822,-0.007365460374704867,0.008139138405094998,0.9891874722963349
2013-10-14,1,0.0010665736480064622,0.0012704620948009436,-0.011053819028705888,0.004317271677954069,0.9891928198389238
2013-10-16,1,0.002226889172263762,0.0025829644708167607,-0.011053819028705888,0.003186124183081332,0.989919800296445
2013-10-18,1,0.0023117063656204044,0.002653308323162009,-0.007365460374704867,0.005183340646870346,0.9914047656325736
2013-10-22,1,0.0015321583225027537,0.0017372490979527717,-0.00722359643717708,0.005183340646870346,0.9918657362618344
2013-10-24,1,0.002294866010657252,0.002561426242670098,-0.006953409193180281,0.003343655502269539,0.993028228314386
2013-10-28,1,0.0017310011954308566,0.0019291795599010544,-0.006763908150813789,0.003343655502269539,0.9933012622115779
2013-10-30,1,0.0016490150742615858,0.0018088094361477904,-0.006763908150813789,0.003343655502269539,0.9932865550184802
2013-11-01,1,0.0008259731874382456,0.0008377103277624307,-0.004504808699862508,0.005183340646870346,0.9936396722583075
2013-11-05,1,0.0018037052750742772,0.0020137363289404768,-0.005971682959194561,0.003343655502269539,0.9935949029379185
2013-11-07,1,0.0015243533115566151,0.0017229730543280343,-0.004504808699862508,0.005183340646870346,0.9938081525072446
2013-11-11,1,0.00020962271968355133,0.0002818658213382792,-0.004297624070594863,0.005183340646870346,0.9943561108565101
2013-11-13,-1,-0.00023823269713604454,-7.897716088993401e-05,-0.004504808699862508,0.004220715630534059,0.9941156954054159
2013-11-15,1,0.0012763152019435588,0.0013893723137787424,-0.005971682959194561,0.0009359852636953653,0.9931497810408461
2013-11-19,1,0.0012788952588927037,0.0014365281565892596,-0.005749479506495398,0.0009359852636953653,0.9930319163014143
2013-11-21,1,0.0007658485239351305,0.0008476482346832528,-0.005174789933144598,0.0036597920074291964,0.9928362105426585
2013-11-25,1,0.0005050780347167897,0.0005615251582643528,-0.005159168494993887,0.005074317854050631,0.9930987030854167
2013-11-27,1,0.0008298935354400635,0.0009300211178739182,-0.005159168494993887,0.002776160362668427,0.993484429807166
2013-12-02,1,0.0020795660571279032,0.0024533989551099758,-0.003357810398601948,0.0031558963674416392,0.993623885059012
2013-12-04,1,0.0019848359255394206,0.002366952255875281,-0.006023334140995391,0.0031558963674416392,0.9925028436907058
2013-12-06,1,0.002255206180485812,0.0026630801983030554,-0.006023334140995391,0.0031558963674416392,0.9919264807428615
2013-12-10,1,0.00235955103931168,0.002801935792690993,-0.008396178764513202,0.0031558963674416392,0.9913402125837903
2013-12-12,1,0.0019667136770034257,0.002361477373969502,-0.006023334140995391,0.0031558963674416392,0.9921213133843518
2013-12-16,1,0.00031839615991996207,0.0003841862180588523,-0.003970762842182431,0.008418488732426253,0.9917884864042844
2013-12-18,1,0.00015223433479180046,0.0001638957426274362,-0.003970762842182431,0.007326037464772452,0.9918060510297382
2013-12-20,-1,-0.0007903466294104687,-0.0006485221578036319,-0.003970762842182431,0.0047101674314993635,0.9923332006125825
2013-12-24,-1,-0.0009013251553032966,-0.0007162039336543887,-0.00758593513897609,0.003846647175320758,0.991198335286644
2013-12-27,-1,-0.000810036955937091,-0.0006448888714863173,-0.00758593513897609,0.003846647175320758,0.9908809137381938
2013-12-31,-1,-0.0007008114472567058,-0.0005190651585340624,-0.00758593513897609,0.0033896020386801964,0.9905008287317127
2014-01-03,-1,-0.00215658317682743,-0.001779859578441842,-0.00758593513897609,0.0033896020386801964,0.9905047826688476
2014-01-07,-1,-0.0011820272873281478,-0.0009247906987778971,-0.00758593513897609,0.0021814404499522805,0.9912939100659225
2014-01-09,-1,-0.0019118771100979448,-0.0015569673146436614,-0.007483330834797017,0.008457032472543284,0.9900287238122097
2014-01-13,-1,-0.0018544410079577526,-0.0015389752172162178,-0.007483330834797017,0.013005529568519985,0.9888695643349614
2014-01-15,-1,-0.0006499756565850645,-0.00044452447162806957,-0.007483330834797017,0.011910784001303354,0.9898618439057779
2014-01-17,-1,-0.0005759694431407471,-0.0004018978124451917,-0.007530257252762855,0.011910784001303354,0.989839418535758
2014-01-22,-1,-0.000757596512940997,-0.0005810258457533494,-0.0074358270619687555,0.013005529568519985,0.9890200123221229
2014-01-24,-1,-0.002119365471681707,-0.0017732119954516705,-0.006687114904921799,0.013005529568519985,0.989446358597966
2014-01-28,-1,-0.002060858189819348,-0.0017397940999953382,-0.006696763064063083,0.013005529568519985,0.9894375355002935
2014-01-30,-1,-0.0015718156825448555,-0.0013232372397883377,-0.0062274184820914555,0.013286236406454629,0.988870574514308
2014-02-03,-1,-0.0021542598247991885,-0.001897454561493122,-0.0032780099547459864,0.013286236406454629,0.9894766410769521
2014-02-05,-1,-0.0026285245357278377,-0.0022588677843671224,-0.0044468392125988085,0.013286236406454629,0.9892580043969682
2014-02-07,-1,-0.0013310344708802894,-0.0011050337898845066,-0.0044468392125988085,0.0076279766669682045,0.9910822872189411
2014-02-11,-1,-0.0005205359223761476,-0.0003984197851009136,-0.0044468392125988085,0.005949304012197969,0.9916494696056177
2014-02-13,1,6.141913347369485e-05,0.0001264554441360552,-0.006465649251467093,0.005383375361501443,0.9922005767961081
2014-02-18,-1,-0.0004615870441740662,-0.00032560155362312387,-0.0044468392125988085,0.0050214460572449385,0.9929141627255837
2014-02-20,1,0.00140718542068409,0.0015835566489160976,-0.006465649251467093,0.0050214460572449385,0.9926622667500198
2014-02-24,1,0.00046013734227046946,0.0005071030917896942,-0.00620143103899792,0.005383375361501443,0.9933568271183794
2014-02-26,-1,-0.00048047885104257837,-0.0003706111282356012,-0.004391625301390564,0.005383375361501443,0.9936811705774056
2014-02-28,1,0.0003877440237896835,0.0004208132963889421,-0.006035789305373185,0.0050214460572449385,0.9934284152661969
2014-03-04,-1,-0.0004504609216319422,-0.000306493428553437,-0.006035789305373185,0.0053842584143305415,0.9932145425693154
2014-03-06,-1,-0.0002486239059397082,-0.00014363581666354276,-0.006035789305373185,0.005779938836995706,0.993238573392546
2014-03-10,0,-3.842111147357892e-05,1.527467463716364e-05,-0.006035789305373185,0.005779938836995706,0.992992245266204
2014-03-12,1,0.001091575155106485,0.0012504566185476233,-0.006035789305373185,0.0035573667881972767,0.9929835693534297
2014-03-14,1,0.000962860494232203,0.0011395639267120744,-0.006648057745220426,0.0035573667881972767,0.9919929278469843
2014-03-18,1,0.000798635228458987,0.0009287115890878306,-0.006648057745220426,0.005950327903091361,0.9913524102766664
2014-03-20,1,0.0010042602779569804,0.0012172460881014191,-0.006035789305373185,0.005950327903091361,0.992046883376804
2014-03-24,1,0.000817978781609881,0.0009836398329333283,-0.0049955526053730645,0.0064241100233419085,0.9920311414647298
2014-03-26,1,0.0006098894873085481,0.0007669426602280919,-0.0054071402710830305,0.0064241100233419085,0.9917511288501926
2014-03-28,1,0.0009046413680888528,0.0010644753709165996,-0.011716824640614713,0.005895798314291059,0.9917603889919862
2014-04-01,1,0.001263943789503421,0.0015000422750953244,-0.006885111073259167,0.005895798314291059,0.9923317639091601
2014-04-03,1,0.0012074642150747715,0.00141260593227953,-0.006885111073259167,0.007886302885649432,0.9915946351077389
2014-04-07,1,0.0006821832474443782,0.0007959172306462039,-0.004981820986972247,0.011159881214781696,0.9907578066673244
2014-04-09,1,0.0007235973523609335,0.0008438107111477116,-0.008199675713273843,0.011659447505283789,0.9900583395984424
2014-04-11,0,-4.460028426437148e-05,1.9115759527920913e-05,-0.0013441037907165419,0.011659447505283789,0.99133990967716
2014-04-15,1,0.0005657230148986472,0.0006942842434238109,-0.00159992479202459,0.011159881214781696,0.9924053690421187
2014-04-17,1,0.0004955200196059962,0.0005825167642294568,-0.003087915565636538,0.011159881214781696,0.9923973240826127
2014-04-22,1,0.0008783107245026878,0.0009981762673939056,-0.005710957525535981,0.005138413259258008,0.9924094182115474
2014-04-24,1,0.0004773033064448506,0.0005648747661526057,-0.00560684330525568,0.008907468850220843,0.9927743262375383
2014-04-28,-1,-0.00046126583703563594,-0.00044219297108745236,-0.0029416857012823845,0.008907468850220843,0.9934740442937197
2014-04-30,0,-1.744915062884039e-05,6.260047235883022e-06,-0.0029416857012823845,0.006185787699452617,0.994136040004062
2014-05-02,1,0.0011625625236322697,0.0013698875737398293,-0.005228769773294905,0.0026494361743963682,0.9950085981995805
2014-05-06,1,0.0021555571164343294,0.002487637377634436,-0.00560684330525568,0.001297247602473277,0.9950219042273002
2014-05-08,1,0.0020465170255139125,0.0023269678048668087,-0.005228769773294905,0.0014407719186347928,0.9959570915280659
2014-05-12,1,0.0015363101926537089,0.0016888252210743582,-0.005260101550492582,0.0014407719186347928,0.9958113632757121
2014-05-14,1,0.0014210538070560253,0.0015561205265565276,-0.0056564714492853925,0.0014407719186347928,0.995224950774009
2014-05-16,1,0.0010656897416170806,0.001143971115243118,-0.005937636842139755,0.0014407719186347928,0.994955673855929
2014-05-20,1,0.0007022365463656334,0.0007443110961384101,-0.005937636842139755,0.002007522605080234,0.9954972105491764
2014-05-22,1,0.0008986623973441704,0.0009678712334633764,-0.005937636842139755,0.002007522605080234,0.9957197319934374
2014-05-27,1,0.0010961176705365603,0.0012163439246245778,-0.005937636842139755,0.001892300941343073,0.9961245298687835
2014-05-29,1,0.0004965468423242275,0.0005241296352742675,-0.005937636842139755,0.001892300941343073,0.9960738102841962
2014-06-02,1,0.0007115448618996471,0.0007544784053653841,-0.0054971792006224,0.001892300941343073,0.996258701356916
2014-06-04,-1,-0.00012928350800840526,-3.870020561655684e-05,-0.0054971792006224,0.0024623191203825973,0.9963235271339326
2014-06-06,0,-2.5307175099917767e-05,5.882340406938283e-05,-0.0054971792006224,0.001215023201598474,0.9964017816831622
2014-06-10,1,0.0004894139672439252,0.0005445970375783082,-0.004064058071256293,0.0022628040515232963,0.9965649570546496
2014-06-12,-1,-6.748867713502068e-05,-4.899004278685488e-05,-0.0013106057167525532,0.003174514795459756,0.9969110324194758
2014-06-16,-1,-0.0008380290258562004,-0.0007174173017951658,-0.00023549891375323923,0.0034566698776562176,0.9966869031931175
2014-06-18,-1,-0.0014357022830760995,-0.0011815641830152388,-0.0013106057167525532,0.0034566698776562176,0.9959263129306428
2014-06-20,-1,-0.001346691893188449,-0.001093053650763245,-0.0013106057167525532,0.0034566698776562176,0.9954824271847932
2014-06-24,-1,-0.0012023635834653892,-0.0009727845131478461,-0.0013106057167525532,0.004616078708175065,0.9946608171255333
2014-06-26,-1,-0.0021867775296265197,-0.001762420635004868,-0.0043691236728618955,0.004616078708175065,0.9926194666085513
2014-06-30,-1,-0.002275227209054185,-0.00184128260436363,-0.007545595394559719,0.005672512697650496,0.9912390427852991
2014-07-02,-1,-0.001539292510162632,-0.0012627558774291098,-0.005089377311728009,0.004767503055158626,0.9917281151023962
2014-07-07,-1,-0.0010386104533526967,-0.0008706895035613306,-0.007703138450921315,0.004767503055158626,0.9913742215382045
2014-07-09,-1,-0.00047165099687472415,-0.00040438361018909914,-0.007703138450921315,0.0063820035601559275,0.9893941698549166
2014-07-11,-1,-0.0002610704690897864,-0.00021501233836771188,-0.007703138450921315,0.009027992688222904,0.9887440708060246
2014-07-15,1,6.261781369973319e-05,0.00010951650140875104,-0.0059512186884458935,0.009027992688222904,0.9890254378694523
2014-07-17,-1,-0.0005042033462245258,-0.0004395733120929342,-0.004582578376009569,0.009027992688222904,0.9894213011659732
2014-07-21,-1,-0.00020405797258464723,-0.0001473791093824428,-0.004582578376009569,0.0067014590951640024,0.9899804523772765
2014-07-23,1,0.0011337333296459109,0.0013111342058158408,-0.004582578376009569,0.004905911106212504,0.9909045659773843
2014-07-25,-1,-0.0008617824761715623,-0.0007577107790086646,-0.0034847799645969443,0.0064527665014457725,0.9915806182134678
2014-07-29,-1,-0.00014459235864943868,-0.00012693495756136396,-0.0030617730302532347,0.004905911106212504,0.9931389552738946
2014-07-31,-1,-0.00031359026182621125,-0.000271990936325154,-0.0025673235612197146,0.004905911106212504,0.9932466484579457
2014-08-04,-1,-0.0005849419586107177,-0.000538851805937063,-0.0005105835472155924,0.004905911106212504,0.9936648330363695
2014-08-06,1,0.0007244314513937882,0.0008222240099073947,0.0002200533839045769,0.004840245762967066,0.9960963108887441
2014-08-08,1,0.0013671970972446838,0.0015450490536622714,-0.0002467351027549341,0.0044456324211191375,0.996741889524399
2014-08-12,1,0.0011648836557475199,0.0012948558425381904,-0.0002467351027549341,0.00368453878739687,0.9964456439374083
2014-08-14,1,0.001362895423961132,0.0015155016474751285,-0.0016279433252163618,0.00368453878739687,0.9953323810267072
2014-08-18,1,0.001305610301115594,0.0014264580317959864,-0.0025669608944801983,0.0037784340567692198,0.9947317817990325
2014-08-20,1,0.0015811094947468661,0.001772027398993974,-0.0017754155610982237,0.005591946708560108,0.9945586927890624
2014-08-22,1,0.0019928164636442503,0.0022395217846357136,-0.003526234627000328,0.005121931571084114,0.9945939854678568
2014-08-26,1,0.0020349794390395063,0.002293314433018863,-0.003526234627000328,0.005591946708560108,0.9942338911997702
2014-08-28,1,0.001839917647240522,0.0020501851436205924,-0.005179525078573738,0.005905522432510816,0.9932613069498402
2014-09-02,1,0.0016557667722640213,0.0018405249101870872,-0.005179525078573738,0.006391557172335057,0.9930955903686394
2014-09-04,1,0.0012848312135763556,0.0013457663584633692,-0.005823186443762675,0.006534091498353863,0.9926019014582979
2014-09-08,1,0.0016830691246204877,0.0018344579233857215,-0.005823186443762675,0.007178678482976333,0.9925945814213497
2014-09-10,1,0.0014316106530686686,0.0015585932181819088,-0.005823186443762675,0.008870258666931106,0.9923658004113544
2014-09-12,1,0.0011355304632976904,0.0012526866460288854,-0.006845341521143803,0.008870258666931106,0.99223689708536
2014-09-16,1,0.0009436174902058656,0.0009994488203025238,-0.007677054790407599,0.008870258666931106,0.9909824996244158
2014-09-18,1,0.0006444338908643782,0.000683486341648426,-0.010233739440080807,0.008870258666931106,0.9904913643535891
2014-09-22,1,6.099549483298632e-05,0.00014394421114338347,-0.007677054790407599,0.010073953326038611,0.9896192691324309
2014-09-24,1,0.0010323610048698782,0.001112989325950723,-0.010233739440080807,0.010220387437802719,0.988509081100853
2014-09-26,1,0.0014897451135082501,0.0016882877881184454,-0.00787940800155032,0.009275678112896021,0.9890037630050252
2014-09-30,1,0.0018801421273021148,0.002142204736330621,-0.010440350599177688,0.009124495322263806,0.988573391504361
2014-10-02,1,0.0018962549443277033,0.0021627545351972123,-0.01094057619218157,0.00923685032671927,0.9881788290038203
2014-10-06,1,0.001967846036794274,0.0022390322820359,-0.011436075927816994,0.010312953522687544,0.9850436457844646
2014-10-08,1,0.0018830231612029997,0.002129035685583737,-0.011436075927816994,0.012126772896224686,0.9846197257658745
2014-10-10,1,0.0008109299545948192,0.0008922706152036871,-0.010590889325031076,0.012126772896224686,0.9856777168124994
2014-10-14,1,0.0014450645446500924,0.0016197152992753396,-0.010357047349685056,0.009511415770512692,0.9874324098832687
2014-10-16,1,0.0008293322703860677,0.0009212873408814188,-0.0055855340930747064,0.011178770266379277,0.9876959978005855
2014-10-20,1,0.002058890077137572,0.0023162480530644247,-0.0055855340930747064,0.008704077664885691,0.989301165810909
2014-10-22,1,0.002312306871368665,0.002591251199836032,-0.003818635189318935,0.007069480561218052,0.9908847741678266
2014-10-24,1,0.0024666029143890923,0.0027413088233788083,-0.003818635189318935,0.00713834510689856,0.9909897824340574
2014-10-28,1,0.0020038763973359,0.0022241424246466244,-0.0034505094700440922,0.00713834510689856,0.9917093486691831
2014-10-30,1,0.0016915237053808996,0.0018539732896267133,-0.0014031094086273852,0.006672939059069581,0.9923991665893598
2014-11-03,-1,-0.00025942578466670317,-0.00014911094643779943,-0.0034505094700440922,0.00595310816035639,0.99343904215359
2014-11-05,-1,-0.00047135902952312843,-0.00031199053771038907,-0.002338484963965792,0.005182518445281991,0.9945419650994145
2014-11-07,-1,-0.00027808770733844405,-0.00014642683589329199,-0.0034505094700440922,0.0035767228266057704,0.9944722989090481
2014-11-11,-1,-0.0003314404051282722,-0.00020027697852511477,-0.0034505094700440922,0.0035767228266057704,0.9936862424783582
2014-11-13,-1,-0.00011777338646163082,-1.2925923199619618e-05,-0.008323070862573383,0.0027262485542618293,0.9934103704767248
2014-11-17,-1,-0.0002188930987752012,-0.00010205573134846192,-0.008323070862573383,0.0027262485542618293,0.9934608041282387
2014-11-19,0,-5.260428133932682e-05,4.848138124737141e-05,-0.008323070862573383,0.002566764244583225,0.9926675625393496
2014-11-21,1,0.00019479960744066217,0.00027602934796072085,-0.008323070862573383,0.0033549419107000455,0.9920506898474669
2014-11-25,1,0.0003162345199306496,0.00039162554450704974,-0.008323070862573383,0.0029409293172402906,0.9917564162399706
2014-11-28,1,0.0005560018751604318,0.0006018711227343477,-0.008323070862573383,0.00025125577031496,0.9919880101285592
2014-12-02,-1,-0.0007209341715692115,-0.0005326248755060852,-0.003668757003671784,0.00025125577031496,0.9941040705248239
2014-12-04,-1,-0.0009749303230269402,-0.0007447836540874079,-0.005181165054728116,0.002610191992474828,0.9934975001052823
2014-12-08,-1,-0.0014758429786448693,-0.0011790045860387718,-0.003668757003671784,0.010119181201098086,0.9929125370829293
2014-12-10,-1,-0.0019912086872156177,-0.0016571025474853918,-0.0029161458235585393,0.010561232244005936,0.9929892161519314
2014-12-12,-1,-0.002329196189544293,-0.0019891415137268486,-0.002006728330081109,0.010561232244005936,0.9936041426707728
2014-12-16,-1,-0.003327200770177551,-0.0028003735273792584,-0.0018504426469931412,0.010561232244005936,0.9926212438158303
2014-12-18,-1,-0.002509863832622645,-0.0021056743584198555,-0.0018504426469931412,0.010561232244005936,0.9933722146321204
2014-12-22,-1,-0.001823675831981886,-0.001495248395209045,-0.002006728330081109,0.010561232244005936,0.9923017880361358
2014-12-24,-1,-0.0017955789967960183,-0.0014504982359239622,-0.002006728330081109,0.012700413201940854,0.9911931144917756
2014-12-29,-1,-0.0011195177391505279,-0.0009115159995172086,-0.0028005603728562334,0.012700413201940854,0.9909353326724792
2014-12-31,-1,-0.0009459703082812371,-0.0007856678490905241,-0.0033084537206910835,0.012700413201940854,0.9907532720585875
2015-01-05,-1,-0.0008297353800383019,-0.0006839257601115716,-0.0028498498538304697,0.012700413201940854,0.9909699484496274
2015-01-07,-1,-0.00012066896322339562,-6.820280253818465e-05,-0.0033084537206910835,0.01070500278017749,0.991154525084766
2015-01-09,1,0.00035947401621674445,0.0003712496841610729,-0.004797835825048695,0.006546598916547704,0.9915669450077041
2015-01-13,1,0.00021946326837804205,0.000226245074310858,-0.004797835825048695,0.010484947810762656,0.9912503051630276
2015-01-15,1,0.0004728322943758284,0.0005177831529832485,-0.004797835825048695,0.010484947810762656,0.991009459299397
2015-01-20,1,0.0005880673258860692,0.0006487148198296387,-0.004556423524434995,0.007684441041032967,0.9914160339801527
2015-01-22,1,0.0016754287206501225,0.0018821380298155777,-0.004556423524434995,0.007684441041032967,0.9933764448047964
2015-01-26,1,0.0024779963070094345,0.002782664096801171,-0.004842237936000462,0.004860194725848919,0.9933563495001677
2015-01-28,1,0.002249427828385386,0.0025355523645372875,-0.004842237936000462,0.004860194725848919,0.9935077911115501
2015-01-30,1,0.002020359257760494,0.002279559517013438,-0.004842237936000462,0.004860194725848919,0.9940744800784471
2015-02-03,1,0.0020557870909343468,0.0023040083856582473,-0.005458138916207835,0.004686423235842025,0.9941040710662575
2015-02-05,1,0.0015892606310455404,0.001750002647375478,-0.005458138916207835,0.004686423235842025,0.9940746341205116
2015-02-09,1,0.0013934210861261702,0.0015346574335116882,-0.005586416058412178,0.004808910613536383,0.9937779376271538
2015-02-11,1,0.0017948995523407387,0.002005851498405842,-0.005586416058412178,0.004808910613536383,0.9936700219850305
2015-02-13,1,0.0016496426176704606,0.0018060996074332214,-0.006527388854629062,0.005197580957117358,0.9928351099631393
2015-02-18,1,0.0018226831228543175,0.00202253853957237,-0.006527388854629062,0.005197580957117358,0.9926889046199686
2015-02-20,1,0.0019145187951108793,0.0021236266711064777,-0.007401904190220799,0.005197580957117358,0.9925383638678749
2015-02-24,1,0.0013860251469115258,0.0015369910455714036,-0.005828786855859694,0.005197580957117358,0.9931339360985851
2015-02-26,1,0.0011035809770791813,0.0012137290095313468,-0.006458727707600023,0.005197580957117358,0.992876280407125
2015-03-02,1,0.0012678309328366668,0.0014126163547286922,-0.006458727707600023,0.005197580957117358,0.9925774913826948
2015-03-04,1,0.0010851159762474902,0.0012085248914113196,-0.007838491212973732,0.006677325987991491,0.9912627911027697
2015-03-06,1,0.0003851191353539691,0.00039783671404997127,-0.006458727707600023,0.009661425962399106,0.9915521348354722
2015-03-10,1,0.0004826554641372099,0.0005067791764936003,-0.005298278678814272,0.009661425962399106,0.9917640772018091
2015-03-12,1,0.000583606360969163,0.0005861996222368272,-0.005548142458456329,0.008792690568213671,0.9920455000699898
2015-03-16,1,0.0010509560984339698,0.0011814993124273062,-0.005035512676408276,0.006000691640805132,0.9928223300707113
2015-03-18,1,0.001418774643976874,0.0016194627239610026,-0.005035512676408276,0.005198888057577078,0.9933090855130592
2015-03-20,1,0.0017061244061396077,0.0019667871378836327,-0.004803305423198927,0.005198888057577078,0.9937820757913652
2015-03-24,1,0.0011688038213450865,0.0013339581173531252,-0.0038643731196630936,0.005198888057577078,0.9939149376824046
2015-03-26,1,0.0007215679436626482,0.0008210488247855452,-0.0038643731196630936,0.005758602503673885,0.993884078618828
2015-03-30,-1,-0.0002366172675449923,-0.00013326430465814725,-0.003947661046210445,0.0069568888910865375,0.9930951717578766
2015-04-01,-1,-0.0004712523627919013,-0.00034379402270969423,-0.0058152396409752215,0.005758602503673885,0.9936407932385122
2015-04-06,1,6.0179766567334316e-05,0.00011804310807206437,-0.0058152396409752215,0.004787930330245822,0.9941112176455691
2015-04-08,1,0.00010521753821053111,0.00016366507487608676,-0.007458042595578311,0.004787930330245822,0.9935469698220862
2015-04-10,-1,-7.61263960045491e-05,-7.054014735125247e-06,-0.007458042595578311,0.005718691440898466,0.992991631546287
2015-04-14,1,0.00010595491003294267,0.00015710642562406373,-0.00856277162953546,0.005718691440898466,0.9926729626442913
2015-04-16,1,0.0004219061008977951,0.00042586444522186694,-0.00856277162953546,0.005718691440898466,0.9923327108984046
2015-04-20,1,0.0006900734415589201,0.0007389293339484442,-0.00856277162953546,0.005718691440898466,0.9920271731449557
2015-04-22,1,0.0006380463075674322,0.0006927693339653261,-0.011446823215259135,0.005718691440898466,0.9916631846846599
2015-04-24,1,0.0007226534425850978,0.0008018088363617085,-0.011446823215259135,0.005355488024816908,0.9918265129427879
2015-04-28,0,-6.661212427093736e-05,1.546509533264064e-05,-0.01022726280734891,0.0048352172144000794,0.9928419733118388
2015-04-30,-1,-0.0010031132669702711,-0.0008074024491505889,-0.007703274872941329,0.0048352172144000794,0.9935175926462325
2015-05-04,-1,-0.0014188245434734533,-0.0011570060795075307,-0.007703274872941329,0.005355488024816908,0.9930821591623676
2015-05-06,-1,-0.002329700806638773,-0.0019250153604313776,-0.00529927174568717,0.005683407630313246,0.9928412685422444
2015-05-08,-1,-0.0021555619177453106,-0.0017365480428242356,-0.007703274872941329,0.004095040833847917,0.9936286880668534
2015-05-12,-1,-0.002626890948190925,-0.002142844743806698,-0.007361825778941859,0.004095040833847917,0.9937901635396338
2015-05-14,-1,-0.002498601261721049,-0.0020499930326196413,-0.005307262289020992,0.004095040833847917,0.9938828004846499
2015-05-18,-1,-0.001794508164377823,-0.0014629367364270883,-0.005307262289020992,0.003608109822990078,0.9943177867160043
2015-05-20,-1,-0.0019154939148326342,-0.001584447663817259,-0.004138065573328045,0.003608109822990078,0.9944329565283905
2015-05-22,-1,-0.002265888285956818,-0.0018934155939693803,-0.004138065573328045,0.003608109822990078,0.9945167905575097
2015-05-27,-1,-0.0024400700162079863,-0.0020389193370041556,-0.005302157456826508,0.003608109822990078,0.9942003974187243
2015-05-29,-1,-0.0025912278281232572,-0.002175846568784102,-0.0046204725495524014,0.003438891022611189,0.9946432199670012
2015-06-02,-1,-0.0019063193354040722,-0.0016009907998218568,-0.00532032335834307,0.0023055569567435193,0.9946686781269832
2015-06-04,-1,-0.0011660901192369552,-0.0009671129839082875,-0.00532032335834307,0.0023055569567435193,0.9950798271436182
2015-06-08,-1,-0.0016495916592203237,-0.0013887612994264123,-0.004395991182432144,0.003438891022611189,0.9949350951310963
2015-06-10,-1,-0.0016598479668542354,-0.001405124048009646,-0.004395991182432144,0.0023289958223477684,0.9948320618246415
2015-06-12,-1,-0.001395714986850999,-0.0011793934188531145,-0.004862052874759987,0.0023289958223477684,0.9945010020738478
2015-06-16,-1,-0.0007153058822868489,-0.000635287828018401,-0.004862052874759987,0.0034296868538174173,0.9939729756875995
2015-06-18,1,0.00014167333311678444,0.0002251955960871378,-0.005985450795822659,0.0028364938604685387,0.9938184915405249
2015-06-22,-1,-0.00026891055606820003,-0.0002567796032917095,-0.005985450795822659,0.0061323927652558955,0.993118378348267
2015-06-24,-1,-0.0005306465642916348,-0.0005000774982167206,-0.004862052874759987,0.008331228540617944,0.9919064832677941
2015-06-26,-1,-0.0005720906644767331,-0.0005510506274458095,-0.005985450795822659,0.008331228540617944,0.9916897029478318
2015-06-30,-1,-0.00111625176742935,-0.0010250833557892435,-0.004619405606123168,0.008331228540617944,0.9922556167485127
2015-07-02,-1,-0.0008387596477227679,-0.0007722206339601373,-0.005985450795822659,0.0061323927652558955,0.9921430980949099
2015-07-07,-1,-0.00033975448532536936,-0.0003266817215266748,-0.005985450795822659,0.005435393119730354,0.9926884361708996
2015-07-09,-1,-0.0005506584919599776,-0.0005465340991076771,-0.004108323230085946,0.005435393119730354,0.9931095035261984
2015-07-13,-1,-0.0002876655899043077,-0.00024109299148518002,-0.0035761545298766797,0.005435393119730354,0.9930149736213049
2015-07-15,0,-1.850942696036864e-06,9.363670934793035e-05,-0.002823301666623519,0.006039490284964406,0.9927871528632572
2015-07-17,-1,-0.00031545727742012035,-0.0002968883508695119,-0.0023092967896937958,0.007942027843140905,0.9925813442548489
2015-07-21,-1,-0.0005160735216294762,-0.0004987693012881809,-0.0023092967896937958,0.005935683632787743,0.9930838900840004
2015-07-23,1,0.0004844131258978146,0.0006056303185097964,-0.002823301666623519,0.004092720449397385,0.9943296673930451
2015-07-27,1,0.00019066948372259274,0.00026745652243904326,-0.004704065268088786,0.004092720449397385,0.9921826985936065
2015-07-29,-1,-8.379109338599463e-05,-6.364315461859711e-05,-0.005732114501381709,0.005935683632787743,0.9908581782682309
2015-07-31,-1,-0.00020957447973844891,-0.00020570565474734056,-0.003661210049198709,0.007942027843140905,0.9899024714451578
2015-08-04,1,0.00010149902571273968,0.00016804991704170665,-0.0066777672411284916,0.007942027843140905,0.9887018113138863
2015-08-06,1,0.00011567910964837893,0.00017996966451072085,-0.0066777672411284916,0.009346144602187906,0.9884729145882941
2015-08-10,1,0.0007087531608695376,0.0008614892235097955,-0.011816836478361166,0.009346144602187906,0.9878217593850204
2015-08-12,1,0.0012913409954825729,0.0015328039586067527,-0.01633383263797587,0.004838582078638576,0.9864623907668453
2015-08-14,1,0.0015093188815092661,0.0017617790192471635,-0.01633383263797587,0.0016631627870424815,0.9866107223431934
2015-08-18,1,0.0010395245632512902,0.0012049830062738453,-0.01633383263797587,0.0010560607410902397,0.9872082634564915
2015-08-20,1,0.000697526326484778,0.0008133066525636021,-0.01633383263797587,0.0007102057287699801,0.9873372972148907
2015-08-24,-1,-0.0009602743787433575,-0.0008577432605440719,-0.009687884573487246,0.001538171744765806,0.9896458481489032
2015-08-26,-1,-3.3867645313681146e-05,-3.0314047174932344e-06,-0.009687884573487246,0.001538171744765806,0.9907657499560283
2015-08-28,1,0.000725566622027625,0.0008650552271533227,-0.014080865365821997,0.001538171744765806,0.9901479302386164
2015-09-01,-1,-8.065582634082565e-05,-5.9938523449327104e-05,-0.009687884573487246,0.003141400129029734,0.9908370126813953
2015-09-03,1,0.00032458143693666583,0.0004122158618161034,-0.009687884573487246,0.003547823461542146,0.9906380623465011
2015-09-08,1,0.0004848379624214256,0.0006069455474972866,-0.00825266567532472,0.003547823461542146,0.9908764132261626
2015-09-10,-1,-0.00037454205998371673,-0.00035622925285662996,-0.005305275396487716,0.005147981982084648,0.9922369803362817
2015-09-14,-1,-0.0005783829199357443,-0.0005667452093205218,-0.0048240728578350656,0.005147981982084648,0.9922079302978876
2015-09-16,-1,-0.0006200514548750596,-0.0006040544161214453,-0.0059931691188391395,0.005147981982084648,0.9918452036969914
2015-09-18,-1,-0.0009399400804856956,-0.0008843800989736106,-0.004690880697361614,0.006926179046583691,0.9914993468964262
2015-09-22,-1,-0.0016021358681420554,-0.0014370512072419586,-0.0015924167194373453,0.00945598104656545,0.9910760058038705
2015-09-24,-1,-0.0015526955606913625,-0.001388849326836192,-0.0014910526581525649,0.010583305511263711,0.9890932034091429
2015-09-28,-1,-0.0015470515542989334,-0.0013677752860626878,-0.0014910526581525649,0.010583305511263711,0.9896635506032678
2015-09-30,-1,-0.0006028856723955618,-0.0005649777812336208,-0.004690880697361614,0.00945598104656545,0.9904629879850558
2015-10-02,-1,-0.0002938726330326542,-0.0002799474260009551,-0.004690880697361614,0.008150762578796064,0.9909684459707634
2015-10-06,0,-1.2937625250587885e-05,5.86180707559613e-06,-0.0038953159702672475,0.008150762578796064,0.9909345941580361
2015-10-08,1,0.0004650887065383031,0.0005648683387134564,-0.004690880697361614,0.008150762578796064,0.990847712690641
2015-10-12,1,0.0003114096981410852,0.0003773900461338536,-0.007156851089834323,0.008150762578796064,0.9897871491651835
2015-10-14,-1,-0.0002079012163748362,-0.00019045989821543383,-0.004498799949827067,0.008150762578796064,0.9900439945749623
2015-10-16,1,0.00020689613193573814,0.00023971021429259205,-0.006074962637679756,0.005331769700797225,0.990160580694055
2015-10-20,1,0.0006434249071785461,0.0007250971412342234,-0.006074962637679756,0.0038295909864306155,0.9903013213193171
2015-10-22,1,0.0020108734048699508,0.0022892126199550254,-0.006074962637679756,0.0038295909864306155,0.9917617020052953
2015-10-26,1,0.0020937734205084,0.0024096839894193244,-0.005709500416258159,0.004177037184624857,0.9927217004830035
2015-10-28,1,0.0017298062166865402,0.0019734680842797116,-0.005709500416258159,0.004177037184624857,0.992364214590281
2015-10-30,1,0.001451650668256091,0.001649934592082697,-0.005709500416258159,0.004177037184624857,0.9924233008482317
2015-11-03,1,0.0022159509756508326,0.002522546121348165,-0.006283653008858866,0.004177037184624857,0.992176226244119
2015-11-05,1,0.001862075274350835,0.0021248494995967254,-0.006283653008858866,0.004258508235962258,0.9921908151222865
2015-11-09,1,0.001078820384708756,0.0012495409840269957,-0.005495907963698445,0.006096354444480064,0.9927086438473369
2015-11-11,1,0.0011384193880903145,0.0012981319502915303,-0.005709500416258159,0.00570869424697493,0.9925572925265225
2015-11-13,1,0.0006913805648646264,0.0007814205113486954,-0.005735537686921854,0.005971760435918981,0.992641553030006
2015-11-17,1,0.0009364071650215132,0.0010430554292821873,-0.005735537686921854,0.005120613669259814,0.9929047197754616
2015-11-19,1,0.0010906724019907688,0.001188003477730232,-0.006728686754988179,0.00421697689977523,0.9927654100838174
2015-11-23,1,0.0015861657384420445,0.001764333798077858,-0.006728686754988179,0.005120613669259814,0.992131925070866
2015-11-25,1,0.0012883142675690546,0.0014360782238040902,-0.005735537686921854,0.005120613669259814,0.9925579521016056
2015-11-30,1,0.0008553991702360013,0.0009161775913866898,-0.005735537686921854,0.007922988171620704,0.9923863512505477
2015-12-02,1,0.0008553117056118062,0.0009238091147466485,-0.0065702153647996565,0.005120613669259814,0.9930362470174188
2015-12-04,1,0.0006280430363822597,0.0006725591582320195,-0.0065702153647996565,0.007922988171620704,0.9922276829569204
2015-12-08,1,0.0008450157187135457,0.0009126083399057876,-0.007362392533405732,0.005120613669259814,0.9915529449082767
2015-12-10,1,0.0005436959536928863,0.0005635677398342563,-0.008734520280418906,0.007117326018041173,0.9908805085598494
2015-12-14,1,0.000911279735138213,0.001032643998597696,-0.010138792817188023,0.007117326018041173,0.9905332665563376
2015-12-16,1,0.0009997573397000973,0.0011161999921989708,-0.011417650082477806,0.008147989993099977,0.9873519399508198
2015-12-18,1,0.000469535159766519,0.0005053900131594203,-0.0126971151741014,0.008147989993099977,0.9870492716860935
2015-12-22,1,0.00114330486966903,0.0012612207129065818,-0.0126971151741014,0.008147989993099977,0.9862591299329481
2015-12-24,1,0.0010447006851636118,0.0011497536976691394,-0.0126971151741014,0.010832182923712554,0.9848943944956222
2015-12-29,1,0.0013100381638396835,0.001449405173315349,-0.0126971151741014,0.012289015444662883,0.9841802830074655
2015-12-31,1,0.0010462737485711815,0.001179999121487879,-0.0126971151741014,0.014788383577978573,0.9841333736670862
2016-01-05,1,0.0014938620670249115,0.0017142263584374684,-0.009784025095808896,0.012289015444662883,0.9851571207320765
2016-01-07,1,0.0007458971571895473,0.0008891980891688584,-0.008770597381605006,0.012289015444662883,0.9851324609632227
2016-01-11,1,0.000469067680643983,0.0005631593931109244,-0.009076329585877509,0.012289015444662883,0.9844553227341281
2016-01-13,0,-3.6121253316023e-06,9.17926877491123e-06,-0.006510417314520089,0.012289015444662883,0.9849090178816216
2016-01-15,-1,-0.002529311627284607,-0.0021595676924648245,-0.005535876057648044,0.012822744243993439,0.9868816851565402
2016-01-20,-1,-0.0024576418595637388,-0.0021314187495373527,-0.005084555512031877,0.015965569747134842,0.9864892546639911
2016-01-22,-1,-0.0004586687333288981,-0.00040842055758853496,-0.005535876057648044,0.015364932232795161,0.9878007374632239
2016-01-26,-1,-0.00017870788830500828,-0.0001168112926368091,-0.005352111418909181,0.011652134685883494,0.9893039797096344
2016-01-28,1,0.00045781496806567235,0.0004903055217548591,-0.006381429283511396,0.008687823619460786,0.9897023101687569
2016-02-01,1,0.0011399938810958878,0.0012614525236372865,-0.006381429283511396,0.00882340138807892,0.9897957366916998
2016-02-03,1,0.00037979665870872294,0.00042288328766047805,-0.005995937699926098,0.00882340138807892,0.9897555123904542
2016-02-05,-1,-0.0009132629454096592,-0.0007041355239014832,-0.006038823205157538,0.00882340138807892,0.9904487419747663
2016-02-09,-1,-0.0017916815698009504,-0.0014714372790736372,-0.006038823205157538,0.00882340138807892,0.9916669251353921
2016-02-11,-1,-0.002377970075108999,-0.0019678887937902897,-0.006038823205157538,0.009498734493514998,0.9913331869629808
2016-02-16,-1,-0.0016574148722657755,-0.0013120249381608586,-0.006703020015842191,0.008140434317822489,0.9923871158482168
2016-02-18,-1,-0.0009207296468058257,-0.0006626392040620349,-0.006703020015842191,0.00779620111813965,0.9928672826399597
2016-02-22,-1,-0.0005447179597417465,-0.0003415713628421304,-0.006231757421794012,0.005747122511877456,0.9933216084771228
2016-02-24,-1,-0.0005126800190210718,-0.00033641968291032125,-0.006231757421794012,0.005747122511877456,0.9932861201423013
2016-02-26,-1,-0.0005394420858731497,-0.00037900466434186717,-0.005809707326753898,0.005747122511877456,0.9939641828379988
2016-03-01,1,0.0003511081989895859,0.00039406767992032957,-0.005809707326753898,0.005226151835045426,0.9942261556239816
2016-03-03,1,0.0005349641193746722,0.0005416171424506923,-0.005156308603215953,0.005226151835045426,0.9942661761037965
2016-03-07,-1,-0.00021771789304976595,-0.00011752594233258414,-0.004201712386663403,0.005226151835045426,0.9947542569082507
2016-03-09,-1,-0.0009642191803516553,-0.0007539334367828846,-0.003538193555961834,0.005927293610402082,0.9947915461572124
2016-03-11,-1,-0.0005027739167112914,-0.000368520113105972,-0.004201712386663403,0.005927293610402082,0.9943005995917367
2016-03-15,-1,-0.00036428917954497547,-0.00027535616588704286,-0.003538193555961834,0.005927293610402082,0.9946489501317543
2016-03-17,1,0.000626543704617178,0.0007354570501502708,-0.004201712386663403,0.005226151835045426,0.9950064589126741
2016-03-21,1,0.0005176783225870328,0.000603323974980868,-0.002885141762097285,0.005620082184363412,0.9951180069751969
2016-03-23,1,0.00035925023847222903,0.00041606765011385327,-0.005100501355202991,0.005620082184363412,0.9940329504963521
2016-03-28,1,0.0002700498572328898,0.00030388691863921495,-0.005705073972074592,0.006130395899358701,0.9927317012031677
2016-03-30,1,0.0010794098896693939,0.001265342309209318,-0.005705073972074592,0.004724870895410005,0.9932919285014581
2016-04-01,1,0.0009476652096728423,0.00109397211659693,-0.006223597677919801,0.0036676280264257006,0.9932640152614409
2016-04-05,1,0.00011148941907136958,0.0001272713830509944,-0.006223597677919801,0.004724870895410005,0.9926845380194061
2016-04-07,1,0.00043098273334100977,0.0004678502972528271,-0.006223597677919801,0.004724870895410005,0.9924247771725765
2016-04-11,1,0.0004602380236830016,0.00047902218277526905,-0.005795782418747929,0.0048671608446747205,0.992638049626
2016-04-13,1,0.0007679372062584712,0.0008506715387174507,-0.005795782418747929,0.006237788753320302,0.9920166672046586
2016-04-15,1,0.0007712892649300331,0.0008803811180926784,-0.005795782418747929,0.006237788753320302,0.9919963491974974
2016-04-19,1,0.0012447089478784235,0.0014411133285022635,-0.005795782418747929,0.0060440231737164,0.992017452072096
2016-04-21,1,0.000330516254519675,0.00038457334020496173,-0.005432710908827923,0.0060440231737164,0.9924890364441439
2016-04-25,1,0.0006615946532248318,0.0007497740231342074,-0.0035073900744607496,0.00506115685530255,0.993541053499952
2016-04-27,1,0.0008138089308438048,0.0009202996021867645,-0.0035073900744607496,0.0060440231737164,0.993193314002068
2016-04-29,1,0.00038395988643655297,0.0004181297774461369,-0.0026503248353134503,0.0060440231737164,0.9934430373859269
2016-05-03,1,0.00033066842359069307,0.00037472856796354,-0.0023616657096865007,0.00506115685530255,0.9944781092428766
2016-05-05,1,0.0007474963369625442,0.0008345223924904289,-0.0023616657096865007,0.006746664770997952,0.9944280244700642
2016-05-09,1,0.0011685734199854162,0.0013050007347843633,-0.0023616657096865007,0.006746664770997952,0.9946849449004118
2016-05-11,1,0.0014775480940669417,0.0016684299324050671,-0.0008143889142844657,0.00506115685530255,0.9953696155633108
2016-05-13,1,0.0011328396362095955,0.0012523471723415644,-0.0008143889142844657,0.00506115685530255,0.9954691614254056
2016-05-17,1,0.00157413602241034,0.0017958548408789979,-0.0008143889142844657,0.004654535021144918,0.9953734695678248
2016-05-19,1,0.001335839835187869,0.0015226257941649002,-0.0008143889142844657,0.005505843389011367,0.9955696657918502
2016-05-23,1,0.0017549432292923827,0.002017254326757271,-0.0008143889142844657,0.008049783444288396,0.9954228538818667
2016-05-25,1,0.0016489056074406737,0.0018641545836594416,-0.0005800918681826115,0.007712648740767145,0.9955176938084955
2016-05-27,1,0.001632248844103991,0.0018575314603358586,-0.00016231167592421907,0.007959823101886426,0.9954505458608773
2016-06-01,1,0.00110340902522556,0.001196896240969534,-7.976701863427874e-05,0.010240679708117527,0.9938976826437163
2016-06-03,1,0.0015362444121737656,0.0016713505228715345,-0.0005800918681826115,0.009157000160539538,0.9943390088901739
2016-06-07,1,0.0016505629706955328,0.0017776655108596654,-0.0016385609393726416,0.009157000160539538,0.9938891622536893
2016-06-09,1,0.0009733738956086457,0.0010212326587442123,-0.0024824742764865265,0.009157000160539538,0.993415531430339
2016-06-13,1,0.0005743293262687498,0.0006951511332427779,-0.002871488058442771,0.009157000160539538,0.9926727841490305
2016-06-15,1,0.0010781031743424979,0.001082622685056454,-0.0033536592479422598,0.009157000160539538,0.9928112276598032
2016-06-17,1,0.001585449784658716,0.0016926764350276183,-0.003590818682301409,0.009157000160539538,0.9926798617784969
2016-06-21,1,0.002029715853659276,0.0022204287472156452,-0.003914966279879784,0.007959823101886426,0.9925119077432337
2016-06-23,1,0.0026835534660721787,0.003002148379908566,-0.003914966279879784,0.007016267040330957,0.992654947859695
2016-06-27,1,0.002991283550744711,0.0033440136025344024,-0.006029865459189329,0.006524898042876768,0.99149955606842
2016-06-29,1,0.003264205047192683,0.0035838056528893557,-0.00641162327246729,0.005429826198344362,0.9920451264831603
2016-07-01,1,0.0027802134341191795,0.002991199728743175,-0.00641162327246729,0.005429826198344362,0.9925680246760153
2016-07-06,1,0.002670795780830698,0.002841063360584981,-0.007329859232152831,0.004873665549741788,0.9924638019305263
2016-07-08,1,0.0031220507818531017,0.003401123420415837,-0.007329859232152831,0.004873665549741788,0.992125042134272
2016-07-12,1,0.002732339140963007,0.0029996621513044474,-0.006992346463878635,0.004873665549741788,0.9930621322329776
2016-07-14,1,0.0026111081563764816,0.0028703535967986205,-0.006992346463878635,0.004873665549741788,0.9935945432021571
2016-07-18,1,0.0023373968399336142,0.0025432193902089253,-0.006763969895491052,0.003930343301705061,0.9940224006403617
2016-07-20,1,0.0018501890866718352,0.001968285138158071,-0.006763969895491052,0.003930343301705061,0.993767425387541
2016-07-22,1,0.00228550616916005,0.002504220361603923,-0.007130104843834732,0.0028608138599202186,0.9932056170779434
2016-07-26,1,0.0014174083289687069,0.001521524290059163,-0.006763969895491052,0.0036442069902398286,0.994558958040164
2016-07-28,1,0.0008811352305083364,0.0008907835324543954,-0.0041717913484585305,0.0036442069902398286,0.9945667646073837
2016-08-01,1,0.0009259160033376373,0.000960655553373003,-0.006968313071553182,0.0028579941235011242,0.9941783330515563
2016-08-03,1,0.00023940092918973684,0.00034835678812531335,-0.0032402354732167273,0.003966425575147764,0.9947497434778889
2016-08-05,0,-1.2309030182118747e-05,0.00014265290020548595,-0.003023268943936478,0.003966425575147764,0.9948248383827788
2016-08-09,0,-0.00014610814371733907,1.2538427735650211e-05,-0.002955992470828359,0.00531919137694483,0.9935961217857496
2016-08-11,0,-0.00011790022788838838,4.546454482891565e-05,-0.004874344553310538,0.00531919137694483,0.991060254699574
2016-08-15,-1,-0.0003831322865368204,-0.00017438665963338243,-0.010406206209145199,0.006279415343507108,0.9899591100576218
2016-08-17,-1,-0.001268622412514435,-0.0009495258851345052,-0.00638414414509062,0.006279415343507108,0.9903589114726887
2016-08-19,-1,-0.0015668445925998847,-0.0012402854891529942,-0.006898042476520484,0.007074606731221335,0.9894279904657948
2016-08-23,-1,-0.0014712201680332736,-0.0011562873485291818,-0.006898042476520484,0.009101454201081865,0.9886422639954869
2016-08-25,-1,-0.0015160169551752638,-0.0011689399019372496,-0.006898042476520484,0.009730045398982222,0.9883023204670005
2016-08-29,-1,-0.001802144946697524,-0.001432094928401208,-0.005565917924887209,0.009730045398982222,0.9885720773407396
2016-08-31,-1,-0.0012043232986769271,-0.0009184777035733389,-0.006464118220905465,0.009730045398982222,0.9889554280867735
2016-09-02,-1,-0.0006069652096756836,-0.00039707912132600246,-0.007038312978511455,0.007074606731221335,0.9891733433698889
2016-09-07,1,0.00031217036468332815,0.0004337919464627861,-0.011947901203434794,0.003897538991427356,0.9881561396488867
2016-09-09,-1,-0.0020864289856753083,-0.0016979924149106262,-0.007038312978511455,0.003897538991427356,0.9910838549659335
2016-09-13,-1,-0.0035366533473225915,-0.002921860273575219,-0.006464118220905465,0.003897538991427356,0.9920212765529318
2016-09-15,-1,-0.0034564643107779184,-0.002878719401364062,-0.006464118220905465,0.004520804778650051,0.9904313659472077
2016-09-19,-1,-0.003185573134565937,-0.0026506846773664597,-0.006164303553986415,0.00416390743419805,0.9914298132383293
2016-09-21,-1,-0.0027344381231389162,-0.0022276405243095675,-0.006164303553986415,0.0037795884618689744,0.9925770203711632
2016-09-23,-1,-0.0022225900838310016,-0.0017548598118056135,-0.006164303553986415,0.003548155478241658,0.9918563387909541
2016-09-27,-1,-0.002035293193432883,-0.0016181984154765318,-0.006164303553986415,0.00258387103799147,0.9916749885481349
2016-09-29,-1,-0.0021197010877959015,-0.0017310902144146267,-0.009442388476078775,0.00258387103799147,0.9904782535336151
2016-10-03,-1,-0.0023067129337017676,-0.0019095566552148246,-0.007711940671397747,0.003548155478241658,0.9906008999116698
2016-10-05,-1,-0.004820708254485867,-0.004119184068209241,-0.00744362072559091,0.003548155478241658,0.9904948460970778
2016-10-07,-1,-0.004926437926242826,-0.004225703070292486,-0.004847405847173621,0.003548155478241658,0.9901984425005789
2016-10-11,-1,-0.004722734067439148,-0.004031275731695296,-0.004847405847173621,0.004246195061501583,0.9895755604748668
2016-10-13,-1,-0.0028648866826401645,-0.00241522161037309,-0.013212124333346956,0.0022947436358099673,0.9885981778557914
2016-10-17,-1,-0.0025709212178413065,-0.0021729640243240036,-0.013212124333346956,0.0017771064360620535,0.9886469690747801
2016-10-19,-1,-0.0028146532913476486,-0.0023809013145406417,-0.013212124333346956,0.005769060541967486,0.9867020800764001
2016-10-21,-1,-0.0012497936116896635,-0.000997708807731872,-0.013212124333346956,0.0029500430036527216,0.9882126700665251
2016-10-25,-1,-0.0011918412768677912,-0.0009917744058246668,-0.012407164495926448,0.005769060541967486,0.9881488797411505
2016-10-27,-1,-0.0023322616337458084,-0.002029006383823529,-0.008765512607890168,0.007569889749965978,0.988701457858618
2016-10-31,-1,-0.002076787673835915,-0.0018135951530428417,-0.008765512607890168,0.008840966416057193,0.9882890763401422
2016-11-02,-1,-0.0035292999672208412,-0.0031002980736506043,-0.009568237678761365,0.008840966416057193,0.987810244624335
2016-11-04,-1,-0.0035733360254545186,-0.0031301353894647634,-0.009568237678761365,0.009890421523365892,0.9867297441374797
2016-11-08,-1,-0.0024119798005060892,-0.00211647588092534,-0.009568237678761365,0.009890421523365892,0.9870198856778433
2016-11-10,-1,-0.005514988775273135,-0.004882842921272195,-0.005039441624906812,0.009890421523365892,0.9889085689535364
2016-11-14,-1,-0.005709805972375515,-0.005077374658641787,-0.0022079795711565965,0.011019750050853159,0.9871004289873837
2016-11-16,-1,-0.003409033123011624,-0.0030743644654852168,-0.005039441624906812,0.010325478154540272,0.9895083245584757
2016-11-18,-1,-0.002421446807666185,-0.0022764653173441484,-0.005039441624906812,0.011019750050853159,0.9888474230334542
2016-11-22,-1,-0.001735746874494611,-0.0016953814313144472,-0.004972066109933923,0.011019750050853159,0.9892794622800346
2016-11-25,-1,-0.0016232936848998222,-0.0016193987540563451,-0.004022537550538591,0.011019750050853159,0.9901365287036987
2016-11-29,-1,-0.0011422264378151054,-0.0010666209672359097,-0.00404004207527201,0.008224574961020737,0.9904880599297057
2016-12-01,-1,-0.0033005917851556574,-0.0030806392456779927,-0.0023487118547788535,0.008224574961020737,0.9913426016621889
2016-12-05,-1,-0.0022699962015985797,-0.002163649544659828,-0.0023487118547788535,0.006169528084531341,0.9925612724359002
2016-12-07,-1,-0.0012749676441316487,-0.0012582120054682865,-0.0029967407491525446,0.0041621161479474655,0.9929642967332847
2016-12-09,-1,-0.0008979041930984215,-0.000847365587130367,-0.00404004207527201,0.0033812736916069433,0.9927420887892529
2016-12-13,1,0.00040488134728151426,0.0006420404694739161,-0.00404004207527201,0.0029055407061450537,0.9937167613634236
2016-12-15,-1,-0.0008323824803246021,-0.0008052115106703258,-0.0023487118547788535,0.004131910640654967,0.9933689001799384
2016-12-19,-1,-0.00012404637525080162,-1.952869618993458e-06,-0.003324919952106601,0.0033812736916069433,0.9937567673302297
2016-12-21,1,0.0001861492768776181,0.00038206588001480843,-0.0020632494808661226,0.003960610976719457,0.9935291044091568
2016-12-23,1,1.578272439461579e-06,0.00013818153754129096,-0.0034377099411826736,0.005900128003285005,0.9929297198618423
2016-12-28,0,-7.177399855019204e-05,6.12413632203214e-05,-0.0034377099411826736,0.006216025658808346,0.9923935928680631
2016-12-30,0,-5.0580900511605544e-05,7.982914649225107e-05,-0.002742592713951388,0.00754904009530622,0.9920080723525956
2017-01-04,1,0.00040239316979840637,0.000608656839483539,-0.007401895157419765,0.009629735467556027,0.9910622380947852
2017-01-06,-1,-0.0003072449704926641,-0.00019154652029615356,-0.007401895157419765,0.010230868322905472,0.9905283174452142
2017-01-10,-1,-0.0010808176302474666,-0.0010614218466260211,-0.002742592713951388,0.010230868322905472,0.9907767442448643
2017-01-12,-1,-0.0008561345968109267,-0.0008399208083311354,-0.0032486446141641997,0.009903321526199027,0.9912159358619379
2017-01-17,1,0.00031794629230900436,0.0004662680249213853,-0.0032486446141641997,0.009903321526199027,0.9912645338272373
2017-01-19,0,-0.00011276143805829229,1.7487584444966981e-06,-0.0023717146476616904,0.009903321526199027,0.9916685385413782
2017-01-23,1,0.0003707287202929794,0.0005337863751473768,-0.0032486446141641997,0.008852148393220065,0.9913979219665717
2017-01-25,1,0.0007356715269899268,0.0009766548955668633,-0.0023717146476616904,0.008852148393220065,0.9914801001570849
2017-01-27,1,0.0009624997521830544,0.0012688684812123818,-0.0013588853771964995,0.009234916717431877,0.9919526766586536
2017-01-31,1,0.0021510778523392716,0.0026908544531074555,-0.0023717146476616904,0.009064640231098242,0.9921044741454148
2017-02-02,1,0.0010503518500020082,0.0013128326809109096,-0.0027398314314886598,0.007787721093382718,0.9923344782804182
2017-02-06,1,0.00046765938779354325,0.0006179055417906733,-0.0027398314314886598,0.0067101433907250435,0.993343395186143
2017-02-08,1,0.0006961129385981508,0.0008680865435738083,-0.0038309064204826234,0.0067101433907250435,0.9930404369565934
2017-02-10,1,0.0007643579878408189,0.0009556089491280869,-0.0038309064204826234,0.0067101433907250435,0.9929336779775801
2017-02-14,1,0.0023175492302179423,0.0027559292545144,-0.005141543125032747,0.005442738918903822,0.9936804290693853
2017-02-16,1,0.002880996193841235,0.0034409533043792597,-0.005141543125032747,0.004269509799094002,0.9935575961965435
2017-02-21,1,0.0026910483176757595,0.0032234469488551186,-0.0038309064204826234,0.004269509799094002,0.9940425312229871
2017-02-23,1,0.0030525335857446824,0.003609909428269031,-0.0038309064204826234,0.00525102374009489,0.9933453014812711
2017-02-27,1,0.0035071150220219284,0.004111039490703964,-0.0038309064204826234,0.004486351411332225,0.9936441567831453
2017-03-01,1,0.0026478172646054914,0.0030245704608701093,-0.0033623077967634865,0.0043080390695338705,0.9944150622085899
2017-03-03,1,0.001891962603970614,0.002146483187194896,-0.002203147576131744,0.0043080390695338705,0.9951179082475725
2017-03-07,1,0.001899898176483881,0.002172005925183993,-0.0023822034039261827,0.0043080390695338705,0.9949549784580799
2017-03-09,1,0.002107954560942904,0.0024804114772170277,-0.002150151143267324,0.006776894213054199,0.9952847751766983
2017-03-13,1,0.0021965717746430715,0.002585560355965017,-0.001870157632060662,0.006776894213054199,0.9953965419880311
2017-03-15,1,0.0018614240295039824,0.002199445107987979,-0.0015682205694523231,0.0073250378915106495,0.9955137266670454
2017-03-17,1,0.002387780138174668,0.0028666137924033917,-0.0015682205694523231,0.0073250378915106495,0.99552479492693
2017-03-21,1,0.002579090893025257,0.003061879751275328,-0.0015682205694523231,0.006776894213054199,0.9958608051532994
2017-03-23,1,0.0028335374908827864,0.0032766820217189864,-0.0024443023506927294,0.00545988240847662,0.9959792320135589
2017-03-27,1,0.003155733484443127,0.0036438744308296533,-0.004345158131684908,0.0050816113247549016,0.9951019607388929
2017-03-29,1,0.0027284018920159933,0.003084408283658297,-0.004345158131684908,0.0050816113247549016,0.9954269928622027
2017-03-31,1,0.0025780945358820535,0.0029084956140518394,-0.004476523865620259,0.0050816113247549016,0.995338575082716
2017-04-04,1,0.0027671715656818014,0.0031696832056434384,-0.004476523865620259,0.0050816113247549016,0.9953066626383654
2017-04-06,1,0.0013799858871744019,0.0014171936597027004,-0.004476523865620259,0.005191835113587622,0.995105956860999
2017-04-10,1,0.0012240093123742763,0.0012380566653597384,-0.00465073951615717,0.005191835113587622,0.9946752651416456
2017-04-12,1,0.0023930853938101456,0.0026113371541735767,-0.00465073951615717,0.0026111351493965894,0.9944869178858411
2017-04-17,1,0.002166614982695262,0.0023467974781763894,-0.004476523865620259,0.0031019380750116395,0.9939028648268381
2017-04-19,1,0.002251154058467593,0.002445390450948735,-0.004476523865620259,0.003205529696995329,0.9932379330751485
2017-04-21,1,0.0015566297366279818,0.0016350170229352055,-0.003934452310329759,0.006013847797123426,0.9936025942536313
2017-04-25,1,0.0010278407969122629,0.0010432659946068,-0.0031941677954606673,0.007662700596069935,0.993819926186651
2017-04-27,1,8.180950994651651e-05,0.0002778150909311816,-0.0031941677954606673,0.00818303594150066,0.9931647413425807
2017-05-01,1,0.0002718709976012447,0.0004060975277161065,-0.0029912425913982276,0.00818303594150066,0.9931040756549127
2017-05-03,1,0.0002722706195020187,0.0003749469952138229,-0.0026612148762209043,0.009537802819765857,0.9916754299855924
2017-05-05,1,0.0012029860787489196,0.0012275243067707666,-0.003249680794441818,0.009285793586924123,0.9916728494757144
2017-05-09,1,0.0012761235456946636,0.00137117197639419,-0.0026206245719186316,0.009285793586924123,0.9921091276336542
2017-05-11,1,0.0003882147967921697,0.000464532091679072,-0.0005060015070925984,0.009285793586924123,0.9908353873385161
2017-05-15,1,0.0012344088608904895,0.0012950676532760667,2.3225230281952993e-05,0.008699954853169451,0.9920330006372963
2017-05-17,1,0.0020636674816487035,0.002225468590720741,-0.002340447744497346,0.008180424938536431,0.9926855031392735
2017-05-19,1,0.0024618991314829734,0.0026733037880416278,-0.002340447744497346,0.007353786658005295,0.9927593272276888
2017-05-23,1,0.0027250810327591433,0.002950729426102264,-0.004983364220796158,0.004628840637777398,0.9920246385294365
2017-05-25,1,0.003280306156170511,0.0035731743685552117,-0.004983364220796158,0.0017053137163933667,0.9922588345953169
2017-05-30,1,0.0034908626934179628,0.003818317384800932,-0.004983364220796158,0.0017053137163933667,0.9913517505809347
2017-06-01,1,0.002719263976723051,0.0028938820644662444,-0.0062800635266293935,0.0011193782948741777,0.9923619560843236
2017-06-05,1,0.002241531022631171,0.002311093613779012,-0.0062800635266293935,0.0011193782948741777,0.9931836802758374
2017-06-07,1,0.002134673490485471,0.002201629609704,-0.006638794394905031,0.0011193782948741777,0.9929090626985082
2017-06-09,1,0.0020152512703212177,0.0021196188749084185,-0.006105256363719827,0.0011193782948741777,0.9936874521057562
2017-06-13,1,0.0014694808818117042,0.0014851137323929201,-0.006638794394905031,0.001126834977265608,0.9928620796682963
2017-06-15,1,0.0012589787223581718,0.0012750503579730156,-0.006638794394905031,0.002458690540446376,0.9931020216406528
2017-06-19,1,0.0010310251043140633,0.0010821956118763755,-0.007543510794567358,0.002458690540446376,0.9911080631134057
2017-06-21,1,3.561931267721482e-05,0.00022580220858360134,-0.007543510794567358,0.003917883000426418,0.9904382889293679
2017-06-23,1,0.0003014645542854055,0.0004431404460244655,-0.007543510794567358,0.008702260050714087,0.9895464527855218
2017-06-27,1,0.001033436583993538,0.0010947094858108149,-0.007543510794567358,0.004692324809120883,0.9903278733387959
2017-06-29,-1,-0.0002573581178784127,-1.9352268906578903e-05,-0.0038815951596624133,0.006714817530350679,0.9909629878547573
2017-07-03,-1,-0.0006023494530255658,-0.00033357550420785604,-0.003017210972190227,0.006714817530350679,0.9912218190809338
2017-07-06,-1,-0.0012662518168600565,-0.0009113150446582919,-0.002071002393631938,0.008186402304690435,0.9905485385415329
2017-07-10,-1,-0.00019179217962155372,-2.3188966348329097e-05,-0.0034489215726279574,0.008186402304690435,0.9905832664375575
2017-07-12,1,0.0001742349478969473,0.0002978292969995732,-0.0034489215726279574,0.00751721830089474,0.991051171960449
2017-07-14,1,0.0003444539427454184,0.0004649383469808256,-0.0034489215726279574,0.006595358629635878,0.9914619243531599
2017-07-18,-1,-0.0014832923446661875,-0.0011782293927049816,-0.0003757216758938824,0.007828025602546035,0.9918648192571557
2017-07-20,-1,-0.0008495024688572049,-0.0006484557578618845,-7.562463408989758e-05,0.007161903761068341,0.9932955149799576
2017-07-24,1,0.00010016755109489521,0.0001825195491242998,-4.800423272419309e-05,0.0068851057764718875,0.994396549464692
2017-07-26,-1,-0.00019234026245284802,-4.274638599093309e-05,-4.800423272419309e-05,0.007161903761068341,0.9939157856344205
2017-07-28,1,7.643491351488684e-05,0.00020599076647204422,-4.800423272419309e-05,0.007161903761068341,0.9941203291172811
2017-08-01,-1,-0.00024023212756262718,-4.5697030605950316e-05,-0.0002140883820492163,0.007161903761068341,0.9941428568823023
2017-08-03,-1,-0.00037314011045433805,-0.0001594609988982775,0.00037263219955720997,0.007161903761068341,0.9942659589059271
2017-08-07,-1,-0.0006482382778841268,-0.00038268387141655457,9.214605229964317e-05,0.0068851057764718875,0.994393713660462
2017-08-09,-1,-0.0010309988670831674,-0.0007122978377735828,9.214605229964317e-05,0.0068851057764718875,0.9941069634857881
2017-08-11,-1,-0.0008755322288106284,-0.0005937720838455861,9.214605229964317e-05,0.0068851057764718875,0.9939071636585927
2017-08-15,1,0.0006549161293428613,0.0007074460219775686,-0.0013785605640687338,0.006228791171794297,0.9946213266220747
2017-08-17,1,0.0012375547917740511,0.0012741488802825113,-0.0021688055971413158,0.006122173498118527,0.9946809015673241
2017-08-21,1,0.0015103098625958017,0.0015936558057207848,-0.007396470606233855,0.004606909674582784,0.9933325113579266
2017-08-23,1,0.0018485047490133862,0.001967821502359869,-0.007396470606233855,0.0027895714629862017,0.9932597764443721
2017-08-25,1,0.001881313760838914,0.001982173448740015,-0.009421789743886853,0.001004639440695338,0.9925521519007017
2017-08-29,1,0.0018478113125917684,0.0019524833841537631,-0.009421789743886853,0.002784975618895864,0.9922642804734377
2017-08-31,1,0.0023569279341441266,0.0025385889076033866,-0.009421789743886853,0.0011731168786778955,0.9919397129024542
2017-09-05,1,0.0020111662387219814,0.0021799625157070623,-0.007396470606233855,0.0007320268212518031,0.9925855359911852
2017-09-07,1,0.0018335543723895838,0.0019695972356049652,-0.005877876010137845,0.0007320268212518031,0.9923312350629508
2017-09-11,1,0.001729588729377961,0.001852496609841585,-0.005877876010137845,0.0007535901317670876,0.9924988780739783
2017-09-13,1,0.0005583350610077127,0.0006141472456855687,-0.005285000919944164,0.004538734885796198,0.9934872471084208
2017-09-15,1,0.00027446822879855485,0.00039869211343702255,-0.005575599869651277,0.004538734885796198,0.9932800954481913
2017-09-19,-1,-0.00114147747762944,-0.00086502564598223,-0.005285000919944164,0.004538734885796198,0.9948075501603956
2017-09-21,-1,-0.0016072934093742917,-0.0012655529927364918,-0.005285000919944164,0.0056029919702089495,0.9937491967654024
2017-09-25,-1,-0.0025182112962596915,-0.0020559905987389284,-0.005285000919944164,0.005958416887532637,0.9930530915362138
2017-09-27,-1,-0.0021208134755518106,-0.0017460721064545815,-0.004758489858042779,0.005958416887532637,0.9932182412145995
2017-09-29,-1,-0.0024910728341077533,-0.0020477607957157576,-0.004758489858042779,0.005958416887532637,0.9933163123257369
2017-10-03,-1,-0.002865350222400737,-0.0023642954755021045,-0.004758489858042779,0.00881603483295992,0.991326410685318
2017-10-05,-1,-0.001734462924808363,-0.00139083854820512,-0.005347420877287482,0.00881603483295992,0.9912488337266612
2017-10-09,-1,-0.0008960191382859885,-0.0007020039944795419,-0.005347420877287482,0.009780781187733014,0.9890861972847844
2017-10-11,-1,-0.00046233342548578007,-0.00035579193157239794,-0.00491587553716572,0.013060991305617893,0.9886564435275372
2017-10-13,-1,-6.994664643289088e-05,-3.358761570976303e-05,-0.0046229533135454205,0.013060991305617893,0.9890855259025265
2017-10-17,-1,-5.481181461443812e-05,-5.161158999203254e-05,-0.0035515744259723074,0.013060991305617893,0.9893224662979377
2017-10-19,1,0.0007290087470207077,0.0008515616286165057,-0.0048335674160031065,0.009780781187733014,0.9897952414160529
2017-10-23,1,0.0009476845108838847,0.0010973009852521661,-0.0048335674160031065,0.005421206463357304,0.9904221899836512
2017-10-25,1,0.0010064852429543067,0.001164193715809956,-0.0048335674160031065,0.009780781187733014,0.989602709717587
2017-10-27,1,0.0006451807034263766,0.0007498126669453351,-0.0036778439281953393,0.009780781187733014,0.9895546515489517
2017-10-31,1,0.001710149403334105,0.0019301160548418272,-0.0048335674160031065,0.005759688151225566,0.9909467868407527
