JNU-Tangyin/eata/results/Batch4_SP500/Batch4_SP500-MMC.csv
Date,Action,Predicted_Q25,Predicted_Q75,Actual_Q25,Actual_Q75,RL_Reward
2010-12-14,0,0.0,0.0009846756461237673,-0.00193632150671936,0.004950534001037461,0.9954604928133552
2010-12-16,1,0.0010946971681925735,0.0011977263280688929,-0.0021982033539092137,0.007022935865712633,0.9942588020611476
2010-12-20,1,0.0010134864569257608,0.0010910030118823967,-0.003365198557553122,0.004950534001037461,0.9936175125288605
2010-12-22,1,0.001484945232711769,0.0016442289280969218,-0.003365198557553122,0.005622201221224703,0.9935724031222988
2010-12-27,1,0.003325979395383029,0.0037032268711915672,-0.003365198557553122,0.00944917668632405,0.9930257594206332
2010-12-29,1,0.0033637256141435994,0.003741535247297148,-0.0039792626491099,0.009936607245731954,0.9919403989354283
2010-12-31,1,0.0030764626523477963,0.003420996345714722,-0.005674479495647816,0.009936607245731954,0.9912410941985516
2011-01-04,1,0.0030183297380236575,0.003286010048146197,-0.006157295983482454,0.010515157683341936,0.9904840410540159
2011-01-06,1,0.0017385126895267723,0.0017971349377740062,-0.005160917031008251,0.010515157683341936,0.9912691358223036
2011-01-10,1,0.0014664562115178775,0.0015510365190404304,-0.0008184808415535528,0.010515157683341936,0.9920196918264835
2011-01-12,1,0.0013395056312434012,0.0013733553744688831,-0.0037054370750931676,0.008335481803789367,0.9921258583647923
2011-01-14,1,0.0016249719792836145,0.001634954236313272,-0.0012499945504325094,0.008335481803789367,0.9923969483166938
2011-01-19,1,0.0009712674313252839,0.0010369483533998868,0.0009924143929804523,0.010406943419213473,0.9909895135637411
2011-01-21,1,0.0018713974283890806,0.001918852907107687,0.0012363224144886459,0.011233775209027658,0.9910925128610798
2011-01-25,1,0.0029328066779129697,0.003185744104026423,-0.005160917031008251,0.00849349807171323,0.9899127908818047
2011-01-27,1,0.0036297334718004776,0.003994232300705603,-0.0006792093151861414,0.0077060192784571165,0.9907409143179664
2011-01-31,0,0.0,0.0,-0.0006792093151861414,0.007785060809449554,0.9902799743150725
2011-02-02,1,0.0016401561386319963,0.0017362593784959505,-0.0008287270747997779,0.007785060809449554,0.9913129689150525
2011-02-04,1,0.0016671390483410315,0.0017534882301581032,-0.006416883041714037,0.007785060809449554,0.9906932529684066
2011-02-08,1,0.0017057586335487967,0.0017915336720528792,-0.007686741312783681,0.007785060809449554,0.9900502729530651
2011-02-10,1,0.0017502201485138508,0.0018679478243526927,-0.007686741312783681,0.008373699473231107,0.9882727751206458
2011-02-14,1,0.001488221942313649,0.0015334326117275835,-0.010004131411984831,0.007785060809449554,0.9880242597940301
2011-02-16,1,0.002903599378540065,0.003159599760534104,-0.010598002137605202,0.007436468997204547,0.9885394674478882
2011-02-18,1,0.0031734110978388786,0.003455693562482724,-0.010598002137605202,0.007436468997204547,0.9888110476981165
2011-02-23,1,0.001954752823709716,0.002051904014891657,-0.010004131411984831,0.007612663233600615,0.98994042873817
2011-02-25,1,0.0018851737644681695,0.0019317257089362923,-0.010004131411984831,0.007666646993089561,0.9897890111004847
2011-03-01,1,0.0018670099835355442,0.0019041692232393912,-0.010004131411984831,0.007530451472959327,0.990352797830909
2011-03-03,0,0.0,0.0,-0.010004131411984831,0.005887063299091936,0.991205351806007
2011-03-07,0,0.0,0.0,-0.004569019763323332,0.006659339758520301,0.9912469907362138
2011-03-09,0,0.0,0.0,-0.0050754049837944204,0.006659339758520301,0.9914114940202863
2011-03-11,0,0.0,0.0,-0.003917154818289683,0.006659339758520301,0.9930546913210313
2011-03-15,0,0.0,0.0,-0.006045331589031526,0.006659339758520301,0.9923402156629542
2011-03-17,1,0.0005351215288624203,0.0006093695677832902,-0.003917154818289683,0.006659339758520301,0.9933182473140074
2011-03-21,1,0.00049368543426968,0.0006023527626767921,-0.006045331589031526,0.006194664303504808,0.9926487143503965
2011-03-23,1,0.0003595245498313564,0.0004563834682042034,-0.006045331589031526,0.006194664303504808,0.9923212931207599
2011-03-25,1,0.0006868259540007141,0.0007552983531338161,-0.006110458557038654,0.005783746830999431,0.9921994470555012
2011-03-29,1,0.000806774554010698,0.0008509663728919963,-0.006110458557038654,0.006194664303504808,0.9917996326789951
2011-03-31,1,0.0009569848670102608,0.000962725601691663,-0.006110458557038654,0.00730894030537735,0.991158931071006
2011-04-04,1,0.001111862170013225,0.001141575224170856,-0.006110458557038654,0.010227960469657465,0.9909707961079116
2011-04-06,1,0.0005754038908462443,0.0006703398089125143,-0.007380461046925059,0.010227960469657465,0.9900013832124201
2011-04-08,1,0.0009263425330149964,0.000970015766554756,-0.007380461046925059,0.007129886478672499,0.9909155722294789
2011-04-12,0,0.0,0.0,-0.004141809742627554,0.008587260405024704,0.991821390653195
2011-04-14,0,0.0,0.0,-0.006174680309409963,0.008587260405024704,0.9912905126830225
2011-04-18,1,0.002866971723950209,0.0032572114252825933,-0.004141809742627554,0.010227960469657465,0.9917471347943956
2011-04-20,-1,-0.0019463724185182516,-0.0014173298714921605,-0.003396596102805425,0.01016928400601351,0.9918121895480261
2011-04-25,-1,-0.0006749062580515701,-0.00039187693886591436,-0.003396596102805425,0.008587260405024704,0.9922083189911115
2011-04-27,0,0.0,0.0,-0.003396596102805425,0.008641937580157787,0.9919637501355948
2011-04-29,1,5.823142041734095e-05,0.00012856672070403046,-0.0025518719129675824,0.008641937580157787,0.9922375339544584
2011-05-03,1,0.0006417412989197956,0.0006827650461273314,-0.005645763068064903,0.006720968203865035,0.9921478136182285
2011-05-05,-1,-0.000289297189008586,-0.00015168912339092925,-0.0024527746466254862,0.006720968203865035,0.993790247288855
2011-05-09,-1,-0.00038786848788483077,-0.00023726112287535172,-0.0030249799684946566,0.00855279848325276,0.9930359075502654
2011-05-11,-1,-0.0002971933997825363,-0.0001487772706999696,-0.004143510564283794,0.007195621757378332,0.9926849878418403
2011-05-13,-1,-0.00041248929492878456,-0.00026514584949325335,-0.004143510564283794,0.009839655900460889,0.992543573215722
2011-05-17,-1,-0.0001644535458038991,-4.966219703665556e-05,-0.0077109305517647,0.00721438844936121,0.9922206751681187
2011-05-19,1,0.0002676257590025604,0.00033155034822573255,-0.0077109305517647,0.005638627155344534,0.9927161542301225
2011-05-23,-1,-0.0003026695604480182,-0.0001752382094576708,-0.0038462187652575047,0.00721438844936121,0.9924474003219336
2011-05-25,0,-8.900866851497158e-05,2.554941591032618e-05,-0.007660337623355931,0.005638627155344534,0.9925809097106928
2011-05-27,0,0.0,0.0,-0.007660337623355931,0.0028605584952005924,0.9929113635286031
2011-06-01,0,0.0,0.0,-0.005393067631208675,0.00721438844936121,0.9920501357687085
2011-06-03,-1,-0.0008477041408675828,-0.0006051035877573229,-0.005393067631208675,0.009839655900460889,0.9911472075123842
2011-06-07,-1,-0.00040222252163518593,-0.0002452669494320613,-0.005011907729753752,0.008264315002139666,0.9917332775518518
2011-06-09,0,0.0,0.0,-0.005011907729753752,0.008264315002139666,0.9919651219026954
2011-06-13,0,0.0,0.0,-0.005011907729753752,0.006704508510290998,0.9917121064038649
2011-06-15,0,0.0,0.0,-0.005011907729753752,0.006850171869776693,0.9915745010738146
2011-06-17,0,0.0,0.0,-0.007656217092359439,0.006850171869776693,0.9906613931437193
2011-06-21,0,0.0,0.0,-0.007656217092359439,0.004989663539759897,0.9916799933609987
2011-06-23,0,0.0,0.0,-0.007498851680039753,0.006850171869776693,0.9910035858250598
2011-06-27,0,0.0,0.0,-0.008786574296678468,0.006850171869776693,0.9907862061075334
2011-06-29,0,0.0,0.0,-0.009089274375716255,0.003153458833739767,0.9919481273076796
2011-07-01,0,0.0,0.0,-0.010127429737319215,0.0019481013513795618,0.9917285770674535
2011-07-06,0,0.0,0.0,-0.011297497800430741,0.003153458833739767,0.9895715673571996
2011-07-08,1,0.0005388053627466864,0.0005499924694211778,-0.014282284983586824,0.0019481013513795618,0.9880194482648011
2011-07-12,1,0.0008808603030597756,0.0009728765451698634,-0.014282284983586824,0.003657131896173873,0.9806532629720501
2011-07-14,1,0.0006139343252305481,0.0007211688635732546,-0.014282284983586824,0.003657131896173873,0.9765518135180498
2011-07-18,-1,-0.000598671697604605,-0.0004934831495348121,-0.014273914263965608,0.00870004301065486,0.9765400887922614
2011-07-20,-1,-0.0003363991773115267,-0.0002825393770694148,-0.014273914263965608,0.00870004301065486,0.97626328990503
2011-07-22,1,2.5658395981445598e-05,3.3248752498457213e-05,-0.017028006773396703,0.0045343167971591295,0.9755966920863385
2011-07-26,-1,-6.41796904406626e-05,-5.445775794480654e-05,-0.017028006773396703,0.011683811248082062,0.9749198245292728
2011-07-28,-1,-0.0005359474819955337,-0.0004544665713026012,-0.017028006773396703,0.014162611993475115,0.9739844357648417
2011-08-01,-1,-0.0009726945952437858,-0.0008322327139547546,-0.014347020939679413,0.017359612276128124,0.9733578914650687
2011-08-03,-1,-0.00019379136239402951,-0.00016790152331749871,-0.012516980564296773,0.014162611993475115,0.9750455685473177
2011-08-05,-1,-0.0018908527508656441,-0.0016515298414224778,-0.010265785627309978,0.014162611993475115,0.9758997650712964
2011-08-09,-1,-0.0013707949650430535,-0.001156462852094621,-0.008572838605041311,0.014162611993475115,0.9822503750512772
2011-08-11,-1,-0.0011295710196605733,-0.0009630010864762164,-0.010265785627309978,0.013114352941200896,0.9856742883078229
2011-08-15,-1,-0.001513654741217008,-0.0013028220076910227,-0.008572838605041311,0.01146590044690635,0.9866306764696965
2011-08-17,-1,-0.0011656595861704961,-0.001023876252961162,-0.008572838605041311,0.013114352941200896,0.9860155030439586
2011-08-19,-1,-0.002098995240751778,-0.0018563387156204044,-0.007854973631682052,0.013114352941200896,0.9872660181151791
2011-08-23,0,0.0,0.0,-0.010245881497633485,0.00830538219378309,0.9860563889133565
2011-08-25,0,0.0,0.0,-0.01349542386164635,0.00677938774534077,0.9863691701359701
2011-08-29,0,0.0,0.0,-0.01349542386164635,0.004720186312437993,0.9868812888118221
2011-08-31,0,0.0,0.0,-0.014429281604560276,0.0047245451794097025,0.9857057623254661
2011-09-02,0,0.0,0.0,-0.01832660182442325,0.0047245451794097025,0.9844022865613338
2011-09-07,0,0.0,0.0,-0.01832660182442325,0.008651078708403736,0.9836410338830801
2011-09-09,0,0.0,0.0,-0.01803588253737838,0.008651078708403736,0.9846371301112001
2011-09-13,-1,-0.0011455953456092863,-0.0010082284917980007,-0.01803588253737838,0.014655320377630683,0.983031651944398
2011-09-15,0,0.0,0.0,-0.01803588253737838,0.014530486056735268,0.9822872434523056
2011-09-19,0,0.0,0.0,-0.01906143063963023,0.014530486056735268,0.9812646723968544
2011-09-21,0,0.0,0.0,-0.01803588253737838,0.017015665963431806,0.9815447390106874
2011-09-23,0,0.0,0.0,-0.015562232539280364,0.02307945776333344,0.9793356147756048
2011-09-27,0,0.0,0.0,-0.015562232539280364,0.02307945776333344,0.9800497665943695
2011-09-29,0,0.0,0.0,-0.009569660804459356,0.026445078460703243,0.9791157678241602
2011-10-03,0,0.0,0.0,-0.00861206488284809,0.026445078460703243,0.9798106355888296
2011-10-05,0,0.0,0.0,-0.011619951836678234,0.026445078460703243,0.9794456770020878
2011-10-07,0,0.0,0.0,-0.00861206488284809,0.026445078460703243,0.9799140694498396
2011-10-11,-1,-0.0027378488022851205,-0.0025372510453620023,-0.006613305804769981,0.023145193519387264,0.9807257633675049
2011-10-13,-1,-0.0004707075880277051,-0.0004683037003266234,-0.00861206488284809,0.023145193519387264,0.9803005602686007
2011-10-17,-1,-0.0005873214866078283,-0.0005656953117721122,-0.00861206488284809,0.023145193519387264,0.980206102000796
2011-10-19,1,0.0003812117940178711,0.0004910283645149572,-0.013477104582504153,0.019532853589054662,0.9797149157672828
2011-10-21,0,0.0,0.0,-0.018819233439808833,0.016082188480215694,0.9821483980728911
2011-10-25,1,0.0019462222268773978,0.0022629007906225474,-0.018819233439808833,0.016082188480215694,0.9812612872250254
2011-10-27,1,0.0035445264786268258,0.004076666203808306,-0.018819233439808833,0.008761061364077383,0.9824412746138408
2011-10-31,1,0.0022737198306689733,0.002612326512390642,-0.013788825615726126,0.010512728450247831,0.9837880088360887
2011-11-02,0,0.0,0.0,-0.01183510988729023,0.010512728450247831,0.9845400460424701
2011-11-04,0,0.0,0.0,-0.01183510988729023,0.010512728450247831,0.9847537905604276
2011-11-08,1,0.00197037091579766,0.002261620039918786,-0.01183510988729023,0.010171897976891676,0.9853739970519935
2011-11-10,1,0.0015822169341901575,0.0018583274393796723,-0.01183510988729023,0.013378627557823234,0.9860542479759076
2011-11-14,1,0.0012890385464217097,0.001506275369776636,-0.01183510988729023,0.010171897976891676,0.9870326887459178
2011-11-16,1,0.0007451742560149095,0.0008748025157123245,-0.011579065154650285,0.008443638579041207,0.98858897232274
2011-11-18,1,0.000863183829783679,0.0010567475516000927,-0.009711108449799763,0.008443638579041207,0.9891734128926745
2011-11-22,1,0.0006062017771347845,0.0007936634146282009,-0.0047632654271375485,0.010171897976891676,0.9891728331421045
2011-11-25,1,0.0006290225083251407,0.0008050105048297479,-0.0032807622835090873,0.013378627557823234,0.9892813895036097
2011-11-29,1,0.0007840456005713289,0.0009521364367324806,-0.0029988069131494204,0.009398938281566342,0.9900863827382224
2011-12-01,1,0.0017998026031771164,0.0020706682413414155,-0.00342761056349566,0.008585051180835327,0.9919040438953888
2011-12-05,1,0.00169548228141524,0.001934627336381715,-0.005478578424409439,0.008585051180835327,0.9914106455323064
2011-12-07,1,0.0019221450308223337,0.0021626412604425363,-0.01021873904666044,0.006790302083557669,0.9905789435809459
2011-12-09,1,0.001624553182239701,0.001858176601460644,-0.009283854228446863,0.006692488468256855,0.9918609192264044
2011-12-13,1,0.0013413192978393655,0.0015117320999217317,-0.005478578424409439,0.006692488468256855,0.9924101867311272
2011-12-15,1,0.0010760259406499037,0.0012380852537700485,-0.00342761056349566,0.005909586202326078,0.9930300376187304
2011-12-19,1,0.0008217220817724616,0.0009345752461372395,-0.0017427633629288814,0.005909586202326078,0.9931664587774462
2011-12-21,1,0.001235005413322731,0.0013892577776012604,-0.004177132229019426,0.005309994032249087,0.9939173651323754
2011-12-23,1,0.002044088603767676,0.002341222958149094,-0.007444118386556269,0.005309994032249087,0.993816862195393
2011-12-28,1,0.001234892541564544,0.001389558268396941,-0.007444118386556269,0.005909586202326078,0.9936310113142519
2011-12-30,1,0.0016678319499355179,0.0018930679459401702,-0.005831112596312594,0.005309994032249087,0.9942804899206692
2012-01-04,1,0.0012378356710077525,0.0014200792368698326,-0.005415078509679455,0.005309994032249087,0.9940997074383728
2012-01-06,1,0.00024843428245778455,0.0002599833260634997,-0.0022940901520266043,0.006277000341594739,0.99392745195326
2012-01-10,1,0.00041202082950308273,0.0004296625434872037,-0.005415078509679455,0.006391156615582417,0.9935168020331495
2012-01-12,1,0.00015842495570928905,0.00021212148959438132,-0.005661721629254731,0.005893030053636329,0.9934247757987864
2012-01-17,1,0.0003113873023767403,0.0003155569094284583,-0.006186344994123002,0.0069785477612345475,0.9925951483294663
2012-01-19,1,0.0008641072432359225,0.0009636292005420738,-0.007444118386556269,0.008349903967948599,0.9913617964057998
2012-01-23,1,0.0010640724609565439,0.0012381543688702794,-0.006358900044009547,0.009373411464060169,0.9908293942473033
2012-01-25,1,0.0012181181406135154,0.0014005429036091331,-0.006597143921040357,0.008349903967948599,0.9906146169823846
2012-01-27,1,0.0009316183591967577,0.0010502014785680192,-0.007619304032248727,0.007828887832868928,0.9902267235351748
2012-01-31,1,0.0011804232006924912,0.0013505478418293108,-0.007619304032248727,0.007828887832868928,0.989930991386488
2012-02-02,0,0.0,0.0,-0.00918450534079219,0.007828887832868928,0.989323066011611
2012-02-06,0,0.0,0.0,-0.010286010578439538,0.006804875716207991,0.9897568993308744
2012-02-08,1,0.0011682350541092799,0.0012596005639639325,-0.010286010578439538,0.007828887832868928,0.9894010717120799
2012-02-10,1,0.0006584372751037443,0.0006635384071079202,-0.007889050328701774,0.007828887832868928,0.9897871063836455
2012-02-14,1,0.00019908750876031732,0.0002932724644961405,-0.0069904790142123075,0.009185147280559155,0.989475921762888
2012-02-16,1,2.9240293155907194e-05,0.00013613818306380414,-0.0069904790142123075,0.010665237668320886,0.9898848043371953
2012-02-21,1,0.0005695675743587528,0.0006077338444725613,-0.007030477657603465,0.008322251295456171,0.9904680354796414
2012-02-23,1,0.0004714482986434249,0.0005083592553115015,-0.007030477657603465,0.008155923766514953,0.9905706453542851
2012-02-27,0,0.0,0.0,-0.006521578198409181,0.010665237668320886,0.9903134921170655
2012-02-29,-1,-0.0005429551012984212,-0.00042590798689942405,-0.005000335170560039,0.010665237668320886,0.9903161328613758
2012-03-02,-1,-0.0010047259893086404,-0.0007811370159246828,-0.005000335170560039,0.008155923766514953,0.99149162066657
2012-03-06,-1,-0.000890829986717276,-0.0006902592475105546,-0.004701755889664773,0.008155923766514953,0.9920683848537698
2012-03-08,1,0.00020526214460476517,0.0002289745299837117,-0.00595225247419628,0.006697237158609321,0.9927992095049339
2012-03-12,-1,-0.0008526729524015575,-0.0006490280747335924,-0.00786046209089663,0.006697237158609321,0.9918194655693067
2012-03-14,1,0.000120507523478219,0.0001742179166129468,-0.00786046209089663,0.00567386771862142,0.991997912167598
2012-03-16,1,0.0005716832840894745,0.0006691933235362913,-0.006587687660293836,0.00567386771862142,0.9924257044535484
2012-03-20,1,0.00026797024221751576,0.00028816420939415603,-0.006897324896204609,0.006697237158609321,0.991515629045389
2012-03-22,1,0.0004061880833066002,0.0004809235646748519,-0.006897324896204609,0.007205166586504977,0.9914084325539775
2012-03-26,1,0.0003839306240216241,0.00040901381845617356,-0.008953698831016793,0.007205166586504977,0.9907975863561844
2012-03-28,1,0.0009825386000877068,0.0011033969114396381,-0.008953698831016793,0.00889815364381209,0.9902539778811077
2012-03-30,1,0.0005951735573383668,0.0006479603256773279,-0.006897324896204609,0.00889815364381209,0.9903815950104022
2012-04-03,1,0.0008137608857812396,0.0009192306901246591,-0.0070759969365772205,0.010285453574564209,0.989135839590621
2012-04-05,0,0.0,0.0,-0.0077309921468275734,0.010285453574564209,0.9889071402907915
2012-04-10,0,0.0,0.0,-0.0049691460401441595,0.010285453574564209,0.9899934315671184
2012-04-12,0,0.0,0.0,-0.006914097455913314,0.00889815364381209,0.9899597248218284
2012-04-16,0,0.0,0.0,-0.007908318373215206,0.00889815364381209,0.9893598543087455
2012-04-18,0,0.0,0.0,-0.007704680439572745,0.007846536926333223,0.9902701088878226
2012-04-20,0,0.0,0.0,-0.008435496892775441,0.006938205988044477,0.9903993657936038
2012-04-24,0,0.0,0.0,-0.007704680439572745,0.0072883482377385355,0.9911847300376327
2012-04-26,0,0.0,0.0,-0.007704680439572745,0.006099780335935787,0.9917784757805713
2012-04-30,0,0.0,0.0,-0.007704680439572745,0.005186685167438424,0.9917364176298339
2012-05-02,0,0.0,0.0,-0.008435496892775441,0.004505331823197803,0.9923562688935866
2012-05-04,0,0.0,0.0,-0.010681600395179975,0.0034415621425235026,0.9923678121695744
2012-05-08,1,0.0006351656930620329,0.0006523272564053307,-0.010681600395179975,0.005186685167438424,0.9911918787484971
2012-05-10,1,1.6565480149176266e-05,8.182444084121093e-05,-0.009970506785627466,0.005186685167438424,0.9914742212129666
2012-05-14,-1,-0.0007009079311070731,-0.0005434712056943522,-0.009970506785627466,0.00621649441916714,0.9910042813305759
2012-05-16,-1,-0.0004703958390004299,-0.00037157320354027685,-0.010681600395179975,0.006301478389046966,0.9905092697877997
2012-05-18,-1,-0.0006344806916253301,-0.0005438867504662258,-0.010828794713665033,0.006301478389046966,0.9905530286682134
2012-05-22,0,0.0,0.0,-0.010828794713665033,0.005186685167438424,0.9910543755150523
2012-05-24,0,0.0,0.0,-0.013821399153609595,0.005215013157398366,0.9899658257059291
2012-05-29,0,0.0,0.0,-0.013821399153609595,0.0039036557493532346,0.9898202751216942
2012-05-31,0,0.0,0.0,-0.011367247942432115,0.006718244972227325,0.9899825838080963
2012-06-04,-1,-0.001171086730352367,-0.0009857909537463263,-0.010031691901405574,0.009706865144831574,0.9890847955759399
2012-06-06,-1,-0.00015110633767189815,-9.439033096446926e-05,-0.010031691901405574,0.007745382271242731,0.9901270301410556
2012-06-08,-1,-0.0009528452877538072,-0.0007918507481823325,-0.008153903695006898,0.007745382271242731,0.9904459778469445
2012-06-12,-1,-0.0006373116061813252,-0.0005212799769728582,-0.008153903695006898,0.006361171657153151,0.9915909464099764
2012-06-14,-1,-0.0010086943477671598,-0.0008437333458722568,-0.005815283477234817,0.007745382271242731,0.9915465983359045
2012-06-18,-1,-0.001478736174745904,-0.0012650765125570658,-0.004108100134295721,0.007978045667345963,0.9917997485183014
2012-06-20,-1,-0.00117316739411869,-0.001004625833209124,-0.004108100134295721,0.007978045667345963,0.9916776323060404
2012-06-22,-1,-0.0014468366377780066,-0.0012357376398074635,-0.005815283477234817,0.007524085085148944,0.9923161536751532
2012-06-26,-1,-0.001514049039897806,-0.0013108197119368484,-0.005815283477234817,0.007524085085148944,0.9919764937215864
2012-06-28,-1,-0.0006821971691473859,-0.0005929389258669754,-0.005815283477234817,0.007978045667345963,0.990587352998309
2012-07-02,1,0.0003093363954143803,0.000351765038136632,-0.007519386644100952,0.007978045667345963,0.9907658397116357
2012-07-05,1,0.00026413493042270347,0.00027994421630583236,-0.007519386644100952,0.006540431881832436,0.9908611994420934
2012-07-09,1,5.5639168553484484e-05,6.40798620135749e-05,-0.005986180238050789,0.008515407612175821,0.9905662595362174
2012-07-11,-1,-0.0005475435465100301,-0.0004515592065649511,-0.005165217481627283,0.011660639848866387,0.9899186124597245
2012-07-13,1,0.0002420415360009886,0.0002819977558097324,-0.004357983960987993,0.008515407612175821,0.9904240834933713
2012-07-17,1,0.00017293602226765088,0.00018484681040180316,-0.004807054720217726,0.007299091012756081,0.9906834361373301
2012-07-19,1,0.00022827890123632184,0.000233833642796101,-0.004807054720217726,0.006726284126661125,0.9907868110310389
2012-07-23,-1,-0.0005661588968247179,-0.0004462619582059135,-0.0038962906125912956,0.006726284126661125,0.991575602388623
2012-07-25,-1,-0.000601282779722659,-0.0005002219178476812,-0.0038962906125912956,0.006687214699023528,0.9920983194433955
2012-07-27,1,0.0005725037269733486,0.0005967002712787479,-0.0038962906125912956,0.0050808521602346305,0.9938188464438283
2012-07-31,1,0.0006165864696357521,0.0006870090274192906,-0.0038962906125912956,0.0050808521602346305,0.9944801700779826
2012-08-02,1,0.0002661430309067305,0.0002791138314129339,-0.0038962906125912956,0.0050808521602346305,0.9945857175078048
2012-08-06,1,0.0008733881524865771,0.0010076180147935497,-0.0038962906125912956,0.0050808521602346305,0.9947187938497776
2012-08-08,1,0.0013585887310363488,0.0015570028893790772,-0.004045980865667873,0.0050808521602346305,0.9948322478727515
2012-08-10,1,0.001214562242218159,0.0013745208432429236,-0.005070083170152605,0.0032415079545716637,0.9947475474824613
2012-08-14,1,0.001000693808362195,0.0011240798296924014,-0.0037332203089931295,0.0032415079545716637,0.9948490349543043
2012-08-16,1,0.001562977227388619,0.0017974683904950796,-0.0037332203089931295,0.0062114678734839415,0.9939177132618726
2012-08-20,1,0.0015755882001731148,0.00181600456742099,-0.0036917959482278117,0.0062114678734839415,0.9938798718178333
2012-08-22,1,0.0010328128213170926,0.0011817587285500282,-0.004368859897293938,0.0062114678734839415,0.9936474444663713
2012-08-24,1,0.0011739207389093176,0.0013285060801039921,-0.00502100727331296,0.004378643187124614,0.9937765277426847
2012-08-28,1,0.00099119430199946,0.0011031231722754176,-0.00502100727331296,0.00331630274602399,0.9936487101347995
2012-08-30,1,0.0003080212316244367,0.000332022068277514,-0.003985529360563859,0.0036075104218087923,0.9938967724103577
2012-09-04,1,0.0008502594589899874,0.000929752024393026,-0.003985529360563859,0.004076938016331131,0.9937589626432642
2012-09-06,1,0.0011202854862966357,0.0012446453229175065,-0.003985529360563859,0.004076938016331131,0.9940674172572912
2012-09-10,1,0.0009509785969260213,0.0010665794362345526,-0.003091082952824725,0.005306352361103493,0.994226379693855
2012-09-12,1,0.0007964562004626706,0.00087715664167307,-0.003985529360563859,0.005306352361103493,0.9937447857081809
2012-09-14,1,0.0015904280304299763,0.001795218826512228,-0.003985529360563859,0.0036075104218087923,0.994623476600812
2012-09-18,1,0.0018436884532387712,0.0021105160835913875,-0.003985529360563859,0.005176448589826484,0.9943641272644702
2012-09-20,1,0.0014502444421120304,0.0016687646118994583,-0.0018377181349724478,0.005176448589826484,0.9952724191240148
2012-09-24,1,0.0016342719440152313,0.001894438173127661,-0.003124449785859705,0.005176448589826484,0.9943147546526595
2012-09-26,1,0.0011934569226318382,0.0013975441427463559,-0.006537593889059329,0.005176448589826484,0.9936271891622309
2012-09-28,1,0.0011963701285390626,0.0013927921418959797,-0.006537593889059329,0.006111355662807283,0.9931979131004258
2012-10-02,1,0.001332039757547148,0.001513878441367444,-0.006537593889059329,0.0069244772501711824,0.9926632175372108
2012-10-04,1,0.0011176223650230111,0.001226444432999521,-0.0076953576321003156,0.006111355662807283,0.9927489466178955
2012-10-08,1,0.001090559076822193,0.0011832734610722007,-0.009957112058001203,0.006668214228138161,0.9915558495926177
2012-10-10,1,0.0002474434320751853,0.0002974732533346009,-0.009974388183281734,0.006668214228138161,0.9916282195648164
2012-10-12,1,0.0005458842360009381,0.0005534209576401806,-0.009974388183281734,0.006668214228138161,0.991665247203588
2012-10-16,1,0.0010427436988308875,0.0011329185330567195,-0.009974388183281734,0.006134229302927338,0.9919022722901226
2012-10-18,1,0.001094218187738844,0.0011805748785879608,-0.009974388183281734,0.007837258251617244,0.9909326957486024
2012-10-22,1,1.529593478311552e-05,8.718421206077749e-05,-0.003991658223138698,0.00879804283913161,0.9917695018650813
2012-10-24,-1,-0.0012422544189981347,-0.0010001496135009906,-0.0013918446217626558,0.009119936358911479,0.9920155638824874
2012-10-26,1,1.1349655102697311e-05,5.870355297006e-05,-0.004512766146177895,0.00870235078609044,0.9925427127751426
2012-11-01,1,0.00038302015792224367,0.0004166924028984207,-0.004512766146177895,0.006740499939015826,0.9936997706580674
2012-11-05,0,-5.120160024142353e-06,6.509177465146058e-05,-0.004190081279632973,0.006740499939015826,0.9937851030063537
2012-11-07,0,-8.996557647436088e-06,8.064495772837701e-05,-0.003264425387034065,0.006740499939015826,0.9948201896136256
2012-11-09,-1,-0.0008670285994489547,-0.0006414672706953429,-0.003264425387034065,0.006740499939015826,0.9950333152147907
2012-11-13,-1,-0.0008669952757770144,-0.0006504073136872725,-0.003264425387034065,0.006740499939015826,0.995021513131893
2012-11-15,-1,-0.0008333982361508575,-0.000612503258117101,-0.005910010087054628,0.003604632405818587,0.9947139991375754
2012-11-19,-1,-0.00037057683944943787,-0.0001818439589709892,-0.005910010087054628,0.002505776695525458,0.995239481557401
2012-11-21,1,0.00017373304457046833,0.0002644017897158058,-0.005910010087054628,0.0035479961968283343,0.9947113859391781
2012-11-26,1,0.0006504857051233446,0.0006524750287571811,-0.006126866599084262,0.002505776695525458,0.9946814939315416
2012-11-28,1,0.00042003823772076437,0.0004352246258860826,-0.006075687475316033,0.002505776695525458,0.9949365190814179
2012-11-30,1,0.00011832769182423041,0.00018508790443032033,-0.006369422163150761,0.0035479961968283343,0.9943753911954633
2012-12-04,-1,-0.00024638865284484134,-0.00012448474954984592,-0.006369422163150761,0.005221065598691704,0.9933930589554635
2012-12-06,1,1.557049790185122e-05,9.100370795838108e-05,-0.006369422163150761,0.0035479961968283343,0.9935930688598633
2012-12-10,-1,-0.00021206563677932658,-0.00010911321759427922,-0.006369422163150761,0.0035479961968283343,0.9933835196956053
2012-12-12,0,0.0,0.0,-0.006369422163150761,0.005221065598691704,0.992908926644163
2012-12-14,0,0.0,0.0,-0.0040562309973931265,0.005221065598691704,0.993398092096734
2012-12-18,-1,-0.000845622847702194,-0.0006640823409158773,-0.006075687475316033,0.00393141522692367,0.9936913470887212
2012-12-20,0,0.0,0.0,-0.006075687475316033,0.003512042816745634,0.9937541880566845
2012-12-24,0,0.0,0.0,-0.005614072970009101,0.003512042816745634,0.9937552753993768
2012-12-27,-1,-0.0006037904119626718,-0.00047091654491094134,-0.0039023594956241496,0.003512042816745634,0.9941045627035436
2012-12-31,-1,-0.0004477404831941168,-0.0003448531891905952,-0.002965826977114355,0.0034425612429659085,0.9948411462577755
2013-01-03,1,0.0007020156598181985,0.0007700869695527445,-0.002965826977114355,0.003512042816745634,0.9949459271043425
2013-01-07,1,0.0005842347368381203,0.0006414184067153998,-0.0023414402516933096,0.004711666858614728,0.9947806089200438
2013-01-09,1,3.972329112971918e-05,6.473309254797547e-05,-0.0023414402516933096,0.007971934594003267,0.9942297271707381
2013-01-11,1,0.0005261568020184153,0.0005778842860344833,-0.0039023594956241496,0.004749901939684014,0.994415181265849
2013-01-15,1,0.0003474646451649344,0.0003748335281258165,-0.005402506513270496,0.007993043661753796,0.993910711235396
2013-01-17,1,4.069632280322259e-05,6.741370584204491e-05,-0.005402506513270496,0.007993043661753796,0.9941240546479623
2013-01-22,1,0.000490505892408684,0.0005306556134332654,-0.005402506513270496,0.005265612366342316,0.9941369786223511
2013-01-24,-1,-6.219392709423301e-05,-2.7945255729351694e-05,-0.0023543864047318955,0.00796624161103732,0.9941611393004945
2013-01-28,0,-2.8405984664653183e-05,1.1019232121141966e-05,-0.005295749948817259,0.00796624161103732,0.9928647291293463
2013-01-30,1,0.00012405859389887734,0.0001362731621155233,-0.005295749948817259,0.009279557638143528,0.9912601425682458
2013-02-01,1,0.0009042947716075688,0.001007678594682857,-0.005295749948817259,0.00796624161103732,0.9924468164996653
2013-02-05,1,0.0009758852851472317,0.0010646163923069124,-0.005295749948817259,0.006562562595472117,0.9927288659560861
2013-02-07,1,0.0011953232320717681,0.0013131411674763595,-0.005295749948817259,0.005488169054056825,0.993614172743651
2013-02-11,1,0.0014002331547883088,0.0015925318374272759,-0.004959880074249567,0.005488169054056825,0.9936843429156916
2013-02-13,1,0.001375138245172661,0.001561222935346667,-0.003229264464774662,0.004638400606873836,0.9943274320913553
2013-02-15,1,0.0009440724523900857,0.001044858342738664,-0.003229264464774662,0.004638400606873836,0.9941856672852778
2013-02-20,0,0.0,0.0,-0.0012750373924523021,0.006755379005552099,0.9934979345923723
2013-02-22,0,0.0,0.0,-0.003229264464774662,0.006437146303289571,0.9933076241570373
2013-02-26,0,0.0,0.0,-0.0022751108619762372,0.007739996394511597,0.9939787765816682
2013-02-28,0,0.0,0.0,-0.0022751108619762372,0.0033201807907055876,0.9954617606461444
2013-03-04,0,0.0,0.0,-0.004197038829921611,0.0033201807907055876,0.9951512263567456
2013-03-06,1,0.0016852077036755102,0.0018818271084888674,-0.0050630514827520855,0.004467418353377912,0.9945544918618795
2013-03-08,0,0.0,0.0,-0.005099148166208901,0.004467418353377912,0.9944292046269892
2013-03-12,0,0.0,0.0,-0.00442868273966897,0.006035918388101774,0.9943387849645197
2013-03-14,1,0.000977758901258286,0.0010945340424265094,-0.00442868273966897,0.007598590140588179,0.9934851134482475
2013-03-18,0,0.0,0.0,-0.00442868273966897,0.008720486719594672,0.9921679558281042
2013-03-20,1,0.0012531891288608057,0.0013468283503946259,-0.006579993817141104,0.006035918388101774,0.9915533422872868
2013-03-22,0,0.0,0.0,-0.005873999240876678,0.006042305797367093,0.9921408778512179
2013-03-26,0,0.0,0.0,-0.005873999240876678,0.0034161469833856807,0.9927214484857851
2013-03-28,0,0.0,0.0,-0.0062484365569802644,0.005824845529790854,0.9922332921749998
2013-04-02,0,0.0,0.0,-0.0062484365569802644,0.006644928866559714,0.9918211439641278
2013-04-04,1,0.0007122238075490413,0.0007661226376940461,-0.005080067149337805,0.006644928866559714,0.9915409236721419
2013-04-08,0,0.0,0.0,-0.003523948773718348,0.006644928866559714,0.9915538841087423
2013-04-10,0,0.0,0.0,-0.003523948773718348,0.009453007765409553,0.9908228897590813
2013-04-12,1,0.0011352408081830793,0.0012029138416947507,-0.0044059792461623275,0.007603125777367154,0.9921239939962221
2013-04-16,0,0.0,0.0,-0.002477396405195736,0.009114019959765992,0.9921466731656144
2013-04-18,0,0.0,0.0,0.0005470180694780097,0.009114019959765992,0.9932754312705077
2013-04-22,1,0.0007424340952268423,0.0008095438050867129,-0.0002579372907857007,0.009114019959765992,0.9936612000712522
2013-04-24,1,0.0005246788475197079,0.0005421490373833354,-0.0002579372907857007,0.009114019959765992,0.9926814484679489
2013-04-26,1,0.0005086160818666009,0.0005235240557762244,-0.0009992440795327305,0.009114019959765992,0.9928204503485805
2013-04-30,1,0.0009458029565201876,0.0010019933556556597,-0.0018478463066279494,0.007788479595122617,0.99330047815956
2013-05-02,1,0.0015056750095804269,0.0016420768035383493,-0.0018478463066279494,0.00777381734153311,0.9935992984428065
2013-05-06,0,0.0,0.0,-0.005197410060986731,0.008476587340834804,0.9925664236836304
2013-05-08,0,0.0,0.0,-0.007947966981190576,0.00777381734153311,0.9923004319120451
2013-05-10,0,0.0,0.0,-0.007947966981190576,0.008595323164720213,0.9918863337645358
2013-05-14,1,0.002740962007377517,0.0030070155487519246,-0.008552474740457778,0.007402155728690983,0.9921073309968801
2013-05-16,1,0.003099180932820685,0.0034483273745851634,-0.009184435552362218,0.00777381734153311,0.9911788108455541
2013-05-20,1,0.002887175957425688,0.0031689246842315265,-0.009184435552362218,0.008595323164720213,0.9912601314843327
2013-05-22,1,0.002275706844048916,0.0024555697545382005,-0.010245041200614724,0.008595323164720213,0.9902745365055647
2013-05-24,1,0.0017624694896122561,0.0018696377006493913,-0.011154239527943142,0.008999457844332452,0.9899250970995449
2013-05-29,1,0.0015733773781918476,0.0016770262669954846,-0.011154239527943142,0.010347022702449114,0.9893321336018331
2013-05-31,1,0.0011718055794415093,0.0012077890331173334,-0.010245041200614724,0.010347022702449114,0.9893875029467023
2013-06-04,1,0.0007395435187354675,0.0007880858258651471,-0.009373950744323763,0.011548839815056564,0.9895970684117108
2013-06-06,1,0.0035996955540364382,0.003939130407821784,-0.008993972973198462,0.011548839815056564,0.9902231604138885
2013-06-10,1,0.003421947923267802,0.003715000239975329,-0.008993972973198462,0.010347022702449114,0.9904331469929936
2013-06-12,1,0.002640708572103484,0.0028119861696658446,-0.005163100391792789,0.011559617785708265,0.9902514554578887
2013-06-14,1,0.0028033088653158077,0.003016112320335603,-0.003946649305127529,0.010347022702449114,0.9907344246224911
2013-06-18,1,0.002793603704526582,0.0029653985785055076,-0.00412970071393437,0.010347022702449114,0.9906275617808377
2013-06-20,1,0.0011087888004510814,0.0011543369908451615,-0.003388395385708291,0.010347022702449114,0.9925842900807224
2013-06-24,1,0.0008667381391032215,0.0009488073052991479,-0.00336647629529586,0.009837238028880651,0.9934178641456223
2013-06-26,1,0.001997097496653782,0.002096034523031723,-0.003841442836971554,0.007890311968030628,0.9937355815208624
2013-06-28,1,0.0018466974201783995,0.0019315705507026038,-0.003841442836971554,0.004554971071966421,0.9941938115576205
2013-07-02,1,0.002069754854053718,0.0021941167971006124,-0.003841442836971554,0.0030519500596485234,0.9948460057846189
2013-07-05,1,0.0022708688087798583,0.002402666934605851,-0.003841442836971554,0.0030519500596485234,0.9948361684558639
2013-07-09,1,0.002339825488046745,0.0024983371978339686,-0.00412970071393437,0.0030519500596485234,0.9943875940874074
2013-07-11,1,0.0026084231296572506,0.0027829257803940423,-0.004427417093830014,0.0030519500596485234,0.9947021811373248
2013-07-15,1,0.00226052156261165,0.002395811397545394,-0.004427417093830014,0.0030519500596485234,0.9949614198865858
2013-07-17,1,0.0021934523234194703,0.0023405294294797873,-0.004049200777684291,0.0037056001677108464,0.9952250669231834
2013-07-19,1,0.0020507821406755434,0.002135206244249008,-0.004751857255399958,0.003590943912388766,0.9948994190416706
2013-07-23,1,0.002130312345689475,0.0022818479331728732,-0.004751857255399958,0.003723064409762903,0.9944345336811206
2013-07-25,1,0.002138767068674151,0.0022878329173448555,-0.005201135558586103,0.003723064409762903,0.99379198245359
2013-07-29,1,0.0017998635796315084,0.0018904836570201812,-0.005334310201098697,0.003723064409762903,0.9934022214630194
2013-07-31,1,0.0016523562477099452,0.0017052708910128805,-0.006658772892032286,0.003723064409762903,0.9922321089554218
2013-08-02,1,0.0018191079634397103,0.0018763095522332982,-0.006895315707245087,0.003723064409762903,0.9921734056697494
2013-08-06,1,0.0013872539304259535,0.0013984872543752742,-0.006895315707245087,0.004670148109706449,0.9926111485588273
2013-08-08,1,0.0010655934298748218,0.0011085697803398908,-0.005403236471965958,0.003723064409762903,0.9930240475156044
2013-08-12,1,0.001163717824043441,0.0011780436091571823,-0.005403236471965958,0.006351446175429328,0.9923484370426966
2013-08-14,1,0.0010760020800720804,0.0011133776411329501,-0.005403236471965958,0.006351446175429328,0.9924175898397113
2013-08-16,1,0.0008369181467149992,0.0008865351097511494,-0.004478834587644623,0.007185046634082535,0.992861452372229
2013-08-20,1,0.0011851287417282133,0.0011975374889893263,-0.004478834587644623,0.007185046634082535,0.9924031786010411
2013-08-22,1,0.0011917162464752421,0.0012318659815402583,-0.001989954290131669,0.007185046634082535,0.9932951063689472
2013-08-26,1,0.0002994081044996172,0.0004509785375677786,-0.0010089496989471795,0.007185046634082535,0.9937005542115721
2013-08-28,-1,-0.0009189205439309657,-0.0006053265133879618,-0.0013040235562484905,0.007185046634082535,0.9943128168122366
2013-08-30,-1,-0.0009349661065482532,-0.0006238655096023147,-0.002036864853402626,0.00624018492545245,0.9947082431624222
2013-09-04,-1,-0.00043146096756891696,-0.0002106465874200464,-0.002036864853402626,0.004203667629596195,0.9949442259645028
2013-09-06,-1,-0.0009573653401346079,-0.0006598048885618139,-0.002036864853402626,0.00624018492545245,0.994174730599582
2013-09-10,-1,-0.0012625532461297002,-0.0008637586117944637,-0.004584621907434127,0.003386034618512994,0.9943541530744425
2013-09-12,-1,-0.0009901024712314543,-0.0006326086889109272,-0.004781757663432733,0.004481534449147264,0.9935862885781838
2013-09-16,-1,-0.0010695464874039492,-0.0006979642047774096,-0.004781757663432733,0.004505832589436076,0.9932722023807344
2013-09-18,0,-0.00028094645027644354,1.3518709955724541e-05,-0.004781757663432733,0.004711669070065087,0.9931689525486309
2013-09-20,0,-0.00017139068801608822,6.753937306076211e-05,-0.004781757663432733,0.005600683991447206,0.9929642394645735
2013-09-24,1,0.0002208524084578442,0.00036525225505797327,-0.004781757663432733,0.007493110371262326,0.992742440891304
2013-09-26,-1,-0.00020208424355714174,-4.234253358577377e-06,-0.004848073255094896,0.007493110371262326,0.9925206248686074
2013-09-30,-1,-0.00021534924297525107,-6.324820045347924e-05,-0.004953800901486876,0.008771826760634933,0.9921304363800644
2013-10-02,-1,-0.0002426794588363954,-7.593653700769685e-05,-0.004953800901486876,0.008771826760634933,0.9921402218776681
2013-10-04,1,8.087855416512703e-05,0.00016584211110469167,-0.004953800901486876,0.008771826760634933,0.9924923523446746
2013-10-08,-1,-0.0008904495733508846,-0.000694907891166476,-0.0032998565055579673,0.008771826760634933,0.993017832744266
2013-10-10,-1,-0.0005866401493674713,-0.000436801638638102,-0.0032998565055579673,0.008771826760634933,0.9931795995225196
2013-10-14,-1,-0.00033651414305430934,-0.00019286681136603039,-0.0032998565055579673,0.010677336044906336,0.9926535804798456
2013-10-16,0,-6.414765313841962e-05,6.380802914063364e-05,-0.0038544759543506736,0.008972749132922377,0.9933834003704639
2013-10-18,1,3.903259933534637e-06,0.0001423588907534136,-0.0038544759543506736,0.010677336044906336,0.993144808630371
2013-10-22,1,0.00013745286421480994,0.0002736159388479374,-0.0038544759543506736,0.007579162571889763,0.9935645022445044
2013-10-24,0,-5.303543741224233e-05,0.00010748306776835404,-0.0032998565055579673,0.010677336044906336,0.9932854169132133
2013-10-28,1,0.0026919382982102725,0.002943733289694438,-0.0032998565055579673,0.007579162571889763,0.9935048588708868
2013-10-30,1,0.0026957012934482297,0.0029629745009534534,-0.0035633063533533444,0.007579162571889763,0.9935348442647997
2013-11-01,1,0.0022490851771795827,0.002424916486104812,-0.0029223680232826855,0.007579162571889763,0.9938222931117815
2013-11-05,1,0.0020485240640369332,0.002207298344951969,-0.002992990626021794,0.007579162571889763,0.9938443495443896
2013-11-07,1,0.0021061778082552577,0.002294405942352773,-0.0025769882130254767,0.007579162571889763,0.994042115274424
2013-11-11,1,0.0020642050871687045,0.0021713282760272927,-0.002992990626021794,0.003889893159709096,0.9942428802702007
2013-11-13,1,0.0015116836627285513,0.0015562261113957901,-0.002992990626021794,0.0038114489824796244,0.9944438127719822
2013-11-15,1,0.0021786187136756925,0.0023514347297941694,-0.002992990626021794,0.001951023145360689,0.9947059107872588
2013-11-19,1,0.0018896000952302685,0.0020143211912266924,-0.003634833744225351,0.002848180017430541,0.9940882693112136
2013-11-21,1,0.0022976095481679563,0.002476610938308763,-0.003634833744225351,0.001951023145360689,0.9945338265281608
2013-11-25,1,0.002216289760678207,0.002411015636413269,-0.002946210486906688,0.001951023145360689,0.9947530007280202
2013-11-27,1,0.0020482825903901654,0.002218721000354728,-0.0025769882130254767,0.0017942593165581819,0.9949361662594952
2013-12-02,1,0.0021092914907227195,0.0023180468983959738,-0.0018738291906238874,0.0028413638648681554,0.9949665992509882
2013-12-04,1,0.0017892217442035557,0.0019332097374323979,-0.0015236365207772884,0.0028413638648681554,0.994790415258778
2013-12-06,1,0.0019985247481915025,0.0021597319813388004,-0.0021395350859628594,0.0028413638648681554,0.9950130381820458
2013-12-10,1,0.0018204789884686792,0.001970030700346607,-0.0015236365207772884,0.0033732857013278536,0.9954164275931061
2013-12-12,1,0.0012676103282778322,0.0013442269994184417,-0.0021395350859628594,0.0033732857013278536,0.9948257408205177
2013-12-16,1,0.0013773158849416027,0.0014586340636551973,-0.0021395350859628594,0.004214297528225696,0.9941784551614122
2013-12-18,1,0.0019696243326484683,0.002118272368919371,-0.0010375000112409064,0.004205440515060048,0.9949740074329161
2013-12-20,1,0.0018616228191166591,0.0019973810210818315,-0.0010375000112409064,0.004205440515060048,0.9950066206354822
2013-12-24,1,0.0021143986956081804,0.002303831472385537,-0.005772257606123244,0.0035775112299575957,0.9927303159831246
2013-12-27,1,0.0017138874636187635,0.0018220134179546552,-0.008869802790629391,0.004353965155448405,0.9918939057493886
2013-12-31,1,0.0016787464724854623,0.0017731670294788473,-0.008869802790629391,0.00465391544828527,0.9912510996154645
2014-01-03,1,0.0011113356884215652,0.0011278749816775696,-0.013491156516408725,0.00465391544828527,0.9899815819981977
2014-01-07,1,0.0011442077916597442,0.0011697016194996421,-0.013491156516408725,0.004353965155448405,0.9905080648532707
2014-01-09,1,0.001205348631276861,0.0012174990418463408,-0.013491156516408725,0.0035775112299575957,0.9891844556575106
2014-01-13,1,0.00046138335497885387,0.0005472697133309,-0.006668916736165994,0.004627344408788325,0.9897204326428641
2014-01-15,1,0.0011151596524344755,0.0011285169721569773,-0.006668916736165994,0.004627344408788325,0.9899735037218188
2014-01-17,1,0.0006373921274258954,0.0007135279948499882,-0.006668916736165994,0.006114406717717877,0.9898639386555449
2014-01-22,1,0.00028017411301535196,0.00043467087920201865,-0.006847832989695998,0.00832066946762473,0.9892241555960471
2014-01-24,-1,-0.0014969765957675387,-0.0011319820226488625,-0.003836283297584188,0.00832066946762473,0.9910100253295191
2014-01-28,-1,-0.0017569599335360763,-0.001365428212260175,-0.004632286610256671,0.00832066946762473,0.9916321818506179
2014-01-30,-1,-0.0016605181899202257,-0.0012709141764797164,-0.00389541893122183,0.008232936679469787,0.9917785064058637
2014-02-03,-1,-0.002385404367530102,-0.0019266751890604338,-0.003080607919761905,0.008913077768164853,0.9915264753309164
2014-02-05,-1,-0.002277964421271471,-0.0018393807195057285,-0.003080607919761905,0.008913077768164853,0.9911973463906608
2014-02-07,-1,-0.0016312114735650659,-0.0012703587244770628,-0.000727647578428476,0.008232936679469787,0.9925418093031272
2014-02-11,-1,-0.000648412302271693,-0.00043961622064637475,-0.004214483106760559,0.007528091420435941,0.9934309220055478
2014-02-13,0,-0.00010482001648844862,3.316500375497559e-05,-0.004395840132233713,0.006101144756638428,0.9938957373634011
2014-02-18,1,5.907208669341771e-05,0.00018346872417913837,-0.004395840132233713,0.006101144756638428,0.9934186999843919
2014-02-20,0,-1.7221723455242263e-05,0.00012311648703826897,-0.004395840132233713,0.0050523965706050465,0.9934999718976265
2014-02-24,-1,-0.00031960429222497113,-0.0001366101979075003,-0.00490745736859221,0.0050523965706050465,0.992763899844349
2014-02-26,-1,-0.0006980882049223088,-0.0004825966349717713,-0.0048567132590248375,0.0050523965706050465,0.9927481525104692
2014-02-28,-1,-0.0004181368420930957,-0.0002305564213123841,-0.006663986634954564,0.004679367219893719,0.9931117104513197
2014-03-04,-1,-0.0003266839516845012,-8.041771781304441e-05,-0.0048567132590248375,0.004679367219893719,0.9939737948149662
2014-03-06,0,-3.148871648260825e-05,0.00015104814421334491,-0.0048567132590248375,0.004679367219893719,0.9940786103636654
2014-03-10,1,0.00036454970105277164,0.00048230075226160215,-0.00670769394742836,0.003415160783927655,0.993025854133126
2014-03-12,1,0.00024668398121366456,0.0003361718987253904,-0.0074381417619255276,0.004198849428018925,0.9923668857519603
2014-03-14,1,0.0001334044918241317,0.00021958704070100597,-0.00993797178317713,0.004198849428018925,0.9910979883559411
2014-03-18,1,0.0008596702782285987,0.0008708998441568332,-0.00993797178317713,0.0049333753649165105,0.991282002166189
2014-03-20,1,0.0005684716851975654,0.0005991658083284214,-0.00823264447069311,0.0060939090958148714,0.9914417495708294
2014-03-24,1,0.0005601188372602339,0.0005803204114542392,-0.007006444571521378,0.0060939090958148714,0.9921080616546356
2014-03-26,1,0.00026293075658140547,0.00028523819970581574,-0.007006444571521378,0.0060939090958148714,0.9924646934446564
2014-03-28,1,6.817786869071717e-05,0.0001225203414799381,-0.00288251420854332,0.0060939090958148714,0.9925955182228223
2014-04-01,1,0.0003605142256715366,0.00039397998977452707,-0.00288251420854332,0.0060939090958148714,0.992849710371745
2014-04-03,1,0.00046710825308762186,0.0004925478157478532,-0.00823264447069311,0.0051225013324431605,0.9922184224861388
2014-04-07,-1,-0.00024243909938581962,-0.0001880322593234951,-0.004079671018712364,0.0051225013324431605,0.9927505633970327
2014-04-09,-1,-0.00010747928778465413,-5.1704865351669165e-05,-0.002847969367392905,0.0051225013324431605,0.9929490126445095
2014-04-11,-1,-0.001046684056037616,-0.0009080572271063787,-0.0012222067681138885,0.007064527806714089,0.9934791123225959
2014-04-15,-1,-0.0005163730575067762,-0.00043269650990071507,-0.002847969367392905,0.005159721827900797,0.9940301192969374
2014-04-17,-1,-4.144984145824778e-05,-3.998174086149605e-05,-0.002847969367392905,0.004236196726865619,0.994453473983482
2014-04-22,-1,-1.9766073371219057e-05,-1.3165438776435548e-05,-0.002847969367392905,0.004371639801425794,0.9943749605510258
2014-04-24,-1,-3.590168563077316e-05,-2.628790694925841e-05,-0.002847969367392905,0.005566051051581324,0.9938722140461336
2014-04-28,1,0.00021735794165016314,0.00023728386408026965,-0.002847969367392905,0.005566051051581324,0.9939492523750885
2014-04-30,1,0.0004147749551981548,0.00045336383970348554,-0.002847969367392905,0.004371639801425794,0.9945219077190393
2014-05-02,1,6.575914496383985e-05,8.456260114115188e-05,-0.0006095222653690341,0.0048741581202049805,0.9948715891675581
2014-05-06,-1,-0.0005469489775363941,-0.0004782885531749078,-0.0001484794114717187,0.0054136592827587725,0.9952884296533804
2014-05-08,-1,-0.0002471846885308584,-0.00019459625438303905,-0.0001484794114717187,0.0054136592827587725,0.9960391962266308
2014-05-12,1,0.00026559631440057794,0.0002764282917881965,-0.0008391292657088153,0.0047799213565214065,0.9966283899239693
2014-05-14,1,0.0004921174049811218,0.0005778790864690267,-0.0001484794114717187,0.0047799213565214065,0.9966420426166717
2014-05-16,1,0.0005661326675244077,0.00065624681204317,-0.000838974326690897,0.0047799213565214065,0.9965843817723903
2014-05-20,1,0.0007115013589763417,0.00083358694696158,-0.0001484794114717187,0.005182651101797579,0.9958292673428298
2014-05-22,1,0.0010567245763619922,0.001208923128959745,-0.000838974326690897,0.005092857731152564,0.9959244304628527
2014-05-27,1,0.0011345329379797127,0.0013006874815337187,-0.001574299308120882,0.005092857731152564,0.9956958324669548
2014-05-29,1,0.0010601824239088687,0.0011972506122239544,-0.001620098228456054,0.005092857731152564,0.9953501348742452
2014-06-02,1,0.0013690044371736509,0.0015493515401199967,-0.001620098228456054,0.0048238151478972235,0.995534905766266
2014-06-04,1,0.0017088604177623115,0.0019575342201349774,-0.0022778784370692303,0.004486686176441012,0.9952378940176404
2014-06-06,1,0.0013355246196304171,0.0014815773817804087,-0.003891050250612142,0.004486686176441012,0.9951452473229572
2014-06-10,1,0.0016226224609427265,0.0018474827227806692,-0.004035146263277872,0.004486686176441012,0.9950609234481278
2014-06-12,1,0.0013386515728200825,0.0015281609089030932,-0.003891050250612142,0.004968577830587876,0.995373030214458
2014-06-16,1,0.0014523358126810675,0.001666114173922018,-0.004035146263277872,0.004968577830587876,0.9951339519702489
2014-06-18,1,0.0013765378827363078,0.0014596714224567144,-0.004135993114166411,0.002698293858177259,0.9957348403185992
2014-06-20,1,0.0010836459374386396,0.0011170949844067583,-0.0046685382780927,0.002698293858177259,0.9955184118322319
2014-06-24,1,0.0008920825146479296,0.000906149894026082,-0.004135993114166411,0.004486686176441012,0.9954385482614383
2014-06-26,0,-8.919006435130906e-05,9.214633737225663e-05,-0.004764233458863279,0.004904352870202704,0.9942820941755334
2014-06-30,-1,-0.00023163383612963176,-2.4426857109716344e-05,-0.005522461505104172,0.0059857489447457226,0.9932655746188869
2014-07-02,0,-4.265078508178992e-05,7.82933181321614e-05,-0.005522461505104172,0.0059857489447457226,0.9926716833999081
2014-07-07,1,0.0003676201630198687,0.0004004257081510033,-0.005522461505104172,0.004615441966655215,0.9929146700827796
2014-07-09,1,0.0006179298511054291,0.0006309022514980275,-0.005522461505104172,0.006166214681782559,0.9924266711450048
2014-07-11,1,0.0010712803170447667,0.0011540693040586274,-0.005522461505104172,0.006166214681782559,0.992003661012912
2014-07-15,1,0.0009643079235006415,0.0010415802249353887,-0.004893218088889616,0.006166214681782559,0.9924302164628717
2014-07-17,1,0.0006006517959803976,0.0006215945376454843,-0.0037011659703804814,0.006831150087592656,0.992592151806442
2014-07-21,1,0.0004613893579638376,0.00048012770791911363,-0.00335261566490904,0.005944710038685852,0.9928885971711219
2014-07-23,1,0.0010538361256286369,0.001132520619671121,-0.00335261566490904,0.005645079034869561,0.9930667836010579
2014-07-25,1,0.0003653634905543836,0.00041814246740718103,-0.0031550608134895872,0.005017487593129129,0.9945083793196112
2014-07-29,1,0.000627437876532335,0.0007341182727422272,-0.002350999469955909,0.005017487593129129,0.9951909056503664
2014-07-31,-1,-0.00010954523526602112,-8.440532928279583e-05,-0.0017118587055144807,0.005687703409224186,0.9959963403256454
2014-08-04,-1,-0.0004265831550766336,-0.0003932210714179242,-0.0003828201967994052,0.005687703409224186,0.9958515881673161
2014-08-06,-1,-8.718635216692973e-05,-8.607769875314643e-05,-0.0003828201967994052,0.005017487593129129,0.9965982362954547
2014-08-08,1,0.0005531649331444819,0.0006718756238085972,-0.0003804424360578396,0.0038974721201968975,0.9976423139504099
2014-08-12,1,0.0003361077467061974,0.00041079430979848355,-0.0009448704615825032,0.005017487593129129,0.9967528288998123
2014-08-14,1,0.00022468536084917592,0.00025473148173136065,-0.001093014700790321,0.0038974721201968975,0.996922534191791
2014-08-18,1,0.00020512894370859448,0.00021965669234695335,-0.0009448704615825032,0.004603642006155964,0.9968950261443623
2014-08-20,1,0.000246145219362677,0.0002596685927047915,-0.001093014700790321,0.004633043958512542,0.9966177628538043
2014-08-22,1,0.0001262157665235672,0.00018942621803935802,-0.0017010464655267139,0.004633043958512542,0.9961159603488149
2014-08-26,1,0.00039797462870339224,0.0005099468326069027,-0.0023505610540810132,0.004633043958512542,0.9957144423032352
2014-08-28,1,0.00030148418338672467,0.00030867521136578827,-0.0035298523763522107,0.004633043958512542,0.9944559543786197
2014-09-02,1,0.0003998404270371752,0.0004440771927084554,-0.003555019784549574,0.004633043958512542,0.994426606597717
2014-09-04,1,9.49603584232808e-06,0.00012394028054058058,-0.006368962913922386,0.004633043958512542,0.9940762844046965
2014-09-08,1,0.00015851622825128475,0.00023560075640287266,-0.006368962913922386,0.005227930046558667,0.9934505053311882
2014-09-10,1,8.825629759135156e-05,0.00016508998268722057,-0.006368962913922386,0.004633043958512542,0.9930538521816804
2014-09-12,1,4.597760741184605e-05,0.00012679340405713008,-0.007081100356406167,0.004633043958512542,0.9918279365536099
2014-09-16,1,0.00029626123216736354,0.000348524118015281,-0.007081100356406167,0.0031575590148989314,0.9915856294438852
2014-09-18,1,0.00048492520377603287,0.000508028589408572,-0.007991602449217209,0.0024017088836616506,0.9913975872207771
2014-09-22,1,0.00016371596847732396,0.00020884180605034962,-0.007222269741225012,0.005201140059396259,0.991232786975169
2014-09-24,-1,-0.0001289489955897749,-2.3958320832305577e-05,-0.006629730031287351,0.005201140059396259,0.9910723018978222
2014-09-26,-1,-0.0006564671975234946,-0.0004703092629690473,-0.0057027607545626965,0.005201140059396259,0.9921545734393429
2014-09-30,-1,-0.0005836237229145166,-0.00042548857073722654,-0.0057027607545626965,0.007848942676798795,0.9909708672092108
2014-10-02,-1,-0.000754010653283859,-0.0005958067016512093,-0.005163853013458952,0.008913424220181293,0.9909893902843574
2014-10-06,-1,-0.0005674389128396396,-0.00041592544196159177,-0.005163853013458952,0.008913424220181293,0.990403678609191
2014-10-08,-1,-0.0013039466609136075,-0.001067943952454738,-0.002292202201108023,0.008913424220181293,0.990800374903944
2014-10-10,-1,-0.002142703378120326,-0.0018122940197341352,-0.0012701763510501497,0.008913424220181293,0.9910883961190845
2014-10-14,-1,-0.0018688418666206027,-0.0015872216351463092,-4.5982891586816605e-05,0.008913424220181293,0.9913610144453788
2014-10-16,-1,-0.0019280174574100415,-0.0016451410378720398,-0.0011165286952406562,0.008913424220181293,0.9918863136945727
2014-10-20,-1,-0.001334608021962563,-0.0011256835093130793,-0.0011165286952406562,0.007839461908587177,0.9930539283388022
2014-10-22,-1,-0.0008587609318620529,-0.0007192202815179552,-0.0011165286952406562,0.007280785132063128,0.9941324477510646
2014-10-24,-1,-0.00041197253412718446,-0.00033280989314715356,-0.0011165286952406562,0.006906721509484257,0.9944940118251788
2014-10-28,1,0.00043946674585364193,0.00047032757907365224,-0.0012701763510501497,0.006906721509484257,0.9954383269818203
2014-10-30,1,0.000646483233172719,0.0007068070807569058,-0.0011165286952406562,0.006136827072317204,0.9958753684771631
2014-11-03,1,0.0011722016532304596,0.0012830176305459878,-0.001425631601153098,0.005830266482659855,0.99662021803878
2014-11-05,1,0.0014988233961989088,0.0016524134971022857,-0.001425631601153098,0.006238274462786413,0.9965002661235673
2014-11-07,1,0.0019255669868548965,0.0021764808071075216,-0.0012892571970119096,0.005728912863607339,0.9966280176293947
2014-11-11,1,0.0020423496642270676,0.002309639911115425,-0.0024518693635063064,0.0051775319185452294,0.995787636010705
2014-11-13,1,0.0017981849139813901,0.0020200678276826923,-0.003195420266131879,0.0051775319185452294,0.995123495443489
2014-11-17,1,0.001638735153697362,0.0018381978014259325,-0.0032304698812399752,0.0051775319185452294,0.9948413727417466
2014-11-19,1,0.0015566997193646255,0.0017417284539158126,-0.0032304698812399752,0.00792050975310668,0.9937086326832621
2014-11-21,1,0.001631054851014029,0.0018185845704501128,-0.0032304698812399752,0.00792050975310668,0.9936010375457358
2014-11-25,1,0.0017450658908585907,0.0019489104738683403,-0.002507879829087537,0.006757251654575532,0.9939908126032895
2014-11-28,1,0.001737053078555093,0.001931505278813,-0.003461139078408411,0.006757251654575532,0.9935728528492065
2014-12-02,1,0.001998106556327063,0.0022426372623670166,-0.004718433805497161,0.005845507969075887,0.9930822964618186
2014-12-04,1,0.0023447428047790562,0.0026220880870978366,-0.005879818392681115,0.0040075364988144055,0.9928010042332613
2014-12-08,1,0.002431388185394898,0.002707412244229195,-0.007315127737200941,0.0031084499956897157,0.9916721427442126
2014-12-10,1,0.0019054197811075664,0.002112671805314905,-0.005879818392681115,0.004695311414402943,0.9914348801380768
2014-12-12,1,0.0014977416397035626,0.0016678541211173799,-0.005879818392681115,0.004695311414402943,0.991960523409631
2014-12-16,1,0.0009242545980652013,0.0009845654606528364,-0.0052930582138159595,0.004695311414402943,0.9919747504798833
2014-12-18,1,0.002102614691530353,0.0023284515721524483,-0.0052930582138159595,0.0031084499956897157,0.9922704630188829
2014-12-22,1,0.001852299347426486,0.0019962203375769433,-0.0052930582138159595,0.002504000922211355,0.991917338758018
2014-12-24,1,0.0016461021672694671,0.001745629421975267,-0.0074531759499155,0.002504000922211355,0.9915423504296231
2014-12-29,1,0.0015993343884338027,0.001706874047688102,-0.010894720408473627,0.0016800474805716437,0.9899024050214971
2014-12-31,1,0.0010982959042566199,0.0011471626877005143,-0.010894720408473627,0.002665441629193306,0.9900699437868032
2015-01-05,1,0.0006276292508405117,0.0006413353603363116,-0.010894720408473627,0.009479465429536083,0.9896830785867543
2015-01-07,1,0.0006559444869691394,0.0006580368493784904,-0.009250802433556747,0.008977111888737607,0.9904179388469603
2015-01-09,1,0.0007010904061166164,0.0007053290616585777,-0.007427275693337735,0.005798514651371682,0.9913910978148972
2015-01-13,1,0.00040027262835389075,0.0004251817028682828,-0.005230720891956109,0.008977111888737607,0.9913956757543483
2015-01-15,1,1.4446810363007807e-06,7.604665103838368e-05,-0.00478257987681397,0.008977111888737607,0.9912861753275547
2015-01-20,1,0.000734919410234069,0.0007553306009837128,-0.00478257987681397,0.00845182946712563,0.9917224056568239
2015-01-22,1,0.0009808366342626126,0.0010473099621102302,-0.004665452874211987,0.007962666763131827,0.9923981308646143
2015-01-26,1,0.0006774980475797512,0.0007099613873934379,-0.0027319130008506085,0.008130891684505757,0.992397632519877
2015-01-28,-1,-0.000791826895520203,-0.0006437410965510085,-0.0026290121674763696,0.008130891684505757,0.9935626583186564
2015-01-30,-1,-0.0012535207507819337,-0.0010492485458046086,-0.0021649863123876616,0.008130891684505757,0.9940931144211949
2015-02-03,-1,-0.000526991491049843,-0.0003967209544716595,-0.0035829905965775915,0.006575325681501395,0.9949002166127305
2015-02-05,-1,-0.00013460064678437358,-4.7908237067375756e-05,-0.0039233267328551225,0.006575325681501395,0.9945306815788665
2015-02-09,-1,-0.000326341299039303,-0.000231826834895831,-0.0039233267328551225,0.006575325681501395,0.9940231035002038
2015-02-11,1,0.00024797682596709844,0.0002667489488435944,-0.0039233267328551225,0.006575325681501395,0.9939961378285987
2015-02-13,1,2.1376015414271564e-05,9.171936220082029e-05,-0.0041486547285112885,0.006631400655292705,0.9933260764715767
2015-02-18,1,0.0004262221548230017,0.00044669561240925405,-0.0041486547285112885,0.006631400655292705,0.9932846091633031
2015-02-20,1,0.0002772232202634367,0.00033316874334217634,-0.004251888912674818,0.006631400655292705,0.9928973401886859
2015-02-24,1,0.00030846375106193967,0.00037057848262567433,-0.004998721261953389,0.006102519532620474,0.9927748369749755
2015-02-26,-1,-0.00037327634826008415,-0.00020385994819468068,-0.00703473331580173,0.006102519532620474,0.9919884387643312
2015-03-02,0,-3.718170553625486e-05,7.209507347426556e-05,-0.00703473331580173,0.006955954482869647,0.991467879047003
2015-03-04,-1,-0.0011398857099516441,-0.0008630168410093835,-0.006814902373500289,0.006955954482869647,0.9917673420004492
2015-03-06,-1,-0.0018888890838496622,-0.001476751166954438,-0.0058856108104609044,0.007108086838849517,0.9919084126109524
2015-03-10,-1,-0.002527830989845838,-0.002033184930072882,-0.004720664636246068,0.007108086838849517,0.9923311229878096
2015-03-12,-1,-0.002157178125968833,-0.0016990106146441025,-0.004720664636246068,0.006300269908644017,0.9929413748350974
2015-03-16,-1,-0.0015078909123986276,-0.0011465787865122228,-0.004213588511560523,0.0052160496840026075,0.9938020844150303
2015-03-18,-1,-0.001077540757061879,-0.0007775341930906278,-0.004213588511560523,0.004774214930903289,0.9942334228202333
2015-03-20,-1,-0.0008966721221931333,-0.0006346888536219745,-0.004720664636246068,0.004774214930903289,0.9934596181068522
2015-03-24,-1,-0.0009079900605454354,-0.0006855946677171418,-0.004099811395874747,0.004774214930903289,0.9938430365592499
2015-03-26,-1,-0.0017942210465142954,-0.0014818708470473402,-0.0026901089795050813,0.005430381511731926,0.9943007230304645
2015-03-30,-1,-0.0006881693572685847,-0.0005461648386116324,-0.0031063037499818105,0.004774214930903289,0.9950399892048648
2015-04-01,-1,-0.0006672606728725229,-0.0005510371222879099,-0.0031063037499818105,0.004774214930903289,0.9948941070690176
2015-04-06,0,-1.7075926215634078e-05,1.2962582662658372e-05,-0.0031063037499818105,0.004774214930903289,0.9948483587820753
2015-04-08,1,0.00010301555345637216,0.00010843917878685435,-0.0031063037499818105,0.004774214930903289,0.9947591193223352
2015-04-10,1,8.600917926369938e-05,0.0001004528940832392,-0.0029893978626077803,0.006930387765091715,0.9938416646322903
2015-04-14,1,0.00020667637074069055,0.00021101654883549852,-0.004232055045768962,0.006930387765091715,0.993653311829851
2015-04-16,0,-6.169424074741511e-06,2.7009487557933776e-05,-0.0032172825090868353,0.007306210414371036,0.9932185227025608
2015-04-20,-1,-0.00023556447265099902,-0.0001866893299881415,-0.0032172825090868353,0.0075298548414879235,0.9937316473522064
2015-04-22,-1,-0.00028348830322742253,-0.00023634281754498644,-0.0018814814140722725,0.0075298548414879235,0.9933707648515072
2015-04-24,1,0.0001224997500668929,0.00013009986817557597,-0.0024979434481150692,0.007388147460370375,0.9937386706368497
2015-04-28,1,0.000237426159867527,0.00027579003903065657,-0.0025585590054914144,0.007388147460370375,0.9934592194283773
2015-04-30,1,9.857965969471894e-05,0.0001504990149445213,-0.0030734289937480504,0.007388147460370375,0.9936050083442072
2015-05-04,1,0.0007818547025464717,0.0009438773074456621,-0.0030734289937480504,0.005599498631589447,0.9941827289910385
2015-05-06,1,0.00017371876849789876,0.00022225527863636518,-0.0030734289937480504,0.006390062613288202,0.9938714166393939
2015-05-08,1,0.0007108457992389599,0.0007954524569180149,-0.0031045738323008743,0.004896464053966603,0.9948562012474856
2015-05-12,1,0.000280472568580311,0.0002916626437392014,-0.0023888965329445055,0.005563530725384059,0.9944392485358872
2015-05-14,1,0.0011750187238999824,0.0013648362179056934,-0.0027838581059168987,0.005563530725384059,0.9945150774800927
2015-05-18,1,0.001503284887550385,0.001753878660638195,-0.0027838581059168987,0.004896464053966603,0.9948406576993997
2015-05-20,1,0.0018066103054768822,0.002095736705413375,-0.0027838581059168987,0.004577601122860166,0.9946166164544807
2015-05-22,1,0.0017322502785752992,0.00200997556271581,-0.0050545600571560885,0.004577601122860166,0.9941053833656845
2015-05-27,1,0.001333590290385176,0.0015226917765348708,-0.0050545600571560885,0.0036740081485545487,0.9942915257802215
2015-05-29,1,0.0007584149660146732,0.0008475877816362767,-0.0050545600571560885,0.0036740081485545487,0.9946484401293079
2015-06-02,1,0.0006887213640004289,0.00076736581751939,-0.005257064631469071,0.0036740081485545487,0.993329852801776
2015-06-04,1,0.0005372140812382978,0.000600595421835254,-0.0050545600571560885,0.0036740081485545487,0.993786759728373
2015-06-08,1,0.00027711784524873153,0.0002886183402053666,-0.0050545600571560885,0.004784802018005326,0.9935273959042838
2015-06-10,1,0.0006468282717175607,0.0006924161465936887,-0.005257064631469071,0.004099111783106731,0.9931316928942405
2015-06-12,1,0.0009851564287045363,0.001108053379915775,-0.005257064631469071,0.006060112921661875,0.9928749512272672
2015-06-16,1,0.0009739669992168912,0.0011036610051315939,-0.005237212603364611,0.006060112921661875,0.9931089352682942
2015-06-18,1,0.0011295843161249972,0.0012628521304262666,-0.005237212603364611,0.006060112921661875,0.9927636530854925
2015-06-22,1,0.00016952587709043632,0.00021545883883439026,-0.0022110930819219205,0.006060112921661875,0.993417760741853
2015-06-24,-1,-0.000357555961374549,-0.00023040702808218053,-0.002082565372150301,0.006060112921661875,0.9937114018258445
2015-06-26,-1,-0.00013055856978108984,-6.272293978832951e-05,-0.002688717596924024,0.006060112921661875,0.9937439150464981
2015-06-30,-1,-0.0007176705139386272,-0.0005966869600672655,-0.002688717596924024,0.007529913326385557,0.9939699593263581
2015-07-02,-1,-0.0006621982074154402,-0.0005342505928846192,-0.003078259043287665,0.006060112921661875,0.994141459119032
2015-07-07,-1,-0.00030674795386084004,-0.00023870992171147855,-0.003078259043287665,0.0038804613709220314,0.9945246717813135
2015-07-09,-1,-0.0006732712168676059,-0.00056741005895078,-0.003078259043287665,0.004142933731760204,0.9951088024976465
2015-07-13,1,2.152104721533738e-05,3.117542997703916e-05,-0.003078259043287665,0.002744737158465858,0.9953474800184817
2015-07-15,1,6.554604098689877e-05,6.688939173700697e-05,-0.003298377199914675,0.002744737158465858,0.9948344911909912
2015-07-17,1,0.00041367512288485145,0.0004663666718094341,-0.003298377199914675,0.002744737158465858,0.9952711748878045
2015-07-21,1,0.00032013251855267074,0.0003478841481989049,-0.003298377199914675,0.002744737158465858,0.995239070760627
2015-07-23,1,0.0003588708673507373,0.0003966407064373941,-0.006779758959062899,0.00262502284155487,0.9940793495963199
2015-07-27,-1,-4.140302238778136e-05,-2.5707929263810056e-06,-0.008577800517186294,0.00262502284155487,0.9909650877884163
2015-07-29,-1,-0.00011523673001657225,-7.561869187586923e-05,-0.008577800517186294,0.00262502284155487,0.9899202427873361
2015-07-31,-1,-0.00032119497682501504,-0.00024277437588482423,-0.0096594730115675,0.0034892917897505937,0.988682567519824
2015-08-04,-1,-0.000159979919979093,-0.00011590771908534713,-0.011774614354665603,0.0034892917897505937,0.9868718760758756
2015-08-06,-1,-2.7602915304673483e-05,-1.400790670625053e-05,-0.011774614354665603,0.005558130375887823,0.9866670630335962
2015-08-10,1,0.000293697983919921,0.000332292330347215,-0.015639981099456437,0.005558130375887823,0.9841817924350045
2015-08-12,1,7.045688128286525e-05,8.148751122324065e-05,-0.015639981099456437,0.005558130375887823,0.9843281880441657
2015-08-14,1,7.379791774897691e-05,7.594082758062567e-05,-0.015639981099456437,0.00598146794409358,0.9841511084827116
2015-08-18,-1,-0.0002375369995162603,-0.00017250145882904426,-0.015639981099456437,0.009867864077951136,0.983758482468862
2015-08-20,-1,-0.0006435950003763717,-0.0005457130128672062,-0.0162483256698633,0.009867864077951136,0.9838067536796582
2015-08-24,-1,-0.001967749790321521,-0.0017124825980269506,-0.01128127986894759,0.011063856689166419,0.9862393433405302
2015-08-26,-1,-0.001444373998661016,-0.0012648863691549109,-0.01090923213576113,0.009540486823442128,0.9877119722811017
2015-08-28,-1,-0.0010883792780277675,-0.0009519339475482149,-0.013047075654230012,0.008895959265878061,0.9878245490704467
2015-09-01,-1,-0.0017237994188062905,-0.0015155871617470512,-0.01090923213576113,0.008895959265878061,0.9888033329385859
2015-09-03,-1,-0.0013227087014691817,-0.0011670396752704564,-0.01090923213576113,0.008895959265878061,0.9891956866807421
2015-09-08,-1,-0.0009419750509213679,-0.0008287005036895945,-0.01090923213576113,0.008895959265878061,0.9904541849745185
2015-09-10,-1,-0.0012255628547707777,-0.0010716252331575483,-0.008659208787313162,0.009256520490223007,0.9901519214035917
2015-09-14,-1,-0.0011468988664557617,-0.0009993778875570438,-0.008659208787313162,0.009136674220214221,0.9900064870651449
2015-09-16,-1,-0.000791108156076883,-0.0006938561824328397,-0.012017086335784233,0.008856010509208466,0.9897586596712272
2015-09-18,-1,-0.0012851810751184232,-0.0011305853716205981,-0.010182334356334638,0.009136674220214221,0.9898482927499683
2015-09-22,-1,-0.0014639903462450765,-0.0012777773565775385,-0.006736564303491439,0.009136674220214221,0.9902958864154567
2015-09-24,-1,-0.0015338231344625749,-0.0013541898477757324,-0.005333621634496817,0.009761932418426556,0.9896921947652008
2015-09-28,-1,-0.0018947953076218532,-0.001664752727416105,-0.005333621634496817,0.009761932418426556,0.9903085644731687
2015-09-30,-1,-0.0013966265888311305,-0.001252025047105582,-0.005333621634496817,0.011607834112450425,0.9896474771931247
2015-10-02,-1,-0.001296892228866399,-0.0011574524174783759,-0.006736564303491439,0.011607834112450425,0.989717212502906
2015-10-06,-1,-0.0009418148687425094,-0.0008574041943309757,-0.005333621634496817,0.011006937898667614,0.9909041571599624
2015-10-08,-1,-0.0005143152807752708,-0.0004866229560868895,-0.005333621634496817,0.010510022067567987,0.9914854980885015
2015-10-12,-1,-0.0002841727994107236,-0.00027165864103727326,-0.006030408930149229,0.010510022067567987,0.9916878862287888
2015-10-14,-1,-0.0006744723818543704,-0.0006406616755977104,-0.003729656055440469,0.010510022067567987,0.9925276175181378
2015-10-16,-1,-0.0002044403770400563,-0.00018050120154239005,-0.006030408930149229,0.006652370529280138,0.9925086478132501
2015-10-20,-1,-0.00017856581749454265,-0.00016053627495184693,-0.005734426650398491,0.006916505228484672,0.992440538718796
2015-10-22,1,0.00013470221852341591,0.00019591882005990738,-0.005010109348460132,0.006916505228484672,0.9927917963685648
2015-10-26,0,-4.269265084657197e-06,3.31098079705991e-05,-0.0034882169547943496,0.0070087328688553,0.9931760520201227
2015-10-28,1,0.000522966277459764,0.0006270751465290246,-0.003903213428021167,0.0015122832376770529,0.9941599377694396
2015-10-30,1,0.0005763252328486203,0.0007111196970777405,-0.0034882169547943496,0.0008492746249350838,0.99451360551366
2015-11-03,1,0.0008698769659487389,0.0010494872546303892,-0.0034882169547943496,0.0008492746249350838,0.9941225446256385
2015-11-05,1,0.000848190465566681,0.001024198400516312,-0.003903213428021167,0.0017988170035601629,0.9926165453157012
2015-11-09,1,0.0008082942074419821,0.0009983296194315604,-0.003903213428021167,0.0017988170035601629,0.9923672208369324
2015-11-11,1,0.000696274860497607,0.0008592436575693607,-0.00452716881663289,0.006118321246918712,0.9919105088127351
2015-11-13,1,0.00012564465220558395,0.00020143781403211903,-0.003903213428021167,0.006118321246918712,0.9923515029538252
2015-11-17,1,0.0003003107838485765,0.0003973100735716389,-0.003441995183708931,0.009015345582073123,0.9910773200034376
2015-11-19,1,0.00038826950473395136,0.0004652670968151261,-0.006445079414439753,0.006118321246918712,0.9894098903051808
2015-11-23,1,0.0005586847556076178,0.0006701266142241355,-0.006445079414439753,0.007019460027530424,0.9894524068081683
2015-11-25,1,0.0005227981729194019,0.0006374550546607944,-0.006445079414439753,0.008353344315940873,0.9893106560936265
2015-11-30,1,0.00031199147230751814,0.00037953868510879696,-0.006445079414439753,0.010853039497590028,0.9887258318725707
2015-12-02,1,0.000767809881718152,0.000921909116183347,-0.009344794112119659,0.008353344315940873,0.9887078162441619
2015-12-04,1,0.0012240182823819617,0.0014402857560284728,-0.012739826680807042,0.007876648663947227,0.9890366103571377
2015-12-08,1,0.0009924148536831381,0.0011955792454452574,-0.011702406625366542,0.007876648663947227,0.9889538381635931
2015-12-10,1,0.0010928827492028479,0.0013129395375743866,-0.014110367488872162,0.007155329014042415,0.9880960068816176
2015-12-14,1,0.0007089204509113227,0.0008793763980641504,-0.012529412310105677,0.008560824243981548,0.9883068497182358
2015-12-16,1,0.0015667596162522051,0.0018397100986691358,-0.014110367488872162,0.007155329014042415,0.9875394315483917
2015-12-18,1,0.00042543833011047844,0.0005414347097854957,-0.011785376790441789,0.007155329014042415,0.9896778517477335
2015-12-22,1,0.0006060132874661861,0.0007452757849460627,-0.011785376790441789,0.008560824243981548,0.9887670289996967
2015-12-24,1,0.0008311074929653482,0.0009997289853167675,-0.012480138815665242,0.007306674907644186,0.9881437605884705
2015-12-29,1,0.001116793555352942,0.0013218240925612404,-0.012480138815665242,0.004360473556355927,0.9882911363011286
2015-12-31,1,0.0009745823302672714,0.0011788256792229293,-0.012480138815665242,0.007306674907644186,0.9877444235495405
2016-01-05,1,0.0006011065883085069,0.0007390789662717276,-0.012480138815665242,0.0075756381877771905,0.9879316451776778
2016-01-07,1,0.0003237892584712014,0.00043621687789892956,-0.012215125942132615,0.00936771408438056,0.9873808360966654
2016-01-11,-1,-0.00017704755566890358,-0.00012603442427868138,-0.006565669594984838,0.00936771408438056,0.9882019230357768
2016-01-13,-1,-0.00040604479787479536,-0.00039506235000910997,-0.006999257804559506,0.008985818765642039,0.9883279308128181
2016-01-15,-1,-0.0013906143826436523,-0.001186474902865578,-0.005130351250583065,0.008985818765642039,0.9892920610912231
2016-01-20,-1,-0.001504493217869084,-0.001302170431748145,-0.002056472368915819,0.010869634353961703,0.988751672310764
2016-01-22,-1,-0.0009294679783331183,-0.0008115170127138385,-0.0016699030075021768,0.008985818765642039,0.9897851470003122
2016-01-26,-1,-0.0016625714546437676,-0.0014151939775435003,-0.0016699030075021768,0.008985818765642039,0.9898432781225153
2016-01-28,-1,-0.0014969018904245563,-0.001288814338168541,-0.0016699030075021768,0.008985818765642039,0.9898780314890205
2016-02-01,-1,-0.0004613863887701923,-0.00040254619926648953,-0.0036035819853310665,0.008985818765642039,0.9904518859332926
2016-02-03,-1,-0.0008259613044184586,-0.0007101105719298758,-0.003554159635259768,0.007832214937340891,0.9914440732198692
2016-02-05,1,0.00013589612512388013,0.00014109089089053172,-0.004353089062815533,0.006330473547974951,0.9928279415501354
2016-02-09,1,0.0005308096658909304,0.0006049489513140652,-0.004375469110825818,0.005623426355549696,0.9930134408752544
2016-02-11,1,5.350575578221784e-06,3.7740368084018155e-05,-0.004311126728747663,0.006601699703032357,0.9927626533072658
2016-02-16,1,0.0006355249190472478,0.0006737874938398503,-0.004311126728747663,0.005301022513024139,0.9939091962829926
2016-02-18,1,0.0008417409299785476,0.000883056359439876,-0.004311126728747663,0.005301022513024139,0.993755457701998
2016-02-22,1,0.0006248768663430077,0.0006344677942273702,-0.004311126728747663,0.005301022513024139,0.9939807037034103
2016-02-24,1,0.0006854440232121523,0.0006998089930942938,-0.0038659220422413154,0.004842768563755336,0.9944246474329218
2016-02-26,1,0.0006998429068852668,0.0007254961195654639,-0.00331572037371796,0.004551742874570745,0.9945722329675277
2016-03-01,1,0.0010280553713503382,0.0011056831378311422,-0.001962253952198009,0.004551742874570745,0.9953839044631183
2016-03-03,1,0.0009917379942826839,0.0010839351685429147,-0.0007107878169034916,0.004842768563755336,0.995352258394453
2016-03-07,1,0.0009547590160571256,0.0010441063400629586,-0.0012783405205335427,0.004842768563755336,0.9949925402655357
2016-03-09,1,0.0006198138796623639,0.0006282243519616118,-0.0012783405205335427,0.005040082827498192,0.9946676731838741
2016-03-11,1,0.0013012566928575914,0.0014324329062693892,-0.0012783405205335427,0.005040082827498192,0.9952997519442845
2016-03-15,1,0.0014623832788007679,0.0016198433944914783,-0.0012783405205335427,0.006403219443526696,0.9944918288016645
2016-03-17,1,0.0018663206864837439,0.0020964927053035345,-0.0012783405205335427,0.005648566851464155,0.995115216798381
2016-03-21,1,0.0016642819178036062,0.0018569495405885462,-0.0011537191756112535,0.006403219443526696,0.9946890359582274
2016-03-23,1,0.0017929942677167715,0.002041227933148404,-0.002679406863649076,0.006403219443526696,0.9941135322532502
2016-03-28,1,0.001834292235475538,0.0020739600051911155,-0.002679406863649076,0.006403219443526696,0.9940312030522254
2016-03-30,1,0.002184796271026434,0.002485184983325736,-0.003411380127558285,0.006049883425354782,0.993842754254023
2016-04-01,1,0.0025073248977063242,0.0028460724904241317,-0.003411380127558285,0.006049883425354782,0.9938282306499203
2016-04-05,1,0.001877056206948669,0.002111613546298465,-0.0019300192100454006,0.007415081163899025,0.994182054999176
2016-04-07,1,0.0016719504122743212,0.0018745665771417101,-0.0019300192100454006,0.007415081163899025,0.9945819764959367
2016-04-11,1,0.0014589309590575346,0.001592673364489763,-0.0029196053133394777,0.007415081163899025,0.9944708084828914
2016-04-13,1,0.0020326061919880415,0.002252706160027082,-0.003148536254384782,0.006047791095589809,0.9943444592134991
2016-04-15,1,0.002207496861915866,0.0024726691380578987,-0.003957883058412246,0.007274482491850788,0.9940844377500284
2016-04-19,1,0.0025419209962326992,0.0028513832544761366,-0.005099500986792738,0.007274482491850788,0.9938904627360737
2016-04-21,1,0.00198478011321948,0.002208712928164413,-0.003920397958213136,0.007274482491850788,0.9944304655255408
2016-04-25,1,0.0017930081693610905,0.001984792469658446,-0.003920397958213136,0.007274482491850788,0.9945568810246666
2016-04-27,1,0.00190917898783609,0.002126497118170554,-0.003148536254384782,0.007471083256456006,0.9944436416988741
2016-04-29,1,0.0023695021725233987,0.002671879693077402,-0.003148536254384782,0.007108923217972856,0.9946414079744029
2016-05-03,1,0.0021805587027707266,0.0024296358379276664,-0.003148536254384782,0.005874446385133442,0.9950527682011988
2016-05-05,1,0.0021033753039584376,0.00234065041662986,-0.0037346409628097516,0.005874446385133442,0.9949615350136277
2016-05-09,1,0.001795631063006066,0.0019603167064448966,-0.0018157839886407778,0.005874446385133442,0.9951345822833081
2016-05-11,1,0.002353575119988055,0.0026516234740148444,-0.0004917919954630634,0.004766194475719315,0.9960792781363689
2016-05-13,1,0.0015153326054735295,0.0016337875442515063,-0.0018157839886407778,0.004285460075656157,0.9959925175388505
2016-05-17,1,0.0015418086170759448,0.0016694572631144146,-0.0022695861598617116,0.004111766296349967,0.9961860514834765
2016-05-19,1,0.0016710657062358248,0.0018236112362490955,-0.001821717380028229,0.004111766296349967,0.9961412779851042
2016-05-23,1,0.0018405362216438606,0.0020317984088513135,-0.001821717380028229,0.004191552146217391,0.9958503934504493
2016-05-25,1,0.0018511211708277333,0.0020211047166579558,-0.001821717380028229,0.004191552146217391,0.9958072016339369
2016-05-27,1,0.0015702136380974742,0.0016887052870449407,-0.004098484131409369,0.004066565117167253,0.9928901671689708
2016-06-01,1,0.0013950557758081925,0.0014535185353102729,-0.004098484131409369,0.0057091332792931875,0.9907513377118894
2016-06-03,1,0.0008900585282467674,0.0009388253110318918,-0.004429832897194716,0.009510096437137957,0.9896911835236643
2016-06-07,1,0.0008555286475551645,0.0009088675876571657,-0.005884991056496787,0.009510096437137957,0.9891160710048664
2016-06-09,1,0.0008236463529538052,0.0009162615158556289,-0.005884991056496787,0.009510096437137957,0.9887056411505559
2016-06-13,1,2.7431557231574104e-05,0.00024352450661695375,-0.005204204562856601,0.009510096437137957,0.9893345426476484
2016-06-15,0,-0.00016149462451550602,6.765655839344057e-05,-0.004742547070598208,0.009510096437137957,0.9894437552254659
2016-06-17,-1,-0.0002764319572750119,-1.5166975585046935e-05,-0.005477120104723507,0.006469656665337484,0.9897206748555415
2016-06-21,0,-0.00016018733655936957,9.891039413255766e-05,-0.005477120104723507,0.0030600828919496283,0.9902199895347824
2016-06-23,1,0.0006488808113255667,0.0007774753562469607,-0.00669712657692946,0.0030600828919496283,0.9900614964355994
2016-06-27,-1,-0.0016169040168684875,-0.0012026720414685362,-0.004742547070598208,0.00566380424832635,0.9931254432431671
2016-06-29,1,0.0002647566477186457,0.0004181242346834491,-0.004742547070598208,0.001462773018403491,0.9949168706726556
2016-07-01,1,0.0008766975569336963,0.0009446971355502393,-0.0051072149579439235,0.001462773018403491,0.9954754217239451
2016-07-06,1,0.00012523368303165542,0.00030908486750527004,-0.0036363205833682063,0.0022440463459242515,0.9963455396181133
2016-07-08,1,0.0005109516204322704,0.0006127678998241344,-0.002815792403480645,0.0022440463459242515,0.9964848475313103
2016-07-12,1,0.0007483396882166278,0.0008000598216210318,-0.002815792403480645,0.00242846970990153,0.9961899549007698
2016-07-14,1,0.00043228719882379754,0.0005259298041024529,-0.0018791033229428667,0.0029863945569803246,0.9962674191387003
2016-07-18,0,-1.7374457415067534e-05,0.00013367866637050796,-0.0014201552938563342,0.0029863945569803246,0.9965559695449542
2016-07-20,0,-0.00016666089455737588,3.7650524828225875e-06,-0.0016441185044475828,0.0029863945569803246,0.9963705843074101
2016-07-22,0,-9.4155470810015e-05,5.969821252145422e-05,-0.0010059703677738525,0.0026259754440786974,0.9970714090984615
2016-07-26,-1,-0.0002813284956120367,-9.080052656987845e-05,-0.0010059703677738525,0.0026259754440786974,0.9972250028744093
2016-07-28,-1,-0.0005074511068424276,-0.000282229711648888,-0.0004469140848531001,0.0029863945569803246,0.9969489144479162
2016-08-01,-1,-0.0009604415481941944,-0.0006791460426789891,-0.0004469140848531001,0.003389339135494201,0.99664338305861
2016-08-03,-1,-0.0006501085489749134,-0.000424900566455867,-0.0013322520040316321,0.003389339135494201,0.9968568993974606
2016-08-05,-1,-0.0004023360994894296,-0.00021360408453022337,-0.0013322520040316321,0.003389339135494201,0.9967615443626072
2016-08-09,0,-0.00010863437372108043,2.872215839570775e-05,-0.0015392612308263466,0.0027225990291008468,0.9970109053419622
2016-08-11,0,-6.675371912216358e-05,7.205809049247398e-05,-0.0021738186608064643,0.0014862567453018144,0.9957700282635135
2016-08-15,-1,-0.0002920949107613293,-0.00011242490141727488,-0.002630715735763122,0.002706541326315983,0.9941646787382801
2016-08-17,-1,-0.00037267485242917914,-0.0001959601867117292,-0.002630715735763122,0.004434065435026163,0.9938211529867288
2016-08-19,-1,-0.00028828553297678043,-0.0001394727297588461,-0.0033425594122688303,0.005734060103031645,0.9931996020763453
2016-08-23,-1,-0.0001464369293258423,-2.8513031049066885e-05,-0.0033425594122688303,0.007641869380956923,0.9924649808190593
2016-08-25,-1,-0.0003143817914594815,-0.00015053010557339314,-0.004955355374115995,0.008142287841299228,0.9918199057087641
2016-08-29,-1,-0.0003708468975289988,-0.00018797192640175348,-0.004664387738897933,0.007641869380956923,0.9921397455016924
2016-08-31,-1,-0.0004690571848053344,-0.00028476048449915673,-0.005631022274439753,0.007641869380956923,0.9916289158934902
2016-09-02,1,0.00023637473941745283,0.00030128664506119934,-0.005631022274439753,0.008142287841299228,0.9911218723013396
2016-09-07,1,7.787944261853936e-05,0.00016006987965683762,-0.007886754613153739,0.008142287841299228,0.9908487809308838
2016-09-09,-1,-0.0007114956375431304,-0.0005617482976605883,-0.005631022274439753,0.008142287841299228,0.9921277615132098
2016-09-13,-1,-0.0010348868329989856,-0.0008180409476176689,-0.005631022274439753,0.006364433862174766,0.9930837186694617
2016-09-15,-1,-0.001003311045377603,-0.000785302616671589,-0.007385898404498421,0.006364433862174766,0.9928882745888418
2016-09-19,-1,-0.0010456745968201759,-0.0008282284364478922,-0.00790599263496242,0.006364433862174766,0.992795328749593
2016-09-21,-1,-0.00017747376758326706,-8.652374981548994e-05,-0.00790599263496242,0.0049948668746595155,0.9931028898437078
2016-09-23,-1,-0.0002567120259743541,-0.00016245494491753498,-0.0077575065908344724,0.004117167656396629,0.9936012819909751
2016-09-27,-1,-0.00032083787354589673,-0.00021506500103425592,-0.00896310312854453,0.0017706841229399657,0.992409947761077
2016-09-29,-1,-0.0008688825653022214,-0.0006939920257054696,-0.0077575065908344724,0.004117167656396629,0.9928026608878344
2016-10-03,-1,-0.000513441015278358,-0.0003896284800617981,-0.0077575065908344724,0.004005591370052805,0.9933105700445346
2016-10-05,-1,-0.0008449566003267198,-0.0006820904025687463,-0.007644082578446119,0.004005591370052805,0.9933470026592034
2016-10-07,-1,-0.0006985130743008077,-0.0005537914086286469,-0.007644082578446119,0.004385087784594846,0.9928323432822721
2016-10-11,-1,-0.0012123629551330736,-0.0010106809622962053,-0.004036224744226632,0.005613229513964783,0.9923431023496981
2016-10-13,-1,-0.0011223635119805495,-0.0009351460442315884,-0.002909575248939738,0.008753121005822592,0.9912920683050964
2016-10-17,-1,-0.0009396034942830625,-0.0008020158091426242,-0.0026081528732604877,0.008753121005822592,0.9919436791889531
2016-10-19,-1,-0.0006252917201983179,-0.0005311441313878189,-0.0013362579620184217,0.005414904884718467,0.992493741515052
2016-10-21,-1,-0.0009384947794002456,-0.0008132777967696332,-0.0007051976172244713,0.008920229409586264,0.9917037853800317
2016-10-25,-1,-0.0020832116969737107,-0.0018251237983332143,-0.0003320436355846659,0.008920229409586264,0.9923366513483667
2016-10-27,-1,-0.0016666563290295704,-0.0014686483234967133,-0.0002904774123764201,0.006047352214638734,0.9927449825907958
2016-10-31,-1,-0.001488827914099854,-0.0013136719524025908,-0.0002904774123764201,0.006047352214638734,0.99253022208814
2016-11-02,-1,-0.0018862833931766504,-0.001647224633009111,-0.0002904774123764201,0.006288061618267233,0.9922583270386857
2016-11-04,-1,-0.0015046082425142983,-0.0013001862875087417,-0.0003320436355846659,0.004543201666259649,0.9928049150337951
2016-11-08,-1,-0.000602230899364402,-0.0005157441398568737,-0.0003320436355846659,0.004543201666259649,0.9938727419252538
2016-11-10,1,0.0007010720719598143,0.0007976605580791649,-0.0006923417369563951,0.0031556402251292416,0.995916126114471
2016-11-14,1,0.0009440065469487702,0.0011050154583273227,-0.0006923417369563951,0.0031556402251292416,0.9960215506943165
2016-11-16,-1,-0.0001753700714395033,-7.630303033585764e-05,-0.001584093138217229,0.0031556402251292416,0.9953127560761157
2016-11-18,1,0.0014016985294294441,0.001591668834344107,-0.0015978006080762364,0.002862370811046776,0.9961655936820667
2016-11-22,1,0.0017898697854491926,0.0020693676051225752,-0.0025672784132551143,0.002317882555215133,0.9957564872389758
2016-11-25,1,0.0016780345278703049,0.00191295521366696,-0.0025672784132551143,0.00171071677270107,0.995936035095961
2016-11-29,1,0.001303361229099791,0.001489221301757377,-0.004334412054560475,0.00171071677270107,0.9960828439809879
2016-12-01,1,0.00127392592584611,0.0014584783164259295,-0.002826881847935358,0.0014999652737591764,0.9963846454393385
2016-12-05,1,0.0010656176435654575,0.0012117728549186579,-0.0021020742348308264,0.00171071677270107,0.9966357485754221
2016-12-07,1,0.0012413815245539712,0.0013947258600233458,-0.0021020742348308264,0.00171071677270107,0.9967487631878178
2016-12-09,1,0.0012017065805024906,0.001347114720799986,-0.0042361956490361875,0.0014999652737591764,0.9959495889626239
2016-12-13,1,0.0011057358953574614,0.0012379405747962985,-0.0042361956490361875,0.001724864576417877,0.9960582975070856
2016-12-15,1,0.000758305757608799,0.000847883019717175,-0.002826881847935358,0.002111836186164083,0.9965977830351515
2016-12-19,1,0.0007577435876824276,0.0008433227647800247,-0.0042361956490361875,0.002111836186164083,0.9959151498516383
2016-12-21,1,0.00038991996496940513,0.0004075785802960568,-0.004375515852044372,0.002700390507952097,0.9955532137453377
2016-12-23,1,0.0005073047770742505,0.0005458917719593369,-0.004375515852044372,0.005609461542592166,0.9949045206312874
2016-12-28,1,0.0002249224754790909,0.00023846522445205957,-0.0015870674628256619,0.005609461542592166,0.995381964584155
2016-12-30,1,0.00023800280100146157,0.00026293740165355187,-0.004378591031963229,0.005609461542592166,0.9949090259588934
2017-01-04,1,0.0006450041720903741,0.0007343601679488907,-0.00509296538286641,0.005637947375270059,0.993421020045072
2017-01-06,1,0.0008386105653199571,0.0009529625441324007,-0.006595207774662317,0.0066855585141133555,0.992572539553779
2017-01-10,1,0.00020151796059421972,0.00022399323362408286,-0.00509296538286641,0.00787817275874441,0.9928371636655603
2017-01-12,1,0.00020722685105232282,0.00022762385539998878,-0.00509296538286641,0.00787817275874441,0.9925430273598506
2017-01-17,1,0.0002464484190494964,0.00027402127861960053,-0.00509296538286641,0.00787817275874441,0.9921607107183804
2017-01-19,1,0.0002705064682828446,0.00031513279252071857,-0.0026726227234530153,0.008798901384153644,0.9922120798531195
2017-01-23,1,0.0003990508974525281,0.0004696666841839579,-0.0026726227234530153,0.008798901384153644,0.9924148570822301
2017-01-25,1,0.0008504463839105721,0.0009717581690586411,-0.0026726227234530153,0.008441687168463295,0.9929265042932495
2017-01-27,1,0.001093430676616425,0.0012659738865193346,-0.0026726227234530153,0.008441687168463295,0.9928940705994583
2017-01-31,1,0.0006334436210473233,0.0007384782927502404,-0.00044198251229910434,0.008798901384153644,0.9926945340549748
2017-02-02,1,0.0007951268387428978,0.0008607896053760774,-0.00044198251229910434,0.008441687168463295,0.9943085474999872
2017-02-06,1,0.0009627627831136876,0.0010526030465066796,-0.0009087858282216017,0.007404168018340651,0.9949750573184264
2017-02-08,1,0.0012054327910363334,0.0013329205136598998,-0.0010854299557361805,0.006597554977996286,0.9950165061893067
2017-02-10,1,0.0014094272633601783,0.0015572993578647906,-0.0010854299557361805,0.007650535857879825,0.9947351155800954
2017-02-14,1,0.0020551975703284103,0.002325752506790399,-0.0010854299557361805,0.007650535857879825,0.995016394868409
2017-02-16,1,0.0025589804825026964,0.002885179421563019,-0.0010854299557361805,0.004868769090086197,0.9952645013412277
2017-02-21,1,0.002326466865781288,0.0026199288852742086,-0.0017752694797841914,0.004868769090086197,0.995020131601139
2017-02-23,1,0.00227547759022257,0.0025286204902123014,-0.0017752694797841914,0.003535554491975691,0.9953977865038331
2017-02-27,1,0.0023187864489399817,0.002590457001023014,-0.0017752694797841914,0.003535554491975691,0.9954322488143822
2017-03-01,1,0.002582482019818077,0.00286500430433898,-0.00337928950539369,0.003464658199450174,0.9955627614441771
2017-03-03,1,0.0023595322700207234,0.002618089907058372,-0.003200897943475701,0.003464658199450174,0.9955901614670379
2017-03-07,1,0.0016867207885662623,0.0018169836445415415,-0.003200897943475701,0.003464658199450174,0.995838109576338
2017-03-09,1,0.00141627131731338,0.0015089626480348187,-0.0018664350003753433,0.003464658199450174,0.9961811783793342
2017-03-13,1,0.0017495795406905568,0.0018686145533428527,-0.0018664350003753433,0.0021063560800011795,0.9965422646826323
2017-03-15,1,0.0018091920876803645,0.0019453624127262498,-0.003200897943475701,0.0021063560800011795,0.9959962082508214
2017-03-17,1,0.001799838327328007,0.0019046595174097495,-0.004658569303081126,0.0015347085329355235,0.9954458815463254
2017-03-21,1,0.00038553265268776425,0.0005297363996878784,-0.003200897943475701,0.0015347085329355235,0.9966478938109611
2017-03-23,1,0.0005563297390615361,0.0006686939831107078,-0.004658569303081126,0.0007432816515749546,0.9953914328174007
2017-03-27,1,0.0003954336463698847,0.0005123689094760941,-0.004658569303081126,0.0015347085329355235,0.99475041680112
2017-03-29,0,-3.609982611326953e-05,0.00014730969254619604,-0.003200897943475701,0.002767298991300491,0.9946252980266916
2017-03-31,0,-0.00014139627047190845,3.256205749254651e-05,-0.0015283404783330362,0.0031541897872025652,0.9947470195254948
2017-04-04,0,-3.167676373512404e-05,0.00010101465732457505,-0.0016848004877128967,0.0031541897872025652,0.994907708499758
2017-04-06,1,0.0005482133060203279,0.0005517423510939053,-0.0016848004877128967,0.005285348640051265,0.9945810416765005
2017-04-10,1,0.00043318309388200413,0.0004545403171665499,-0.004033217220109795,0.005285348640051265,0.9941124029822939
2017-04-12,1,7.169053654803101e-05,0.00013607092584208628,-0.002326177969510736,0.005285348640051265,0.9944283484438914
2017-04-17,1,0.00043331579153585214,0.00044864405831326236,-0.002326177969510736,0.005160576980111798,0.9948207892327655
2017-04-19,1,0.00040683802695633026,0.00042088963909654557,-0.003742595777482709,0.005160576980111798,0.9944766051749367
2017-04-21,1,0.0001310450365229396,0.00014429709254727235,-0.002326177969510736,0.005160576980111798,0.9952470747829836
2017-04-25,1,0.000406990064474671,0.00040865256524425734,-0.002326177969510736,0.0039754405419647745,0.9959946534873174
2017-04-27,1,0.000826019399270603,0.0008745618668033024,-0.002326177969510736,0.003947750738585488,0.9956846392451306
2017-05-01,1,0.0007402351988365261,0.0007678488838551836,-0.0024761970618991866,0.005077507569973938,0.9951061082780093
2017-05-03,1,0.0006794585277315308,0.0007163309093051562,-0.0022448660665418214,0.005077507569973938,0.9952045288581003
2017-05-05,1,0.0008735354312970206,0.0009343816331243801,-0.0022448660665418214,0.003947750738585488,0.9953975510194462
2017-05-09,1,0.0004051324174162497,0.00041137978443499197,-0.001683974798875081,0.003947750738585488,0.9955561132364771
2017-05-11,1,0.00011540697732595996,0.00017627182993204687,-0.001683974798875081,0.005464233344596493,0.9948513951421931
2017-05-15,1,0.00013343617051221767,0.00019212774217266807,-0.0002867994680679815,0.0049456147815483045,0.9951280986289136
2017-05-17,-1,-0.000112675360951497,-1.395177044658983e-05,0.0005214922679926505,0.007580119560762617,0.9945079197132085
2017-05-19,1,0.0002831613164486445,0.00033418659455555343,-0.0002867994680679815,0.005632821109204715,0.9950885865949939
2017-05-23,0,-3.9858335724611885e-06,0.00010267807440954632,-0.0017372828390482676,0.005632821109204715,0.9946242415671825
2017-05-25,1,0.0006716836510417572,0.0007070387177169117,-0.0030913095886106077,0.004017465497746149,0.9949837634517226
2017-05-30,1,0.001119629339958682,0.001152743290598731,-0.0033638748668313014,0.0025422753977845606,0.9955384201832673
2017-06-01,1,0.001086049613742417,0.0011198906123359126,-0.004435034936079636,0.004017465497746149,0.994612785305679
2017-06-05,1,0.0006229124252636862,0.0006810138758301046,-0.004435034936079636,0.004230285192642991,0.9946383996636069
2017-06-07,1,0.0002642634645237561,0.000366377627996932,-0.004435034936079636,0.004230285192642991,0.9946166241528464
2017-06-09,1,0.0007470389552088309,0.0007962360768773433,-0.004435034936079636,0.003650113709903526,0.9948793082107433
2017-06-13,1,0.0006823279989937842,0.0007470848631356952,-0.005199519458079812,0.004530765745676847,0.9941403178855546
2017-06-15,1,0.0012274200049828801,0.0012338788258970273,-0.005199519458079812,0.0025574765364409376,0.9945487154604084
2017-06-19,1,0.0013584630217333,0.0013942205064149823,-0.005199519458079812,0.0024849478065415713,0.994674599078611
2017-06-21,1,0.0009535767936030081,0.0009702228708421965,-0.003743349174272898,0.004286096702465663,0.9949963720199559
2017-06-23,0,-7.485079329471302e-05,8.827181257551535e-05,-0.00029226698717657183,0.004873352475877775,0.9952755934669307
2017-06-27,1,0.00016264634049932932,0.00025113549891911586,-0.00029226698717657183,0.004873352475877775,0.9951730006191949
2017-06-29,1,5.25856021547692e-05,0.00015558327795167843,-0.00029226698717657183,0.004873352475877775,0.9937518713128346
2017-07-03,1,0.0002359022586608876,0.0003105897109659965,-0.003353125537062724,0.006021840197636029,0.9930778720471004
2017-07-06,1,0.00016776296248738166,0.00023767446992666326,-0.002768796398878153,0.006021840197636029,0.9931772964192049
2017-07-10,1,0.0005035887556685655,0.0005174055843346718,-0.0027996777849901068,0.004873352475877775,0.9934914288087134
2017-07-12,1,0.0007828285309747871,0.0008355815892543681,-0.0027996777849901068,0.0037773184553645174,0.9940528971699278
2017-07-14,1,0.0008982498086322302,0.0009562936834466621,-0.003445769695398584,0.0034028464916341216,0.9940195823097892
2017-07-18,1,0.0010815891194801833,0.0011758118873639047,-0.003445769695398584,0.004440422995499051,0.9934825727387846
2017-07-20,1,0.0011827502972363753,0.001285600074803548,-0.004455969124706116,0.0037088124196364733,0.993016462905195
2017-07-24,1,0.0016566172289207064,0.0018482011807015313,-0.004455969124706116,0.002329024379543587,0.9930886953018057
2017-07-26,1,0.0014463230050679636,0.0015963373551507079,-0.005666845531689588,0.002550059226255098,0.9925034461673276
2017-07-28,1,0.0006712715395237885,0.0007013576290797046,-0.004012340102668938,0.0014551718060083418,0.9950313571009226
2017-08-01,1,0.0005061630741767069,0.000511894144886861,-0.004012340102668938,0.0014551718060083418,0.9954300842333558
2017-08-03,1,0.0005787956798818761,0.0006075004974728801,-0.004012340102668938,0.004610118440962589,0.9950508500340094
2017-08-07,1,0.00038556264323250013,0.0003897102249285285,-0.004012340102668938,0.004610118440962589,0.9950705331733652
2017-08-09,1,0.00031831355931676036,0.000331913733847475,-0.002924379571165822,0.005552804646003651,0.9948045497398403
2017-08-11,-1,-0.0001764880934743534,-0.00010735255182882104,-0.002924379571165822,0.006840187966986878,0.992618066472899
2017-08-15,1,0.00038505268970438257,0.0003906237586915124,-0.002924379571165822,0.006401941416506017,0.9930561042673349
2017-08-17,-1,-6.972054820277756e-05,-2.0107625966614076e-05,-0.002924379571165822,0.006401941416506017,0.9932064476974742
2017-08-21,-1,-5.534801691106447e-05,-1.693446103512487e-06,-0.002924379571165822,0.006401941416506017,0.9930986616472365
2017-08-23,-1,-0.00038821697311212456,-0.0002822459801493625,-0.0027739032892587076,0.006401941416506017,0.993435571766207
2017-08-25,-1,-0.0006646475831588101,-0.0005143479256253531,-0.001907076770404437,0.006401941416506017,0.9932248873672925
2017-08-29,-1,-0.0007558085637955002,-0.0005888096103215043,-0.0005033156327112337,0.0073362590164631584,0.9929189974276295
2017-08-31,-1,-0.00029178878199513067,-0.00017963584301278803,-0.001907076770404437,0.0068347309360685966,0.9934145764250826
2017-09-05,-1,-0.0005497821921265056,-0.0003900717583793389,-0.0015651129332483874,0.007290344930677029,0.9931211608331751
2017-09-07,-1,-0.0003050280665594352,-0.00017158794233331046,-0.0019102990378712052,0.0068347309360685966,0.9929171033139106
2017-09-11,1,0.0006202816968180551,0.0006510592500633514,-0.0019102990378712052,0.005666966690402222,0.9951607618921895
2017-09-13,1,0.0005360725468618674,0.0006048172260704938,-0.0019102990378712052,0.004782449838657818,0.9954244536878015
2017-09-15,1,0.0005779416499345544,0.0006192780543329145,-0.00047426981772555755,0.004782449838657818,0.9956286259696153
2017-09-19,1,0.0009822421607509253,0.001018368808689327,-0.0019102990378712052,0.004782449838657818,0.9956449715380564
2017-09-21,1,0.0011261445287675926,0.0011785687298410635,-0.00047426981772555755,0.004782449838657818,0.9958967505680537
2017-09-25,1,0.0011388466237776467,0.0011761090094650488,-0.0016272687636578636,0.004282752542168935,0.9959173804990191
2017-09-27,1,0.0017132107701342207,0.0018374790863069407,-0.0016272687636578636,0.001975098147384921,0.9964295289043732
2017-09-29,1,0.0012087815660609862,0.0012366737477748852,-0.0025273564711276292,0.001975098147384921,0.9947075322228242
2017-10-03,1,0.00131152904319263,0.0013477887247158168,-0.004450769585978832,0.001975098147384921,0.9947634356641709
