JNU-Tangyin/eata/results/Batch4_SP500/Batch4_SP500-MO.csv
Date,Action,Predicted_Q25,Predicted_Q75,Actual_Q25,Actual_Q75,RL_Reward
2010-12-14,0,-8.356220802361699e-05,0.0,-0.005164640487697055,0.002312791392367991,0.9954895437401983
2010-12-16,0,-0.00020928178296789393,8.023221840747176e-06,-0.005164640487697055,0.0021416510901983354,0.9958441411787041
2010-12-20,0,-3.9552286263212885e-05,0.00016717482196990888,-0.005164640487697055,0.001749815347841222,0.9958888892761146
2010-12-22,1,0.00022800261577714882,0.0003854320379005783,-0.005164640487697055,0.002038154178675077,0.9957867725533281
2010-12-27,0,0.0,0.0,-0.004585895630550308,0.0020809386733479603,0.9959296465002637
2010-12-29,0,0.0,0.0,-0.004986457757688075,0.0020809386733479603,0.9953544897366007
2010-12-31,0,0.0,0.0,-0.005613572133290432,0.0020809386733479603,0.9947633840702185
2011-01-04,0,0.0,0.0,-0.005613572133290432,0.002614727887332047,0.9948695547332284
2011-01-06,0,0.0,0.0,-0.005613572133290432,0.0021866427854439286,0.9943784332529013
2011-01-10,0,0.0,0.0,-0.004134028642648384,0.002602328451784205,0.99479738984823
2011-01-12,0,0.0,0.0,-0.003417828325094468,0.002602328451784205,0.9950010638615814
2011-01-14,0,0.0,0.0,-0.003417828325094468,0.002926396271220294,0.9943865128355249
2011-01-19,0,0.0,0.0,-0.0021803403101110235,0.002926396271220294,0.9947149272981886
2011-01-21,0,0.0,0.0,-0.0021803403101110235,0.0032933071176183553,0.994295841361291
2011-01-25,0,0.0,0.0,-0.0020324839093041123,0.002926396271220294,0.9950770956806491
2011-01-27,-1,-0.0015921821281615028,-0.0013217285455460826,-0.001413726292557527,0.0032933071176183553,0.9949159230087898
2011-01-31,-1,-0.001850389406258271,-0.001572462076907001,-0.0006094141906750097,0.005507681593547335,0.9941186635869403
2011-02-02,0,0.0,0.0,-0.001413726292557527,0.00953412824006578,0.9943304726093602
2011-02-04,-1,-0.0008513987236413473,-0.0007070495106495198,-0.001413726292557527,0.0045090432956410974,0.9946507392944041
2011-02-08,0,0.0,0.0,-0.001413726292557527,0.00953412824006578,0.9942883870373543
2011-02-10,0,0.0,0.0,-0.002209413276701231,0.00953412824006578,0.9929908416153834
2011-02-14,0,0.0,0.0,-0.003269269424062297,0.0067112523995376,0.9931375335630839
2011-02-16,0,0.0,0.0,-0.0051844098752273395,0.006958531530576188,0.9920161633895901
2011-02-18,1,0.0005817047222693673,0.000583338738104674,-0.0051844098752273395,0.009739107698171377,0.9911630882498585
2011-02-23,1,0.00018668157968754177,0.00024397466821819474,-0.0051844098752273395,0.011057559309558079,0.9905344468353651
2011-02-25,1,0.00031328114858798084,0.00037194410638632036,-0.0051844098752273395,0.01147369791958725,0.9901832947999207
2011-03-01,1,0.000983618091404661,0.0010488429811315357,-0.00436091400651505,0.011057559309558079,0.9909944264125863
2011-03-03,1,0.0013869584882105752,0.0015094818002380338,-0.00436091400651505,0.009438938407737374,0.991552647187239
2011-03-07,0,0.0,0.0,-0.0033638143271044283,0.009438938407737374,0.9915257524725309
2011-03-09,0,0.0,0.0,-0.0033638143271044283,0.007535650902004168,0.9917132444450835
2011-03-11,1,0.00046107650778076355,0.0005297066131522766,-0.003065721490071586,0.007535650902004168,0.9926528907510712
2011-03-15,1,0.0001847076181704695,0.0002248342222012691,-0.002206667638614752,0.009348543818798355,0.9924582520414518
2011-03-17,-1,-0.0003159295704284587,-0.0002871951293964999,-0.0016349319141423062,0.009348543818798355,0.9930202621772732
2011-03-21,1,0.0008943246653756128,0.001047161747213884,-0.002206667638614752,0.007276456975416126,0.9937263577819669
2011-03-23,1,0.001624087391241995,0.0018854482434856805,-0.0033638143271044283,0.006612026428879973,0.9937467747900693
2011-03-25,1,0.0017582316965290142,0.0020382534695355895,-0.0031636829481707686,0.006521585596652933,0.9942622170154068
2011-03-29,1,0.002229138863240083,0.0026016328311433256,-0.003158390002578005,0.006612026428879973,0.9940731266222371
2011-03-31,1,0.0025671252004263265,0.0030101143338433656,-0.0023011004663187587,0.006872875293145953,0.9942309814197083
2011-04-04,1,0.0021070434674507147,0.002448006750847654,-0.002537009274960517,0.007314864554414749,0.9940558116697785
2011-04-06,0,0.0,0.0,-0.0057495245421539,0.007314864554414749,0.9935264685257436
2011-04-08,0,0.0,0.0,-0.003970151721029309,0.007916318870156747,0.9932818285377054
2011-04-12,0,0.0,0.0,-0.004425339443328182,0.007314864554414749,0.9938891658018569
2011-04-14,1,0.0021535881783833755,0.0024244889789986892,-0.004425339443328182,0.007360153361954852,0.9936927074398367
2011-04-18,1,0.001226164857850275,0.0013462225283477373,-0.003593417726456315,0.007360153361954852,0.9943752754632863
2011-04-20,1,0.0006238516492804483,0.0006373398557690147,-0.001655779614021522,0.007707216414836643,0.9945764503919015
2011-04-25,1,0.00035645812471196497,0.0004134057679587056,-0.001655779614021522,0.007707216414836643,0.9940863131285249
2011-04-27,1,0.0005504739299885561,0.0006131336454869273,-0.001655779614021522,0.00678979607027461,0.9949884207769658
2011-04-29,1,0.0009005579591035948,0.0009019776055369097,-0.0026887385157268076,0.006612395062880534,0.9948224728690741
2011-05-03,1,0.0012232517503228482,0.001298311352464043,-0.004283775828485529,0.00628580322366642,0.9949739898989153
2011-05-05,1,0.0010636487135149406,0.001143429759019291,-0.0021090685916976487,0.00628580322366642,0.9949806179067996
2011-05-09,1,0.0015530232923937994,0.0016946680245805749,-0.0049959905788014335,0.004751588708914536,0.9946943768999825
2011-05-11,0,0.0,0.0,-0.0049959905788014335,0.006195382507458287,0.9941652248179303
2011-05-13,0,0.0,0.0,-0.005138219348400608,0.006137304984850332,0.9938110333019252
2011-05-17,0,0.0,0.0,-0.006272816707018107,0.004751588708914536,0.9922662072670257
2011-05-19,0,0.0,0.0,-0.006272816707018107,0.005707915725332558,0.991968140240551
2011-05-23,0,0.0,0.0,-0.005138219348400608,0.006148617732055198,0.9921312307861367
2011-05-25,0,0.0,0.0,-0.007163749220278381,0.006148617732055198,0.9914412183136699
2011-05-27,0,0.0,0.0,-0.007163749220278381,0.00573481673100512,0.9918422611046016
2011-06-01,0,0.0,0.0,-0.012239915619320994,0.00573481673100512,0.9910610448053228
2011-06-03,1,0.9796675210729673,0.9805314492739747,-0.010432897772284934,0.006424762991538047,0.5045375365947778
2011-06-07,0,0.0,0.0,-0.006035957330524103,0.0073259799790449725,0.9912810793825055
2011-06-09,1,0.0003579680466272032,0.0003698156612805645,-0.006035957330524103,0.007101228328098301,0.9913720099484435
2011-06-13,0,0.0,0.0,-0.004245605128849978,0.007101228328098301,0.9922254379369277
2011-06-15,0,0.0,0.0,-0.002694486881931454,0.005855341756488058,0.9943094408276384
2011-06-17,1,5.9717541251233324e-05,0.0002386223633510724,-0.004245605128849978,0.003114824451495789,0.9947586467559185
2011-06-21,0,-6.602228942333296e-05,0.00016055136359703094,-0.0050598543296827905,0.003114824451495789,0.9932987891422965
2011-06-23,-1,-0.001308902935563828,-0.0008995476783969481,-0.004545328982194962,0.005085679140999606,0.993523067999106
2011-06-27,0,0.0,0.0,-0.004904044307828915,0.005085679140999606,0.9929734043473449
2011-06-29,0,0.0,0.0,-0.0035475654996432425,0.0051247796405466855,0.993894779536121
2011-07-01,0,0.0,0.0,-0.004193668454898686,0.0031504910896458654,0.9942924916591199
2011-07-06,-1,-0.0011250311391179171,-0.0007613878935915884,-0.004193668454898686,0.0031504910896458654,0.9947527578948078
2011-07-08,-1,-0.0007682591030309153,-0.0004813988539095846,-0.0048401397639320325,0.0031504910896458654,0.9928097334594741
2011-07-12,-1,-0.0008998936086852217,-0.000624635623382028,-0.005767312258027096,0.005165796687894313,0.9891042880502198
2011-07-14,-1,-0.0008063782667155083,-0.0005617697863851165,-0.006631732193862857,0.0072423136550872815,0.9863454353494884
2011-07-18,-1,-0.0014652062079600174,-0.0011232494011898901,-0.006440018562172211,0.011134692555441448,0.9852246048387892
2011-07-20,-1,-0.001374800968645015,-0.0010623772220945522,-0.0048401397639320325,0.01032685095029604,0.9864623306147873
2011-07-22,-1,-0.0012695852719679145,-0.0009859776732149212,-0.0048401397639320325,0.01032685095029604,0.9867123465845532
2011-07-26,-1,-0.0013737278083077401,-0.0010994809082759938,-0.00285931630216184,0.013268888763299963,0.9854435438490546
2011-07-28,-1,-0.0013931076808599953,-0.0011099909030694451,-0.007162163834256765,0.013268888763299963,0.984840594931796
2011-08-01,-1,-0.0012044952787216442,-0.0009719743677712705,-0.0034682789777426967,0.01633206173832375,0.9837474570763715
2011-08-03,-1,-0.0014680371696658206,-0.0011602383212994324,-0.0034682789777426967,0.01633206173832375,0.983317208915398
2011-08-05,-1,-0.0023442265217780553,-0.001906570459888035,-0.005642985563523481,0.01390853692288753,0.9847182744490829
2011-08-09,-1,-0.0034574167460541703,-0.002857400790496124,-0.0015031301007050514,0.011477401513494372,0.9873647848788917
2011-08-11,-1,-0.0025089406748571835,-0.002075066601679782,-0.0015031301007050514,0.009998969068742645,0.9893234354832704
2011-08-15,-1,-0.0010495434099172783,-0.0008205439874202427,-0.005642985563523481,0.00707551760850639,0.990474069763376
2011-08-17,-1,-0.00044855966689415943,-0.000307707668560962,-0.005642985563523481,0.009508807231487304,0.9899432696802128
2011-08-19,-1,-0.0007692576214884247,-0.0006008392861297623,-0.0017558563757745862,0.009508807231487304,0.990310129736584
2011-08-23,1,0.00046933994922673523,0.0004903531900942844,-0.006149490909108294,0.00707551760850639,0.9903676338320574
2011-08-25,-1,-0.00052233075666641,-0.0003759481446245766,-0.006149490909108294,0.00707551760850639,0.9901575436566814
2011-08-29,1,0.0007557529768412037,0.0007876518409120953,-0.006149490909108294,0.007066314031820476,0.9906727952639116
2011-08-31,1,0.001194777157433506,0.0012803513503284784,-0.01247513195688996,0.007066314031820476,0.9901744390209416
2011-09-02,1,0.0007878577933379095,0.0008597296304724372,-0.01002166540929493,0.009707014440604407,0.9899247360975464
2011-09-07,1,0.0011845254367759354,0.001323578921010541,-0.01002166540929493,0.009707014440604407,0.9901684368718862
2011-09-09,1,0.00013369662502721378,0.00015935559125640567,-0.003461614827643131,0.013268596155046384,0.9895723737698168
2011-09-13,-1,-0.0006694989717077396,-0.0005140991853422061,-0.0012131955665068098,0.013268596155046384,0.9897515886660088
2011-09-15,1,0.00032378962478356185,0.00037211541603637995,-0.0025707970025693142,0.009950522988258024,0.9908601149897598
2011-09-19,1,0.0007265908437113212,0.0007735367468127303,-0.006579969744633581,0.009950522988258024,0.9904583921630266
2011-09-21,1,2.0490887069014058e-05,4.518548975538388e-05,-0.006228225239655054,0.009950522988258024,0.9914634215107593
2011-09-23,-1,-0.00020596413591102912,-0.0001678293623612374,-0.0033620626660429806,0.009950522988258024,0.9918864027117179
2011-09-27,1,0.0004879321420446297,0.0005045621463371147,-0.006228225239655054,0.00730330321722212,0.9922694985617604
2011-09-29,1,0.00088790438625693,0.0009982842225925435,-0.005265573858292534,0.008097207104718243,0.9924083440504002
2011-10-03,1,0.0009408634637319671,0.0010508923223006134,-0.003986564418962726,0.00730330321722212,0.9932626476811254
2011-10-05,1,0.0009914743326779108,0.0011305260509068896,-0.005265573858292534,0.00730330321722212,0.9925190373225162
2011-10-07,1,0.002448458197732023,0.002809214082197653,-0.005265573858292534,0.00643736289142487,0.9933504859595995
2011-10-11,1,0.003117596286172746,0.003591893879315248,-0.005265573858292534,0.004912964712802911,0.9934080375164055
2011-10-13,1,0.0025852857563857788,0.0029768763428510794,-0.005732191435914522,0.005945198593687055,0.992422758279904
2011-10-17,1,0.0023386801029868613,0.0027006277984286606,-0.005265055343228396,0.005945198593687055,0.9924702737884589
2011-10-19,1,0.002187160025492491,0.002530015903184461,-0.005265055343228396,0.005945198593687055,0.9922873557007879
2011-10-21,1,0.002324518979978164,0.0026828735583963605,-0.005265055343228396,0.005443234663150105,0.9926758665989531
2011-10-25,1,0.0014631545254364209,0.0016836126970253167,-0.0041700929914708414,0.005443234663150105,0.9928364251105801
2011-10-27,1,0.0019167198958399284,0.0021563526209340744,-0.006603172235807797,0.0049523436834028964,0.9932037773593093
2011-10-31,0,0.0,0.0,-0.006603172235807797,0.005443234663150105,0.9918748989600656
2011-11-02,1,0.0008376051921373427,0.0009567747280235571,-0.0041700929914708414,0.006684793844791434,0.9918431813677693
2011-11-04,1,0.0010399000311176476,0.0011731078004932412,-0.00729937565322142,0.005443234663150105,0.9916997487139511
2011-11-08,0,0.0,0.0,-0.00729937565322142,0.007243418193439365,0.9908577698047506
2011-11-10,0,0.0,0.0,-0.00729937565322142,0.006263801355016179,0.9916006517430623
2011-11-14,0,0.0,0.0,-0.00729937565322142,0.006263801355016179,0.9917926612888917
2011-11-16,0,0.0,0.0,-0.007258008076615873,0.009742322551116053,0.9914464540221815
2011-11-18,1,0.00046693633303558483,0.0005322741255402618,-0.007258008076615873,0.009742322551116053,0.9914865177943197
2011-11-22,1,0.0004987694290785366,0.0005959467833852041,-0.0019333723119218313,0.012939695472240937,0.9906853077770555
2011-11-25,1,0.0005959579575268124,0.0007167431376712893,-0.0019333723119218313,0.012939695472240937,0.9905955748348202
2011-11-29,1,0.001250458410095684,0.0014549011941595315,-0.004688058075043244,0.00987868673465802,0.9916141812869816
2011-12-01,1,0.001581701514078073,0.0018303470026539358,-0.005196656460388851,0.007338259659004467,0.9926100188766358
2011-12-05,1,0.0011379756214940752,0.0013098842581525543,-0.004925264168741219,0.007338259659004467,0.9912782301876094
2011-12-07,1,0.0014876150609752748,0.0016963027810344637,-0.004925264168741219,0.007338259659004467,0.9912681209362082
2011-12-09,1,0.0011119496193545688,0.0012634751747397025,-0.004925264168741219,0.008454240680969621,0.9911372152669332
2011-12-13,1,0.0012168526277952477,0.0013842773084529378,-0.004925264168741219,0.008454240680969621,0.9911106501141327
2011-12-15,1,0.0012217118485417823,0.0013800055630238317,-0.004191008620174635,0.004836499025536075,0.9918908844201499
2011-12-19,1,0.0012539054083995438,0.0014178737549258476,-0.004925264168741219,0.0028067403360253797,0.9914736821002916
2011-12-21,1,0.001806548434233812,0.002049302025265411,-0.004925264168741219,0.0021459221486964655,0.9924419008250558
2011-12-23,1,0.0015112325876895762,0.0017266469034392766,-0.004925264168741219,0.0025529673113449678,0.9922349710940082
2011-12-28,1,0.0011401370421670546,0.0012518890707252863,-0.006116712595250636,0.0025529673113449678,0.9915990516840791
2011-12-30,1,0.0011087161032598417,0.0011981447965520291,-0.006116712595250636,0.003399531524081865,0.9915284940380632
2012-01-04,-1,-0.0007465861244839821,-0.0005734681197742621,-0.0033057930956080037,0.0039420929477400005,0.9936272516260067
2012-01-06,-1,-0.00034805558208807625,-0.00023868704208462811,-0.004085630095667316,0.0039420929477400005,0.9937386340244148
2012-01-10,-1,-0.00016264411566831698,-7.237854242787421e-05,-0.0025999461558352793,0.0039420929477400005,0.9944776636888527
2012-01-12,-1,-0.00041678092969083447,-0.0002801632255182994,-0.0030877316657901017,0.00469186969625113,0.9936314613988029
2012-01-17,1,0.00012155117228837507,0.00015022092401210504,-0.0030877316657901017,0.00447311204586803,0.9938958311846989
2012-01-19,-1,-0.0006976873633781895,-0.0005316268551086964,-0.0012804012380829071,0.006934732959949188,0.9938811392698012
2012-01-23,-1,-0.00022882310197782185,-0.0001585735881016751,-0.0007654226341747495,0.006934732959949188,0.994070251698432
2012-01-25,1,0.00021063670158183982,0.00021617464977632353,-0.00043243075126112815,0.00447311204586803,0.9953006376895607
2012-01-27,-1,-0.0010515331827226741,-0.0008804482940814545,0.000601595729048911,0.006934732959949188,0.9950144740444434
2012-01-31,-1,-0.0004435026316953494,-0.0003542840673167053,0.0004302825490853125,0.00447311204586803,0.9957147480889528
2012-02-02,-1,-0.0007431154563786275,-0.0006033354998594591,-0.0007654226341747495,0.004364022021704982,0.9957242946411036
2012-02-06,-1,-0.0006835002566661218,-0.0005525212563318989,-0.0007654226341747495,0.004364022021704982,0.9958215017425263
2012-02-08,-1,-0.00020075092219178276,-0.00015765628523239236,-0.0007654226341747495,0.005233859303752906,0.9956634277303833
2012-02-10,1,0.0002760557304824857,0.0002884091571441484,-0.0006632407118522943,0.00292959570975727,0.9966697351195472
2012-02-14,-1,-0.00010287427123941665,-1.3467623761875673e-05,-0.0012585007378967325,0.00292959570975727,0.9959481869571118
2012-02-16,1,2.778490030264433e-05,0.00011102759873823491,-0.0012585007378967325,0.0026664445972746126,0.9963444959074697
2012-02-21,1,0.00014422581417164115,0.00019143806030996093,-0.0009920917536393864,0.002664221919676661,0.9964119410363496
2012-02-23,1,0.0003649710228281501,0.0003865712603374219,-0.0009920917536393864,0.002664221919676661,0.996466718103024
2012-02-27,1,0.0004572708407513309,0.0004799850722532157,-0.0009920917536393864,0.0026664445972746126,0.996165487527758
2012-02-29,1,0.00042553795753051086,0.00045344544042819713,-0.002163486137917773,0.0026657790257398808,0.9960464031779691
2012-03-02,1,0.000782423509814368,0.0008400955978511003,-0.0009001045426175372,0.004141496740417327,0.9958044527677178
2012-03-06,1,0.0009536443443678004,0.0010388907939643528,-0.0009001045426175372,0.004141496740417327,0.9959958635053913
2012-03-08,1,0.0009720826169539042,0.0010391135949166619,-0.0009001045426175372,0.004012337218623391,0.9961784806624676
2012-03-12,1,0.0006654459218071646,0.0006763615195734057,-0.0024199001732386986,0.004012337218623391,0.9955988420844175
2012-03-14,1,0.00024414975161283624,0.00029996896476923316,-0.0006564530221979841,0.008127148787303832,0.9958638624987278
2012-03-16,1,0.00030467170802693863,0.0003505787979209069,-0.0017846883322734256,0.008127148787303832,0.9955499453116866
2012-03-20,1,0.00010058529762248665,0.0001737631837101173,-0.0017846883322734256,0.008127148787303832,0.9952296884083758
2012-03-22,1,0.00047448477030364255,0.00048587316071805616,-0.0017846883322734256,0.008127148787303832,0.9950396536974948
2012-03-26,1,0.0005772475678595763,0.000578077573890584,-0.0024199001732386986,0.006144117786490791,0.9955146513510528
2012-03-28,1,0.00014883696353701337,0.00023459975399059882,-0.001978478965106707,0.007390506634742254,0.9953330722121977
2012-03-30,1,0.0004279332376298425,0.0004818240439190156,-0.001978478965106707,0.006530183169570801,0.9955296150224477
2012-04-03,1,0.0005913931600868562,0.0006189206531064447,-0.0016289637989020007,0.006327715795547019,0.995739167212847
2012-04-05,1,0.0008485571668889243,0.0008578626715554205,-0.002290161913403738,0.005877660298971845,0.9956917878694619
2012-04-10,1,0.0002121512623047732,0.000287412004286289,-0.0016289637989020007,0.005877660298971845,0.9958342840008966
2012-04-12,1,0.0003913534653893775,0.0004476991011022843,-0.002290161913403738,0.005607778434816798,0.9955553213023295
2012-04-16,1,0.00035034507772569584,0.000409885780830165,-0.0022032777508184864,0.004232902113343924,0.9957615183554257
2012-04-18,1,0.0003180653091444936,0.00039867853402557243,-0.0022032777508184864,0.0035460141551261174,0.9959464507594904
2012-04-20,1,0.0002461458390186615,0.00035371596407662484,-0.0032808921989796497,0.002733513804727955,0.9958798758924577
2012-04-24,0,0.0,0.0,-0.002905726628188602,0.003939980607788114,0.9957133550319354
2012-04-26,0,0.0,0.0,-0.002905726628188602,0.003939980607788114,0.9951983388332086
2012-04-30,0,0.0,0.0,-0.0032808921989796497,0.0022861401859901025,0.9953707525018752
2012-05-02,0,0.0,0.0,-0.003489358710167616,0.0022861401859901025,0.995337522704795
2012-05-04,1,0.0013391112089050394,0.0014172787515225437,-0.003730120483426231,0.0022861401859901025,0.9946045813822298
2012-05-08,1,0.0018264791182988904,0.0019762236569600983,-0.003585567809522028,0.003925720739798853,0.9935551389563305
2012-05-10,1,0.0007957968987244747,0.0008261568824756478,-0.0032151440301986483,0.005240682584474788,0.9941509221642981
2012-05-14,1,0.0013496449314671071,0.0014385669390949763,-0.002975215465251257,0.005323384368769654,0.9938329118697233
2012-05-16,1,0.0013400872220409306,0.0015099986845354858,-0.003585567809522028,0.005917962890199605,0.9931578827001413
2012-05-18,1,0.0009319443483719173,0.0010070654886589646,-0.002975215465251257,0.005917962890199605,0.9933279840440151
2012-05-22,1,0.000826169380994923,0.000876223336088177,-0.0018005086312317287,0.005875183286231821,0.9935797882027294
2012-05-24,1,0.0012407469107661264,0.001338693437175947,-0.0012985212128889035,0.005240682584474788,0.9944093828408261
2012-05-29,1,0.0005862331560175505,0.0006129596228568463,-0.001968070116388559,0.005240682584474788,0.9942112973594412
2012-05-31,1,0.0007819946180388743,0.0008013192441547594,-0.000813341071222885,0.005806741369926215,0.9942080132618472
2012-06-04,1,0.000880261158551609,0.0009014283184906928,-0.0005898970425166088,0.010317512404630969,0.9941160255658271
2012-06-06,1,0.0015085229276102718,0.0016009386771473205,-0.0005898970425166088,0.006363667638378093,0.9954437568239426
2012-06-08,1,0.0015938053385824479,0.001696119427942741,-0.0005898970425166088,0.006525157945112277,0.9955667135549934
2012-06-12,1,0.001668348667201897,0.0017789163125061288,-0.000813341071222885,0.005994690251049595,0.995667991412949
2012-06-14,0,0.0,0.0,-0.000813341071222885,0.005994690251049595,0.9952996009302054
2012-06-18,0,0.0,0.0,-0.0010023644124712754,0.006555957934878991,0.9952014096427236
2012-06-20,0,0.0,0.0,-0.0010023644124712754,0.006555957934878991,0.9951387303335046
2012-06-22,1,0.0012313096726960936,0.0012445788672420357,-0.0018266736543861455,0.006555957934878991,0.9946886665163401
2012-06-26,1,0.0008946970014789826,0.0009551682556648008,-0.0013461480921348802,0.006555957934878991,0.9947803093722533
2012-06-28,1,0.0014713050102005479,0.0014786115378556302,-0.0013461480921348802,0.006767345554088207,0.994643429023169
2012-07-02,1,0.0022711558975568786,0.0023924603268125374,-0.0029197011999937267,0.0062604499323464175,0.9952679550390507
2012-07-05,1,0.0022377435202968815,0.0023636015789729146,-0.0035233622822489602,0.0062604499323464175,0.9948121979698681
2012-07-09,1,0.0022703778195150588,0.0023963865106417306,-0.003909122288956225,0.006683444640283409,0.9942814432151768
2012-07-11,1,0.0016436316975829727,0.001739373490047324,-0.0048980394327860135,0.0062604499323464175,0.9936276066704807
2012-07-13,1,0.0020112663584778132,0.00214732092797277,-0.0048980394327860135,0.0062604499323464175,0.9938043688335084
2012-07-17,1,0.002079915050285561,0.0022209858739170294,-0.0048980394327860135,0.0066272619034970955,0.9936785583111155
2012-07-19,0,0.0,0.0,-0.0060116064176448675,0.006972042953320351,0.9927977665143446
2012-07-23,0,0.0,0.0,-0.005564621967018238,0.006972042953320351,0.9930813581452174
2012-07-25,0,0.0,0.0,-0.008399226346761164,0.006972042953320351,0.9916486727869236
2012-07-27,0,0.0,0.0,-0.009821485692884002,0.006972042953320351,0.9907342424518648
2012-07-31,0,0.0,0.0,-0.009821485692884002,0.006972042953320351,0.9907302157807819
2012-08-02,0,0.0,0.0,-0.008399226346761164,0.006972042953320351,0.9911258300278092
2012-08-06,1,0.001487755198727245,0.0014906959930120478,-0.010024346422450751,0.006972042953320351,0.9905095453912216
2012-08-08,1,0.00034114056572075375,0.0004736161501196946,-0.008399226346761164,0.007187557421367734,0.9911114740234268
2012-08-10,0,0.0,0.0,-0.008873137288895775,0.007187557421367734,0.9910492320651975
2012-08-14,0,0.0,0.0,-0.010402428948894515,0.005785475128321192,0.9900800972841192
2012-08-16,1,0.00029988836983194675,0.0003826559086359361,-0.013876359635690597,0.005785475128321192,0.9888768991806678
2012-08-20,0,-7.431675743094451e-05,6.381159007537278e-05,-0.013876359635690597,0.007522038796631081,0.9887590725566732
2012-08-22,-1,-0.0018248859884409374,-0.0014923645944763721,-0.005583186913688747,0.008629304601170036,0.9895781334044417
2012-08-24,-1,-0.0012753570201168686,-0.0010189013321972354,-0.004342545472969502,0.008629304601170036,0.99020292706235
2012-08-28,-1,-0.0008678246815313366,-0.0006645227365004755,-0.004731948521472319,0.008629304601170036,0.9904290433566034
2012-08-30,-1,-0.001181287903655712,-0.0009146707365430875,-0.008238982687254849,0.008629304601170036,0.9897393827762446
2012-09-04,-1,-0.0010674302268481014,-0.0008227711719986725,-0.006360092262662027,0.007664637718832904,0.9904542116240707
2012-09-06,-1,-0.000886288130279061,-0.0006646915296344908,-0.006360092262662027,0.007664637718832904,0.990622526120917
2012-09-10,-1,-0.0009617757346884329,-0.0007413081733824262,-0.004615653054519499,0.007664637718832904,0.9912684339521137
2012-09-12,-1,-0.0023129155518514135,-0.0019418159021004082,-0.005489019635550863,0.007664637718832904,0.9917322143720774
2012-09-14,-1,-0.00317872163274839,-0.002695788076132936,-0.005489019635550863,0.007664637718832904,0.9920189364027348
2012-09-18,-1,-0.0027538978319216574,-0.002330459845273963,-0.005489019635550863,0.005400188760627447,0.9924217606226484
2012-09-20,-1,-0.002174650456402495,-0.0018320721396225502,-0.006360092262662027,0.005332352255361217,0.9924752124859845
2012-09-24,-1,-0.0015400901918507237,-0.0012776837694083373,-0.008985878087241677,0.005332352255361217,0.9925107982310902
2012-09-26,-1,-0.0015770849680664372,-0.0013138799129623299,-0.01256343810288334,0.003838956360633862,0.9919835364142281
2012-09-28,-1,-0.002526957449416555,-0.002145478114242043,-0.011003584965997619,0.003838956360633862,0.9923755390848696
2012-10-02,-1,-0.0026485315494511373,-0.0022122193531195593,-0.011003584965997619,0.0033714535414115492,0.9925594766175486
2012-10-04,-1,-0.002407712343347984,-0.0019920887198375233,-0.011003584965997619,0.0033714535414115492,0.9925170676506249
2012-10-08,-1,-0.0023921087367668277,-0.00198310293293719,-0.01256343810288334,0.0033714535414115492,0.9917786428023484
2012-10-10,-1,-0.0031702593323085153,-0.002661338303388027,-0.011003584965997619,0.005428981547867145,0.9919684404852811
2012-10-12,-1,-0.003568242980410109,-0.003013566164425505,-0.01096166706367151,0.0033714535414115492,0.9927815855654022
2012-10-16,-1,-0.0029891213872552964,-0.0025323387479249115,-0.012113047708308518,0.0032657372058915828,0.9924394283857282
2012-10-18,-1,-0.0034488793049307527,-0.002941757550823803,-0.01096166706367151,0.005428981547867145,0.9898685002240111
2012-10-22,-1,-0.003286426976506102,-0.0027748285991788563,-0.009955556588271531,0.005428981547867145,0.9902365610120387
2012-10-24,-1,-0.004968862546489436,-0.004255673020117697,-0.008769894330707411,0.005857093361636225,0.9894876751762925
2012-10-26,-1,-0.004708305176101268,-0.0040813386967996634,-0.008159740538617481,0.006756140440044447,0.9892355618413701
2012-11-01,-1,-0.003833695777562715,-0.0033044584975177845,-0.008159740538617481,0.007322739408260018,0.989249935476649
2012-11-05,-1,-0.004048836139613701,-0.003546445268969586,-0.005803970484160275,0.007322739408260018,0.9897713818608562
2012-11-07,-1,-0.004488672814400687,-0.003956340724405198,-0.005206189990947241,0.007322739408260018,0.9904800074538493
2012-11-09,-1,-0.0041596608787175604,-0.0036766787876207864,-0.005206189990947241,0.008067372809828003,0.9903171424257157
2012-11-13,-1,-0.004389392921778424,-0.0038865903322401144,-0.005206189990947241,0.008754817268980763,0.9898736423665825
2012-11-15,-1,-0.005143339706860883,-0.004556394375985245,-0.003811829253568813,0.008754817268980763,0.9898342487184838
2012-11-19,-1,-0.002185494735915313,-0.0019375484620701273,-0.005069488863563957,0.007322739408260018,0.9937992276943015
2012-11-21,-1,-0.0009390815055863283,-0.0008340049052299756,-0.005263304557044627,0.007322739408260018,0.9935170537744427
2012-11-26,1,0.000275238151510522,0.0003681397589216203,-0.0057464259055886955,0.005379058205656861,0.9930438437807352
2012-11-28,1,0.0005091780713332604,0.0006309389394789351,-0.006008328647710451,0.0031129522010825954,0.9927788674518792
2012-11-30,1,0.0009279580423627351,0.0011574116962406727,-0.007070805026571649,0.0008640950509426542,0.9920734997410001
2012-12-04,1,0.0008751824463741404,0.0010576754929193534,-0.007070805026571649,0.003999687112420242,0.9909729959041678
2012-12-06,1,0.0007587585917763857,0.0009468592569149888,-0.007070805026571649,0.003999687112420242,0.9913248186678671
2012-12-10,1,0.0011752208116180339,0.0014324879954477412,-0.009861857143476689,0.001099550651620013,0.9906894216312451
2012-12-12,1,0.0015643740472645444,0.0018661419179998417,-0.00806506208710018,0.0036741132491488297,0.9902187584880254
2012-12-14,1,0.001207591426224766,0.0014277668893877124,-0.00806506208710018,0.0036741132491488297,0.990207722754337
2012-12-18,1,0.0006034818469125869,0.0007413918225685851,-0.006641070521857522,0.0065632317559440575,0.9909606409819981
2012-12-20,1,0.0009516773451778678,0.0011647804426845828,-0.006641070521857522,0.0065632317559440575,0.991038975159286
2012-12-24,-1,-0.0001100956628649015,-3.505704894427397e-05,-0.0047589063849949095,0.007397064484651561,0.9918210228877723
2012-12-27,-1,-0.0005692779897293696,-0.0005671290002910246,-0.003760946705056616,0.007727226787168617,0.991906334622245
2012-12-31,-1,-0.00020623143943232147,-0.00013332948123319263,-0.0027456318178582955,0.007143679081575965,0.9930420936045236
2013-01-03,1,0.00042773372440347657,0.0005300433310025388,-0.0027456318178582955,0.007143679081575965,0.9940290956742545
2013-01-07,1,0.0002866232914622342,0.0003720162594802201,-0.003760946705056616,0.007727226787168617,0.993349841450609
2013-01-09,-1,-7.207035300226864e-05,-2.059544962192399e-06,-0.0008839772062268712,0.008504818161653278,0.9933810566230226
2013-01-11,1,0.001126204258439216,0.0013613563549929506,-0.0008839772062268712,0.007727226787168617,0.9949930639807615
2013-01-15,1,0.000954919735502595,0.0011562613590372435,-0.0008839772062268712,0.007727226787168617,0.9950660913511115
2013-01-17,1,0.0007306074417992048,0.0008346311100925339,-0.001964072625497998,0.008058531169775741,0.9939616534547131
2013-01-22,1,0.0009112521718742303,0.0010712881288667563,-0.0008839772062268712,0.008075966335033614,0.9939731242201288
2013-01-24,0,0.0,0.0,-0.00014837134503619038,0.008075966335033614,0.9938972755607677
2013-01-28,0,0.0,0.0,-0.001964072625497998,0.008075966335033614,0.9928907405239535
2013-01-30,0,0.0,0.0,-0.007295236480874313,0.008075966335033614,0.9918090707589408
2013-02-01,1,0.0023499728608966652,0.0027433154970890666,-0.007295236480874313,0.008075966335033614,0.9922122646751467
2013-02-05,1,0.002224440344609964,0.0025908306921589392,-0.004085857408442704,0.008157962138318438,0.9924717199764919
2013-02-07,1,0.002009118991952992,0.0022698082179810055,-0.005412141392261694,0.004575525241489004,0.9928227726213339
2013-02-11,1,0.0018827114121007281,0.0020947641080792533,-0.005412141392261694,0.007714152232869816,0.9923208412362358
2013-02-13,1,0.002005332901877202,0.0022517457190930337,-0.006712396548100357,0.007714152232869816,0.9918892978922446
2013-02-15,1,0.0018552135457901358,0.0021137566065416325,-0.0063527269064832005,0.0045001675994373845,0.9925778680949083
2013-02-20,1,0.0027203020007621572,0.0031273888672058423,-0.0063527269064832005,0.006841481927604578,0.9922636783005669
2013-02-22,1,0.0029860742683285183,0.00341987121142573,-0.0063527269064832005,0.0027507277453706043,0.9919448484790759
2013-02-26,1,0.0012184418087849021,0.001373444984293491,-0.005057736205601938,0.006841481927604578,0.9935897416503211
2013-02-28,0,0.0,0.0,-0.0036205605203185843,0.006841481927604578,0.9947692380147498
2013-03-04,1,0.0014785584547497852,0.0017276625805308496,-0.0036205605203185843,0.006841481927604578,0.9939617873194887
2013-03-06,1,0.0016566332931495164,0.0019277954825212976,-0.004118840086450368,0.006841481927604578,0.9934913137850268
2013-03-08,1,0.001164574688804387,0.0013315286040045068,-0.004195563156327662,0.008176383999362897,0.9928978261678136
2013-03-12,0,0.0,0.0,-0.004195563156327662,0.007370856470108558,0.9928982894960262
2013-03-14,0,0.0,0.0,-0.0028503493247157927,0.008547266524000254,0.992962433172446
2013-03-18,0,0.0,0.0,-0.0014955590827809883,0.009920607664986592,0.9911308555503494
2013-03-20,0,0.0,0.0,-0.005661814245294739,0.008547266524000254,0.9909878410685516
2013-03-22,1,1.4335113331840255e-05,0.00011588613124905936,-0.003658668424314438,0.009774362190715313,0.9905326132636356
2013-03-26,1,0.00013314867163951335,0.00024620280406429957,-0.003658668424314438,0.008547266524000254,0.9909416849008019
2013-03-28,1,0.00018729063493422483,0.0002848073423037817,-0.003658668424314438,0.009774362190715313,0.9903161664818025
2013-04-02,1,0.0007130612404380459,0.0007583525047184249,-0.0037445526343845917,0.009774362190715313,0.990935615690379
2013-04-04,1,0.00035427865842168113,0.00047158924105673866,-0.003349671527780029,0.009265446651468471,0.9912158808460378
2013-04-08,1,0.0004265455286232568,0.0005380258967796742,-0.004166008139683039,0.008377628010917973,0.9914540942316133
2013-04-10,1,0.0005696263442564031,0.0006830931811496633,-0.004166008139683039,0.009265446651468471,0.9914266341416412
2013-04-12,1,0.0002888947826464944,0.00047309419412730274,-0.004792282448944946,0.009265446651468471,0.9912190900743918
2013-04-16,1,0.0006878677699508205,0.0007157666315931056,-0.00402876351964494,0.009080329760362382,0.9930439904476953
2013-04-18,0,0.0,0.0,-0.0030036688046546282,0.009265446651468471,0.9929708719825234
2013-04-22,0,0.0,0.0,-0.0030036688046546282,0.009080329760362382,0.9933439309753166
2013-04-24,0,0.0,0.0,-0.00402876351964494,0.009080329760362382,0.9931119305654312
2013-04-26,0,0.0,0.0,-0.00402876351964494,0.0075143351323549955,0.9934983471250353
2013-04-30,0,0.0,0.0,-0.004792282448944946,0.006655503161271574,0.9935066544741163
2013-05-02,0,0.0,0.0,-0.005359930174537063,0.006315614623626793,0.9937513600697192
2013-05-06,0,0.0,0.0,-0.005205485765245788,0.006655503161271574,0.9936905489418649
2013-05-08,0,0.0,0.0,-0.007011273983553891,0.006315614623626793,0.9934719585120907
2013-05-10,1,0.0013835130082662963,0.0015076921537920806,-0.007011273983553891,0.006315614623626793,0.9934931229312561
2013-05-14,1,0.0012997909937981394,0.0013784727361877192,-0.007870585029008986,0.0036602536169808826,0.9928634158802045
2013-05-16,1,0.0014318595065407522,0.0015243956028100762,-0.007407251801135159,0.003223894637277901,0.9932597952168123
2013-05-20,1,0.0008570003627873322,0.0008958166727895644,-0.007407251801135159,0.00484632499859253,0.9931893587090896
2013-05-22,1,0.00015230195720042881,0.00029236225799491737,-0.010245974007972376,0.00484632499859253,0.9914522706672256
2013-05-24,0,0.0,0.0,-0.010245974007972376,0.00484632499859253,0.9905206998225844
2013-05-29,1,0.0005470316019999259,0.0006382649149313411,-0.008706067519941185,0.008870879612710107,0.9905254951867459
2013-05-31,0,0.0,0.0,-0.009685437014966715,0.008870879612710107,0.9900495299426556
2013-06-04,0,0.0,0.0,-0.009685437014966715,0.008870879612710107,0.9902172709318943
2013-06-06,0,0.0,0.0,-0.0059222403231916345,0.008870879612710107,0.9909906619580251
2013-06-10,-1,-0.000186390061919637,-5.085278888832711e-05,-0.0059222403231916345,0.008930679366074194,0.9905202316692427
2013-06-12,0,0.0,0.0,-0.0012583647855635464,0.009766075733204878,0.9905510368467243
2013-06-14,-1,-0.000762913546335366,-0.0005686392421481699,0.0006345726473935161,0.009766075733204878,0.990438136435222
2013-06-18,0,-0.00010487645828419591,2.443799493619396e-06,-0.0014101469718957324,0.008930679366074194,0.9910505202843732
2013-06-20,-1,-0.0018294242165667093,-0.0015324240028907208,0.0006345726473935161,0.008930679366074194,0.9922759881441182
2013-06-24,-1,-0.001537202695573716,-0.0012733403480787346,-0.00013506521823581898,0.0069520855172701896,0.992336172499705
2013-06-26,-1,-0.000636086470838958,-0.0005005036261245812,-0.0018153426266031894,0.006351433450344703,0.9927125444948486
2013-06-28,-1,-0.00097938094170921,-0.0008003410049294104,-0.0018153426266031894,0.006351433450344703,0.9931600825199717
2013-07-02,-1,-0.00023376692800219156,-0.00016201656764532822,-0.005832135533776512,0.005229060004271022,0.9932815362618148
2013-07-05,-1,-0.00014099925820218933,-8.676087281506544e-05,-0.005832135533776512,0.006351433450344703,0.9924535559818679
2013-07-09,1,0.0006225892300755347,0.0006625577064242184,-0.006024590171444299,0.004255148453530354,0.9930850201826322
2013-07-11,1,0.0009448931268750678,0.0010052023178088237,-0.006024590171444299,0.003967928424842362,0.9929677311867058
2013-07-15,1,0.0013378449588236877,0.0014792040821105708,-0.006054601547993469,0.003967928424842362,0.9923204298953502
2013-07-17,1,0.0014521978483696518,0.0016319556707356275,-0.006054601547993469,0.002264694314312246,0.9924937974159282
2013-07-19,1,0.0009003478855729048,0.0009431826958649721,-0.007475752100551402,0.00021781050964133063,0.9917253930155483
2013-07-23,-1,-0.0007746310521995911,-0.0005753592035607381,-0.006829952105415168,0.00021781050964133063,0.9933402097219795
2013-07-25,-1,-0.000692214741286228,-0.0005220269142671063,-0.006829952105415168,0.00021781050964133063,0.9937478907582059
2013-07-29,-1,-0.000884757348672114,-0.0006987664540988146,-0.007056947096535801,0.0020270706911327723,0.9927407253657186
2013-07-31,-1,-0.001665655732372079,-0.0013792987231881996,-0.007056947096535801,0.0020270706911327723,0.9932653828942957
2013-08-02,-1,-0.0009477366352633814,-0.0007520341815435374,-0.007056947096535801,-0.0008949012303819765,0.993318426958155
2013-08-06,-1,-0.0015514004948936088,-0.0012645827256357375,-0.007056947096535801,0.0020270706911327723,0.993322831741757
2013-08-08,-1,-0.0016523515245084747,-0.0013330234399036884,-0.007056947096535801,0.002503144445755444,0.9937006371242757
2013-08-12,-1,-0.0017709083874463826,-0.0014665219065838255,-0.007056947096535801,0.004665508858180937,0.9931530317133134
2013-08-14,-1,-0.001961427171166666,-0.0016272242794311846,-0.00836955122285863,0.006654947351273712,0.9916483045231328
2013-08-16,-1,-0.002532435334673581,-0.002155816647128682,-0.005214049402331706,0.009026705326884033,0.991326032230927
2013-08-20,-1,-0.0030798898430384357,-0.00264174643926799,-0.0017634705854924627,0.010067370001446262,0.9903713162759598
2013-08-22,-1,-0.002766455276845319,-0.002406552292783641,-0.0017634705854924627,0.010067370001446262,0.9907476377855005
2013-08-26,-1,-0.002264352498204749,-0.0019618080002598566,-0.002531476057459749,0.009026705326884033,0.9919649754232439
2013-08-28,-1,-0.002679960336792044,-0.002335414574180653,-0.002531476057459749,0.009026705326884033,0.9915614310839069
2013-08-30,-1,-0.0020539013601037965,-0.0018040306549564128,-0.007304141370934533,0.008414233924834518,0.9917025576319527
2013-09-04,-1,-0.001514186642570801,-0.0013417704854514659,-0.007304141370934533,0.008414233924834518,0.9916634936222727
2013-09-06,-1,-0.0016079639038126033,-0.0013997975380289104,-0.007304141370934533,0.008414233924834518,0.9921302197024799
2013-09-10,-1,-0.001415362360203717,-0.0011924824793681146,-0.007304141370934533,0.006991271133469888,0.9928943325319309
2013-09-12,-1,-0.0014840151653191063,-0.0012855734645188016,-0.006719848592473982,0.006991271133469888,0.9928979991529958
2013-09-16,-1,-0.0006266120573361047,-0.0005421850657822288,-0.006719848592473982,0.005729660209835683,0.9933166960992801
2013-09-18,1,0.00035478283385603586,0.00041990562603917605,-0.007304141370934533,0.003571339875685861,0.9931107784789778
2013-09-20,1,0.000365343830022184,0.00045725204608417186,-0.007040749591123889,0.005729660209835683,0.9930630057951637
2013-09-24,1,2.365870270514491e-05,7.892230154159824e-05,-0.003168797613513097,0.006211601892667439,0.9929898197687897
2013-09-26,-1,-0.0002987251971829412,-0.00028350423083813015,-0.003168797613513097,0.005905071273346511,0.9930596352709067
2013-09-30,-1,-0.0006759251083547422,-0.0006399837989446095,-0.0015710064367581746,0.008595793672077945,0.9927005887244301
2013-10-02,-1,-0.00013449308155508068,-9.207770200466082e-05,-0.0019745888505325543,0.008595793672077945,0.9920795771461635
2013-10-04,1,1.219223574306619e-05,9.770148547056593e-05,-0.0019745888505325543,0.008595793672077945,0.9919093301229641
2013-10-08,1,0.00016935593317424165,0.00028492936987633714,-0.0011082682638853536,0.008595793672077945,0.9919571992491693
2013-10-10,1,0.0010875816571806049,0.0013357762458261722,-0.0011082682638853536,0.007610143955446567,0.9934185682154918
2013-10-14,1,0.0011561915513143073,0.0013908721278133728,-0.0021367627396707647,0.007610143955446567,0.9934838752279876
2013-10-16,1,0.0012319355081075256,0.001487871652818125,-0.0021367627396707647,0.0072921778343804575,0.9940471920908854
2013-10-18,1,0.0011194473296107545,0.0013268443044101848,-0.0012837057719033004,0.007583393327842395,0.9939758756682218
2013-10-22,1,0.0014725204787544076,0.0017078158613995106,-0.0029318817935634132,0.0072921778343804575,0.9943464897410549
2013-10-24,1,0.001098080403937736,0.0012896441126166503,-0.004118457529958983,0.0072921778343804575,0.9939743151665696
2013-10-28,1,0.0016688094512903422,0.0019127681219141992,-0.004333275711253876,0.003772000147493667,0.9946916745293877
2013-10-30,1,0.002076227232331937,0.002396486824636304,-0.003809907443511468,0.0036387473746298466,0.9956941985381728
2013-11-01,1,0.001960705004437231,0.0022286352234258,-0.004162568287649248,0.0032699439829389863,0.9953395763085722
2013-11-05,1,0.002085019771812167,0.0023661295991536362,-0.004162568287649248,0.0036387473746298466,0.9951557554355823
2013-11-07,1,0.0022645223705228604,0.002599296929093957,-0.004162568287649248,0.0036387473746298466,0.9948793047978216
2013-11-11,1,0.0012341214676682224,0.0013288986545236267,-0.004746803699782537,0.004529051859309829,0.9944812655639987
2013-11-13,1,0.001488296359325088,0.0016278564644698105,-0.005398075062500486,0.004529051859309829,0.9939392724858431
2013-11-15,1,0.002103679791455094,0.002359613471220422,-0.005398075062500486,0.0038437773970346114,0.9938721364594948
2013-11-19,1,0.0017601891113809601,0.0019505429992208517,-0.0048859527916866015,0.005717785068054207,0.9933332523025783
2013-11-21,1,0.0013171666228563562,0.0014743436594792385,-0.003430728860492277,0.006000408784217013,0.9939874921548538
2013-11-25,1,0.0012262930766455508,0.001371549737296768,-0.0035685715233351642,0.006000408784217013,0.9935797887592254
2013-11-27,1,0.0016115203511359339,0.001851307714307202,-0.0031601992054841365,0.006000408784217013,0.9938606724656491
2013-12-02,1,0.0017018532258146995,0.0019861134602587585,-0.0018518740491177514,0.006000408784217013,0.9942417370832438
2013-12-04,1,0.002032916405895855,0.002370902659476165,-0.005375068257635663,0.005764272297105381,0.9933607676662551
2013-12-06,1,0.0021990262877310757,0.0025564060844018646,-0.006016236069034721,0.004757946287825518,0.9935416069694792
2013-12-10,1,0.0021254822335320823,0.002479674807920284,-0.004204994972543307,0.003946312927330022,0.9939920221060596
2013-12-12,1,0.0014088185586606692,0.001603515173406959,-0.0041582790676979,0.003367312183848102,0.9948638884678265
2013-12-16,1,0.0013519908380576076,0.0015332964977567945,-0.0041582790676979,0.0019872370538519773,0.99478877092074
2013-12-18,1,0.0019962930729825273,0.002247458258032796,-0.004609200515776471,0.0015695882750157391,0.9945884037141975
2013-12-20,1,0.0019639533744984527,0.0021736750416163327,-0.004609200515776471,0.001984462290845201,0.9945717163396246
2013-12-24,1,0.0017919611899543976,0.00201064703557325,-0.0041582790676979,0.001984462290845201,0.9950233640335711
2013-12-27,1,0.0017787419638359543,0.0019769095660844907,-0.004609200515776471,0.0009128051866648583,0.9943765621519769
2013-12-31,1,0.001867741166255425,0.0020836129018745857,-0.008278340851188597,0.0003370445860254878,0.9921968505136792
2014-01-03,1,0.0010510008214577385,0.001130118036151607,-0.008278340851188597,0.0003370445860254878,0.9918041848525154
2014-01-07,1,0.0005168885045990683,0.0005181224508420247,-0.008278340851188597,0.0012151730716744528,0.9916632015774575
2014-01-09,0,-0.00010321498397540774,1.2322843350893997e-05,-0.008278340851188597,0.004904503438142495,0.9904019662739463
2014-01-13,-1,-0.0007337626973654255,-0.0005129173999827904,-0.008278340851188597,0.004904503438142495,0.9906374410283133
2014-01-15,-1,-0.0012041243742756378,-0.000912436625719016,-0.008278340851188597,0.00923166270626265,0.9901694632175486
2014-01-17,-1,-0.0008193827749120697,-0.0005993240759322919,-0.00733142936290293,0.008460422901145702,0.9903973018835959
2014-01-22,-1,-0.0007561648742717318,-0.0005155956322370716,-0.009194538804364596,0.008510336652612967,0.9901391759080315
2014-01-24,-1,-0.0008970441759198707,-0.0006514316237428656,-0.009194538804364596,0.008510336652612967,0.990139816992328
2014-01-28,-1,-0.0012627956569935955,-0.0009877789071134448,-0.00659710614810702,0.008510336652612967,0.9904251753434858
2014-01-30,-1,-0.0027570264719402023,-0.002316872867370285,-0.0038838829429703875,0.010145820137465891,0.9910687015373381
2014-02-03,-1,-0.003741291254306371,-0.003216278081947445,-0.0032508223277868467,0.010610613415748784,0.9908207317261497
2014-02-05,-1,-0.004228521508973761,-0.003621896161100364,-0.003146396044234009,0.010610613415748784,0.9914712399287611
2014-02-07,-1,-0.002343328169707137,-0.001988709936571217,-0.003146396044234009,0.008669984739624308,0.9941614879043049
2014-02-11,-1,-0.0020917623500333895,-0.0018014671341467278,-0.0033415164608565106,0.008669984739624308,0.9934953002965193
2014-02-13,-1,-0.002001387646758026,-0.001711536941792804,-0.0033415164608565106,0.00873656558549539,0.993553614678754
2014-02-18,-1,-0.0021433875522702778,-0.0018114985330274706,-0.0033415164608565106,0.0069008627358665454,0.993582035645954
2014-02-20,-1,-0.0021619770636305546,-0.0018221077220849128,-0.0033415164608565106,0.006619663241493767,0.9932990950055262
2014-02-24,-1,-0.0028134406138972615,-0.002360706533198728,-0.00284404507204819,0.007228607974891791,0.9926804100496922
2014-02-26,-1,-0.002510619112789672,-0.0021140451398183263,-0.0023046742417089706,0.00917404127243657,0.9922221669693447
2014-02-28,-1,-0.0017148269781933256,-0.001404562637024901,-0.002773428260357791,0.006143239154905565,0.993694078694188
2014-03-04,-1,-0.0008877735668332285,-0.0006739856439071509,-0.002773428260357791,0.006143239154905565,0.9945160092206194
2014-03-06,-1,-0.0006589871460830879,-0.0005088630755715012,-0.0023046742417089706,0.006143239154905565,0.994356874563675
2014-03-10,-1,-0.0005653108136895755,-0.0004390177940196928,-0.0014797719735983584,0.006143239154905565,0.994410982879648
2014-03-12,-1,-0.0014596339410831776,-0.00122474745287882,-0.0005332826903760435,0.006587739317310838,0.9941200958891624
2014-03-14,-1,-0.0011507930269929602,-0.0009598305423221185,-0.0006698652685958153,0.006426909594613182,0.994528301315077
2014-03-18,-1,-0.0004924852212396221,-0.00040889093709677585,-0.0010515031651259406,0.006587739317310838,0.9943322543756133
2014-03-20,-1,-0.0010608991636775918,-0.0008866102477797955,-0.000664137672812195,0.006426909594613182,0.9949800568505508
2014-03-24,-1,-0.00010744371530538683,-9.073051723545677e-05,-0.0008466700314542629,0.006090774554791721,0.995422352225241
2014-03-26,1,0.000594800074154256,0.0006841489438524064,-0.0010515031651259406,0.005242782574868879,0.9957206087214661
2014-03-28,1,0.0006126070832172259,0.0007204788423567274,-0.0008466700314542629,0.006430345516969307,0.9940800326736211
2014-04-01,1,0.0009850586564998012,0.0011545568394397232,-0.0005941268099233996,0.005888273492016432,0.9944086333034282
2014-04-03,1,0.0011609177551484718,0.001351440073444726,-0.0008466700314542629,0.005888273492016432,0.9941752124417017
2014-04-07,1,0.0011844905982878588,0.0013748393585979925,-0.00231590739965177,0.005888273492016432,0.993927876968453
2014-04-09,1,0.0016863078761310377,0.0019495427155787385,-0.00231590739965177,0.0050002735637914774,0.9941701268019324
2014-04-11,1,0.0014263280417666426,0.0016792639369423176,-0.0008466700314542629,0.0050002735637914774,0.994783726902757
2014-04-15,1,0.0018642739770959875,0.0021648882802063943,-0.0010856128579790343,0.0050002735637914774,0.9951040162686527
2014-04-17,1,0.0017000894113016892,0.0019377095600890027,-0.00231590739965177,0.005780924844436902,0.994034086173499
2014-04-22,1,0.0017721667094244018,0.0020162222340179155,-0.005081085386610283,0.00505498208370625,0.9933768621981495
2014-04-24,1,0.0015306751123202256,0.0017428868136956108,-0.003563368247952124,0.006345124978830266,0.9931943416903117
2014-04-28,1,0.0027319831506088356,0.0030889579863392982,-0.003563368247952124,0.004361180730271057,0.9946702125406593
2014-04-30,1,0.0029434771248367255,0.003341004619101658,-0.003563368247952124,0.00465787017042938,0.9942133478129923
2014-05-02,1,0.002901567215882453,0.0033038873527505663,-0.003563368247952124,0.005971738612196147,0.9940783303293227
2014-05-06,1,0.0026014434908061415,0.0029535147386635556,-0.001301027630949884,0.005971738612196147,0.994387027321842
2014-05-08,1,0.0027874773645798784,0.0031543845214210588,-0.001301027630949884,0.00465787017042938,0.9945325794510594
2014-05-12,1,0.0029491365038193645,0.0033361392488327887,-0.001301027630949884,0.005971738612196147,0.9937547697603079
2014-05-14,1,0.0033020427587486367,0.0037858412032166205,-0.001301027630949884,0.005763275846500241,0.9925186011671614
2014-05-16,1,0.0036885403428623155,0.004242936505663349,-0.000242421368310026,0.005763275846500241,0.9933313815285778
2014-05-20,1,0.002852044970195724,0.0032667444021949902,-6.059588808001894e-05,0.006710146780168022,0.9936053824976984
2014-05-22,1,0.003529442616261621,0.004044785746953457,-6.059588808001894e-05,0.006710146780168022,0.9935070303593889
2014-05-27,1,0.00359182740854679,0.004117385184315786,-0.0009592334719636757,0.006710146780168022,0.9925122108371611
2014-05-29,1,0.003654483589957044,0.004146380629680958,-0.004196779099517933,0.005763275846500241,0.9922264910446327
2014-06-02,1,0.0032684353609273883,0.0036788522721657307,-0.0030970550077474525,0.005403267352671005,0.9926298857429844
2014-06-04,1,0.0031044520872023857,0.0034868184650089333,-0.0030970550077474525,0.005403267352671005,0.9926110537438175
2014-06-06,1,0.0030224536257240334,0.003380019253947209,-0.0030970550077474525,0.006421619390427329,0.9922029494626341
2014-06-10,1,0.0036218187950453227,0.004041709372450687,-0.0030970550077474525,0.005486122952111495,0.9927459914981549
2014-06-12,1,0.0026589790261490748,0.0029535105313343198,-0.0027402794959700883,0.006240642292618814,0.994346704131618
2014-06-16,1,0.0032308481447613406,0.0036240708010473045,-0.0030970550077474525,0.003984980771495311,0.9922946143506218
2014-06-18,1,0.0033413190820780914,0.003733977421709044,-0.003754430117630719,0.0030282383572170293,0.9926022070410723
2014-06-20,1,0.0034688915939475595,0.00384885759067826,-0.004280329731187237,0.0030282383572170293,0.9924207808946977
2014-06-24,1,0.0018592822688468867,0.0019437914548977298,-0.003268263401843752,0.0030282383572170293,0.9936254162993798
2014-06-26,1,0.0005868426519748899,0.0007260439248992161,-0.002915579367155594,0.003984980771495311,0.9936536781497378
2014-06-30,1,0.00033093876741203693,0.0005183269770999703,-0.002929343988933045,0.003984980771495311,0.9936137160677375
2014-07-02,1,0.0008577349147748754,0.0009220294935626159,-0.00519095150035913,0.003984980771495311,0.9925160972139312
2014-07-07,1,0.0011977196804268712,0.001237563915301892,-0.00519095150035913,0.0024599433689174656,0.9928287149131615
2014-07-09,1,0.0011908701334997919,0.0012292151056230113,-0.00519095150035913,0.004048281719002889,0.9916801004311226
2014-07-11,1,0.0016237849156510388,0.001635920323536347,-0.005993711940858893,0.002497361174918167,0.9911798539775587
2014-07-15,1,3.140951297239908e-05,0.0002099068056850014,-0.00519095150035913,0.006176794439040685,0.9932727841518149
2014-07-17,-1,-0.00041475670330449533,-0.00017144139336148904,-0.0041983098460969485,0.006176794439040685,0.9934051593601126
2014-07-21,0,-0.0001971955897277246,2.3683418567142247e-05,-0.0041983098460969485,0.0060364974150737775,0.9938199482927685
2014-07-23,0,-0.00013914415283905696,4.0573841557267794e-05,-0.004351390529329607,0.0060364974150737775,0.9936213853892947
2014-07-25,1,0.00020081109213074911,0.00030767162934917957,-0.002962879402590616,0.004949175489061364,0.9941571999866702
2014-07-29,-1,-0.00022837187751536777,-5.8251263739345245e-05,-0.0028293386899094592,0.004949175489061364,0.9940849456693619
2014-07-31,-1,-0.0012191048779403735,-0.0009284142742383959,-0.0012475621697513742,0.004949175489061364,0.9947959726626926
2014-08-04,-1,-0.0017026671019039626,-0.0013115972238968692,-0.0009975130216083813,0.004563662408309006,0.9944946543584395
2014-08-06,-1,-0.0010552881288868974,-0.0007485126468167176,-0.0009975130216083813,0.004298825965975364,0.9959686988424624
2014-08-08,-1,-0.0008758763543543854,-0.000597596259177573,-5.721365522759722e-05,0.004298825965975364,0.9964591271719327
2014-08-12,-1,-0.0008740679581181692,-0.0005843999212929149,0.0005797021396281084,0.004298825965975364,0.9964690177651574
2014-08-14,-1,-0.000565966225131296,-0.00032875874977343514,-0.0007542558591260716,0.004027957875251812,0.9962945462998363
2014-08-18,-1,-0.00019869009413259588,-2.9657016571882583e-05,2.4652126800385357e-06,0.004027957875251812,0.9954243813149904
2014-08-20,-1,-0.0004555873445494901,-0.00024521521561934575,0.0005797021396281084,0.004027957875251812,0.9953647525786491
2014-08-22,-1,-0.00034914942175044304,-0.00015886881748814667,0.0016984034812511407,0.005005191728001306,0.9948940154807717
2014-08-26,-1,-0.0001691825847992503,-4.189288003624892e-06,0.000347354738328617,0.005599807428334935,0.9937674786777838
2014-08-28,-1,-0.00024351716709908962,-6.859749761580668e-05,0.000347354738328617,0.005675552287837279,0.992484887395176
2014-09-02,1,9.776410030764535e-05,0.00021375295134013042,-0.0009836920492625114,0.005675552287837279,0.9925722482949452
2014-09-04,-1,-0.0003432208888669659,-0.00015122132519300782,-0.0025541652825275024,0.005675552287837279,0.992098344455488
2014-09-08,1,8.35544694063396e-05,0.00020758253161665195,-0.0025541652825275024,0.007196351716927416,0.9914611017819546
2014-09-10,1,0.0003539585037147904,0.0004406464347042809,-0.00441395309253173,0.009880690060594277,0.9906123615168034
2014-09-12,-1,-0.00022269959990080202,-7.33072657023129e-05,-0.00441395309253173,0.009880690060594277,0.990480501039282
2014-09-16,1,0.00043933183800317965,0.0005250190247459448,-0.007212881430422126,0.007661451520614132,0.9911106883233695
2014-09-18,1,0.001245847202241578,0.0013250023781108697,-0.009363612352630078,0.007661451520614132,0.9903551986946442
2014-09-22,1,0.0015809901949660615,0.0017091213624114278,-0.009363612352630078,0.012015369199001296,0.9896991039128826
2014-09-24,1,0.001666105231398157,0.00179371709426338,-0.008227176368909449,0.011367337371329712,0.9906423199534645
2014-09-26,1,0.0015439649878392445,0.0016411436915911527,-0.006892593267169007,0.008440831095334828,0.9917208715848315
2014-09-30,1,0.0016442666706128564,0.0017646763682161116,-0.006892593267169007,0.008440831095334828,0.9918177484598723
2014-10-02,1,0.0013273821702531237,0.0014127807818381678,-0.003708469717674398,0.008440831095334828,0.9922612394549177
2014-10-06,1,0.001823899382088336,0.0019699967309605095,-0.003708469717674398,0.011135535122267054,0.9919641132704711
2014-10-08,1,0.0020947165525277917,0.002284130167180833,-0.0016808811635407512,0.010377563113794074,0.9926579971926718
2014-10-10,1,0.0016634572291673146,0.0017599662081431292,-0.0016808811635407512,0.010377563113794074,0.9928915071187344
2014-10-14,1,0.0014512477328902337,0.001544521592830198,-0.0016808811635407512,0.010377563113794074,0.9929844678698383
2014-10-16,1,0.0007244408907990557,0.0007278443654325485,0.0006311947699558997,0.010377563113794074,0.9938964819321452
2014-10-20,1,0.0016767140467556312,0.0018181100583141148,-0.00036787731381799315,0.006917736769435117,0.9944399620644077
2014-10-22,1,0.0019369511048038064,0.002106007339695578,-0.0016808811635407512,0.00636062017104221,0.9946992312695622
2014-10-24,1,0.0020640959033663897,0.002244366437214886,-0.002391383686695696,0.00636062017104221,0.994282071994322
2014-10-28,1,0.0020243175047460404,0.0022007603953689944,-0.0017632679618893596,0.00636062017104221,0.9943496140245737
2014-10-30,1,0.0022411962048597607,0.002484161138743992,-0.0006596360204353803,0.007107240396713419,0.9940808004607279
2014-11-03,1,0.0026530112279805115,0.002897165978802122,-0.0006596360204353803,0.00571504739390833,0.9951115012132647
2014-11-05,1,0.003216828802258952,0.0035526076602280313,-0.002933675029692997,0.005326378547128357,0.9948003536632897
2014-11-07,1,0.003291634457427004,0.0036560363985259957,-0.002664238933075394,0.005190975583369071,0.9949459534407777
2014-11-11,1,0.003025320828138671,0.003383337302368311,-0.0031849909505627973,0.005190975583369071,0.9946651110949553
2014-11-13,1,0.0027193614402851464,0.002998798172407172,-0.004607936628674045,0.005190975583369071,0.9940418174763104
2014-11-17,1,0.002152948367375545,0.002333295277015205,-0.0038556671382344314,0.004656190248520863,0.9944235752894796
2014-11-19,1,0.0020991560478824636,0.002266804678142371,-0.0038556671382344314,0.006041730862680807,0.9930656118555083
2014-11-21,1,0.0020364901229684897,0.0021839255877458257,-0.004607936628674045,0.005190975583369071,0.9925376814161411
2014-11-25,1,0.002294481325938476,0.002504496367575343,-0.004607936628674045,0.00558602871994547,0.992251903499532
2014-11-28,1,0.0027059689386289996,0.0029722602546118177,-0.005442891129473265,0.004866490590123326,0.9921175430403986
2014-12-02,1,0.0029692144207434535,0.003291647686367861,-0.007475004809624179,0.00449203224757568,0.991009627626616
2014-12-04,1,0.002501789021993072,0.002679268278435073,-0.007475004809624179,0.003014239302169928,0.9911680538260046
2014-12-08,1,0.0022265361064550014,0.0023516099436429712,-0.007475004809624179,0.0050632502924732176,0.9905704241664893
2014-12-10,1,0.0017331561826783488,0.001796633460697619,-0.007168256801223306,0.0061104669719649445,0.9908369857750842
2014-12-12,1,0.001179937179461203,0.0012081323447655288,-0.0063467280367756635,0.006894121621703652,0.9911167784096364
2014-12-16,1,0.0007520495121341962,0.0008373601440726389,-0.0063467280367756635,0.00908322260400746,0.9905637446786806
2014-12-18,1,0.0019204986904551775,0.0019547466001418596,-0.0063467280367756635,0.008755288241751164,0.9912999232699791
2014-12-22,1,0.0003255741622963115,0.0005219500657350281,-0.0039526862030826015,0.008893865589436417,0.9915849747109624
2014-12-24,1,0.00025301663584831725,0.0004594255794528795,-0.005810600013303842,0.008893865589436417,0.9914088484862512
2014-12-29,1,0.0002756836388641701,0.00045096576440745037,-0.005810600013303842,0.008893865589436417,0.9913861109501317
2014-12-31,-1,-0.0005394304392241406,-0.0002717442828243121,-0.0032039483278079165,0.008893865589436417,0.9905862989620315
2015-01-05,-1,-0.0009838535408266784,-0.0006725978538030973,0.004011126086897636,0.011586095376453638,0.9897583079639832
2015-01-07,0,-0.00012698910032347,7.643586927644891e-05,-0.0028341989397620173,0.00917610111316441,0.9908796491148711
2015-01-09,1,0.0003135186193768181,0.00046366234770168656,-0.004762866814685064,0.00826793345389129,0.9914620763527042
2015-01-13,1,0.0005967118787486754,0.0007209256661932187,-0.004762866814685064,0.01115912428781108,0.9907580657846431
2015-01-15,1,0.0012516625719265853,0.0013027068594527375,-0.006416950789211371,0.01115912428781108,0.9904876086640726
2015-01-20,1,0.002063043480355273,0.002112415104316929,-0.006416950789211371,0.00826793345389129,0.991454738948436
2015-01-22,1,0.0023422958608710588,0.002421651165561276,-0.006416950789211371,0.007414357833062209,0.9919041843514046
2015-01-26,1,0.0020851668547295765,0.002134179090401175,-0.004762866814685064,0.007414357833062209,0.9922586357465705
2015-01-28,1,0.0015371651559810946,0.0015683348363284045,-0.0034505126570840887,0.008203332609373448,0.9923044289800123
2015-01-30,1,0.0008274427166122443,0.0009346997198825646,-0.002145643228608195,0.008203332609373448,0.9934501734262184
2015-02-03,1,0.0015842973749860614,0.0015972744191160655,-0.0034505126570840887,0.004993327105019406,0.993754297857878
2015-02-05,1,0.0005610890108330256,0.0007335938478751775,-0.003690322361568243,0.004993327105019406,0.9921324775788132
2015-02-09,1,0.0005874582114335318,0.0007150193061181416,-0.0026482292728005033,0.007226473763403461,0.9916406391946823
2015-02-11,1,0.0016927881185535214,0.0017026584032849325,-0.00682444299500712,0.003923525606005492,0.9918203238989556
2015-02-13,1,0.0017214700057659883,0.0017558461448258702,-0.00682444299500712,0.003923525606005492,0.9919680914187217
2015-02-18,1,0.001919822877061373,0.0019914774949371904,-0.009693033987323152,0.0037437866814279733,0.9913213131866222
2015-02-20,1,0.002023293802523035,0.002101621899345368,-0.009693033987323152,0.003606949703277139,0.9912168030299446
2015-02-24,1,0.0019295162667713928,0.001994210636065525,-0.010335777027043021,0.003606949703277139,0.9908379439599021
2015-02-26,1,0.0018110132642241365,0.0018235460354224058,-0.011744341903524483,0.003085660045435101,0.9900763652213452
2015-03-02,1,0.002282730377205628,0.0023968425028156153,-0.011744341903524483,0.0031378089593688875,0.9897549563334866
2015-03-04,1,0.0017406270024899761,0.0017889961064513002,-0.010495618432637068,0.0038031184553535833,0.9899738406643461
2015-03-06,0,-0.00019235249815542752,1.8208783851474206e-06,-0.009933139672057719,0.005663447181647782,0.9915621833457784
2015-03-10,-1,-0.0007879102036729604,-0.0004946912435682048,-0.0092371161638065,0.004458267052742139,0.9923897911617874
2015-03-12,-1,-0.0024268480161511036,-0.0018919834410856976,-0.006323890093038778,0.005663447181647782,0.9923361155851349
2015-03-16,-1,-0.0018406672183319194,-0.0014250601047676454,-0.006323890093038778,0.005663447181647782,0.9926664009297927
2015-03-18,-1,-0.0022172139440046488,-0.0017809698094277968,-0.004689562760475061,0.006085595222191905,0.9921649571899386
2015-03-20,-1,-0.0020307719373016606,-0.0016320255514480286,-0.006769025460177515,0.0067704827654454965,0.9913662876980147
2015-03-24,-1,-0.002365418826447176,-0.0019252856457282468,-0.006769025460177515,0.0067704827654454965,0.9914561192555882
2015-03-26,-1,-0.0033429632020543637,-0.00278447971718251,-0.005452362493259968,0.0067704827654454965,0.9915100427870424
2015-03-30,-1,-0.0023137496029512644,-0.0019285106329397083,-0.006769025460177515,0.0062134712130912815,0.9916187343425046
2015-04-01,-1,-0.0021051974509423968,-0.0017768828712830542,-0.006769025460177515,0.0062134712130912815,0.9910335937232124
2015-04-06,-1,-0.0011377785473648725,-0.0009255309964416776,-0.006769025460177515,0.0062134712130912815,0.991646435892388
2015-04-08,-1,-0.001365962426820591,-0.0011030736649362445,-0.0073298801550251294,0.00660577895532047,0.9912867657045761
2015-04-10,-1,-0.000669475971285695,-0.000491177290526804,-0.0073298801550251294,0.0072018452146038,0.9907176666272705
2015-04-14,-1,-0.001257254560332359,-0.0009912516569801466,-0.0073298801550251294,0.0070469814999162125,0.9908818778353166
2015-04-16,-1,-0.0013329338116632914,-0.001060094883684312,-0.005950625752420508,0.007678055984734889,0.9901008157384027
2015-04-20,-1,-0.0008995861720769615,-0.0006797697566902559,-0.007401198133464831,0.006161849974862086,0.990177130477375
2015-04-22,-1,-0.0012626728372415615,-0.0010071695875795322,-0.005639314058209173,0.006161849974862086,0.9905288064552034
2015-04-24,-1,-0.0009872569334483034,-0.0007927100443772806,-0.006868505050100801,0.006161849974862086,0.9905214940167149
2015-04-28,-1,-0.0011610650381862517,-0.0009566605052479061,-0.004403463598537255,0.007596990483852206,0.9907933989161075
2015-04-30,-1,-0.002295189744032818,-0.00197297454864007,-0.0046666925855425034,0.007596990483852206,0.9918370993494735
2015-05-04,-1,-0.0017728020100685768,-0.001511566258068524,-0.006868505050100801,0.004775439055011945,0.9920370749953679
2015-05-06,-1,-0.0022051615457109154,-0.0018579975824333356,-0.007988770629981028,0.0017776150186615,0.9922254965806138
2015-05-08,-1,-0.001254722338201357,-0.0010019861455861107,-0.008435910998559122,0.0005336877118267746,0.9917823713509886
2015-05-12,-1,-0.0022849589811273566,-0.0018972459243047537,-0.007988770629981028,0.002756905959676761,0.9917864750523143
2015-05-14,-1,-0.00019810768360692377,-0.00013035211252000365,-0.008435910998559122,0.0013024060604474752,0.9919508501314253
2015-05-18,-1,-0.001233733801182244,-0.0010013352459162259,-0.008435910998559122,0.0013024060604474752,0.9922277064122313
2015-05-20,-1,-0.0013282043874517815,-0.0010888212255237395,-0.008435910998559122,0.0062493793385946395,0.990849955085938
2015-05-22,-1,-0.00186136207237166,-0.0015550174155745003,-0.008435910998559122,0.00967140825349253,0.9907017880131458
2015-05-27,-1,-0.0019020369357631173,-0.001549928423237507,-0.009602952906523443,0.0061075984900359395,0.9908214333260594
2015-05-29,-1,-0.002757928015414385,-0.0022795685996439665,-0.009602952906523443,0.0072644201112639735,0.9906136842548025
2015-06-02,-1,-0.0026313871282280573,-0.002219128476508279,-0.009602952906523443,0.0072644201112639735,0.9900904027922275
2015-06-04,-1,-0.0028820317560560647,-0.0024683565409107456,-0.007102322688302416,0.0072644201112639735,0.9901730635137738
2015-06-08,-1,-0.0037972096918455385,-0.003305138027781019,-0.003623026536733406,0.010383896452040148,0.988588641061701
2015-06-10,-1,-0.0023851633412392812,-0.0021029734851531626,-0.007102322688302416,0.00967140825349253,0.9897017320524537
2015-06-12,-1,-0.0026183159271838357,-0.002360122635170046,-0.002388577826978897,0.00967140825349253,0.9899238584987101
2015-06-16,-1,-0.002118879732285569,-0.0019518448062008434,-0.002265159077401303,0.007681728808458385,0.9909566714131195
2015-06-18,-1,-0.0009151219092983392,-0.0008844705514993926,-0.002265159077401303,0.006648453912438825,0.9907266488715432
2015-06-22,-1,-0.0007242633337933618,-0.0007042977147099829,-0.002265159077401303,0.006648453912438825,0.9907663185330614
2015-06-24,-1,-0.00164593520752324,-0.0014912144134598085,-0.002264416223053437,0.007213420245056271,0.9908085487447883
2015-06-26,-1,-0.000650167162142705,-0.0006447709307903777,-0.002264416223053437,0.007213420245056271,0.9914069722115538
2015-06-30,-1,-0.001238418758434137,-0.0011585041927494526,-0.002264416223053437,0.008044051029082566,0.9903872134423025
2015-07-02,-1,-0.0013215478094543453,-0.0012179915667738734,-0.002401287950607627,0.008044051029082566,0.990334544114665
2015-07-07,1,0.0013305094014365126,0.001630712001076084,-0.002401287950607627,0.006160714525755024,0.9930184089982309
2015-07-09,1,0.0009049342140674057,0.0011516038955194175,-0.0010022639099965113,0.007213420245056271,0.9933031456591254
2015-07-13,1,0.001396086715006396,0.0017286870514750807,-0.0016639132245746765,0.006308372161178058,0.9935141645066318
2015-07-15,1,0.0015258093385525616,0.0018924935646444604,-0.0007779406943610088,0.006308372161178058,0.9936828480679978
2015-07-17,1,0.0029587963948317936,0.0035210042608302982,-0.0017283183037011191,0.004854717530050961,0.9951938767429314
2015-07-21,1,0.003330306989641779,0.003956899443366826,-0.0018591730795071654,0.004162635327451596,0.9948294125121466
2015-07-23,1,0.0037027776587660677,0.004396826795517594,-0.0019730247606383673,0.003555472616181629,0.994302280323139
2015-07-27,1,0.0039636911876089875,0.004685510280574399,-0.00452366494144124,0.003555472616181629,0.9916668448469058
2015-07-29,1,0.0024068429568898,0.0027923413843763266,-0.004291692585265082,0.003555472616181629,0.9926690458247395
2015-07-31,1,0.0023324687742476502,0.0027022372918643943,-0.003821761637347667,0.004854717530050961,0.992403473824218
2015-08-04,1,0.0022172005350429413,0.0025324471266423227,-0.007409545154627898,0.003555472616181629,0.9904477946136115
2015-08-06,1,0.0024453078596493724,0.0027905354961876537,-0.007409545154627898,0.00511459764665049,0.9895765978786379
2015-08-10,1,0.0021514075707035423,0.002431945927848155,-0.009054813982083717,0.008587869982741627,0.9877669035526068
2015-08-12,1,0.0021726460396031735,0.002455551947900675,-0.009312926285105619,0.008587869982741627,0.9873097559192768
2015-08-14,1,0.002002992123200082,0.0022514055007215846,-0.011359968712635823,0.008587869982741627,0.9866792634652785
2015-08-18,1,0.001448912163431272,0.001582967179731471,-0.011359968712635823,0.012332970958495932,0.9849326789011168
2015-08-20,1,0.0012565494082172252,0.001380981448731028,-0.012268268702003322,0.012332970958495932,0.9842063221232789
2015-08-24,-1,-0.00020643318051420987,-0.00013852772803819884,-0.011094255479681098,0.015553716939424238,0.9854381147669357
2015-08-26,1,0.0006902972673400327,0.0007682807733986253,-0.011094255479681098,0.010470312093303798,0.9867492262366359
2015-08-28,1,0.0011490221234141166,0.0012900928471611243,-0.011094255479681098,0.009916257957645037,0.9872830195597253
2015-09-01,1,0.00033836757849284554,0.0003981429742920181,-0.009282131483911549,0.009916257957645037,0.9887100319424713
2015-09-03,1,0.0009691356139839452,0.0010999992338937468,-0.009282131483911549,0.006487339059092385,0.9894293056129291
2015-09-08,1,0.0009152532731524373,0.001036150947225908,-0.007688186945844973,0.006487339059092385,0.9905105216117404
2015-09-10,1,0.0009402439705472451,0.0010812405047330785,-0.006136976599975328,0.009583337296023673,0.9904354281131923
2015-09-14,1,0.000394326503197183,0.000447362915278958,-0.003917112981018956,0.011532143005396832,0.9902256603691523
2015-09-16,1,0.0017597046280090453,0.0019903078406976163,-0.003917112981018956,0.008516668278448866,0.9930551534327123
2015-09-18,1,0.0009884537236822249,0.001104444244129382,-0.001641197530752043,0.009492801322293527,0.9932091806919402
2015-09-22,1,0.0005519725840302192,0.0005580431072442712,0.0007020093122318292,0.009492801322293527,0.9933725240024436
2015-09-24,1,0.0008423679599723062,0.0009041334509956887,0.0007020093122318292,0.011532143005396832,0.9925555932442246
2015-09-28,1,0.0008014702695927253,0.0008540613502894467,0.0007020093122318292,0.011532143005396832,0.9922727172192058
2015-09-30,1,0.00101804274892952,0.0011432105064243553,0.0007020093122318292,0.011532143005396832,0.9923612225795058
2015-10-02,1,0.0008958283423617044,0.0009739308457621947,0.0007020093122318292,0.009492801322293527,0.9920949780929529
2015-10-06,1,0.001423851690151596,0.0016116464841865684,6.835751412689623e-05,0.008516668278448866,0.9912055122951764
2015-10-08,1,0.0016925384006216734,0.0018949985112322837,-4.521975851726342e-05,0.006618909732503013,0.9917950815194269
2015-10-12,1,0.0020769173193945197,0.002322408114813973,-0.0022955034169514954,0.005603543609284561,0.9915042784007282
2015-10-14,1,0.0018708502273888494,0.002068705246645195,-0.005194818800658129,0.005855617899391341,0.9911093022980114
2015-10-16,1,0.0024272125016311175,0.0027126816532128404,-0.006241714950383551,0.0037668862766522156,0.9907052709126282
2015-10-20,1,0.0025956674301950275,0.002879877324477164,-0.006241714950383551,0.0037668862766522156,0.9908535779823889
2015-10-22,1,0.003022662081545886,0.00334049116962335,-0.006241714950383551,0.005855617899391341,0.9915241543108322
2015-10-26,1,0.002642660885516614,0.00288192825001382,-0.006273761215567332,0.006343587202724368,0.9914873338133622
2015-10-28,1,0.0019762182771244923,0.002079073587199792,-0.006273761215567332,0.004009706372269693,0.991912550507708
2015-10-30,1,0.0016779776672462255,0.0017603826185833451,-0.0052462261984252846,0.004936950484718261,0.9926314691670112
2015-11-03,0,-6.0823725744853425e-06,0.00015476363945668154,-0.0032182228956373817,0.005452134607127845,0.9949905453362177
2015-11-05,0,-9.243878669380875e-05,8.397085086939106e-05,-0.0052462261984252846,0.006780773872920326,0.993304874969472
2015-11-09,-1,-0.00021952108209114863,-6.224458674372726e-05,-0.004346521033398544,0.006780773872920326,0.9939109287244311
2015-11-11,-1,-0.00017795180138622363,-3.0310046566431835e-05,-0.004512142707919151,0.005452134607127845,0.9936289778580771
2015-11-13,-1,-0.0010139727352450807,-0.0007449376816548298,-0.0029877999241464046,0.006780773872920326,0.9930762851516816
2015-11-17,-1,-0.0008046389564229955,-0.0005656777563880484,-0.003372470330376159,0.006780773872920326,0.9920103228196633
2015-11-19,-1,-0.0007668817994605567,-0.0005099752488504752,-0.0065125790230796,0.004519554127759716,0.9912663326340551
2015-11-23,-1,-0.00080129874423546,-0.0005394840654617581,-0.005281630509011648,0.00513259820363415,0.9913793397737959
2015-11-25,0,-8.63995460187843e-05,1.9422983897366688e-05,-0.005281630509011648,0.005505922888831357,0.9905414990710686
2015-11-30,-1,-0.000381430166573553,-0.00021757933945164564,-0.005281630509011648,0.007097600243449409,0.9903991349002821
2015-12-02,-1,-0.00025813590520611183,-0.00011476598867245409,-0.009124285902434647,0.007097600243449409,0.9900787834984541
2015-12-04,0,-6.951020898072032e-05,5.801544636379832e-05,-0.009124285902434647,0.007097600243449409,0.9901917359813966
2015-12-08,1,0.00032286661703172877,0.00035418665093212313,-0.010673471398317029,0.010730648616797456,0.9889431016365781
2015-12-10,-1,-0.00012859885037557397,-5.246281672456184e-05,-0.009124285902434647,0.011222349693102717,0.988808332232811
2015-12-14,1,5.998525096653475e-05,0.00011064830653497885,-0.009124285902434647,0.010730648616797456,0.9889369985551199
2015-12-16,1,0.0006868208710586787,0.0007122095645561629,-0.011047242653949546,0.008358656071464543,0.9891610503783275
2015-12-18,-1,-4.840951593331421e-05,-8.654908938198283e-07,-0.011047242653949546,0.010730648616797456,0.9887463792492356
2015-12-22,1,0.00016213935151206728,0.00018674092565279158,-0.011047242653949546,0.011222349693102717,0.9883780986308137
2015-12-24,1,0.0004373984006426011,0.00045694091995933557,-0.011047242653949546,0.010730648616797456,0.9885252202518289
2015-12-29,1,0.0007504595489812812,0.0008248581620000174,-0.011047242653949546,0.010782833941767751,0.9885929932202613
2015-12-31,1,0.0005050390117117808,0.0005479029933913439,-0.005608156301195108,0.012134580337426676,0.9878438352886931
2016-01-05,1,0.0006095358507058321,0.0006657802738442507,-0.008224597572244835,0.010782833941767751,0.9886002982544292
2016-01-07,1,0.00043273683816763965,0.00046422402220571953,-0.006358105355548979,0.010032666826325372,0.9893810348613673
2016-01-11,1,0.0007598262767390247,0.0008199297945876863,-0.006358105355548979,0.008108600366317083,0.990008331780745
2016-01-13,0,-4.725013954192905e-05,5.763548066582615e-06,-0.0061663057322474705,0.008108600366317083,0.9909364403416898
2016-01-15,-1,-0.001308601472948177,-0.0010236388630673102,-0.0035904391365294045,0.006524288399934593,0.9916587913544411
2016-01-20,-1,-0.001024471041843299,-0.0007990111691433293,-0.0014448203361675104,0.005492468929312565,0.9934002559397757
2016-01-22,-1,-0.0002065840060171953,-0.00010024818334745559,-0.0014448203361675104,0.005492468929312565,0.9939866555343756
2016-01-26,-1,-0.0006919685180682672,-0.00046319152165742055,-0.0026460585992309498,0.005407229048301752,0.9941936953803665
2016-01-28,1,0.0001116175138398357,0.00020634236374099054,-0.0035904391365294045,0.005407229048301752,0.9932853455813065
2016-02-01,1,0.0006664322674029049,0.0007063069596344114,-0.003454596542098965,0.005358362790413802,0.9945158483230774
2016-02-03,-1,-0.00015615821120742106,-1.0853222901999334e-05,-0.0013995394713573637,0.005407229048301752,0.9946283030678571
2016-02-05,-1,-0.0006237206058574201,-0.00039291039898067023,-0.0013995394713573637,0.005492468929312565,0.9936133506674436
2016-02-09,1,0.0006653869747253601,0.0006720161735337261,-0.0013995394713573637,0.007992171365144948,0.9934791056718605
2016-02-11,-1,-0.0001313214278166782,-4.346177212878827e-06,-0.001392493505498527,0.007992171365144948,0.9928529903699121
2016-02-16,0,-1.6751662384690516e-05,9.837077318054587e-05,-0.002464390312194106,0.007992171365144948,0.9930469503833733
2016-02-18,1,0.00018780675667321519,0.0002703226670081409,-0.002464390312194106,0.007992171365144948,0.9929552809441131
2016-02-22,1,0.0004051822841812802,0.0004667604730188412,-0.0028820572354580284,0.005780287108385861,0.9927945696195303
2016-02-24,1,0.0002709985921890847,0.0003602182518513977,-0.005710823320708237,0.0070228530008326325,0.9922565185069333
2016-02-26,1,0.000388152283298276,0.0004507766099968862,-0.004952045890451395,0.0070228530008326325,0.9927138629882234
2016-03-01,1,0.0005768161371500906,0.0006067364621390678,-0.004952045890451395,0.007992171365144948,0.9921272507296685
2016-03-03,1,0.0010136488776525763,0.0010652939769696058,-0.003971819965113023,0.0070228530008326325,0.9927179888457394
2016-03-07,1,0.0010326950416116175,0.0011176027888973258,-0.0030003386875104582,0.0065480585137654606,0.9938882385528794
2016-03-09,1,0.0014460954760360455,0.0015854432163381511,-0.0030003386875104582,0.006410338742496658,0.9940620603951423
2016-03-11,1,0.0013261518063739145,0.0014825355336030616,-0.0030003386875104582,0.006410338742496658,0.994302404799448
2016-03-15,1,0.0014753131028206056,0.001680642729739227,-0.00547848277484096,0.0065480585137654606,0.9928655687985993
2016-03-17,1,0.002130373800358471,0.0024712504649813142,-0.007693462321642762,0.0065480585137654606,0.9926937292420297
2016-03-21,1,0.0018378979017197189,0.002139931910825131,-0.007469343772485898,0.007027030130870544,0.9926862056776773
2016-03-23,1,0.00170758156679773,0.0019938183857353096,-0.007469343772485898,0.0068537796706669984,0.9921748813825423
2016-03-28,1,0.0015866202502261154,0.0018283370029349997,-0.005408191568234525,0.0068537796706669984,0.9925193751786376
2016-03-30,1,0.001295277762915388,0.0014166283670039629,-0.005408191568234525,0.00620875043473484,0.9929373868470621
2016-04-01,1,0.0015075809873376922,0.0016601418638044335,-0.005408191568234525,0.007972038387370586,0.9924471042838967
2016-04-05,1,0.0010717771019779733,0.0011326537424204335,-0.004645090628691464,0.007972038387370586,0.9924053048571606
2016-04-07,1,0.0012397420158251765,0.0013226658629701227,-0.00647572462105116,0.006889570805885591,0.9926734043467559
2016-04-11,1,0.0008076304091573468,0.0008146961766352641,-0.0043373146470820296,0.007972038387370586,0.9926621438637214
2016-04-13,1,0.000168422742039283,0.0002423002304373337,-0.0008156519536862108,0.008048515313926283,0.9935141173527232
2016-04-15,1,0.00013788831895475144,0.0001955564728883256,-0.0008156519536862108,0.008048515313926283,0.9932969309994301
2016-04-19,1,0.00012480597120573708,0.00018252696852500016,-0.0008156519536862108,0.006993892518236716,0.993239571517694
2016-04-21,-1,-0.0008412268770346484,-0.0006645766095906636,0.00039470612620070373,0.006993892518236716,0.9930121093309989
2016-04-25,-1,-0.00027895752127605366,-0.00016853673563078404,-0.0014229424191748766,0.0063937865527148715,0.9936579933509477
2016-04-27,0,-8.113853623401896e-05,1.492117137045552e-06,-0.0014229424191748766,0.006993892518236716,0.9934738053424319
2016-04-29,1,0.0006902780353685327,0.0007176535290109098,-0.0020078270233985914,0.00587278275998041,0.9945102525394732
2016-05-03,1,0.0007712773448411922,0.0007973117470152568,-0.0052914079855183715,0.00587278275998041,0.9940354021515792
2016-05-05,1,0.00012498340710433793,0.0002104652469163372,-0.001719541292488006,0.006933532809956441,0.9935096625453222
2016-05-09,1,0.0005735170733582686,0.0005989300043681414,-0.0024010698136707276,0.00587278275998041,0.9939401675691902
2016-05-11,1,0.001353422603694253,0.0014690412953028602,-0.0024010698136707276,0.00587278275998041,0.9942573232046116
2016-05-13,1,0.0007044126647032664,0.0007326793908751538,-0.0024010698136707276,0.004764267495246954,0.9936407339738946
2016-05-17,1,0.0004229531535243693,0.00046852621113644853,-0.0015320449740709352,0.006059978930375846,0.9941017225949144
2016-05-19,1,0.00023020532670217032,0.00028677046218061284,-0.0015320449740709352,0.007317811852889773,0.9941600216252734
2016-05-23,1,0.00029984697617846796,0.0003333914165715811,-0.0008516324701909512,0.007501482288908465,0.9941267096908805
2016-05-25,1,0.00032334726320330505,0.00037520633564629515,-0.0008516324701909512,0.007155713605878115,0.9945005739820598
2016-05-27,1,0.0003713467222457654,0.0004153928576993975,-0.0008490828890921032,0.008363384049858527,0.9934361430746682
2016-06-01,1,0.00036590343841213407,0.00043059952516157237,-0.0007607253089083029,0.007501482288908465,0.9941349671355534
2016-06-03,1,0.0012089385147538662,0.0012883805090122646,-0.0006344821933395143,0.007501482288908465,0.9942448725580584
2016-06-07,1,0.0004198691318682076,0.0004920881988249559,0.0002709566893150892,0.008127908967695364,0.9938536970850652
2016-06-09,1,0.0005208171824632938,0.0006146513233133914,-0.00033410115865590217,0.007872993467503671,0.9937582557667985
2016-06-13,-1,-0.00025085687701246887,-4.736448099055591e-05,-0.00033410115865590217,0.007872993467503671,0.9939609362299291
2016-06-15,1,0.00037004288528195127,0.0004689390605021399,-0.0006344821933395143,0.007872993467503671,0.994210276604581
2016-06-17,1,0.0005522084288077801,0.0006105104243748274,-0.0006344821933395143,0.007416510455511234,0.9945981283159215
2016-06-21,1,0.0011231706912340719,0.001158163765040048,-0.001462594516910318,0.0072443016411059425,0.9949199636244688
2016-06-23,1,0.0015926186883121543,0.0017321576209918504,-0.002495604094879434,0.0072443016411059425,0.9947596742266711
2016-06-27,1,0.0020079738957595283,0.0021557319973555616,-0.0031397924803235225,0.0021808668992335965,0.994766550230034
2016-06-29,1,0.0018435847596582119,0.001957746660083776,-0.003607686782173217,0.003635224211902621,0.9939836554830086
2016-07-01,1,0.00256578707181375,0.0027960779596056524,-0.003607686782173217,0.003635224211902621,0.994035229172327
2016-07-06,1,0.0026091696974596774,0.0028207667949853646,-0.004942882038596514,0.0021808668992335965,0.9931424470347769
2016-07-08,1,0.0025892802131569953,0.002803922833603642,-0.00418864539163319,0.0021808668992335965,0.9935747423752905
2016-07-12,1,0.001999270236746591,0.002141586957987998,-0.003607686782173217,0.002228743487139472,0.9946017014926314
2016-07-14,1,0.0020724502632845877,0.002241246958642358,-0.003607686782173217,0.002291994868476298,0.9945973472826101
2016-07-18,1,0.0021300526513882653,0.0023058070673982545,-0.00418864539163319,0.0019073781419689136,0.9945073505660583
2016-07-20,1,0.001950976953270319,0.0021061529884346853,-0.00418864539163319,0.002221032587529325,0.9947874813512244
2016-07-22,1,0.001801453794706652,0.0019384698235813836,-0.002838386271581821,0.002221032587529325,0.9948672737427012
2016-07-26,1,0.0013242829596772528,0.0014121552504518812,-0.0016863204451807627,0.002221032587529325,0.995770708482605
2016-07-28,1,0.0006138816916525275,0.000635144012583182,-0.0025996778491643078,0.0018454923816672083,0.9966232869001759
2016-08-01,1,0.0011690393965340469,0.0012523197798207856,-0.0025996778491643078,0.0018454923816672083,0.9966194303280735
2016-08-03,1,1.3674412474614067e-05,0.00010515924481268018,-0.0016863204451807627,0.002221032587529325,0.9976808483364316
2016-08-05,0,-4.690335756422838e-05,6.040218330541933e-05,-0.0016863204451807627,0.003060674640207516,0.9973558848466942
2016-08-09,1,0.00010674557056629112,0.00018268756922339865,-0.0025248420134755195,0.003216253880583655,0.9968746368404303
2016-08-11,-1,-0.0001769698685442192,-4.460840044448217e-05,-0.003849220407967183,0.003060674640207516,0.9947717880166324
2016-08-15,-1,-0.0007353450324764961,-0.0005240959887906495,-0.003849220407967183,0.0032607385285643564,0.9933978784472282
2016-08-17,-1,-0.0006205219107629065,-0.00042774319537539844,-0.004584483024643427,0.0032607385285643564,0.9931650242902276
2016-08-19,-1,-0.00040969398723872673,-0.00027029201297511224,-0.005288701458648089,0.0032607385285643564,0.9928826880938246
2016-08-23,-1,-0.00021077693908447428,-0.0001083053296909604,-0.005288701458648089,0.004014832578700347,0.9923314878793011
2016-08-25,-1,-0.0006879988674133701,-0.0005225874731291001,-0.005288701458648089,0.0042722379453709255,0.9920771494037759
2016-08-29,-1,-0.0004348673506149559,-0.00031266812233020385,-0.006853407100409765,0.0046469198618781515,0.9914505537615194
2016-08-31,-1,-0.0005303510162768532,-0.00039297383393184954,-0.0071216758983959055,0.00536520632174379,0.990697755028472
2016-09-02,-1,-0.0005572465738443376,-0.000379369658282203,-0.0071216758983959055,0.005220158844809981,0.9907336700760739
2016-09-07,-1,-0.0009259432237217174,-0.0006884032125656936,-0.010086216360557938,0.005082394078013677,0.9901782877297322
2016-09-09,-1,-0.003023580551252164,-0.002537879264486524,-0.007602073127271038,0.006671628970150365,0.9917776582462089
2016-09-13,-1,-0.003696854520994634,-0.0030807692991927163,-0.006853407100409765,0.005082394078013677,0.9930980399876941
2016-09-15,-1,-0.003484198697516057,-0.0029276803383644252,-0.0062860259481537575,0.006671628970150365,0.9926534367650135
2016-09-19,-1,-0.0037399047331731993,-0.0031630954310319257,-0.00449336330832459,0.006671628970150365,0.9926896025602301
2016-09-21,-1,-0.0027527481084391606,-0.0023289599803110574,-0.006773462507212098,0.005082394078013677,0.9929743099820407
2016-09-23,-1,-0.0023247235807885526,-0.001966277530203945,-0.006773462507212098,0.005082394078013677,0.9920102732279257
2016-09-27,-1,-0.0025962176644280972,-0.0022024843721427257,-0.00449336330832459,0.006671628970150365,0.9917041014609066
2016-09-29,-1,-0.002600989986495132,-0.0022300533771049767,-0.0037683072844619317,0.0045466455166255585,0.9926968160162076
2016-10-03,-1,-0.0022267812284591324,-0.001926924885994464,-0.0031259402687132927,0.005133096699897243,0.99184578503136
2016-10-05,-1,-0.003199396603210612,-0.0027863490660624797,-0.0031259402687132927,0.005133096699897243,0.9921014370462891
2016-10-07,-1,-0.00295276617338275,-0.002550557341208691,-0.0037683072844619317,0.0037347558676363436,0.9925797948568615
2016-10-11,-1,-0.003023169843987712,-0.002599699927183301,-0.0037683072844619317,0.008767809948717956,0.991515263407497
2016-10-13,-1,-0.0024735809705782458,-0.0021159675592315984,-0.006543243538397128,0.004946326950576581,0.9895390631746235
2016-10-17,-1,-0.002344208246722143,-0.002020886051205201,-0.009341792742644038,0.004946326950576581,0.9892364664707319
2016-10-19,-1,-0.0026083241332166725,-0.0022555966661630586,-0.006430720716660618,0.0110372635388267,0.9885813225590483
2016-10-21,-1,-0.0014627531651145893,-0.0012544334142254947,-0.006430720716660618,0.009082818313276302,0.9900500441504148
2016-10-25,-1,-0.0006159238269944963,-0.0005306733012108939,-0.006430720716660618,0.009082818313276302,0.9900074710600583
2016-10-27,-1,-0.0008176784320681762,-0.0007041049900830594,-0.006430720716660618,0.009082818313276302,0.9896460023414645
2016-10-31,1,0.000285542234685465,0.00032441963320494036,-0.006430720716660618,0.008306653588430971,0.990479410832002
2016-11-02,-1,-0.0005319523537315026,-0.00044472961506874923,-0.009572953073239179,0.008306653588430971,0.9894331942425314
2016-11-04,-1,-0.0007756358237274476,-0.0006728318407135782,-0.007698818735547718,0.009082818313276302,0.988683527377914
2016-11-08,1,5.2145338053202384e-05,5.6487661113413996e-05,-0.007698818735547718,0.010629396170833052,0.9884647161351383
2016-11-10,-1,-0.001936482016628926,-0.001721333323607246,-0.0013131114716594446,0.012528192997715822,0.9901692020051447
2016-11-14,-1,-0.0021465034500578895,-0.0019126236601786585,-0.0006687558033438662,0.012528192997715822,0.9900398447584705
2016-11-16,-1,-0.0006747175431004172,-0.0006562826330577325,-0.0013131114716594446,0.009153497198480805,0.9912112933792839
2016-11-18,-1,-0.0005671997549510848,-0.0005620474862614134,-0.0013131114716594446,0.011858923327325127,0.990226576782958
2016-11-22,1,0.0005177175811889898,0.0006887582453038965,-0.0037689171551447244,0.010997853454496338,0.9914142710212933
2016-11-25,1,0.0008882578655820399,0.0011305198043060753,-0.0023292305440610972,0.010997853454496338,0.9917576629114779
2016-11-29,1,0.0013074007526486637,0.0016101528688675032,-0.004977773411285794,0.010997853454496338,0.9919724289531151
2016-12-01,1,6.249701937137756e-05,0.0001782406338484147,-0.0016270643269989634,0.010997853454496338,0.9930360901993757
2016-12-05,1,0.00046642947883746727,0.0006400798553470096,-0.000833215934631569,0.0072561410353715146,0.9942567472767555
2016-12-07,1,0.0015001989717869856,0.0018197109259188418,-0.000833215934631569,0.004898727952428063,0.9956754362536101
2016-12-09,1,0.0019119413945279744,0.0022831114480999742,-0.0033860262070594276,0.004525489801334452,0.9958493672367058
2016-12-13,1,0.002106461605943902,0.0025007164444379947,-0.0033860262070594276,0.004525489801334452,0.9955274990053348
2016-12-15,1,0.0017275199002943814,0.0020480300535010427,-0.0023982943962282425,0.004571325988880221,0.9958054120616457
2016-12-19,1,0.002171830109359384,0.002526132899879462,-0.0023982943962282425,0.004571325988880221,0.996028534989303
2016-12-21,1,0.0020877986839134147,0.002446280602455639,-0.001292614182700618,0.005753040571887297,0.9961680657649753
2016-12-23,1,0.001963230625561824,0.0022689658835408815,-0.001292614182700618,0.0051869495414373955,0.9963525502012046
2016-12-28,1,0.0018860139833754726,0.0021851962462552735,-0.001162792072543478,0.0051869495414373955,0.9965002001584363
2016-12-30,1,0.001939220902124486,0.0022471605554573136,-0.001162792072543478,0.0047220390152522464,0.9966565297217277
2017-01-04,1,0.0020741828394777104,0.002403118758464712,-0.001162792072543478,0.0047220390152522464,0.9967312878125477
2017-01-06,1,0.0020952789639953466,0.0024122261882851036,-0.0015834002736445022,0.004260725383716021,0.9965540180074404
2017-01-10,1,0.0018813246889890617,0.002174461708596449,-0.0007777589319969206,0.00588279980218194,0.9964450732622046
2017-01-12,1,0.0017297154216063516,0.0019981929629496,0.0002467693151963327,0.00588279980218194,0.9964690722931112
2017-01-17,1,0.002184389280436712,0.0025157200299353076,-0.001111779122499502,0.004944037547031753,0.9966079356174028
2017-01-19,1,0.0024905654163653052,0.0028451694549904392,-0.001111779122499502,0.0042039745930177765,0.9968420472995223
2017-01-23,1,0.0029118366728503376,0.003324710699123559,-0.001111779122499502,0.0038595819382620904,0.9968644786030217
2017-01-25,1,0.003022534865445412,0.003446939905502431,-0.001111779122499502,0.0042039745930177765,0.9962655043107081
2017-01-27,1,0.0031747864859625425,0.003639069660075047,-0.0007607546153155953,0.0042039745930177765,0.9962888566614074
2017-01-31,1,0.0031455567715964715,0.003599083262830821,-0.0006823103865444375,0.005404851955659247,0.9962343350166805
2017-02-02,1,0.002277794686423838,0.0025258962290981143,-0.0007607546153155953,0.005404851955659247,0.9960168236501199
2017-02-06,1,0.002128630275872133,0.0023527459935080678,-0.0006823103865444375,0.0070306483903264504,0.9960201621337175
2017-02-08,1,0.002276484277261925,0.002507118896759071,-0.0007506075991385157,0.005254286000746915,0.9962927615101731
2017-02-10,1,0.00212082091303502,0.00231049235998795,-0.0010044467076175253,0.00518131531233927,0.9958646421189866
2017-02-14,1,0.0019388348129404022,0.002123050780674106,-0.0004718953848971395,0.00518131531233927,0.9959975370470537
2017-02-16,1,0.0022372318209152153,0.002467192218050694,-0.0018896668467987216,0.004471922636012056,0.9958375498666964
2017-02-21,1,0.002351007207874554,0.0025754405347077052,-0.0018896668467987216,0.004619003309075125,0.9959563822225768
2017-02-23,1,0.0025281885390787103,0.0027514572594230786,-0.003586910825874672,0.004471922636012056,0.9950315248640007
2017-02-27,1,0.0024260559564493406,0.0026305819040224926,-0.004295812556464741,0.004471922636012056,0.994409965348022
2017-03-01,1,0.0021869381161462773,0.002307264539688656,-0.004295812556464741,0.003654378807246784,0.9944769689617763
2017-03-03,1,0.002146678175732258,0.0022763143833253864,-0.009174070502557722,0.003654378807246784,0.9934664780440023
2017-03-07,1,0.0022005911702612027,0.002330764918430021,-0.009174070502557722,0.003654378807246784,0.9936411209376209
2017-03-09,1,0.002244151439276565,0.0023925159854159732,-0.009174070502557722,0.0029534124352153584,0.9934326318000287
2017-03-13,1,0.0017867279139440024,0.0018591413519086736,-0.007503691015225738,0.003115425200418495,0.9941143209418529
2017-03-15,1,0.0014982835516654882,0.001508244924374489,-0.007503691015225738,0.003115425200418495,0.9944669500837026
2017-03-17,1,0.0017420583446158986,0.001816471593839248,-0.009389553798646234,0.004160201241535208,0.9936093021373691
2017-03-21,1,0.0021890735147114897,0.0023492791423808004,-0.009389553798646234,0.0015325275179246178,0.9934114053068028
2017-03-23,1,0.0011132124567757378,0.0011166227955673787,-0.007503691015225738,0.0015325275179246178,0.9947331335973876
2017-03-27,1,0.0010920534753989337,0.0011408952999416777,-0.004157092744980042,0.003115425200418495,0.994581287607336
2017-03-29,1,0.0005466008159514576,0.0005979429835566018,-0.007503691015225738,0.003115425200418495,0.9942575557788769
2017-03-31,-1,-0.0006290928446434602,-0.00041542917220625103,-0.004157092744980042,0.0036364028756518743,0.9943939045042919
2017-04-04,1,3.4043504219112846e-05,0.00013974062363863304,-0.00747073680313895,0.0017061867430024106,0.994402724090939
2017-04-06,-1,-0.0020924968171013455,-0.001590322538343451,-0.004537573270255871,0.0036364028756518743,0.993866695488503
2017-04-10,-1,-0.002313563250398348,-0.0017620064657340691,-0.0066078406743268455,0.0018349847430738204,0.9940430678111445
2017-04-12,-1,-0.001655899225613603,-0.0012263867688847433,-0.0066078406743268455,0.0015657120409234013,0.9942273784396995
2017-04-17,-1,-0.0017022253749529766,-0.0012652306741141501,-0.0038694607020426735,0.0015642268881658904,0.9952305035553489
2017-04-19,-1,-0.0014077268444987062,-0.0010483492190140945,-0.005713197498930433,0.0024134908401634357,0.994944974884203
2017-04-21,-1,-0.001848110184322687,-0.0014399668901593796,-0.0036302243822403683,0.0026872190005863875,0.9949762093993605
2017-04-25,-1,-0.0011555651849871943,-0.0008439410186378993,-0.0036302243822403683,0.0026872190005863875,0.9949974850646044
2017-04-27,-1,-0.002814549483147119,-0.0022270425512709315,-0.0008465978077934116,0.004247419059749757,0.9935129292462677
2017-05-01,-1,-0.003150838422192062,-0.0025418014207951476,0.00017683515475574467,0.005996590230235908,0.9932439887157943
2017-05-03,-1,-0.0028962960484424406,-0.00237389935072428,0.00017683515475574467,0.005996590230235908,0.9932950105217184
2017-05-05,-1,-0.002213279127233268,-0.0017953197255311366,-0.0005973738787043853,0.004972451334351018,0.9942859251760782
2017-05-09,-1,-0.0025317085509334817,-0.0020873571920007688,0.00017683515475574467,0.004972451334351018,0.9936710536789565
2017-05-11,-1,-0.002618428132757762,-0.002150793521031159,-0.00023888899147613972,0.004972451334351018,0.9935961495221459
2017-05-15,-1,-0.0020333218851286564,-0.0016764147614524395,-0.0007960159446261469,0.004972451334351018,0.9940179760488101
2017-05-17,-1,-0.002322034580676556,-0.0019166520026071433,-0.0005964488341799805,0.00875212017753398,0.9931577379390008
2017-05-19,-1,-0.00200520301515225,-0.0016483211249455623,-0.0005964488341799805,0.009147789933473233,0.9927558308317266
2017-05-23,-1,-0.0014079235969098314,-0.0011120718634698365,-0.0015274712053023924,0.00875212017753398,0.993838827507495
2017-05-25,-1,-0.00026404645818096944,-0.0001023266630066895,-0.003755012923937034,0.00508762389987668,0.9952113693451186
2017-05-30,1,0.000232187993966401,0.0003334839093790519,-0.004132122767868996,0.004620036034909573,0.9950328318743831
2017-06-01,1,0.00041102515127521954,0.0004808109159033369,-0.004990036611139221,0.004778890145440676,0.9940296350361633
2017-06-05,0,-0.00010497799144587545,4.1639932826328984e-05,-0.004990036611139221,0.004778890145440676,0.9942284772636953
2017-06-07,0,-2.198256987307937e-05,0.00012528104840248312,-0.004990036611139221,0.0038840661334881275,0.9943588549594408
2017-06-09,1,0.00010484348400783958,0.00021253503383434545,-0.005159512785765143,0.0021961099454129024,0.9943370402232475
2017-06-13,1,8.900425348870047e-05,0.0001709572413428929,-0.004137653071110395,0.005698740301200679,0.9941896605968203
2017-06-15,1,0.0010569614848723416,0.00112101177306878,-0.005054638971321047,0.0021961099454129024,0.9943459965262993
2017-06-19,1,0.0016723499548251264,0.001826958822004329,-0.005946555316012973,0.0008394596016717931,0.9941260156610371
2017-06-21,1,0.00127650260136603,0.001377220006366413,-0.005946555316012973,0.0009739965329645934,0.9948546396680462
2017-06-23,1,0.0009748473152178226,0.0010376166128164103,-0.006047064985858331,0.0009739965329645934,0.9947361666336664
2017-06-27,1,0.0004502379020044101,0.0004504837671750083,-0.005926482528744507,0.0009739965329645934,0.9949897789995336
2017-06-29,-1,-0.00020208892893377567,-0.00011259763924474815,-0.005926482528744507,0.0009739965329645934,0.9901827576236741
2017-07-03,1,0.0001446787878568161,0.0001720865526069816,-0.007180307289853813,0.0015551016229527444,0.9883203551803084
2017-07-06,1,7.04476659126018e-05,9.963156424951598e-05,-0.007180307289853813,0.0013225922631685517,0.9885402466900464
2017-07-10,-1,-0.0005725428463465729,-0.0004504524873452747,-0.005926482528744507,0.0037811331047116732,0.9887081977750286
2017-07-12,-1,-0.00016148265100725983,-0.00011194081672109336,-0.0071884685747853954,0.0013225922631685517,0.9886384223652886
2017-07-14,1,0.00018046699337498424,0.00020137334436574607,-0.0077480932005364045,0.0005986686553681678,0.988328933839527
2017-07-18,1,9.296907512569256e-05,0.0001299714200185102,-0.0073935980894669125,0.004023737238023324,0.9880386492253269
2017-07-20,1,0.0002896821689615843,0.00035757359050053576,-0.008512163642119768,0.003496370113820797,0.9871830923694875
2017-07-24,1,8.365957441413595e-05,0.00015933294885081727,-0.008512163642119768,0.007114217888382227,0.9868921063424806
2017-07-26,-1,-0.0003850383345615472,-0.0003699497376442428,-0.008512163642119768,0.007114217888382227,0.9870271850226925
2017-07-28,-1,-0.003062564809773208,-0.0027812308451940137,-0.0073935980894669125,0.007114217888382227,0.9925782772199692
2017-08-01,-1,-0.003806993776593791,-0.0034475239876822937,-0.005873213091399224,0.003496370113820797,0.9941733946702862
2017-08-03,-1,-0.0037851127065475767,-0.003419358022352689,-0.0073935980894669125,0.004594516670277861,0.9938922105814222
2017-08-07,-1,-0.0032648433631877927,-0.0029663855687686253,-0.008512163642119768,0.0026630456281783446,0.9939765444350855
2017-08-09,-1,-0.0037300646732611673,-0.003368020157027596,-0.00833492131166768,0.004411483977329106,0.9936344096546891
2017-08-11,-1,-0.0039446170951261605,-0.003586655954769694,-0.008111717262235908,0.004724152487209977,0.9933926520865396
2017-08-15,-1,-0.003702418045658706,-0.0033222839321342653,-0.008111717262235908,0.0026630456281783446,0.9941952483646352
2017-08-17,-1,-0.004533454095287012,-0.004036680200788395,-0.006090370178226586,0.002596442205610787,0.9947410078507607
2017-08-21,-1,-0.004370897877483744,-0.003891378727784889,-0.005322124970170488,0.0023373510247575962,0.9953963014868665
2017-08-23,-1,-0.005301761220199241,-0.004671649489633948,-0.005948890910807762,0.002983918642075836,0.9941907490381613
2017-08-25,-1,-0.004670335479595337,-0.0041351398324761795,-0.005948890910807762,0.0038654150212623656,0.9928469712675619
2017-08-29,-1,-0.00493096115560957,-0.0043537957684940945,-0.005948890910807762,0.004276974824581732,0.9920834657629131
2017-08-31,-1,-0.004935803619614719,-0.004373445675860073,-0.005948890910807762,0.004276974824581732,0.9923345359881364
2017-09-05,-1,-0.004993778266557736,-0.004442409808240897,-0.005948890910807762,0.005020826367525464,0.9921610792626929
2017-09-07,-1,-0.0048662449895892496,-0.004340284952001833,-0.004078294356047603,0.004690276245023834,0.9921095269355084
2017-09-11,-1,-0.004869302384064297,-0.004342613366114934,-0.004078294356047603,0.005648153308847208,0.9909334497151409
2017-09-13,-1,-0.004911886994311254,-0.0043662852100548565,-0.004078294356047603,0.00846503568624184,0.9899347973004672
2017-09-15,-1,-0.00446420178455262,-0.004007307408282328,-0.004761688082871555,0.00846503568624184,0.9898531836748514
2017-09-19,-1,-0.0047324027010334346,-0.004222345679037518,-0.0053551388360038865,0.00846503568624184,0.9895452314079636
2017-09-21,-1,-0.0052995032810756616,-0.004706689298221408,-0.005140195770896055,0.00846503568624184,0.9900515344063108
2017-09-25,-1,-0.0036392680037819793,-0.00322706900305996,-0.007003939031570043,0.007417545188191392,0.9919637009387756
2017-09-27,-1,-0.002802008784963836,-0.002513225198434499,-0.007003939031570043,0.005629956158518405,0.9925327708413629
