JNU-Tangyin/eata/results/Batch4_SP500/Batch4_SP500-HTLF.csv
Date,Action,Predicted_Q25,Predicted_Q75,Actual_Q25,Actual_Q75,RL_Reward
2010-12-14,0,0.0,0.005267794032586873,-0.0069287621398791445,0.007902457487203788,0.9875010997585092
2010-12-16,1,0.006018061982603724,0.0069998249274832005,-0.011396363484421357,0.008340871050899954,0.9823263968282179
2010-12-20,1,0.004339249350551437,0.005129274329382023,-0.017359630691618003,0.008340871050899954,0.9804791253044408
2010-12-22,1,0.005242243469720924,0.006108930242244747,-0.017359630691618003,0.004460352788577744,0.978857220971914
2010-12-27,0,0.0,0.0,-0.017359630691618003,0.012233679724725725,0.9797481721604877
2010-12-29,0,0.0,0.0,-0.017359630691618003,0.01399454002293832,0.9784039157175037
2010-12-31,0,0.0,0.0,-0.01936501434971019,0.026174753764406037,0.973428138547962
2011-01-04,0,0.0,0.0,-0.029397577068483838,0.026174753764406037,0.9721484685109576
2011-01-06,0,0.0,0.0,-0.021274961658984466,0.026174753764406037,0.9727491532570023
2011-01-10,0,0.0,0.0,-0.014703000652794607,0.026174753764406037,0.974481118487519
2011-01-12,-1,-0.0037476673689565464,-0.003321493192737171,-0.016811166762709117,0.007774235730725558,0.9772676416987668
2011-01-14,1,0.001495080525405791,0.0015245003303603064,-0.014856691535626656,0.007353480251676159,0.9771540762406954
2011-01-19,0,0.0,0.0,-0.011864379127009952,0.00833139453131164,0.9809081081002999
2011-01-21,0,0.0,0.0,-0.009126951943462405,0.00833139453131164,0.9814175381189321
2011-01-25,-1,-0.0009794400989855383,-0.0006810346332942805,-0.014674668184242998,0.004226410853726046,0.9809701953781745
2011-01-27,1,0.0009793659979597824,0.0010901957734112035,-0.014674668184242998,0.007229725062266713,0.9808443163090045
2011-01-31,0,0.0,0.0,-0.014674668184242998,0.005709640222831515,0.9859034363732685
2011-02-02,-1,-0.0007140072912212469,-0.0004297243272961209,-0.014674668184242998,0.005709640222831515,0.9882139131325857
2011-02-04,-1,-0.00428705158063589,-0.003835495219738948,-0.01737373243405526,0.005709640222831515,0.9867003724175831
2011-02-08,-1,-0.005657803624124773,-0.00503795933500098,-0.01737373243405526,0.012342157126870156,0.9833181966370168
2011-02-10,-1,-0.0035773006190135195,-0.0032592934696676077,-0.01857455312252626,0.012342157126870156,0.9808912464436408
2011-02-14,0,0.0,0.0,-0.02172073481654372,0.010353392509072358,0.9796226223773175
2011-02-16,0,0.0,0.0,-0.02172073481654372,0.010496042042295284,0.97940737255863
2011-02-18,-1,-0.005483424450061915,-0.004784301851292315,-0.02172073481654372,0.01641524613509905,0.9773274827169258
2011-02-23,-1,-0.001807733745567931,-0.0014806109006108557,-0.021291715597446633,0.019998108810908403,0.9762378330454818
2011-02-25,-1,-0.0020805926739918433,-0.001573986917918005,-0.021291715597446633,0.016193182865298767,0.978201859147643
2011-03-01,0,0.0,0.0,-0.021291715597446633,0.017986364239628613,0.9782252075821315
2011-03-03,-1,-0.0016042873429762583,-0.0012772342522133647,-0.017228219954690156,0.017986364239628613,0.9790730504812073
2011-03-07,-1,-0.004223988322335476,-0.003665281498008698,-0.006251946806477033,0.01930689137918924,0.9797137773639991
2011-03-09,-1,-0.0028031561872671274,-0.0024257611564242523,-0.006251946806477033,0.017749322954651033,0.9819257581164584
2011-03-11,-1,-0.004767757552667381,-0.004154049445868364,-0.006251946806477033,0.017749322954651033,0.9831155125191153
2011-03-15,0,0.0,0.0,-0.006251946806477033,0.017749322954651033,0.9834782659085723
2011-03-17,-1,-0.007684223922873816,-0.006793395231070214,-0.011569574054056793,0.017749322954651033,0.9802068179176772
2011-03-21,-1,-0.006706913014923084,-0.005950539517868909,-0.014055151079390074,0.0162752957432866,0.9822680929086286
2011-03-23,-1,-0.004598235719559748,-0.00410234290649717,-0.014055151079390074,0.012429960167333965,0.9847431875292673
2011-03-25,-1,-0.0029410533033350653,-0.002642264902413653,-0.014632450781735029,0.012429960167333965,0.984565406135817
2011-03-29,0,0.0,0.0,-0.014632450781735029,0.012429960167333965,0.9818747418965308
2011-03-31,0,0.0,0.0,-0.014632450781735029,0.007167639173421306,0.9820059207403418
2011-04-04,0,0.0,0.0,-0.020607611662031476,0.003929543553759792,0.9808760010125608
2011-04-06,1,0.002698748017584582,0.0030808840384990055,-0.02328588636367972,-0.0027251293247575513,0.9794319534610709
2011-04-08,1,0.0008723237187810846,0.000990816197567816,-0.020607611662031476,0.00033367653014039576,0.981907421554315
2011-04-12,-1,-0.0020034074829309275,-0.0017283521256238141,-0.01902594694657469,0.003929543553759792,0.9837894536020982
2011-04-14,-1,-0.0036033647345654566,-0.0031744119554400286,-0.01902594694657469,0.006377648806615921,0.9850223358922543
2011-04-18,-1,-0.00427683470686248,-0.0036909782312447553,-0.01998794099243463,0.006377648806615921,0.9853694474476797
2011-04-20,-1,-0.004264138511771291,-0.00369392633592528,-0.01998794099243463,0.008472270207744822,0.983885787362847
2011-04-25,-1,-0.00513528586402649,-0.004433055349272959,-0.02142687435488919,0.008472270207744822,0.9829999900559971
2011-04-27,-1,-0.002510181687529218,-0.002140889189321118,-0.02142687435488919,0.006377648806615921,0.9857709503692064
2011-04-29,-1,-0.0035132056406461595,-0.0029512677316533755,-0.02142687435488919,0.005250484342172425,0.986275625577623
2011-05-03,-1,-0.004435363743635883,-0.0038479427418572736,-0.02142687435488919,0.008472270207744822,0.985447291367526
2011-05-05,-1,-0.0034621912807226837,-0.003127963517882929,-0.02156314267735179,0.008472270207744822,0.9848867942608216
2011-05-09,-1,-0.002323766035259538,-0.002176481612760253,-0.02156314267735179,0.007211450090615587,0.9844780342921289
2011-05-11,-1,-0.002052671866658453,-0.0019571429320912838,-0.0174290893516139,0.007888062347288618,0.9855889797223812
2011-05-13,-1,-0.0029025736297540613,-0.0026460672807531622,-0.013504422025827321,0.007888062347288618,0.9844522082578107
2011-05-17,-1,-0.0029322576476136426,-0.0027083976162651864,-0.013504422025827321,0.00949634490130585,0.982722615040068
2011-05-19,-1,-0.0017499453895150256,-0.0016684921824219028,-0.013796320188045625,0.00949634490130585,0.9824452242729284
2011-05-23,-1,-0.0025473180898942203,-0.0024074505951061117,-0.008791210691683742,0.016004067295302637,0.9812774175975573
2011-05-25,-1,-0.0031153501808919397,-0.0028499799582518345,-0.013796320188045625,0.016004067295302637,0.9792534411868835
2011-05-27,-1,-0.0021947836000851357,-0.0021111371233249916,-0.013796320188045625,0.017504850478558934,0.9779322231858792
2011-06-01,-1,-0.003745147200281946,-0.0034402309861799756,-0.008855794215989962,0.017504850478558934,0.9802599375188928
2011-06-03,-1,-0.004655160052282311,-0.004190292093509212,-0.007423480452505285,0.017504850478558934,0.9806752779718371
2011-06-07,-1,-0.0039089762122466315,-0.0036470071999886713,-0.004422514438595921,0.017504850478558934,0.9804036250441736
2011-06-09,-1,-0.002018470889497691,-0.0020006210820602,-0.007423480452505285,0.022896160746911105,0.9797613068423822
2011-06-13,-1,-0.0017734193655086013,-0.0016518841452349315,-0.008855794215989962,0.017504850478558934,0.9820302926975104
2011-06-15,-1,-0.004129499747289498,-0.003719009845971212,-0.008855794215989962,0.022896160746911105,0.9822748566840431
2011-06-17,-1,-0.002652560297319557,-0.0024659271509859695,-0.009605405890302973,0.023042199084308095,0.9812411915461009
2011-06-21,1,0.0005535581059078438,0.0008455358654700129,-0.010195601420994009,0.017869234242384097,0.9818644987265577
2011-06-23,-1,-0.0003422290626611292,-0.00021965834012095345,-0.010195601420994009,0.022100867061328973,0.981793987731287
2011-06-27,1,0.0007164146084314503,0.0009631240318231313,-0.010195601420994009,0.022982090645585443,0.9810521464027105
2011-06-29,0,-2.1707989431019145e-05,0.00011233545846651451,-0.017335671741351512,0.022982090645585443,0.9797741974560088
2011-07-01,1,0.0006618653872592295,0.000899206111536335,-0.017335671741351512,0.022982090645585443,0.9794428652143256
2011-07-06,1,0.0008550092258572619,0.0010775805180996889,-0.017335671741351512,0.022982090645585443,0.9787646884276655
2011-07-08,1,0.0010293121334708445,0.0012860275275323565,-0.022645298705010364,0.01805847767439632,0.9766200012410656
2011-07-12,1,0.0007340534390166528,0.0009528258298882928,-0.024149026834592455,0.02320002150411343,0.9700964110949835
2011-07-14,1,0.0007036025781668546,0.0009188763206173124,-0.0258851935814434,0.01805847767439632,0.9674312529386684
2011-07-18,1,0.00022302175177102147,0.00031243845452886036,-0.022645298705010364,0.01805847767439632,0.9688304427753106
2011-07-20,1,0.002397664445077909,0.002871641114491865,-0.022645298705010364,0.017332294376836477,0.9705009525604706
2011-07-22,0,0.0,0.0,-0.02461607402147239,0.015213767321694365,0.9713268172692159
2011-07-26,0,0.0,0.0,-0.02461607402147239,0.015213767321694365,0.97102517647049
2011-07-28,1,0.002358125034297293,0.0027007229847110354,-0.03198109627786147,0.014164825779797567,0.9691648369896694
2011-08-01,1,0.003873352047062796,0.004561161211099471,-0.03198109627786147,0.018486917414782374,0.9654552140899944
2011-08-03,1,0.0035086760882427482,0.003994907829744465,-0.03198109627786147,0.015357192851121715,0.9656653891343774
2011-08-05,-1,-0.0019488777783038262,-0.0016615571754630474,-0.03616778535884893,0.015357192851121715,0.9654896266201695
2011-08-09,1,0.0015093825333788759,0.0016265548140940757,-0.022273992410641562,0.015357192851121715,0.9703771279512231
2011-08-11,-1,-0.002136753946541899,-0.001958248975631004,-0.03250516388359462,0.015357192851121715,0.9723831847276823
2011-08-15,-1,-0.0005542311919499408,-0.0004446534931126017,-0.03250516388359462,0.019492263525565746,0.9722383042030266
2011-08-17,-1,-0.0011748130970491858,-0.0011720976568190449,-0.03250516388359462,0.029602397516216718,0.9706225599944452
2011-08-19,-1,-0.0012830255304001146,-0.0012342363609482605,-0.033103493434257676,0.03138227563406083,0.9687103573059995
2011-08-23,0,0.0,0.0,-0.03909892254553792,0.02960086138542059,0.9666142499504163
2011-08-25,1,3.8612272260627714e-05,0.00034812528906027086,-0.035564450368946975,0.03138227563406083,0.9675024940456216
2011-08-29,1,0.004415282167484172,0.005371677835820507,-0.035564450368946975,0.029274466223775317,0.9706289264847117
2011-08-31,0,0.0,0.0,-0.03909892254553792,0.03040155401832889,0.9637037832180559
2011-09-02,-1,-0.0020493282327755206,-0.001942968323213863,-0.035564450368946975,0.03040155401832889,0.9636816496280348
2011-09-07,0,0.0,0.0,-0.035564450368946975,0.03040155401832889,0.9609240629480308
2011-09-09,0,0.0,0.0,-0.029707886000127325,0.03138227563406083,0.9606776720749484
2011-09-13,-1,-0.002145931078043407,-0.001947862645872309,-0.029707886000127325,0.034950948733373594,0.9591106895706724
2011-09-15,-1,-0.0006059632803867058,-0.0005660272709274108,-0.029707886000127325,0.03656900058251421,0.9599173066234851
2011-09-19,1,0.0013521404124555493,0.0016406032333308414,-0.029707886000127325,0.03656900058251421,0.9607867918957086
2011-09-21,-1,-0.0022115824221484387,-0.00204804898504615,-0.016542469444280873,0.046043388449287764,0.9604196914747813
2011-09-23,-1,-0.001148045761170065,-0.0010368616744915384,-0.016542469444280873,0.03656900058251421,0.9620033741576979
2011-09-27,1,0.00021470483559314055,0.0002188077423425419,-0.0196718470690501,0.03656900058251421,0.958561701464074
2011-09-29,1,0.002133286978212672,0.002366323992821026,-0.016542469444280873,0.047637186005288934,0.9585797178409473
2011-10-03,-1,-0.0018213870495632197,-0.0015855021723906277,-0.0196718470690501,0.047637186005288934,0.9586901119847989
2011-10-05,1,0.001672701185174514,0.00183797779089217,-0.02808681482242341,0.041369458514194414,0.9593248273804359
2011-10-07,1,0.0017072810806111735,0.0018398176490198091,-0.024458641303434434,0.04005800460971215,0.959775003491266
2011-10-11,1,0.004377501452689055,0.004916595516961025,-0.024458641303434434,0.03716009906942893,0.9609717597045849
2011-10-13,1,0.004419120878437491,0.004893683622281931,-0.036757964299122536,0.03716009906942893,0.9591419018348617
2011-10-17,1,0.0028835873964183556,0.0031420343469911447,-0.03102057547474138,0.03716009906942893,0.9589444489716555
2011-10-19,1,0.0047040201934273815,0.0051922186860011155,-0.03102057547474138,0.03467747927134446,0.9612910560822825
2011-10-21,0,0.0,0.0,-0.03102057547474138,0.03467747927134446,0.9614540814274753
2011-10-25,0,0.0,0.0,-0.03102057547474138,0.03467747927134446,0.9654097368848552
2011-10-27,0,0.0,0.0,-0.03186597224137541,0.013985803594275724,0.9697160747884747
2011-10-31,0,0.0,0.0,-0.03186597224137541,0.02458260574277723,0.9693917933177705
2011-11-02,0,0.0,0.0,-0.030350549823020618,0.02458260574277723,0.9689618447375993
2011-11-04,0,0.0,0.0,-0.030350549823020618,0.024086113069366956,0.9699907145212859
2011-11-08,0,0.0,0.0,-0.030350549823020618,0.01991527732633212,0.9706149110612987
2011-11-10,0,0.0,0.0,-0.030350549823020618,0.01991527732633212,0.9705688808857119
2011-11-14,0,0.0,0.0,-0.027211199658730506,0.018527805118851347,0.9712016244527641
2011-11-16,1,0.002148225156403477,0.0023337985131606366,-0.025743286327028225,0.018527805118851347,0.9692687993352634
2011-11-18,1,0.001706943442705031,0.0017501271650710074,-0.026616626283194438,0.018527805118851347,0.967657664276398
2011-11-22,1,0.00044387214004147516,0.0005409056242673202,-0.025743286327028225,0.022611036518142825,0.9660533708057997
2011-11-25,-1,-0.0012314624526749468,-0.0009567041996736438,-0.021481450506700073,0.022611036518142825,0.9683306962725103
2011-11-29,-1,-0.0003640624348231518,-0.00020168962443020032,-0.021481450506700073,0.018527805118851347,0.9715553468893959
2011-12-01,1,0.0020111955915274584,0.0021063623590655643,-0.024057773731023784,0.018373594313394786,0.9749831842563932
2011-12-05,1,0.003025716647435289,0.0032710508085305404,-0.024057773731023784,0.018373594313394786,0.9746769139430244
2011-12-07,1,0.003855119506896326,0.0042010423753449915,-0.024057773731023784,0.015475047871653677,0.974648979092143
2011-12-09,1,0.003364904372778042,0.0037239788380562244,-0.02062178278130902,0.015704119564743095,0.9765010897675291
2011-12-13,1,0.0016411833023078095,0.001769389692958051,-0.012309577229149136,0.015704119564743095,0.9791450431378512
2011-12-15,1,0.0052381075901128836,0.0059223606773041,-0.01575300168108575,0.014585222955436447,0.9811612307155682
2011-12-19,1,0.003698826967966665,0.00415759086254722,-0.011035774868032347,0.015704119564743095,0.9827579283805891
2011-12-21,1,0.005073807083475532,0.005734699838566318,-0.010290857196786005,0.014794909918050613,0.985750063367009
2011-12-23,1,0.004766177749702101,0.005389634471503416,-0.010038554734417558,0.014794909918050613,0.9865238980494507
2011-12-28,1,0.002249393383063594,0.002349745031405727,-0.006273667560229873,0.014794909918050613,0.9879588659487715
2011-12-30,0,0.0,0.0,-0.006465928626388978,0.014585222955436447,0.9880789004622931
2012-01-04,0,0.0,0.0,-0.006465928626388978,0.009968334582175544,0.9893666821886319
2012-01-06,0,0.0,0.0,-0.005424088819351417,0.009996564301275383,0.9889083556152202
2012-01-10,0,0.0,0.0,-0.005424088819351417,0.006537763296827059,0.9910829900073383
2012-01-12,0,0.0,0.0,-0.006913035313304873,0.006537763296827059,0.9906041489804699
2012-01-17,0,0.0,0.0,-0.005424088819351417,0.008385904367628781,0.9902544210811212
2012-01-19,0,0.0,0.0,-0.005424088819351417,0.008385904367628781,0.9894386878756855
2012-01-23,1,0.002974198294765716,0.0032478030041170154,-0.007611062413135609,0.005572813909746323,0.9892817640298451
2012-01-25,1,0.0027599302500294883,0.0029891646929401084,-0.013126176800882324,0.006200611451086099,0.9868623101428511
2012-01-27,0,0.0,0.0,-0.014126868056513614,0.006200611451086099,0.9863815083019645
2012-01-31,0,0.0,0.0,-0.014126868056513614,0.006200611451086099,0.9854839920295856
2012-02-02,0,0.0,0.0,-0.016843735475763528,0.002064860352907011,0.9836773361995053
2012-02-06,0,0.0,0.0,-0.01987547144718285,0.002064860352907011,0.9822256319882351
2012-02-08,1,0.0008157118538578667,0.001058101217257008,-0.01987547144718285,0.013278881747534733,0.9804790423221165
2012-02-10,1,0.0009065054565119712,0.0011543978446209337,-0.01987547144718285,0.01699837024601369,0.9797203785687899
2012-02-14,1,1.6915064699946894e-05,0.00017197627064385646,-0.0173870493596329,0.0232151376541899,0.9792758254025786
2012-02-16,1,0.0004473561424611414,0.0005018918048282613,-0.013755307930904523,0.019829944546726184,0.9806538001274975
2012-02-21,0,0.0,0.0,-0.01651126923103818,0.019829944546726184,0.9798201401676762
2012-02-23,0,0.0,0.0,-0.011070696621607243,0.017207247390328157,0.9819133151340129
2012-02-27,0,0.0,0.0,-0.00760044944788222,0.019829944546726184,0.9810984307696974
2012-02-29,0,0.0,0.0,-0.00760044944788222,0.019829944546726184,0.9826639812793788
2012-03-02,0,0.0,0.0,-0.002798198403691551,0.019829944546726184,0.9832638101939295
2012-03-06,-1,-0.0015475725350560065,-0.0013172603133782428,-0.002798198403691551,0.018619653251309848,0.9843663225079303
2012-03-08,0,0.0,0.0,-0.009502662332473572,0.01699965499200266,0.983644476694008
2012-03-12,0,0.0,0.0,-0.018586473602632856,0.013267987387020532,0.9827128447662303
2012-03-14,0,0.0,0.0,-0.018586473602632856,0.01699965499200266,0.9809096936485929
2012-03-16,0,0.0,0.0,-0.021274905604101873,0.013267987387020532,0.9800571448842452
2012-03-20,0,0.0,0.0,-0.021274905604101873,0.013738789340681096,0.9790641430007238
2012-03-22,0,0.0,0.0,-0.021274905604101873,0.02005161525796462,0.97673861584497
2012-03-26,0,-0.00014291524126056813,0.000263374855741443,-0.021274905604101873,0.020714264183812288,0.9755588697803076
2012-03-28,-1,-0.001269199238942279,-0.0006540509976200016,-0.021274905604101873,0.021369207572978208,0.9746988466883467
2012-03-30,1,0.000776424961927711,0.0009150866850746828,-0.020461147895166894,0.021369207572978208,0.9753423757923974
2012-04-03,-1,-0.0007846089851219313,-0.0002768622102458944,-0.015401726791068387,0.03124479656118324,0.974226530284352
2012-04-05,0,0.0,0.0,-0.012887656412371686,0.03124479656118324,0.9763130234696189
2012-04-10,0,0.0,0.0,-0.0055292642465985045,0.03124479656118324,0.9779720521844424
2012-04-12,-1,-0.0034108365811026066,-0.0030810452283798967,-0.011559287690201925,0.01884004486607501,0.9803368810262032
2012-04-16,0,0.0,0.0,-0.012768534427098157,0.01884004486607501,0.9806377080900021
2012-04-18,0,0.0,0.0,-0.011850158099199877,0.017398662788019496,0.9824629783519006
2012-04-20,0,0.0,0.0,-0.011850158099199877,0.01676283559686354,0.9845650804813946
2012-04-24,1,0.9800829010991297,0.9846275706415919,-0.011850158099199877,0.01676283559686354,0.5050392379410275
2012-04-26,1,0.0018740884976800785,0.001966207098476604,-0.011850158099199877,0.01473416542436972,0.9853984851687115
2012-04-30,1,0.0026945610750693837,0.002950690759412301,-0.012427519254338808,0.01286730448209247,0.985110057405556
2012-05-02,1,0.0045498744566713385,0.005098761502462657,-0.01410787666965491,0.010876310891979511,0.9851345308774225
2012-05-04,1,0.003440355012393816,0.0037732093477833815,-0.015996130731260872,0.014042794151089506,0.982708787074324
2012-05-08,1,0.0027292874906105855,0.002890850974661157,-0.015996130731260872,0.014138286556411053,0.9819449592543261
2012-05-10,1,0.0026145920314362783,0.002911138899971466,-0.015607443636448034,0.020094103448311272,0.9815644533902547
2012-05-14,1,0.0009751455386086608,0.0009783262776223288,-0.01289425026990171,0.023828976421111786,0.98204330956961
2012-05-16,0,0.0,0.0,-0.01289425026990171,0.02629495160676832,0.9809207764240843
2012-05-18,0,0.0,0.0,-0.009226652023929038,0.027899037783676688,0.9798920263926015
2012-05-22,0,0.0,0.0,-0.005408621843615263,0.029587629360550288,0.9793885243113784
2012-05-24,0,0.0,0.0,-0.009226652023929038,0.027899037783676688,0.9799496401355138
2012-05-29,0,0.0,0.0,-0.006871696697192299,0.027899037783676688,0.9794833235268501
2012-05-31,0,0.0,0.0,-0.0003506095146841694,0.027899037783676688,0.9800303519246469
2012-06-04,0,0.0,0.0,-0.0003506095146841694,0.028789176728600586,0.9808080494785187
2012-06-06,0,0.0,0.0,-0.0003506095146841694,0.02629495160676832,0.9818613315994853
2012-06-08,0,0.0,0.0,-0.0026899809134603124,0.02381101336743149,0.9833191169792448
2012-06-12,1,0.0013812232767684925,0.001521334015622346,-0.0026899809134603124,0.022392819053334918,0.9844119181260169
2012-06-14,0,0.0,0.0,-0.002200481647309873,0.02168017896145725,0.9845752794910337
2012-06-18,0,0.0,0.0,-0.00401021094028178,0.02168017896145725,0.9845282270982322
2012-06-20,0,0.0,0.0,-0.00968971378034525,0.01910261316564172,0.9849415683726014
2012-06-22,0,0.0,0.0,-0.013804501808615064,0.015328771227303912,0.9844380164085011
2012-06-26,0,0.0,0.0,-0.012655074426631507,0.015328771227303912,0.9848602734593922
2012-06-28,1,0.005965927815012365,0.006721222565158249,-0.012655074426631507,0.01925806270974353,0.9822063160878625
2012-07-02,1,0.00565791491678983,0.0063602747545644465,-0.012655074426631507,0.01925806270974353,0.9796726375297437
2012-07-05,1,0.005970671848028105,0.006689732152984873,-0.018412284570551742,0.015328771227303912,0.9775469113690737
2012-07-09,1,0.005226292609240363,0.005815722161445272,-0.018412284570551742,0.01756214010824227,0.9775355482699144
2012-07-11,1,0.00532979143820282,0.005951357502201855,-0.020175609481280023,0.01756214010824227,0.9761824592283919
2012-07-13,1,0.005400849105902954,0.005992136408640655,-0.020175609481280023,0.02168053285799308,0.974909337922884
2012-07-17,1,0.006367070478981746,0.007106872016618944,-0.020175609481280023,0.018055899710371925,0.975560939851226
2012-07-19,1,0.0048247598328637325,0.005311038485105363,-0.018412284570551742,0.018055899710371925,0.9778130597051347
2012-07-23,1,0.002360496301974979,0.002420108783923749,-0.01402619149646777,0.018055899710371925,0.9802074916917862
2012-07-25,1,0.0009532553587243614,0.001158206639232739,-0.011054507212659447,0.018055899710371925,0.9802932713098071
2012-07-27,1,0.0024935806533998724,0.0025522449089443403,-0.0142948380174018,0.007056178731722445,0.9815614517337542
2012-07-31,1,0.005096162572031127,0.005418473740109864,-0.011054507212659447,0.015773143547633883,0.9837923162200488
2012-08-02,1,0.0031836983609674417,0.0033161387631788983,-0.00855530005666822,0.015773143547633883,0.9865935152971119
2012-08-06,1,0.004007749108733314,0.004329552114538226,-0.004710969611645086,0.016511270140928496,0.9865910868070346
2012-08-08,1,0.00333522641718606,0.003582087770461027,-0.00200989794670133,0.016511270140928496,0.9882038842262095
2012-08-10,1,0.004879070537216692,0.005314496392755698,-0.00200989794670133,0.0063897615365999146,0.9894173141412506
2012-08-14,1,0.00422631982551854,0.004559739278705363,-0.00200989794670133,0.00698865949700165,0.9897846950890029
2012-08-16,1,0.004964092672402438,0.005420516729149493,-0.004710969611645086,0.00698865949700165,0.9877868131359442
2012-08-20,1,0.004316549083332093,0.00464406686725471,-0.008109327313022736,0.01135681169335771,0.9874695353206977
2012-08-22,1,0.00305504649749028,0.0031806224145385633,-0.006094914852251919,0.01135681169335771,0.9879024998584975
2012-08-24,1,0.0015135944374168608,0.0016353502900153633,-0.003941504012233402,0.013296246855846513,0.9885523995296434
2012-08-28,1,0.001156413263497194,0.0014715731810597044,-0.005090178616434684,0.010051984478494333,0.9906271014932931
2012-08-30,0,-0.0002906192155774079,0.0002659681263749098,-0.006094914852251919,0.010051984478494333,0.9889242777331076
2012-09-04,1,0.0021471740255647937,0.0022900210433759887,-0.006094914852251919,0.010051984478494333,0.9896088779906279
2012-09-06,1,0.0014163037086019439,0.001687603069046537,-0.006094914852251919,0.010051984478494333,0.9894567694071011
2012-09-10,1,0.0017483468203152285,0.001965798199009959,-0.006094914852251919,0.009415286878816357,0.9897733003793747
2012-09-12,1,0.001638471270505548,0.0018998529653229614,-0.005090178616434684,0.009415286878816357,0.9904943283230531
2012-09-14,1,0.0025538568845233497,0.0027074281115286596,-0.005090178616434684,0.007429448845748098,0.9915734372913163
2012-09-18,1,0.0027301768380115993,0.0028239527043713263,-0.004467623837096618,0.007182692573140972,0.991851764762996
2012-09-20,1,0.0016121255688453684,0.0018218359200287005,-0.001976362636863975,0.008561996457174611,0.9924558897640005
2012-09-24,1,0.0033329019977143288,0.0034387697580470404,-0.0029580317638866374,0.006777902729014195,0.992054549379916
2012-09-26,1,0.002685166532123905,0.002697844981833068,-0.002608866450772796,0.006777902729014195,0.9923796332752294
2012-09-28,1,0.001660417997998544,0.0017800439436134686,-0.001976362636863975,0.006025614375993647,0.9942824577072608
2012-10-02,1,0.0013836834379323888,0.0016064949070084783,-0.001976362636863975,0.006025614375993647,0.993764857959277
2012-10-04,0,0.0,0.0,-0.002608866450772796,0.005769999978552099,0.9921476773154513
2012-10-08,0,0.0,0.0,-0.003255083282991036,0.006925365678475407,0.9894763360131122
2012-10-10,0,0.0,0.0,-0.01278437578903528,0.006925365678475407,0.9872450560903073
2012-10-12,0,0.0,0.0,-0.008452824315308189,0.00754325950057079,0.9870932321737547
2012-10-16,0,0.0,0.0,-0.014033214944499496,0.007810175162405611,0.9859054069532338
2012-10-18,0,0.0,0.0,-0.014033214944499496,0.008571051740210538,0.9844821169957473
2012-10-22,0,0.0,0.0,-0.014836930224329236,0.008571051740210538,0.9838158802093708
2012-10-24,0,0.0,0.0,-0.01513527707900702,0.01023973617805617,0.9825239220230316
2012-10-26,-1,-0.0015430707388977942,-0.000948409702208915,-0.01513527707900702,0.01023973617805617,0.9829505571518806
2012-11-01,-1,-0.0008615904416169303,-0.00035262681280337125,-0.023958446138723728,0.01023973617805617,0.9813209915264641
2012-11-05,-1,-0.001917146544776352,-0.0013097670823563033,-0.015048498318026047,0.018630111187509006,0.980348417729781
2012-11-07,-1,-0.0032502582828461335,-0.0025077970779798136,-0.011809095110109361,0.018630111187509006,0.9829957935482464
2012-11-09,-1,-0.003978872992769304,-0.0032176793529561016,-0.012236663449597784,0.018630111187509006,0.9826747008033441
2012-11-13,0,0.0,0.0,-0.015436162772457965,0.014315951075955567,0.981917685298134
2012-11-15,0,0.0,0.0,-0.012236663449597784,0.010933599945811124,0.983379809159528
2012-11-19,-1,-0.003591165288954399,-0.0028030650878636248,-0.012236663449597784,0.020328770625269426,0.9821364194275366
2012-11-21,-1,-0.003552664570661343,-0.0028644454739475264,-0.007935959723263547,0.020328770625269426,0.9835695741353425
2012-11-26,0,0.0,0.0,-0.00813764016720751,0.006161232421242743,0.9837205128703057
2012-11-28,0,0.0,0.0,-0.01325899300208937,0.006161232421242743,0.9832140851230394
2012-11-30,-1,-0.0026944913174345737,-0.0021274549628299425,-0.01325899300208937,0.006161232421242743,0.9839214309420768
2012-12-04,0,-8.823723073367556e-05,0.00010867468246229957,-0.015179817803275996,0.0013778494548971943,0.9819711384584716
2012-12-06,-1,-0.00029437593064782805,-9.936763648340922e-05,-0.01769348121746176,0.0036859298848726093,0.9808502933025799
2012-12-10,0,0.0,0.0,-0.015179817803275996,0.012847226759553758,0.9820077472202395
2012-12-12,0,0.0,0.0,-0.015179817803275996,0.012847226759553758,0.9823457220291171
2012-12-14,0,0.0,0.0,-0.015430935467204459,0.012847226759553758,0.9807742677414264
2012-12-18,0,0.0,0.0,-0.015430935467204459,0.0034159073161673863,0.9827428582759193
2012-12-20,0,0.0,0.0,-0.015430935467204459,0.010286537570862044,0.9820453921147608
2012-12-24,0,0.0,0.0,-0.018295368646178516,0.010286537570862044,0.9813531681631592
2012-12-27,0,0.0,0.0,-0.018295368646178516,0.011645970303697725,0.9817468532090912
2012-12-31,0,0.0,0.0,-0.02524806920187079,0.009385029753107137,0.9791950873481419
2013-01-03,0,0.0,0.0,-0.018295368646178516,0.011048529355599471,0.9817556301722413
2013-01-07,0,0.0,0.0,-0.018739878779156664,0.011048529355599471,0.9815168021154282
2013-01-09,0,-0.00014184514386069835,0.00010032249425980183,-0.018739878779156664,0.010709221880225168,0.9828149054383564
2013-01-11,-1,-0.0005110684929008469,-0.00027092184514738364,-0.016093812137862085,0.010709221880225168,0.9832245589357927
2013-01-15,-1,-0.002016663779642881,-0.0015815249197126725,-0.00838778997290569,0.011048529355599471,0.9831736475775467
2013-01-17,-1,-0.0006501305280907335,-0.00034431926292139217,-0.00838778997290569,0.010709221880225168,0.9851749499825284
2013-01-22,-1,-0.0007799486822706724,-0.0004124349534617754,-0.02217845936033071,0.009065530942647084,0.9846741104833068
2013-01-24,-1,-0.0005658801496567264,-0.0003183389551488431,-0.00838778997290569,0.009065530942647084,0.9861104908580716
2013-01-28,-1,-0.00044310738118473513,-0.00018801303373544706,-0.010682519797194041,0.009065530942647084,0.9858085118239241
2013-01-30,-1,-0.003756164285635359,-0.0031833718929311296,-0.0041397923064763085,0.010815204854241055,0.9897641702283777
2013-02-01,-1,-0.0018950277670563265,-0.0015392757375907238,-0.00541844269463337,0.009065530942647084,0.990760694500199
2013-02-05,-1,-0.002032886199039784,-0.0016805754338723605,-0.0041397923064763085,0.009183260785235521,0.9912340901475395
2013-02-07,-1,-0.002521881647884949,-0.0020917247752048375,-0.003829808244896303,0.011294588777860059,0.9895970149645184
2013-02-11,-1,-0.001636071514538321,-0.0013878858943137218,-0.006434463140493351,0.011294588777860059,0.989627539414718
2013-02-13,-1,-0.0019104618173715194,-0.0016520107715862092,-0.00541844269463337,0.011294588777860059,0.9900805904991813
2013-02-15,-1,-0.0020593733259783144,-0.0017756536591331889,-0.006434463140493351,0.01201087916534417,0.9893364527428656
2013-02-20,-1,-0.002042704532286449,-0.001809718618859505,-0.006434463140493351,0.01201087916534417,0.9894920789777849
2013-02-22,-1,-0.0016284046629483641,-0.0014496950295451903,-0.006434463140493351,0.01201087916534417,0.9896373267370694
2013-02-26,-1,-0.00205465771900132,-0.0017715546612517977,-0.00541844269463337,0.011632295977783078,0.9899768444375995
2013-02-28,-1,-0.0011785363808044845,-0.0010440647353483897,-0.003644137179753978,0.01139508178908159,0.9908843066476304
2013-03-04,-1,-0.0003635307654924093,-0.00034677774315859775,-0.007300524121994573,0.007835568796174454,0.9903412123391149
2013-03-06,1,0.0002823798793804679,0.0003342569449926501,-0.008519379042374294,0.005620008660035705,0.9907188357246016
2013-03-08,1,0.0014685124366631214,0.0016882566823908404,-0.008519379042374294,0.005570461645769651,0.9912471123034748
2013-03-12,1,0.0007098924084465543,0.0007984333579183125,-0.007282875397695725,0.0070117135897897675,0.9897174261352886
2013-03-14,1,0.001860452033435999,0.002118814958991503,-0.009200729775627931,0.004870419797735521,0.9891253698190184
2013-03-18,1,0.0022856770733160007,0.002611545376642625,-0.01068797465451675,0.004130321009138658,0.986843593314982
2013-03-20,1,0.00185400657296301,0.0020990055477610636,-0.009200729775627931,0.004130321009138658,0.9879489127542219
2013-03-22,1,0.0019074484969956325,0.0021665928499194154,-0.009200729775627931,0.004223713423286412,0.986622161287011
2013-03-26,1,0.0021902969491594372,0.0025103533541135613,-0.009200729775627931,0.004771125447934875,0.9858444389308032
2013-03-28,1,0.002449187861675292,0.002874719659505449,-0.01068797465451675,0.006462774833404419,0.9852668545846857
2013-04-02,1,0.0009722336564914304,0.0011417797267230384,-0.00815815723248415,0.007394355846962553,0.9846005535925941
2013-04-04,0,-1.2815015013453295e-05,1.1895181892274213e-05,-0.00815815723248415,0.00941126274750242,0.9827531886190647
2013-04-08,-1,-0.001054082185131998,-0.0008786358003557884,-0.006285587308614882,0.016535749068746566,0.9822509567226343
2013-04-10,1,0.0007411889911229376,0.0007864943274866422,-0.004989511710733083,0.020851560528289362,0.9828796977002145
2013-04-12,-1,-0.00014525765425443037,-6.787270637431144e-05,-0.0046866705850837145,0.020851560528289362,0.9821418371042026
2013-04-16,-1,-0.0011801958721578212,-0.0010482744269100295,-0.0018568682782420427,0.02145864042309025,0.9836755987416756
2013-04-18,-1,-0.0010027925962656776,-0.0008517040908835366,-0.0028466635284435126,0.02145864042309025,0.9840899888837661
2013-04-22,1,0.0007522397227542731,0.0008590676077222079,-0.0028466635284435126,0.020851560528289362,0.9857135683617877
2013-04-24,1,0.000757583002834682,0.0008524733927515169,-0.0038448032120945615,0.020851560528289362,0.9855432602556281
2013-04-26,1,0.0005951349179257482,0.0006841515362574261,-0.0022862847181471767,0.020851560528289362,0.985908361010474
2013-04-30,1,0.0034248854547906347,0.003995833109490336,-0.0038448032120945615,0.01632768889455213,0.9881109299795692
2013-05-02,1,0.0035893086654104965,0.0041378531203497436,-0.0038448032120945615,0.01168217111015158,0.989603555049507
2013-05-06,1,0.0030673360675671888,0.003447499361618143,-0.009153666876729446,0.01168217111015158,0.9888043943240677
2013-05-08,1,0.003942104480686315,0.004364409906948309,-0.01360319894822189,0.008926120691891162,0.9880817081341841
2013-05-10,1,0.00276296990536371,0.0030379445032919688,-0.005317380452787146,0.008926120691891162,0.9896417601556002
2013-05-14,1,0.004533407786068399,0.005195077442398348,-0.01360319894822189,0.0070297800316395055,0.9890148542651126
2013-05-16,1,0.004137439164893411,0.004726887866300301,-0.01388145025383004,0.008926120691891162,0.9875147575159438
2013-05-20,1,0.004045000435446953,0.004583219749992807,-0.01388145025383004,0.014865845191207011,0.986532052187862
2013-05-22,1,0.003224138420144433,0.0036048852590601583,-0.014835639555532966,0.014865845191207011,0.9855459482232378
2013-05-24,1,0.0036370096392539498,0.004132992676499921,-0.014835639555532966,0.014865845191207011,0.9853382944043779
2013-05-29,1,0.003494907983222299,0.003980806957431611,-0.014835639555532966,0.014545804342087732,0.9857463188104558
2013-05-31,1,0.002876000205005097,0.003257427169495183,-0.013212340609026613,0.014545804342087732,0.9863095283816791
2013-06-04,1,0.0033422059187584634,0.0038406799657932627,-0.01265767555236081,0.012438446040524291,0.9875417948503841
2013-06-06,1,0.003367393418479978,0.0038395045934959456,-0.008785043537116297,0.012438446040524291,0.9895588105221437
2013-06-10,1,0.002845488167730456,0.003185688210330447,-0.01104950857705728,0.012438446040524291,0.9887517514957802
2013-06-12,1,0.002571759010717032,0.002951609652294332,-0.006936261433903528,0.012438446040524291,0.9899043347941293
2013-06-14,1,0.002960819197146882,0.0034158358448788326,-0.0038751757662667517,0.011744900276719246,0.9913939343395166
2013-06-18,1,0.0035235362529700974,0.004004836456477408,-0.0038751757662667517,0.011744900276719246,0.9913074446341241
2013-06-20,1,0.002703325186903788,0.003082978170413425,-0.00045010543217062504,0.011744900276719246,0.9928334610032026
2013-06-24,1,0.0009535533803908039,0.0009715988012946368,-0.00034429534613678915,0.010281471966320078,0.9929844210589696
2013-06-26,1,0.0010876434121247806,0.001154163395314772,0.0004516480998622964,0.010281471966320078,0.9937274843264551
2013-06-28,1,0.0011363644281537897,0.0011695100741443394,-0.0004307560916951983,0.007995407118547244,0.9935260301957297
2013-07-02,1,0.0010759499706610104,0.0011001062134825925,-0.002115453535447866,0.007207724781701748,0.9911986559059957
2013-07-05,1,0.00166254049785984,0.0017723178270447968,-0.0064362090697846885,0.007207724781701748,0.9903037535510195
2013-07-09,1,0.0008807356834982256,0.0009051547332024991,-0.0018367219582972117,0.008480055318694004,0.9903691346950136
2013-07-11,1,0.00080674513379302,0.0008274340628788843,-0.0047804674510669425,0.008480055318694004,0.9894926785130865
2013-07-15,1,0.0007476245278610675,0.0008014657346469877,-0.006595026076162541,0.007207724781701748,0.9888185191077425
2013-07-17,1,0.0016021248051966846,0.0016632319087708945,-0.009018141894871491,0.005078003809555785,0.9889174979788496
2013-07-19,1,0.0016266471048498616,0.0017067360461277938,-0.014897046061859485,0.0024388855510289985,0.9882838117188146
2013-07-23,1,0.0017256501354269273,0.0018239187956677239,-0.014897046061859485,0.0031903947908487945,0.9875087274773713
2013-07-25,1,0.00174647696210268,0.0018694999271993292,-0.014897046061859485,0.003266139430163581,0.9863772225263789
2013-07-29,1,0.0015646522080686922,0.001691400849348997,-0.014897046061859485,0.003266139430163581,0.9867832653284581
2013-07-31,1,0.0005295457541025506,0.0005397301293808613,-0.011269499338767714,0.00297125738819398,0.9893436786205944
2013-08-02,1,0.00024113043915731047,0.00031938834775506757,-0.00981501981575631,0.00297125738819398,0.9901821906115215
2013-08-06,1,0.0009574366734700358,0.0009949280335483316,-0.00981501981575631,0.005999078560954212,0.9895571055915063
2013-08-08,1,0.00027443925654512533,0.00031602915887861746,-0.00981501981575631,0.0070577780540422375,0.9899864769053692
2013-08-12,-1,-0.0005328414919647695,-0.00038487994893256867,-0.005704452479745695,0.00885426284691912,0.9904893382024176
2013-08-14,-1,-0.0011681642390157397,-0.0009487781579333908,-0.0064143456033447935,0.008214127441030325,0.9909166604507512
2013-08-16,-1,-0.0014255993026890345,-0.0011781525385691455,-0.004633876743200423,0.012296589000175178,0.9908688417007196
2013-08-20,-1,-0.0010012496121027774,-0.0007899163446315406,-0.004633876743200423,0.012296589000175178,0.9905444747047188
2013-08-22,-1,-0.0014799589356099066,-0.0011643837330974386,-0.0064143456033447935,0.009498190564863679,0.9903187688329608
2013-08-26,-1,-0.0019556423666198973,-0.0015675349070449656,-0.0064143456033447935,0.009498190564863679,0.9899266047097659
2013-08-28,-1,-0.0023540912361469752,-0.0018917202870047908,-0.004633876743200423,0.010909782997888213,0.9896957942486208
2013-08-30,-1,-0.0010918612753128406,-0.0008392871104584373,-0.0066921611391370485,0.009038891009402267,0.9900885017421988
2013-09-04,-1,-0.001181052580826661,-0.0008940683987351679,-0.01127304236670772,0.008111732566636115,0.990119721742971
2013-09-06,-1,-0.002940242039594167,-0.0023443791200559744,-0.011366045971968393,0.008111732566636115,0.9899677772253417
2013-09-10,-1,-0.0019267657178878793,-0.0014806344054156422,-0.013335158316162467,0.007373913086211577,0.9899675869893987
2013-09-12,-1,-0.0021772729900016077,-0.0017338350930288834,-0.01144902526870617,0.008370836234631213,0.9889599491900484
2013-09-16,-1,-0.0016389868542443207,-0.0012631458793406847,-0.01144902526870617,0.008370836234631213,0.989267305576189
2013-09-18,-1,-0.001204743326744744,-0.0008501781508500533,-0.01144902526870617,0.007373913086211577,0.9903437677895173
2013-09-20,-1,-0.0015263746294339187,-0.0012309745763941535,-0.003758583069397146,0.007412895048415043,0.9913468512686082
2013-09-24,-1,-0.0011153759155111975,-0.0008870351935360073,-0.0030623518062932184,0.00869946782467114,0.9906815796303327
2013-09-26,-1,-0.000666375067878424,-0.0004982240890828156,-0.0037452952974699767,0.00869946782467114,0.9901277008503486
2013-09-30,1,0.00027651477239749866,0.000314772457064197,-0.005513596001721142,0.00869946782467114,0.990270142967723
2013-10-02,-1,-0.0012782019923825657,-0.0010607553496992936,-0.007941689278256149,0.00869946782467114,0.9884485309217801
2013-10-04,-1,-0.0009617646654413262,-0.0008323583890232846,-0.007941689278256149,0.00869946782467114,0.9889713441257167
2013-10-08,-1,-0.0016867879205949821,-0.001457730381187614,-0.005513596001721142,0.00869946782467114,0.9899245116507747
2013-10-10,-1,-0.00045765882304313576,-0.0004033782052758107,-0.007941689278256149,0.007508711084193432,0.9902915266874749
2013-10-14,-1,-0.00042737049564036506,-0.0003590032039596986,-0.007941689278256149,0.007508711084193432,0.989223245120371
2013-10-16,-1,-0.0001446794173793949,-0.00013397254021862322,-0.007941689278256149,0.007508711084193432,0.9893931294157216
2013-10-18,-1,-0.00018629076478506317,-0.00015214431368034006,-0.007941689278256149,0.002918071417932245,0.9897055901016505
2013-10-22,1,0.0004645567588022182,0.0004869369215195368,-0.007941689278256149,0.002918071417932245,0.9895771987075628
2013-10-24,1,0.000856568504967456,0.0009237479373472293,-0.007157164018385874,0.002918071417932245,0.9892334204642983
2013-10-28,1,0.00037230245549630753,0.00041875798051015144,-0.0026625759857712645,0.007393522086335428,0.9900663110510526
2013-10-30,-1,-0.001318823103367946,-0.0011524404058358443,-0.0018587045067480438,0.01072451175159869,0.9907892597431276
2013-11-01,-1,-0.002277203031357271,-0.0019424826323165484,-0.0018587045067480438,0.01072451175159869,0.9897954924080129
2013-11-05,-1,-0.0022012379222403657,-0.0018927397146644013,-0.0026625759857712645,0.01072451175159869,0.9895979049829422
2013-11-07,-1,-0.001761751771340319,-0.0015658302039376374,-0.0019414575464964043,0.011230598733042635,0.9900740146245259
2013-11-11,-1,-0.0011443126238604945,-0.0009577154065237833,-0.004023297217184084,0.010183549775189945,0.9910654575365969
2013-11-13,-1,-0.0007949767548796349,-0.0006753564247899508,-0.004634411854348246,0.011230598733042635,0.9895966310395802
2013-11-15,-1,-0.0011300956524895375,-0.0009523493813572257,-0.004634411854348246,0.012653896468047031,0.9886671872490523
2013-11-19,1,0.00012260430572572973,0.00013631053496624676,-0.006406582207540867,0.011164069334968689,0.9894513838202987
2013-11-21,1,0.0011633309715154516,0.0013083047512050716,-0.006406582207540867,0.00798023440070298,0.990813164205342
2013-11-25,1,0.0016178265870444239,0.0018546643756218518,-0.006406582207540867,0.011164069334968689,0.9903723060930677
2013-11-27,1,0.0027221600321330392,0.003076068340610805,-0.006406582207540867,0.006451101678313682,0.9914735940985765
2013-12-02,1,0.001840083051916159,0.0020665679599269253,-0.006406582207540867,0.004235363675653335,0.9920050736531697
2013-12-04,1,0.0019279228443658545,0.002196506659623309,-0.009519714558566594,0.004235363675653335,0.9898778068785027
2013-12-06,1,0.0026995423314956787,0.003139151044626857,-0.009519714558566594,0.004235363675653335,0.9892483268862252
2013-12-10,1,0.0018277270377087247,0.002158590999017167,-0.009519714558566594,0.004235363675653335,0.9895673253443378
2013-12-12,1,0.0022770500631075262,0.002678184880603082,-0.010932088745929141,0.002659305751268292,0.9886592388551833
2013-12-16,1,0.0029065494889124297,0.0034130134813753895,-0.010932088745929141,0.0011121459922568526,0.9887124954063286
2013-12-18,1,0.0023531515893344796,0.0027571874749993458,-0.010932088745929141,0.0011121459922568526,0.9890751742185762
2013-12-20,1,0.001256165754746283,0.0013970925649480952,-0.010932088745929141,0.004739807642117701,0.989368696033001
2013-12-24,1,0.0020831498314262736,0.002348144705738816,-0.012876421378693643,0.0037787791660670225,0.9885139047687712
2013-12-27,1,0.0021900587866731554,0.002493752094428093,-0.012876421378693643,0.004739807642117701,0.9883704283995789
2013-12-31,1,0.0011241000655258376,0.0012279855784900408,-0.015135089425944812,0.00594275451827583,0.9873871593678957
2014-01-03,-1,-0.0009100449425579169,-0.0007346895453341605,-0.01726676217750238,0.00594275451827583,0.988142114587787
2014-01-07,-1,-0.0010940735567824419,-0.0008571441579783399,-0.01726676217750238,0.00594275451827583,0.9879088878198371
2014-01-09,-1,-0.002006745595778338,-0.001637819102859108,-0.012232285722853845,0.00594275451827583,0.9886876964466443
2014-01-13,-1,-0.003177401441568666,-0.0027009119803266136,-0.002937965821487426,0.009225931175966533,0.9888575030907505
2014-01-15,-1,-0.0024859206573755793,-0.0020940385715556963,-0.002937965821487426,0.011376893715488109,0.9882129688733684
2014-01-17,-1,-0.0025170490504275327,-0.0021099067407680896,-0.0042376735780349905,0.012431436633205341,0.9873679408599172
2014-01-22,-1,-0.0020685797311053734,-0.001724535741385184,-0.008994186106527568,0.011376893715488109,0.9871240704999917
2014-01-24,-1,-0.002318591306885223,-0.0019956021283022325,-0.0042376735780349905,0.013146079784438483,0.9868895377149194
2014-01-28,-1,-0.0016438220022574083,-0.0014295677579595047,-0.007250014706151575,0.016289762711570826,0.9864731474389408
2014-01-30,-1,-0.0023446346130340935,-0.0020411375304636675,-0.0042376735780349905,0.016289762711570826,0.9876195880371111
2014-02-03,-1,-0.0034523030498779667,-0.0030457325289493416,-0.002104119082693293,0.01749061986057675,0.9870262147650012
2014-02-05,-1,-0.0031349212658995087,-0.0027363673155269413,-0.0012638821310727172,0.016289762711570826,0.9874453365304829
2014-02-07,-1,-0.0027402422121786856,-0.002414007831391825,-1.866352013709375e-05,0.016289762711570826,0.9872645254131532
2014-02-11,-1,-0.001141174024663066,-0.001053950350857527,-0.006558186035007959,0.011444711879019883,0.987497346952963
2014-02-13,-1,-0.0011471957158864716,-0.001003830861639875,-0.008055211031310476,0.00981063004459324,0.9879054605860328
2014-02-18,-1,-0.0003283211531360056,-0.0002805250579406376,-0.008055211031310476,0.00981063004459324,0.9885999312343837
2014-02-20,-1,-0.0013206828347691836,-0.00118500482299446,-0.006456164693389124,0.00981063004459324,0.9894265826475641
2014-02-24,-1,-0.00031036289258612,-0.000294203143757238,-0.006456164693389124,0.00836044612665131,0.9897357784718007
2014-02-26,-1,-0.0003310592313613732,-0.00029903689894588,-0.006456164693389124,0.007348557360731059,0.9902836931365335
2014-02-28,-1,-0.00042282069888215004,-0.00034554082983975635,-0.009248562873871841,0.0059480031656009525,0.9897185506431648
2014-03-04,1,0.0002314893389800157,0.00026580351312901395,-0.009248562873871841,0.007713687052162938,0.9895465409581784
2014-03-06,1,0.0011385890945006627,0.0012559167128659856,-0.009248562873871841,0.0059480031656009525,0.9899729022213504
2014-03-10,1,0.0016264164912012033,0.001828365474372231,-0.011173705303044143,0.00506734835513901,0.9885682726371906
2014-03-12,1,0.00028982038571350875,0.0003110981026995407,-0.011173705303044143,0.00506734835513901,0.9898170135209117
2014-03-14,-1,-0.0004148320748479052,-0.00036732800613503453,-0.013191584042520093,0.00506734835513901,0.9883371172354317
2014-03-18,1,0.0007515256154055875,0.000889395659230126,-0.013191584042520093,0.0041734086343246934,0.9882828673928535
2014-03-20,1,0.0012520937491479216,0.0014938801428067837,-0.013191584042520093,0.005625313582733157,0.9875917979875803
2014-03-24,1,0.0019833822416316736,0.0022529567027878765,-0.013191584042520093,0.002005158520592143,0.9874480762297573
2014-03-26,0,-6.043467458675719e-05,1.6877725307924284e-07,-0.011173705303044143,0.002357727080019009,0.9887552507584125
2014-03-28,-1,-0.0007918649025544777,-0.0006315962352026821,-0.010513720700944917,0.002357727080019009,0.9882698579765686
2014-04-01,1,0.0011022487778925647,0.0011489855654093842,-0.010513720700944917,-0.0003567686340635222,0.9895533459836935
2014-04-03,1,0.000621843271365089,0.0006607795121980574,-0.015237454183552162,-0.0009338834632040068,0.987928741260072
2014-04-07,1,0.00013185385489207572,0.0001693275873748066,-0.013049889076428572,-0.0009338834632040068,0.9886327188385657
2014-04-09,-1,-0.0003238003853217962,-0.00022779930993572817,-0.010358331723318102,0.002357727080019009,0.9892279868441777
2014-04-11,-1,-0.0020523843824042606,-0.001746431691410373,-0.009046795009065627,0.007083224614315957,0.9898173617439578
2014-04-15,-1,-0.0010193633469728594,-0.000877183933006037,-0.010358331723318102,0.005878280171809363,0.9873048819200545
2014-04-17,-1,-0.0009342457507674398,-0.0008759787086503863,-0.010358331723318102,0.007162595066877211,0.9873300877670879
2014-04-22,-1,-0.0007360869004680111,-0.0007120057632789464,-0.01428073903877131,0.007289630061833105,0.9865224917084566
2014-04-24,1,3.956374117888568e-05,0.00020389115518048217,-0.01428073903877131,0.012434905224756276,0.9851288541486167
2014-04-28,-1,-0.0019242421098227623,-0.0018001870599306598,-0.011131029126465058,0.016513140615397864,0.9851195792331013
2014-04-30,-1,-0.001624142340732349,-0.0015438438309037837,-0.011715883340480397,0.016513140615397864,0.9842313693235232
2014-05-02,-1,-0.0009720053737781497,-0.0009457057042042509,-0.010792662230569095,0.01264816021377623,0.9855119164252657
2014-05-06,-1,-0.002349942457376444,-0.0021773328233581253,-0.010191664045838138,0.01264816021377623,0.9860674479644763
2014-05-08,-1,-0.001859902419460806,-0.0017602703520477984,-0.010191664045838138,0.016513140615397864,0.9835699441924217
2014-05-12,1,0.00034434696447418664,0.0005643543267948496,-0.010792662230569095,0.011589794222593597,0.9846356574349459
2014-05-14,-1,-0.0021601527977748855,-0.002056901686695302,-0.010191664045838138,0.011589794222593597,0.9860841722585112
2014-05-16,-1,-0.0014319714323117166,-0.0014003077316079103,-0.010191664045838138,0.01131725956509824,0.9861018110174372
2014-05-20,-1,-0.0013025782698402183,-0.0012772154065318704,-0.009942879099196025,0.009881080836891955,0.987356641312922
2014-05-22,-1,-0.0005351292781807435,-0.0004111672639787284,-0.008522181522107602,0.00845913107734922,0.9886538448693203
2014-05-27,1,0.0005369425780892568,0.0007780155536706415,-0.009942879099196025,0.007659037078697851,0.9897013767932493
2014-05-29,-1,-0.0009379850494963883,-0.0008932465738267055,-0.005738955273831382,0.008727691425770302,0.9895584814543623
2014-06-02,-1,-0.0008829869892371793,-0.0008642120422684747,-0.007434824374725663,0.008727691425770302,0.9893375745635459
2014-06-04,-1,-0.0012075202136826112,-0.0011077868906156606,-0.00882480201285768,0.00949705566845768,0.9882738274727421
2014-06-06,-1,-9.955805323502863e-05,-5.639202683946466e-05,-0.011127737225243578,0.008216251145423615,0.9902788791790423
2014-06-10,-1,-0.0003827283251662916,-0.0003222724597588178,-0.011127737225243578,0.007871863198757791,0.9903443551106422
2014-06-12,-1,-0.00023185620900146212,-0.0001962674338125612,-0.01040393805024274,0.005587529076150191,0.9913790394121912
2014-06-16,-1,-0.00020487259960766697,-0.00020134720645211378,-0.01109512299901401,0.005587529076150191,0.9913515744871023
2014-06-18,-1,-0.0007048429235359757,-0.0006121020227242462,-0.011127737225243578,0.005250709994923142,0.9911044602637541
2014-06-20,-1,-0.0005403496446048386,-0.000479508682864226,-0.011127737225243578,0.006663695874538706,0.9905920396811765
2014-06-24,-1,-0.0009294112612364851,-0.0008096981840078211,-0.01109512299901401,0.006400469122498429,0.9910452286222595
2014-06-26,-1,-0.0010090250211709716,-0.0008016246198380152,-0.011127737225243578,0.0035930197108261707,0.9915045208115133
2014-06-30,-1,-0.0014815001107580526,-0.0012479540703608447,-0.011107311168713158,0.004876306201352943,0.9910889461145119
2014-07-02,-1,-0.0012421650434782084,-0.001035128609489145,-0.0103971293647326,0.004310521261378199,0.9922899663017274
2014-07-07,-1,-0.0008737588642443437,-0.0007519476989241568,-0.010041676442894727,0.004781516554583387,0.9920952515488817
2014-07-09,-1,-0.00064305679910464,-0.0005811216356932709,-0.010041676442894727,0.004781516554583387,0.9921994472338169
2014-07-11,-1,-0.0004749109802560551,-0.0004687676757678429,-0.007812500000000075,0.004781516554583387,0.9925835347526505
2014-07-15,-1,-0.001540245957162014,-0.001362968051261791,-0.0064739994097878055,0.004781516554583387,0.9931005113930432
2014-07-17,-1,-0.0010765851001592675,-0.0010012642912552987,-0.004091909460367437,0.00530827978003924,0.9934547535224099
2014-07-21,-1,-0.001001065458407503,-0.0009451005056141768,-0.004091909460367437,0.005419456821569161,0.9924353719127965
2014-07-23,-1,-0.0007546633648708808,-0.0007352763432426405,-0.005211060695838156,0.004454512454273631,0.9926024960951704
2014-07-25,-1,-0.0005045843930786926,-0.0004209697651762007,-0.0030117576994924786,0.0062411734975095275,0.9927183692953767
2014-07-29,1,0.000602379296375903,0.0008475485814039587,-0.005211060695838156,0.003419222520240327,0.9933760037338502
2014-07-31,1,0.0006912222475197786,0.0009738793206796035,-0.004598670162689674,0.003419222520240327,0.9933793993930249
2014-08-04,1,0.00044675160926725053,0.0006061764349152413,-0.004598670162689674,0.0043807823757466705,0.9937847805792207
2014-08-06,1,0.00037330293225669827,0.0004910462331036512,-0.004598670162689674,0.0032190580855793894,0.9942188046083978
2014-08-08,1,0.0006005697134518075,0.0007851683857958998,-0.005216773363337911,0.0043807823757466705,0.9927253777150379
2014-08-12,1,0.0007172164667071388,0.0009296933348566968,-0.005216773363337911,0.005095800590238408,0.9925776840583477
2014-08-14,1,0.001563571117627949,0.001956190454115646,-0.007870970768821497,0.005551350095255414,0.99130062958053
2014-08-18,1,0.0008530218341406067,0.0011052758663436884,-0.007036441394181286,0.005551350095255414,0.9920189740832369
2014-08-20,1,0.00033996959500387806,0.0004961682678145489,-0.007839690226211045,0.006178942052490423,0.99172790050429
2014-08-22,1,0.0018209021861803623,0.002288092034088616,-0.008129167142587839,0.006178942052490423,0.9917994421587901
2014-08-26,1,0.0014438805662314405,0.0018570774938481325,-0.007519586277463852,0.006178942052490423,0.9918926268376501
2014-08-28,1,0.0008326243665122159,0.0011093810114351545,-0.007519586277463852,0.006178942052490423,0.9920909530925109
2014-09-02,1,0.0009640938859804045,0.0012228886595040637,-0.007947882510399544,0.005843017732019725,0.9919980238524406
2014-09-04,-1,-0.00028061130541248247,-0.00026558689470970736,-0.007947882510399544,0.007158456895973419,0.9903447185461326
2014-09-08,-1,-0.00011005495905423441,-3.027798528106509e-05,-0.007519586277463852,0.005843017732019725,0.9917122612610477
2014-09-10,1,0.0002934455927284355,0.00041573653885368215,-0.007519586277463852,0.007158456895973419,0.9913739694921015
2014-09-12,1,0.000267799363208296,0.00038225682749158023,-0.007519586277463852,0.003325962398837929,0.9923452054458622
2014-09-16,1,0.0006832703789441744,0.0008462480029781494,-0.007519586277463852,0.0032284470649190985,0.9930508927896524
2014-09-18,-1,-0.0003139432965905615,-0.0002739514465075445,-0.004656141284116269,0.0024952937587624366,0.9935615058594133
2014-09-22,-1,-0.00021759701477093636,-0.00019411977690997754,-0.004759151468430466,0.0024952937587624366,0.9933131764999474
2014-09-24,-1,-0.00035348368463301264,-0.00032893451942998255,-0.004766436173769513,0.0024952937587624366,0.993299011892814
2014-09-26,-1,-0.0010361040421624787,-0.0008794519144318995,-0.004764111776156361,0.00446442370863805,0.9930038094981631
2014-09-30,-1,-0.001203144226706413,-0.0010362559454834418,-0.003431140259265871,0.007466000092447314,0.9924422651963647
2014-10-02,1,0.0004978803817199443,0.0006507097132667722,-0.002384125114645405,0.008647536042857774,0.9930477990090547
2014-10-06,-1,-0.001805282294519118,-0.001488514657827641,-0.0005171621524898791,0.008796680877580787,0.9905440303098814
2014-10-08,-1,-0.000609458336743875,-0.0004423204298909184,0.00031030912857684095,0.008796680877580787,0.991152002143825
2014-10-10,-1,-0.0013863131868606501,-0.00110781155597447,0.00031030912857684095,0.008796680877580787,0.9909744202507872
2014-10-14,-1,-0.0009488838771743452,-0.0007550032885310078,-0.0028545513664026186,0.008796680877580787,0.9908498593780263
2014-10-16,1,0.0004723658033036878,0.0005033759862145837,-0.005665189477888211,0.008796680877580787,0.9909339571931678
2014-10-20,-1,-0.00023991420005177135,-0.00015022447820668363,-0.005665189477888211,0.008647536042857774,0.9909827517984998
2014-10-22,-1,-0.0008350075099936719,-0.0006547981758344141,-0.005665189477888211,0.008852932935830088,0.9889782943540589
2014-10-24,-1,-0.00048746897095335354,-0.00034615394082958576,-0.007013012947254426,0.008852932935830088,0.9890187030222582
2014-10-28,1,0.0012927966979317733,0.0014714615555865365,-0.007013012947254426,0.008918902004242012,0.9894282491843756
2014-10-30,1,0.0026692205368133936,0.002993003863434513,-0.00736084208198659,0.00394258034170592,0.9897437070068903
2014-11-03,1,0.004025460427141865,0.004545929155261167,-0.009209751313589656,0.00394258034170592,0.9887624763396279
2014-11-05,1,0.0037445935108285063,0.004223728185515361,-0.009209751313589656,0.006265825273398399,0.9870629978958945
2014-11-07,1,0.0036991905639459045,0.004165840537181443,-0.009209751313589656,0.008020413101667092,0.9874060819828044
2014-11-11,1,0.003118718088375285,0.003499257932013808,-0.009209751313589656,0.009369358499810892,0.9856716792340027
2014-11-13,1,0.003110505957235478,0.003447768126914512,-0.007884330566262783,0.009369358499810892,0.9859126057674139
2014-11-17,1,0.0036490967421473246,0.004108979841556664,-0.007187509108679824,0.011913159511733076,0.985342011790891
2014-11-19,1,0.002653741047076049,0.002927439877924312,-0.00645821726378376,0.012623464574465717,0.9862780864894468
2014-11-21,1,0.002479032140653556,0.002742262871655169,-0.003018972167657087,0.012623464574465717,0.9864873777978183
2014-11-25,1,0.0027227513258661785,0.0030018794932034133,-0.005724296289634586,0.012303022504679975,0.9860037080191884
2014-11-28,1,0.001659756692782558,0.0017912184880190625,-0.000107669444476554,0.012303022504679975,0.9862988430566713
2014-12-02,1,0.0012695783878655079,0.00134115805329554,-0.004505531858684655,0.012303022504679975,0.9867932377490823
2014-12-04,1,0.0024955000841577453,0.0027256783529733975,-0.005724296289634586,0.010645133946955272,0.9883389032799911
2014-12-08,1,0.002576550772265425,0.0027919142305709577,-0.005724296289634586,0.010645133946955272,0.9884048691774224
2014-12-10,1,0.002122747809484799,0.002272479044737711,-0.005724296289634586,0.010645133946955272,0.9892727151806597
2014-12-12,1,0.002096565724800061,0.0022336952683376567,-0.006918804699794436,0.011639048387636877,0.9884313520559884
2014-12-16,1,0.0021416421169339036,0.0022558816512479227,-0.012772512251357629,0.010645133946955272,0.9884680125555808
2014-12-18,1,0.0036453763807938267,0.003992184033251085,-0.012772512251357629,0.010361684667782851,0.9873577319943881
2014-12-22,1,0.0037296215999292354,0.004092223199172155,-0.012772512251357629,0.010645133946955272,0.9856694033378577
2014-12-24,1,0.0033243028148274923,0.003645792812189559,-0.012318905046229555,0.011473278324558328,0.9859939386363957
2014-12-29,1,0.00400847561263463,0.004419348667312601,-0.012772512251357629,0.014702836862561248,0.9823996863397358
2014-12-31,1,0.0024273501051471115,0.0026674813107370678,-0.012772512251357629,0.016594130019827943,0.9808932292337871
2015-01-05,1,0.0017555910484303174,0.0018997375249772575,-0.012318905046229555,0.021136991468453954,0.9801090681396544
2015-01-07,1,0.0017797911708804489,0.0019356345229709427,-0.012318905046229555,0.02304820036105207,0.9789833724494781
2015-01-09,1,0.001058682837795811,0.0011011114628315883,-0.009552524600179246,0.02304820036105207,0.980120484575065
2015-01-13,1,0.0010392984501533056,0.0010549682350489708,-0.009431047674322273,0.02304820036105207,0.9806353913311082
2015-01-15,1,0.0003335045360861673,0.00038184362513190147,-0.0070574894402574,0.02304820036105207,0.9810028627034822
2015-01-20,1,0.000834416672920602,0.0008418124805181253,-0.0070574894402574,0.016743579269592405,0.9821963183388963
2015-01-22,1,0.002050752336654012,0.002185341511645406,-0.008475760937289767,0.01454029673552739,0.9838129891317781
2015-01-26,1,0.0023040997982358593,0.0024890172351170396,-0.008475760937289767,0.016705971531445006,0.9837425410735058
2015-01-28,1,0.001441080883194873,0.0014770293674778241,-0.0048691376850983695,0.016705971531445006,0.9858653046069414
2015-01-30,1,0.000979736581663291,0.001008214639920501,-0.004221545263561596,0.011924387645072995,0.9883407990723256
2015-02-03,1,0.0029527752998017467,0.0032056686856512823,-0.007420128038097428,0.010511196027185608,0.9897121729047175
2015-02-05,1,0.003003286009119061,0.0032558273415741693,-0.006142270882274031,0.010511196027185608,0.9901499067042426
2015-02-09,1,0.003456750320147639,0.0037961039377759328,-0.007420128038097428,0.010290951155632439,0.9896316604693591
2015-02-11,1,0.0029014838323507767,0.0031468761672968693,-0.006142270882274031,0.012914478305048584,0.9878715290986506
2015-02-13,1,0.0033923963043794554,0.0036844925796130313,-0.006142270882274031,0.01481810530055993,0.9877250642406126
2015-02-18,1,0.0021710232570024976,0.002282520735846655,-0.006142270882274031,0.01481810530055993,0.9878697553920681
2015-02-20,1,0.0019889288543215276,0.0020746305201896353,-0.0042065310440686015,0.01967624351137177,0.9874342805610253
2015-02-24,1,0.0024296495052562486,0.0025385298416343454,-0.006142270882274031,0.01481810530055993,0.9879052614047545
2015-02-26,1,0.003358675254293953,0.003602123774026335,-0.008671831069240361,0.011380287720723838,0.9870085934476839
2015-03-02,1,0.003292446493571478,0.0034945037311191387,-0.008671831069240361,0.01481810530055993,0.9865340184557289
2015-03-04,1,0.0025808858511227484,0.002694344125320408,-0.006887689158513114,0.01481810530055993,0.9873939779467206
2015-03-06,1,0.0027544933795161323,0.002859913149193232,-0.006887689158513114,0.015623874354642776,0.9873208663021303
2015-03-10,1,0.0018415838677351482,0.0018556198583821505,-0.0043483996087764504,0.015623874354642776,0.9883510752490621
2015-03-12,1,0.0040685824201858525,0.004338398089668413,-0.0043483996087764504,0.005913554877934654,0.9903961691585247
2015-03-16,1,0.004186038357446759,0.004444733656492194,-0.006493122619028737,0.005913554877934654,0.9900943324920857
2015-03-18,1,0.0034287463834632246,0.0035546928218386812,-0.0043483996087764504,0.00412291496746137,0.990961387162653
2015-03-20,1,0.0040508031821887,0.0042638421436993045,-0.006493122619028737,0.00412291496746137,0.99052392879504
2015-03-24,1,0.003855294074467829,0.004068475879083813,-0.0056022185551355816,0.0023082394877570484,0.9906503465148614
2015-03-26,1,0.003080278856293201,0.0032861273202213527,-0.0037818804346281187,0.0036543374628845134,0.9927223362612022
2015-03-30,1,0.004568493822599941,0.005045751241202467,-0.005489013696806215,0.0036543374628845134,0.9909399133049207
2015-04-01,1,0.004214430460540592,0.004669789302569415,-0.005489013696806215,0.005522615317230099,0.989825289767438
2015-04-06,1,0.004713039603353479,0.005212907510303999,-0.006100079404955949,0.004464864999057412,0.9894936225913468
2015-04-08,1,0.004298871776528513,0.004700052929715413,-0.006628366236974543,0.0072652310484836394,0.9886927627772787
2015-04-10,1,0.003763281185423414,0.004060965812158803,-0.008176109946652358,0.0072652310484836394,0.9881158640633649
2015-04-14,1,0.003538901154868497,0.003794121466507366,-0.00801582402939829,0.007568662351023861,0.9886244762351927
2015-04-16,1,0.002936860943643456,0.0030583056996514564,-0.00801582402939829,0.007747451139379101,0.9888701074485561
2015-04-20,1,0.0026205611704064016,0.002668847741835006,-0.006100079404955949,0.007747451139379101,0.9888416354678723
2015-04-22,1,0.0023235032535481636,0.002348300299766499,-0.00801582402939829,0.008049992246331144,0.9882089459923903
2015-04-24,1,0.0012433677292512423,0.0014080292881627895,-0.012409133325254337,0.008049992246331144,0.987386650773921
2015-04-28,1,0.001788099741105389,0.001942027829478843,-0.012409133325254337,0.008049992246331144,0.9884989652616722
2015-04-30,1,0.002155507733602797,0.0021747802020168788,-0.012409133325254337,0.0065467128171019535,0.9894970526326728
2015-05-04,1,0.0018719491855678674,0.001908296290752169,-0.010096007752620463,0.008049992246331144,0.9897185228935425
2015-05-06,1,0.0009670815237212183,0.0011286131482243851,-0.007279894307923807,0.0065467128171019535,0.9905674481779847
2015-05-08,0,-5.439152342474212e-05,0.00021075371462416826,-0.005577726286857456,0.008049992246331144,0.9904942334562039
2015-05-12,1,0.0004954294869535566,0.0006836562544029829,-0.005577726286857456,0.014206948976262837,0.9898235589825186
2015-05-14,1,0.0014318584295173792,0.001452293898631701,-0.005577726286857456,0.014206948976262837,0.9901858404283451
2015-05-18,1,0.0022975506161031127,0.0024239114622262147,-0.005186364206965492,0.012687520208855883,0.9912196473555517
2015-05-20,1,0.0014207745973886289,0.001435842547130247,-0.005186364206965492,0.014206948976262837,0.9901826642009918
2015-05-22,1,0.000760968624615728,0.0008274274978346472,0.0005279980072731931,0.014206948976262837,0.9905013052587758
2015-05-27,1,0.00044575039510409676,0.0006064689412001434,0.0005279980072731931,0.012687520208855883,0.9905816732790466
2015-05-29,-1,-0.0006333019134534921,-0.00030046496028604606,-0.0003321766917441864,0.012687520208855883,0.9910483978735871
2015-06-02,1,0.00037716369415996033,0.0005926756873505461,-0.0015446379635222546,0.012687520208855883,0.9904655656898445
2015-06-04,-1,-0.0004326493169507313,-8.9664905729666e-05,-0.0015446379635222546,0.013133439738034653,0.988627172792067
2015-06-08,1,0.0003648563243860254,0.0006440599970664129,-0.003990812537390322,0.01349546854457151,0.9883638685538944
2015-06-10,1,0.000626184032639018,0.000921461223114696,-0.006001070190892495,0.012450360064958773,0.988868204003848
2015-06-12,1,0.0007319552847758386,0.0009834430150911207,-0.009473670116805588,0.013548729931919305,0.987729838363171
2015-06-16,1,0.0020847713031528345,0.0021203523405892138,-0.009473670116805588,0.013548729931919305,0.9878971157656945
2015-06-18,1,0.0016818558410794532,0.0017632341251156008,-0.006001070190892495,0.012102247119710481,0.9894514659225186
2015-06-22,1,0.0014597590423566283,0.0016024510827784863,-0.009473670116805588,0.011001244519367074,0.989557599589018
2015-06-24,1,0.0008799230530909743,0.0011305846540025754,-0.009566044202929183,0.013548729931919305,0.9884213374536529
2015-06-26,1,0.001930029952094454,0.0019828197876928712,-0.01034724846608406,0.013548729931919305,0.9874352262964723
2015-06-30,1,0.0015554147795223013,0.0016053483976666888,-0.009566044202929183,0.013548729931919305,0.9883326448049774
2015-07-02,1,0.0005901455088370716,0.000733332431082378,-0.006001070190892495,0.009673446781942093,0.9902788113316332
2015-07-07,1,0.0008959692699061093,0.0010388376582203154,-0.004003327462749034,0.008902909781529716,0.9908690842813185
2015-07-09,1,0.0013794952569350068,0.0014430703519938116,-0.004861974882984373,0.00624042683324634,0.9910605953763172
2015-07-13,1,0.0006572709106947326,0.0008463742289803003,-0.004861974882984373,0.00624042683324634,0.9909124942787416
2015-07-15,1,0.0008523468872760663,0.0010191634587419255,-0.00875710116444275,0.005631545708452991,0.9905036567203539
2015-07-17,1,0.0006860475753635172,0.0008403896762753924,-0.00875710116444275,0.007252434228820474,0.9899995138114843
2015-07-21,1,0.0006896067812774311,0.0008014267304790026,-0.005656799616769605,0.007252434228820474,0.9900241073444919
2015-07-23,1,0.0006516183082567535,0.0007783771118859768,-0.008761813652204046,0.005631545708452991,0.9905178856079135
2015-07-27,-1,-0.0004258258682136348,-0.00016233704125465077,-0.008761813652204046,0.005631545708452991,0.989364747364689
2015-07-29,1,0.00015737034083907663,0.0002621322201660134,-0.008761813652204046,0.005631545708452991,0.9883776356177079
2015-07-31,-1,-0.00048173933165463064,-0.0002600213630840147,-0.010514732065448663,0.0048932530627278925,0.9880107362251765
2015-08-04,1,0.0011192455243364333,0.0012161187950654505,-0.011939374728659934,0.0048932530627278925,0.9863237877771293
2015-08-06,1,0.0007838421245652794,0.0008186168262522861,-0.01293691565426702,0.006401529978609223,0.9853782561080197
2015-08-10,1,0.000556837157031292,0.0005713655060771868,-0.011939374728659934,0.007431593703479123,0.9858959116899082
2015-08-12,1,0.0005428411962242352,0.0005635265166243032,-0.011015094919341108,0.01070991096667924,0.985721125903722
2015-08-14,1,0.0009257584089114924,0.0009771169347063313,-0.011015094919341108,0.006549423810402801,0.986264229201676
2015-08-18,-1,-0.00020247066925031094,-7.858638157079775e-05,-0.011015094919341108,0.006549423810402801,0.9862317897363537
2015-08-20,-1,-0.00029024789121238995,-0.0001981625364493798,-0.012820739974504562,0.006549423810402801,0.9862100912642244
2015-08-24,-1,-0.0006180366270226577,-0.00046116337551994403,-0.011990484572056394,0.01070991096667924,0.9869591542358416
2015-08-26,1,0.0005293269884818663,0.0005447825840913972,-0.011990484572056394,0.010595411094799412,0.9881401698566441
2015-08-28,-1,-5.9005727649855295e-05,-2.651260940925333e-06,-0.010776204189420081,0.010595411094799412,0.9880360261414685
2015-09-01,-1,-0.0006498810786755693,-0.0005244616623154614,-0.009110761222394698,0.010595411094799412,0.9890305422914651
2015-09-03,-1,-0.0007076662528227523,-0.0005649418369875679,-0.009110761222394698,0.008589926188000812,0.9896260563454042
2015-09-08,1,0.00036574615825309186,0.000379953542976447,-0.010776204189420081,0.008274278070179436,0.9896509115508276
2015-09-10,1,0.00023204015007902135,0.0002503919142337403,-0.009435891106633128,0.008274278070179436,0.989389186066209
2015-09-14,1,3.7968195483203504e-05,0.00010184269315071152,-0.009435891106633128,0.008927599134470924,0.9889894796299438
2015-09-16,-1,-0.0003064594796854651,-0.000190737332887505,-0.01210406778474148,0.008927599134470924,0.9879406953671677
2015-09-18,-1,-0.00010019618841749438,-6.982142072200906e-05,-0.008402202576402836,0.011035970968998464,0.9885690616452149
2015-09-22,-1,-0.0003865071676531046,-0.00029282895519819747,-0.007508942248958285,0.011035970968998464,0.9883004522356962
2015-09-24,1,0.0004901223141215739,0.0004911989738960009,-0.008402202576402836,0.011409684873478435,0.9870254718679681
2015-09-28,-1,-0.0003881823784976953,-0.0002833234699386176,-0.0073512519047325715,0.01574235952312207,0.9864705124897867
2015-09-30,-1,-0.00031921085839794946,-0.00016385260234552597,-0.008900658768912178,0.016209177791628306,0.9852914411328086
2015-10-02,-1,-0.00045065720540904576,-0.0002912970098045813,-0.008900658768912178,0.016209177791628306,0.9845595430413162
2015-10-06,-1,-0.0007580485292441355,-0.0005716113156750153,-0.007598431218096712,0.01964348443167685,0.9845902053460193
2015-10-08,1,0.00039605486183994225,0.00041978678626458264,-0.007598431218096712,0.017614778450983165,0.9847612243153769
2015-10-12,0,-0.00011446880536194337,1.6132629864897626e-06,-0.008080933334296428,0.01818641478978254,0.9842905139220214
2015-10-14,-1,-0.0013227535105212345,-0.0010513051049270826,-0.007598431218096712,0.01818641478978254,0.9852624322767172
2015-10-16,-1,-0.00023908387777141769,-0.00013366753032492565,-0.010090922791697725,0.01818641478978254,0.9844298510357725
2015-10-20,-1,-0.0003003898790686473,-0.00015111630623798172,-0.010090922791697725,0.017252748405051962,0.9855438128050907
2015-10-22,-1,-0.00010417598388469802,-1.6063604144724535e-05,-0.008080933334296428,0.009529401451865725,0.9875083361560767
2015-10-26,-1,-0.00027280739585278335,-0.0001487938551303927,-0.00799518589235856,0.0074487146271824175,0.9884678962024355
2015-10-28,1,0.0005661210749485469,0.0005696826952246237,-0.005487674744276549,0.005996451238118511,0.9907095631707434
2015-10-30,-1,-0.0006584074620170487,-0.0005468794682010586,-0.0033632023089781252,0.0074487146271824175,0.9910790040258595
2015-11-03,-1,-0.00028145122185224474,-0.00021230521163549885,-0.006253789100547124,0.005996451238118511,0.9916480810278446
2015-11-05,1,0.000669622303782923,0.0007491179490863854,-0.009327445840289498,0.005996451238118511,0.9909822759517667
2015-11-09,1,0.00033192648663288825,0.00033913315836458016,-0.013112487931100928,0.005230199985557625,0.9893418314426653
2015-11-11,1,0.0006391321894279564,0.0007398275884834734,-0.017117138647475962,0.004263265115989909,0.9882770817990469
2015-11-13,-1,-0.00013751880387991296,-0.00013395879595266456,-0.014327201945641667,0.004263265115989909,0.9881086433580781
2015-11-17,1,0.00029219409667133984,0.000349523016033785,-0.014327201945641667,0.00504371993148472,0.9865369364388477
2015-11-19,1,0.0005020618252497114,0.0005813445862696769,-0.022100027418321365,0.002446353044628183,0.984922957141067
2015-11-23,1,0.00032403189828041025,0.0003486255912803218,-0.022100027418321365,0.002446353044628183,0.9846444765441986
2015-11-25,-1,-0.0005783466189289925,-0.0005052524266244444,-0.022100027418321365,0.0032061015812156054,0.9850468740530287
2015-11-30,-1,-0.0003765615162297947,-0.00035098630107468506,-0.022100027418321365,0.0003845205655139381,0.9857565532295763
2015-12-02,-1,-0.0005859794420691636,-0.00055030092110567,-0.022217441731712848,0.0003845205655139381,0.9853291227508679
2015-12-04,-1,-0.0008467188567316849,-0.0007981228488995794,-0.022217441731712848,0.0003845205655139381,0.9846632169987104
2015-12-08,-1,-0.0026454511955455668,-0.002381063799313702,-0.02080041879556201,0.0003845205655139381,0.9846642977963895
2015-12-10,-1,-0.0038266080317520914,-0.003443518610211791,-0.02137018960322309,0.001958571983940689,0.9849465632508996
2015-12-14,-1,-0.0047520794176034945,-0.004259351212837605,-0.02122212022770854,0.001958571983940689,0.9860328789389708
2015-12-16,-1,-0.003478579655729653,-0.003139171475642445,-0.02122212022770854,0.0,0.9874143204689815
2015-12-18,-1,-0.003874999805964014,-0.0035167021929327098,-0.015908521758593384,0.001958571983940689,0.9872543161084416
2015-12-22,-1,-0.003324335231695835,-0.003030555492462466,-0.02122212022770854,0.001958571983940689,0.9864737184260424
2015-12-24,-1,-0.0025918579134271012,-0.0024168386805287,-0.022283050959488244,0.004167139147251768,0.9802338622901712
2015-12-29,-1,-0.0013321883927342932,-0.0010746777622719448,-0.02281120458162699,0.007571139669980248,0.9782493908373039
2015-12-31,-1,-0.0023411460358376086,-0.0019603127911089965,-0.02372466342358682,0.011531600407747197,0.976932564624965
2016-01-05,-1,-0.0016397775215622615,-0.001308887216266385,-0.02281120458162699,0.01140404768123974,0.9775246269333019
2016-01-07,-1,-0.004059125533746728,-0.003480879729456437,-0.022283050959488244,0.01140404768123974,0.9801991103166695
2016-01-11,-1,-0.006277043483176783,-0.0054217887276615685,-0.02069824538958766,0.01796596567368864,0.9790179018356294
2016-01-13,-1,-0.00699588505388137,-0.006178247516757782,-0.02093026026069731,0.01796596567368864,0.9765361476587745
2016-01-15,-1,-0.008232353393043573,-0.007250960251004071,-0.02093026026069731,0.01856245563545939,0.9742001992511005
2016-01-20,-1,-0.005616666862284462,-0.0048460012443850165,-0.02093026026069731,0.018179797455937022,0.9752356047804304
2016-01-22,-1,-0.006058952489236571,-0.005244686306834277,-0.01588329863089441,0.018179797455937022,0.9759329972327266
2016-01-26,-1,-0.0044655304942410766,-0.003936122152669956,-0.014415665494730945,0.017280116057308118,0.9819219715071658
2016-01-28,-1,-0.003397734935034576,-0.0028730870198186795,-0.008475533769427886,0.015759769703410573,0.983158942479665
2016-02-01,-1,-0.0035898169057006065,-0.0032322189585143575,-0.007814654425144434,0.015759769703410573,0.9832572283614829
2016-02-03,-1,-0.0033414902517535762,-0.0030211445409632012,-0.005738303212911657,0.017260302589671928,0.9830948862859038
2016-02-05,-1,-0.0025192871019485566,-0.0021982347077529746,-0.0005986371702267183,0.017260302589671928,0.9828904970279597
2016-02-09,-1,-0.001955498081966201,-0.00181230055176159,-0.005738303212911657,0.012156809784482747,0.9843700647594369
2016-02-11,-1,-0.00512864482246401,-0.004565675165268852,-0.0018447662244436259,0.01574360484269553,0.9853798443274575
2016-02-16,-1,-0.0028953180126455123,-0.0026056952269705625,-0.0068114592450523054,0.012156809784482747,0.9875263692823918
2016-02-18,-1,-0.0021102956668417852,-0.001954941564161754,-0.0068114592450523054,0.012585394053969882,0.9866508368134685
2016-02-22,-1,-0.0023803291421557716,-0.002170546304048998,-0.0068114592450523054,0.012585394053969882,0.986651031033518
2016-02-24,-1,-0.0017275148372976807,-0.0016365394508681041,-0.008755133164588253,0.012585394053969882,0.9864977073590047
2016-02-26,-1,-0.0015332149158966192,-0.0014308390019283155,-0.01211714071740591,0.012585394053969882,0.9865628799607467
2016-03-01,1,0.0009237567620869464,0.0009930389232253227,-0.010072139054013222,0.012585394053969882,0.9871847358700088
2016-03-03,1,0.0008215485883625474,0.0010654953857552516,-0.013318607263913618,0.008528521674548527,0.9877948562304846
2016-03-07,1,0.0015540256329071855,0.001905236924468152,-0.013318607263913618,0.0027362110355033716,0.9875157967396309
2016-03-09,1,0.0005415559678594049,0.0006980586037918714,-0.013318607263913618,0.0027362110355033716,0.98772686078845
2016-03-11,1,0.0016020836473189767,0.0019491473564611321,-0.013318607263913618,0.0015063415019215343,0.9876347109798373
2016-03-15,1,0.0009957636335760386,0.0013061564284121297,-0.011816292016456034,0.0067660054433725325,0.9877733683547146
2016-03-17,1,0.002333941994233366,0.0028576467555529285,-0.009619434141155327,0.006264065400380816,0.9894103382306101
2016-03-21,1,0.002465007077997884,0.0030237731388937567,-0.009619434141155327,0.006264065400380816,0.9895219875885033
2016-03-23,1,0.002466291905460285,0.0030949797749852503,-0.006644060193560914,0.006493477070236019,0.990409591619152
2016-03-28,1,0.0011014778300545733,0.001470524322362917,-0.005754050908274871,0.006493477070236019,0.991032498958439
2016-03-30,1,0.002123743394729024,0.002683047560860318,-0.0045785491272154425,0.006493477070236019,0.9882930792956803
2016-04-01,1,0.0022193814244587055,0.0028285626925327453,-0.004359346671674647,0.006493477070236019,0.9883508069819475
2016-04-05,1,0.0021852527380033693,0.0027919745583641934,-0.004051032538711085,0.007569827345060449,0.988057936949103
2016-04-07,1,0.0019542803254497167,0.0025492654735592936,-0.004051032538711085,0.0076120653786891585,0.988315166664918
2016-04-11,1,0.0015614753137732935,0.0020339161893561802,-0.004359346671674647,0.0076120653786891585,0.9879605920349438
2016-04-13,1,0.002908194013344126,0.003585192960402869,-0.00520187218554931,0.006493477070236019,0.9890481950256229
2016-04-15,1,0.003055228968965402,0.003768191743711349,-0.00520187218554931,0.006342246290938025,0.988962080664845
2016-04-19,1,0.0035899221135889552,0.004389625360548795,-0.006631349110868249,0.006190680235555475,0.9876518746628414
2016-04-21,1,0.0038737731967015162,0.004727751694335667,-0.00937889034964701,0.006190680235555475,0.9852953744401741
2016-04-25,1,0.003832571831635635,0.004681444276771373,-0.006631349110868249,0.006356325635480928,0.9849505481077742
2016-04-27,1,0.005709185946645096,0.00678270654693987,-0.006631349110868249,0.006356325635480928,0.986683368789605
2016-04-29,1,0.004901564306717106,0.005847594795885886,-0.005888011095760853,0.00963636081779962,0.9880899618715462
2016-05-03,1,0.004460928603403193,0.005260789413171492,-0.006473403243637074,0.00963636081779962,0.9880083647950045
2016-05-05,1,0.0037203831929070105,0.004366216194964259,-0.006473403243637074,0.00963636081779962,0.9879363855961297
2016-05-09,1,0.002665275605264943,0.003091881122328323,-0.006473403243637074,0.01099250260706642,0.9877768057221221
2016-05-11,1,0.003151134112117541,0.0037020237359140593,-0.0064616870846137455,0.01099250260706642,0.9876912472783356
2016-05-13,1,0.0023614099309730904,0.0027231288547527014,-0.008384836134514807,0.01099250260706642,0.986973909076683
2016-05-17,1,0.0017825508317239084,0.0020871525690069137,-0.008384836134514807,0.01099250260706642,0.9875095873078892
2016-05-19,1,0.0029694155008819405,0.0034359931300085344,-0.008384836134514807,0.009677009055157216,0.9889341558273118
2016-05-23,1,0.0031386997224632897,0.003603780479822501,-0.008384836134514807,0.009677009055157216,0.989028798601558
2016-05-25,1,0.003395915077268991,0.0038486255121790596,-0.008384836134514807,0.009677009055157216,0.9888667020888399
2016-05-27,1,0.004325946608087819,0.0046756379270189614,-0.012472640082879164,0.006113501931815346,0.9849552042271674
2016-06-01,1,0.003216662100505426,0.003272230104699647,-0.012472640082879164,0.009517177388295075,0.9849442567195481
2016-06-03,1,0.0016627788564560534,0.0018638905685538268,-0.012472640082879164,0.01027018207205686,0.9827907992462173
2016-06-07,1,0.0008290247653568188,0.001166747409487804,-0.012472640082879164,0.010536083122645198,0.9828385062977723
2016-06-09,1,0.0007527193736705191,0.0010696733878867394,-0.012472640082879164,0.013184207086639213,0.9825235580611154
2016-06-13,1,0.0004117237234209335,0.0007337070617689039,-0.010482789375163084,0.017511650885869548,0.9821054374100451
2016-06-15,-1,-0.0006400934663650909,-0.00015925921652677776,-0.006398431289440297,0.017511650885869548,0.98238431595092
2016-06-17,-1,-0.0003721518124370868,-3.820152772019618e-05,-0.006045695764617595,0.017511650885869548,0.9828342860882456
2016-06-21,1,0.00048735335080735007,0.0006371303434728936,-0.006045695764617595,0.013184207086639213,0.9837370908159953
2016-06-23,1,0.0010686824170260878,0.0011570872858620164,-0.0054163084920816245,0.0116569679163214,0.985497087678706
2016-06-27,-1,-0.0009078672343772392,-0.0006101604410288744,0.00021497578060284826,0.0116569679163214,0.987904026311852
2016-06-29,0,-0.00016620394605365118,0.0001690208509250319,-0.001214464752873293,0.011289101486123967,0.990090452808972
2016-07-01,1,0.00046453557440807847,0.0006462581049297906,-0.002915436799459741,0.010551749168112995,0.9928431905173358
2016-07-06,1,0.00024272009215026515,0.0005557385469825636,-0.002915436799459741,0.01008319273838668,0.9929506451946221
2016-07-08,1,0.0014147595732700428,0.0015051219296534873,-0.0036080582767443335,0.01008319273838668,0.9927857464144142
2016-07-12,1,0.0020806669683911343,0.002085334649236921,-0.007320437795895471,0.00976068892691711,0.9929573012599114
2016-07-14,1,0.0018038887268822087,0.0018610728705520806,-0.008009377224282655,0.006362339664006966,0.9926825819672978
2016-07-18,1,0.0014241172473240995,0.001502821886312141,-0.007320437795895471,0.00491843526699318,0.9929206269211828
2016-07-20,1,0.0017865168383112834,0.0018146601379417024,-0.007320437795895471,0.0020379125870145717,0.9927952062077263
2016-07-22,1,0.0018649977244695486,0.0018728427291995417,-0.008182755357843666,0.0017720075549880435,0.9922337426568092
2016-07-26,1,0.003306375880971484,0.003544630171217306,-0.008183412175337277,0.0010222161225044086,0.9913704400394516
2016-07-28,1,0.0034812796263957177,0.003750851047693068,-0.008183412175337277,0.0011716878734428693,0.9907194159018426
2016-08-01,1,0.0025341771687246856,0.0026328290560030266,-0.0080458366180776,0.0011716878734428693,0.991629220214947
2016-08-03,1,0.002833548683007125,0.002990499738546301,-0.007320656735060008,0.004745826123506407,0.9914304852913474
2016-08-05,1,0.002506842209678233,0.0025592414995557044,-0.005861072733914441,0.005558460550412089,0.9921206883561046
2016-08-09,1,0.0029189535317770653,0.0030968847565964394,-0.005861072733914441,0.005657719405525486,0.991795116167125
2016-08-11,1,0.0024715063028746135,0.0025747591186630427,-0.005861072733914441,0.005657719405525486,0.9919446981464193
2016-08-15,1,0.0016071567221782456,0.0016451634313257519,-0.0080458366180776,0.005657719405525486,0.9918542333310546
2016-08-17,1,0.0010068541927382155,0.0011394735250583367,-0.008862554303957049,0.012727180858774204,0.9907520094590649
2016-08-19,1,0.0010554245377025018,0.0011586581611788523,-0.008862554303957049,0.012727180858774204,0.9901711440166339
2016-08-23,1,0.0007538149576187945,0.0008942589836406591,-0.008862554303957049,0.012727180858774204,0.9902888218183836
2016-08-25,1,0.0007936318408547405,0.0009494674476237229,-0.009487066402356852,0.012958211228744796,0.9897020588071658
2016-08-29,0,-0.00011007334761602443,0.00017845217517383188,-0.009697297104430742,0.012958211228744796,0.9887344136097799
2016-08-31,1,0.0003945140289690202,0.0006238680633966098,-0.010085950967445134,0.005889012938554948,0.9886644429722977
2016-09-02,1,0.0012141494551638086,0.0012998424242075038,-0.010085950967445134,0.005889012938554948,0.9877750197276208
2016-09-07,1,0.0007140108184545051,0.0008718620762390133,-0.010085950967445134,0.007072744846744181,0.9876811607449194
2016-09-09,1,0.00024870959005328657,0.0004609233443925167,-0.010085950967445134,0.007072744846744181,0.9881857691594175
2016-09-13,0,-7.144989930757731e-05,0.00018440474929538083,-0.006891594005835215,0.007072744846744181,0.9885172849982877
2016-09-15,0,-0.00010949016362004759,0.00017162781964053246,-0.006891200180811286,0.007072744846744181,0.9891321675616044
2016-09-19,1,0.0009834895869994418,0.0010246023687556936,-0.005618627075852373,0.009690278167286466,0.9893296248380171
2016-09-21,1,0.00031556546063175915,0.00047227882098221214,-0.005618627075852373,0.009690278167286466,0.9892730472786367
2016-09-23,1,0.0006689173929017904,0.0007620387502861569,-0.005618627075852373,0.007072744846744181,0.990011872115688
2016-09-27,1,2.70009726372778e-05,0.00021593547478984665,-0.005409742698871243,0.007072744846744181,0.9911812598445892
2016-09-29,-1,-0.0006305377757908536,-0.0003540355859331777,-0.005409742698871243,0.0055923848121248515,0.9918093465862984
2016-10-03,0,-5.79760292732409e-05,0.0001601709374147287,-0.003341150777961919,0.005313795152311656,0.9935078136162614
2016-10-05,1,0.0006354069992901654,0.0007877369500924502,-0.003341150777961919,0.005296270116558038,0.993986353145496
2016-10-07,0,-5.0486365052674156e-05,0.00022087525126009947,-0.00608077218940596,0.005296270116558038,0.9920059450708264
2016-10-11,1,4.671536679050749e-05,0.0002479652369000295,-0.00608077218940596,0.005313795152311656,0.9916802088949924
2016-10-13,0,-2.4642884151969153e-05,0.0001799764905075651,-0.0034925974009504964,0.00672911356085407,0.9895126254494022
2016-10-17,1,0.00038658544844313034,0.0005226526629619054,-0.002677491736372361,0.013559658172602186,0.9865124504149924
2016-10-19,1,0.0008658822217022196,0.0008939607517402797,-0.005217692390234406,0.013559658172602186,0.9862531624570519
2016-10-21,1,0.0007101372370342329,0.0007414179186877886,-0.0032049041345599784,0.013559658172602186,0.9864615669720028
2016-10-25,1,0.0005375440456692572,0.0006208309999747392,-0.004685231272578884,0.016811063899303185,0.9857693488091892
2016-10-27,1,1.937793038791298e-06,0.0001516488026861582,-0.0032035313951415782,0.016811063899303185,0.9860343704616789
2016-10-31,1,4.960603349157941e-05,0.0001866304612449994,-0.004685231272578884,0.016811063899303185,0.9858782988818428
2016-11-02,1,4.055733598317009e-05,0.000219340792577867,-0.004685231272578884,0.015846344606602385,0.9861011430963694
2016-11-04,-1,-0.0008265502098651366,-0.000510951481746337,-0.0031793382941996133,0.017336558481437697,0.9871573832997593
2016-11-08,-1,-0.0013525492989145107,-0.0009278165872078491,-0.002893027999903148,0.017336558481437697,0.9871408995238703
2016-11-10,1,0.0013207589356156388,0.0013769771921508037,-0.002893027999903148,0.01579089150837035,0.9890193208508326
2016-11-14,1,0.005267503008444906,0.00571598159616808,-0.004611279230334589,0.011529086869810927,0.9910038777927852
2016-11-16,1,0.0035374165478786173,0.00367763384489074,-0.002893027999903148,0.012929486174337364,0.9904650815710343
2016-11-18,1,0.00409590846703943,0.004351302945993416,-0.0035404129027563477,0.01579089150837035,0.9894390456720711
2016-11-22,1,0.004089080016372779,0.004359654147005336,-0.0035404129027563477,0.017336558481437697,0.9885015506544376
2016-11-25,1,0.004084622804897908,0.004349350710803039,-0.00488540130224678,0.017336558481437697,0.9875310973250528
2016-11-29,1,0.003885423292227858,0.004129850564092248,-0.0035404129027563477,0.017336558481437697,0.987879926174711
2016-12-01,1,0.004658613929611448,0.005051925482105594,-0.005076079302848477,0.013764113516434539,0.9881086554187989
2016-12-05,1,0.00473318601475633,0.005140427484807369,-0.0063232527848750535,0.013636705222336107,0.9880433097332486
2016-12-07,1,0.004679183599754745,0.005063763312145191,-0.0067170070707041575,0.013636705222336107,0.9868054362432276
2016-12-09,1,0.0058646879183326854,0.006426906045441611,-0.008793516300088119,0.012968791332203224,0.9860616334299142
2016-12-13,1,0.005814702619375526,0.00636279871964113,-0.008793516300088119,0.01476773053641328,0.9852955291633252
2016-12-15,1,0.006995887230150731,0.007840342919386203,-0.01391576234951256,0.012968791332203224,0.9850000244856466
2016-12-19,1,0.007254772304659734,0.008123031145856444,-0.01391576234951256,0.012968791332203224,0.9853283782600849
2016-12-21,1,0.006793213181540499,0.00755535679527463,-0.010568170869747519,0.01268707216588224,0.9862414575038995
2016-12-23,1,0.006680073092696498,0.00741858573150235,-0.007830403336388321,0.01325465914731745,0.9868314615935255
2016-12-28,1,0.006471544367297297,0.007199120799615043,-0.007830403336388321,0.01325465914731745,0.9865614363506349
2016-12-30,1,0.006022391596604634,0.0066781881893662985,-0.00875722082312146,0.01325465914731745,0.986203286056742
2017-01-04,1,0.006118910116555683,0.0067482147121731085,-0.010785331635020514,0.01047022785800783,0.9855026706703011
2017-01-06,1,0.00529540737579862,0.005761432252581455,-0.009641500623798354,0.01325465914731745,0.9861108558932498
2017-01-10,1,0.004170823244756715,0.004487225766902007,-0.010785331635020514,0.01047022785800783,0.985769957209767
2017-01-12,1,0.0035646828003625375,0.0037705475614000575,-0.009641500623798354,0.009710440823676676,0.9876248732356779
2017-01-17,1,0.0024852315950022077,0.0025173912470484354,-0.00875722082312146,0.010693578878003004,0.9881822576848774
2017-01-19,1,0.002676760579206544,0.0027458990661183465,-0.00875722082312146,0.011783595954072785,0.9878143158016504
2017-01-23,1,0.0022749874205804637,0.0022962968112178253,-0.006070179976131315,0.010297130869028445,0.9885670093914455
2017-01-25,1,0.003520674106190554,0.0037065585021867696,-0.006070179976131315,0.01182982295833965,0.9883800335670818
2017-01-27,1,0.0033343017880941924,0.00353206493876275,-0.008793663540872094,0.01182982295833965,0.9877738530978236
2017-01-31,1,0.0027891732698085547,0.0029054957306208916,-0.010785331635020514,0.014615209216951587,0.9865006250745749
2017-02-02,1,0.0014768844171894322,0.0015582491710392755,-0.005178359175997314,0.014615209216951587,0.986623922894938
2017-02-06,1,0.0024096038990468493,0.002439106843677758,-0.005178359175997314,0.012235818330317129,0.9877188801876847
2017-02-08,1,0.0003639565662082707,0.0006057165967126241,-0.0024856504305327634,0.012235818330317129,0.9883312971433706
2017-02-10,1,0.0004601335758240839,0.0007285264483485899,-0.0024856504305327634,0.012235818330317129,0.9887545859493058
2017-02-14,1,0.0013349849627065583,0.0015177018582967648,-0.004453984134910103,0.011522479735757384,0.9900528266218457
2017-02-16,1,0.0021611334456970296,0.0022475614090340635,-0.004453984134910103,0.008211179565805499,0.9905224839003842
2017-02-21,1,0.002076739807757878,0.0022299614133548793,-0.010300623034766454,0.008211179565805499,0.9870441362256764
2017-02-23,1,0.003389558573791808,0.0034559215853023897,-0.011612978524743231,0.0039907954102918475,0.9865294911080105
2017-02-27,1,0.002279288501175543,0.0024253660708484065,-0.009269655092033806,0.0039907954102918475,0.9876196872783413
2017-03-01,1,0.003393092293099459,0.0034146085073552,-0.006915151890544765,0.0039907954102918475,0.9874823557648854
2017-03-03,1,0.002475035236132578,0.002564459362571354,-0.006693187089452156,0.008211179565805499,0.9867311135875552
2017-03-07,1,0.0026786184598427904,0.002765401250040025,-0.008603760688755981,0.005538566704423977,0.9864691709640071
2017-03-09,1,0.001474592779828384,0.0017107354347011528,-0.008603760688755981,0.006372697132971479,0.9865141427154784
2017-03-13,1,0.0015537949947697061,0.001777991171859275,-0.010689256828699248,0.00614444077210112,0.9857221282178075
2017-03-15,1,0.0008916733872317507,0.0011890365920745104,-0.011934717264809228,0.007987102958286627,0.9846913296977949
2017-03-17,1,0.0010269652223716297,0.0013312452297538947,-0.015094448475351407,0.007987102958286627,0.983550643106653
2017-03-21,-1,-0.0029437043196738934,-0.002203398731305911,-0.010689256828699248,0.014735238246465741,0.9858134187585663
2017-03-23,-1,-0.002494034213508519,-0.0017709014219175752,-0.008711006935444646,0.014735238246465741,0.9860662203704812
2017-03-27,-1,-0.002563909812211605,-0.0018942090426490935,-0.012323283387219459,0.018610666676931772,0.9830886541668514
2017-03-29,-1,-0.0010007899680022664,-0.00045299669321733206,-0.01306501382246193,0.014735238246465741,0.9842200037449917
2017-03-31,-1,-0.0012287115746968831,-0.0005892314995346456,-0.01662682168195668,0.013447136471375586,0.984378246554446
2017-04-04,-1,-0.0016326701531110019,-0.0009445918567025904,-0.01662682168195668,0.013447136471375586,0.9849578385878913
2017-04-06,-1,-0.0009702998188668226,-0.0004749114020499146,-0.01306501382246193,0.014269648386828183,0.9854222490097073
2017-04-10,1,0.0007438829931503999,0.0009072921537610284,-0.012546061052473748,0.014269648386828183,0.9854564679006189
2017-04-12,0,-0.00018529124573569001,0.00014073606530944885,-0.012546061052473748,0.014269648386828183,0.9859468864978961
2017-04-17,1,0.00034296568530212145,0.0006070395261478981,-0.009329130234564999,0.011187358206558362,0.9870895482630241
2017-04-19,1,0.0013717238063915356,0.0015035659581704441,-0.012546061052473748,0.007218813513135742,0.9860816775141977
2017-04-21,1,0.0016494431929428355,0.0017642176730527305,-0.012546061052473748,0.007218813513135742,0.9859515469523913
2017-04-25,1,0.003360871106374555,0.003442924985029957,-0.010377054058137486,0.007218813513135742,0.9879939885519889
2017-04-27,1,0.003398252752376154,0.003504134939656377,-0.01092314562818936,0.007218813513135742,0.9877898950184779
2017-05-01,1,0.0030355270459092787,0.0030993247681323933,-0.010684660884384665,0.004274606533523654,0.9890064606093584
2017-05-03,1,0.002715812482680981,0.0027357354218730642,-0.010684660884384665,0.007218813513135742,0.9889867716837616
2017-05-05,1,0.0031952082000170773,0.003333827185407315,-0.010684660884384665,0.004274606533523654,0.9892055872576528
2017-05-09,1,0.0026622303848587623,0.002716151761364872,-0.0101334013613102,0.004350594044188241,0.9894084453767843
2017-05-11,1,0.002383551930102803,0.00245974651050897,-0.008788158426470204,0.01056712775332782,0.9878176624861241
2017-05-15,1,0.002783679763637732,0.0029509649215023774,-0.008638182006394431,0.01056712775332782,0.9876619594988886
2017-05-17,1,0.0012587784482669608,0.0012889331613832075,-0.006988576588578861,0.01056712775332782,0.9897977409959502
2017-05-19,1,0.0015364730336185246,0.001552183837202595,-0.006988576588578861,0.004997265574986738,0.9899177849457933
2017-05-23,1,0.001954504466464949,0.0020190136191741573,-0.010752075021314986,0.0025055854245436306,0.9889963692706601
2017-05-25,1,0.0011497015915059388,0.001219286819232968,-0.00884440655972936,0.0033103642857458372,0.9896147981729181
2017-05-30,1,0.0009483974486098657,0.0010096993658579804,-0.006988576588578861,0.004953262605946371,0.9897638908733398
2017-06-01,1,0.0009894127986648494,0.0011046791201176692,-0.006988576588578861,0.009925960535588342,0.9888485078060898
2017-06-05,1,0.0004612775736822151,0.0006330384485188761,-0.007591895663445485,0.011812337842176718,0.9879530678594058
2017-06-07,1,0.0002985173818340855,0.0005091392977993351,-0.00884440655972936,0.011704836209441568,0.9876053125151006
2017-06-09,1,0.0020253833149101543,0.0020865570069786748,-0.008987713811009329,0.004953262605946371,0.9892021818148853
2017-06-13,1,0.0017103417539157202,0.001782065771218734,-0.008987713811009329,0.008051739334435905,0.9897441053271785
2017-06-15,1,0.001655604128310571,0.0017302424618386907,-0.009034635627632095,0.008051739334435905,0.9893422540977324
2017-06-19,1,0.0015826447599984145,0.0016155853067220422,-0.008445598865759225,0.008051739334435905,0.9897543437134473
2017-06-21,1,0.0001322615648042142,0.0003559898147036353,-0.007405849074551153,0.008117668343874854,0.9910094693834216
2017-06-23,1,4.533617845523799e-07,0.0002557881193023553,-0.0077285112422553395,0.008117668343874854,0.9906186768837817
2017-06-27,-1,-0.0005974930330655207,-0.00023726270243435246,-0.008445598865759225,0.007460919896390869,0.9905428973275293
2017-06-29,1,0.0008475008938705478,0.0010114005343207452,-0.008445598865759225,0.004588788424135127,0.9917238990458835
2017-07-03,1,0.0004275385724429859,0.0007111175672454742,-0.008445598865759225,0.005896334316680061,0.9919615813088554
2017-07-06,-1,-0.0004441014936019095,-0.00010032846910505591,-0.0077285112422553395,0.005896334316680061,0.9925219766312834
2017-07-10,1,0.00022688554347026144,0.00044827235399574027,-0.0077441518477962615,0.004588788424135127,0.9927595695084085
2017-07-12,1,0.0013116718738181512,0.0013718560427207027,-0.00926412333842095,0.004588788424135127,0.9915586381351836
2017-07-14,1,0.000661573384555036,0.000791736108165056,-0.011609726336608409,0.004588788424135127,0.991128908170008
2017-07-18,1,0.0013096018481822914,0.0013103363958598868,-0.01197828310940385,0.0056688031714218065,0.9891119203303136
2017-07-20,1,0.0009655695021249325,0.0010412121936857165,-0.013084764117115738,0.004588788424135127,0.9878658799018147
2017-07-24,1,0.0011179298007261492,0.0011500853492319193,-0.013084764117115738,0.004875460359953925,0.988086273683979
2017-07-26,1,0.00016872742599715078,0.0003455832307395862,-0.01216386397915289,0.007130931674832516,0.988305251010118
2017-07-28,1,0.000615708629089968,0.000698006018130457,-0.01216386397915289,0.008192488119980306,0.9880967210429641
2017-08-01,1,0.0009363073369774303,0.0010155124491730665,-0.01216386397915289,0.006599220603378185,0.9888337227668478
2017-08-03,1,0.00048056191264156736,0.0005972280663659102,-0.007707399579317393,0.007130931674832516,0.988832302460939
2017-08-07,-1,-0.0005203681870722594,-0.0002575144807945429,-0.008065436775603287,0.007130931674832516,0.9876998339375157
2017-08-09,-1,-0.0007519005183801153,-0.00048387885207180404,-0.010710580906806884,0.007130931674832516,0.9876161013794058
2017-08-11,-1,-0.0031859249649668054,-0.0024995615136597267,-0.006462260779008539,0.008785994146993052,0.9873035203432535
2017-08-15,-1,-0.001686741828374537,-0.0012539580566261423,-0.004687149664378809,0.008785994146993052,0.9885588287201268
2017-08-17,-1,-0.0030210637027024913,-0.002405227736434447,-0.004687149664378809,0.008785994146993052,0.9898734293109067
2017-08-21,-1,-0.0015579523845359038,-0.0011510571958788837,-0.004687149664378809,0.011504914481128871,0.9891630439794029
2017-08-23,-1,-0.00034283899269860695,-0.00013341165317139116,-0.004687149664378809,0.012699609573089906,0.9890426565827407
2017-08-25,-1,-0.00022345771641717476,-2.2523250144954867e-05,-0.00542269185626659,0.01181715427586471,0.9890497886258187
2017-08-29,-1,-0.0010249469854519814,-0.0007134681024993121,-0.0046408018941337245,0.013830359511047174,0.9867245477732268
2017-08-31,-1,-0.000872409647887364,-0.0005570765899136655,-0.0046408018941337245,0.013820679736315808,0.9871070428143307
2017-09-05,-1,-0.002535238735982456,-0.0020074599079351976,-0.0005668847935435196,0.014220916722095415,0.9874849409483105
2017-09-07,-1,-0.0030838459446040495,-0.0025225841649910707,0.0,0.014220916722095415,0.987267517305816
2017-09-11,-1,-0.0012930043227448692,-0.0009928841982412516,-0.0005668847935435196,0.013769741285890626,0.9890758078276762
2017-09-13,-1,-0.0009105936438347684,-0.0006856153444415032,-0.0005668847935435196,0.013769741285890626,0.9892468018484675
2017-09-15,1,0.0005030023440802897,0.0006391202041736247,-0.0013440860215053765,0.013769741285890626,0.9893605614130934
2017-09-19,1,0.0012236483741259341,0.0014400319382488406,-0.005535279319947521,0.012461401114845345,0.9903186877994063
2017-09-21,1,0.001696739757330579,0.0019485862276256627,-0.005535279319947521,0.009798056149227932,0.9911696120377752
2017-09-25,1,0.0016270986826998428,0.00186246919461385,-0.006255563191348434,0.009798056149227932,0.9910277052915767
2017-09-27,1,0.003710430913882851,0.004244937431666231,-0.006255563191348434,0.006024154093088535,0.9931969220470763
2017-09-29,1,0.0038900580480782493,0.004420352606206659,-0.006255563191348434,0.006024154093088535,0.9932738658963732
2017-10-03,1,0.003919916642060553,0.004382015571370201,-0.007480537897176433,0.005283244195500251,0.9922440490401048
2017-10-05,1,0.003698503299093575,0.004160062430970718,-0.006255563191348434,0.005283244195500251,0.9927943747000056
2017-10-09,1,0.0023850871631940222,0.002575337538923428,-0.006012085021725569,0.004972951971054732,0.9928907949472991
2017-10-11,1,0.0031364632633776013,0.0034325101954878565,-0.007500808641692688,0.003275532203380931,0.9912596352172355
2017-10-13,1,0.00249936916339871,0.0027747469075976553,-0.006609892148668506,0.003275532203380931,0.9922099836902188
2017-10-17,1,0.0019177786290915134,0.0020716094995213534,-0.006609892148668506,0.005295389713700012,0.9916533935469498
2017-10-19,1,0.0020292382142507903,0.002166685373144186,-0.006609892148668506,0.00711481597814917,0.9912772101219868
2017-10-23,1,0.0017246494896903082,0.0018642024860676234,-0.00529090004331018,0.01097117889601024,0.9914092356897005
2017-10-25,1,0.0018145789392584497,0.0019312129665075225,-0.00529090004331018,0.01097117889601024,0.9912798288094409
2017-10-27,1,0.0022647696394042785,0.0024515072202785284,-0.005985081501962659,0.00858136245556292,0.9911967210288998
2017-10-31,1,0.0026858179737112332,0.0030991238446085537,-0.005210571066607151,0.013177943079338518,0.9914028383949302
