JNU-Tangyin/eata/results/Batch4_SP500/Batch4_SP500-XEL.csv
Date,Action,Predicted_Q25,Predicted_Q75,Actual_Q25,Actual_Q75,RL_Reward
2010-12-14,0,0.0,1.4892299960615448e-05,-0.003078185360611759,0.002234576533389047,0.9965546932477388
2010-12-16,1,7.12667953073952e-05,7.549071984725504e-05,-0.003078185360611759,0.0017982324613995196,0.9970795481637357
2010-12-20,1,5.67873498950009e-05,6.180038305343344e-05,-0.003078185360611759,0.002234576533389047,0.9964196977980958
2010-12-22,0,-3.442566084095502e-05,3.5895940661501906e-06,-0.002301014046322895,0.0025559694536078387,0.9964081131138459
2010-12-27,-1,-0.0008677090371439356,-0.0006490570553154189,-0.002301014046322895,0.0029793271609992256,0.9960575731206004
2010-12-29,-1,-0.000674419369193416,-0.000492634228966945,-0.00305668370627802,0.0032531817945644606,0.9958505922552697
2010-12-31,-1,-0.00027170522858373014,-0.00016375218918736253,-0.003502508397317422,0.0032531817945644606,0.9950032914177497
2011-01-04,-1,-0.00035365860326447914,-0.00021659932178060004,-0.004113818084570611,0.0038649957869878763,0.9943101910220385
2011-01-06,0,0.0,0.0,-0.003502508397317422,0.0038649957869878763,0.9944066617971812
2011-01-10,0,0.0,0.0,-0.00305668370627802,0.0038649957869878763,0.9945980830993613
2011-01-12,0,0.0,0.0,-0.0029371775836949322,0.0038649957869878763,0.9948093024899403
2011-01-14,0,0.0,0.0,-0.0029371775836949322,0.005769611053504103,0.9943157312237485
2011-01-19,0,0.0,0.0,-0.002630066322031834,0.0035576146613234827,0.9949062605810254
2011-01-21,0,-2.1031900392620497e-05,1.32056140798538e-05,-0.002630066322031834,0.002312333122276065,0.9954241354661325
2011-01-25,-1,-4.713394805257516e-05,-1.014432630850439e-05,-0.0034476019210859113,0.002105474529001657,0.9953439992391856
2011-01-27,-1,-5.4278685350274346e-05,-2.06500321020914e-05,-0.003154235843652677,0.002105474529001657,0.9949144031611188
2011-01-31,-1,-0.00026913745390290004,-0.00021023638662968236,-0.003154235843652677,0.0028411020638612052,0.9947162816595332
2011-02-02,0,0.0,0.0,-0.002630066322031834,0.005143921486078904,0.9946371541695606
2011-02-04,0,0.0,0.0,-0.001987434585952964,0.005143921486078904,0.994493594885033
2011-02-08,0,0.0,0.0,-0.0013628377288774306,0.0055264242801835416,0.9937856018137539
2011-02-10,0,0.0,0.0,-0.0022066727899995187,0.0055264242801835416,0.9927622753371574
2011-02-14,0,0.0,0.0,-0.0048539085681215365,0.005208115838422735,0.9920967767125546
2011-02-16,0,0.0,0.0,-0.008735560102733634,0.00600084987247055,0.991426161573584
2011-02-18,-1,-0.0007068572129368331,-0.0005556557067548226,-0.008735560102733634,0.007052945003395457,0.990937245762626
2011-02-23,-1,-0.001259515835948097,-0.001035758810483722,-0.01034885818269373,0.007052945003395457,0.9908064409994144
2011-02-25,-1,-0.0007347682442378385,-0.0005927248824189899,-0.01034885818269373,0.00600084987247055,0.9913021876335881
2011-03-01,-1,-0.0011691324072335674,-0.0010115721641384987,-0.005405057048288858,0.007052945003395457,0.991851271088738
2011-03-03,-1,-0.00027380456627100594,-0.00022247455719900537,-0.005405057048288858,0.00600084987247055,0.9921785684132532
2011-03-07,-1,-0.0004634447164824275,-0.00036425690132044653,-0.005405057048288858,0.007123068363092028,0.9918956769656335
2011-03-09,1,0.0007196420664243876,0.000770254069472384,-0.005946052981861329,0.006075724672073809,0.9926674164319498
2011-03-11,1,0.0004902739988885003,0.0005552464891791195,-0.0057112797027569235,0.006075724672073809,0.9930950503106155
2011-03-15,-1,-0.0008755349665729948,-0.0007862227463486494,-0.004662829338983347,0.006075724672073809,0.9937623357630158
2011-03-17,-1,-0.0010067567167667518,-0.0009058684144175442,-0.004010125705001772,0.006060481531626054,0.9940017047966356
2011-03-21,-1,-0.000562952543806418,-0.0005311105029773419,-0.004662829338983347,0.006060481531626054,0.9935211219178881
2011-03-23,-1,-0.0012759290912265134,-0.0011396833378763901,-0.004561073983584821,0.007077338941748763,0.9934409136836018
2011-03-25,-1,-0.0012259905115828626,-0.0010804925256495666,-0.004561073983584821,0.007077338941748763,0.9936207407794432
2011-03-29,-1,-0.0007206313464882097,-0.0006551483623331527,-0.004561073983584821,0.006060481531626054,0.9938409696148871
2011-03-31,1,0.00039559569209448887,0.0005208197247794269,-0.004561073983584821,0.0049698554002557595,0.9946630120676722
2011-04-04,1,0.0006583133987144718,0.0007959275257234239,-0.004561073983584821,0.004278603583591547,0.9950510475644291
2011-04-06,1,0.0007927856518814624,0.0009487929523369603,-0.004692686374015078,0.003529392757743897,0.9950783387468943
2011-04-08,-1,-4.5871369353724514e-05,-3.287048672633642e-05,-0.00011664344261005471,0.003529392757743897,0.9953529886146477
2011-04-12,-1,-0.001386228789459557,-0.0012100216207057931,0.0004147631938516434,0.004278603583591547,0.9945732450822338
2011-04-14,-1,-0.000577309857166042,-0.0005138361162610377,0.0004147631938516434,0.0043151128051924816,0.9945830681849189
2011-04-18,-1,-0.0004000250023167651,-0.00033131186579232367,0.00041588014306271693,0.0043151128051924816,0.9952169477954262
2011-04-20,-1,-0.00012645556885938381,-9.60584451573124e-05,0.00041588014306271693,0.003529392757743897,0.9957892116695852
2011-04-25,-1,-2.790996555232329e-05,-1.4679022956315274e-05,0.0006972141123443243,0.003529392757743897,0.9951654624075904
2011-04-27,1,0.0006632321916303169,0.0007782734115956363,-0.002289192794732848,0.0028797644931755555,0.9954147869598275
2011-04-29,1,0.0006129689323546481,0.0006965576694334349,-0.003522486349722,0.0025228645851343226,0.9952171193596053
2011-05-03,1,0.0005872359263901768,0.0006443084214986263,-0.0047510312852751275,0.0030118154268480354,0.9946401784853164
2011-05-05,1,0.0002974252203709712,0.00032183800010430737,-0.0047510312852751275,0.0030118154268480354,0.9946435086412855
2011-05-09,1,0.0006340188794047269,0.0007329029125448083,-0.005110204040010718,0.0030118154268480354,0.9943903431140982
2011-05-11,1,0.0008707666138856372,0.0010016926122103562,-0.004574993914283891,0.002388313751247254,0.9950795113775608
2011-05-13,0,0.0,0.0,-0.005110204040010718,0.0018353442161765307,0.9955891609657248
2011-05-17,0,0.0,0.0,-0.005431830337568471,0.0010075212593043017,0.9957555550146444
2011-05-19,0,0.0,0.0,-0.005431830337568471,0.001859980509167225,0.995051378921986
2011-05-23,1,0.0007681072803731491,0.0008531068006624152,-0.005431830337568471,0.001859980509167225,0.9950929696925267
2011-05-25,1,0.00048558459011656353,0.0005312946456626329,-0.0057407740683922265,0.001859980509167225,0.9946032138576582
2011-05-27,1,0.00039700644955645943,0.00042462763431898824,-0.0057407740683922265,0.0050110036141859824,0.9943076999103483
2011-06-01,1,0.0002877242409062696,0.00029161656399546445,-0.005453152718870146,0.0050110036141859824,0.994681870722276
2011-06-03,0,0.0,0.0,-0.005041375434872066,0.006437109699537256,0.9942579103722976
2011-06-07,1,9.729254736049744e-05,0.00010758796044343388,-0.005441547634629614,0.006437109699537256,0.9941268325612396
2011-06-09,-1,-0.00014704601230870211,-0.00010543311909979514,-0.005705958815670632,0.006437109699537256,0.9938591190415156
2011-06-13,-1,-0.00010019267865161329,-7.490091065002632e-05,-0.005880605536227856,0.005787705782096927,0.9935623764756472
2011-06-15,1,1.9569588928348066e-05,2.4451161201176275e-05,-0.006829324571260062,0.005787705782096927,0.9933868634187937
2011-06-17,1,0.000379492748078224,0.00042479038119826407,-0.007916052988159988,0.0039030121996199135,0.9936899222210974
2011-06-21,1,0.00022899305099653876,0.00024994876179516574,-0.006829324571260062,0.005787705782096927,0.9932234842855517
2011-06-23,0,0.0,0.0,-0.004766112908488149,0.007243925801350383,0.9931774818700317
2011-06-27,0,0.0,0.0,-0.004766112908488149,0.005787705782096927,0.9936942351017455
2011-06-29,0,0.0,0.0,-0.005880605536227856,0.004096936755856944,0.9935570995629067
2011-07-01,1,0.00016724147252917323,0.00017412806630074184,-0.006829324571260062,0.0021676484196470596,0.9938119542540728
2011-07-06,1,0.00023154865368571486,0.00024302328191288798,-0.008333502210943436,0.0016356626069054944,0.9930168820247327
2011-07-08,0,0.0,0.0,-0.009927251397383416,0.0025941059378337327,0.9912553124982886
2011-07-12,0,0.0,0.0,-0.009927251397383416,0.0036700574404138564,0.9886576992464224
2011-07-14,0,0.0,0.0,-0.010540952209084449,0.009865338703820909,0.9858709569575907
2011-07-18,0,0.0,0.0,-0.009927251397383416,0.011802071696247932,0.984952780096718
2011-07-20,-1,-0.00046863020846087664,-0.0003778957224443529,-0.009927251397383416,0.010060501164897127,0.9854573001811526
2011-07-22,1,0.00024011724125443177,0.00025820166850404314,-0.010480375603009084,0.003337606411054431,0.9856442228439786
2011-07-26,1,1.435755150942187e-05,3.5379017141159336e-05,-0.010480375603009084,0.010060501164897127,0.9842627117043237
2011-07-28,1,3.35944627546895e-05,4.707984514589485e-05,-0.0113190132432234,0.014584823788827483,0.9834566815266326
2011-08-01,1,6.34336136274339e-05,9.163322341343373e-05,-0.0113190132432234,0.01491471976500686,0.9831782184877887
2011-08-03,-1,-0.0009166450501593524,-0.0008100724867605795,-0.005313613263603261,0.01491471976500686,0.9836454541700709
2011-08-05,-1,-0.0014895109780859385,-0.0012813773638147082,-0.008939494774621417,0.01424131030190379,0.9850381213099548
2011-08-09,-1,-0.002517822702630534,-0.0021864949896977038,-0.007084725795219353,0.012264666665998191,0.987574473559651
2011-08-11,0,0.0,0.0,-0.007084725795219353,0.010278593197933908,0.9898664795671563
2011-08-15,1,0.00011223207735012284,0.00012651588360268354,-0.007084725795219353,0.010278593197933908,0.9899166633939301
2011-08-17,-1,-0.0004536941277765894,-0.00038313236450813153,-0.007084725795219353,0.01176582266238723,0.9893727578375022
2011-08-19,0,0.0,0.0,-0.0044265656809020235,0.01176582266238723,0.9894392079710348
2011-08-23,0,0.0,0.0,-0.007084725795219353,0.010573054164382511,0.9901339490215937
2011-08-25,0,0.0,0.0,-0.007084725795219353,0.010048152666973101,0.9903393856890538
2011-08-29,0,0.0,0.0,-0.007084725795219353,0.009865984610328211,0.9908993699847012
2011-08-31,0,0.0,0.0,-0.0085993580463579,0.010048152666973101,0.9904692786447103
2011-09-02,-1,-0.0004317109729909257,-0.0003374141255559035,-0.008838880729651912,0.010048152666973101,0.9902288907606296
2011-09-07,-1,-0.00026127343817424517,-0.00020026307977077864,-0.010265446134260094,0.008808440711807159,0.9899706782710344
2011-09-09,-1,-0.0004757691169970472,-0.0004011499995030318,-0.008838880729651912,0.010048152666973101,0.9899061537843443
2011-09-13,1,0.00022750007444831,0.00024642762660850756,-0.00965360157891682,0.010048152666973101,0.9901330860011837
2011-09-15,0,0.0,0.0,-0.00965360157891682,0.007904885602050979,0.991100532239953
2011-09-19,0,0.0,0.0,-0.00965360157891682,0.007710306555130497,0.9911714193178571
2011-09-21,0,0.0,0.0,-0.008838880729651912,0.007904885602050979,0.9912761744935656
2011-09-23,0,0.0,0.0,-0.005222365295178263,0.010401674762471539,0.9913395127043637
2011-09-27,0,0.0,0.0,-0.008838880729651912,0.010401674762471539,0.9908710793804145
2011-09-29,0,0.0,0.0,-0.007169033310638997,0.010401674762471539,0.9901489851607183
2011-10-03,0,0.0,0.0,-0.0046681207490241695,0.010401674762471539,0.9907004340782886
2011-10-05,0,0.0,0.0,-0.0046681207490241695,0.010989675791213575,0.9894171946827995
2011-10-07,0,0.0,0.0,-0.0056613677899835435,0.010989675791213575,0.9896081530988939
2011-10-11,0,0.0,0.0,-0.004350313757523716,0.010401674762471539,0.9903098798496117
2011-10-13,0,0.0,0.0,-0.0056613677899835435,0.01052761367734985,0.9887627753445246
2011-10-17,0,0.0,0.0,-0.007311265532071261,0.010989675791213575,0.9880466330476134
2011-10-19,0,0.0,0.0,-0.009817706104009848,0.01052761367734985,0.9876714945748565
2011-10-21,-1,-0.0021960225758706113,-0.0015885994604587313,-0.009817706104009848,0.010951368003281696,0.9879611428972744
2011-10-25,1,0.0011773138340171142,0.0013324474027186655,-0.011737984556614282,0.010951368003281696,0.9872605904229316
2011-10-27,1,0.0018081865062647997,0.0020437321792924255,-0.012937610374279974,0.010443193067454948,0.9877309415138026
2011-10-31,1,0.0014420288585355978,0.0016152803378176204,-0.012937610374279974,0.010951368003281696,0.987706398685415
2011-11-02,0,0.0,0.0,-0.010690214249184834,0.010951368003281696,0.9885913355643146
2011-11-04,0,0.0,0.0,-0.01284215191038232,0.010443193067454948,0.9886157294004229
2011-11-08,0,0.0,0.0,-0.01284215191038232,0.010443193067454948,0.9888952530811586
2011-11-10,0,0.0,0.0,-0.01284215191038232,0.010896875807444893,0.9891612021873639
2011-11-14,0,0.0,0.0,-0.010690214249184834,0.009834476068574637,0.9902264687625694
2011-11-16,0,0.0,0.0,-0.009185986046203168,0.010943768724833687,0.9901606014301414
2011-11-18,0,0.0,0.0,-0.005360524772611362,0.007665783177541902,0.9910250070604423
2011-11-22,1,0.0013680704831702634,0.001544875873779486,-0.0034225555644087457,0.012345843776382938,0.9904452464777725
2011-11-25,0,0.0,0.0,-0.0034225555644087457,0.012345843776382938,0.9901949328971889
2011-11-29,0,0.0,0.0,-0.0035510389864869033,0.012345843776382938,0.9901416696133126
2011-12-01,0,0.0,0.0,-0.0034225555644087457,0.009871270581845521,0.9908643854729244
2011-12-05,1,0.0010440438283973448,0.0011441595320063433,-0.004048345241111751,0.009871270581845521,0.9908931711396738
2011-12-07,1,0.0007262738340454066,0.0007641735887254,-0.004048345241111751,0.009871270581845521,0.9907800775837936
2011-12-09,1,0.0006607688724934386,0.000704851961485829,-0.0034225555644087457,0.008337791060455546,0.9918286190943201
2011-12-13,0,0.0,0.0,-0.0059906680829107176,0.008337791060455546,0.9906809278430285
2011-12-15,0,0.0,0.0,-0.0059906680829107176,0.007576161118751916,0.9916933333889857
2011-12-19,0,0.0,0.0,-0.007081746591348555,0.007576161118751916,0.9912370381135572
2011-12-21,0,0.0,0.0,-0.007081746591348555,0.004437305278422875,0.993295413150499
2011-12-23,0,0.0,0.0,-0.0059906680829107176,0.004437305278422875,0.9932618097732525
2011-12-28,0,0.0,0.0,-0.007081746591348555,0.004437305278422875,0.9929343924608518
2011-12-30,0,0.0,0.0,-0.009145206524658278,0.002790582956050325,0.9926293088526036
2012-01-04,0,0.0,0.0,-0.008781378636449344,0.002790582956050325,0.9930255175507339
2012-01-06,0,0.0,0.0,-0.008781378636449344,0.0028095951598201643,0.9928653707134796
2012-01-10,0,0.0,0.0,-0.008781378636449344,0.0028095951598201643,0.9929829339971308
2012-01-12,0,0.0,0.0,-0.0032925958928790417,0.0028095951598201643,0.9941927641786497
2012-01-17,0,0.0,0.0,-0.0032925958928790417,0.00253604721949553,0.9942095734506483
2012-01-19,0,0.0,0.0,-0.0032925958928790417,0.0026519837867238247,0.9942735172586602
2012-01-23,0,0.0,0.0,-0.0032925958928790417,0.003231167331867877,0.9941421052874486
2012-01-25,0,0.0,0.0,-0.0030128630705044037,0.0020827023226167086,0.9952419293002278
2012-01-27,1,0.000650544668994041,0.00065440114556174,-0.0023567327900011585,0.0018891357660605593,0.9964405804450656
2012-01-31,-1,-0.000268248136785615,-0.0001500178072412186,-0.0023567327900011585,0.0020827023226167086,0.9970584821231118
2012-02-02,-1,-0.000431619424106748,-0.0002887853094025043,-0.0026390311896711096,0.0020827023226167086,0.9972259098856464
2012-02-06,0,-4.999933880920298e-05,8.381045783950342e-05,-0.0026390311896711096,0.0020827023226167086,0.9971990425861982
2012-02-08,1,2.4328125093573414e-05,0.00012955098126406678,-0.0026390311896711096,0.0027489334800923863,0.9970068146905656
2012-02-10,1,6.621484397393196e-05,0.00016573009506064534,-0.0023612251905034236,0.003996979370115165,0.9961841289406181
2012-02-14,0,-4.404813709077128e-05,6.761175891006492e-05,-0.0029331372610481837,0.003996979370115165,0.9952651841702983
2012-02-16,0,0.0,0.0,-0.0029331372610481837,0.0034486376048067165,0.9953481798065927
2012-02-21,0,0.0,0.0,-0.00396207110811634,0.0034486376048067165,0.9950285631850506
2012-02-23,0,0.0,0.0,-0.00396207110811634,0.0034486376048067165,0.9950281073951064
2012-02-27,0,0.0,0.0,-0.00396207110811634,0.003996979370115165,0.994611672351851
2012-02-29,0,0.0,0.0,-0.004441117133585019,0.003996979370115165,0.9944613358745199
2012-03-02,0,0.0,0.0,-0.003894690900681575,0.003996979370115165,0.9944411894652372
2012-03-06,-1,-0.00032812321014143934,-0.00018274688601418413,-0.0019018364952365738,0.004634778397779313,0.9944746976696268
2012-03-08,0,0.0,0.0,-0.005051710381926739,0.0038830153480652898,0.9944515031252212
2012-03-12,0,0.0,0.0,-0.005834397388423538,0.0034145830589499557,0.9946493247948115
2012-03-14,1,0.00014287208854814342,0.00015859537005966798,-0.005051710381926739,0.003515498543604302,0.9953382480301013
2012-03-16,-1,-0.00035033548914054053,-0.00027997514250471036,-0.0048863494854311795,0.0038830153480652898,0.9949089255562423
2012-03-20,-1,-0.0014455753826842586,-0.0011672438296519388,-0.0048863494854311795,0.004253555518825906,0.9950073620671721
2012-03-22,-1,-0.0005548427576241201,-0.0004624684329674555,-0.0048863494854311795,0.0048527106748258286,0.9940085753121564
2012-03-26,-1,-0.0007600005517829622,-0.0006117101556490254,-0.005048716208064277,0.0048527106748258286,0.9936753188841569
2012-03-28,0,0.0,0.0,-0.0048863494854311795,0.006019917205536281,0.9936778823882516
2012-03-30,0,0.0,0.0,-0.0048863494854311795,0.006019917205536281,0.9937772686689756
2012-04-03,0,0.0,0.0,-0.005048716208064277,0.0048527106748258286,0.9940432230563978
2012-04-05,0,0.0,0.0,-0.0037919198442246233,0.0048527106748258286,0.9944331661327792
2012-04-10,0,0.0,0.0,-0.0022821133153848355,0.0063080355114100446,0.9944669045695104
2012-04-12,0,0.0,0.0,-0.0027142243296229985,0.008002535686323514,0.994084689232318
2012-04-16,0,0.0,0.0,-0.0019587384884470894,0.005391530088917528,0.9950158281333833
2012-04-18,0,0.0,0.0,-0.0019587384884470894,0.008002535686323514,0.994416320121733
2012-04-20,0,0.0,0.0,-0.0023975979571882735,0.005320611244200402,0.9949964378133879
2012-04-24,0,0.0,0.0,-0.0007403649110212687,0.005398653176838774,0.9948910100557026
2012-04-26,0,0.0,0.0,-0.002289164151512953,0.0032792254584955494,0.9950144640134176
2012-04-30,1,0.0008861593972966796,0.0010336911124757544,-0.002289164151512953,0.0026729600609171037,0.9950842194761088
2012-05-02,-1,-0.0004435431613923371,-0.0003061787216102173,-0.002289164151512953,0.004742440164806754,0.9940829590528848
2012-05-04,-1,-8.345090161961731e-05,-1.1007565348737034e-05,-0.0025052993277180947,0.006868270012096725,0.9939020277592107
2012-05-08,0,0.0,0.0,-0.0025052993277180947,0.006590338801533875,0.9938918722969297
2012-05-10,0,0.0,0.0,-0.0025052993277180947,0.0056980520242493875,0.9944129795955272
2012-05-14,1,0.000623714321782873,0.0007071105571997503,-0.0038365625825198097,0.0056980520242493875,0.9941548273085493
2012-05-16,1,0.0005975417651658725,0.0006957797932954328,-0.0025052993277180947,0.0056980520242493875,0.9947490648900092
2012-05-18,1,0.000528151512968012,0.0006120967390290967,-7.348957859885821e-06,0.0056980520242493875,0.9947041608857298
2012-05-22,0,0.0,0.0,-0.0038365625825198097,0.0053192423473289695,0.99387396066815
2012-05-24,0,0.0,0.0,-0.004641341768287677,0.0053192423473289695,0.9936324976738872
2012-05-29,0,0.0,0.0,-0.004641341768287677,0.0053192423473289695,0.9936328356092726
2012-05-31,1,0.0012487350311900687,0.0013200210689476876,-0.003023852446729408,0.0053192423473289695,0.9944981579391706
2012-06-04,1,0.002778735861112428,0.0032097824564266495,-0.003023852446729408,0.006517241081752466,0.993858055563235
2012-06-06,1,0.0027214796608417136,0.0030697687953556412,-0.0032278964955031473,0.004992188483452322,0.9938189987077373
2012-06-08,1,0.0024776935199094063,0.0027913378698692965,-0.002581468681682646,0.004992188483452322,0.9940876539826188
2012-06-12,1,0.002295915703724511,0.0025712449752590674,-0.0019377010902820117,0.005293415382184131,0.9943212989012219
2012-06-14,0,0.0,0.0,-0.0019377010902820117,0.004689026141331674,0.9946880202950331
2012-06-18,0,0.0,0.0,-0.0019377010902820117,0.004775160043038864,0.9948603676750403
2012-06-20,1,0.0010731001197076219,0.001224181733034163,-0.0014780867291120626,0.004775160043038864,0.9959562569784942
2012-06-22,1,0.0004221365153664697,0.000466053628040412,-0.0014780867291120626,0.0055518170873057006,0.9957521396541449
2012-06-26,0,0.0,0.0,-0.001480988233003703,0.0055518170873057006,0.9954775846973406
2012-06-28,0,0.0,0.0,-0.001480988233003703,0.005653943605697107,0.9946554516088728
2012-07-02,0,0.0,0.0,-0.0020057157732065916,0.004775160043038864,0.995143276949495
2012-07-05,0,0.0,0.0,-0.0026503558241994024,0.004775160043038864,0.9947061450575639
2012-07-09,0,0.0,0.0,-0.0026503558241994024,0.0055518170873057006,0.9941968223975177
2012-07-11,-1,-0.0230116168417779,-0.013984252871292829,-0.005072513752716252,0.004775160043038864,0.9816934998617054
2012-07-13,0,0.0,0.0,-0.005365940928381832,0.004778749877315147,0.9936256648877452
2012-07-17,0,0.0,0.0,-0.005365940928381832,0.00444190566854738,0.9936937523484881
2012-07-19,1,2.1316964300894856e-08,2.2840410187788786e-08,-0.0056392271679692255,0.00444190566854738,0.993774204005736
2012-07-23,1,0.0006948578080438859,0.0007505842787372978,-0.004940464756019407,0.0016253092843097577,0.9941149456157816
2012-07-25,1,0.0004136173209584813,0.0004255895059791462,-0.004940464756019407,0.0016253092843097577,0.9941098157395947
2012-07-27,1,0.0007597262693084064,0.0008089842987792028,-0.005753704116157397,-8.933926665362823e-05,0.9937790196772139
2012-07-31,1,0.000794516888311737,0.0008593514645851954,-0.004940464756019407,-8.933926665362823e-05,0.9943386593352607
2012-08-02,1,0.0005731809499962732,0.0006242977295826877,-0.0041640580964104265,0.00017391702403192936,0.9948600458442246
2012-08-06,0,0.0,0.0,-0.0041640580964104265,0.0008797801424651058,0.9954106611150806
2012-08-08,1,0.00017449635725037488,0.00019244375246142885,-0.0038425489132664285,0.0015230746104121042,0.9954237804812485
2012-08-10,1,0.00040689402506734364,0.00048671886016411677,-0.0038425489132664285,0.0008797801424651058,0.9953901840992848
2012-08-14,1,5.428002414549558e-05,0.00018405726945922143,-0.0036520050214020683,0.0006249390902823497,0.9954122117581475
2012-08-16,-1,-0.0003041605351091439,-0.00013818466327909762,-0.0036520050214020683,0.0015230746104121042,0.9948329238874962
2012-08-20,-1,-0.0006682628464102939,-0.0004490766367735723,-0.006873408551307838,0.0015230746104121042,0.9938625186289909
2012-08-22,-1,-0.001099979036818066,-0.0008429696314259776,-0.004628388321323038,0.0015230746104121042,0.9942965966216302
2012-08-24,-1,-0.001284605156929184,-0.00102927737846314,-0.003954273262780148,0.0015230746104121042,0.9950321124332457
2012-08-28,-1,-0.0016323291927028295,-0.0013095399884333289,-0.003954273262780148,0.002535173800820737,0.9947846921744753
2012-08-30,-1,-0.0023790040685180164,-0.0019291050139449955,-0.004684345066845385,0.00441561200280764,0.993930539820672
2012-09-04,-1,-0.0019704328054304518,-0.0015729349251887804,-0.0071471645575256195,0.004350641308892309,0.9938348985554102
2012-09-06,0,0.0,0.0,-0.0071471645575256195,0.005400379716077601,0.9935857456432237
2012-09-10,0,0.0,0.0,-0.004684345066845385,0.005400379716077601,0.9939508530284601
2012-09-12,0,0.0,0.0,-0.005178856488493331,0.005400379716077601,0.9938426058896392
2012-09-14,0,0.0,0.0,-0.0041750671488518095,0.003970117946303037,0.9946858415002439
2012-09-18,0,0.0,0.0,-0.0036894917416127803,0.0045161093900158225,0.9955314660705415
2012-09-20,0,0.0,0.0,-0.0036894917416127803,0.005400379716077601,0.9948221766893256
2012-09-24,0,0.0,0.0,-0.0036894917416127803,0.0045161093900158225,0.9950365229769954
2012-09-26,0,0.0,0.0,-0.004119110403329464,0.0045161093900158225,0.9947028488175993
2012-09-28,-1,-0.0011204889148117379,-0.0009388329055455205,-0.003930350173699218,0.0045161093900158225,0.9950504754554873
2012-10-02,-1,-0.0011879354014895601,-0.0010060592427808533,-0.003930350173699218,0.0045161093900158225,0.9951302427953499
2012-10-04,-1,-0.0009151109327630844,-0.000759992233281117,-0.004353257631122242,0.002406320059125023,0.9947391635925605
2012-10-08,-1,-0.000972025816036154,-0.0008092861023573579,-0.00553613810643908,0.002406320059125023,0.9938891016758172
2012-10-10,0,0.0,0.0,-0.008145939580646178,0.002406320059125023,0.9931753583183178
2012-10-12,0,0.0,0.0,-0.008283537843092312,0.003519473187688677,0.9923814244569862
2012-10-16,0,0.0,0.0,-0.009067817431139893,0.0026428404375461673,0.9919325292106443
2012-10-18,0,0.0,0.0,-0.009067817431139893,0.0007748913455318757,0.9920118639935904
2012-10-22,0,0.0,0.0,-0.009067817431139893,0.001622075739873074,0.9923883626773
2012-10-24,0,0.0,0.0,-0.008746128441303642,0.0044833512798242514,0.9922494669747999
2012-10-26,0,0.0,0.0,-0.008746128441303642,0.0044731795970461685,0.9925855389250088
2012-11-01,-1,-9.709646102434562e-05,-8.541481216264315e-05,-0.008746128441303642,0.005331391745070306,0.9923062643160793
2012-11-05,-1,-0.0010102996804025322,-0.0008989857295987884,-0.006863357283536513,0.005331391745070306,0.9929278607996492
2012-11-07,-1,-0.0013936148707271966,-0.0012623083308930722,-0.005380613032092967,0.005811843040694809,0.9927857444703305
2012-11-09,-1,-0.0017915100068908968,-0.0016336112646758605,-0.004102289485106087,0.005811843040694809,0.9931344581508846
2012-11-13,-1,-0.0027167945859257756,-0.0023930512967289697,-0.003219264990868601,0.005781327992360563,0.9937263390725966
2012-11-15,-1,-0.0031482345314286014,-0.002755067944727188,-0.003219264990868601,0.005781327992360563,0.9940598395716195
2012-11-19,-1,-0.0029158708278821483,-0.0025460496082324842,-0.0026587444996551647,0.007931596235267176,0.9933297353039808
2012-11-21,-1,-0.002592892998082896,-0.002284511788565271,-0.003219264990868601,0.007931596235267176,0.9930949579462157
2012-11-26,-1,-0.0017585913453863453,-0.0015969695458443725,-0.004905854990176075,0.005781327992360563,0.9932027999797031
2012-11-28,-1,-0.0013758846420424131,-0.0012531084884716112,-0.007684250390004674,0.004832412381454438,0.9931627681087325
2012-11-30,-1,-0.0005037489307755684,-0.0004891705765226894,-0.008534709165284047,0.0032061788744072147,0.9925979580697523
2012-12-04,-1,-0.0008622316950956343,-0.0008187645046753197,-0.008534709165284047,0.005602356834156036,0.9917850615446783
2012-12-06,-1,-0.00017075984827080831,-0.00012137666694854381,-0.008820275662985294,0.003761263115904463,0.9920598232489236
2012-12-10,1,0.00012835431144620266,0.0002316916739415592,-0.008820275662985294,0.0031079334971251277,0.992150630009236
2012-12-12,1,0.00013469185276274983,0.00024159618417729907,-0.008820275662985294,0.0031079334971251277,0.9922938857764451
2012-12-14,-1,-0.000280075097031707,-0.0002377594433835484,-0.008820275662985294,0.0031079334971251277,0.9925965584056304
2012-12-18,1,0.0005582897540001958,0.0006978377420033838,-0.008820275662985294,0.0019406409166473886,0.9933011925106463
2012-12-20,1,0.0009023378522791762,0.0011481893614456718,-0.006067491316697046,0.0019406409166473886,0.9931284032929546
2012-12-24,1,0.00020268417628933823,0.0003426351331878945,-0.003396441321656331,0.0025879803622641364,0.9938500224877593
2012-12-27,-1,-0.0004030294556866394,-0.0003570614715765998,-0.003396441321656331,0.0037542260694617205,0.993930591247556
2012-12-31,1,0.00017772816913874206,0.0003301809246813374,-0.003396441321656331,0.0037542260694617205,0.9949094501147998
2013-01-03,1,0.0007056575073811354,0.0009019833352376934,-0.003396441321656331,0.0042061468705629455,0.9954289179286272
2013-01-07,1,0.0004811797068548214,0.000647430647021204,-0.003396441321656331,0.0042061468705629455,0.9955465023512347
2013-01-09,1,0.0006102484126812329,0.0007858992931227224,-0.003396441321656331,0.0042061468705629455,0.995446897802054
2013-01-11,1,0.00048801022992014844,0.0006349472613461966,-0.003396441321656331,0.0042061468705629455,0.9952740604386069
2013-01-15,1,0.00034649211859034696,0.0004716829339931459,-0.0030549344683537404,0.0042061468705629455,0.9952413095839698
2013-01-17,1,9.99035110178164e-05,0.00017042424334394528,-0.0026007302814578335,0.005289357261493963,0.9950568765304412
2013-01-22,1,0.0006119784062765014,0.0007367527317402359,-0.0030262338697370945,0.005245553582280227,0.9954764607941416
2013-01-24,1,0.0005544463143793994,0.0006720384605793456,-0.0030262338697370945,0.0065026203753308035,0.9952596222022736
2013-01-28,1,0.00047608697825872156,0.000575568736050136,-0.0030262338697370945,0.006802915119397078,0.9948393326987183
2013-01-30,1,0.000754101000425119,0.0009117674096554213,-0.0026007302814578335,0.006714424085889992,0.9949744220038869
2013-02-01,1,0.0016269907936209784,0.001919374776581962,-0.0026007302814578335,0.006487724590566355,0.9954348759102398
2013-02-05,1,0.0011452168531281475,0.0013542953811640523,-0.0026007302814578335,0.006487724590566355,0.995425024492898
2013-02-07,1,0.0010364588395045825,0.0012180984627907392,-0.0030262338697370945,0.006487724590566355,0.9952707190179771
2013-02-11,1,0.0014204253921260219,0.0016693756544384718,-0.0030262338697370945,0.006487724590566355,0.9953443795501082
2013-02-13,1,0.000896762069316549,0.0010225692406491528,-0.001917885206519766,0.006487724590566355,0.9954088776097065
2013-02-15,1,0.001144797428780069,0.0013008888999657266,-0.003762000516008908,0.005544776369620589,0.9952364709691612
2013-02-20,1,0.0012543714468788263,0.001439174291301876,-0.0045383528815298654,0.005544776369620589,0.9948022266116497
2013-02-22,1,0.001377518623484591,0.0015855533750232967,-0.0045383528815298654,0.004663992300666811,0.9950023694200827
2013-02-26,1,0.001537182480836936,0.0017677321940695288,-0.002146370640657585,0.004663992300666811,0.9952557575909585
2013-02-28,1,0.0017763724294065073,0.002027419226631653,-0.002146370640657585,0.005101814002914383,0.9946109405549142
2013-03-04,1,0.002535871428075791,0.0029088074193015724,-0.004142188349827734,0.004218113051635492,0.9948428911793737
2013-03-06,1,0.002306579111440588,0.00264639299269772,-0.0020446144844593747,0.006304447720864585,0.9947902359509491
2013-03-08,1,0.001983542314383829,0.002259867448051491,-0.0011296459050618114,0.007076353871284009,0.9949124863295971
2013-03-12,1,0.0018411279867258869,0.002089904343420951,-0.0017716437601817388,0.007778926504435068,0.9944377058680088
2013-03-14,1,0.0019985212367828725,0.0022816555635532436,-0.0017716437601817388,0.009384613607466402,0.9942727146161715
2013-03-18,1,0.002094587570555053,0.002422066911655792,-0.0017716437601817388,0.009384613607466402,0.9934508441523398
2013-03-20,1,0.00174628112224524,0.0020075054826162084,-0.0017716437601817388,0.009384613607466402,0.9937515046885894
2013-03-22,1,0.0013259345149176042,0.0014997690185267448,-0.001589189301178328,0.009936121214618454,0.9928211736860668
2013-03-26,1,0.0019645714905501517,0.002249911046396924,-0.0020148187827897196,0.009384613607466402,0.9932153537714636
2013-03-28,1,0.0028966122041333715,0.0033134598784856206,-0.003199024048270671,0.00829986849699914,0.9939628670618538
2013-04-02,1,0.0022356987418262583,0.002512337041313327,-0.0020086549658125904,0.008616310973071356,0.9935380660600535
2013-04-04,1,0.002397448899371344,0.00265403943110065,-0.003199024048270671,0.00829986849699914,0.9931926976882932
2013-04-08,1,0.002244484152973274,0.0024458875587921878,-0.004236415834467728,0.00829986849699914,0.9921685980823525
2013-04-10,1,0.0020850790254101446,0.0022513852932283503,-0.005221190747478911,0.00829986849699914,0.9915264427989833
2013-04-12,1,0.0021989300434994054,0.002347755914369029,-0.006746897711254667,0.007053473025040283,0.990711727137469
2013-04-16,1,0.0017937446550684785,0.0018938724364466163,-0.005998505888358724,0.005371641830260059,0.9917014041767555
2013-04-18,1,0.0015086457930032187,0.0015668845469018389,-0.006516507857954465,0.007088878712122069,0.9914899998753168
2013-04-22,1,0.0019076429649343056,0.00202779604388437,-0.006516507857954465,0.007088878712122069,0.9917868467636396
2013-04-24,1,0.002138557743616907,0.002298982549974176,-0.008021096396598164,0.004788434130674002,0.9915131441849284
2013-04-26,0,0.0,0.0,-0.00860480451658615,0.0021586596373438746,0.9919223535569786
2013-04-30,0,0.0,0.0,-0.010342582078556204,0.00016529303936918904,0.9912784325460104
2013-05-02,0,0.0,0.0,-0.00860480451658615,0.0006612815169376425,0.99129338328483
2013-05-06,0,0.0,0.0,-0.0074672739470315495,0.0018019308164866298,0.9920745165151273
2013-05-08,0,0.0,0.0,-0.0074672739470315495,0.0018019308164866298,0.9919747375880493
2013-05-10,0,0.0,0.0,-0.00689085599601853,0.005924147695056647,0.9925711230906977
2013-05-14,0,0.0,0.0003618379865691262,-0.006884266186183123,0.005924147695056647,0.9925278493804247
2013-05-16,0,0.0,0.0,-0.006884266186183123,0.005924147695056647,0.9919942240424029
2013-05-20,0,0.0,0.0,-0.006884266186183123,0.004891773475665226,0.9924258451574586
2013-05-22,0,0.0,0.0,-0.007447504517525326,0.004891773475665226,0.9901765966232265
2013-05-24,-1,-0.0007625320579327244,-0.0005691527836607499,-0.006884266186183123,0.005924147695056647,0.9903533262921816
2013-05-29,-1,-0.0024473366316666773,-0.002012764104890446,-0.00550308721888475,0.008692745240309174,0.9902877785297055
2013-05-31,-1,-0.0026125222129169583,-0.0021399097902495036,-0.005929633281858544,0.008692745240309174,0.9902444434706362
2013-06-04,-1,-0.002376408249105487,-0.0019361500939747232,-0.007904772101846055,0.008692745240309174,0.9901491293176468
2013-06-06,0,0.0,0.0,-0.006057866750688103,0.005661454321121036,0.9912028165069351
2013-06-10,0,0.0,0.0,-0.006057866750688103,0.009938118999559058,0.9903252793838828
2013-06-12,0,0.0,0.0,-0.004468316911231173,0.010322184931443447,0.990237735385455
2013-06-14,0,0.0,0.0,-0.004468316911231173,0.010322184931443447,0.9903542745970693
2013-06-18,0,0.0,0.0,-0.003173624061059096,0.010322184931443447,0.9904401768847597
2013-06-20,0,0.0,0.0,-0.00023576854186744915,0.010322184931443447,0.9926488853493475
2013-06-24,0,0.0,0.0,-0.0012513100228109708,0.009938118999559058,0.9930525705341138
2013-06-26,-1,-0.0030402282097165933,-0.002637028027906416,-0.0020966742977838494,0.005652424780178206,0.9922360340411045
2013-06-28,-1,-0.0033147825366017817,-0.002792708807067087,-0.0017619062744645335,0.005652424780178206,0.9923827992639168
2013-07-02,-1,-0.0037224094714574285,-0.0031503153106920644,-0.0017619062744645335,0.009097560624239165,0.9918555773973651
2013-07-05,-1,-0.0036123554282990007,-0.003067432671030592,-0.0011672305383003678,0.010210142358515976,0.9913770407642154
2013-07-09,-1,-0.0023745105472625025,-0.001971246402040207,-0.0020966742977838494,0.0052186637103615405,0.9931825197225783
2013-07-11,-1,-0.0015328327604831157,-0.0012417480088042763,-0.0023450491629770707,0.005133158327650093,0.993796910752049
2013-07-15,-1,-0.0005288058499509761,-0.0003602275609753334,-0.0072533041021832795,0.004036003905016659,0.993694546009771
2013-07-17,-1,-0.0008066307585284173,-0.0006052959044853656,-0.007590996878956086,0.004036003905016659,0.9932068831266179
2013-07-19,-1,-0.0001842118312188238,-6.334285732429947e-05,-0.008623468709617327,0.0025054506920948825,0.9922579139011265
2013-07-23,1,0.00012032998301187613,0.00018044501360975964,-0.009096425719185546,0.004036003905016659,0.9916424193054804
2013-07-25,-1,-5.503833246172499e-05,-5.134794975623479e-06,-0.009096425719185546,0.004108254062294017,0.9914704572477712
2013-07-29,1,2.0184809729743158e-05,6.247899020303065e-05,-0.009096425719185546,0.005234621778285119,0.9909667383712599
2013-07-31,0,-3.65138711039739e-05,2.4696428154260955e-05,-0.009096425719185546,0.004782811533635339,0.99157246577335
2013-08-02,1,0.0005440167392505796,0.0005479871732704987,-0.009096425719185546,0.0043204556230948266,0.9916481883720504
2013-08-06,-1,-0.0003286319416388422,-0.00023324136017066713,-0.009800267083459178,0.0043204556230948266,0.9918419790336809
2013-08-08,-1,-0.00019998847542950833,-0.00010857031635028923,-0.009800267083459178,0.0038294297401284395,0.9920252554408941
2013-08-12,-1,-0.0016442710652845023,-0.0013708189747922575,-0.007921901331058575,0.0043204556230948266,0.9928511674404267
2013-08-14,-1,-0.0024896508406075397,-0.0021102638477621134,-0.007877280001886266,0.0043204556230948266,0.9934436313818499
2013-08-16,-1,-0.0036161230728734206,-0.003130959573378473,-0.0059727682305468245,0.0043204556230948266,0.993903309681046
2013-08-20,0,0.0,0.0,-0.0059727682305468245,0.004771175872266545,0.992503023431135
2013-08-22,0,0.0,0.0,-0.00431690118685776,0.0038294297401284395,0.9933076244769741
2013-08-26,0,0.0,0.0,-0.0031550223930328007,0.0038294297401284395,0.9931655552369052
2013-08-28,0,0.0,0.0,-0.00431690118685776,0.003382917537082983,0.9929420402387196
2013-08-30,-1,-0.00021282482864014123,-0.00012590958037127383,-0.0057961048715061995,0.002999118085049171,0.9929090507945172
2013-09-04,-1,-0.0007204808126636587,-0.000583755745873859,-0.0031550223930328007,0.003382917537082983,0.9936687547770147
2013-09-06,-1,-0.0019232242646706219,-0.0017691009377776993,-0.004656490242461057,0.002999118085049171,0.9931859634046553
2013-09-10,-1,-0.0012831318173287614,-0.0012060449485370298,-0.005275123624953287,0.0018261750028666778,0.9928587468808807
2013-09-12,-1,-0.0009844787695886198,-0.0009792595553015562,-0.005275123624953287,0.006611808314521835,0.9918399751539191
2013-09-16,-1,-0.0009213243677066847,-0.0009000639664756229,-0.005275123624953287,0.006611808314521835,0.9918012124746122
2013-09-18,0,-3.550670444135939e-05,0.00010987333800700072,-0.005275123624953287,0.006611808314521835,0.9926530245392912
2013-09-20,1,0.00020371324550698812,0.00042697294803696064,-0.005275123624953287,0.008055928903127327,0.9920292167369696
2013-09-24,1,0.0005676448700267819,0.0008135177670660202,-0.005275123624953287,0.008055928903127327,0.9920676103650459
2013-09-26,0,-7.062489640439552e-05,4.764228450256406e-05,-0.005205397153491187,0.008055928903127327,0.9921364170508841
2013-09-30,-1,-0.00019469894590834805,-7.463177002076126e-05,-0.0020001307998060644,0.008602455104684426,0.9921789465603056
2013-10-02,-1,-0.00027750406968184464,-0.0002087127230104435,-0.005205397153491187,0.008602455104684426,0.9919992074939018
2013-10-04,-1,-0.0009487149201252789,-0.0009206908673298842,-0.0022285050965902007,0.008602455104684426,0.9926061504847998
2013-10-08,-1,-0.0003685360446694622,-0.00031067933222693787,-0.0026720280962490347,0.0070712448197799115,0.993197517922953
2013-10-10,1,0.0005409847639218022,0.0007305307553136532,-0.00693592879291503,0.005101623240047351,0.9934086544315497
2013-10-14,1,0.0002803269348206893,0.0004169915476048312,-0.004515550380956521,0.004800211741872013,0.9936650553595088
2013-10-16,1,6.66156800089483e-05,0.00014989553154699537,-0.004515550380956521,0.004129461139401863,0.9941836969526651
2013-10-18,1,0.00025329645091022823,0.0002918276643989434,-0.004515550380956521,0.0028052923442544184,0.995042909644064
2013-10-22,1,0.0009253531039142052,0.001058359398679166,-0.005040728024049094,0.002260499239497853,0.995656039793646
2013-10-24,1,0.0007626712086107167,0.0008849070828264925,-0.005417221968174923,0.0028052923442544184,0.9952367769046736
2013-10-28,1,0.0010370451891598752,0.0011990312179116403,-0.0057142234482017926,0.0028052923442544184,0.9951314665904161
2013-10-30,1,0.0009593493811397784,0.001129113713914596,-0.004641315807918519,0.0028052923442544184,0.995265533168474
2013-11-01,1,0.0007281977337329732,0.0008381129476378471,-0.004641315807918519,0.0028052923442544184,0.9951486624278032
2013-11-05,1,0.0009290108400219783,0.0011175018316464018,-0.004060039301158088,0.0029942058013223433,0.9954130957759323
2013-11-07,1,0.0007961964220332834,0.0009635087696324603,-0.0038563790003442746,0.0029942058013223433,0.9956512156635888
2013-11-11,-1,-0.0005212653384951951,-0.00039947093696186256,-0.004641315807918519,0.0029942058013223433,0.9951132719366764
2013-11-13,-1,-0.0004097259120162207,-0.00032203267266095,-0.004641315807918519,0.0029942058013223433,0.9948735876657537
2013-11-15,1,0.0002432219159299506,0.00028216359268262026,-0.004641315807918519,0.0035657528823541465,0.9943987610891293
2013-11-19,-1,-0.00018109579577384757,-0.00014171063932431085,-0.004449984811429796,0.004019894589553519,0.9936259054225365
2013-11-21,-1,-0.0008518041118207105,-0.0007179260931089635,-0.004449984811429796,0.004019894589553519,0.9941425646475531
2013-11-25,-1,-0.0008758359467455378,-0.0007364434931943383,-0.004636868272692215,0.0027730356846378257,0.9943288958447303
2013-11-27,-1,-0.00040153012684881383,-0.0003760493107551939,-0.005442181715995255,0.0027730356846378257,0.9940758705508347
2013-12-02,-1,-0.00021160394439951984,-0.00017727595978089583,-0.005442181715995255,0.0027730356846378257,0.9940915390588724
2013-12-04,1,0.0003777560489132613,0.0005422582765196407,-0.0062904590777035675,0.00224064857069512,0.9935828075826246
2013-12-06,1,0.0010315302355954114,0.0012742327055737667,-0.0062904590777035675,0.0021369663467989664,0.9930815743931332
2013-12-10,1,0.0005689346432783261,0.0007815806946833557,-0.0053843518284762484,0.002607631587387381,0.99386408899071
2013-12-12,1,0.000515320972369583,0.0007267378590957203,-0.0053843518284762484,0.002607631587387381,0.9935915376805503
2013-12-16,1,0.000658588156444165,0.0008637871919534338,-0.0053843518284762484,0.002328470597773158,0.993766470949904
2013-12-18,1,0.0013253523505109333,0.0016269737461255145,-0.0053843518284762484,0.002328470597773158,0.9944247180314574
2013-12-20,1,0.0012285038636790759,0.001527698830075717,-0.004305748582734573,0.0036285906183302578,0.9944906990954406
2013-12-24,1,0.0012894147955826774,0.001634327787820348,-0.004305748582734573,0.0036285906183302578,0.994050542479258
2013-12-27,1,0.0008200038437819407,0.0010618652215309147,-0.0036556538992652617,0.004046426203458753,0.9942342091915847
2013-12-31,1,0.0011415836523633394,0.0014441578150116599,-0.0036556538992652617,0.004813433593490358,0.9932321942167393
2014-01-03,1,5.384529789855474e-05,0.0001515139343992994,-0.0036556538992652617,0.006304927443978922,0.9931506999112241
2014-01-07,1,0.0002509858653123764,0.0003412244379638601,-0.004284998893865731,0.004773744856221491,0.9936661788326813
2014-01-09,-1,-0.0003987498308885331,-0.00034176034818354166,-0.0039866408751500024,0.006304927443978922,0.9933391975212885
2014-01-13,-1,-0.0001844426446724609,-0.00014252608210929383,-0.0027279214982226293,0.006304927443978922,0.9938318621333286
2014-01-15,-1,-0.0003559069164248362,-0.00028397172816214315,-0.0016768111714609297,0.006498209458609749,0.9933692304822781
2014-01-17,-1,-8.484775399108969e-05,-4.483209243114444e-05,-0.0016768111714609297,0.0069094781164450395,0.993337561092849
2014-01-22,1,0.0005288631222206011,0.0005778963080023268,-0.0031019194893095463,0.0069094781164450395,0.9934098750228387
2014-01-24,-1,-0.00016893964814403888,-0.00013289713359786176,-0.0016462143122542787,0.007400162500591099,0.99354883781922
2014-01-28,-1,-0.000516958815325769,-0.00039653496836415875,-0.0024970818855784274,0.007400162500591099,0.9935794842901934
2014-01-30,1,0.0002704537915122503,0.00029863059361189627,-0.0024970818855784274,0.007400162500591099,0.9942253151759317
2014-02-03,1,0.00033626895834126564,0.0003416816147036798,-0.0024970818855784274,0.007772452973698297,0.9941743437818761
2014-02-05,-1,-0.00034521033938157735,-0.00025799702265110093,-0.0024970818855784274,0.007772452973698297,0.9938908100814117
2014-02-07,0,-4.496200966734565e-06,5.480346799044769e-05,-0.003420958920980455,0.007772452973698297,0.9943702048042259
2014-02-11,1,0.0008319648167608884,0.0009183617440587037,-0.004775913616526491,0.007772452973698297,0.9943279910750089
2014-02-13,1,0.0011649791293381066,0.0012783254633202904,-0.004775913616526491,0.007772452973698297,0.9940335790770073
2014-02-18,1,0.0016405594662030304,0.0018449538056440522,-0.005121144924280032,0.007697273609756523,0.9934033804838346
2014-02-20,1,0.0016177169586649655,0.0017959473232846777,-0.005457395814046884,0.007004303561251906,0.9928006365817293
2014-02-24,1,0.001497236117233906,0.0016359794609449056,-0.005457395814046884,0.005176429274015514,0.9932254551114463
2014-02-26,1,0.0014365959110818089,0.0015753046157491307,-0.005770361831068835,0.0073264744583979215,0.9927413921791908
2014-02-28,1,0.0014910534558846987,0.0015961239704009133,-0.005770361831068835,0.007171249815831461,0.9928778317484994
2014-03-04,1,0.0015505883917258647,0.0016817868805103944,-0.005457395814046884,0.007171249815831461,0.9931465121903141
2014-03-06,1,0.0013962245480085445,0.0015478497673414907,-0.004857401851724438,0.007171249815831461,0.9938228005959788
2014-03-10,1,0.001104921116819663,0.001207278188308353,-0.00452455515845163,0.008359299170501171,0.9933274132280082
2014-03-12,1,0.0012567127993135482,0.001372675507072312,-0.004603804840999039,0.008359299170501171,0.9932487647500955
2014-03-14,1,0.0022927411348598217,0.002589568516563743,-0.004842853143672925,0.007171249815831461,0.9934766210820654
2014-03-18,1,0.0023692685827533993,0.0027093917361936306,-0.004319707601660311,0.008359299170501171,0.9932575746589593
2014-03-20,1,0.0013669972951207935,0.0015589075926085302,-0.003283330091394695,0.008359299170501171,0.9940142739382154
2014-03-24,1,0.0015316225750122599,0.0017593542484516795,-0.003283330091394695,0.008359299170501171,0.9939157484771008
2014-03-26,1,0.0015064204950019154,0.0017158743930992424,-0.001979986644133567,0.0076498084255987985,0.9944040729975503
2014-03-28,1,0.001765857890638166,0.002009319105890547,-0.001979986644133567,0.007966219865171242,0.994163031636718
2014-04-01,1,0.0018300948792835878,0.0020647055055583938,-0.0022988848917027847,0.006413593020994053,0.9943604284965019
2014-04-03,1,0.0016855970634834315,0.001892460911643821,-0.004319707601660311,0.006413593020994053,0.9933215663633147
2014-04-07,1,0.0018972427560944682,0.002126669903673083,-0.0025801371126545967,0.005821651351891862,0.9938765499847788
2014-04-09,1,0.0019266649219242624,0.0021502616252878646,-0.0025801371126545967,0.005821651351891862,0.993334991860054
2014-04-11,1,0.0017918382011864065,0.002001000838011264,-0.006729565863686877,0.005821651351891862,0.9924329882876501
2014-04-15,1,0.0025918392609371186,0.002894902205334381,-0.006729565863686877,0.0038982309837408253,0.9928726829892801
2014-04-17,1,0.0021665543873419873,0.0023866786452999868,-0.006641147682494341,0.0022351641920019673,0.9929755820913747
2014-04-22,1,0.002027778765541064,0.002226561501315887,-0.008840458843268287,0.0022351641920019673,0.9923949868455129
2014-04-24,1,0.0020067783108058297,0.002185597854662462,-0.008840458843268287,0.0022351641920019673,0.9921775124569889
2014-04-28,1,0.00230920276682296,0.002513398690637112,-0.008840458843268287,0.0022351641920019673,0.992349365816808
2014-04-30,1,0.0020577020092948425,0.002227799126125521,-0.008840458843268287,0.0035315749882628466,0.9927803582318409
2014-05-02,1,0.0015063138151934006,0.0016335763723691547,-0.004382422192133357,0.004285128479188409,0.9936863233053806
2014-05-06,1,0.001015652960368543,0.001033010490186567,-0.004382422192133357,0.004285128479188409,0.9937771714164547
2014-05-08,1,0.0007985764064139158,0.0008215300904081495,-0.002693535519528723,0.0046763166537308,0.9946057341269892
2014-05-12,0,-6.560259231151803e-05,4.760792028713341e-05,-0.002693535519528723,0.0046763166537308,0.9950159900801682
2014-05-14,1,0.0006307306449062232,0.000640293320382004,-0.003557903170966689,0.0046763166537308,0.9947413164585943
2014-05-16,0,-5.8731196098127446e-05,4.620762707529494e-05,-0.00221660600853667,0.0059100666762559265,0.9948951823338399
2014-05-20,-1,-0.0008503688315264156,-0.0006375601626222426,-0.00221660600853667,0.006453554997017294,0.9937348910246753
2014-05-22,-1,-0.0008025941947300733,-0.0005805189799326633,-0.0023897072949693116,0.006410804304261681,0.9938095287195666
2014-05-27,-1,-0.0007523159244527534,-0.0005380834073129387,-0.003381493522386313,0.006410804304261681,0.9938637423215332
2014-05-29,-1,-0.000987474401218537,-0.0007124472780855139,-0.003381493522386313,0.006410804304261681,0.9937336274455864
2014-06-02,-1,-0.0007316437733614226,-0.0005030673117098667,-0.0028453181152030644,0.007040184204761322,0.9933871618233331
2014-06-04,-1,-0.0007707406277682943,-0.0005338694221109643,-0.005564244992221719,0.007040184204761322,0.9925267587483849
2014-06-06,0,-0.000156598708337098,1.0959050511072485e-06,-0.005564244992221719,0.0053253643437709205,0.9930687946461537
2014-06-10,-1,-0.0008638256371726492,-0.0006181083864766414,-0.0028453181152030644,0.0053253643437709205,0.9934600221744095
2014-06-12,-1,-0.0009482306724354808,-0.0007022343404049465,-0.0028453181152030644,0.004840227287660957,0.9937301596816657
2014-06-16,-1,-0.00040826278057838747,-0.00024585067173655195,-0.005035016046480593,0.004840227287660957,0.9935872880700082
2014-06-18,-1,-0.0002257936913921245,-4.70468018381688e-05,-0.005035016046480593,0.004840227287660957,0.994809672573161
2014-06-20,0,-6.24329989379235e-05,9.293929503593378e-05,-0.005035016046480593,0.004840227287660957,0.9946259180696837
2014-06-24,1,8.713357927260182e-05,0.00019658320200334408,-0.005259256816924724,0.004840227287660957,0.994629078565584
2014-06-26,1,0.00021777736892245638,0.00032334502378631363,-0.005998095356816407,0.0051401446569449265,0.9944102317865506
2014-06-30,1,0.0004275341416705707,0.0005381951726802915,-0.006381278276258344,0.0051401446569449265,0.9937448584637895
2014-07-02,-1,-0.00038918518490089994,-0.0001999147683647666,-0.0066068657878714625,0.0051401446569449265,0.9934843058833425
2014-07-07,1,1.9449385052082283e-05,0.00013573234088748676,-0.006940645410114141,0.005503483548117825,0.9929708814116364
2014-07-09,1,0.0002630982805291533,0.0003246812312761778,-0.008622998779594857,0.005503483548117825,0.9912393100007446
2014-07-11,1,0.00031989016038221676,0.0003584076614816359,-0.008622998779594857,0.006351249527351555,0.9903097233070725
2014-07-15,1,0.0002934184182588435,0.0003286818131739404,-0.008622998779594857,0.005968403828319363,0.9907577985400094
2014-07-17,1,0.0003036757986529374,0.0003292268036586823,-0.008622998779594857,0.006631242190280636,0.9907318237657439
2014-07-21,1,0.0004120489525110863,0.0004322839337556389,-0.008622998779594857,0.005968403828319363,0.9909589525837162
2014-07-23,1,0.0004459272944765329,0.0004548918451130458,-0.008622998779594857,0.006631242190280636,0.9904958195377666
2014-07-25,1,0.00036241443711653603,0.00036854598989153925,-0.008622998779594857,0.006258528396997153,0.9910052061063527
2014-07-29,1,0.00018773764632548797,0.0002449197440766213,-0.008586340812966529,0.005761781566908851,0.9916345222648378
2014-07-31,-1,-0.0012721589089848976,-0.001034190016971088,-0.003747295293178876,0.0070936038677085304,0.9918239059930426
2014-08-04,-1,-0.0012687624199332753,-0.0010423145675448754,-0.003747295293178876,0.0070936038677085304,0.9916254934695631
2014-08-06,-1,-0.002313384175461462,-0.0020074557005095163,-0.0012641922977276946,0.007519551832882031,0.9923036962315769
2014-08-08,-1,-0.0010772551230224174,-0.0009062230948323336,-0.0025440730665151796,0.0070936038677085304,0.9930515490578228
2014-08-12,-1,-0.0017933637218892936,-0.0014888141873519035,-0.004325375679711367,0.0070936038677085304,0.9923474590267783
2014-08-14,-1,-0.0012298535643912075,-0.000993477653434876,-0.0058557567775868735,0.007111539804276555,0.9917589634056371
2014-08-18,-1,-0.001167231524391513,-0.0009457727501031414,-0.0058557567775868735,0.007111539804276555,0.99189300006315
2014-08-20,-1,-0.0003464921701470201,-0.00023547344394010396,-0.009247329706191862,0.00668598641553904,0.9921679678610112
2014-08-22,-1,-0.00021128654033388124,-0.0001276302243327883,-0.009284492240063561,0.007075446795975008,0.9914564535306982
2014-08-26,-1,-0.0004540067317058644,-0.0003409302201856118,-0.009247329706191862,0.007075446795975008,0.9920676316755193
2014-08-28,1,0.000512433967060295,0.0005297045863522202,-0.009284492240063561,0.0030879283095270457,0.992156821987832
2014-09-02,1,0.00040631308884812997,0.0004220141453581581,-0.009247329706191862,0.0022641518356612505,0.992757280377336
2014-09-04,1,0.0004803875139144949,0.0004946839376204461,-0.009247329706191862,0.0020147215514861997,0.9929571742202405
2014-09-08,1,0.0013841403452926494,0.0015798847397812486,-0.005866656641147919,0.0020147215514861997,0.993790862063577
2014-09-10,1,0.0005780119128239978,0.0006593233529972156,-0.003256814045447927,0.004272049817439728,0.9934053602831114
2014-09-12,1,0.00019144744036521117,0.0002202250807413374,-0.003256814045447927,0.004272049817439728,0.9938125322507041
2014-09-16,1,0.0004437262744873957,0.0005193498329685454,-0.003256814045447927,0.007247625266469229,0.9922423907198819
2014-09-18,1,0.0002752177350532586,0.0003677584681758415,-0.004545599447946642,0.007247625266469229,0.9917010947132809
2014-09-22,1,0.0001395554329894096,0.00020455018561966058,-0.0029556739308297963,0.0072830829060814666,0.9919228757691244
2014-09-24,-1,-0.0005119260376307284,-0.00044985352675021946,-0.0029556739308297963,0.007604153642221357,0.9913791284620412
2014-09-26,-1,-0.001028885950843364,-0.0009065890735202905,-0.0007384325124388953,0.007604153642221357,0.991355231154566
2014-09-30,-1,-0.0009587286731755345,-0.0008470240318589285,-0.0005319125499823875,0.007637279417580545,0.9912119716501834
2014-10-02,-1,-0.001567382717334363,-0.0013364392898802166,-0.0005319125499823875,0.008256529558197482,0.9899049381382043
2014-10-06,-1,-0.0009065007710837658,-0.000778865488082243,-0.001650630547694252,0.008752657397217138,0.9901400014021343
2014-10-08,1,0.00022751240895680752,0.00024627287307524303,-0.0033339733225769648,0.008752657397217138,0.9907738371960538
2014-10-10,-1,-0.00024136882868917517,-0.00014062233954104808,-0.0033339733225769648,0.009331627921878291,0.9894801908457339
2014-10-14,1,0.0012235442532351785,0.0013157704841784703,-0.004165433486389759,0.009176057575992476,0.9905389661005053
2014-10-16,1,0.0002438479464747749,0.00027423009471242414,-0.0038489175651572425,0.009176057575992476,0.9907701159052646
2014-10-20,1,0.000791724153208007,0.0008418517536425487,-0.005485543469672831,0.009176057575992476,0.9905353216086723
2014-10-22,1,0.0012634630896880682,0.0013804660496218135,-0.005485543469672831,0.00940796238490208,0.9904320668557358
2014-10-24,1,0.001450785618726224,0.001594631423309468,-0.005485543469672831,0.00940796238490208,0.9905361074245006
2014-10-28,1,0.0018483524569838999,0.0020729907032700405,-0.00600339492682166,0.00940796238490208,0.990306134807233
2014-10-30,1,0.001996897247930315,0.0022078099177570425,-0.005485543469672831,0.00940796238490208,0.9909282874255947
2014-11-03,1,0.002075081461657729,0.0022848586913626068,-0.005485543469672831,0.011436958165578992,0.9905832046422512
2014-11-05,1,0.002508529519783578,0.002790109345420151,-0.004690940656284846,0.010137370744923449,0.991810141349003
2014-11-07,1,0.0022118932067416003,0.0024896298490500093,-0.004690940656284846,0.009898754955515973,0.9932207361809438
2014-11-11,1,0.002519633049708286,0.002845267930300753,-0.005485543469672831,0.008936926447768952,0.9933010088894361
2014-11-13,1,0.0016543690006956386,0.0018538450492025897,-0.004690940656284846,0.009353261342846132,0.9934095509355599
2014-11-17,1,0.0019846098055928065,0.0022440561939782323,-0.005347267703853907,0.008813648560996914,0.9935337771877735
2014-11-19,1,0.0023891372535906176,0.0027340092863420667,-0.0031343449774919097,0.009898754955515973,0.992860790321578
2014-11-21,1,0.0019912976803607863,0.002232151592004009,-0.0031343449774919097,0.009898754955515973,0.9926756070658024
2014-11-25,1,0.001623476866721975,0.0018227666299159761,-0.002199693068738155,0.010664350601984642,0.9918794146841987
2014-11-28,1,0.0022148648091089773,0.0024885849504818116,-0.002199693068738155,0.010664350601984642,0.9915609918113709
2014-12-02,1,0.0028266421727207326,0.0031743347123176346,-0.008531393412119986,0.009851857935285101,0.9904115098460993
2014-12-04,1,0.0028361532170508887,0.0031772228817536,-0.010067933366203787,0.009851857935285101,0.989706284329097
2014-12-08,1,0.0027907979505362637,0.003119719349465728,-0.010067933366203787,0.009337629002769174,0.9902091186806646
2014-12-10,1,0.0025404600511888258,0.0028446931234549482,-0.010459796932735112,0.010145189450739509,0.989672756585054
2014-12-12,1,0.0022957952923161225,0.002553511331119338,-0.00937678658302084,0.010145189450739509,0.9897494714538025
2014-12-16,1,0.0017833820856061455,0.0019691676291731346,-0.0068395207415697865,0.010145189450739509,0.989736003496399
2014-12-18,1,0.0029174056871325584,0.0032617443371939707,-0.0068395207415697865,0.008793743985513268,0.9911362257592283
2014-12-22,1,0.002497247094160779,0.0027208529583897406,-0.0068395207415697865,0.008793743985513268,0.9907284056317419
2014-12-24,1,0.0028294905904932073,0.003087250925861584,-0.0041973628572884395,0.00866985344229681,0.9918156326619829
2014-12-29,1,0.0029148585818847108,0.003102078512381306,-0.007777002773899578,0.008144702440987918,0.9923157417712144
2014-12-31,1,0.00200100511464773,0.0021263713388077997,-0.0038414780980719583,0.00839704617495916,0.9925477431626877
2015-01-05,1,0.0015918419339937357,0.001653529606695888,-0.0018595389968464352,0.00839704617495916,0.9931988428552829
2015-01-07,1,0.0020986823979146857,0.002246609325485722,-0.0038414780980719583,0.008431870496984628,0.9927680805245764
2015-01-09,1,0.0019288381944608073,0.0020462662441418198,-0.007777002773899578,0.008144702440987918,0.9907988359431316
2015-01-13,1,0.0020280574440762395,0.0021838707175376587,-0.008156141937018625,0.008431870496984628,0.9894280808903829
2015-01-15,1,0.0024549205044088426,0.002662434872961533,-0.01069332415849037,0.006485675190602974,0.989005869637455
2015-01-20,1,0.0026533365105307874,0.002870442493431266,-0.01069332415849037,0.006876828235870144,0.9877801177536198
2015-01-22,1,0.0030822977959817444,0.003385018003714459,-0.01069332415849037,0.005670532011843852,0.9873279301392012
2015-01-26,1,0.0029461248504627836,0.0032143083391519204,-0.01069332415849037,0.0064907580346797115,0.9871493727387917
2015-01-28,1,0.0027042575664439294,0.002943312269570338,-0.012496476073626805,0.0064907580346797115,0.9862565449738017
2015-01-30,1,0.0027844326866133477,0.003049046984869182,-0.012496476073626805,0.0027545185029282976,0.9861412179748825
2015-02-03,1,0.0023676689352897964,0.00253041540876924,-0.012496476073626805,0.006105682640846944,0.9858829972917116
2015-02-05,1,0.0019277704779932737,0.0020082085258474806,-0.01601529476518518,0.006105682640846944,0.9848014952238479
2015-02-09,-1,-0.00033153956338794724,-0.0001449602584235333,-0.009941334963278915,0.008633203698220012,0.9878347971401051
2015-02-11,-1,-0.0005533942195309772,-0.00031298191736870296,-0.008480845954630235,0.008633203698220012,0.9887912262870201
2015-02-13,-1,-0.0012794721359541132,-0.0009515974714877571,-0.008480845954630235,0.01078571256056516,0.9878916786098966
2015-02-18,-1,-0.0002295352238568314,-1.249909740293903e-05,-0.008480845954630235,0.01078571256056516,0.9882626418906842
2015-02-20,-1,-0.001048248561232615,-0.0007094239822621472,-0.010238727366275326,0.01078571256056516,0.9878035630160742
2015-02-24,-1,-0.0008283403705502591,-0.0005092586192451208,-0.010238727366275326,0.009055858740107621,0.9877287554915671
2015-02-26,-1,-0.0019527761799744692,-0.0014938614085692895,-0.00853497107560662,0.009055858740107621,0.9885793555788104
2015-03-02,-1,-0.0029689454305077017,-0.00239987648749251,-0.008303047216743091,0.010135420590891134,0.9889633377693454
2015-03-04,-1,-0.0021927283772689055,-0.001769434611468392,-0.008303047216743091,0.010135420590891134,0.9891418434526397
2015-03-06,-1,-0.0032743715947030332,-0.0027181672605074486,-0.004686170837269224,0.00906986650311462,0.9906819190219204
2015-03-10,-1,-0.002087881502152846,-0.0017271267479639094,-0.008303047216743091,0.008432380742001535,0.9911081281566887
2015-03-12,-1,-0.0023577102680938595,-0.0019226730864186907,-0.004686170837269224,0.008432380742001535,0.9918055193492575
2015-03-16,-1,-0.002389876373888532,-0.0019699852782435953,-0.004686170837269224,0.0068298697081484805,0.992657290512735
2015-03-18,-1,-0.00144746173097827,-0.001156989784218315,-0.006203120356481967,0.005958400198905468,0.9936188231955188
2015-03-20,-1,-0.001566776663655759,-0.0012703681551108443,-0.003991964141550415,0.005958400198905468,0.9939124215696663
2015-03-24,-1,-0.0015951214912930767,-0.001302260576413338,-0.003991964141550415,0.0034269409981626114,0.9938900057622244
2015-03-26,-1,-0.0018001640824711154,-0.0015029729603027796,-0.003164670269041629,0.006676215610564361,0.9933156488918033
2015-03-30,-1,-0.0012767222825808779,-0.0010494902681844542,-0.0037734078236257578,0.006676215610564361,0.9930985092039897
2015-04-01,-1,-0.0009897838024320598,-0.0008111338233954433,-0.007016006938008508,0.006676215610564361,0.9923510265592026
2015-04-06,-1,-0.0011475163368217353,-0.0009255902724043556,-0.007016006938008508,0.006770071620696616,0.9921838194887853
2015-04-08,-1,-0.001638232304081992,-0.0013720506720269186,-0.007016006938008508,0.006770071620696616,0.9918110878500433
2015-04-10,-1,-0.001848625561138053,-0.0015229962192455841,-0.007016006938008508,0.005907182166377428,0.992150101820833
2015-04-14,-1,-0.001956907372505035,-0.0016285836442410273,-0.00603255600047856,0.004666346487058022,0.992565158300928
2015-04-16,-1,-0.0020840922193993815,-0.0017467978417083454,-0.007422758340047001,0.006770071620696616,0.991380360724074
2015-04-20,-1,-0.0015758791803019566,-0.0013017874910322314,-0.007422758340047001,0.008227990854485886,0.9910738512876195
2015-04-22,-1,-0.002321913607573182,-0.0019411832052660494,-0.00603255600047856,0.008227990854485886,0.9909210946976648
2015-04-24,-1,-0.001407004535096193,-0.001162248676212849,-0.00603255600047856,0.007471471605940977,0.9918493238292525
2015-04-28,-1,-0.0011243902595463487,-0.0009491126001203774,-0.00603255600047856,0.006429082033412604,0.9920610642235523
2015-04-30,-1,-0.0018633387459473288,-0.0016092962268234986,-0.004607643604537889,0.006429082033412604,0.992878388364362
2015-05-04,-1,-0.0013290321354866757,-0.0011416714685420636,-0.00603255600047856,0.0046730656394548455,0.9927035864391804
2015-05-06,-1,-0.002355432455354719,-0.002037878638501996,-0.00603255600047856,0.0046730656394548455,0.9929764825978505
2015-05-08,-1,-0.0022241811972122517,-0.0019211274657967175,-0.007422758340047001,0.003963992193752419,0.9927592378501444
2015-05-12,-1,-0.0028913411828187354,-0.0024907236244467897,-0.0050930606635811925,0.003963992193752419,0.9927138913224958
2015-05-14,-1,-0.0018033373234857897,-0.0015880002448642135,-0.0032211926073695543,0.003963992193752419,0.9935615212831043
2015-05-18,-1,-0.0008665125312601666,-0.0007763387100942069,-0.004298263905380505,0.0008918543551948708,0.9942874046598517
2015-05-20,-1,-4.3826869083205e-05,-4.682188825112251e-06,-0.004298263905380505,0.0008918543551948708,0.9937681532498276
2015-05-22,1,0.00033418820756845154,0.0004796129642134213,-0.006705167195739338,0.0008918543551948708,0.9933968238725837
2015-05-27,-1,-0.0005843671075973496,-0.0005460955251014141,-0.007702847421215894,0.0006604991035009665,0.9933900077371213
2015-05-29,-1,-0.0007104554557728719,-0.0006492853329292441,-0.007702847421215894,0.0006725119532215787,0.9929868806173767
2015-06-02,-1,-0.0010384487735170668,-0.000964517708740628,-0.0064487912150102,0.0004651595052259002,0.993933668913129
2015-06-04,-1,-0.0016547602511011934,-0.0015117983733382225,-0.004298263905380505,0.006862368891399399,0.9937291990975776
2015-06-08,-1,-0.0020542772145254956,-0.001866873674612208,-0.003437559847023621,0.009870622106776767,0.9925568854707237
2015-06-10,-1,-0.0014834488240468404,-0.0013957963352755347,-0.0055125405619814525,0.009870622106776767,0.9920697087840956
2015-06-12,-1,-0.0007288507023478502,-0.0006980512662948269,-0.0055125405619814525,0.007411972520869378,0.9924383159738898
2015-06-16,-1,-0.0007905820194504595,-0.0007503698152369431,-0.0029689583048681124,0.007411972520869378,0.9926562114704861
2015-06-18,1,5.767532624745812e-05,0.0002224916231361847,-0.005845100637140305,0.007411972520869378,0.9925055040731782
2015-06-22,-1,-0.00024772037421717395,-0.0001286580117105398,-0.006757787349494475,0.007411972520869378,0.9922119997043187
2015-06-24,-1,-0.0007608654301523234,-0.0006974689757481566,-0.0056155392734762105,0.008117644450969514,0.9920483126854432
2015-06-26,-1,-0.0003096377308043172,-0.0001745209122506917,-0.0056155392734762105,0.008117644450969514,0.9919838795280915
2015-06-30,-1,-0.0002658513558896355,-0.00012178296085896533,-0.0056155392734762105,0.008117644450969514,0.9915202497053225
2015-07-02,-1,-0.0005710404744678692,-0.0005613324850146061,-0.0056155392734762105,0.009017691914715072,0.9909663072009457
2015-07-07,1,0.0006716010277543116,0.0008405422457379884,-0.007360312417011692,0.007509244644861786,0.9919694779268561
2015-07-09,-1,-8.835013001511934e-05,-4.938105748386959e-05,-0.004660598399594427,0.008907594397006953,0.9918039860024758
2015-07-13,1,0.0007758604364858403,0.001000252112916928,-0.007094760789309066,0.011948468961794799,0.9913144505755901
2015-07-15,1,0.0007408396815298092,0.0009432192543742412,-0.007094760789309066,0.012120592968523445,0.9904053784916782
2015-07-17,1,0.001083689887422677,0.0013569980337931292,-0.00499151566381985,0.011948468961794799,0.9912979787436624
2015-07-21,1,0.00019589666459000302,0.0003040137277908671,-0.002676681805798684,0.011948468961794799,0.9914821031424579
2015-07-23,-1,-0.00047198572843663107,-0.0004429082515524976,-0.002676681805798684,0.011948468961794799,0.9913473445872015
2015-07-27,1,7.631457840153572e-05,0.00012827218828750646,-0.00549327921069772,0.011541017773235667,0.9896781327867784
2015-07-29,1,1.1155064503731584e-05,1.714877497296029e-05,-0.008600051429942676,0.011948468961794799,0.9880649152574332
2015-07-31,1,0.0011065724800192567,0.001272538151320845,-0.008600051429942676,0.011541017773235667,0.9887559992976295
2015-08-04,1,0.0007937668413325089,0.00093509589352037,-0.008600051429942676,0.011541017773235667,0.9880754458190572
2015-08-06,1,0.0012851523844273145,0.0014781886966412166,-0.008600051429942676,0.010275949505600332,0.9886118916167895
2015-08-10,1,0.0016569571248353817,0.0019371493937407477,-0.00952557127425143,0.010275949505600332,0.9880333210892307
2015-08-12,1,0.0022738107903257643,0.0026265601898170284,-0.01330220366384486,0.005992465474209563,0.9879211792278327
2015-08-14,1,0.002296831235117923,0.0026481440938976135,-0.01330220366384486,0.0071595485363504605,0.9877948788681266
2015-08-18,1,0.0021280340754536078,0.002432621993364742,-0.01330220366384486,0.008517298672413172,0.9877153240742693
2015-08-20,1,0.0023673972470754506,0.0027254313428221543,-0.01330220366384486,0.009091676488159065,0.9876852468084425
2015-08-24,1,0.0007687453767748513,0.0009210916028848583,-0.006274273414871767,0.013725525770771494,0.98947740684093
2015-08-26,1,0.0004037290892317299,0.0005184873788838368,-0.0057291257853093035,0.009805184098975687,0.9909594139933742
2015-08-28,1,0.0005009119375203927,0.0005966912802188056,-0.006274273414871767,0.009815770337360358,0.9905963734218945
2015-09-01,-1,-0.00022975275443047277,-0.00021686024295872528,-0.0025234347004250853,0.01376571656862021,0.9907315222876258
2015-09-03,0,-1.006681433303088e-05,2.2511840813576914e-05,-0.0057291257853093035,0.01376571656862021,0.9902882577498515
2015-09-08,-1,-0.00023926137326657265,-0.00023462882999976062,-0.0057291257853093035,0.010294580865766984,0.9909535857772328
2015-09-10,-1,-0.0003078392596381265,-0.00029509851422407796,-0.0025234347004250853,0.0137162171883465,0.9912476515893647
2015-09-14,-1,-7.603390070297672e-05,-5.550664803168701e-05,-0.0057291257853093035,0.013845135191093236,0.9908518468243214
2015-09-16,1,0.0004042859403662466,0.000519592379648046,-0.0057291257853093035,0.013845135191093236,0.991284453090443
2015-09-18,1,0.0005941848540189592,0.0007265779691545215,-0.0016066581864864957,0.01092764880886329,0.9918236332143987
2015-09-22,1,0.000488700439961159,0.0005647774206805781,-0.0013807213341611858,0.010053056249546314,0.9919911611173088
2015-09-24,1,0.0011277192858593185,0.0013125778287578962,-0.0021903698924517993,0.011078750411202563,0.9920715959300044
2015-09-28,1,0.0009052619817945444,0.0010134601733248825,-0.0021903698924517993,0.010053056249546314,0.9916821328645511
2015-09-30,1,0.0015943906094436357,0.001797991197999061,-0.005259971229049382,0.009498480276762318,0.9916911872777292
2015-10-02,1,0.001294027750564997,0.0014325786291896122,-0.005259971229049382,0.009498480276762318,0.9918519068259635
2015-10-06,1,0.0011011011197327495,0.0012273673005227014,-0.002390075804113813,0.009498480276762318,0.9924792348048717
2015-10-08,1,0.0017911111287752374,0.0020444797670798797,-0.002390075804113813,0.006963476922382027,0.9931440016429425
2015-10-12,1,0.0022221222864779156,0.002555307665987382,-0.002390075804113813,0.004770769942957911,0.9924359040220242
2015-10-14,1,0.0022416740571260803,0.0025674582557908385,-0.002390075804113813,0.009498480276762318,0.9912865993019467
2015-10-16,1,0.002391243743089061,0.0027152466881984255,-0.009840565504570927,0.006963476922382027,0.9899850786090888
2015-10-20,1,0.0024845620467935947,0.002815565490706338,-0.011265479875592338,0.006963476922382027,0.9893773802229258
2015-10-22,1,0.0025183173266086385,0.002815057460953006,-0.011265479875592338,0.006963476922382027,0.9897457467066098
2015-10-26,1,0.0017963653106503911,0.0019590964103558335,-0.008971234274621726,0.004770769942957911,0.9904495188256427
2015-10-28,1,0.0008718722727072349,0.0008812923243289113,-0.008189338513761123,0.004917251024917336,0.9907871594485417
2015-10-30,1,0.0003914290888032578,0.00044099296568524756,-0.006849623790840061,0.004917251024917336,0.991293916371717
2015-11-03,1,0.0007511968037566645,0.0007578829351072612,-0.008189338513761123,0.005546939332802104,0.9902233058552451
2015-11-05,1,0.0006529165006428483,0.0006791316635540632,-0.008971234274621726,0.009359218684151977,0.9885566007941938
2015-11-09,0,-7.62797571432972e-05,2.8324687987446996e-06,-0.008189338513761123,0.009359218684151977,0.9898562979385988
2015-11-11,1,0.0006365154030627373,0.0006527611133097036,-0.008971234274621726,0.0055183161987692134,0.9905551387348954
2015-11-13,-1,-0.0009412135004140584,-0.0007002479254151824,-0.006849623790840061,0.008607382830585025,0.991084530306852
2015-11-17,-1,-0.0006831581961787896,-0.00048151593934000765,-0.002885189760830904,0.008607382830585025,0.9908327755414392
2015-11-19,-1,-0.0003454475785937259,-0.00017545907376483646,-0.006849623790840061,0.008095358074454181,0.9905966794158498
2015-11-23,-1,-0.00019300942286986668,-7.17708741910238e-05,-0.005612068957877835,0.008095358074454181,0.9908289463820351
2015-11-25,1,0.0003250593192375936,0.00033406323693356034,-0.0036354483677622272,0.008607382830585025,0.9904807024929858
2015-11-30,1,6.813718473943115e-05,0.0001379590313953971,-0.0036354483677622272,0.00902424872356073,0.9900531505919824
2015-12-02,-1,-0.00031161539366298833,-0.00020600243776069477,-0.0036354483677622272,0.008938379321462058,0.9905808804304798
2015-12-04,-1,-0.0005528554615140546,-0.00042118027396920545,-0.0036354483677622272,0.008938379321462058,0.9916897963940798
2015-12-08,-1,-0.0003039219573235336,-0.00020414234972837726,-0.0036354483677622272,0.010033941270799634,0.9914682767566306
2015-12-10,-1,-0.0011436915129754538,-0.000915697672039385,-0.0036354483677622272,0.010033941270799634,0.991175334458115
2015-12-14,-1,-0.0008512972384964615,-0.0006428369215166308,-0.005464762165180135,0.008532640175090384,0.9916228771746869
2015-12-16,1,0.0004645073690908498,0.0004983741017527759,-0.005752347430479924,0.008532640175090384,0.9919724744668421
2015-12-18,-1,-0.00017935003899865543,-8.836046686112008e-05,-0.005752347430479924,0.010197516787677878,0.9914210920295121
2015-12-22,1,7.646965500231252e-05,9.278232101338386e-05,-0.005899854491260934,0.01070140605900453,0.9904272886244325
2015-12-24,1,0.00012504380809002388,0.0001618813900699362,-0.005899854491260934,0.010197516787677878,0.990859978502332
2015-12-29,1,0.0008442333925992663,0.0009324878589406773,-0.005899854491260934,0.010197516787677878,0.9902198727949436
2015-12-31,1,0.0006173619464100279,0.0006797208671709299,-0.005752347430479924,0.01136316540511688,0.9898891608258942
2016-01-05,1,0.0011063888845491729,0.001275141230189784,-0.004309187877976637,0.011628779886585183,0.9900182616250465
2016-01-07,1,0.0015683518070073212,0.0018014082954829272,-0.004869618108556668,0.012290015730728295,0.9898884268589053
2016-01-11,1,0.0015215376015584822,0.0017538254176786296,-0.004869618108556668,0.012290015730728295,0.9900029954598231
2016-01-13,1,0.0012489047739527581,0.0014503814294989617,-0.00599405343590236,0.012290015730728295,0.9896617369161771
2016-01-15,1,0.000685362366791394,0.0007022898314319147,-0.005143184219209266,0.011112480256847834,0.9903288429404212
2016-01-20,1,0.00034569379260901813,0.0004019555295899993,-0.004416606023589414,0.011112480256847834,0.9910971011885036
2016-01-22,1,0.0005473765878124444,0.000561642256546159,-0.004416606023589414,0.009793060361622304,0.9916218254768847
2016-01-26,0,-6.573825680246322e-05,7.867318732020576e-05,-0.004416606023589414,0.009793060361622304,0.9917647866956582
2016-01-28,1,0.000859430934685368,0.0008832186629309472,-0.005143184219209266,0.009028583405024744,0.9917219875744382
2016-02-01,1,0.0015639644507915548,0.0016053390754613723,-0.005143184219209266,0.007610955913100455,0.9925671971599439
2016-02-03,1,0.0017771644471943808,0.0018158590116507437,-0.005143184219209266,0.006973209843664691,0.9931381272034706
2016-02-05,1,0.0020910611998887756,0.0021940773310086172,-0.004973795206473043,0.006973209843664691,0.9936050410195034
2016-02-09,1,0.002095266651707621,0.0022041193787974184,-0.002607521134242078,0.006973209843664691,0.9937565849377253
2016-02-11,1,0.0015278934136132294,0.0015706815347952333,-0.0003164184794788291,0.006973209843664691,0.9940529216027674
2016-02-16,1,0.0014050370046154517,0.001443081116117347,0.000431514432039805,0.006973209843664691,0.994326053466479
2016-02-18,1,0.0022753376475883437,0.0024529846494972434,0.000431514432039805,0.007596244882584976,0.9943336103663
2016-02-22,1,0.002306670103672835,0.0024974309991488497,0.00012851046804885556,0.006973209843664691,0.9943797310809589
2016-02-24,1,0.0028110434488029567,0.003111448978564654,-0.000688526996625048,0.007595955730399803,0.993719423529488
2016-02-26,1,0.002048452319199163,0.00223720229682253,-0.0006071449084056278,0.007302793320591576,0.9950300169674581
2016-03-01,1,0.0019361237831633322,0.0020865708592946856,-0.0006071449084056278,0.00858499531336563,0.9947436947274978
2016-03-03,1,0.002170498186848979,0.0023770531188294147,-0.0006071449084056278,0.00858499531336563,0.9946717476618625
2016-03-07,1,0.0026471900520730453,0.0029318294030833657,-0.0020306665993212432,0.006838157644877569,0.99353820158171
2016-03-09,1,0.0031880334099006974,0.0035477090047629947,-0.0024107751548418472,0.0037160549059829097,0.9934666960172487
2016-03-11,1,0.002988578573589017,0.0033437778813195152,-0.0024107751548418472,0.005609055010697141,0.9937866644162032
2016-03-15,1,0.0030638643000432475,0.0034365628991711895,-0.0031117137553360787,0.005609055010697141,0.9933578239414742
2016-03-17,1,0.0041223156096649215,0.004660629037938212,-0.003307636234447752,0.00484104577264969,0.99341899087997
2016-03-21,1,0.0034163314971979936,0.0038346095490026304,-0.0025073657825420807,0.0055852288099057104,0.99422718958276
2016-03-23,1,0.003009234337049216,0.003321618212589028,-0.003307636234447752,0.00484104577264969,0.991646921078695
2016-03-28,1,0.002643786644300123,0.002875325112527062,-0.003307636234447752,0.0055852288099057104,0.9915639104372101
2016-03-30,1,0.0029825579009405863,0.003268252187072677,-0.003307636234447752,0.0055852288099057104,0.9915994304789287
2016-04-01,1,0.003249330028745643,0.0035777894193565335,-0.003307636234447752,0.0054930564460308855,0.9915271005510243
2016-04-05,1,0.001599116641210285,0.001629516745302658,-0.0025073657825420807,0.00588415291131974,0.9925441810535015
2016-04-07,1,0.0018836406579376577,0.002013066572852842,-0.003063787678214452,0.006518601600246719,0.9922165793068118
2016-04-11,1,0.0010879747355619957,0.0011322132793491326,-0.003063787678214452,0.008530296635221953,0.9912990999475196
2016-04-13,1,0.0009334092175981997,0.0009906324910762352,-0.0003131445242772418,0.008530296635221953,0.9916540333322247
2016-04-15,1,0.0012449469646223727,0.0012484959100125819,-0.00047363903444864016,0.011347518285970574,0.9913782192455687
2016-04-19,1,0.0012879181628322595,0.0012935630290645764,-0.0035452712087286472,0.011347518285970574,0.9906061640025966
2016-04-21,-1,-0.0016346861000374009,-0.0012779836201101125,-0.00047363903444864016,0.011347518285970574,0.9913378454986497
2016-04-25,-1,-0.0010561415095319954,-0.0007710027147321823,-0.0035452712087286472,0.010693286083686917,0.9919166874789644
2016-04-27,-1,-0.0008827759847494878,-0.0005893482319345562,-0.004280083990874936,0.010693286083686917,0.9919146297812015
2016-04-29,-1,-0.000922363441191829,-0.0006003038008988562,-0.004280083990874936,0.011347518285970574,0.9916499885507482
2016-05-03,-1,-0.00037159114881873566,-0.00012200051381385836,-0.004280083990874936,0.0110838142801774,0.9915867823561374
2016-05-05,-1,-0.0005784753572783486,-0.0002752264057858672,-0.004058508418721942,0.011087335201722837,0.9912122776598606
2016-05-09,0,-7.48503972526017e-05,0.00014230687127494393,-0.003471412684677649,0.01060655838893767,0.9923586865271162
2016-05-11,1,0.0007585477537604664,0.0008194771763780527,-0.003471412684677649,0.011087335201722837,0.9918047647517076
2016-05-13,1,0.0003365735995738134,0.0005036683879938457,-0.0034511935967966685,0.01060655838893767,0.9924479948174847
2016-05-17,-1,-0.0009863223466860423,-0.00064233932669081,-0.0034511935967966685,0.01060655838893767,0.9929042968243547
2016-05-19,-1,-0.0012259543425301896,-0.000874174630900379,-0.0015700811221688296,0.011141069997531755,0.9935628183499768
2016-05-23,-1,-0.0015188713134575054,-0.0011574835159148882,-0.001296874417556643,0.011141069997531755,0.9936565778953471
2016-05-25,-1,-0.0015428713822524729,-0.0011580286243514008,-0.001296874417556643,0.006193841013866937,0.9942768633154698
2016-05-27,-1,-0.0010508488636807995,-0.0007230441511210348,-0.001296874417556643,0.010024132923082496,0.9939827441897289
2016-06-01,0,-0.00018005920714626194,2.1831565371133632e-05,-0.001296874417556643,0.005281413895865294,0.994802712170937
2016-06-03,1,0.00021738878262365577,0.00038638482898361204,-0.0009395880236692145,0.005281413895865294,0.994985537803457
2016-06-07,-1,-0.00044420773536481023,-0.00017106364625200314,0.0003501630086068583,0.010010466970250688,0.9943286202017662
2016-06-09,1,0.00035986603206327036,0.0005286410902424407,-0.00023392348261604533,0.006994004858121429,0.9940766445300109
2016-06-13,1,0.00025127877787644887,0.0004353410498743061,-0.002742340134688857,0.006994004858121429,0.992909759800604
2016-06-15,-1,-0.0003705198693838104,-0.00011201023571979997,-0.002742340134688857,0.009861072557986681,0.9924585050567811
2016-06-17,1,4.870947323388087e-05,0.00025634532493084303,-0.002742340134688857,0.006994004858121429,0.9929064967197234
2016-06-21,1,0.0003919405401534099,0.0005148169298398826,-0.00398542178752853,0.006994004858121429,0.9928626913032129
2016-06-23,1,0.0007701645967983418,0.0007994233305884784,-0.0020353806424472055,0.009781690219288444,0.9923801325381976
2016-06-27,1,0.0019685553101254204,0.002131605143821204,-0.004055223383116116,0.006116863837030142,0.992803265508974
2016-06-29,1,0.0020971614655259504,0.0022890097276889758,-0.004738535131888865,0.006116863837030142,0.9922621439826459
2016-07-01,1,0.002824450511815349,0.0031118485298287637,-0.004738535131888865,0.006005746714677932,0.9929154319659592
2016-07-06,1,0.0028083761087782638,0.003048035004332812,-0.006900919755372333,0.005264831020990027,0.9922009973168558
2016-07-08,1,0.001904223560605215,0.0020083457258163774,-0.006900919755372333,0.0038634692894703926,0.9928930483446456
2016-07-12,1,0.0012185250688896982,0.001276465055118385,-0.0054107107914644756,0.0038634692894703926,0.9941360959274045
2016-07-14,1,0.0012167804026584693,0.001270630477905476,-0.004334592954024814,0.0032765630216194646,0.9949742810132093
2016-07-18,1,0.0014366054338583424,0.0015293766754390554,-0.0054107107914644756,0.0024492977402579734,0.9941790869453195
2016-07-20,1,0.0007501306348536394,0.0007881890647371521,-0.007509854767449866,0.0038634692894703926,0.9933151979867673
2016-07-22,1,0.001392110527127141,0.001440890184535185,-0.01047785552520159,0.0024492977402579734,0.9925142339982815
2016-07-26,1,0.000828128493162641,0.0008471445153520687,-0.009718478613832317,0.0035495797526910616,0.9926977232230481
2016-07-28,1,0.0009503775098722986,0.0009683822013582563,-0.009718478613832317,0.0024492977402579734,0.9932221614081937
2016-08-01,1,0.0013558337748477364,0.00146270136929625,-0.011689464108005889,0.0024492977402579734,0.9920641657859127
2016-08-03,1,0.00034759330297916833,0.00039191511240523535,-0.011604567320718929,0.0035495797526910616,0.9922809310835478
2016-08-05,-1,-0.00017437420185910466,-7.258133776814364e-05,-0.009718478613832317,0.003860735093321769,0.9924914115093059
2016-08-09,1,0.0003701614765018929,0.0003838691927957504,-0.009718478613832317,0.005071498775860829,0.9919890789495026
2016-08-11,1,0.00010506258962239882,0.00014828718092576096,-0.011604567320718929,0.005071498775860829,0.9901340331686334
2016-08-15,-1,-0.000507356898676491,-0.00039563314923355146,-0.011604567320718929,0.00828268984720452,0.9892326826948467
2016-08-17,-1,-0.0002870203409032453,-0.00020277208563754303,-0.009927045117633624,0.005071498775860829,0.9902900411591862
2016-08-19,1,1.1960303804516579e-05,4.315426572658039e-05,-0.003921840484813208,0.007697598840999548,0.9906891290377595
2016-08-23,0,-1.6248393669545344e-05,4.37151564490487e-07,-0.0025917063242902423,0.008906191043138261,0.9899013149963164
2016-08-25,-1,-0.000555481496021296,-0.0004259551854786766,-0.0025917063242902423,0.008906191043138261,0.9892904078062041
2016-08-29,-1,-0.0012804716588421363,-0.0010571016652389143,-0.0025917063242902423,0.008906191043138261,0.9895993445972451
2016-08-31,-1,-0.001655645683627303,-0.001388045926507008,-0.003083817564455642,0.008906191043138261,0.9897912611142851
2016-09-02,-1,-0.0013791865826106669,-0.0011375365326635758,-0.011213625822350895,0.008249528154251798,0.9891635238555235
2016-09-07,-1,-0.0006462246370671761,-0.0004957365797554154,-0.014215228275625207,0.0050284135698797855,0.9888589189883356
2016-09-09,-1,-0.0021262455664118555,-0.0018186209773496448,-0.011213625822350895,0.0050284135698797855,0.9904472866548891
2016-09-13,-1,-0.0038812827067516895,-0.003240776836516118,-0.010568201299306967,0.0047392186204780595,0.991066017229603
2016-09-15,-1,-0.003338340286571621,-0.0027869296731382596,-0.010568201299306967,0.007358086011819457,0.990382765993908
2016-09-19,-1,-0.002196730072094317,-0.001805462927239545,-0.010568201299306967,0.006900311216973716,0.9910230153602436
2016-09-21,-1,-0.0011610805689186883,-0.0009055971741098928,-0.010568201299306967,0.0054294373082123155,0.9918503601407038
2016-09-23,-1,-0.0004054312178666102,-0.0002613520332587646,-0.010927888605438928,0.0033275599168845287,0.991803014564796
2016-09-27,-1,-0.0009809737778314056,-0.0007832547761300207,-0.010534064448213244,0.006404396102544341,0.9920157256028148
2016-09-29,-1,-0.0013850287569797907,-0.0011552117837989406,-0.008115125737862492,0.006404396102544341,0.9922182196228883
2016-10-03,-1,-0.0024969306042423645,-0.0021480513757815276,-0.004312354569899825,0.00687437435922309,0.9917757613888375
2016-10-05,-1,-0.003379069231084027,-0.002944600716677687,-0.005867306025208752,0.00687437435922309,0.9916117872428664
2016-10-07,-1,-0.003695403569660612,-0.0031852173290956506,-0.006597789243713767,0.00687437435922309,0.9915321508973984
2016-10-11,-1,-0.004006952654799649,-0.003445201813850233,-0.005670263417879478,0.00703410067644386,0.9906071000917165
2016-10-13,-1,-0.0032613558581699497,-0.002767550682923922,-0.007839078400743589,0.006434652526608386,0.9890924569514031
2016-10-17,-1,-0.0030814695987456215,-0.0026234669352574336,-0.008819722535521851,0.006015525395240579,0.9891779590902077
2016-10-19,-1,-0.0027367843400300657,-0.002346398560224278,-0.008819722535521851,0.006434652526608386,0.9884432431767373
2016-10-21,-1,-0.0027140983834852235,-0.0023569426721102077,-0.006924670621973187,0.006434652526608386,0.9888937885271571
2016-10-25,-1,-0.0018043629273785046,-0.0015836232016688176,-0.006924670621973187,0.0066989369161956575,0.9890240514442866
2016-10-27,-1,-0.0018814248537896707,-0.0016448558791793014,-0.008819722535521851,0.009766505951483255,0.9877712449055379
2016-10-31,-1,-0.0003568742297124002,-0.0003306767738495118,-0.008819722535521851,0.009766505951483255,0.9878520774575716
2016-11-02,-1,-0.0013548601090641686,-0.001214022295363262,-0.009384363632517925,0.009766505951483255,0.9868265725593376
2016-11-04,-1,-0.0015928820413013123,-0.0014095483520499264,-0.009384363632517925,0.009766505951483255,0.9868667043859338
2016-11-08,-1,-0.00014389417188136736,-0.0001325750592915575,-0.009384363632517925,0.006914979721635334,0.9875772852803597
2016-11-10,-1,-0.0027979255449541982,-0.002500004688827607,-0.004028693651931067,0.012808706632967183,0.9896224298286292
2016-11-14,-1,-0.002955393298299502,-0.0026365896466307758,-0.0027392832170505953,0.01504162330211204,0.9888401319813301
2016-11-16,-1,-0.001759547669077759,-0.0016293769187469547,-0.0027392832170505953,0.012808706632967183,0.9894316375140618
2016-11-18,-1,-0.0017041143648509724,-0.0015907248035334507,-0.0015885280631974994,0.012808706632967183,0.9887711129657937
2016-11-22,-1,-0.0006644069641615672,-0.0006056119511029352,-0.0019164215126313872,0.012504240055993588,0.9894918792454793
2016-11-25,0,-7.060613733948502e-05,9.837021020154255e-05,-0.0019164215126313872,0.007554477298181544,0.991058168879136
2016-11-29,1,0.0005857869073524777,0.0008104844988911406,-0.0033725873741625827,0.005592462783060255,0.991756856634049
2016-12-01,-1,-0.0015559249583168558,-0.0014631571323914863,-0.0019164215126313872,0.007554477298181544,0.9923789968834204
2016-12-05,-1,-0.00110412025292892,-0.001074660336613179,-0.0021095495339685257,0.007554477298181544,0.9926294504837655
2016-12-07,-1,-0.0003349975995703039,-0.0002499742631665223,-0.0021095495339685257,0.005592462783060255,0.9934586370592736
2016-12-09,1,0.00012123945791696035,0.00025961398020036923,-0.0029397815477887786,0.0047210036732946185,0.9936968136153002
2016-12-13,1,0.0012941517357974285,0.0016259533861758245,-0.0029397815477887786,0.004447369693225327,0.9941861986917104
2016-12-15,1,0.0007135614040161372,0.0009448354907117816,-0.0026982067655494492,0.004672861352034004,0.9942709681022424
2016-12-19,1,0.0012402622872389217,0.0015417742947826597,-0.005137461090996002,0.004056955399993826,0.9941488994632142
2016-12-21,1,0.0015101084871123164,0.0018582526491508465,-0.005863283415623342,0.0040496402920541415,0.9939386723954032
2016-12-23,1,0.0010362939636904865,0.001286430039563719,-0.005137461090996002,0.0040496402920541415,0.9942073642024646
2016-12-28,1,0.0005517456636502901,0.0007160147810590135,-0.004707202341384649,0.0040496402920541415,0.9944228969174425
2016-12-30,1,0.0009459738657793957,0.0011628764474624618,-0.0026353121097587744,0.0040496402920541415,0.9947920069484981
2017-01-04,1,0.001084277924934942,0.0013225807918370509,-0.004707202341384649,0.0040496402920541415,0.9933550783100649
2017-01-06,1,0.000963135804292968,0.0011574405605777392,-0.004707202341384649,0.0040496402920541415,0.9934663000776448
2017-01-10,1,0.0005527598930929322,0.000704599612717807,-0.0015288225204686764,0.005701939592765043,0.9936610873491707
2017-01-12,1,0.001120470449337199,0.0013542221549044961,-0.004707202341384649,0.004333279686773043,0.9938211148077514
2017-01-17,1,0.0013468572302317663,0.001600168561969691,-0.005065884303671699,0.0039691515846182425,0.9942675476775754
2017-01-19,1,0.001148514283549816,0.0013810130553092474,-0.0031385566757071263,0.004333279686773043,0.9944796889686907
2017-01-23,1,0.0008407413835188918,0.001004306483087604,-0.0010269055171730603,0.004915044784201575,0.994398189733933
2017-01-25,1,0.0006641744866007764,0.0007875935864081428,-0.0004750061625747518,0.007447234885050638,0.9939186234333682
2017-01-27,1,0.0007822851279575739,0.0009392484715214973,1.1110497618240065e-05,0.009210626918261564,0.9939028853331718
2017-01-31,1,0.0016027169304362347,0.0019024274939886915,-0.0011782896918325345,0.009119155986930994,0.9942336532320759
2017-02-02,1,0.0009957766113200264,0.0011367611222811932,-0.0011782896918325345,0.008304534347457333,0.9951935208197014
2017-02-06,1,0.001005906896917927,0.00113890426928396,-0.0023746611651214457,0.008304534347457333,0.9948823899074238
2017-02-08,1,0.0015518608262490752,0.0017692174774703042,-0.0027186271770085558,0.0070583271415249026,0.9945735468509718
2017-02-10,1,0.001768232387115988,0.002054518176821888,-0.0027186271770085558,0.008304534347457333,0.9943746632524453
2017-02-14,1,0.0019109703721422102,0.0022567678424664584,-0.0023746611651214457,0.009119155986930994,0.9939849175607808
2017-02-16,1,0.0022772551612221005,0.0026966226179215547,-0.0024566486697184917,0.009119155986930994,0.9936528175955994
2017-02-21,1,0.0024147706535170175,0.002819607480144426,-0.0034245352037620322,0.009119155986930994,0.9928556927751392
2017-02-23,1,0.002612145264093607,0.00301683848865071,-0.0034245352037620322,0.008304534347457333,0.9932110498874626
2017-02-27,1,0.002271977301054413,0.002568945884726028,-0.0034245352037620322,0.006658054409376448,0.9934664120690512
2017-03-01,1,0.001843363282678612,0.002026974890342972,-0.003705758862059511,0.004987659056866856,0.993467270779436
2017-03-03,1,0.0019463649546375941,0.002144471986672908,-0.004180762338620881,0.004342745020579965,0.9936737705245648
2017-03-07,1,0.0018529755523823451,0.002026623859683531,-0.004180762338620881,0.0037458562124065902,0.9938330868444107
2017-03-09,1,0.0016006601034868825,0.0017823673741879896,-0.0039813526154909955,0.004745333746478535,0.9942774378645399
2017-03-13,1,0.0016469980242600868,0.0018316099723423478,-0.003763699310812772,0.004106038070322802,0.9946683882269315
2017-03-15,1,0.0021889982385323915,0.0024410332448657297,-0.003763699310812772,0.004106038070322802,0.9952408702301175
2017-03-17,1,0.0018082473679436337,0.0019872455098151965,-0.002235815350342116,0.004106038070322802,0.9956626790928733
2017-03-21,1,0.002341641647030309,0.0026142620094209553,-0.002235815350342116,0.0036938789301417937,0.9963223252408007
2017-03-23,1,0.002401209969182455,0.0026753929933613116,-0.0034106043546652796,0.004037036457222982,0.9960347102147171
2017-03-27,1,0.00291610708432242,0.00331033624705792,-0.0034106043546652796,0.004037036457222982,0.9959652774656221
2017-03-29,1,0.0020911105527472136,0.0023193905018135193,-0.0034106043546652796,0.004100096220915263,0.9962215203839734
2017-03-31,1,0.0019299009316597598,0.0021282441753280776,-0.0034553469192534067,0.004100096220915263,0.9959910749269415
2017-04-04,1,0.002418016472205173,0.0027345506083676,-0.0034553469192534067,0.004100096220915263,0.9957570260867893
2017-04-06,1,0.0011142693575313385,0.0011143273145740409,-0.002510812612304128,0.004100096220915263,0.996375850889468
2017-04-10,1,0.0008537308986276977,0.0008989480910754211,-0.002510812612304128,0.004083071890080239,0.9963743836964517
2017-04-12,1,0.0012222330734512712,0.001241474433039786,-0.002510812612304128,0.004083071890080239,0.9963491189314863
2017-04-17,1,0.00114596629276042,0.0011503927215697559,-0.002510812612304128,0.004352880746542198,0.996117013270438
2017-04-19,1,0.0009784566569657725,0.0009876055977199067,-0.002510812612304128,0.004352880746542198,0.99621112313253
2017-04-21,1,0.0009895462185542986,0.0009933504730713822,-0.0018874469082183595,0.004625134103656814,0.9963788623296095
2017-04-25,1,0.0014805736379876063,0.0015849202968634224,-0.0018874469082183595,0.004784202219073392,0.9960921818574895
2017-04-27,1,0.00040174884650947656,0.0005322513515101418,-0.00027572784514364184,0.0051821073921661165,0.9956876951105047
2017-05-01,1,7.289910248006357e-05,0.00023601642934292777,0.0007992317704103951,0.005640677219374267,0.9956013332876765
2017-05-03,1,0.0001538427139005242,0.00028932991643549065,0.0015513316422472124,0.005823916800131855,0.9952024301043575
2017-05-05,1,0.000598018645116937,0.0006634222688592233,0.0008699431996942708,0.005823916800131855,0.9951445919288554
2017-05-09,1,0.0007057658915932236,0.0007183144962227998,0.0008699431996942708,0.006173698829301182,0.9949798614168308
2017-05-11,1,0.0005938372391196183,0.0006427713378431882,0.0005460933898238857,0.006173698829301182,0.99466402653052
2017-05-15,1,0.0012492445856359773,0.0013041074810006157,-0.0026461936277511902,0.00567261050946792,0.9950312179011627
2017-05-17,1,0.0010322629404590634,0.0010635930118248448,-0.00042447553141144925,0.006033155035237778,0.9948963020454531
2017-05-19,1,0.001002705271642922,0.0010111180618181535,-0.0026461936277511902,0.006033155035237778,0.9946568365242651
2017-05-23,1,0.001184779737723023,0.001191993339767737,-0.002942460977540552,0.00567261050946792,0.9950562876975799
2017-05-25,1,0.0017553398506165857,0.0018540623202511737,-0.004242840016062943,0.004605055417710753,0.9951643273693891
2017-05-30,1,0.001859000653308155,0.001970762426910227,-0.004421282345915536,0.004605055417710753,0.9947580705543728
2017-06-01,1,0.0021577266268895607,0.0023066465675299066,-0.006655480278775446,0.004011354782618958,0.9937228645851526
2017-06-05,1,0.0014370031747636411,0.0014579625751758593,-0.00639236191464862,0.002469012498403863,0.9940561472317139
2017-06-07,1,0.0015730388744295775,0.001631749314138526,-0.005016178315365433,0.001131710515498647,0.9945345588848469
2017-06-09,1,0.0012285782203380552,0.001248894957893786,-0.004421282345915536,0.0020766895948787028,0.9951200318967123
2017-06-13,1,0.0006963466239023011,0.0007620537408192032,-0.004421282345915536,0.0030256108712314192,0.995294228026082
2017-06-15,1,0.0008718342129325524,0.0009214011185528367,-0.0045255065442274135,0.0020766895948787028,0.9951964100879825
2017-06-19,1,0.0006573942601743551,0.0007390059295153482,-0.0045255065442274135,0.0030638203470474464,0.9952444687621353
2017-06-21,1,0.0004113639335899278,0.000529636614257293,-0.0045255065442274135,0.004882111651622478,0.9948086576594312
2017-06-23,1,0.00023367005997484617,0.0003561928898826213,-0.005284771218277071,0.005346870945841494,0.9944491336145894
2017-06-27,1,3.8740782001084545e-06,0.00015746166156537747,-0.0043968312013233915,0.005623333707610253,0.994299371246971
2017-06-29,-1,-0.0009830244058274124,-0.0007132915649950123,-0.0032000032511514953,0.006091664314487238,0.9944097120406858
2017-07-03,-1,-0.001136499136016972,-0.000869904391578883,-0.0013696432989292683,0.006091664314487238,0.9941328581078623
2017-07-06,-1,-0.001300448149882997,-0.0010074806784568424,-0.0010405440770984902,0.006536228106768364,0.9935093510069126
2017-07-10,-1,-0.0015138051923989778,-0.0011855271340597694,-0.0010567399972565444,0.006536228106768364,0.9933166944033446
2017-07-12,-1,-0.001259663752735565,-0.0009640379133093211,-0.0030598535442182733,0.006091664314487238,0.9934835696672084
2017-07-14,-1,-0.0010508720041940462,-0.000799437611410703,-0.0030598535442182733,0.006531147303516061,0.9932099532339734
2017-07-18,-1,-0.0004416680380790822,-0.0002834536496991045,-0.0030598535442182733,0.00656216738061493,0.9933544061927864
2017-07-20,1,0.00027627594457921615,0.0003400779435542646,-0.003698196050496017,0.00616347166707082,0.9938389519338812
2017-07-24,1,8.592373775201959e-05,0.00017036939549708812,-0.0030598535442182733,0.006340967654798533,0.9941039496862681
2017-07-26,1,0.0004425116430445547,0.00047698585695875106,-0.0019467304670152353,0.005670346366386463,0.994705675798275
2017-07-28,1,0.00029571088569513857,0.00034622612840970094,-0.0007102465855984379,0.005109148814050682,0.9955455597558521
2017-08-01,1,0.00011757513537482222,0.00022902612386468328,-0.0010119964939633217,0.004979486869458965,0.9957199479868116
2017-08-03,1,0.0005785686321667653,0.0006374190358538432,-0.0010119964939633217,0.004908518724452301,0.9962481719789601
2017-08-07,1,0.0010037069026364752,0.001031199597034007,-0.0010119964939633217,0.004979486869458965,0.9961822273095137
2017-08-09,1,0.000852367286153014,0.0008620089185627651,-0.0010119964939633217,0.005204046271062184,0.9961737680501972
2017-08-11,1,0.0008832442642572797,0.0009051651795630562,-0.000505696898015902,0.0056495555435835156,0.9964935543226066
2017-08-15,1,0.0013381601273865177,0.0014262049600254779,-0.0016724071273617085,0.005057299971666868,0.9955232884897388
2017-08-17,1,0.00127782430456053,0.0013635200921818158,-0.0013218106997543372,0.005057299971666868,0.9958022899465042
2017-08-21,1,0.0014556081896315099,0.0015447835267527763,-0.0020665865039725924,0.0038038090429829783,0.9953659212506367
2017-08-23,1,0.0014600748885772166,0.0015428192829907627,-0.003046749506174822,0.0011648150654928711,0.9950920295927507
2017-08-25,1,0.0013699475626847825,0.0014379897470442916,-0.004376544766959496,0.003976153619741726,0.9943556971558343
2017-08-29,1,0.0014054827431619272,0.0014761322000654638,-0.006667264278390182,0.0016967431559128073,0.9937231627091263
2017-08-31,1,0.0012509654775420252,0.0012968326690742285,-0.006667264278390182,0.0056495555435835156,0.9935253965569616
2017-09-05,1,0.0013894043165165197,0.0014667767432615356,-0.006667264278390182,0.0020275793434694636,0.9936173871643176
2017-09-07,1,0.0015546859328462448,0.0016578781401783323,-0.006667264278390182,0.0020275793434694636,0.9931442390321759
2017-09-11,1,0.0017786421565628866,0.0018909356240516693,-0.006667264278390182,0.00036853828356192976,0.993064049019621
2017-09-13,1,0.0005379868765168987,0.0005861910474070371,-0.003981353572489533,0.0045362202499180495,0.9944898094920153
2017-09-15,1,0.00044774018933780636,0.0005029034280182173,-0.003981353572489533,0.006341470190513742,0.9940042694605785
2017-09-19,-1,-0.00019417030683116103,-6.599885951114764e-05,-0.003844852273409149,0.006341470190513742,0.9944064012131231
2017-09-21,-1,-0.0008972099441406099,-0.0006683377773689016,-0.0032573544236551115,0.0070344983543844325,0.9942012185968218
2017-09-25,-1,-0.0013287540546347123,-0.0010429212162187697,-0.002620515689662372,0.0070344983543844325,0.9949024216213571
2017-09-27,-1,-0.0018134287947524483,-0.0014865207592355597,-0.001830222901664886,0.0070344983543844325,0.9951526318317312
2017-09-29,-1,-0.0018181314532850288,-0.001472668209200114,-0.002620515689662372,0.005330477811067444,0.9951439763888925
2017-10-03,-1,-0.001800786945759422,-0.0014735941093144635,-0.001830222901664886,0.005330477811067444,0.9948803167797726
2017-10-05,-1,-0.0010999334454170689,-0.0008831511261011957,-0.001830222901664886,0.004685497754656856,0.9956011802261111
2017-10-09,-1,-0.0012871971756197682,-0.0010364923232979656,-0.001830222901664886,0.005232223514347134,0.9954232686000554
2017-10-11,-1,-0.0005342122288357206,-0.0003811134005381747,-0.001830222901664886,0.004685497754656856,0.9955361602735322
2017-10-13,1,9.834318514425822e-05,0.0001473300896764033,-0.001830222901664886,0.004685497754656856,0.9958053255559588
2017-10-17,1,0.0005321118062243548,0.000572094890032538,-0.00025209844282061,0.005555368158366093,0.9947153446981215
2017-10-19,1,0.0011192580701869634,0.001250970819686496,-0.0021709189190732346,0.004793212635996509,0.9946406194177732
2017-10-23,1,0.0013455636851197883,0.001534962824966904,-0.005713779843486273,0.004793212635996509,0.994078999706655
2017-10-25,1,0.0012744640136426169,0.0014378900894862602,-0.005713779843486273,0.004793212635996509,0.9941425118599378
2017-10-27,1,0.0011200690692519132,0.0012647684137212345,-0.004290115875775686,0.004793212635996509,0.9944369719120341
2017-10-31,1,0.0010592883227514627,0.0011652201304716537,-0.004290115875775686,0.005555368158366093,0.9942478911261532
2017-11-02,1,0.0006577100300094189,0.0006933852419544408,-0.004084548044616809,0.006731383807356875,0.9940043274306539
2017-11-06,1,0.0009683998156093362,0.001070271342471781,-0.005459179192600243,0.0055875671849871435,0.9939176165879465
2017-11-08,1,0.0016109018611429639,0.0017953827400499322,-0.005459179192600243,0.0053077418444947375,0.9940449243168219
2017-11-10,1,0.001480782047739554,0.0016430122034859446,-0.00503291650786533,0.00598850486574281,0.9941960362756946
2017-11-14,1,0.0024784990211654152,0.002746819590408253,-0.005459179192600243,0.004942763536487562,0.9942997648136901
