JNU-Tangyin/eata/results/Batch4_SP500/Batch4_SP500-DAL.csv
Date,Action,Predicted_Q25,Predicted_Q75,Actual_Q25,Actual_Q75,RL_Reward
2010-12-14,0,0.0,0.0,-0.01409363608094108,0.008999572557427693,0.9868811249879637
2010-12-16,0,0.0,0.0,-0.009920257060934384,0.009958336498412573,0.987606251775553
2010-12-20,0,0.0,0.0,-0.016415436825137904,0.009958336498412573,0.9832678695728224
2010-12-22,0,0.0,0.0,-0.01409363608094108,0.01156560867584281,0.9836046887183074
2010-12-27,0,0.0,0.0,-0.015031411998703295,0.01156560867584281,0.9816753764533556
2010-12-29,1,0.00014807906562307042,0.0001599531568216008,-0.015031411998703295,0.013210036131924,0.9797590723618975
2010-12-31,-1,-0.00011041833648344903,-9.827157044376745e-05,-0.020222832359390323,0.013210036131924,0.9783552328311892
2011-01-04,-1,-0.0008765542013197633,-0.0007234566723053487,-0.023717941643244412,0.013210036131924,0.9764081790871584
2011-01-06,1,0.00028073240943986754,0.0003080672674470953,-0.023717941643244412,0.013210036131924,0.9770210553745671
2011-01-10,-1,-9.823449065844879e-05,-2.0972948738567893e-05,-0.020222832359390323,0.014445082816609016,0.9769323376472507
2011-01-12,-1,-0.0013292599123694885,-0.000973801590399086,-0.015485573271989453,0.014445082816609016,0.9779582190620636
2011-01-14,-1,-0.0016289143369005615,-0.0011520869159226841,-0.015485573271989453,0.01638524881674802,0.9778825498851539
2011-01-19,-1,-0.003534242311973803,-0.002828080242164759,-0.010407262151053885,0.01638524881674802,0.9822005100200508
2011-01-21,-1,-0.008781107545253143,-0.007305916539214497,-0.013037859066251435,0.01638524881674802,0.9823671278447201
2011-01-25,-1,-0.007692383089294574,-0.006407097194220299,-0.013037859066251435,0.01638524881674802,0.9815927442766319
2011-01-27,-1,-0.004112384073878492,-0.003319408107923856,-0.013037859066251435,0.011001561199608042,0.9836793484313726
2011-01-31,-1,-0.007768498836984584,-0.006467305983014439,-0.011675084893709439,0.01138300388719352,0.9824406565783746
2011-02-02,-1,-0.009673900689230599,-0.008112162059907346,-0.011675084893709439,0.011417610565714859,0.9817295684318683
2011-02-04,-1,-0.007846346947844517,-0.006634344870104325,-0.01325223050189095,0.011417610565714859,0.9808351805235892
2011-02-08,-1,-0.004919813970351227,-0.00413070435519557,-0.015077674033890738,0.010802892285591177,0.9779076371191877
2011-02-10,-1,-0.005749179549954587,-0.004857356897334703,-0.015077674033890738,0.012619143164166447,0.9761985642395155
2011-02-14,-1,-0.005526807014956104,-0.004636857100417752,-0.023745210020602304,0.010802892285591177,0.9755648278058136
2011-02-16,-1,-0.004894847646427732,-0.004133955050458945,-0.03352828589921905,0.010802892285591177,0.9728083725064699
2011-02-18,-1,-0.006531910502970162,-0.00555771201108125,-0.03352828589921905,0.012668999801977218,0.971635316095977
2011-02-23,-1,-0.008310586315307436,-0.007140464294579176,-0.027476501301291045,0.010802892285591177,0.975529886008615
2011-02-25,-1,-0.008089200500006973,-0.006923788444768474,-0.027476501301291045,0.010802892285591177,0.9751899855160227
2011-03-01,0,0.0,0.0,-0.023745210020602304,0.010934237859215799,0.9753173471549055
2011-03-03,0,0.0,0.0,-0.021522320009281212,0.012248770405706554,0.9764976821006455
2011-03-07,0,0.0,0.0,-0.018117356729395094,0.01037425563987528,0.9788498953672335
2011-03-09,0,0.0,0.0,-0.01778163476624308,0.005876866664200133,0.9831673077154879
2011-03-11,0,0.0,0.0,-0.021522320009281212,0.0012739563796238253,0.9819102020380932
2011-03-15,0,-0.005189864457969713,0.0,-0.017229274473667622,0.01037425563987528,0.9818355602108071
2011-03-17,-1,-0.007956166618010673,-0.007171114109495557,-0.017229274473667622,0.01037425563987528,0.9826586209090523
2011-03-21,0,0.0,0.0,-0.017229274473667622,0.004053288264011636,0.9819739065742937
2011-03-23,0,0.0,0.0,-0.015255730459915968,0.004053288264011636,0.9828449322137441
2011-03-25,0,0.0,0.0,-0.013439736846961654,0.0012739563796238253,0.9839735292605997
2011-03-29,0,0.0,0.0,-0.013439736846961654,0.0030320862995848645,0.9799875439107784
2011-03-31,0,0.0,0.0,-0.012225099511488579,0.0030320862995848645,0.9798258247612088
2011-04-04,0,0.0,0.0,-0.012225099511488579,0.006431316525300853,0.9793276071096032
2011-04-06,-1,-0.00257328975028795,-0.002457172265999727,-0.010994384340222095,0.013476479005470107,0.976981416150262
2011-04-08,-1,-0.0054896474658628685,-0.004997577448000787,-0.007602647424081048,0.013476479005470107,0.9774529869782375
2011-04-12,-1,-0.0016556007485351173,-0.0016391005366829618,-0.007602647424081048,0.006431316525300853,0.9812676484044152
2011-04-14,-1,-0.002869621951695572,-0.002796004736717314,-0.007602647424081048,0.006431316525300853,0.9820317478175512
2011-04-18,-1,-0.003224987400643214,-0.0031156164160710473,-0.004945872935598702,0.011798864954930106,0.9808280348309114
2011-04-20,-1,-0.0023816880950288943,-0.0023091001222214766,-0.004945872935598702,0.025751708892212847,0.979066588387622
2011-04-25,-1,-0.003316419116273019,-0.003216718273156953,-0.005381180882920024,0.025751708892212847,0.9771741947903834
2011-04-27,1,0.0005344746281200593,0.0009254596520663612,-0.013644682880875654,0.01458619373240384,0.9802956010178352
2011-04-29,1,0.002020652207057767,0.0026212508212073433,-0.01832112254883421,0.008636231251840437,0.9790992439392896
2011-05-03,1,0.0020470439337276682,0.0026007551209987984,-0.021261094316202184,0.008855884285282778,0.9771970926553375
2011-05-05,1,0.004538094083131095,0.005401139242120639,-0.021261094316202184,0.0026818318800493164,0.9791586098158092
2011-05-09,1,0.0029511654391079526,0.0036180460984715805,-0.021261094316202184,0.0026818318800493164,0.9798410905596084
2011-05-11,1,0.003495318208880013,0.004156923875720499,-0.021261094316202184,0.001775924606613454,0.9799470513454162
2011-05-13,1,0.002123217358477647,0.002609664075752585,-0.019343001653904398,0.00436206145020317,0.9824608944378984
2011-05-17,1,0.0031400186790671043,0.003744791725424472,-0.019502741562638204,0.00436206145020317,0.9816324510982666
2011-05-19,1,0.004721295134675465,0.005543527111118669,-0.019502741562638204,0.00515793417781336,0.982498442527446
2011-05-23,1,0.004091565610382479,0.004862429714815731,-0.01773500496431288,0.007626983253151549,0.9838380305301014
2011-05-25,1,0.001976645088408162,0.002454168559798478,-0.01773500496431288,0.008870549015774384,0.9845901772735814
2011-05-27,1,0.0006375588702356395,0.0009108676274150046,-0.014192899171259536,0.011707661231776405,0.9831819685756791
2011-06-01,1,0.0003888807935395384,0.0006990495547265334,-0.018479645638563108,0.011707661231776405,0.9831030109815878
2011-06-03,0,-9.999658812647307e-05,9.965260731319842e-05,-0.018479645638563108,0.012559525530430181,0.9825556384252726
2011-06-07,-1,-0.0012135347449473638,-0.0011590595034530748,-0.017995872352094124,0.012559525530430181,0.9831341415900182
2011-06-09,-1,-0.0009203372087834071,-0.0007787471099305275,-0.017995872352094124,0.014601845779652668,0.9822900233256844
2011-06-13,-1,-0.0027807066300633634,-0.002557634346799215,-0.02078229147168171,0.014601845779652668,0.9790320278557827
2011-06-15,-1,-0.0017938942882233608,-0.0017093032605981833,-0.02198580505041344,0.012559525530430181,0.9795145336183316
2011-06-17,-1,-0.0007368482080743891,-0.0006689384206566906,-0.02380715647704195,0.011707661231776405,0.9783593312678894
2011-06-21,1,0.0014778681453984587,0.0019735787356987802,-0.02380715647704195,0.011111269334074324,0.9771068808216699
2011-06-23,1,0.000887239110589801,0.0011839777355552995,-0.02336683944606566,0.0053773479970180725,0.9795202287341251
2011-06-27,0,-4.443076815874254e-05,8.84220445055241e-05,-0.02336683944606566,0.0053773479970180725,0.9809769664331146
2011-06-29,-1,-0.001621262412300257,-0.001567991970643397,-0.023786689241563058,0.0053773479970180725,0.9809870930618854
2011-07-01,0,-0.00011947790493284144,0.00010915998680321776,-0.023786689241563058,0.0053773479970180725,0.9793672000526177
2011-07-06,-1,-0.0007216124790288111,-0.0006014840001441626,-0.03158054272246168,0.011877432206125907,0.9773254847661061
2011-07-08,0,0.0,0.0,-0.03847915956134527,0.0053773479970180725,0.9752221094092787
2011-07-12,1,0.00017444390046738602,0.000423120819789146,-0.03262650793192483,0.011877432206125907,0.973436576065986
2011-07-14,-1,-0.0019180433351355993,-0.0018557721346127677,-0.043071777076549495,0.017202160793600745,0.9705663546342882
2011-07-18,0,0.0,0.0,-0.034081229818739615,0.021470673959350338,0.9703297736269444
2011-07-20,0,0.0,0.0,-0.034081229818739615,0.023786201932715217,0.9691362811202102
2011-07-22,0,0.0,0.0,-0.04813075601860393,0.023786201932715217,0.9661088775105402
2011-07-26,0,0.0,0.0,-0.04813075601860393,0.022226601369493386,0.9681225466667122
2011-07-28,-1,-0.00733739895504208,-0.006589490702447354,-0.04813075601860393,0.022226601369493386,0.967703952322249
2011-08-01,-1,-0.005993662698388127,-0.005516025271642488,-0.04813075601860393,0.04269809077384294,0.9647906676953664
2011-08-03,-1,-0.0060009137034178674,-0.005582513346720006,-0.03082171150888921,0.04269809077384294,0.966546663288324
2011-08-05,-1,-0.009017235210915424,-0.008177432422549164,-0.021251038732064832,0.04269809077384294,0.9682092981734091
2011-08-09,-1,-0.008015431629703501,-0.0072124605632216095,-0.019496813874607374,0.04269809077384294,0.9708563146843144
2011-08-11,-1,-0.006248916806614954,-0.005720385108113278,-0.019496813874607374,0.024322538526248664,0.974479211838686
2011-08-15,-1,-0.004640542341356788,-0.004268104444918863,-0.019496813874607374,0.03150632812379449,0.9716924214190376
2011-08-17,-1,-0.0023174588732650355,-0.002149126138527014,-0.019496813874607374,0.03150632812379449,0.9721001995489604
2011-08-19,-1,-0.003005518833828744,-0.002782386490029394,-0.01540215667271432,0.03150632812379449,0.9748657135813787
2011-08-23,-1,-0.00437641585242615,-0.003968878206575019,-0.018152205928666003,0.03150632812379449,0.9731227342753935
2011-08-25,-1,-0.006754461782075768,-0.00613198949432776,-0.018152205928666003,0.04376624557441003,0.9697481031418925
2011-08-29,-1,-0.005013249741263104,-0.004495541996788857,-0.019262174759254725,0.018897713352020565,0.9730030854451633
2011-08-31,-1,-0.005284790285209309,-0.004670638935022958,-0.01938999520084823,0.018897713352020565,0.973504531762515
2011-09-02,-1,-0.0035689269621532738,-0.0033597691642658183,-0.02015128137396678,0.018897713352020565,0.9674048761834972
2011-09-07,-1,-0.003651882247971391,-0.003284682763707119,-0.02015128137396678,0.02136707694949643,0.9648981143096538
2011-09-09,0,0.0,0.0,-0.01938999520084823,0.03266798982150946,0.9639104962022722
2011-09-13,0,0.0,0.0,-0.01938999520084823,0.02291963804555632,0.9666397876504296
2011-09-15,0,0.0,0.0,-0.01938999520084823,0.0269036471321522,0.9667308259691921
2011-09-19,-1,-0.0006444417275897524,-0.0004093859843175851,-0.019755696249737054,0.0269036471321522,0.9661093923067298
2011-09-21,1,0.0015857092700331382,0.002067586428583965,-0.019755696249737054,0.031171985387483996,0.9660015939262582
2011-09-23,1,0.0008574118830527847,0.0012627406996091706,-0.01938999520084823,0.0269036471321522,0.9706843103871275
2011-09-27,1,0.002802925319901614,0.003547970721546885,-0.019755696249737054,0.02850492163364111,0.9689175489466552
2011-09-29,1,0.003029988706826918,0.003996697381098894,-0.014463822960693805,0.02850492163364111,0.9696611822692828
2011-10-03,0,0.0,0.0,-0.006616492881972368,0.02850492163364111,0.9749276641861812
2011-10-05,0,0.0,0.0,-0.013266237934483055,0.02611232542309814,0.9789140975485433
2011-10-07,0,0.0,0.0,-0.013266237934483055,0.024041683807966445,0.9807186027757293
2011-10-11,0,0.0,0.0,-0.0136894296544769,0.01654592954692779,0.982351558788676
2011-10-13,1,1.043285626102406,1.0525891114856059,-0.02045261952860227,0.006881918140373296,0.4868128825433086
2011-10-17,0,0.0,0.0,-0.016859864449970022,0.013931943725075169,0.9804220995765328
2011-10-19,0,0.0,0.0,-0.016859864449970022,0.010468477539448871,0.9804735666867
2011-10-21,0,0.0,0.0,-0.022822953528519593,0.009756588814250261,0.979396155232794
2011-10-25,0,0.0,0.0,-0.02086046826987611,0.009436529171532248,0.9817668187055327
2011-10-27,0,0.0,0.0,-0.02205868215531963,0.006033246715404326,0.9818432509833833
2011-10-31,0,0.0,0.0,-0.02205868215531963,0.010028821264218304,0.9781402134712719
2011-11-02,0,0.0,0.0,-0.020779851998908937,0.020633816544208625,0.9753552734763463
2011-11-04,0,0.0,0.0,-0.020779851998908937,0.028092293169683577,0.9741862076113305
2011-11-08,0,0.0,0.0,-0.020779851998908937,0.028092293169683577,0.9737660455399747
2011-11-10,0,0.0,0.0,-0.017290181113591017,0.039596224449805456,0.9732153432702034
2011-11-14,0,0.0,0.0,-0.020779851998908937,0.027615834353840678,0.9730800906338782
2011-11-16,0,0.0,0.0,-0.017290181113591017,0.039596224449805456,0.9724144799231129
2011-11-18,0,0.0,0.0,-0.017290181113591017,0.04165403029948307,0.9697724899467262
2011-11-22,0,0.0,0.0,-0.0168300589955026,0.04165403029948307,0.9696525119668891
2011-11-25,0,0.0,0.0,-0.013805336568808259,0.04165403029948307,0.9699065568805515
2011-11-29,0,0.0,0.0023953290108836844,-0.016696858583832533,0.027615834353840678,0.9743955991191643
2011-12-01,1,0.003429591726503282,0.004044347971965946,-0.016696858583832533,0.015582036005531784,0.9764438428311432
2011-12-05,1,0.003599567788511196,0.004221018897080677,-0.016696858583832533,0.011494577621990637,0.9772800575542216
2011-12-07,0,0.0,0.0,-0.014242102791328688,0.015582036005531784,0.9778306217608466
2011-12-09,0,0.0,0.0,-0.008748031921556107,0.003525260938061376,0.9815496599610045
2011-12-13,0,0.0,0.0,-0.006469123469164634,0.02256812772878499,0.9810051466029569
2011-12-15,0,0.0,0.0,-0.008748031921556107,0.003525260938061376,0.9838135991475759
2011-12-19,0,0.0,0.0,-0.006469123469164634,0.016016806411561817,0.9856983479786623
2011-12-21,0,0.0,0.0,-0.006469123469164634,0.011871885684213223,0.9862482962941526
2011-12-23,0,0.0,0.0,-0.005150889218235231,0.0238724389468751,0.9835832596264812
2011-12-28,0,0.0,0.0,-0.003703738857839475,0.0238724389468751,0.9827435438153173
2011-12-30,0,0.0,0.0,-0.0040004045413267394,0.03179151403795937,0.9801761512903999
2012-01-04,0,0.0,0.0,-0.001469415367198587,0.03402488503352396,0.9781812836906877
2012-01-06,-1,-0.00251057108423274,-0.002336175625924718,-0.0028929736388633373,0.030941929617489632,0.9772142402073695
2012-01-10,0,0.0,0.0,-0.0019285272346570067,0.030941929617489632,0.9780890194505134
2012-01-12,0,0.0,0.0,-0.004879146443718359,0.021665231958616527,0.9799483430182888
2012-01-17,0,0.0,0.0,-0.004552938126245774,0.022291832661064905,0.9786586817030304
2012-01-19,0,0.0,0.0,-0.010729204987327656,0.021221325277742294,0.9809839066421023
2012-01-23,0,0.0,0.0,-0.012249631403482368,0.021221325277742294,0.9781128308913738
2012-01-25,0,0.0,0.0,-0.019232347655990762,0.019032606142022783,0.9798097104697405
2012-01-27,1,0.00396133450077305,0.0043895716100215325,-0.019232347655990762,0.014735359294438675,0.9799938530355977
2012-01-31,0,0.0,0.0,-0.01709241085063335,0.014735359294438675,0.9815229348058129
2012-02-02,0,0.0,0.0,-0.01770546836873438,0.012243081683918638,0.9825215007643496
2012-02-06,1,0.006399952507853499,0.007101012835240049,-0.01770546836873438,0.00988247073642832,0.980546488498432
2012-02-08,1,0.0063297834522973795,0.007120175708389754,-0.01770546836873438,0.010961536088898917,0.9808070657133643
2012-02-10,0,0.0,0.0,-0.01770546836873438,0.009593334080943037,0.9824154559280038
2012-02-14,0,0.0,0.0,-0.016716205379176976,0.009593334080943037,0.9837964460715916
2012-02-16,0,0.0,0.0,-0.01779951674004023,0.011268740399669963,0.9809106072070939
2012-02-21,0,0.0,0.0,-0.016716205379176976,0.013164694616231779,0.9831616499864996
2012-02-23,1,0.002002105040935342,0.0020271733778146742,-0.016716205379176976,0.013524402840730696,0.982721173479999
2012-02-27,-1,-0.002219680068555262,-0.0013892302222435916,-0.012252092280548268,0.015623036784792543,0.982655298861325
2012-02-29,0,0.0,0.0,-0.012252092280548268,0.0149561034877629,0.9828561976182174
2012-03-02,0,0.0,0.0,-0.011643699671325131,0.01463530953438442,0.9832871813581653
2012-03-06,0,0.0,0.0,-0.007953667473201885,0.020034881539250465,0.9833960531322212
2012-03-08,0,0.0,0.0,-0.010512038697321358,0.020034881539250465,0.9827070549407446
2012-03-12,0,0.0,0.0,-0.008409953197907999,0.020034881539250465,0.9815210587195631
2012-03-14,0,0.0,0.0,-0.008409953197907999,0.022434368576480894,0.9800118523688855
2012-03-16,0,0.0,0.0,-0.008409953197907999,0.020034881539250465,0.9826399246458436
2012-03-20,0,0.0,0.0,-0.008409953197907999,0.01874439538128453,0.9829939852771983
2012-03-22,1,0.0015958161545521774,0.0017387281015494387,-0.0072423804450306925,0.01874439538128453,0.9840076400601562
2012-03-26,1,0.0014061975768138134,0.0014875598037238412,-0.008409953197907999,0.01626203233826956,0.9835023466525421
2012-03-28,1,0.0026697699323789265,0.0027369078493972186,-0.008409953197907999,0.012760458317912492,0.9843889764542756
2012-03-30,1,0.0017265721670802667,0.0017564930514340623,-0.00765382412037367,0.01626203233826956,0.9829247452945071
2012-04-03,1,0.0024719130424151314,0.002556269382544753,-0.008409953197907999,0.013580240868269707,0.9836101703452473
2012-04-05,1,0.0008495153594842774,0.0011037271600316829,-0.00765382412037367,0.012119251393398044,0.9843188242152445
2012-04-10,0,-0.0002471672107062067,4.435063795110543e-05,-0.0016173682254747449,0.01356791355540607,0.9859550384179002
2012-04-12,0,-0.00018568365855292993,0.00020967425554684928,-0.006760499886358215,0.012119251393398044,0.9866136033557278
2012-04-16,-1,-0.0012531327678504327,-0.0006677717720748688,-0.0016173682254747449,0.01356791355540607,0.985633357203602
2012-04-18,-1,-0.0009573898633540754,-0.000369159762169559,-0.006760499886358215,0.01356791355540607,0.9851280948490336
2012-04-20,-1,-0.001196602915204683,-0.0005157726494255457,-0.017904009078227485,0.011484063291443448,0.9814310312065448
2012-04-24,-1,-0.0005325609275423579,-6.352754089083436e-05,-0.009797590653982547,0.01356791355540607,0.9812527418012942
2012-04-26,1,0.0008976776796906244,0.0010312540887103443,-0.00690794109281067,0.019155394785811096,0.9785484111222733
2012-04-30,1,0.002792437137118885,0.00290042001448341,-0.00690794109281067,0.019155394785811096,0.9793955458719997
2012-05-02,1,0.00208674325626566,0.0020924015831306347,-0.0038948621263983183,0.022218544392871756,0.9786745283829764
2012-05-04,1,0.0021214738731683345,0.0021520800268791745,-0.02287954556016279,0.022218544392871756,0.9717873939237714
2012-05-08,1,0.0009524779440645062,0.001253992782545877,-0.02287954556016279,0.030046709192448656,0.9706645927596732
2012-05-10,1,0.0018453167563276605,0.0019160203370709463,-0.02354452005853057,0.030046709192448656,0.9703925015522197
2012-05-14,1,0.0028325858259630817,0.002851345774403445,-0.02354452005853057,0.022218544392871756,0.9701587262526447
2012-05-16,1,0.002232632825866802,0.0023095808244417556,-0.021657551035093172,0.026122115502753156,0.9704955533093
2012-05-18,-1,-0.003219163630276227,-0.002465194003260849,-0.014132473606384189,0.031356041433314066,0.9727915368134659
2012-05-22,-1,-0.0025554833042512187,-0.001816543100661502,-0.014132473606384189,0.02807011142060051,0.9723680888699777
2012-05-24,0,-0.0002102783680432564,0.00027719894556824435,-0.017234642372121793,0.026629821764142816,0.975247046252146
2012-05-29,1,0.0009993076826333277,0.001382930850242585,-0.018694138100431402,0.026629821764142816,0.9724954439279493
2012-05-31,0,0.0,0.0,-0.018694138100431402,0.02526042893116471,0.9731214944900525
2012-06-04,0,0.0,0.0,-0.017234642372121793,0.02526042893116471,0.978569318426123
2012-06-06,-1,-0.0023794479133079794,-0.0019854224301997887,-0.018340635763361306,0.017886896127086924,0.9786564665166991
2012-06-08,-1,-0.0028465645357544306,-0.0024623414508104357,-0.017234642372121793,0.02526042893116471,0.9785481662506051
2012-06-12,-1,-0.002975331790546698,-0.002541358793523952,-0.017042992077537046,0.026629821764142816,0.9774026024396263
2012-06-14,0,0.0,0.0,-0.017606827475212243,0.026629821764142816,0.9776067880636874
2012-06-18,0,0.0,0.0,-0.017042992077537046,0.018228971100298776,0.9787973396414528
2012-06-20,0,0.0,0.0,-0.019733618409783712,0.009563388866928693,0.9777722321224261
2012-06-22,0,0.0,0.0,-0.02390438438452179,0.009563388866928693,0.9770334850013466
2012-06-26,0,0.0,0.0,-0.02390438438452179,0.009563388866928693,0.9797554302803293
2012-06-28,0,0.0,0.0,-0.02390438438452179,0.008349517024188435,0.9800922502575687
2012-07-02,0,0.0,0.0,-0.02390438438452179,0.008349517024188435,0.9805740804925616
2012-07-05,0,0.0,0.0,-0.02345496460469245,0.008349517024188435,0.9805965791070873
2012-07-09,0,0.0,0.0,-0.02345496460469245,0.0070365501242207855,0.9819386964649249
2012-07-11,0,0.0,0.0,-0.02345496460469245,0.0067613994991632545,0.9838265218381768
2012-07-13,0,0.0,0.0,-0.02345496460469245,0.006753140482617779,0.9839227677380005
2012-07-17,0,0.0,0.0,-0.02345496460469245,0.006753140482617779,0.984170920460741
2012-07-19,0,0.0,0.0,-0.019421958159811608,0.006753140482617779,0.9865140625956592
2012-07-23,0,0.0,0.0,-0.009156028267800192,0.0092271113791895,0.9858794623214744
2012-07-25,1,0.04927578441828695,0.05494017659392848,-0.009156028267800192,0.0092271113791895,0.9509025118559984
2012-07-27,-1,-0.00404423805780297,-0.0034120696876703167,-0.017846847052406092,0.0092271113791895,0.9841982147473725
2012-07-31,-1,-0.0022543055416317397,-0.0018825750722067942,-0.020112732576883074,0.007785950066114124,0.9837778322636157
2012-08-02,-1,-0.0034488320262967935,-0.0029112843515453745,-0.012393039381249846,0.007785950066114124,0.9851653354308387
2012-08-06,-1,-0.0029148874606382035,-0.0024243739698848405,-0.012437804461235423,0.008401659504016909,0.985058787754937
2012-08-08,0,0.0,0.0,-0.012437804461235423,0.014290637713694949,0.9813111748305209
2012-08-10,0,0.0,0.0,-0.010359767045169133,0.014290637713694949,0.9820681621066998
2012-08-14,-1,-0.003762362189154643,-0.003199132139418854,-0.010468654431010742,0.014698610937626462,0.9820732657936361
2012-08-16,-1,-0.008050479225758904,-0.006923851743137886,-0.010468654431010742,0.014698610937626462,0.9821936389351165
2012-08-20,-1,-0.0053591748441764,-0.004576153320682192,-0.012630171378803519,0.011005887426098083,0.984081692871646
2012-08-22,0,0.0,0.0,-0.012757653713404944,0.011005887426098083,0.9811974121166203
2012-08-24,0,0.0,0.0,-0.010468654431010742,0.011005887426098083,0.9825899433828371
2012-08-28,-1,-0.006719151429866795,-0.005875890062083731,-0.010468654431010742,0.012652128397340118,0.9841857505013307
2012-08-30,-1,-0.00849028936557328,-0.007341063357101838,-0.010468654431010742,0.012652128397340118,0.9834393720182691
2012-09-04,-1,-0.007060214978864382,-0.006177722098860066,-0.009222626406103935,0.02569994588643732,0.9808655624913657
2012-09-06,-1,-0.004110496878779344,-0.003567625037213126,-0.009222626406103935,0.01756747838767985,0.9830617721504704
2012-09-10,-1,-0.0028021390067293657,-0.002464780696941565,-0.011007804765498865,0.01756747838767985,0.9828997059950179
2012-09-12,-1,-0.001552238552137416,-0.001408393240024076,-0.012683967002140667,0.014235233052699114,0.9831657983220827
2012-09-14,-1,-0.003291653642803381,-0.0028935803518153535,-0.009871806375426576,0.018563835546152103,0.9825969998782734
2012-09-18,-1,-0.004712029974253818,-0.004140209169749872,-0.009827123942680479,0.018563835546152103,0.9828689874529831
2012-09-20,-1,-0.0022969318165092035,-0.002115001832864823,-0.00884396027607984,0.016645747232075445,0.984958270689296
2012-09-24,-1,-0.0022922461756125488,-0.0020974719140685457,-0.009827123942680479,0.016645747232075445,0.9840357797818177
2012-09-26,-1,-0.001762260979808545,-0.0016571783924658424,-0.009569118872873816,0.015505026095736858,0.9848253827877462
2012-09-28,-1,-0.0012461204994918223,-0.0012389943945195535,-0.011095410075854571,0.015505026095736858,0.983628973634982
2012-10-02,1,0.0011597296442750341,0.0014434697336376883,-0.011095410075854571,0.01018812804041042,0.9865041095931963
2012-10-04,1,0.0032179939328123883,0.0038581546572211962,-0.011095410075854571,0.007697178455532177,0.9877629885207035
2012-10-08,1,0.0030343817327043244,0.0036465624819751307,-0.010179499298051663,0.007697178455532177,0.9873592179503012
2012-10-10,-1,-0.0001886674279511189,-0.00013561463136028374,-0.009778706917392252,0.010236475259862354,0.9869687717323156
2012-10-12,1,0.0014074967888005742,0.0016449879909008445,-0.009778706917392252,0.009435206001653831,0.9878859170043365
2012-10-16,1,0.002704829590868575,0.0032808314164412475,-0.009778706917392252,0.008150428888128,0.9850604268108135
2012-10-18,1,0.004455534983122319,0.005361028255435774,-0.010179499298051663,0.008150428888128,0.9835722787790735
2012-10-22,1,0.00486137451452596,0.005884124334975514,-0.009778706917392252,0.008150428888128,0.984706628359781
2012-10-24,1,0.001613182151064906,0.0018748879266502127,-0.008982961570514038,0.0111826346994378,0.98503908394223
2012-10-26,1,0.0010488616936412793,0.0013304049788820963,-0.007676152116603245,0.012662394463694115,0.9862799112230769
2012-11-01,1,0.0008915952775431303,0.0011051315972014908,-0.007676152116603245,0.012662394463694115,0.9861456844831682
2012-11-05,1,0.0005391450276050244,0.000636127771839004,-0.008982961570514038,0.012662394463694115,0.9839985562511309
2012-11-07,1,0.0018935832073366284,0.002254473691651198,-0.007676152116603245,0.012662394463694115,0.9844494297797125
2012-11-09,1,0.0030722675584228254,0.003625320340831388,-0.005561918258060557,0.011662273636433072,0.98643715711177
2012-11-13,1,0.004106589428804035,0.004906278953244424,-0.004292563348554542,0.012662394463694115,0.9851487085109677
2012-11-15,1,0.0015704000805665372,0.002007951515527664,-0.0025578448685862044,0.014791925504072621,0.9852990247174576
2012-11-19,1,0.002042669881156179,0.0025617336667909133,0.000154538836283294,0.014791925504072621,0.9862368144592913
2012-11-21,1,0.002776560518632709,0.0034023096888150276,0.000154538836283294,0.02025225236116132,0.9856619496524307
2012-11-26,0,0.0,0.0,-0.0027853715064952217,0.02025225236116132,0.9843313260085763
2012-11-28,0,0.0,0.0,-0.006325152941150136,0.015080631362632487,0.9844509099129856
2012-11-30,0,0.0,0.0,-0.006325152941150136,0.026192867497506267,0.9830839513225575
2012-12-04,0,0.0,0.0,-0.006087615106117971,0.029045770951201276,0.9826245095860157
2012-12-06,0,0.0,0.0,-0.006087615106117971,0.029045770951201276,0.9826927997529097
2012-12-10,0,0.0,0.0,-0.006087615106117971,0.029045770951201276,0.9827490118581719
2012-12-12,1,0.005072559197268236,0.005814156642782272,-0.006087615106117971,0.0271901785198911,0.9855241560497477
2012-12-14,1,0.006023505956518878,0.006812649481592813,-0.002089906287788628,0.026192867497506267,0.9880435583097708
2012-12-18,1,0.006175500215656887,0.006935567689522172,-0.006153959613486831,0.022462219026520992,0.9879485199386134
2012-12-20,1,0.0070428964511232515,0.007895943026100352,-0.006524186463256714,0.023111990662343197,0.9867991953407537
2012-12-24,1,0.006845976222272026,0.007713843597037011,-0.006153959613486831,0.023111990662343197,0.9868638530612777
2012-12-27,0,0.0,0.0,-0.002089906287788628,0.023111990662343197,0.9845690416874333
2012-12-31,0,0.0,0.0,-0.002193762472531677,0.018240887200810907,0.9849509689039437
2013-01-03,0,0.0,0.0,-0.005396114588813937,0.014225907389629207,0.9873966249497329
2013-01-07,0,0.0,0.0,-0.005396114588813937,0.012306157498239543,0.9885983493031787
2013-01-09,0,0.0,0.0,-0.005396114588813937,0.015176842390867726,0.9859212798575082
2013-01-11,1,0.010662062047695287,0.011836021703636708,-0.008826012869142981,0.014909955041112997,0.9863593560686066
2013-01-15,0,0.0,0.0,-0.013677322111494096,0.0177493206119409,0.9852387837824301
2013-01-17,0,0.0,0.0,-0.015968281533282586,0.015367641781677606,0.9840975535235247
2013-01-22,0,0.0,0.0,-0.01617092137386885,0.012458719745094412,0.9841629571477455
2013-01-24,0,0.0,0.0,-0.01617092137386885,0.014195624505218944,0.9838955686360507
2013-01-28,0,0.0,0.0,-0.013738136671352692,0.014195624505218944,0.984150466083748
2013-01-30,0,0.0,0.0,-0.011018932554038742,0.015887977048299407,0.984331058664271
2013-02-01,0,0.0,0.0,-0.011018932554038742,0.021381989231949453,0.9801873425134824
2013-02-05,0,0.0,0.0,-0.012218333065473081,0.021381989231949453,0.9793496251400862
2013-02-07,0,0.0,0.0,-0.012218333065473081,0.01939184404092149,0.9807738930212666
2013-02-11,0,0.0,0.0,-0.012065545127476113,0.01939184404092149,0.9811588157981497
2013-02-13,0,0.0,0.0,-0.010780396745579504,0.019873896410649742,0.9814846876602871
2013-02-15,0,0.0,0.0,-0.010780396745579504,0.019873896410649742,0.9823142684976219
2013-02-20,0,0.0,0.0,-0.005807293208556343,0.02078571062047275,0.982087975386621
2013-02-22,0,0.0,0.0,-0.007929648921641193,0.02078571062047275,0.9826492158026024
2013-02-26,0,0.0,0.0,-0.0087847830555223,0.02078571062047275,0.9821446129149893
2013-02-28,0,0.0,0.0,-0.0087847830555223,0.017802870172121576,0.9830801899015457
2013-03-04,0,0.0,0.0,-0.012610567628374458,0.015184910892183929,0.982992457927984
2013-03-06,1,0.007569495083380762,0.008235737684039188,-0.014042439507923977,0.015184910892183929,0.9813944234999951
2013-03-08,1,0.007401685668981117,0.007982637158314454,-0.016110798518439287,0.015184910892183929,0.9793960656290936
2013-03-12,0,0.0,0.0,-0.016110798518439287,0.01666499794083746,0.9798557452431129
2013-03-14,1,0.005622745709686425,0.006057794234464631,-0.016110798518439287,0.01666499794083746,0.9792402993902988
2013-03-18,1,0.005442558467621208,0.005889876066430851,-0.01779546893121924,0.017364276701966372,0.9760711391766352
2013-03-20,1,0.007165355332006347,0.00771898709397676,-0.024054994322702482,0.013465787336074246,0.9744659859927416
2013-03-22,1,0.005837113855736155,0.006174635537346667,-0.024054994322702482,0.013465787336074246,0.9757928959073633
2013-03-26,1,0.004567831412163545,0.004612481085148468,-0.02216974935329833,0.014705101928841452,0.9724427652181423
2013-03-28,1,0.003983962668948253,0.0040206695188981,-0.02216974935329833,0.02235545577257521,0.9710749211884069
2013-04-02,0,-8.002147287295563e-05,0.0004362875990377964,-0.016570135378760766,0.02235545577257521,0.9757128295608161
2013-04-04,-1,-0.0006493944863127602,-8.140376087101774e-05,-0.01558983360904751,0.030784377446147992,0.9749008193591069
2013-04-08,0,-5.338913185797163e-05,0.00041791848496302957,-0.011934687125531562,0.02775569277873377,0.9762708694895185
2013-04-10,0,0.0,0.0,-0.011934687125531562,0.028134678098816333,0.9763018255278251
2013-04-12,0,0.0,0.0,-0.01558983360904751,0.028134678098816333,0.9738504123386954
2013-04-16,0,-0.000599324382154758,8.373846797390472e-05,-0.013666325064821993,0.02493838522474469,0.9773586867832417
2013-04-18,-1,-0.0025744657872508784,-0.0016728415610120896,-0.01150607757244134,0.028134678098816333,0.9764108012742441
2013-04-22,-1,-0.0029379190320021334,-0.0019900971724770454,-0.01150607757244134,0.028134678098816333,0.9765957079092169
2013-04-24,0,-9.746652633872265e-05,0.0005021790769804621,-0.01132847660761969,0.02493838522474469,0.9817160471694376
2013-04-26,1,0.0001404942039533294,0.0007414439133847485,-0.010413393296895885,0.023920930447053575,0.981886428472649
2013-04-30,0,-0.0003816116237531082,0.0003513642190983656,-0.012704912617266816,0.023920930447053575,0.9806088325684947
2013-05-02,1,0.00046084981265719126,0.001062476409677933,-0.01145199385747771,0.02104142540241316,0.9830287551112007
2013-05-06,1,0.001082752142916472,0.001605854026320124,-0.011460565853049826,0.01781950876407816,0.9831329949175683
2013-05-08,1,0.0029210843171373732,0.003144380855791708,-0.012704912617266816,0.016054076725515915,0.9822159865023667
2013-05-10,1,0.0022964421848303447,0.002526253712255418,-0.011460565853049826,0.016054076725515915,0.9833207745334579
2013-05-14,1,0.00256928640937621,0.0027238220756651264,-0.011460565853049826,0.012499523656643774,0.98323478555683
2013-05-16,1,0.003505837439629691,0.003508345736839292,-0.01109641192434593,0.012499523656643774,0.9838044133482139
2013-05-20,1,0.002127176349635447,0.0023397932996718097,-0.01109641192434593,0.012499523656643774,0.9847132655874762
2013-05-22,1,0.0007611677814672686,0.0011827450638075936,-0.012018758886588729,0.012499523656643774,0.9841333647881992
2013-05-24,1,0.0025247029713550907,0.0026965838710177794,-0.01481539026965397,0.007604580542955261,0.9823861899010704
2013-05-29,1,0.0015661891028449248,0.0017592598665832127,-0.012018758886588729,0.012150408152696007,0.9823917446217308
2013-05-31,1,0.0014202442393198048,0.0015868785419721415,-0.012018758886588729,0.014546102061319772,0.9820616133093355
2013-06-04,1,0.0015146548279228408,0.0016631844277866996,-0.01481539026965397,0.014546102061319772,0.9807428042109085
2013-06-06,1,0.00045413258717483967,0.0006969398759348843,-0.01481539026965397,0.019418824339716513,0.9794875295993878
2013-06-10,1,0.0026121001367356298,0.0026559771791103805,-0.01481539026965397,0.015348007568658934,0.98149552578438
2013-06-12,1,0.0013835414113537283,0.001478627113886848,-0.01481539026965397,0.015348007568658934,0.981130632692311
2013-06-14,1,0.0028952279221396136,0.0030114155283928715,-0.01481539026965397,0.015348007568658934,0.9817496392640939
2013-06-18,1,0.0026157262966458724,0.002664618305401839,-0.01481539026965397,0.017523304000036297,0.980232890221647
2013-06-20,1,0.0012166564347764791,0.0013481164995819118,-0.009070078549823205,0.0251116456144779,0.9796214968240571
2013-06-24,-1,-0.0012057267250059165,-0.0007750093850891035,-0.001126497361126794,0.0251116456144779,0.9812757667191268
2013-06-26,1,0.0005714330395179899,0.0008100970858221804,-0.001126497361126794,0.0251116456144779,0.9824963119703976
2013-06-28,1,0.0009112234008959537,0.0011067372198246797,-0.009070078549823205,0.0251116456144779,0.9811106921134358
2013-07-02,1,0.002382174633967834,0.002472863637003579,-0.0065021486613697065,0.02036470526197072,0.9836984834882931
2013-07-05,1,0.00193803018855533,0.0019399804507328052,-0.004925689186066911,0.02036470526197072,0.9845013189273295
2013-07-09,1,0.0023180451189288506,0.002370113988704072,-0.008520526376403612,0.02036470526197072,0.9829086009676394
2013-07-11,1,0.0008036822164889537,0.0009809252662068624,-0.0065021486613697065,0.02036470526197072,0.9845386641553175
2013-07-15,1,0.0005180164441444284,0.0008167004653813215,-0.008520526376403612,0.020377024602669373,0.9837418975888927
2013-07-17,1,0.0011756944765625625,0.0014029440208159633,-0.015665880747423998,0.017724398527421463,0.9809153021209044
2013-07-19,1,0.0013438797223798843,0.0015560296362128764,-0.014017224227165215,0.017724398527421463,0.981246559015483
2013-07-23,1,0.0016668037214001975,0.001806420829203349,-0.023971852662770743,0.017724398527421463,0.9796024920025944
2013-07-25,1,0.004554373045272601,0.004958289328907043,-0.023971852662770743,0.019348883593106832,0.9789688940247449
2013-07-29,1,0.0034816761058552616,0.003712751037927296,-0.014017224227165215,0.016340912438235423,0.9807523733388699
2013-07-31,1,0.0038467625045218302,0.004185299554758699,-0.023971852662770743,0.016340912438235423,0.978203107108633
2013-08-02,1,0.0041973164601782735,0.004547441114997308,-0.023971852662770743,0.016340912438235423,0.9791043329917702
2013-08-06,1,0.002813651062419039,0.0029982271942016487,-0.010631495312628175,0.020172831601519364,0.9804884289898103
2013-08-08,1,0.0029036824885959015,0.0031014718830820478,-0.01915006751947845,0.020172831601519364,0.9794156974295205
2013-08-12,1,0.003483052769982671,0.0038290875887219194,-0.00925923571174523,0.024200931218036344,0.9756527541153582
2013-08-14,0,-1.1363255650343146e-05,0.00013768058453922854,-0.007134703001434303,0.024200931218036344,0.9784687894171379
2013-08-16,1,0.00109818340078905,0.0011289556340179769,-0.007134703001434303,0.024432038489618033,0.9785814631339698
2013-08-20,-1,-0.00024524987239581337,-4.5562932798384075e-05,-0.0038205655591510386,0.024432038489618033,0.9797725872699158
2013-08-22,-1,-0.00038788558312048585,-1.396688270058474e-05,-0.006402417921316494,0.016071194286660307,0.9818933244331549
2013-08-26,-1,-0.0007837018916977989,-0.00037084503589362777,-0.0038148009853248236,0.020073331091787185,0.9814627359443212
2013-08-28,-1,-0.002568260107743356,-0.0019435272019208384,-0.0010601655980630226,0.020073331091787185,0.9829634180006378
2013-08-30,-1,-0.001537601819127059,-0.0010569202040881297,-0.0038148009853248236,0.014865810871359459,0.9841032758713365
2013-09-04,-1,-0.0007430379690676464,-0.00035850462829942415,-0.0038148009853248236,0.014865810871359459,0.9844158009058004
2013-09-06,-1,-0.0014506648979701053,-0.0010117383569207509,0.0005292102087764076,0.020721530149844708,0.9830355714076521
2013-09-10,1,0.0017432600142466108,0.0019064945322444956,-0.007117409279955658,0.01235204179763975,0.9886211799422672
2013-09-12,1,0.0005109429137059615,0.0008256998012752801,0.0005118748812496866,0.01235204179763975,0.9890912664828094
2013-09-16,1,0.0029266507882255485,0.003045707406710784,-0.0049651550542637365,0.008980312906679342,0.9900749164124085
2013-09-18,1,0.00328641286380737,0.0034917824404935875,-0.0049651550542637365,0.01103094435229755,0.9894208914625805
2013-09-20,1,0.0029786937629288695,0.003158139454761121,-0.003921670102346092,0.012756987847932152,0.989205123497549
2013-09-24,1,0.003826717306007817,0.004148171318320215,-0.006337293077151044,0.012756987847932152,0.9878592693103313
2013-09-26,1,0.003931121687454865,0.004299474054653919,-0.006337293077151044,0.015526855388993916,0.9869996283304895
2013-09-30,1,0.0038230974206104372,0.004227961113925856,-0.00498134785331586,0.015526855388993916,0.987536693031434
2013-10-02,1,0.003619383791136903,0.003946743807848095,-0.00498134785331586,0.012756987847932152,0.9884336745793361
2013-10-04,1,0.0046359026253360355,0.00509736201059214,-0.00498134785331586,0.011073859927183375,0.9892178974406174
2013-10-08,1,0.0032139944434037408,0.003494767370647521,-0.003743785242355129,0.012885734572589631,0.9900315501567967
2013-10-10,1,0.003271771821236168,0.003531361866383922,-0.00498134785331586,0.012885734572589631,0.9887800928656093
2013-10-14,1,0.002600848338272132,0.0027556746648411882,-0.003743785242355129,0.015526855388993916,0.9886079469482857
2013-10-16,1,0.003425346553686951,0.0037663587098584715,-0.004447693273342971,0.01675600067573442,0.9881458707995054
2013-10-18,1,0.0028507621472612685,0.0029990318770016034,-0.004447693273342971,0.01449018577750395,0.98851483303832
2013-10-22,1,0.003097306725454776,0.003279239262524764,-0.004447693273342971,0.009057892993702986,0.990015559758249
2013-10-24,1,0.0038515246331058024,0.004132641289860774,-0.005385588498925528,0.009002558402352211,0.9905147870324967
2013-10-28,1,0.0027072747187555615,0.0027615378375698127,-0.004089081258418554,0.014080361953324332,0.9893127430045693
2013-10-30,1,0.003646510008784971,0.00391064688391133,-0.004599197680134395,0.014080361953324332,0.9891661433445922
2013-11-01,1,0.00316139311959891,0.003285524335842092,-0.0056303408250086544,0.013914358179272007,0.9889374348640266
2013-11-05,1,0.004141966161552718,0.004474058219145602,-0.010135146363567363,0.010725195079629463,0.9875740204424764
2013-11-07,1,0.003284489780020121,0.003496788791263688,-0.0061706631036265915,0.011919890482724908,0.9885688283706222
2013-11-11,1,0.003482221354240104,0.0036567622679946703,-0.0061706631036265915,0.011919890482724908,0.9883465518925744
2013-11-13,1,0.0021987044045457395,0.002306923602782061,-0.0061706631036265915,0.011919890482724908,0.9871871169528498
2013-11-15,1,0.003403721710916462,0.003545804440521315,-0.01026878206917887,0.011919890482724908,0.9863934245480875
2013-11-19,1,0.0030216113075766052,0.003116752894667055,-0.013124026036348893,0.011919890482724908,0.9851622803584568
2013-11-21,1,0.003047078216629898,0.0031444631202052443,-0.013124026036348893,0.012652813320236465,0.9853398738589486
2013-11-25,1,0.004005086095837374,0.00422103743682168,-0.013124026036348893,0.010342751110638787,0.986498221026303
2013-11-27,1,0.0040584891711952864,0.0042953092519586135,-0.0157301325572454,0.009939789861027615,0.9853996257349901
2013-12-02,1,0.002933869927283183,0.0029527941792027073,-0.0157301325572454,0.010318231082230097,0.98587935875679
2013-12-04,1,0.0015685809263471188,0.001671834108649495,-0.0004077277800002512,0.010772558575752881,0.9854986181287435
2013-12-06,1,0.0025561235058490276,0.002611196073613504,-0.0068220776739672286,0.009919417322277534,0.985499961155274
2013-12-10,1,0.0029649992104855915,0.0030742926151439984,-0.0034209859872286227,0.0114120660721686,0.983353869519861
2013-12-12,1,0.0024392279578735188,0.002480923838981351,-0.0034209859872286227,0.011023457127682464,0.9846108812152062
2013-12-16,1,0.002384279184372933,0.00249959657572492,-0.003438640285037844,0.013588861824775943,0.9832110334163311
2013-12-18,1,0.001312063170320578,0.001374929300511489,-0.003438640285037844,0.013588861824775943,0.9840843921604071
2013-12-20,1,0.0013805803256499946,0.0014278239219558432,-0.003438640285037844,0.02589486724211616,0.9821686267935649
2013-12-24,1,0.00214122697232166,0.002234350110570363,-0.01598671935799418,0.02589486724211616,0.9800806646127375
2013-12-27,-1,-0.00037608418504335884,-7.899884430777185e-05,-0.01598671935799418,0.02589486724211616,0.9798036760362375
2013-12-31,1,0.0005176009297060135,0.0006988020296177489,-0.016290825993683516,0.02589486724211616,0.9781373631810218
2014-01-03,1,0.002420113096928099,0.002481865571124717,-0.016889196122172215,0.022466793628433936,0.9790945071205146
2014-01-07,-1,-0.0006735550573873127,-0.0002210692912077289,-0.016290825993683516,0.022466793628433936,0.9790325023302536
2014-01-09,1,0.002181495524359846,0.0022573254059172843,-0.016290825993683516,0.022466793628433936,0.9804025361962838
2014-01-13,1,0.0006108542047430894,0.0009340665432357765,-0.01598671935799418,0.022466793628433936,0.9808608396598759
2014-01-15,1,0.0018602192400425162,0.001958311226870785,-0.014463920308250002,0.019810179132654655,0.9825787648765197
2014-01-17,1,0.0010685368361723776,0.0012791421617341621,-0.013526572432787896,0.019810179132654655,0.9826919735000802
2014-01-22,1,0.0014587209587010748,0.0017375406323548392,-0.013526572432787896,0.012365668094684779,0.9827319015755465
2014-01-24,0,-0.0003387900673393,0.0001381394877334617,-0.011840011524988505,0.019726838905553164,0.9842787036030621
2014-01-28,0,-0.00020321055228515045,0.00023209450796690245,-0.00951567193929563,0.021808797691996045,0.9839914534253583
2014-01-30,-1,-0.0014667353692999654,-0.000829771417365927,-0.006481026525656479,0.019726838905553164,0.986069207951222
2014-02-03,-1,-0.0005661695681034912,-0.0002367016135363247,-0.006481026525656479,0.0223803866037052,0.9843851993211711
2014-02-05,0,-0.0003076532452472311,5.288339481883918e-05,-0.006481026525656479,0.0223803866037052,0.9842066840882802
2014-02-07,1,0.001811065332036251,0.0018521594799682795,-0.006481026525656479,0.01077226460510119,0.986205728714828
2014-02-11,1,0.0014965611848631686,0.0015851370200227852,-0.0075598435976263695,0.01077226460510119,0.9861639666338052
2014-02-13,1,0.001059521784450857,0.0012185080540576762,-0.008161135148328103,0.01674096793096239,0.9849766331728589
2014-02-18,1,0.0004745537099880737,0.0006622836469062814,-0.006029514262000636,0.01674096793096239,0.9855271991077158
2014-02-20,1,0.0018892708916562213,0.0019107075465227838,-0.006029514262000636,0.010112210056659536,0.9870843093251579
2014-02-24,1,0.0016653637860710158,0.0017414434073446115,-0.007826113158779771,0.010112210056659536,0.9861352036453439
2014-02-26,1,0.0024588335958204443,0.002499387997595274,-0.010491453875880803,0.00989832236125062,0.9850066652295006
2014-02-28,1,0.0027396316235484414,0.002886701471445552,-0.01243331000017497,0.00989832236125062,0.9845406604949568
2014-03-04,1,0.0029678376829324485,0.0030487767205341207,-0.010491453875880803,0.016567255162460878,0.985260795625611
2014-03-06,1,0.0034805959221686166,0.0036341481989985453,-0.010491453875880803,0.007774689216338228,0.9852622677084709
2014-03-10,1,0.00270918593514964,0.002718298169978115,-0.014633167965004959,0.007774689216338228,0.9838918863936007
2014-03-12,1,0.0020315451792654042,0.0020932364840706105,-0.014986401019206643,0.016567255162460878,0.9828243533384854
2014-03-14,1,0.0019590100982113112,0.002007183838487584,-0.015527919106380565,0.00826103099627837,0.9815975775585125
2014-03-18,1,0.0016637457161009324,0.0017345828500719748,-0.017663397854781434,0.008761225997913938,0.980543687145839
2014-03-20,1,0.0017902355849338722,0.0017930007279357495,-0.017663397854781434,0.021456206954492817,0.9786655762203238
2014-03-24,1,0.0010346947146518983,0.0011588182933329012,-0.015527919106380565,0.03025534256549905,0.9793771617662038
2014-03-26,1,0.001394462482782743,0.0014522842692524071,-0.015527919106380565,0.03025534256549905,0.9781954367274603
2014-03-28,1,0.0009159369032167575,0.0010170685871528629,-0.015611408668135585,0.03025534256549905,0.978040098009106
2014-04-01,1,0.0034076706010624782,0.0036540076257342066,-0.015611408668135585,0.010532568275016412,0.9795601407976399
2014-04-03,1,0.002030445877876416,0.0020338305097566886,-0.015611408668135585,0.012183364881884099,0.980070848398422
2014-04-07,1,0.001148658783098247,0.0012014135231224366,-0.010810077146705895,0.012724320516266555,0.9815394718306971
2014-04-09,1,0.0021278835095096824,0.002201462499610858,-0.010809943056535917,0.01009461103079989,0.982887801768235
2014-04-11,-1,-0.0001924815034340478,-8.092899330834971e-06,-0.0021909879489550354,0.017222521154291202,0.98408199725412
2014-04-15,-1,-0.0011067595999045858,-0.0007888099813865948,-0.0021909879489550354,0.017222521154291202,0.9846454850271739
2014-04-17,1,0.0008291525680976019,0.0009078445430930372,-0.007326900995731137,0.01009461103079989,0.9871850093960067
2014-04-22,1,0.002515976340614765,0.00271153850729932,-0.008240192201258193,0.009946135865525991,0.9876331523720466
2014-04-24,1,0.0035133840612925926,0.003842120053131171,-0.007326900995731137,0.009816737857501836,0.9903990675155413
2014-04-28,1,0.002429131138212078,0.0025818988812999003,-0.0023671311585326035,0.013540957938962579,0.9909260373386951
2014-04-30,1,0.002190150614860391,0.00221419928213915,-0.00419143964416192,0.013540957938962579,0.9907225444810529
2014-05-02,1,0.0026991673735725376,0.0028174924041883802,-0.0060677129959099615,0.013789633873647244,0.9898568302761213
2014-05-06,1,0.0028740081363877045,0.0030409636791089447,-0.0060677129959099615,0.014147386173002843,0.9888537181040228
2014-05-08,1,0.0025076656593802974,0.0025910703231278674,-0.0060677129959099615,0.01489677085963001,0.9884998217668003
2014-05-12,1,0.0028719929933293583,0.0029520889991203557,-0.007326900995731137,0.013789633873647244,0.9892380669734626
2014-05-14,1,0.001755818121048794,0.0018528181736737282,-0.008179529675524523,0.013789633873647244,0.9855014029700199
2014-05-16,1,0.0011497448106384184,0.0013067105043103283,-0.008941999582356976,0.01489677085963001,0.984957926117663
2014-05-20,1,0.0009454333860138742,0.001113866314765173,-0.006428640402850785,0.016949110325099246,0.9852770855371933
2014-05-22,1,0.0006794473116379698,0.0009505163187873172,-0.006428640402850785,0.016949110325099246,0.9859170587622937
2014-05-27,1,0.0013855926145219853,0.0015470493521113767,-0.01080424760770759,0.016949110325099246,0.9854141503545314
2014-05-29,1,0.002767418802255676,0.0028769517620867192,-0.01080424760770759,0.016949110325099246,0.9852352034040351
2014-06-02,1,0.0026029172930468,0.0026276059423564198,-0.012676262237552553,0.011174294620271136,0.985587633877478
2014-06-04,1,0.004378829398247347,0.004786359053369299,-0.013475608169251932,0.00912176779647219,0.9819144693151599
2014-06-06,1,0.0037285742441818107,0.004022808884303692,-0.013475608169251932,0.007291462322522697,0.9811763037097403
2014-06-10,1,0.003162369883874224,0.0034089878902613746,-0.013475608169251932,0.010628117807105486,0.9807743699716291
2014-06-12,1,0.0003576149747978593,0.00047140274749706506,-0.012508610867068722,0.013510727631967883,0.9846469112159789
2014-06-16,1,0.0019144697317282939,0.002070965742536385,-0.012508610867068722,0.013510727631967883,0.9849772472340356
2014-06-18,1,0.0013683286860262291,0.001395396476945396,-0.012676262237552553,0.010375011674177426,0.983964780993098
2014-06-20,1,0.0010504393430317747,0.0010972327266697062,-0.012676262237552553,0.013510727631967883,0.9835416059204741
2014-06-24,0,-5.8602482621795764e-05,0.0001485018499682993,-0.007522449534742143,0.014872623499287748,0.9824158284979605
2014-06-26,-1,-0.0007503165059106977,-0.0003604391125874725,-0.01322710297598298,0.014267351834632715,0.9821685241261745
2014-06-30,-1,-0.0007895285572963406,-0.0004512829466688709,-0.012688211474337645,0.014267351834632715,0.982112350181854
2014-07-02,-1,-0.0004944224708947637,-0.0002621845299440917,-0.010648284292071267,0.013509829566594769,0.9858645777961904
2014-07-07,-1,-0.0021687910569104323,-0.001719743387641109,-0.008497865733222955,0.013509829566594769,0.9877625043187869
2014-07-09,-1,-0.0018869097969327407,-0.001470311843544719,-0.008497865733222955,0.006499115687583353,0.9876160893217671
2014-07-11,-1,-0.0021964316622318744,-0.0017039681792321453,-0.010377373828730949,0.0067513237551382966,0.9871435131991128
2014-07-15,-1,-0.0004946338897988635,-0.0002754052891825535,-0.010377373828730949,0.006288993752395925,0.9873532693415057
2014-07-17,-1,-0.002196317115454664,-0.001784690101826525,-0.008497865733222955,0.0148699293031684,0.9864842692028398
2014-07-21,-1,-0.001020343278082164,-0.0007703946274413657,-0.008497865733222955,0.015122762661380842,0.9859882203754391
2014-07-23,1,0.000720664014403294,0.00077698578382225,-0.008497865733222955,0.013735772653153726,0.987465695559302
2014-07-25,1,5.2412790245797835e-05,0.00013122423096116064,-0.008497865733222955,0.01381906368832583,0.9874337862076766
2014-07-29,-1,-0.00027322264026427985,-0.00017707321321413073,-0.008497865733222955,0.01381906368832583,0.9873194285334205
2014-07-31,-1,-0.0005058864001368248,-0.00036169575182096777,-0.00703810186600113,0.01381906368832583,0.9873535536023605
2014-08-04,-1,-0.001184421216756284,-0.0009352689988770036,-0.006985166791931864,0.018472835554184174,0.9857895981586123
2014-08-06,-1,-0.001691585417238625,-0.0013949649067192117,-0.006985166791931864,0.018472835554184174,0.9841212616473982
2014-08-08,-1,-0.001687980153483492,-0.0013681129947815647,-0.005360262821071859,0.014600209904765432,0.9853936483240776
2014-08-12,-1,-0.0020851575499657446,-0.0017065332131293522,-0.005907237526563446,0.019307614686406575,0.9849849262907019
2014-08-14,-1,-0.0004683394384147377,-0.00027440002455369984,-0.005907237526563446,0.012212441716068851,0.9875263915214042
2014-08-18,1,1.0430281245910316e-05,0.0001450616114835476,-0.006985166791931864,0.009149241220978509,0.9879847248247777
2014-08-20,1,0.0004024040686923971,0.0005146330481870208,-0.00891488904398301,0.009149241220978509,0.9878494426384732
2014-08-22,1,0.0012293046497123795,0.0013321738439615533,-0.012928259093136314,0.006928000648623069,0.9871232390632918
2014-08-26,1,5.7831855113292074e-05,0.00014626188515542976,-0.00891488904398301,0.006928000648623069,0.9878271487434247
2014-08-28,-1,-0.00044421476549762597,-0.0002476791104000617,-0.012928259093136314,0.004505372901682134,0.9871611250371906
2014-09-02,1,0.0011553185957238034,0.001207040902488837,-0.01434812910395296,0.0035062358241934382,0.9876988141261669
2014-09-04,-1,-0.0013891794529552574,-0.0010466152263622292,-0.01434812910395296,0.0035062358241934382,0.9895134426940936
2014-09-08,-1,-0.0020004690666584994,-0.0015697888216121116,-0.01547139654165151,0.005165846129680536,0.9863914150415964
2014-09-10,-1,-0.0006142585490173418,-0.0004114404956832988,-0.018463819954216136,0.0035062358241934382,0.9855638681772584
2014-09-12,-1,-0.00015485084113838003,-6.104069364562542e-05,-0.022865634918047852,0.00024590309757368156,0.9829002603724454
2014-09-16,1,1.8953933946951805e-05,8.409708458548176e-05,-0.023379645624118577,0.00024590309757368156,0.9779235010900142
2014-09-18,-1,-0.0004303363560654393,-0.00029430626560278454,-0.023379645624118577,0.00024590309757368156,0.9774780761370594
2014-09-22,-1,-0.0013781120339125604,-0.001143791330955294,-0.023379645624118577,0.015423685287424892,0.975708220112362
2014-09-24,-1,-0.0013584132468538778,-0.0011402304541874408,-0.023379645624118577,0.029800875738353307,0.9738344140033345
2014-09-26,-1,-0.0020436785486344384,-0.0017524326050975968,-0.022865634918047852,0.0340735186458867,0.9723917161074447
2014-09-30,-1,-0.0022023701816654725,-0.0018941398898935878,-0.022865634918047852,0.0340735186458867,0.9725965214701965
2014-10-02,-1,-0.0022701777766383426,-0.0020023234759005497,-0.015465021357000341,0.0340735186458867,0.9740899695797752
2014-10-06,-1,-0.002019670956340955,-0.0017640821871683257,-0.012638410203304414,0.029800875738353307,0.9754598927546535
2014-10-08,-1,-0.0030365096623226314,-0.002645321366048511,-0.010754163016316686,0.0340735186458867,0.9743798281658168
2014-10-10,-1,-0.004685909559110645,-0.004101985945657872,-0.005302894791154288,0.0340735186458867,0.9749724858553205
2014-10-14,-1,-0.0035837791115921965,-0.003164627335921745,-0.0048257202504889685,0.029800875738353307,0.9794107502321174
2014-10-16,-1,-0.002398704916381632,-0.0021459642255608298,-0.0048257202504889685,0.028914773380753593,0.9805234368445842
2014-10-20,-1,-0.0002595171052760595,-0.00023011353328205398,-0.006723116381573621,0.018616470417345272,0.9844110793356208
2014-10-22,1,0.0006493564200513218,0.0008332177915135193,-0.007357316457411142,0.018616470417345272,0.9849617010977513
2014-10-24,1,0.002924815172342065,0.0034630223423414604,-0.008202353783393616,0.015733356085506373,0.9861670350484144
2014-10-28,1,0.0027571626819695963,0.0032659072150677862,-0.008202353783393616,0.015733356085506373,0.985626741412041
2014-10-30,1,0.0022679579881955698,0.002703597124798682,-0.007512568055112604,0.0180966011570005,0.984078515891713
2014-11-03,1,0.0019002041006197469,0.0021494842708716655,-0.010185670849250008,0.015733356085506373,0.9832198264277549
2014-11-05,1,0.002519567167130436,0.002876170983508997,-0.008202353783393616,0.015733356085506373,0.9841072744376185
2014-11-07,1,0.003224344603282692,0.0037032002782055908,-0.008202353783393616,0.015733356085506373,0.9847626171949485
2014-11-11,1,0.003532940076165446,0.004033405074428494,-0.01028326364747695,0.013742440696482623,0.9841506136222617
2014-11-13,1,0.0034315367990661047,0.003880220874335127,-0.011630053328082389,0.014457016154713443,0.9825489119803195
2014-11-17,1,0.003081100451110543,0.0035110230970572293,-0.0150345995794187,0.014457016154713443,0.9810176615764354
2014-11-19,1,0.003433226119199179,0.0038789054891447358,-0.0150345995794187,0.014177509816475581,0.9817149553546272
2014-11-21,1,0.0025322423679570993,0.002839024378721644,-0.005143022071839075,0.014177509816475581,0.9828967593626495
2014-11-25,1,0.002691273390798447,0.002959966622360718,-0.007791734582088937,0.01768799206401594,0.9824786568663784
2014-11-28,1,0.004454295686048216,0.004953831999094851,-0.007791734582088937,0.014134042604971647,0.9845133251097451
2014-12-02,1,0.0032684271486088457,0.0036146934613896426,-0.0012029696276276676,0.014134042604971647,0.9865107773436324
2014-12-04,1,0.004542014671824029,0.005091793474467965,-0.0032571887805757874,0.013007266651959231,0.9870512646259555
2014-12-08,1,0.004281475456795327,0.004713680870999085,-0.007791734582088937,0.010167706511905766,0.9860133789482567
2014-12-10,1,0.003619335356222661,0.003992260568924395,-0.007791734582088937,0.013007266651959231,0.9850638850214517
2014-12-12,1,0.004826898605069652,0.005451242072695933,-0.008597785513340308,0.012204572673770328,0.9865031514903418
2014-12-16,1,0.002866010257656453,0.003164422062923803,-0.008597785513340308,0.012204572673770328,0.9872497960435368
2014-12-18,1,0.00370267490255075,0.004082111797338347,-0.008597785513340308,0.012216337644684862,0.9843012101381245
2014-12-22,1,0.0036674443046878615,0.0040336064331288925,-0.008597785513340308,0.013339720166418809,0.9834131584086466
2014-12-24,1,0.0038041443048514346,0.00417278989292169,-0.010250240027952287,0.009904063509480976,0.9837136552342178
2014-12-29,1,0.003522236679360675,0.0037965416806691613,-0.01687794380279911,0.009904063509480976,0.9820969931816462
2014-12-31,1,0.003424916699890301,0.003691347844930371,-0.017954094958982855,0.013339720166418809,0.9781061260064077
2015-01-05,1,0.0029328232948247707,0.0031172102879121867,-0.017954094958982855,0.013339720166418809,0.9777597347083373
2015-01-07,1,0.002439948432390879,0.002638943945575626,-0.017469112677956526,0.018313994393999215,0.9777596125443022
2015-01-09,1,0.0026764277874584503,0.002951592588870907,-0.017469112677956526,0.013339720166418809,0.9782121979687787
2015-01-13,1,0.0028010125532947246,0.003129572595440666,-0.017047772028058232,0.0180452010050513,0.9782896899007453
2015-01-15,1,0.001901482501838733,0.002101157202696216,-0.015207543811906202,0.0180452010050513,0.9797035671058008
2015-01-20,1,0.0037977669369589815,0.004216531250696995,-0.015207543811906202,0.0072305316907129704,0.9825352179576728
2015-01-22,1,0.004214980701548262,0.004686604410358925,-0.015207543811906202,0.012135173515688064,0.9820243897667267
2015-01-26,1,0.004248194713837389,0.004763207502194449,-0.015207543811906202,0.015218779276002148,0.9818878987753563
2015-01-28,1,0.002603351393393405,0.0028215956978112472,-0.017047772028058232,0.015218779276002148,0.9815861585133907
2015-01-30,1,0.0016504391779617038,0.0017181991497201173,-0.017047772028058232,0.015218779276002148,0.9838281583979128
2015-02-03,1,0.0014765117774312641,0.0015432421927299067,-0.014686472033148759,0.015218779276002148,0.984265599077804
2015-02-05,1,0.0011684319511223455,0.0011914009738620288,-0.014529262788376955,0.012135173515688064,0.9845258569993235
2015-02-09,1,9.81664374662014e-06,0.00013627575474766128,-0.014529262788376955,0.015218779276002148,0.9844656686358307
2015-02-11,1,0.00010394767773139212,0.00022541575357424453,-0.014529262788376955,0.015218779276002148,0.9836717721467153
2015-02-13,-1,-0.001009392562795205,-0.0006900691235026758,-0.014529262788376955,0.015329214660995702,0.9832361115875933
2015-02-18,-1,-0.0007752908582132267,-0.00047208137322162674,-0.017126228164030692,0.015329214660995702,0.9827867551984084
2015-02-20,1,4.696359092123861e-05,0.0002974394974155347,-0.017126228164030692,0.015329214660995702,0.9834373900179848
2015-02-24,0,-0.00014089346487131723,0.000158877099679173,-0.017787084510351332,0.013990300369523711,0.9831352187098059
2015-02-26,-1,-0.002587541031210587,-0.001942465341237941,-0.017053111817447168,0.013990300369523711,0.9834054003048726
2015-03-02,-1,-0.002433810551928201,-0.0018352434021421966,-0.014529262788376955,0.01466699876161975,0.9839926971442283
2015-03-04,-1,-0.003725786730357117,-0.002909055557580508,-0.017053111817447168,0.01466699876161975,0.9829288417599508
2015-03-06,-1,-0.005832590705687597,-0.004692757859497897,-0.017787084510351332,0.01466699876161975,0.9828820295422812
2015-03-10,-1,-0.006411660994865965,-0.005211005312761408,-0.014305614583734003,0.01466699876161975,0.9826881928591321
2015-03-12,-1,-0.0042405388433181925,-0.0033383525466178193,-0.014305614583734003,0.011587838560615557,0.9849089446776372
2015-03-16,-1,-0.002812554018399412,-0.0021818048125365895,-0.014305614583734003,0.0051929647473386124,0.9856945792494132
2015-03-18,-1,-0.003090384707097245,-0.0024667131821670355,-0.012148155044025038,0.015831972086100737,0.9847454738529458
2015-03-20,-1,-0.0006368346000547123,-0.0003894371013434886,-0.012148155044025038,0.015831972086100737,0.9847818688180103
2015-03-24,-1,-0.0018857003291759828,-0.0014797813151075697,-0.01014335859237068,0.015831972086100737,0.9853552996647118
2015-03-26,-1,-0.0032796961933561058,-0.0026800737327919147,-0.004053927883834487,0.015831972086100737,0.9864295979710342
2015-03-30,-1,-0.0017793948342005126,-0.0014141574182536037,-0.006856941043034082,0.011161749439456655,0.9876715901792262
2015-04-01,-1,-0.003264982439861887,-0.0027383305601544443,-0.006201818281359192,0.011161749439456655,0.9886248785333828
2015-04-06,-1,-0.003507135860251487,-0.0029897822773943925,-0.00517977400171135,0.013352660530872225,0.9884656509755713
2015-04-08,-1,-0.0017341527077126984,-0.001467318988818511,-0.006062435774059016,0.011161749439456655,0.988890490578044
2015-04-10,-1,-0.0019492772157741,-0.0016646194608579818,-0.006062435774059016,0.017861147488529384,0.98668208099233
2015-04-14,-1,-0.0025366564655417423,-0.0021562320666750267,-0.008242731896727213,0.017861147488529384,0.9854330490647503
2015-04-16,-1,-0.0007034559486048992,-0.0005683810076529024,-0.008242731896727213,0.014084051090126636,0.9862711386969057
2015-04-20,-1,-0.0011683459371720402,-0.0009186337053578525,-0.008494357718616466,0.013405660901294263,0.9867992160045219
2015-04-22,-1,-0.00024347701073242496,-0.00015492347359964725,-0.012252968023852234,0.013405660901294263,0.9837748420213637
2015-04-24,1,0.0009163859088173661,0.0010469112697311888,-0.01356336351470051,0.013405660901294263,0.9835843025718072
2015-04-28,-1,-0.0006274339653959552,-0.000489824871852162,-0.01749783801226391,0.014084051090126636,0.9822156040417639
2015-04-30,-1,-0.0007160318296959181,-0.000631257806595023,-0.01356336351470051,0.015027398262362915,0.9826804328518464
2015-05-04,-1,-8.268504426976938e-05,-6.141127596425733e-05,-0.01749783801226391,0.015027398262362915,0.9813530857335904
2015-05-06,-1,-0.0011961581087268675,-0.0010420282390523733,-0.01356336351470051,0.015027398262362915,0.9825840220103168
2015-05-08,1,0.0006262785332467988,0.0007209149776897543,-0.01749783801226391,0.013405660901294263,0.9824416747353321
2015-05-12,-1,-0.000501645433730653,-0.0003735255480489523,-0.015893440827537384,0.009575678152828943,0.9835294455572025
2015-05-14,1,0.0011052799698187293,0.0012616372896696705,-0.015893440827537384,0.007987572582022354,0.9838639609336982
2015-05-18,1,0.001380419757682757,0.0015945590857398416,-0.015893440827537384,0.004318565932068545,0.9837680632218482
2015-05-20,-1,-0.0014302675639114649,-0.0013195656541443548,-0.008224265424476686,0.0083374301221609,0.9872066654779569
2015-05-22,-1,-0.0007292119220258841,-0.0007201824402813274,-0.0067878286362465,0.013979707295158069,0.9860829668554696
2015-05-27,-1,-0.0005359432019684143,-0.0005065721042841777,-0.0067878286362465,0.009632375028454189,0.9877143655479915
2015-05-29,-1,-0.0007377437331110914,-0.0007000283587074764,-0.00659934542986845,0.0083374301221609,0.9885100986061796
2015-06-02,-1,-0.0007942381589950742,-0.0007215626267724104,-0.00659934542986845,0.006335236155301531,0.9900194805730478
2015-06-04,-1,-0.0014623222466552312,-0.0012996824371802919,-0.007580762007964127,0.006335236155301531,0.9892636334617724
2015-06-08,-1,-0.00316003138191038,-0.0028125618187411017,-0.006425375019336727,0.009262278740070646,0.9899013986194234
2015-06-10,-1,-0.0026111283233900585,-0.00229132024147576,-0.007580762007964127,0.010094864305457397,0.9889464922373421
2015-06-12,-1,-0.0008351413878022386,-0.0008019110483364577,-0.007580762007964127,0.013979707295158069,0.9861812030238059
2015-06-16,-1,-0.0008843950791783719,-0.0008208865683777233,-0.006077597177356941,0.013979707295158069,0.9860122789397182
2015-06-18,0,-0.00014828829706185867,4.237942359577721e-06,-0.006077597177356941,0.012869418430007443,0.9860944948932436
2015-06-22,1,0.00019690466026679417,0.0003272477057356908,-0.007580762007964127,0.011183667130821282,0.9864290011709711
2015-06-24,-1,-0.0005006650268296699,-0.0004903690782161342,-0.006077597177356941,0.012175322395344326,0.9862981271746305
2015-06-26,-1,-0.0007010030198866598,-0.000675208249937585,-0.009757084287860467,0.012175322395344326,0.9853129242835292
2015-06-30,-1,-0.0018940125945721802,-0.001706691840009085,-0.009092246093976533,0.012717480479164073,0.9846438291451435
2015-07-02,-1,-0.003058354950487836,-0.002695735619246736,-0.0035101354462838733,0.012717480479164073,0.984895204607268
2015-07-07,-1,-0.0018505131692833983,-0.0016442476564057398,-0.0035101354462838733,0.01296391669962317,0.9845093295900307
2015-07-09,-1,-0.0022494418021018698,-0.0019925561364815343,-0.0035101354462838733,0.01296391669962317,0.9858151095048026
2015-07-13,1,0.00030921215409348483,0.0003888312208563525,-0.0035101354462838733,0.011359000970257407,0.9893539094547593
2015-07-15,1,0.0017201690872968624,0.0020842815165106696,-0.004295004071355826,0.012717480479164073,0.9888204978907473
2015-07-17,1,0.002362947503104542,0.002827907281671184,-0.004295004071355826,0.01296391669962317,0.9888453391015857
2015-07-21,1,0.0013442113161367332,0.001567800211999509,-0.004295004071355826,0.01296391669962317,0.9892556352946573
2015-07-23,1,0.0013082242846485911,0.0015409343083902102,-0.0070880301323826955,0.009058159751427958,0.988097495540661
2015-07-27,1,0.000708317952631081,0.000842038651003803,-0.011243722883092493,0.009058159751427958,0.9855741111653548
2015-07-29,-1,-0.00014535266462042249,-0.00010659861506572918,-0.011243722883092493,0.009058159751427958,0.9838553426455521
2015-07-31,1,8.571182872312462e-05,0.00011618371795946905,-0.011243722883092493,0.009058159751427958,0.9840787820488207
2015-08-04,1,0.0020146476310647383,0.0023443693760370216,-0.011243722883092493,0.004528410445984035,0.9857494706365789
2015-08-06,1,0.001647643614405963,0.0019289508610733966,-0.014472167294589305,0.006939485249332916,0.9829086950455365
2015-08-10,1,0.0014740329858107483,0.0016954841255704186,-0.014472167294589305,0.009878543682476485,0.9817804749585657
2015-08-12,1,0.002325264679326305,0.0027503737881524213,-0.014472167294589305,0.00827685268664487,0.9820333052789258
2015-08-14,1,0.0026530218167398834,0.0030576838678749484,-0.014472167294589305,0.007981011958874192,0.9822965885851038
2015-08-18,1,0.0016862737144176963,0.0019229335529226325,-0.01396314672978117,0.007971429814339128,0.9832105293928466
2015-08-20,1,0.0011117344264728003,0.0013048989369219633,-0.013653513566944914,0.008683109915921623,0.9838132833119938
2015-08-24,-1,-0.0009714958261955771,-0.0008230297301192684,-0.0058432599587739525,0.009545065828953694,0.9859524526672614
2015-08-26,-1,-0.000781562036631772,-0.0006307678657329232,-0.0058432599587739525,0.008683109915921623,0.988827652961909
2015-08-28,-1,-0.00028528765654999385,-0.0002557043160413553,-0.012985650302715345,0.008683109915921623,0.9876037120925031
2015-09-01,-1,-0.0007788953969772937,-0.0006660669034225894,-0.014060837199959377,0.009545065828953694,0.9861181097148015
2015-09-03,-1,-0.0004806676063477189,-0.000394477392015617,-0.012807458288673773,0.009545065828953694,0.9884629033506442
2015-09-08,1,0.0014586029547432205,0.0016907414229279404,-0.014060837199959377,0.009545065828953694,0.9860593196160231
2015-09-10,1,0.0014846586682929189,0.0017344795025759922,-0.014060837199959377,0.009945615774749998,0.9861786998335588
2015-09-14,1,0.0017038395390611496,0.0019959044775620795,-0.014060837199959377,0.014032407030237292,0.9842122436323487
2015-09-16,1,0.002021249426463101,0.00237009851398981,-0.014915634456118081,0.01822513767013312,0.9828412713582427
2015-09-18,1,0.0013150742730245603,0.0015386079388730032,-0.014060837199959377,0.01822513767013312,0.9835576004238469
2015-09-22,1,0.0008067908259402309,0.0009215186494192697,-0.01238941681302651,0.01912487171235224,0.9835574983831369
2015-09-24,1,0.0006030333779628548,0.0006980484866600809,-0.01238941681302651,0.02082310613280114,0.9823242705033319
2015-09-28,-1,-0.00036689159894852597,-0.0003258847707782169,-0.00476323475962415,0.02082310613280114,0.9831714578797769
2015-09-30,1,0.0007725437869143671,0.0009392857739398293,-0.009549313170588682,0.02082310613280114,0.9839649456893159
2015-10-02,1,0.0005427899243802536,0.0006639722851163886,-0.0039824478091327956,0.02082310613280114,0.9844340783113283
2015-10-06,1,0.0005933839661283519,0.0007611895583481142,-0.002478747554404748,0.018503551637186217,0.9882584158736183
2015-10-08,1,0.0016606245734397534,0.0019761578744208327,-0.003731961315535376,0.009889439157653699,0.9890583617006615
2015-10-12,1,0.0014818453355012434,0.0016173887819510243,-0.007192133798963901,0.007042972890722071,0.9902522794247567
2015-10-14,1,0.00128670224280357,0.0014143633664521365,-0.0065551005189247325,0.006798839134331318,0.9911280745233266
2015-10-16,1,0.0015891234958342795,0.0017678704221586834,-0.007192133798963901,0.006389046937279321,0.9903830925006109
2015-10-20,1,0.0018604299526260933,0.0020849434516709174,-0.009359596258483942,0.0060064844246378955,0.9901892178153522
2015-10-22,1,0.0025069261163954146,0.0028082829861997127,-0.007192133798963901,0.0060064844246378955,0.9912767617811614
2015-10-26,1,0.0023100662267386877,0.002556788233213656,-0.007192133798963901,0.005344468726887054,0.9912877323574005
2015-10-28,1,0.0002489504288968603,0.00034350907464912323,-0.0069581030771085055,0.005344468726887054,0.9913006549622617
2015-10-30,1,0.001408469003077117,0.0015106689496341115,-0.008657504092917757,0.001288394190115994,0.9903911249839346
2015-11-03,1,0.0010721024372908122,0.0011239071135616262,-0.008657504092917757,0.005305338661219981,0.9891295925671558
2015-11-05,1,0.0006101466984335379,0.0006438950142371539,-0.008657504092917757,0.0075852082580546345,0.9881177539510165
2015-11-09,1,0.000907029866132773,0.0009467347764064131,-0.009480583333088577,0.007781784023931338,0.9858339815770202
2015-11-11,1,0.0007384666801756479,0.0007847880969280234,-0.01459844330296239,0.014362996057784776,0.9841174247029638
2015-11-13,0,-2.6100780390895064e-05,3.843103239037956e-05,-0.01459844330296239,0.016502901018723173,0.9824632195323838
2015-11-17,-1,-0.00046258555312688035,-0.0003354997629128178,-0.009480583333088577,0.019055444123662463,0.9818121947158757
2015-11-19,-1,-0.0004097910398094893,-0.0002526953292530104,-0.016567122508942513,0.019055444123662463,0.9806388515059534
2015-11-23,-1,-0.0008329914723863896,-0.0006137999967354521,-0.016567122508942513,0.021008798434835864,0.9791547694001178
2015-11-25,-1,-0.0012581951331128711,-0.0010255769345388546,-0.01459844330296239,0.021008798434835864,0.9802725239598663
2015-11-30,-1,-0.001958771743701836,-0.0016119234352302467,-0.008228475207356787,0.021008798434835864,0.9806211094718577
2015-12-02,-1,-0.00040872202339013383,-0.00031182382334750755,-0.016130828643462897,0.019055444123662463,0.9815364345721422
2015-12-04,1,0.0010674496562435598,0.0011945155041420137,-0.01960439881272609,0.018438208968587572,0.9811087379877595
2015-12-08,1,0.0005133499535230541,0.0005634472523563699,-0.01960439881272609,0.012103394144279312,0.9822104636220245
2015-12-10,1,0.0016504684378883475,0.0018458056814081298,-0.01960439881272609,0.008071543001139499,0.9840893005202848
2015-12-14,1,0.0007338157546934684,0.0007822470327697103,-0.01960439881272609,0.00607959600244813,0.9845733524579505
2015-12-16,1,0.001368916520710841,0.0014987900893483124,-0.01960439881272609,0.004938990854348822,0.984934827393632
2015-12-18,-1,-0.00013972720868771164,-7.179986147397554e-05,-0.011667038469483103,0.00607959600244813,0.9853492372635969
2015-12-22,1,0.000939533172513838,0.0010244538492990586,-0.011667038469483103,0.0057222678763682484,0.9858512651965475
2015-12-24,1,0.0014217670467351492,0.001606787855486091,-0.017783935110800772,0.004819881478988861,0.9853162850576442
2015-12-29,1,0.0011578047091271358,0.0012892615080219284,-0.021912401477997268,0.004819881478988861,0.9825844753348836
2015-12-31,1,0.0006573682438173842,0.0007221479537037504,-0.021431340683766793,0.007784194186280298,0.9819473191395082
2016-01-05,-1,-3.736498320351985e-05,-2.1777647610088946e-05,-0.021431340683766793,0.007784194186280298,0.9820230723482695
2016-01-07,-1,-0.0005362818794732504,-0.0004876020838477836,-0.021431340683766793,0.006334815551048209,0.9817657599397097
2016-01-11,-1,-0.00055016688711203,-0.00047613958409444115,-0.029673871803132267,0.011217078406577869,0.9794652781793206
2016-01-13,-1,-0.0025789465346634614,-0.0022334190488762402,-0.021274200928060996,0.018817491333578178,0.9796026480092704
2016-01-15,-1,-0.003285960836683226,-0.0027570056028152464,-0.0205314454839226,0.021886977315988185,0.9785540154527624
2016-01-20,-1,-0.002810165026523937,-0.0023638934417327,-0.0205314454839226,0.021886977315988185,0.9781841479312243
2016-01-22,-1,-0.0021086887162591484,-0.001738597604982542,-0.0205314454839226,0.026343279055674983,0.977038746398503
2016-01-26,-1,-0.0026725534349676464,-0.002226160989825657,-0.017259001976394215,0.026343279055674983,0.9775701442867225
2016-01-28,-1,-0.004375776889660624,-0.0037588720225524377,-0.0034465232855425535,0.026343279055674983,0.9781166469482758
2016-02-01,-1,-0.0019442194299826073,-0.0016683449831210082,-0.0034465232855425535,0.017680856930169374,0.9802403783930296
2016-02-03,-1,-0.0029063449708591326,-0.0025168964310415534,-0.0019426279962225803,0.017680856930169374,0.9811776178789438
2016-02-05,-1,-0.004261909493473414,-0.003723545935304136,-0.0032829339183826334,0.017680856930169374,0.9829447266438177
2016-02-09,-1,-0.003030295410348074,-0.002647868339850366,-0.0032829339183826334,0.011858309973869245,0.9835927981500918
2016-02-11,-1,-0.00316272993444838,-0.0027482012937687685,-0.0007681444576944753,0.011858309973869245,0.9843846798785734
2016-02-16,-1,-0.00184451317139468,-0.0015784861053584642,-0.002523326612190275,0.008767522652813747,0.9869730478133522
2016-02-18,-1,-0.0012007303248151187,-0.0009934296057110884,-0.002804855524977684,0.008767522652813747,0.9881641181627383
2016-02-22,0,-3.754257713196169e-05,7.778005168440296e-05,-0.002804855524977684,0.008767522652813747,0.9893944562365614
2016-02-24,-1,-0.00015609813964953707,-4.734806362796602e-05,-0.006104132011027037,0.008767522652813747,0.9883319052357253
2016-02-26,-1,-0.0013202336834906635,-0.0010695333658709448,-0.006104132011027037,0.008767522652813747,0.9884510593855496
2016-03-01,-1,-0.000535671142084711,-0.0003634112517846027,-0.006104132011027037,0.008456459884235268,0.988398753049664
2016-03-03,-1,-7.696176276553054e-05,-2.574343240016331e-06,-0.010583067129184357,0.008456459884235268,0.9866680068414074
2016-03-07,1,0.0005407941767287137,0.0006267060601012897,-0.010583067129184357,0.008456459884235268,0.9869955201140399
2016-03-09,-1,-0.0002683316007708697,-0.00023998761221271563,-0.010583067129184357,0.006053262408065427,0.9880862311706158
2016-03-11,1,0.00035980749347156035,0.0004318550880930919,-0.010583067129184357,0.006093819718294903,0.9884097321605991
2016-03-15,1,0.0005252407161116964,0.0006408430810475069,-0.010583067129184357,0.008318503955242154,0.9872831035278377
2016-03-17,1,0.0012686719557850191,0.0015163610953762836,-0.01352370608829483,0.007985624686621682,0.9871857165515722
2016-03-21,1,0.002121826662541528,0.0024940085599025495,-0.01592378031924371,0.007037015763283711,0.9872475912134823
2016-03-23,1,0.0009072075631606367,0.0010662466012333273,-0.020104165707982777,0.007037015763283711,0.9863964087730787
2016-03-28,1,0.0011965103914254572,0.0014352957503337167,-0.016597919354324423,0.005931126190648364,0.9866074731850526
2016-03-30,1,0.0015713593839559144,0.0018506283077933164,-0.016597919354324423,0.003637800405396365,0.9870613612826209
2016-04-01,1,0.0002569056337384348,0.0003540570615678083,-0.019248082107364117,0.003637800405396365,0.9872357257283703
2016-04-05,1,0.0005753988496743686,0.0007187992763062251,-0.019248082107364117,0.007497544103682066,0.9859746962273258
2016-04-07,-1,-0.000684640940213485,-0.000644272630339052,-0.019248082107364117,0.008134700552715998,0.9853424841049466
2016-04-11,-1,-0.0003012291402571118,-0.0002768571552270819,-0.019248082107364117,0.007933719977044154,0.9853734400239773
2016-04-13,1,0.000545866777272502,0.0006025166715497173,-0.019248082107364117,0.007933719977044154,0.9855208777753203
2016-04-15,1,1.0774021467821243e-05,2.866293848883221e-05,-0.019248082107364117,0.007933719977044154,0.9849630189382579
2016-04-19,1,9.374230053532298e-05,0.00012075702391297369,-0.016347274702818056,0.012225472218532341,0.9838861878360324
2016-04-21,-1,-0.002160558482605399,-0.0018664529484975307,-0.01592989279926378,0.012225472218532341,0.9847491625193783
2016-04-25,-1,-0.0026985992987037443,-0.002329935572510598,-0.015682411354461058,0.012225472218532341,0.9854477270103077
2016-04-27,-1,-0.0019910347022645456,-0.0017570211106078745,-0.015682411354461058,0.012921495209610046,0.9850799091860922
2016-04-29,-1,-0.0027090594713479964,-0.002453632512283913,-0.006393647045171499,0.012921495209610046,0.9857315474625639
2016-05-03,-1,-0.001620865068372928,-0.0014888448383688986,-0.006393647045171499,0.009648657319339421,0.9869829693423519
2016-05-05,-1,-0.0013866317881892462,-0.001348493043192279,-0.015603317103630186,0.009648657319339421,0.9869988858645246
2016-05-09,-1,-0.0012991629762041264,-0.0012387928617806324,-0.015603317103630186,0.012921495209610046,0.9866018236919311
2016-05-11,-1,-0.0008383425939547481,-0.000781279214313854,-0.009485038327265834,0.012964137254728662,0.9870843210379607
2016-05-13,-1,-0.0016549681234184984,-0.0015353193835267694,-0.010620818305026793,0.009599885353060979,0.987123777642979
2016-05-17,1,0.0004562902548493642,0.00067847185161901,-0.01709062708914804,0.005234395728625582,0.9873717016457138
2016-05-19,1,0.00012279763812066472,0.00033167878811889194,-0.01794122355276187,0.0028340932303211855,0.9873887629755347
2016-05-23,1,0.00012879711505245622,0.0003367150444735799,-0.01794122355276187,0.008018506393449141,0.9867695512698254
2016-05-25,1,7.812970805712115e-05,0.00022352987631567804,-0.01794122355276187,0.0035498121408799018,0.9871982192212146
2016-05-27,-1,-0.0005256879003951207,-0.0005189153755078539,-0.022868611821818964,0.001389038642386645,0.9821193374703697
2016-06-01,-1,-0.0009095499100883689,-0.000809846540712151,-0.022868611821818964,0.004864130122960505,0.9786302984728311
2016-06-03,-1,-0.00217755430958171,-0.0019418597240554872,-0.011960625668466241,0.010285290541967387,0.9801160093389493
2016-06-07,-1,-0.002275358004361203,-0.0019445488796595379,-0.024596956078330776,0.006265333463662883,0.9800093708122225
2016-06-09,-1,-0.0015518588837136523,-0.0013489448145698885,-0.024596956078330776,0.010806488980368303,0.9782765105145098
2016-06-13,-1,-0.0034786158960765797,-0.0030492154626649177,-0.010261909804911866,0.02060303194353942,0.9762308946497638
2016-06-15,-1,-0.003561201960562515,-0.0031783291784829946,-0.008710488356372174,0.02352634914603156,0.9753477641471378
2016-06-17,-1,-0.003925274113270625,-0.00348205632068772,-0.008710488356372174,0.02352634914603156,0.9749943140068231
2016-06-21,-1,-0.004719946690054881,-0.004079576953176621,-0.009962803255902798,0.02352634914603156,0.9751920371437259
2016-06-23,-1,-0.0038155608607602395,-0.003381800725064691,-0.01822434428882524,0.02352634914603156,0.972938534947108
2016-06-27,-1,-0.008106273538594895,-0.007124617372840463,-0.0028160071619649013,0.02352634914603156,0.9767442951292766
2016-06-29,-1,-0.005498432369026475,-0.0047448997114192485,-0.009060131870949258,0.020371328154197236,0.9808347040196078
2016-07-01,-1,-0.004064299039345524,-0.0035560264927555745,-0.013290288905138677,0.020371328154197236,0.9806691332709794
2016-07-06,-1,-0.004902949156195292,-0.004290956257534704,-0.013290288905138677,0.020371328154197236,0.9780642895644508
2016-07-08,-1,-0.0029358496932551255,-0.0026198157819247257,-0.013290288905138677,0.019146417172785438,0.979271518578673
2016-07-12,-1,-0.0004155946571882374,-0.0004008763689132651,-0.013290288905138677,0.010898050479702898,0.982833672704585
2016-07-14,1,0.0007967242102558241,0.001068991071419739,-0.013290288905138677,0.007203851478827981,0.9843585431272266
2016-07-18,1,9.241731798587658e-05,0.0002515450638993279,-0.010291232920908269,0.010898050479702898,0.9844067495988066
2016-07-20,-1,-0.0004561061635020546,-0.00042547448278729046,-0.010291232920908269,0.012424556361026963,0.9843833855003147
2016-07-22,-1,-0.0003568733021839127,-0.00024900852795001086,-0.010085177479421175,0.008380656477459477,0.9861112895254761
2016-07-26,0,-0.00013057454203875551,1.1003144467267403e-05,-0.010085177479421175,0.008380656477459477,0.9859281353173798
2016-07-28,1,0.00030226734340784355,0.0004912858501718525,-0.008503314936110644,0.003362592192770848,0.9870955471288827
2016-08-01,1,6.919739534372532e-05,0.00019958783841113228,-0.008503314936110644,0.003362592192770848,0.9876099886663231
2016-08-03,-1,-0.0013148447986354227,-0.0012942656292808112,-0.008503314936110644,0.007709523362615026,0.99014572048509
2016-08-05,-1,-0.00032282959344813656,-0.00021096095545694143,-0.008503314936110644,0.006899466984054087,0.9912312306597519
2016-08-09,-1,-0.0006579934580672025,-0.0005609384661387325,-0.009446328179157228,0.010315718437821982,0.9886127700982346
2016-08-11,0,-0.00012738061586320458,9.376370152825028e-05,-0.009446328179157228,0.010705740036379682,0.9875058269601562
2016-08-15,0,-0.00018088722226884397,2.4983605893257347e-06,-0.009667004410598704,0.010705740036379682,0.9866643944685464
2016-08-17,1,0.0003180169377188652,0.0005707849947117721,-0.010545811362702908,0.009635669258780276,0.9867323398734376
2016-08-19,1,0.00016706397599395868,0.0004307899182737756,-0.010545811362702908,0.010705740036379682,0.985993256528674
2016-08-23,-1,-0.0002951776323899127,-0.00015525666990843465,-0.010545811362702908,0.011557415761775129,0.9855533025565489
2016-08-25,0,-0.00017107915535052295,5.3231608356627165e-06,-0.010545811362702908,0.01205639512522388,0.9851610199829719
2016-08-29,-1,-0.0004073352578198461,-0.00031884167883273427,-0.010951783749305697,0.013042294114779472,0.9837462138880183
2016-08-31,-1,-0.00019283991222578497,-2.826231014321952e-05,-0.009793263939025361,0.01132758494568149,0.9849262892040077
2016-09-02,1,0.0011229623049217683,0.0015164485406089848,-0.009793263939025361,0.01280792451659428,0.984759727036881
2016-09-07,1,0.002072191788335693,0.0025500381558781196,-0.006554766501905188,0.01132758494568149,0.9879426808275207
2016-09-09,1,0.0008472771229935044,0.0011748262450457013,-0.00979961978966332,0.01132758494568149,0.9881914615746912
2016-09-13,1,0.00029429758299328776,0.00046348160439181976,-0.00979961978966332,0.01132758494568149,0.9879741494532529
2016-09-15,1,0.00039864053497406946,0.0005768561739416386,-0.006179776449132001,0.01280792451659428,0.9874751184316015
2016-09-19,1,0.0007838239249758819,0.0010141237763431564,-0.006179776449132001,0.01132758494568149,0.988484614121654
2016-09-21,1,0.00031747061008342153,0.0004119021542701677,-0.006179776449132001,0.01280792451659428,0.9869616866980307
2016-09-23,1,0.0013786467505680399,0.001672959650637745,-0.007602194372196438,0.0142069047878324,0.9871223793622924
2016-09-27,1,0.001553444962222789,0.0018400178655494275,-0.0055722979942341025,0.009778935528753672,0.9891423032283005
2016-09-29,1,0.0013310318226803478,0.001611025448757391,-0.004649328934782948,0.009778935528753672,0.9893093951598056
2016-10-03,1,0.0019983464442400295,0.0023543628389786206,-0.004649328934782948,0.008956356564666472,0.9898287336437777
2016-10-05,1,0.0019767602520024043,0.002327646061483873,-0.004649328934782948,0.008956356564666472,0.989959911495083
2016-10-07,1,0.0016177851669280997,0.001992540306645885,-0.0009626132294098517,0.011224134445186131,0.9906902965348539
2016-10-11,1,0.0012883872493696883,0.0015890826062371468,0.0005027721410303583,0.011224134445186131,0.9909005327282238
2016-10-13,1,0.002705297289495429,0.003191963827187965,0.0005027721410303583,0.014136311033138027,0.9910738393077589
2016-10-17,1,0.0019806058876943792,0.002391934889619434,0.0015665776290725258,0.015644448283175703,0.9905226232392564
2016-10-19,1,0.003382922762225055,0.003977335268490574,0.0008357658690424392,0.014136311033138027,0.992227673130015
2016-10-21,1,0.003313803921900958,0.003909474086841154,0.0015665776290725258,0.015644448283175703,0.9920035392285973
2016-10-25,1,0.0026652021107274556,0.0030997145114204597,0.0015665776290725258,0.015644448283175703,0.991556494968823
2016-10-27,1,0.003081867553100204,0.0036107093981665728,0.0010478230151537075,0.015644448283175703,0.991599589880228
2016-10-31,1,0.003352634645631859,0.0039248982448908615,0.0010478230151537075,0.015644448283175703,0.9913814291491788
2016-11-02,1,0.002695614221822472,0.0030927031503951946,-0.0015954893336740583,0.015644448283175703,0.9901287335651496
2016-11-04,1,0.002835521368056916,0.003195679123174778,-0.005732366960778994,0.012345546168622962,0.9902172134687448
2016-11-08,1,0.0033147899799048936,0.003711079506891912,-0.005732366960778994,0.015644448283175703,0.9889029088832108
2016-11-10,1,0.004197631508494891,0.004725639862964738,-0.005732366960778994,0.009844549445221285,0.9899957445398813
2016-11-14,1,0.004718774021196222,0.005288348568441355,-0.006762298930250279,0.008123212043348165,0.9886646488421642
2016-11-16,1,0.0027111146869336924,0.0027739249104985673,-0.006762298930250279,0.009106479289098917,0.9884504755530733
2016-11-18,1,0.004915738904437911,0.00542569969963363,-0.007158993973827087,0.006848041325831673,0.9891490378408374
2016-11-22,1,0.00477536260464931,0.005270344581910157,-0.007158993973827087,0.007150997003891704,0.9895889462954608
2016-11-25,1,0.0042952191249884825,0.004669412797623448,-0.008455898237565273,0.007150997003891704,0.9884493190183559
2016-11-29,1,0.004130546420090192,0.004553898964839424,-0.008455898237565273,0.00863562062110618,0.9882903458570151
2016-12-01,1,0.0044418685038729,0.005028828736712728,-0.006335981245292313,0.00863562062110618,0.9888470585857758
2016-12-05,1,0.004619089174048633,0.005249381551206512,-0.004580582235840177,0.00863562062110618,0.9888829261875304
2016-12-07,1,0.006256878410963984,0.0070488148795358595,-0.006335981245292313,0.00610748426577989,0.9894583155899682
2016-12-09,1,0.006060817583079222,0.006820057301054781,-0.006335981245292313,0.00610748426577989,0.9885318820711873
2016-12-13,1,0.004782319224089919,0.0053122513047272335,-0.004712813917032447,0.00741270685667521,0.9905950612635348
2016-12-15,1,0.005136319605929957,0.005708159261861314,-0.007722520687413123,0.006696649703778637,0.9898268294687474
2016-12-19,1,0.005132995726119827,0.005722444588811193,-0.011001140229489314,0.006696649703778637,0.9892961138799466
2016-12-21,1,0.0052232916411828765,0.005815320102743543,-0.013165929507794561,0.007365997478039133,0.9869874834781474
2016-12-23,1,0.0030378488865754278,0.0031930196588441763,-0.011001140229489314,0.010944762500583967,0.9876752804337422
2016-12-28,1,0.0030769476774170873,0.0032881453408418197,-0.011001140229489314,0.013840012595480825,0.9871403584348672
2016-12-30,1,0.0023479767653990812,0.002406968244273903,-0.013338246158738867,0.013840012595480825,0.9850318715056909
2017-01-04,1,0.0030453940708703776,0.0031735324901627816,-0.013338246158738867,0.010944762500583967,0.9860140691087069
2017-01-06,1,0.0022191962644668383,0.00224540424100228,-0.011001140229489314,0.010944762500583967,0.9867085625709161
2017-01-10,1,0.0031454045118869973,0.003309655535279547,-0.011001140229489314,0.009562572396204772,0.9874387123560135
2017-01-12,1,0.0021854391806929246,0.00220411413327075,-0.009747306031729262,0.010493623558142484,0.9872287274186566
2017-01-17,1,0.0012581349990020707,0.0014033351473490372,-0.005251484401171784,0.013840012595480825,0.9875728803652192
2017-01-19,1,0.000332322788322807,0.0006008309931210261,-0.004657527398667358,0.014402202650547645,0.9867728702629209
2017-01-23,-1,-0.0006498614624465754,-0.00026603040612749426,-0.0027082457433770524,0.013840012595480825,0.988785215619642
2017-01-25,1,0.00035144425409035045,0.0006227424164050486,-0.005761855501087068,0.009159722345296805,0.9894415146183837
2017-01-27,0,-0.00023455154920841177,8.63440439766483e-05,-0.004363330251469485,0.008170883764149137,0.9913458304539967
2017-01-31,-1,-0.000857871677483302,-0.0005400981244397189,-0.0027082457433770524,0.009159722345296805,0.9921801951672605
2017-02-02,-1,-0.0016532042098176235,-0.001169423464416977,-0.004363330251469485,0.009159722345296805,0.9911602917663029
2017-02-06,-1,-0.0015270173186013377,-0.0010506730354922773,-0.007192253134769302,0.004519402251238844,0.9898943296016284
2017-02-08,-1,-0.001886110748260407,-0.0013651743997257963,-0.008816818888707233,0.004519402251238844,0.9894928342286994
2017-02-10,-1,-0.0012325877989503827,-0.0007961652640382894,-0.009154501282376916,0.004519402251238844,0.9895375001375967
2017-02-14,-1,-0.0008551350563893302,-0.00046473992644523827,-0.010505395362437142,0.004519402251238844,0.9884366810253251
2017-02-16,0,-0.00024557173577627897,5.404121875244856e-05,-0.013512300869059354,0.0037175791249130364,0.9887416874397468
2017-02-21,1,0.0001166478626994826,0.00035078410147674935,-0.019479539952547968,0.0037175791249130364,0.9872753458694757
2017-02-23,-1,-0.0011235982142895444,-0.0006995619280991865,-0.019479539952547968,0.004704789796643695,0.9877080861769496
2017-02-27,-1,-0.0005598821895232124,-0.0002533761584229302,-0.019479539952547968,0.004704789796643695,0.9874679825562646
2017-03-01,-1,-0.00030592064631701846,-1.6652162623663046e-05,-0.019479539952547968,0.004704789796643695,0.9879879937488225
2017-03-03,-1,-0.002079676076139085,-0.001508662516637277,-0.014094617766456506,0.005365821554180444,0.988494723728119
2017-03-07,-1,-0.004184641809806648,-0.0033602346920816187,-0.011882717093007637,0.007050628335827362,0.9888479184816201
2017-03-09,-1,-0.003425965700146717,-0.0027750921936817,-0.011882717093007637,0.007050628335827362,0.9888725031491058
2017-03-13,-1,-0.004217559423460431,-0.003415803229573426,-0.008141134824985158,0.005365821554180444,0.989869276049032
2017-03-15,-1,-0.003020291191256742,-0.002434214802036941,-0.005649373772734641,0.005365821554180444,0.9915533530288629
2017-03-17,-1,-0.0042966451620244615,-0.003553857246852385,-0.005649373772734641,0.00700202549371816,0.9909662154786003
2017-03-21,-1,-0.005205268971228515,-0.004352005248823468,-0.004645542596104033,0.00700202549371816,0.9911381297509059
2017-03-23,-1,-0.004543375946422276,-0.003768439094484924,-0.005649373772734641,0.007153827337330707,0.9909347698503199
2017-03-27,-1,-0.004164229146406395,-0.0034460488396848136,-0.005649373772734641,0.007409051835149493,0.9899097030788816
2017-03-29,-1,-0.004622931156325643,-0.003852910386081512,-0.00695083724049172,0.007153827337330707,0.9902654257103432
2017-03-31,-1,-0.003919297782429429,-0.003280820892108984,-0.006845118774098611,0.007153827337330707,0.9907183501635588
2017-04-04,-1,-0.0041689451507385894,-0.0035465656506837055,-0.005614134283936938,0.007959707080968926,0.9888158548917819
2017-04-06,-1,-0.003361611107277701,-0.0028746202066139885,-0.005614134283936938,0.007959707080968926,0.9887378528826986
2017-04-10,-1,-0.0027010782947364175,-0.002350356569285612,-0.005614134283936938,0.011298333669984291,0.9877396358733942
2017-04-12,-1,-0.003234938239328639,-0.002806454130833749,-0.005842279630513706,0.011298333669984291,0.9875598535401061
2017-04-17,-1,-0.002556954848377356,-0.0022595185923787488,-0.005842279630513706,0.01173244088957249,0.9879319203759731
2017-04-19,-1,-0.0019954170106136013,-0.001765702816716904,-0.006845118774098611,0.010180234998223299,0.9873022460017772
2017-04-21,-1,-0.0016451202415176725,-0.0014682664878874555,-0.005842279630513706,0.010180234998223299,0.9880373078878352
2017-04-25,-1,-0.0010532260238161422,-0.0009272890411309964,-0.005842279630513706,0.00871348115111886,0.9890304146635419
2017-04-27,-1,-0.001938502698943671,-0.0016827340237746242,-0.002180862623069677,0.010180234998223299,0.9877688557555807
2017-05-01,-1,-0.0022291657496457395,-0.0019376928893193976,-0.002180862623069677,0.010180234998223299,0.985872063123201
2017-05-03,1,0.0011658372637110997,0.001421189239476307,-0.002180862623069677,0.008858183557648261,0.989425945512132
2017-05-05,1,0.001310726186528353,0.0015866620597324238,-0.002180862623069677,0.010793325469780185,0.9883700378529776
2017-05-09,1,0.0012996313102381831,0.0015073054631466682,-0.0020351972461582425,0.010793325469780185,0.988408688810709
2017-05-11,1,0.0015105567462608078,0.0017788246986145421,-0.0004189454767592334,0.011011251939657836,0.9886351722279839
2017-05-15,1,0.0015554520498762485,0.0018297179494997393,-0.0020351972461582425,0.011011251939657836,0.988644750288514
2017-05-17,1,0.00042086377254599565,0.0005640989708995335,-0.0020351972461582425,0.011011251939657836,0.98967443465935
2017-05-19,1,0.0007165555403065829,0.0008621984777152985,-0.0001999785667329292,0.010081972733192265,0.9896010743739102
2017-05-23,1,0.0007138726350174356,0.0008391286041467392,-0.004020684813033189,0.010116135256993865,0.988731164843744
2017-05-25,1,0.0019227723492060925,0.002203527374982922,-0.004020684813033189,0.009972655349617957,0.9903381123617186
2017-05-30,1,0.0011992097788323843,0.0014439961622239239,-0.0014869668078099922,0.009972655349617957,0.992032484611956
2017-06-01,1,0.0016547233057846574,0.0019178470702826134,-0.0014869668078099922,0.009972655349617957,0.9918489020348361
2017-06-05,1,0.0028778108440432413,0.0033549617962132664,-0.0025882353656602186,0.009819047537418543,0.9927848877657057
2017-06-07,1,0.0033224859392716015,0.0038399159147416958,-0.0013118975085226752,0.008852205178866075,0.9936606239359878
2017-06-09,1,0.003272791082408376,0.0037617320091161083,-0.003495476915171237,0.008852205178866075,0.9924716662153045
2017-06-13,1,0.0023626597442502253,0.0027098973091578835,-0.0013118975085226752,0.009819047537418543,0.992348871963763
2017-06-15,1,0.0017923868117784621,0.0020215674526802615,-0.0013118975085226752,0.009972655349617957,0.9913767895716089
2017-06-19,1,0.002864725393006558,0.0032987458429385007,-0.009083538584049203,0.009972655349617957,0.9907398652508389
2017-06-21,1,0.002420904573003512,0.002764821302830957,-0.009083538584049203,0.007048690558117202,0.9906818004349945
2017-06-23,1,0.0020078126169041166,0.002222283253224368,-0.011022072127243182,0.005234491798245771,0.989737021736812
2017-06-27,1,0.0020371375341507805,0.0022699730319771126,-0.011022072127243182,0.005234491798245771,0.9894237846023379
2017-06-29,1,0.0025606751433331363,0.002880861286272907,-0.01190136342065807,0.004992624185587503,0.9888892996138178
2017-07-03,1,0.0024836696518844873,0.0027821464744498606,-0.01282597820332955,0.004992624185587503,0.9876792475479287
2017-07-06,1,0.0028730854854032454,0.0032560208076635386,-0.01282597820332955,0.006543456518790295,0.9871505974173506
2017-07-10,1,0.0031472626697799317,0.0035842372501302244,-0.01282597820332955,0.0033226828759926655,0.9884311436587804
2017-07-12,1,0.00391416350444727,0.004479775758282975,-0.01303304679261241,0.0012848105877044055,0.9881401240577365
2017-07-14,1,0.003850826530836941,0.004420969220885079,-0.012693041341364694,0.0012848105877044055,0.988547027116844
2017-07-18,1,0.0027884421247684164,0.003185772080707003,-0.012693041341364694,0.0033226828759926655,0.989793039337758
2017-07-20,1,0.0021473809164509914,0.0024636105650371574,-0.012693041341364694,0.004403094899149512,0.9885857512447485
2017-07-24,1,0.0018647703156836355,0.002169912421306541,-0.009673357177619538,0.005216777179655716,0.9897934562742741
2017-07-26,1,0.0014378970244957213,0.001651698653137317,-0.012992054206726649,0.005216777179655716,0.9885387787605616
2017-07-28,1,7.185062073605225e-05,0.00013110808687295586,-0.012992054206726649,0.006661363037074327,0.9873119210004389
2017-08-01,-1,-0.0002516118964205771,-0.00014566165009575387,-0.012693041341364694,0.0058108213308297125,0.988363114081835
2017-08-03,1,6.255117780714844e-05,0.00013203976960894341,-0.012693041341364694,0.0058108213308297125,0.9883543445416844
2017-08-07,1,5.759896338226127e-05,0.00011759786889757858,-0.012992054206726649,0.006166564695212176,0.9864497199340208
2017-08-09,-1,-0.0012189097689892367,-0.0009629057536121716,-0.012963903203114122,0.007166612288462635,0.9855706625299417
2017-08-11,-1,-0.0016523094188921545,-0.0013109344244510003,-0.008722754607612649,0.007174403742678352,0.9847368418079433
2017-08-15,-1,-0.001303081897379791,-0.0010261302451818406,-0.008722754607612649,0.006995643149671438,0.9852112114672544
2017-08-17,-1,-0.0031409891174953948,-0.0026583608933851035,-0.008722754607612649,0.006995643149671438,0.9868421762668
2017-08-21,-1,-0.0026634986046378947,-0.0022203090968930415,-0.008722754607612649,0.006995643149671438,0.9872619700789617
2017-08-23,-1,-0.003933766655978161,-0.0033456337347074153,-0.0057756561036892305,0.006995643149671438,0.98776557754889
2017-08-25,-1,-0.003689389752830701,-0.003091629001309117,-0.0037454004277546237,0.006575940708555485,0.989961285725342
2017-08-29,-1,-0.0037829929133333467,-0.003186167466776528,-0.0037454004277546237,0.006575940708555485,0.9895722298248417
2017-08-31,-1,-0.003620029017272878,-0.0030292082888068884,-0.0037454004277546237,0.006575940708555485,0.9897310543124695
2017-09-05,-1,-0.005163210467010091,-0.004370808194139283,-0.0030987403645761713,0.006578537859960724,0.9875816543447414
2017-09-07,-1,-0.004412157837674206,-0.0036897515241668634,-0.002170910864856988,0.006145831865791662,0.9890548776297462
2017-09-11,-1,-0.0027353017624802776,-0.002234756500108916,-0.0030987403645761713,0.004891982987641557,0.9914705866076533
2017-09-13,-1,-0.0027094796417492665,-0.002219794592558638,-0.0030987403645761713,0.006398284274640312,0.9903794058103794
2017-09-15,-1,-0.0027439748757868625,-0.0022917104179051447,-0.002170910864856988,0.0065828923329371335,0.9899432393930035
2017-09-19,-1,-0.0035451905366576516,-0.002961969209324663,-0.0030987403645761713,0.0065828923329371335,0.9890290041783302
2017-09-21,-1,-0.0035849884440356224,-0.0029816504330924458,-0.0036308917436919594,0.0065828923329371335,0.9890000288223205
2017-09-25,-1,-0.0020449843170951953,-0.0017371214222030738,-0.005468675393209895,0.00835658728412127,0.9879778387580495
2017-09-27,-1,-0.002516755841730584,-0.0021631705218599783,-0.005468675393209895,0.01327396623896111,0.9871323481773503
2017-09-29,-1,-0.0016301296546955418,-0.0014124451123925749,-0.008239029652980394,0.009266761873975684,0.9865498903776444
2017-10-03,1,0.000941793078833879,0.001033226916765216,-0.008239029652980394,0.0065442709955921986,0.9894790808575983
2017-10-05,1,0.0008247044855078326,0.0008957024791094489,-0.008239029652980394,0.006552330393066915,0.9894830099721195
2017-10-09,0,-0.00010063178638296629,2.0057817749653123e-05,-0.008239029652980394,0.006552330393066915,0.9899481946776972
2017-10-11,1,0.0010249235323121246,0.0010624433992477826,-0.011633974493678704,0.003097325099605466,0.9902403184023052
2017-10-13,1,0.0016880418917626311,0.0018232049871277213,-0.013798110697615567,0.0021729241245585958,0.9895104422595422
2017-10-17,1,0.001453909207439516,0.0016371226453564813,-0.011633974493678704,0.0021729241245585958,0.9907187232718245
2017-10-19,1,0.0005272218366465379,0.0005371530063971175,-0.008711442554237342,0.004128773670041869,0.9900968938126724
2017-10-23,1,0.0007591901314642511,0.0008197340005127657,-0.008570547374735843,0.003097325099605466,0.9912275337371677
2017-10-25,1,0.00127994734401228,0.0014684641348336872,-0.0063903020070351655,0.003097325099605466,0.99168589646619
2017-10-27,1,0.0006081118250929183,0.0007472283259600916,-0.0059952363556909725,0.003097325099605466,0.9926709915183042
2017-10-31,1,0.0004714906205123426,0.0006155386420550051,-0.005988085088879862,0.006995482768904111,0.9908668565167216
2017-11-02,1,0.0003519496430110733,0.00043638796978523676,-0.007168383730647713,0.010529836033137228,0.9895910305992751
2017-11-06,1,0.00040817569903210216,0.000488966323764189,-0.009965308689642145,0.015886039825406626,0.9884888712217769
2017-11-08,1,0.0004692088692457999,0.0005966189762447401,-0.0070310935491006065,0.01666400774347373,0.9881681012527048
2017-11-10,-1,-0.00040682395926392286,-0.0004019151266129184,-0.005336202579759877,0.01718509658245443,0.9883878705021701
2017-11-14,-1,-9.729394510655552e-05,-2.4511686943671823e-05,-0.006920393408544672,0.01718509658245443,0.9878433289939877
2017-11-16,1,0.0010381681926189931,0.001255732692038422,-0.006920393408544672,0.01718509658245443,0.987233232694963
2017-11-20,1,0.0009148594859130298,0.0011556977748584402,-0.005768156032656537,0.01718509658245443,0.9875897723339526
2017-11-22,1,0.0013975483206628884,0.0017124753976041872,-0.005768156032656537,0.016500981175914173,0.9881132118424946
2017-11-27,1,0.0010472441461892557,0.0013321666094947885,-0.002133321912124931,0.016500981175914173,0.9887001933032424
2017-11-29,1,0.003063252084723155,0.0036329829432139396,-0.003908106708788577,0.015473180358954168,0.9904954977612516
