JNU-Tangyin/eata/results/Batch4_SP500/Batch4_SP500-WU.csv
Date,Action,Predicted_Q25,Predicted_Q75,Actual_Q25,Actual_Q75,RL_Reward
2010-12-14,0,0.0,0.0,-0.008967272271700319,0.008402753664733498,0.9912583599923355
2010-12-16,0,0.0,0.0,-0.005242569094633586,0.008402753664733498,0.9919748019937593
2010-12-20,0,0.0,0.0,-0.007417437375547979,0.008402753664733498,0.991603490049523
2010-12-22,0,0.0,0.0,-0.007417437375547979,0.008402753664733498,0.9913595792905088
2010-12-27,0,0.0,0.0,-0.005242569094633586,0.008402753664733498,0.991517885365364
2010-12-29,0,0.0,0.0,-0.0027359814875361987,0.0103395774423238,0.9907870641711384
2010-12-31,0,0.0,0.0,-0.005242569094633586,0.013108150892953193,0.988504479350844
2011-01-04,0,0.0,0.0,-0.0027359814875361987,0.018348512178461618,0.9881109207815741
2011-01-06,0,0.0,0.0,-0.0044193257384168225,0.012059949732020177,0.9892136299206674
2011-01-10,0,0.0,0.0,-0.0005221802738316176,0.012059949732020177,0.9891261917774962
2011-01-12,1,0.0006987676855615,0.0008060990144404999,-0.0005221802738316176,0.011595257733439154,0.9888582126174196
2011-01-14,1,1.9293631566951602e-05,0.00034686830257423396,0.00036983093725020716,0.011595257733439154,0.9887119925328163
2011-01-19,-1,-0.0003622636187768434,-1.0702860093447981e-05,0.00036983093725020716,0.011595257733439154,0.988332011025108
2011-01-21,1,0.0002528637953571435,0.0005124338128876611,0.00036983093725020716,0.011595257733439154,0.9887651434587609
2011-01-25,1,0.001406769674654761,0.0015005629262334341,-0.005112948096701994,0.010251135322132062,0.9883234560589567
2011-01-27,1,0.0029497652887060044,0.003074333053745484,-0.005112948096701994,0.010251135322132062,0.9883686905793713
2011-01-31,1,0.0021849024026648466,0.0022099643514487443,-0.005112948096701994,0.010251135322132062,0.9892523838718063
2011-02-02,1,0.003121048551064545,0.003224939255807761,-0.005112948096701994,0.010251135322132062,0.9899659006345207
2011-02-04,1,0.00423035267715247,0.004584936865623946,-0.007484023781483158,0.009944523734107813,0.9900430814104918
2011-02-08,1,0.0048886161545310764,0.005328986422856936,-0.007484023781483158,0.007644081972965132,0.9900323906372859
2011-02-10,1,0.0047680240074570845,0.0052322869206368056,-0.007484023781483158,0.007464627421675522,0.9899502504309735
2011-02-14,1,0.004470840127213945,0.004831165163007234,-0.007669444692857708,0.006744162980900378,0.9888847727840561
2011-02-16,0,0.0,0.0,-0.008305665818509786,0.006744162980900378,0.9892023756233587
2011-02-18,1,0.0004571956302251278,0.0004933659275936889,-0.008305665818509786,0.0090888288089212,0.9878871138374122
2011-02-23,0,0.0,0.0,-0.007669444692857708,0.0090888288089212,0.9891140191198203
2011-02-25,0,0.0,0.0,-0.007669444692857708,0.008919539131592316,0.9902957057656031
2011-03-01,1,0.0026342894651563203,0.0028416874166980197,-0.007669444692857708,0.006964993415328891,0.9906924324281472
2011-03-03,1,0.0031444941442507965,0.00342453629625305,-0.008305665818509786,0.004311065144874307,0.9899835638547702
2011-03-07,1,0.0027208262665095063,0.00293639857878683,-0.008209003566003953,0.004311065144874307,0.9907722325994233
2011-03-09,1,0.0023316810871712276,0.002482981654685689,-0.008209003566003953,0.005235504787838724,0.9902567786488395
2011-03-11,1,0.0019033972703761562,0.002021352280086374,-0.008209003566003953,0.005235504787838724,0.9907883715508771
2011-03-15,1,0.0013596900755783736,0.0013940634583974518,-0.006485500825447341,0.005235504787838724,0.991241278213146
2011-03-17,1,0.00047938294054297216,0.0005679893988835212,-0.004039312019121453,0.005813777139406461,0.9918788651975649
2011-03-21,0,0.0,0.0,-0.004039312019121453,0.0038087539530262155,0.9931594823005434
2011-03-23,0,0.0,0.0,-0.004039312019121453,0.005115078903474914,0.9928504131985095
2011-03-25,1,0.0020174734739706887,0.0020555887623302615,-0.004039312019121453,0.003950649452955539,0.9932694633155262
2011-03-29,1,0.00042682778000897284,0.0005971685868305485,-0.004039312019121453,0.005115078903474914,0.9940097716273247
2011-03-31,1,0.0007197390778600889,0.0007724802507506189,-0.0029868819779158263,0.006366125529554366,0.9941954532461034
2011-04-04,1,0.0009212964795887249,0.0009318477085156549,-0.006485500825447341,0.006366125529554366,0.9934976706789836
2011-04-06,1,0.0011265695091486976,0.0011457337962450162,-0.007731861563096401,0.005115078903474914,0.9937053902635535
2011-04-08,1,3.242515644516329e-05,0.0001923238207622889,-0.0054164978875220916,0.005878841257509956,0.9939653186497931
2011-04-12,-1,-0.0011030389613618965,-0.0007361110492512758,-0.005518257235226209,0.006366125529554366,0.9936160690143929
2011-04-14,0,-6.087206253669415e-06,0.00017868002388487733,-0.008037139606208752,0.006162793284872101,0.993294820843655
2011-04-18,0,0.0,0.0,-0.008037139606208752,0.006162793284872101,0.9931941690383213
2011-04-20,1,4.839183419241185e-05,0.00012680358782621973,-0.008037139606208752,0.00546055490514223,0.9935212267657212
2011-04-25,0,0.0,0.0,-0.009499011751909333,0.00546055490514223,0.9925744198402526
2011-04-27,0,0.0,0.0,-0.008037139606208752,0.005900908973270042,0.9927872010473059
2011-04-29,0,0.0,0.0,-0.007772245126428127,0.00546055490514223,0.9931382815301321
2011-05-03,0,0.0,0.0,-0.007772245126428127,0.005900908973270042,0.9926079844776886
2011-05-05,0,0.0,0.0,-0.007772245126428127,0.006006118681027695,0.9917164570706254
2011-05-09,0,0.0,0.0,-0.007772245126428127,0.007432413573780642,0.991375746550082
2011-05-11,0,0.0,0.0,-0.009769769469955687,0.007432413573780642,0.9909453319040575
2011-05-13,-1,-0.0016953825742485956,-0.0011901232427635924,-0.010172514265357539,0.007432413573780642,0.9908781369479914
2011-05-17,-1,-0.0020486283681524975,-0.0014937771711304555,-0.015935137943582523,0.007713950747465449,0.9893778565256437
2011-05-19,-1,-0.0020519727950509556,-0.0014897948901667595,-0.015935137943582523,0.007713950747465449,0.9893977082592458
2011-05-23,-1,-0.003194763616991411,-0.0024799447473459885,-0.010172514265357539,0.008396468614276478,0.9893073823682557
2011-05-25,-1,-0.0025625186354541014,-0.0019186013471572969,-0.015935137943582523,0.007777082132680279,0.9893289350580065
2011-05-27,-1,-0.0032049640116859454,-0.0024793616119433903,-0.015935137943582523,0.007777082132680279,0.9888841875158542
2011-06-01,-1,-0.002374772274330324,-0.001866087367054908,-0.01131198096719327,0.008712128290971113,0.9884409097764478
2011-06-03,-1,-0.003689292099641128,-0.002982759673982255,-0.008954364429156779,0.009215979344526542,0.9887605226908682
2011-06-07,-1,-0.003038499126161689,-0.00241092490744619,-0.01131198096719327,0.009778682362084028,0.9873197155510097
2011-06-09,-1,-0.003208473502450999,-0.002577974592460351,-0.008954364429156779,0.009024722327718594,0.9876603834100156
2011-06-13,-1,-0.004118438627423655,-0.0033605436577965526,-0.010551184166183359,0.009024722327718594,0.9876654368948148
2011-06-15,-1,-0.003881472425769204,-0.003174999717103614,-0.008954364429156779,0.007520034644203826,0.9891677945972234
2011-06-17,-1,-0.0034430758611221435,-0.00284573456243132,-0.008954364429156779,0.007520034644203826,0.9890775577359469
2011-06-21,-1,-0.0021950146980170256,-0.001808734265547965,-0.009912491787940986,0.007958894202001451,0.9887642006534998
2011-06-23,-1,-0.0027326136715634373,-0.0023103488709499795,-0.00793180856959367,0.008828815877028622,0.9891941607169269
2011-06-27,-1,-0.002120849134356147,-0.001809461248629267,-0.006862221411050385,0.010377032631434057,0.987095550455478
2011-06-29,-1,-0.0007689782392024057,-0.000612345922563613,-0.010243343090069308,0.007454732493973834,0.986686009587951
2011-07-01,1,0.0001665760661113294,0.00019222949323889616,-0.010937392798104793,0.005343827252728105,0.9864695887244836
2011-07-06,-1,-0.000980533349857747,-0.0008156599483487992,-0.010937392798104793,0.005343827252728105,0.986665895993207
2011-07-08,-1,-0.0006733798457301374,-0.0005695701470317875,-0.013686633651126195,0.0031211663880382798,0.9846204869872055
2011-07-12,-1,-0.0017871219729056272,-0.0015710500324077883,-0.011974410764411081,0.005633801144403829,0.9815094643754172
2011-07-14,0,0.0,0.0,-0.01797192569057695,0.010033361617990809,0.9784592666136616
2011-07-18,-1,-0.0018477909231767544,-0.001649008314021763,-0.01797192569057695,0.013092842669648238,0.9777258417644786
2011-07-20,-1,-0.0009595592180635813,-0.0009179799811167759,-0.01797192569057695,0.009344481186220149,0.9782357257208917
2011-07-22,-1,-0.0008083767651417058,-0.0007745265966957435,-0.023523948275957083,0.005037944413456482,0.975639727470695
2011-07-26,1,0.000688697844038582,0.0008755952200340918,-0.023523948275957083,0.007844796306210539,0.9759770940949566
2011-07-28,-1,-0.0005395120564168529,-0.0005298693308658201,-0.02187442692628593,0.007844796306210539,0.9772335374864658
2011-08-01,-1,-0.0008724483378804217,-0.0008471595726491152,-0.02187442692628593,0.012839249953297,0.9770076265552902
2011-08-03,-1,-0.0013422640513152198,-0.0012372875284536672,-0.016564583513245704,0.011025170547743171,0.9794113111931657
2011-08-05,-1,-0.003115089270564147,-0.0027824719280878547,-0.016564583513245704,0.011025170547743171,0.9803546657971868
2011-08-09,-1,-0.0047158038071592545,-0.004186921509844188,-0.016564583513245704,0.011025170547743171,0.9821693802149184
2011-08-11,-1,-0.003081386299139622,-0.0027970578581721613,-0.016968808806793523,0.007385199076165737,0.9839487678753625
2011-08-15,-1,-0.0029529048527287467,-0.0027025894688684268,-0.01637938129936304,0.011460458263162594,0.9835063052944861
2011-08-17,-1,-0.003004379072550388,-0.0027737701105185167,-0.01637938129936304,0.014408719646900412,0.982252999648899
2011-08-19,-1,-0.005067345106980642,-0.0045661362383460045,-0.008906625728232795,0.014408719646900412,0.9838448752738648
2011-08-23,-1,-0.003841792075377299,-0.003462500830062878,-0.012117342072578998,0.011460458263162594,0.9863012013685867
2011-08-25,-1,-0.004420239711722674,-0.00398292935034181,-0.012117342072578998,0.011460458263162594,0.9848643889528489
2011-08-29,-1,-0.003352566853776741,-0.0030601809681451266,-0.012117342072578998,0.015258171639922925,0.9833692461180378
2011-08-31,-1,-0.0032244848411395266,-0.0029357741361193345,-0.012117342072578998,0.015258171639922925,0.9831770044534905
2011-09-02,-1,-0.003900908169627437,-0.003530876575167918,-0.01563709958698046,0.015258171639922925,0.9822418138301184
2011-09-07,-1,-0.0032233982350142526,-0.0029601999853312126,-0.012117342072578998,0.014881112573169588,0.983322919317851
2011-09-09,-1,-0.004065849983454904,-0.003716434109247374,-0.01136940435741201,0.015258171639922925,0.982661955887223
2011-09-13,-1,-0.0026040667116013602,-0.0024496638734530433,-0.01136940435741201,0.01560398189561117,0.9825895624993621
2011-09-15,-1,-0.0015152213395147852,-0.0014960947463862101,-0.011485240729776539,0.013736316043847216,0.9831153655210151
2011-09-19,-1,-0.0017182880326069966,-0.0016802750243449637,-0.01136034753669296,0.015485859155212446,0.9823230151100574
2011-09-21,0,0.0,0.0,-0.01136034753669296,0.019594789993888768,0.9804244781655435
2011-09-23,0,0.0,0.0,-0.011278575305461553,0.025765197416438568,0.981391400683022
2011-09-27,0,0.0,0.0,-0.01136034753669296,0.018885787428827638,0.9816999447457196
2011-09-29,-1,-0.0025469081867590016,-0.0023720276410668824,-0.01136034753669296,0.023396575429049868,0.9788627022506157
2011-10-03,0,0.0,0.0,-0.0020020132181936805,0.023396575429049868,0.981134403005896
2011-10-05,0,0.0,0.0,-0.01136034753669296,0.023396575429049868,0.9800183413678738
2011-10-07,-1,-0.0008408993372714109,-0.0008211934347145521,-0.011394953548435567,0.020707278133816995,0.9802047062340167
2011-10-11,0,0.0,0.0,-0.011394953548435567,0.018225689185437058,0.9815100843443538
2011-10-13,0,0.0,0.0,-0.018507640937034858,0.018225689185437058,0.980277473532961
2011-10-17,-1,-0.0002975092689049728,-7.173580284144227e-05,-0.02265740275238301,0.020707278133816995,0.9791964598752364
2011-10-19,-1,-0.0003795739445113949,-0.0001738146387605516,-0.022859443889558642,0.016283481692895126,0.9797712952437151
2011-10-21,1,0.001530560933309479,0.001898982640503369,-0.022859443889558642,0.014977032190848606,0.9809657181461992
2011-10-25,0,0.0,0.0,-0.01706361755040467,0.011648559577141464,0.9825300291090386
2011-10-27,0,0.0,0.0,-0.01706361755040467,0.007458764189547596,0.9840805830285516
2011-10-31,1,0.0018152444130193441,0.0022309777520748775,-0.015410893702573635,0.010177762520362977,0.9847603213718145
2011-11-02,1,0.00148967222608913,0.001844100682757618,-0.015217215450124624,0.010177762520362977,0.985024856697104
2011-11-04,1,0.0016736888839272367,0.0020579641239622695,-0.015217215450124624,0.009999081808403958,0.9854712750525696
2011-11-08,1,0.002094238091079657,0.002534172128969594,-0.015217215450124624,0.007458764189547596,0.9860613521452761
2011-11-10,1,0.0011578313605510324,0.0014944867259966755,-0.002669695146267254,0.009999081808403958,0.986782718297497
2011-11-14,1,0.0011309500476163106,0.0014244078502525528,-0.004372712707601613,0.007458764189547596,0.9874686386392626
2011-11-16,1,0.0004989316989639857,0.0007067242156769615,-0.004372712707601613,0.007309407834439043,0.988857283589641
2011-11-18,0,0.0,0.0,-0.004372712707601613,0.009999081808403958,0.9876286826031717
2011-11-22,0,0.0,0.0,-0.007983674937451052,0.016665376412802444,0.9859790764749634
2011-11-25,0,0.0,0.0,-0.0040477517602077375,0.016665376412802444,0.9861375810314277
2011-11-29,0,0.0,0.0,-0.007983674937451052,0.010589923038584212,0.9866222341402696
2011-12-01,0,0.0,0.0,-0.009000718693323447,0.010589923038584212,0.9875757877183498
2011-12-05,0,0.0,0.0,-0.009161478361353921,0.010604029945690962,0.9871746557925181
2011-12-07,1,0.0030769821598624894,0.0036766658745392457,-0.009161478361353921,0.010604029945690962,0.9865247775956213
2011-12-09,1,0.003668826352192235,0.0043396973244588105,-0.009161478361353921,0.010158766379248448,0.9877449344290707
2011-12-13,0,0.0,0.0,-0.00802583585114182,0.010791408756768992,0.9886597914273081
2011-12-15,1,0.0032172123231612726,0.003872712573716546,-0.008060112778099992,0.010791408756768992,0.9886024832074168
2011-12-19,1,0.00297462900742192,0.003528357511666416,-0.007449709917489656,0.012965651793377744,0.9889952938293535
2011-12-21,0,0.0,0.0,-0.007356797688101395,0.010791408756768992,0.9898803809802854
2011-12-23,0,0.0,0.0,-0.007356797688101395,0.013490749386421601,0.989225393181228
2011-12-28,0,0.0,0.0,-0.007356797688101395,0.013490749386421601,0.9890175717003076
2011-12-30,0,0.0,0.0,-0.005753726509171381,0.01269542075794985,0.989888523240435
2012-01-04,1,0.002602826147483391,0.0030042133860031855,-0.004828458545107765,0.010791408756768992,0.9914854985724595
2012-01-06,0,0.0,0.0,-0.005753726509171381,0.01269542075794985,0.9894727288996229
2012-01-10,0,0.0,0.0,-0.007356797688101395,0.01138623506315043,0.9848450604971752
2012-01-12,0,0.0,0.0,-0.007648893038712277,0.01138623506315043,0.9853678863108233
2012-01-17,0,0.0,0.0,-0.005753726509171381,0.01138623506315043,0.9863298297365573
2012-01-19,1,0.0008096505299941012,0.0008828551989152741,-0.005753726509171381,0.006479188305583085,0.9874836535052549
2012-01-23,0,0.0,0.0,-0.005636832129096029,0.009290253370222207,0.9868609465155723
2012-01-25,1,0.0024906817763070276,0.0027717105429751867,-0.008360375359325009,0.006172643650123788,0.9870569236536376
2012-01-27,1,0.0017548510215240902,0.0018989351091313216,-0.0056051417572218105,0.006172643650123788,0.9881069541672665
2012-01-31,0,0.0,0.0,-0.008709273840449354,0.006172643650123788,0.986888146764602
2012-02-02,1,0.0012660691663691679,0.0012988090094612288,-0.00881836045514886,0.005182236132487552,0.986621740744276
2012-02-06,1,0.001783069794597231,0.0019027792350217833,-0.00861957716692148,0.003110630223756458,0.9877409020119086
2012-02-08,-1,-0.00037457614724070216,-0.00024325875033020503,-0.008491808679847498,0.004820354762008441,0.9926737907095986
2012-02-10,-1,-0.0007105728588998339,-0.0005260430481607143,-0.008396737564224845,0.007898064603325579,0.991955578333231
2012-02-14,0,0.0,0.0,-0.008396737564224845,0.009290253370222207,0.9910978209357261
2012-02-16,0,0.0,0.0,-0.008396737564224845,0.007898064603325579,0.9914658307740356
2012-02-21,0,0.0,0.0,-0.008396737564224845,0.006553002084808039,0.9919638081101592
2012-02-23,0,0.0,0.0,-0.00861957716692148,0.006230550529725947,0.9923473380647946
2012-02-27,0,0.0,0.0,-0.00861957716692148,0.008288345807672475,0.9911892453754714
2012-02-29,0,0.0,0.0,-0.006675677982922861,0.008288345807672475,0.9915911826517817
2012-03-02,0,0.0,0.0,-0.006694359855297335,0.008288345807672475,0.9913007679074513
2012-03-06,0,0.0,0.0,-0.004404225125077322,0.010871393207221998,0.990259491198187
2012-03-08,0,0.0,0.0,-0.007164350465641903,0.007647550817497696,0.9901644754032914
2012-03-12,0,0.0,0.0,-0.011595495795787104,0.0061938491794385035,0.9896327480321232
2012-03-14,0,-9.328329261594688e-05,2.8155207644588783e-05,-0.011595495795787104,0.007647550817497696,0.9893946681786752
2012-03-16,1,0.00024239071241361973,0.000464926734357728,-0.012980613810686508,0.01022359158306112,0.9884805509433492
2012-03-20,-1,-0.0003837697458292249,-0.00027557712370826953,-0.013891324671075176,0.012303212758373377,0.9875665152244021
2012-03-22,1,9.039288534472864e-05,0.00028652070778379985,-0.013891324671075176,0.013853270850362084,0.9874256760613185
2012-03-26,0,-5.387033600610515e-05,3.6213966158018716e-06,-0.013891324671075176,0.010675732108998009,0.9883377366931506
2012-03-28,1,0.00010964888764417025,0.00024169069685385627,-0.013891324671075176,0.013853270850362084,0.9881646346331117
2012-03-30,0,-7.712531800155629e-05,2.8669578640646567e-05,-0.011134375603206667,0.014652846411145764,0.9877144693936404
2012-04-03,1,0.0007820361768655512,0.0010166759766945064,-0.013891324671075176,0.013853270850362084,0.9883527646525935
2012-04-05,-1,-0.00019338443406864578,-0.00012818104398890816,-0.01139528575597504,0.013853270850362084,0.9882535533187191
2012-04-10,-1,-0.001194756763898601,-0.0011072982796885475,-0.010108165019835694,0.013853270850362084,0.9895141079877705
2012-04-12,-1,-0.0010215058172356878,-0.0009191378564617366,-0.010302362631506622,0.007016320399442264,0.9899076064815628
2012-04-16,-1,-0.0015408027002264423,-0.001351308337644143,-0.010108165019835694,0.007516589784038898,0.9901801033468156
2012-04-18,-1,-0.001480879452635453,-0.0013107636970743845,-0.009461193785632191,0.004582637285569623,0.9912593133505151
2012-04-20,-1,-0.0012908830371124347,-0.0011247542749470672,-0.010302362631506622,0.00305718194063624,0.9907156356829396
2012-04-24,-1,-0.0008751646188651775,-0.0007802534655690914,-0.010302362631506622,0.00305718194063624,0.9897096153623601
2012-04-26,-1,-0.0003551457497560012,-0.0003248367788858995,-0.010302362631506622,0.00305718194063624,0.9903261216843448
2012-04-30,-1,-7.681014488115103e-05,-4.928100196303807e-05,-0.010178942450478063,0.00305718194063624,0.9907734376179498
2012-05-02,-1,-0.00024344993212908824,-0.00023129215415678117,-0.011343621220285182,0.0014598847183367025,0.9901295922410585
2012-05-04,-1,-0.0005657148124004847,-0.0005629027062636096,-0.014095253721723586,0.0014598847183367025,0.9898853744748627
2012-05-08,-1,-0.0017593404229790401,-0.0015802250261704072,-0.014095253721723586,0.006152621774808159,0.989191138612498
2012-05-10,-1,-0.002447732324357203,-0.002154079024605744,-0.014095253721723586,0.006950803086375911,0.9886747509050968
2012-05-14,-1,-0.002074308172826237,-0.001827644714370719,-0.014095253721723586,0.006950803086375911,0.9884295162279746
2012-05-16,-1,-0.002134490817447052,-0.0019270631877008905,-0.015555881020843296,0.00783804155713839,0.9873199770990818
2012-05-18,-1,-0.0029418010328202946,-0.0026571215238397443,-0.011327973559551896,0.009975239891462187,0.9874330067674739
2012-05-22,-1,-0.0023966085061324217,-0.0021457692697740885,-0.011327973559551896,0.010593898334479273,0.9870960437762201
2012-05-24,-1,-0.0020425722491447165,-0.0018264765627318638,-0.013646593150439491,0.010593898334479273,0.986852798185907
2012-05-29,-1,-0.002001797815034473,-0.0017702716043334322,-0.015450460734811683,0.010593898334479273,0.9862514585069537
2012-05-31,-1,-0.0031516327161205684,-0.0027924585534682524,-0.011628052505665263,0.012681167087463825,0.9866572523478404
2012-06-04,-1,-0.003997254313201233,-0.003558998298091346,-0.010614280686760472,0.014280525389376172,0.9857265459515112
2012-06-06,-1,-0.002761898788807461,-0.002489620716863731,-0.010614280686760472,0.012681167087463825,0.9866104134817251
2012-06-08,-1,-0.003849835486128656,-0.0034074360841554133,-0.010066543860698378,0.01105019695437875,0.9875773269676121
2012-06-12,-1,-0.0026818157299769224,-0.002432755886991291,-0.010186993171669507,0.009975239891462187,0.9880930614743445
2012-06-14,-1,-0.0029873011495358684,-0.002658162053514463,-0.010186993171669507,0.010802103132762877,0.9879820619599801
2012-06-18,-1,-0.0019454404955086657,-0.0018015778574909998,-0.010186993171669507,0.00996484867252172,0.9883690817454038
2012-06-20,-1,-0.0015548911004386883,-0.0014480200553799792,-0.010186993171669507,0.00832467028376781,0.9896250372639988
2012-06-22,-1,-0.002274960885201635,-0.0020936200600797,-0.010186993171669507,0.008477104395696239,0.9892462651068953
2012-06-26,-1,-0.0029008024092144003,-0.0026407341265488864,-0.008229812624969692,0.009459561831188961,0.9887961617070024
2012-06-28,-1,-0.0016627761036393856,-0.0015525783979453076,-0.008229812624969692,0.011841834064655398,0.9880741976551244
2012-07-02,-1,-0.00036742164303965575,-0.00035873568067979497,-0.008229812624969692,0.009459561831188961,0.9895610891406355
2012-07-05,-1,-0.000844885304235238,-0.0007847801312766354,-0.008559442803996595,0.009102766193074131,0.9892993960183225
2012-07-09,-1,-0.0006693493718591404,-0.0006439022275178899,-0.008363014975436093,0.011841834064655398,0.988763225115946
2012-07-11,0,0.0,0.0,-0.007110903797544122,0.013620576337791668,0.9887855592417064
2012-07-13,0,0.0,0.0,-0.004836238310415152,0.012104715813793396,0.9902910820046527
2012-07-17,0,0.0,0.0,-0.007101466348834076,0.012104715813793396,0.9902081850662408
2012-07-19,0,0.0,0.0,-0.007101466348834076,0.012104715813793396,0.9903146632878411
2012-07-23,0,0.0,0.0,-0.004307347145002105,0.009571580059490107,0.9909782819349514
2012-07-25,0,0.0,0.0,-0.0046994879600911685,0.007501310941891866,0.9917337334687472
2012-07-27,0,0.0,0.0,-0.006902068532462865,0.005480399094888767,0.9930054826980093
2012-07-31,0,0.0,0.0,-0.004662347060767898,0.005480399094888767,0.9932834001181955
2012-08-02,0,0.0,0.0,-0.0031396580392908406,0.0065460327046974135,0.9936281651792733
2012-08-06,0,0.0,0.0,-0.0031396580392908406,0.0065460327046974135,0.9939629300356191
2012-08-08,1,0.002426965716334855,0.002776013319985814,-0.0031396580392908406,0.0065460327046974135,0.9935539125942835
2012-08-10,1,0.002269929241119238,0.002568905662204954,-0.0031396580392908406,0.0065460327046974135,0.9936407817739337
2012-08-14,1,0.0015744510802878473,0.0018126852937281786,-0.002441404399822148,0.007501310941891866,0.9937742586477081
2012-08-16,1,0.0021397637725471853,0.002491152118613588,-0.002441404399822148,0.00941856230290124,0.9929800052146625
2012-08-20,1,0.002150368891263658,0.0024476644341848318,-0.0033554350945879004,0.00941856230290124,0.9926583895955603
2012-08-22,1,0.0015798427024584425,0.0017580537210463534,-0.002948751891938808,0.00941856230290124,0.9929307843707493
2012-08-24,1,0.0019067277245604988,0.0021702663920005645,-0.0027277457933902243,0.00941856230290124,0.9931355017374713
2012-08-28,1,0.001673087066774735,0.0019016970854205844,-0.0038720425968684583,0.00941856230290124,0.9923623511167846
2012-08-30,1,0.001137017608243372,0.0012453289409833281,-0.0038720425968684583,0.009013748105297124,0.9921848085777636
2012-09-04,1,0.0020068129526153913,0.002272488075814377,-0.00479172739251814,0.005901227524045219,0.9923263518349553
2012-09-06,1,0.002569519517228542,0.0029053685927084064,-0.00479172739251814,0.005901227524045219,0.9930388444500561
2012-09-10,1,0.002626802436352011,0.0029646542246971465,-0.005967715840057647,0.005882877091480046,0.9927174699529939
2012-09-12,1,0.00338054377714766,0.003834668158423431,-0.006458280949330241,0.002749114827717878,0.9914617831490399
2012-09-14,1,0.004313461542069251,0.004914057790260178,-0.006458280949330241,0.0005428747015884735,0.9913372416075324
2012-09-18,1,0.00405911051011394,0.004637294756357751,-0.005967715840057647,0.002177484107987702,0.9915084025626516
2012-09-20,1,0.004010990758268915,0.004588856464418992,-0.004782771490615278,0.002749114827717878,0.99168599012145
2012-09-24,1,0.0033377022350220224,0.003799045834215601,-0.005967715840057647,0.005498182841428173,0.990929719001149
2012-09-26,1,0.0022522020076358226,0.002523459254846518,-0.004782771490615278,0.005498182841428173,0.9918573644496574
2012-09-28,1,0.0021221788279224664,0.002357029320139327,-0.004782771490615278,0.004992063224953079,0.9921229262159917
2012-10-02,1,0.0015985944196205085,0.001740055705201612,-0.007735604867376521,0.0033310387804668254,0.9858199198916949
2012-10-04,1,0.0020144810904327883,0.002227117836592409,-0.011194075957222513,0.0033130828755654007,0.9836748014046707
2012-10-08,1,0.0012205574366702305,0.0013586133935736054,-0.011194075957222513,0.011528414503201006,0.9831947094232751
2012-10-10,1,0.00013016949988748315,0.00017950447390469363,-0.010278463729253711,0.011528414503201006,0.9836883162662319
2012-10-12,1,0.00023444669558384792,0.00024131396832038882,-0.010278463729253711,0.01250638674373961,0.9828792774285652
2012-10-16,1,0.0007234424480137153,0.0007893067951596647,-0.010278463729253711,0.011528414503201006,0.9835669220684493
2012-10-18,1,0.0009693435731224255,0.0010194284192911536,-0.010278463729253711,0.007873689468003011,0.9842920827276441
2012-10-22,-1,-0.0003881591841612217,-0.0002685052195652955,-0.010278463729253711,0.0058878604790452704,0.9847312856158845
2012-10-24,-1,-0.0011093297245636283,-0.0008621914814901975,-0.010278463729253711,0.007873689468003011,0.9840182070706037
2012-10-26,-1,-0.0008729578982779162,-0.0007022016361522745,-0.012599003638100818,0.00937311232224777,0.9837726891838785
2012-11-01,-1,-0.007856231547796147,-0.006852963555751891,-0.004113605878769791,0.00937311232224777,0.987533918376938
2012-11-05,-1,-0.008453690266925063,-0.007328995861876124,-0.0033978713405591536,0.00937311232224777,0.988015957510334
2012-11-07,-1,-0.007769913712838435,-0.006766988660185394,-0.0033978713405591536,0.005567782278042967,0.9892645888376705
2012-11-09,-1,-0.007702274788117644,-0.006743339438754095,-0.00232129975875994,0.005567782278042967,0.9888174356956584
2012-11-13,-1,-0.005763084628860736,-0.005090973030933761,-0.00232129975875994,0.005567782278042967,0.9901820149440066
2012-11-15,-1,-0.005705762919417641,-0.0049675868804188,-0.0027482040112350196,0.0054994765568023764,0.9906033564777226
2012-11-19,-1,-0.00616927161946825,-0.0053318681295539214,-0.0027482040112350196,0.008841126563700792,0.9894230789257743
2012-11-21,-1,-0.006604047532523149,-0.005742334741347423,-0.00232129975875994,0.01026634861981282,0.9884675261295551
2012-11-26,-1,-0.005324465412847428,-0.004703464810944188,-0.0029555450470514985,0.008841126563700792,0.990035746913587
2012-11-28,-1,-0.004995235872189778,-0.0044038586253787445,-0.00232129975875994,0.01026634861981282,0.9898042292990766
2012-11-30,-1,-0.005118076696253013,-0.004543178173062373,-0.0016929617315846737,0.013967976777625062,0.9878915715452588
2012-12-04,-1,-0.004129592412821458,-0.003617132035562059,-0.004372269737011117,0.01166737906577552,0.9882585936891507
2012-12-06,-1,-0.003982053764970837,-0.003480914763025755,-0.01068394012892922,0.01450154958991553,0.9861843102939809
2012-12-10,-1,-0.003797111658100957,-0.003386183773228693,-0.011187265315802622,0.01450154958991553,0.9856125710394914
2012-12-12,-1,-0.00313470002360881,-0.002814789501993914,-0.011187265315802622,0.01450154958991553,0.9850636404593995
2012-12-14,-1,-0.002741617162007953,-0.0025002561298958738,-0.011187265315802622,0.01450154958991553,0.9852930956252351
2012-12-18,-1,-0.0020322477228719464,-0.0018599943232941187,-0.011649102467049205,0.012563462941112881,0.9859506901127242
2012-12-20,-1,-0.0005807153335705114,-0.0005160735669587082,-0.011649102467049205,0.012563462941112881,0.9856351739876937
2012-12-24,-1,-0.0015437239905301795,-0.001459223938866891,-0.012391326548996506,0.012563462941112881,0.9858330892793156
2012-12-27,-1,-0.0009488590413641387,-0.0008952442647626191,-0.012391326548996506,0.012563462941112881,0.9847645195702389
2012-12-31,-1,-0.0006906407666465112,-0.000680146909470759,-0.008992511855052591,0.007556148155289204,0.9861727294173646
2013-01-03,-1,-0.0009824826060329458,-0.0009788199040941777,-0.008001851888984349,0.007436098329711446,0.9866352927034171
2013-01-07,-1,-0.0005576318490488452,-0.0005109716321786567,-0.007535970294036651,0.011209054726309065,0.9880826757609212
2013-01-09,-1,-0.0012141827430640533,-0.001180140804582336,-0.007535970294036651,0.011209054726309065,0.9883796511697894
2013-01-11,-1,-0.0002878752513833677,-0.00017719712102718977,-0.008001851888984349,0.007436098329711446,0.9889141989739857
2013-01-15,-1,-0.0003825843782425071,-0.0002740053091811085,-0.008992511855052591,0.007436098329711446,0.9884052862778204
2013-01-17,-1,-0.0010440530025301207,-0.001039377473953548,-0.005055924120107863,0.011209054726309065,0.9881112708036179
2013-01-22,-1,-0.00016088346491886421,-4.772704053166582e-05,-0.010776219433672237,0.007436098329711446,0.9884509678826038
2013-01-24,-1,-0.0008539756675826936,-0.0008444879301460061,-0.007961323405936173,0.00911015332409051,0.9885755454708284
2013-01-28,1,0.0007469217082338559,0.0009776793967859474,-0.010776219433672237,0.00911015332409051,0.9895569991749381
2013-01-30,1,0.0011288046191598997,0.0014411553719439617,-0.010897478638809846,0.01112015432425091,0.9888220130822629
2013-02-01,1,0.0018284394669456207,0.002278002271715996,-0.01187158323087801,0.012899029590520892,0.988097552366107
2013-02-05,1,0.0030190770421666727,0.0036325255248073627,-0.01187158323087801,0.011603001701690327,0.9884354494152704
2013-02-07,1,0.002777180777882633,0.0033844874000373065,-0.010897478638809846,0.012795570611677812,0.9886710589018983
2013-02-11,1,0.0026006295941815383,0.0032539232026464484,-0.010457060186705915,0.012795570611677812,0.989538444070102
2013-02-13,1,0.002566224746805586,0.003195278343948778,-0.007961323405936173,0.012795570611677812,0.9902977237530157
2013-02-15,1,0.0028133597125048833,0.0034723809549672734,-0.007961323405936173,0.011603001701690327,0.9908625096371014
2013-02-20,1,0.0020453405732330427,0.0025860453857198436,-0.0058222115861288806,0.011603001701690327,0.9917354284438038
2013-02-22,1,0.0016915053244586995,0.002153402763718443,-0.0049759611230763435,0.011603001701690327,0.9920332102862104
2013-02-26,1,0.0018298491151923304,0.0023112955246027455,-0.004276985919976378,0.010988611788753211,0.9928947889525709
2013-02-28,1,0.0018160130981435838,0.002302464188410306,-0.0025845848761486432,0.010793018762810275,0.993536107230765
2013-03-04,1,0.002412830408303387,0.0030010301341981812,-0.0025845848761486432,0.010793018762810275,0.9930692042856767
2013-03-06,1,0.002948432600532278,0.003601411220225591,-0.004276985919976378,0.008773562661917853,0.9930233515425527
2013-03-08,1,0.0031341422643707505,0.003785935780410232,-0.0049759611230763435,0.008455116149120308,0.9922020139362195
2013-03-12,1,0.002858279546222105,0.0034654380766430677,-0.003918468396251032,0.010452174353828956,0.9914649586002369
2013-03-14,1,0.0032615087584560417,0.0039520902735885755,-0.005605161156912543,0.010452174353828956,0.9909676713901311
2013-03-18,1,0.003673641743698779,0.004426729547129295,-0.006165507263792925,0.010793018762810275,0.9901531167406183
2013-03-20,1,0.0032155946481556333,0.003884077522368502,-0.008454426587767478,0.010793018762810275,0.9891044877902974
2013-03-22,1,0.0035156045503924407,0.004207965093691986,-0.008454426587767478,0.010793018762810275,0.9891069426103247
2013-03-26,1,0.004464228246791788,0.005171167318233376,-0.008454426587767478,0.009496834815436322,0.9888618176794934
2013-03-28,1,0.0013964903402270755,0.0014668001269491592,-0.008454426587767478,0.009007639709889872,0.9888350817683376
2013-04-02,0,0.0,0.0,-0.006962121202268197,0.009007639709889872,0.9901486875348976
2013-04-04,0,0.0,0.0,-0.006867332946782561,0.009674479199770384,0.9875930560495862
2013-04-08,0,0.0,0.0,-0.006164346362152826,0.009603898434005982,0.9886066881805566
2013-04-10,0,0.0,0.0,-0.006164346362152826,0.007661016990521222,0.9903003050944751
2013-04-12,0,0.0,0.0,-0.00681709517986043,0.007908379569104779,0.989686676429716
2013-04-16,1,0.0011162189583826718,0.0011724900629229232,-0.0037705413596903167,0.0092057243781063,0.9899778392667495
2013-04-18,0,0.0,0.0,-0.0022303103308531727,0.009798115010532708,0.9905828313664716
2013-04-22,0,0.0,0.0,-0.0018650067700270662,0.010305926060626198,0.9899428641771613
2013-04-24,0,0.0,0.0,-0.0009017059756161858,0.010305926060626198,0.9901593356415677
2013-04-26,0,0.0,0.0,-0.0013611129720035307,0.010305926060626198,0.9900997756229598
2013-04-30,0,0.0,0.0,-0.0024331192807567565,0.009798115010532708,0.9906322721586842
2013-05-02,0,0.0,0.0,-0.0024331192807567565,0.007755820085127578,0.9932258144186427
2013-05-06,0,0.0,0.0,-0.0028932283602570515,0.006958774873880185,0.9934983832576318
2013-05-08,0,0.0,0.0,-0.004410426062680013,0.009798115010532708,0.9919546386498442
2013-05-10,0,0.0,0.0,-0.0028932283602570515,0.009798115010532708,0.9922449255690705
2013-05-14,0,0.0,0.0,-0.005308848237582692,0.006617404757440442,0.9926725783365965
2013-05-16,0,0.0,0.0,-0.004410426062680013,0.007874815799342138,0.9920605756619847
2013-05-20,0,0.0,0.0,-0.004740326675542517,0.007874815799342138,0.992055294832262
2013-05-22,1,0.0017394765396110366,0.0020379291983465475,-0.007337804625510635,0.007874815799342138,0.9902758533797452
2013-05-24,1,0.0034935339835780437,0.0037513723235210665,-0.007337804625510635,0.007874815799342138,0.9900898526260907
2013-05-29,1,0.0028958129103269503,0.003049458664048973,-0.007337804625510635,0.009672195898540188,0.9895249681340793
2013-05-31,1,0.002427705889806661,0.0025824474406564327,-0.007337804625510635,0.009883632759623636,0.9895354426316959
2013-06-04,1,0.0017925311222117394,0.001793480759976224,-0.0088227684501378,0.009883632759623636,0.9886167351567013
2013-06-06,0,0.0,0.0,-0.007337804625510635,0.009228081735396092,0.9894061640977404
2013-06-10,0,0.0,0.0,-0.007337804625510635,0.008891496226722707,0.9899252807411698
2013-06-12,0,0.0,0.0,-0.0007367368102229189,0.008891496226722707,0.9900897722911559
2013-06-14,0,0.0,0.0,-0.0011750869793537922,0.007557879076637985,0.9913368521000891
2013-06-18,0,0.0,0.0,-0.0010017129017673928,0.007104912967649316,0.9918375841519518
2013-06-20,0,0.0,0.0,-0.0002868682933661912,0.007104912967649316,0.9934136971306323
2013-06-24,0,0.0,0.0,-0.0002868682933661912,0.0072336394346500296,0.9937401313555587
2013-06-26,1,0.0010989709139819757,0.0011886250798059932,-0.0018623177818659666,0.007002616611085144,0.9945737519179301
2013-06-28,0,0.0,0.0,-0.004008026944733118,0.005205385841368481,0.9943115519893615
2013-07-02,0,0.0,0.0,-0.0018623177818659666,0.007104912967649316,0.9924414609690834
2013-07-05,1,0.0017363110622656674,0.0017808732577024675,-0.0018623177818659666,0.007830075115765875,0.9926110662285903
2013-07-09,1,0.002076657176773287,0.0021569672690149823,-0.0018623177818659666,0.007106013442113802,0.9927367788971259
2013-07-11,1,0.0025671794117599848,0.0027374972720725145,-0.004008026944733118,0.005564989865988002,0.9927433255746274
2013-07-15,1,0.001697442823198015,0.0017183726633472583,-0.004008026944733118,0.005961363721254662,0.9926329499753419
2013-07-17,1,0.0013864597317583655,0.0014501349650821952,-0.004096211297428234,0.007833231299202877,0.9918756757848143
2013-07-19,1,0.0010857840742882609,0.0011762342531650683,-0.004096211297428234,0.007833231299202877,0.9915033830733142
2013-07-23,1,0.0008278522973274825,0.0009531761271621446,-0.00594358959909028,0.009256337797408304,0.9901390435795336
2013-07-25,1,0.00015122792227366183,0.00034966087338428363,-0.00594358959909028,0.010644332628707901,0.9895569575364536
2013-07-29,1,0.0001389445585711546,0.0002970782207430075,-0.004355534915566217,0.010644332628707901,0.9896218441105299
2013-07-31,1,0.0021340047964428736,0.002245651341459616,-0.005959635396163933,0.008152918434220172,0.99065295803002
2013-08-02,1,0.0023827205672930936,0.0024963651916768462,-0.010812916954088033,0.005735055153558559,0.990237239163874
2013-08-06,1,0.002267642030930799,0.0023629301894340805,-0.010812916954088033,0.00693347214902871,0.9897407753277427
2013-08-08,1,0.0021500255096701193,0.00223553085447757,-0.010812916954088033,0.008659075221658662,0.9895312084894979
2013-08-12,1,0.0018000633384188175,0.0018046656858357198,-0.010812916954088033,0.011813426245676634,0.9886135512194355
2013-08-14,1,0.001959258235354867,0.0019948670804998615,-0.011697735842366195,0.013202308834903538,0.9877714643912352
2013-08-16,1,0.0015111370891984451,0.0015113978876435247,-0.006418722203680157,0.014384229421043906,0.9873765782336441
2013-08-20,1,0.001084195009610399,0.0011070270364584905,-0.004494903812694641,0.013541593833731592,0.9889903215604912
2013-08-22,1,0.0011566653629291157,0.0011901524483329381,-0.004494903812694641,0.011813426245676634,0.9897798441382054
2013-08-26,1,0.0005697478707928424,0.0007026406180189455,-0.002011570496523687,0.011813426245676634,0.9900510895885022
2013-08-28,-1,-0.0003754750857525512,-0.00010924686942879861,-0.002011570496523687,0.011813426245676634,0.9910157459132283
2013-08-30,-1,-0.0003865557962779955,-0.00017696551616877998,-0.00026511740610298294,0.011813426245676634,0.9919359383777536
2013-09-04,1,0.00020768385181604263,0.00035136345019956,-0.0006661960882087693,0.006507706498940295,0.9927700351335282
2013-09-06,1,0.0004921307127783442,0.0006092509411871246,-0.0013304099281047435,0.005389325308585316,0.9930562997280652
2013-09-10,1,0.0004346858268469286,0.0006287933899866746,-0.006302592750244193,0.0044195235475742905,0.9928913689729916
2013-09-12,0,-7.848083060441068e-05,0.00018035423398694698,-0.006302592750244193,0.0044195235475742905,0.9929332560860921
2013-09-16,1,0.00010377002716325265,0.0003397684428818623,-0.004259111044987363,0.0044195235475742905,0.9932621684771846
2013-09-18,1,0.00011407481720948002,0.00035838529072157,-0.009077914553642803,0.003907721174712545,0.9929524636283196
2013-09-20,-1,-0.0003404023130442193,-6.65192463066487e-05,-0.00922845169380364,0.004434442358869918,0.9918140655474732
2013-09-24,1,0.0004885617561684863,0.000589227070346261,-0.00922845169380364,0.008001288556788439,0.9908287885952941
2013-09-26,1,0.0003502378652857501,0.0004573766772613486,-0.0037464986754016587,0.008001288556788439,0.9910436142385274
2013-09-30,1,0.0004048667812085295,0.0005065542872729136,-0.0052388960251034036,0.008001288556788439,0.9909442465586938
2013-10-02,1,0.0005277688670396774,0.000600078076500145,-0.010072631472687037,0.008001288556788439,0.9859865105882278
2013-10-04,1,0.000916477425604883,0.0010019431346643202,-0.010072631472687037,0.011937459882465272,0.9847263791776824
2013-10-08,-1,-0.00026713156913737296,-0.00021000612506922879,-0.0052388960251034036,0.011937459882465272,0.9851776878849674
2013-10-10,-1,-0.0008596060663473471,-0.0007456964937571811,-0.003364109049280783,0.010340132261829319,0.9864428138054188
2013-10-14,-1,-2.099826355095896e-05,-3.5387689205338313e-07,-0.0052388960251034036,0.009047761800870826,0.9868085228922665
2013-10-16,-1,-0.00013624927687629534,-8.420998657523822e-05,-0.003364109049280783,0.010340132261829319,0.9866608491855248
2013-10-18,1,2.5308757989828397e-05,6.3579035068334e-05,-0.0036024606071687836,0.009047761800870826,0.9861013088144671
2013-10-22,1,0.0010291225131527414,0.001108600813392741,-0.00504133791487439,0.005868821339212422,0.9869723271808684
2013-10-24,1,0.001242532132901168,0.0013438509607312187,-0.00841900086246511,0.00391838107591866,0.9861004907429453
2013-10-28,1,0.0011270552653826088,0.0012242905891922938,-0.010158960791758735,0.009047761800870826,0.9853955147543105
2013-10-30,1,0.0018364497562653127,0.0020400564873121097,-0.00835505638623892,0.009047761800870826,0.9902885889517569
2013-11-01,1,0.0021515165657965546,0.002363872558856422,-0.00921220330235863,0.003542865214606005,0.9912133168435281
2013-11-05,1,0.002556528699501819,0.0028986901039109413,-0.00921220330235863,0.0075741264602441506,0.9908227899892165
2013-11-07,1,0.002811247582894272,0.0032010814640809765,-0.010158960791758735,0.008095187718761429,0.9895564794974449
2013-11-11,1,0.0014417128901487945,0.001565019479637727,-0.00921220330235863,0.008095187718761429,0.9900629366703882
2013-11-13,1,0.001454986449373685,0.001569114973130964,-0.010386919092097604,0.008095187718761429,0.9894427285595848
2013-11-15,1,0.0018268074252204784,0.0020226568935178824,-0.010386919092097604,0.008095187718761429,0.9904417066134144
2013-11-19,1,0.001470791754361048,0.001619802145186784,-0.010386919092097604,0.010789774345068868,0.9893990616489908
2013-11-21,1,0.0008847703531976285,0.0009369627482087031,-0.00921220330235863,0.008472343865174991,0.9899349898981114
2013-11-25,1,0.0006577492604520006,0.0006704961134593914,-0.007523637746553527,0.007324329314402683,0.9904913868136078
2013-11-27,1,0.0011162314967207833,0.0012073761085801635,-0.007523637746553527,0.006413719073851576,0.9906710006541012
2013-12-02,1,0.0010381060758992396,0.00112418751388747,-0.004448142716560069,0.006413719073851576,0.991071496144366
2013-12-04,1,0.00047961193164174824,0.0004974503215314509,-0.006609137157506964,0.005887233375792961,0.9910486382439562
2013-12-06,-1,-0.0004328850646550167,-0.0003355482986479695,-0.004298230803701637,0.006413719073851576,0.9910685559932211
2013-12-10,-1,-0.0004674661791059946,-0.0003632235380439643,-0.006609137157506964,0.006316488838114517,0.9905048165860447
2013-12-12,1,0.00020347467142406813,0.00021557777608712366,-0.008482550517778974,0.005587021674579538,0.9897909571679498
2013-12-16,-1,-0.0008085322707507836,-0.0006344988037275535,-0.006609137157506964,0.007844662987709796,0.990195594287955
2013-12-18,-1,-0.001277079591825755,-0.0010274050293230656,-0.008482550517778974,0.006316488838114517,0.9909892852585105
2013-12-20,-1,-0.0011318836764262247,-0.0009073022086534682,-0.013602247368239678,0.00645966636500807,0.990458009320936
2013-12-24,-1,-0.001144139219848293,-0.0009269412269155611,-0.016360872008753476,0.004687850327338577,0.9894182964161372
2013-12-27,-1,-0.001080270509864892,-0.0008791645182762715,-0.016360872008753476,0.008342418717960608,0.9876826847299486
2013-12-31,-1,-0.001046203431104214,-0.0008517622815580859,-0.017004406933388866,0.008574808842812314,0.9863347018567624
2014-01-03,-1,-0.0010329657791320074,-0.0008504583475828145,-0.017073589571878642,0.008574808842812314,0.9856346919910794
2014-01-07,-1,-0.0007800084747035156,-0.0006451979234803842,-0.017073589571878642,0.006097164404064609,0.9867974966668853
2014-01-09,-1,-0.0016179284428186496,-0.0013601961003790524,-0.017004406933388866,0.008574808842812314,0.9865107607957105
2014-01-13,-1,-0.004111742894286188,-0.003506952425825766,-0.01616962115223578,0.008747186230213444,0.987116016872804
2014-01-15,-1,-0.0032937291986365313,-0.0028309036098225033,-0.01616962115223578,0.008747186230213444,0.9863483435726442
2014-01-17,-1,-0.0037423228182532835,-0.003235415856768006,-0.015494263193665698,0.008767326983106612,0.9865521735141142
2014-01-22,-1,-0.0038059984694892002,-0.003317201088788085,-0.01390982811713693,0.008767326983106612,0.9874417665133828
2014-01-24,-1,-0.005104809398227583,-0.004451559367734952,-0.01122663224036668,0.010597437623098843,0.9869459837300084
2014-01-28,-1,-0.00419314277560388,-0.0036778604796420603,-0.01122663224036668,0.010597437623098843,0.9877141026333363
2014-01-30,-1,-0.004869254885666649,-0.004283870341219774,-0.005423936730127204,0.013903483720491699,0.9875883438967685
2014-02-03,-1,-0.004487339396680683,-0.003997113483045959,-0.0027796318183566215,0.013903483720491699,0.9879976106839369
2014-02-05,-1,-0.004686628084817302,-0.004159182466919644,-0.0038416686002012736,0.013903483720491699,0.9880090885510464
2014-02-07,-1,-0.003829475375755077,-0.0033949368395563536,-0.004156176190261014,0.01104107944305219,0.9898806617349664
2014-02-11,-1,-0.003751732830966873,-0.003334792461922568,-0.00521897377042085,0.009075404239809584,0.9901917544336188
2014-02-13,-1,-0.0038196769766704886,-0.003381338503593229,-0.00845408535888818,0.007589580510803966,0.9904963419179909
2014-02-18,-1,-0.0034852569288397056,-0.0030990900198275585,-0.00845408535888818,0.010920121831403496,0.9892483268340234
2014-02-20,-1,-0.003652034040627787,-0.003261564411387495,-0.007566531808931503,0.01150683883377065,0.9886893223841167
2014-02-24,-1,-0.0027181046049520275,-0.002449713463027886,-0.00845408535888818,0.01150683883377065,0.9885109744485423
2014-02-26,-1,-0.002008728290033322,-0.0018296262387568192,-0.00845408535888818,0.010442713668079927,0.9888817930639684
2014-02-28,-1,-0.0009393820414469413,-0.0009019602727241517,-0.00845408535888818,0.010442713668079927,0.9885406252120262
2014-03-04,-1,-0.0019928185791900192,-0.001774648198731579,-0.007689329333855835,0.01150683883377065,0.9877773164383468
2014-03-06,-1,-0.002166381035511922,-0.001904945886623936,-0.009354558750162272,0.01150683883377065,0.9874796113180397
2014-03-10,-1,-0.0015841107003610364,-0.0014320736829231875,-0.012333374150103682,0.01150683883377065,0.9862890230492641
2014-03-12,-1,-0.0015376579123416072,-0.0013969743883341845,-0.01067723176419387,0.013562322002470269,0.985797843174144
2014-03-14,-1,-0.0015237084922316332,-0.0013986162684831306,-0.01566389871610443,0.013562322002470269,0.9860817743151997
2014-03-18,-1,-0.0003902936585002403,-0.00032457944280927007,-0.01566389871610443,0.00969758905337064,0.9872015436124086
2014-03-20,0,-1.3121793780212295e-05,9.559846823573671e-05,-0.016694942404767238,0.010798255895423124,0.9847268956438132
2014-03-24,1,0.00046064045273409214,0.0006178147940303367,-0.01566389871610443,0.012165543142576972,0.9850909205714633
2014-03-26,-1,-0.0005459333450411162,-0.00046701375163092683,-0.01067723176419387,0.012165543142576972,0.985821549580557
2014-03-28,1,0.00030535219306630003,0.0003822454835083816,-0.01566389871610443,0.009683938274168878,0.986296237539488
2014-04-01,1,0.0009548563898284093,0.0010936520864251722,-0.01566389871610443,0.007896764763752326,0.9873833019665903
2014-04-03,1,0.0006376341817660057,0.0007492040266304952,-0.010855709711715227,0.011745502013334345,0.986642785330971
2014-04-07,-1,-0.0004300620531580732,-0.0003859776613029671,-0.006412589213758665,0.011745502013334345,0.9873986722872602
2014-04-09,1,0.0006620386964467596,0.000788056923529933,-0.006412589213758665,0.00925337695728386,0.9882906595586782
2014-04-11,-1,-0.00028293717465269365,-0.0002814382945161447,-0.00155826175691979,0.00925337695728386,0.9891891868993066
2014-04-15,-1,-0.0005346956672686695,-0.0004908227662112682,-0.0035070034633792454,0.00925337695728386,0.988165262375191
2014-04-17,1,0.0005139723333164988,0.0006081693124655524,-0.0035070034633792454,0.008591880223969162,0.9912856669578055
2014-04-22,1,0.0014362880362005048,0.0016533903517183795,-0.00703052507543004,0.006756065622016758,0.9912662834803653
2014-04-24,1,0.002054622814343736,0.002376070718116029,-0.00703052507543004,0.00790250173764191,0.9908421641959018
2014-04-28,1,0.0015927374216536414,0.0018338193177133172,-0.006438697141997707,0.00790250173764191,0.9918872187130376
2014-04-30,1,0.002136953111330557,0.002448454811461413,-0.006438697141997707,0.00790250173764191,0.9918599624782426
2014-05-02,1,0.0023856154355921108,0.002729646286360589,-0.00703052507543004,0.00790250173764191,0.9924279932017177
2014-05-06,1,0.0019418584687198371,0.002231746316211587,-0.006438697141997707,0.008591880223969162,0.99213833006339
2014-05-08,1,0.002160446216593392,0.0024732259258045956,-0.006438697141997707,0.00790250173764191,0.9923822730848592
2014-05-12,1,0.0026032303824321296,0.0029563874858878295,-0.006438697141997707,0.00794523483842087,0.9922207772433954
2014-05-14,1,0.0018853159822715228,0.0021584002189499038,-0.006798475590479583,0.00794523483842087,0.9921505397304858
2014-05-16,1,0.0016101214638067848,0.0018467730651746314,-0.005785496169674881,0.00794523483842087,0.9920405253438509
2014-05-20,1,0.0016509787089966903,0.001919470727471075,-0.004207394775840345,0.008640932833115745,0.9924231391164572
2014-05-22,1,0.0017270404785477435,0.0020085490304844163,-0.002308231536170081,0.008840959369571535,0.9925882517611238
2014-05-27,1,0.001904643916012864,0.002217429308040869,-0.002308231536170081,0.00939280112734417,0.9921494496411193
2014-05-29,1,0.0021462597153645343,0.0024420700997163356,-0.002308231536170081,0.00959628508577737,0.992059562926015
2014-06-02,1,0.002547972237755538,0.002947667875259789,-0.0009185636388617495,0.011246939572876495,0.9923276302220474
2014-06-04,1,0.002540752831288004,0.002900334335064987,-0.0009185636388617495,0.00959628508577737,0.9930657046092738
2014-06-06,1,0.001855446080650431,0.0020574440726141025,-0.0004572984755283094,0.00959628508577737,0.9928186582363443
2014-06-10,1,0.002735171549277139,0.003096994830952318,-0.002378795573367375,0.008748306198223157,0.9932200780599731
2014-06-12,1,0.0015185957584600113,0.0016912773964389935,-0.0004572984755283094,0.00959628508577737,0.9931175255194576
2014-06-16,1,0.0014070966126286757,0.0015512378439225037,-0.002378795573367375,0.00959628508577737,0.9922714697816817
2014-06-18,1,0.001625799865670238,0.0017415486633918873,-0.004314549717902003,0.00959628508577737,0.9918810671847954
2014-06-20,1,0.0017055638729863475,0.0018240064301587356,-0.004314549717902003,0.010912845891414589,0.9918997730771747
2014-06-24,1,0.0019570237253125912,0.0020898883804428676,-0.004314549717902003,0.006653969542610455,0.992381434801331
2014-06-26,1,0.001884213954237879,0.0019370891693359185,-0.005742933393706358,0.0051351491699976465,0.9922337840562145
2014-06-30,1,0.00249558854484668,0.0026290519937045616,-0.005742933393706358,0.004174363803290427,0.9927342715324238
2014-07-02,1,0.0025894584518433954,0.002778106635435729,-0.008161453465279044,0.004743134351540785,0.9920933154891312
2014-07-07,1,0.0025199660172624382,0.0027415593903833604,-0.010413971607481486,0.006115205833244021,0.9896343681986576
2014-07-09,1,0.0023203975256693926,0.002513318536683929,-0.010413971607481486,0.006719669076805391,0.9895687555829522
2014-07-11,1,0.0026602972256898993,0.002905028314195498,-0.010413971607481486,0.005914557993315968,0.9904241418885368
2014-07-15,1,0.0013979628682890197,0.001438974817741205,-0.006463970318021434,0.0067222935525398705,0.9909554636237325
2014-07-17,1,0.0016431103037749147,0.0017517551320073259,-0.005976236659433567,0.0067222935525398705,0.9914530843214872
2014-07-21,1,0.0019379891002073784,0.0020798812280357314,-0.005976236659433567,0.0067222935525398705,0.9913582747636989
2014-07-23,1,0.0023360354070811515,0.002570407568085093,-0.005976236659433567,0.0069826105887237574,0.9912668459263003
2014-07-25,1,0.002110149461243584,0.002309064096396566,-0.005976236659433567,0.0069826105887237574,0.9911672480178118
2014-07-29,1,0.0019832984679184302,0.002165631489868962,-0.005976236659433567,0.0069826105887237574,0.9912699608045855
2014-07-31,1,0.001715293475417195,0.0018513884944062853,-0.004038192292857825,0.006003954814445075,0.9919635198039701
2014-08-04,1,0.0016890700829776913,0.0018067424321378809,-0.0025729572176311387,0.005914557993315968,0.9943519375244677
2014-08-06,1,0.0012124147793623476,0.001212436497570927,-0.0014350367734195719,0.0044504201725249345,0.9948980052830729
2014-08-08,1,0.0015538659404751047,0.0016522555000621805,-0.0014350367734195719,0.00356480455122448,0.9946921695364703
2014-08-12,1,0.0016041132750415899,0.001714054830706687,-0.0014350367734195719,0.00356480455122448,0.994407788057453
2014-08-14,1,0.0017618020326095772,0.0018876102347696743,-0.0033395542883119037,0.003003501316048768,0.993981535034083
2014-08-18,1,0.0006374879875040737,0.0006878838992762021,-0.005641249761288372,0.0025029176271409623,0.9945332900752063
2014-08-20,1,0.0006283910152056506,0.0006937387471997344,-0.0060529586586419775,0.0025029176271409623,0.9938984810935014
2014-08-22,1,0.0006408975742620297,0.0007395072893686912,-0.006813288839191501,0.001884622111862037,0.9936372582056309
2014-08-26,1,0.0005455656659784929,0.0006155198726450438,-0.008922104646531528,0.001884622111862037,0.9926619758433929
2014-08-28,1,0.00017681421683603377,0.00018283056215617224,-0.011808890160366278,0.0026459414993337607,0.9920193675493596
2014-09-02,1,0.00013050703232670815,0.00014464486979892134,-0.011808890160366278,0.0026459414993337607,0.9911835122109027
2014-09-04,-1,-0.00019885219826657824,-0.0001544506275201224,-0.011808890160366278,0.0042677888728367384,0.9905729775538931
2014-09-08,-1,-0.0002376347583410774,-0.00017989108604400146,-0.01114795556466331,0.007276908527889841,0.9908659836311646
2014-09-10,-1,-0.001684121258161753,-0.0013224635701644268,-0.01114795556466331,0.00741071172003333,0.9905817039849903
2014-09-12,-1,-0.0018187726311279526,-0.001478377504743311,-0.01114795556466331,0.00741071172003333,0.9898631787001738
2014-09-16,-1,-0.0018493533451805096,-0.0015171597093988581,-0.011506263846717829,0.00950288571886965,0.9889870418436716
2014-09-18,-1,-0.00180935182350779,-0.0014652332942331247,-0.011506263846717829,0.008536877713233982,0.9893561940012409
2014-09-22,-1,-0.0022496836901215985,-0.0018838958947536204,-0.011128628814269396,0.00950288571886965,0.9891010208561211
2014-09-24,-1,-0.0020585395748472304,-0.0017501423261691413,-0.011128628814269396,0.00950288571886965,0.9880954696475077
2014-09-26,-1,-0.0024187541023855752,-0.002050212486071985,-0.009393680514359569,0.010461441066525147,0.9880148591733404
2014-09-30,-1,-0.0030198147365679794,-0.0025953493439687973,-0.007678226574437854,0.010461441066525147,0.9878316631647691
2014-10-02,-1,-0.0026052530790172,-0.0022573596653303494,-0.007678226574437854,0.012336157346816562,0.9877808594256581
2014-10-06,-1,-0.0028679677033544527,-0.002428367660426127,-0.007678226574437854,0.01442325616972919,0.9870833308466005
2014-10-08,-1,-0.002916699232508916,-0.002459992867591216,-0.004096928266614459,0.01442325616972919,0.9873679133675003
2014-10-10,-1,-0.004757037856075416,-0.004059192378026504,-0.0007584835929819753,0.015205818803893446,0.9867245200430829
2014-10-14,-1,-0.00464239000264157,-0.003958475801692553,0.00123080326189993,0.015784916087307,0.9864047476713198
2014-10-16,-1,-0.0042411025153447635,-0.003608841118130546,0.00047231966891795457,0.015784916087307,0.9866201941733176
2014-10-20,-1,-0.003120775514896682,-0.002646601158688389,-0.0015857816352091185,0.015784916087307,0.9879840538595843
2014-10-22,-1,-0.0029978506886039636,-0.0025363964969110217,-0.0015857816352091185,0.012677665392271987,0.9898304777032043
2014-10-24,-1,-0.002021607387601784,-0.0017058143976242611,-0.0028099527887288384,0.010083285689766092,0.9908456855628941
2014-10-28,-1,-0.0019639943145158874,-0.0016543745010619564,-0.0015111211074760977,0.010083285689766092,0.9912589648274444
2014-10-30,-1,-0.001010638224310293,-0.0008453446390068129,-0.0006858355212352063,0.010083285689766092,0.991704728626823
2014-11-03,-1,-0.0007770074571892124,-0.0005784364503503797,-0.0015111211074760977,0.005517877081365839,0.9915978731989729
2014-11-05,1,0.0001403513869965214,0.00023210143214217092,-0.0015111211074760977,0.005517877081365839,0.9924861670762376
2014-11-07,1,0.0012902236829941374,0.0013904992815638268,-0.0015111211074760977,0.004551838452127693,0.9932558423630372
2014-11-11,1,0.002145682891356411,0.002370693266884134,-0.003013029624845792,0.004380037799813129,0.9928298422966122
2014-11-13,1,0.0019359320344450432,0.0021511760629918516,-0.004004501009750871,0.003986240393094243,0.9912284699425646
2014-11-17,1,0.0021303942092335522,0.002416765763154744,-0.005262257196450215,0.00383458309657893,0.9909698822279761
2014-11-19,1,0.002648142201030302,0.0030371948936356663,-0.005262257196450215,0.004673745792564851,0.9892252123026719
2014-11-21,1,0.0025849314012471,0.002961257435919418,-0.005262257196450215,0.008107159081792397,0.9890779729960404
2014-11-25,1,0.0028255485651310103,0.0032530536356467706,-0.005262257196450215,0.008107159081792397,0.988914365402344
2014-11-28,1,0.0033198747890861692,0.003805031315679043,-0.005262257196450215,0.004699302311621785,0.9892688824440458
2014-12-02,1,0.003022982972543735,0.003505030271553006,-0.00474758215735201,0.0038431019362645744,0.9901406855600009
2014-12-04,1,0.002783624747704038,0.0031713677759574923,-0.006067166999057228,0.003601774897550457,0.9900275834983767
2014-12-08,1,0.0024492921685065855,0.002794460457503825,-0.006067166999057228,0.003601774897550457,0.9901227529017191
2014-12-10,1,0.001863557037653044,0.0021536871071370705,-0.00474758215735201,0.0036134760089467964,0.9908262087413866
2014-12-12,1,0.00038093005950575517,0.00048732088581183454,-0.0034610598323946812,0.0036134760089467964,0.9929748989838768
2014-12-16,1,5.178305052621139e-05,9.496387366429872e-05,-0.0056981197853528155,0.0030528528618028513,0.9912479955243748
2014-12-18,1,0.0017016827313266632,0.0019620358484509224,-0.006971582527027332,0.0015319739625551882,0.9919068101454469
2014-12-22,1,0.0022000463279269497,0.0025211059730312186,-0.006971582527027332,0.0018070914321054357,0.990721859391609
2014-12-24,1,0.0016589305221039452,0.0018519270363443632,-0.006971582527027332,0.002399134367621562,0.991016401800318
2014-12-29,1,0.0018502351054722412,0.0020597320590750997,-0.010239972084374969,0.002399134367621562,0.9888817788331105
2014-12-31,1,0.0014819298179630088,0.0016381167667481604,-0.010239972084374969,0.006889362661092281,0.9887057749392524
2015-01-05,1,0.001301923290721713,0.0014429602217184727,-0.010239972084374969,0.010752976478828908,0.9874950534025406
2015-01-07,1,0.0011046029665647064,0.0012507207001440882,-0.008740499679196285,0.011290624083781217,0.987678852794212
2015-01-09,1,0.002083054667334196,0.0023819590751111342,-0.009340697920548221,0.010202805813530644,0.9876371381992508
2015-01-13,1,0.001938426198335532,0.002233572056573359,-0.009340697920548221,0.011290624083781217,0.985805179227505
2015-01-15,1,0.00016059470737557008,0.0001984200038447232,-0.006550319663755064,0.01372653972632135,0.9861525439801943
2015-01-20,1,0.00016988075675706285,0.00021470158185598446,-0.0056271277711561615,0.015061648729577243,0.9866651581499498
2015-01-22,1,0.0013751630549431355,0.001573484533706346,-0.0056271277711561615,0.011735660418199848,0.9878195968601591
2015-01-26,1,0.0015856147372119347,0.0018060730060771996,-0.006550319663755064,0.011735660418199848,0.9874829525227647
2015-01-28,1,5.784262860364501e-06,1.9705667356166593e-05,-0.0025244565815965144,0.014156282285119271,0.9889013223047335
2015-01-30,-1,-0.0001016714468547917,-8.219861572644649e-05,-0.00205906473150045,0.015061648729577243,0.9882594529990434
2015-02-03,1,0.0012976531591339605,0.001444779189559485,-0.004038627903132625,0.01154732737412276,0.9891461952496724
2015-02-05,1,0.001128074283787135,0.0011867718757089865,-0.0056271277711561615,0.010497707376418917,0.9890562642352393
2015-02-09,1,0.0003063659510517824,0.0003599693422173416,-0.004038627903132625,0.010497707376418917,0.9892468894836811
2015-02-11,1,0.0014006670159628183,0.0015007508765239848,-0.003969897092040546,0.010497707376418917,0.9904908842961605
2015-02-13,1,0.0020353398044155218,0.0021663490350722616,-0.0039712658297261175,0.006962448010911129,0.9918289849096352
2015-02-18,1,0.0023307460708232126,0.002484400798134615,-0.005905531664654835,0.005386599752774547,0.991599050293004
2015-02-20,1,0.002335008682532275,0.0024688193711082753,-0.005911605209349925,0.003616614306941509,0.9915045580084367
2015-02-24,1,0.0014407362048761705,0.0014770300260795728,-0.005161904723950869,0.005386599752774547,0.9908624025738302
2015-02-26,1,0.001836204072262504,0.0018475254714431686,-0.005911605209349925,0.0032244487599568617,0.9904460315602788
2015-03-02,1,0.00262141291864758,0.00274451722338849,-0.005911605209349925,0.005386599752774547,0.9893746352917797
2015-03-04,1,0.0016042874261648988,0.0016156630089945907,-0.005911605209349925,0.008517239451206015,0.9891923627381703
2015-03-06,0,-4.195530384890403e-05,0.00023319623268194844,-0.006303175027755512,0.01566701784048715,0.9877331455772717
2015-03-10,-1,-0.0006136736089123404,-0.00026541587657757384,-0.0058522664240814775,0.016246611685249483,0.9869805729814927
2015-03-12,0,-0.00022486559376326066,6.860753317225032e-05,-0.0058522664240814775,0.016246611685249483,0.987834913138618
2015-03-16,1,9.903759551801333e-05,0.0003201169849926732,-0.006341007541317958,0.016246611685249483,0.9875689111789079
2015-03-18,-1,-0.0006094419466943622,-0.0003046236904171775,-0.005330891974391452,0.016246611685249483,0.9880368839388771
2015-03-20,-1,-0.0007800041235049417,-0.0004813992545047067,-0.005432751024793571,0.016246611685249483,0.9878341865188126
2015-03-24,1,5.942140414874272e-06,0.0002184191208164406,-0.005432751024793571,0.009484714375283521,0.9890862204346624
2015-03-26,-1,-0.0003599083559278249,-0.0001388694406091027,-0.005432751024793571,0.010126734121575404,0.9885699330911605
2015-03-30,1,0.0016893690489957827,0.0017491347957679702,-0.006341007541317958,0.006914056603687935,0.9902987999125825
2015-04-01,1,0.002275815742254787,0.0024632908286837214,-0.005500961716836113,0.005376759780077656,0.9912506938522431
2015-04-06,1,0.001983154950132255,0.0021673600221054088,-0.0053265272331962975,0.005376759780077656,0.9911767862325204
2015-04-08,1,0.002784828723781192,0.003123480919946179,-0.0053265272331962975,0.005376759780077656,0.9900574333915173
2015-04-10,1,0.002060575027690366,0.002280550817315506,-0.005500961716836113,0.006914056603687935,0.9893938275671006
2015-04-14,1,0.0020781154036769306,0.002305454120479472,-0.005762296188911908,0.005376759780077656,0.9894185014602414
2015-04-16,1,0.0021349893502924126,0.002366788188901677,-0.005762296188911908,0.0050611487835745435,0.989611195513702
2015-04-20,1,0.002042114978201717,0.002260166381211113,-0.007086713573847526,0.006181230196275892,0.9889225057849045
2015-04-22,1,0.0021123907223307174,0.002343195449272727,-0.007086713573847526,0.008779574886447983,0.9883608322886233
2015-04-24,1,0.0020060882856198126,0.0022502149813664898,-0.005762296188911908,0.006787724191882162,0.9895666421525147
2015-04-28,1,0.001494763778309213,0.0016414835534482267,-0.005762296188911908,0.006787724191882162,0.9893211234226817
2015-04-30,1,0.0012797433937681362,0.001417196975521897,-0.007086713573847526,0.006787724191882162,0.9892641190036711
2015-05-04,1,0.0015240644433416625,0.0016689283876124953,-0.007086713573847526,0.006074179454033258,0.991370757803789
2015-05-06,1,0.001470683961174646,0.001571058667096218,-0.007086713573847526,0.005108932293276284,0.9930068366587058
2015-05-08,1,0.0010442297635978254,0.0010572833032946555,-0.008571306299254304,0.004329563558367054,0.9929289682720349
2015-05-12,1,0.0004643326265512636,0.0005573081403252497,-0.0072114102776912065,0.005108932293276284,0.9929046883863312
2015-05-14,1,0.001272535870453653,0.001355650162710058,-0.011088634826750047,0.0033074716026762156,0.9922675427314968
2015-05-18,1,0.0014825613435579094,0.0016187083606200485,-0.011088634826750047,0.00324407376613069,0.9925925950997901
2015-05-20,1,0.002044633671531023,0.002253445648004746,-0.011088634826750047,0.00324407376613069,0.9927777917307572
2015-05-22,1,0.0020207948646146804,0.0022186931998413695,-0.011088634826750047,0.004782622893147152,0.9925187626248387
2015-05-27,1,0.0012806578888882659,0.00136204941362739,-0.011088634826750047,0.004782622893147152,0.9926691741408579
2015-05-29,1,0.0006791995623408288,0.0006952170044616347,-0.012536545195573755,0.004782622893147152,0.9920269366968711
2015-06-02,1,0.0005862198560404248,0.0006363495043294394,-0.012536545195573755,0.00324407376613069,0.9917027890269203
2015-06-04,1,0.0005487581133106883,0.0005755287881789309,-0.012536545195573755,0.0028020868104843967,0.9891824493278712
2015-06-08,-1,-0.00023325890562976863,-9.483097435938534e-05,-0.012536545195573755,0.0033932641896627473,0.9897059687283732
2015-06-10,-1,-0.0006281341153680454,-0.00038311117613568275,-0.012839295198142925,0.0030092067945861655,0.9896786496549957
2015-06-12,-1,-0.0011626531839865142,-0.0008552031984236754,-0.012536545195573755,0.0035670528713718816,0.9902577405566301
2015-06-16,-1,-0.00092562728768044,-0.000691409176076039,-0.012212046267700581,0.003434914536328454,0.9903289040889213
2015-06-18,-1,-0.0009601931865009451,-0.000726186858656321,-0.012212046267700581,0.003434914536328454,0.9900226361226256
2015-06-22,-1,-0.0014799046650573742,-0.0011277106783514235,-0.012212046267700581,0.0031604150715488478,0.9904326006567795
2015-06-24,-1,-0.002028029851785132,-0.0016112478257976858,-0.01127430530522473,0.0031604150715488478,0.9905524299627424
2015-06-26,-1,-0.0021056121994554593,-0.0017361849223944468,-0.01127430530522473,0.0031604150715488478,0.9903539978349566
2015-06-30,-1,-0.002343714799412342,-0.0019601933959182685,-0.010963266846934711,0.004729477084540728,0.988862410947421
2015-07-02,-1,-0.0027912987456136023,-0.002333734309378806,-0.006644931816695451,0.00673830659998642,0.9889729183390912
2015-07-07,-1,-0.0022305687771322943,-0.0018692021471614574,-0.006644931816695451,0.004729477084540728,0.9894998347963567
2015-07-09,-1,-0.001893573337316077,-0.001612730063317195,-0.004026518444340493,0.0067425612749873205,0.9896511776123076
2015-07-13,-1,-0.001399756166342316,-0.0011947969085240669,-0.004026518444340493,0.007497833344180423,0.989782510671725
2015-07-15,-1,-0.0014299588079357286,-0.0012314066708096903,-0.004026518444340493,0.007497833344180423,0.9901060965531978
2015-07-17,-1,-0.001212508441426073,-0.0010319960101242472,-0.003156659419212526,0.0033139161803315267,0.99108586898788
2015-07-21,-1,-0.0011385113556670553,-0.0009826876949969696,-0.0020873719050474716,0.004418071937845143,0.9910763795600478
2015-07-23,-1,-0.0011126640697035476,-0.0009826231382580198,-0.0036793841158110187,0.004418071937845143,0.989570137041097
2015-07-27,-1,-0.00280968031285757,-0.0024436606286526216,-0.0036793841158110187,0.004418071937845143,0.9862854279780668
2015-07-29,-1,-0.0015070275080880918,-0.0012953432105091895,-0.0036793841158110187,0.0023356326214565865,0.9870218013020113
2015-07-31,-1,-0.0015237049324774918,-0.00130543140982347,-0.0036793841158110187,0.0023356326214565865,0.9893911908789761
2015-08-04,-1,-0.001520460780699026,-0.0013165894638846839,-0.01074919859449629,0.0023356326214565865,0.9873708481160699
2015-08-06,-1,-0.0011616339158334555,-0.0010047564532209554,-0.01074919859449629,0.004418071937845143,0.9857574941941709
2015-08-10,-1,-0.0010151707193111765,-0.0008583447332136183,-0.014208137731144516,0.006541602590480108,0.9847246195228643
2015-08-12,-1,-0.0013941261071217215,-0.0011805931063842677,-0.020589149427716114,0.011367149801686014,0.9837540557688197
2015-08-14,-1,-0.0011302136750875095,-0.0009768480718089557,-0.020589149427716114,0.011367149801686014,0.983080895985771
2015-08-18,-1,-0.001373242139343265,-0.0011678125579601887,-0.020589149427716114,0.016541039230459804,0.9811282061552735
2015-08-20,-1,-0.0017662751244429272,-0.0015678321252180758,-0.012905825673599372,0.016541039230459804,0.982368346617039
2015-08-24,-1,-0.002358870931611274,-0.002099293885810638,-0.01076036907406875,0.016541039230459804,0.985307101512306
2015-08-26,-1,-0.0019164710591608176,-0.001704478987043521,-0.01150971688095545,0.015215808289176472,0.9864093460407157
2015-08-28,-1,-0.0012450300349324543,-0.0011281307761593332,-0.012529548073328048,0.011420907720269064,0.9861506554646745
2015-09-01,-1,-0.0019413681074879681,-0.0017512791120462814,-0.01150971688095545,0.014524838914286681,0.9868598764816384
2015-09-03,-1,-0.0007978518190517058,-0.0007469558028583003,-0.01150971688095545,0.014095364762848082,0.9874923863001864
2015-09-08,-1,-0.000478668108701517,-0.0004782584620208653,-0.010626551157772174,0.011183363094780824,0.9881154891018014
2015-09-10,-1,-0.0006617532897323216,-0.0006424019639307303,-0.008721705247215548,0.014095364762848082,0.9880371264524533
2015-09-14,-1,-0.0010296393304477659,-0.0009769137435583913,-0.007245245658977444,0.014095364762848082,0.9885591484049214
2015-09-16,0,-1.2738757972026302e-05,5.0482123388745966e-05,-0.010680920743067023,0.010230212929089277,0.9896461681642174
2015-09-18,-1,-0.0005907434210868179,-0.0005715827800977434,-0.008739828442313831,0.01075520500435406,0.9895977576030253
2015-09-22,-1,-0.0008193100484749117,-0.0007620894713926067,-0.007245245658977444,0.01075520500435406,0.990695347448116
2015-09-24,-1,-0.000899950378183415,-0.0008541718763573336,-0.004468684572729779,0.012721127670304408,0.9895605692010757
2015-09-28,-1,-0.0016479534554092443,-0.0015462711472147806,-0.004252666699947686,0.012721127670304408,0.9898171297701024
2015-09-30,-1,-0.0004739237739110262,-0.0004195415956681002,-0.006288934767691913,0.01075520500435406,0.9896283211720887
2015-10-02,-1,-0.00022120181430866648,-0.00014796473678286356,-0.006288934767691913,0.01075520500435406,0.9889358254887247
2015-10-06,1,0.00014464445551345398,0.0002877760013992984,-0.004252666699947686,0.010730360361557646,0.9894324295173121
2015-10-08,1,0.0011866493010299962,0.0014721308236246532,-0.006613357832004345,0.008917383376668515,0.9898938715475457
2015-10-12,1,0.0015408121831151742,0.0019194729557216294,-0.008788325816433374,0.012375957698171583,0.9884617126968849
2015-10-14,1,0.0009695612964126555,0.001285289591463465,-0.006229071516990767,0.012375957698171583,0.989113466071453
2015-10-16,1,0.00144042385525167,0.001790309726606596,-0.00936922052468138,0.009000371494962453,0.9879466477985809
2015-10-20,1,0.0012560447795927341,0.0015649084712892163,-0.00936922052468138,0.013173353267557454,0.9871326350198735
2015-10-22,1,0.0023457320946778,0.002819582590308495,-0.014798569283388472,0.013173353267557454,0.9863095106691668
2015-10-26,1,0.0021893450247434695,0.002624387755127402,-0.014798569283388472,0.013173353267557454,0.9862516983199681
2015-10-28,1,0.0018698635280251412,0.002228151101647034,-0.00936922052468138,0.010433871183572523,0.9876430127852694
2015-10-30,1,0.001817832600026036,0.0021989962243010464,-0.007081821698247186,0.008270021205135494,0.9894690360577443
2015-11-03,1,0.0019401080959216314,0.002309921532958164,-0.00936922052468138,0.010982302398076575,0.9881660408815567
2015-11-05,1,0.0020562279066637544,0.002425863005657545,-0.01301333621077601,0.010625257153683416,0.9879697942732312
2015-11-09,1,0.0018813482358910959,0.0022272236390113564,-0.008216361579640646,0.006389954525754575,0.9892804652231325
2015-11-11,1,0.0017995677014915124,0.0021551061276612465,-0.007945091081670063,0.006389954525754575,0.9896342971828632
2015-11-13,1,0.00038890626492856954,0.0005266295862229775,-0.006666559536968917,0.006389954525754575,0.9897598862570718
2015-11-17,1,0.0007978247899191417,0.000937851693797877,-0.006666559536968917,0.004516243115990241,0.9894717882517029
2015-11-19,1,0.0006096368233638896,0.0006949341864200959,-0.009177741576672574,0.0022572819405268724,0.9898104817411612
2015-11-23,1,0.00045372739114665675,0.000526773395337471,-0.009177741576672574,0.006913526561058396,0.989071651564937
2015-11-25,1,0.00030040929122319515,0.00036678930192664684,-0.009177741576672574,0.012195973259594877,0.9887985265764008
2015-11-30,1,0.0002503817707291902,0.00028892772472205143,-0.01381463485890037,0.012195973259594877,0.9878554683200735
2015-12-02,1,0.0005563726086978867,0.0006579706749789681,-0.01381463485890037,0.010761974316380414,0.9879737712927342
2015-12-04,1,0.0004185824474550495,0.00048717564305429456,-0.014588553876616756,0.006568248321531585,0.9882814441061656
2015-12-08,1,0.0006687967050113359,0.0007980213627305098,-0.016667037498099037,0.0037964942880011022,0.9872694342001099
2015-12-10,1,0.0005182882207373709,0.0006151422446544321,-0.016667037498099037,0.0021989783645058,0.9869516890193332
2015-12-14,-1,-0.0008663624516358423,-0.0007698588193949332,-0.016667037498099037,0.00971738561313381,0.9877782940797227
2015-12-16,-1,-0.0008180511663660288,-0.0006716653818882674,-0.01811954397533446,0.00971738561313381,0.9861480355498118
2015-12-18,-1,-0.0014079402629336522,-0.0012584897610440284,-0.014588553876616756,0.00971738561313381,0.9873438555040402
2015-12-22,-1,-0.0005474479421373037,-0.0004738370221350106,-0.014588553876616756,0.00971738561313381,0.9857431983252103
2015-12-24,-1,-9.047193800806756e-05,-5.9574738819153096e-05,-0.016667037498099037,0.00971738561313381,0.9839469656457929
2015-12-29,1,3.7309530431689143e-05,4.273398179341158e-05,-0.019267076492220703,0.01111915301307605,0.983052299081177
2015-12-31,-1,-0.0008174543446303112,-0.0007535749098985022,-0.017842012682917987,0.017330673898161418,0.9820439535335516
2016-01-05,-1,-0.001795294673237734,-0.001602911353631178,-0.023553198779824695,0.017330673898161418,0.980999869720386
2016-01-07,-1,-0.002858704010234381,-0.0025378093493322595,-0.015473569071442202,0.017330673898161418,0.9812022798592698
2016-01-11,-1,-0.003215564194239317,-0.002859399483165826,-0.024121453893531552,0.017330673898161418,0.9801895832934743
2016-01-13,-1,-0.0045580056704248376,-0.003970646897661912,-0.014901790709530677,0.017330673898161418,0.9814905492433116
2016-01-15,-1,-0.00473859164613393,-0.00409553480504204,-0.011412894360086828,0.022150667822266934,0.9797726713371598
2016-01-20,-1,-0.0042768959395437095,-0.0037427458457763804,-0.012193943260561894,0.022150667822266934,0.9795885162293366
2016-01-22,-1,-0.0021325863256125882,-0.0018742833260999199,-0.012193943260561894,0.015724628037482945,0.9820612451580802
2016-01-26,-1,-0.003070379354910115,-0.0026340942297679057,-0.012193943260561894,0.01268846381859668,0.982750910228375
2016-01-28,-1,-0.0025618154317581113,-0.002257865278134258,-0.009209291074959287,0.011815897809678191,0.9836866352791741
2016-02-01,-1,-0.0013974131596846391,-0.001244344505040219,-0.009115133506974162,0.011815897809678191,0.9850337813061811
2016-02-03,-1,-0.0021344540359798255,-0.0018785439126031648,-0.008554841000028105,0.0130072174643476,0.9849176575554253
2016-02-05,-1,-0.001836656412374452,-0.0015894632939913108,-0.008554841000028105,0.012607488043048091,0.9846977217990777
2016-02-09,-1,-0.0019822801379181664,-0.0017952653024835754,-0.007880220591961933,0.012607488043048091,0.9846873253964689
2016-02-11,-1,-0.0025725285639019058,-0.0022868896654732983,-0.0091532972088368,0.015183682485552592,0.9828574600045724
2016-02-16,1,0.00027764840598837326,0.0003250511771956063,-0.011911470556606518,0.010554486965942397,0.9862962975331241
2016-02-18,-1,-0.0005200432515413418,-0.00044434146784775956,-0.0091532972088368,0.012607488043048091,0.9858008315815225
2016-02-22,-1,-0.0007397984137315593,-0.0005991910141371269,-0.0091532972088368,0.012607488043048091,0.9858773224953543
2016-02-24,-1,-0.0006026543226406345,-0.0005293231502082135,-0.009062564507373385,0.012607488043048091,0.9867403860587157
2016-02-26,1,0.0006085469542734174,0.0007037240208479778,-0.009062564507373385,0.010405853368074484,0.9874622090581496
2016-03-01,1,0.0009139523172277634,0.0010563195742371474,-0.006116520361508249,0.010951661681746579,0.9878372709138232
2016-03-03,1,0.0022082923807227135,0.0025797049751984545,-0.0028747096417205205,0.010037163864518982,0.9895718228701477
2016-03-07,1,0.0028102508092297486,0.003255804801725916,-0.005190670678563883,0.009381074660021667,0.9896716111456711
2016-03-09,1,0.0019555554027380555,0.002243355194434702,-0.005190670678563883,0.010037163864518982,0.9893059630380727
2016-03-11,1,0.002116537533970477,0.002461288347283191,-0.00513744673044499,0.009381074660021667,0.9909267394020226
2016-03-15,1,0.00105241448700155,0.0012517160301089062,-0.00283466723616603,0.009381074660021667,0.9918510951607197
2016-03-17,1,0.00243473528315398,0.002874489630502495,-0.00513744673044499,0.008565432939860491,0.9929587818074883
2016-03-21,1,0.0025942145646084885,0.0030536056460834004,-0.00513744673044499,0.008565432939860491,0.9931121800919477
2016-03-23,1,0.0020784767290006664,0.0024663843785454505,-0.00283466723616603,0.008565432939860491,0.9936589143886593
2016-03-28,1,0.0018847388714139553,0.0022217848117455745,-0.005019649079114049,0.008565432939860491,0.993400743450133
2016-03-30,1,0.0028304171630019605,0.0033091034601057225,-0.005019649079114049,0.008565432939860491,0.9933622394097347
2016-04-01,1,0.0032024644720540234,0.003744881589010038,-0.005230657205518719,0.008309586610983435,0.9923625420280916
2016-04-05,1,0.002755435068683542,0.003225681592144043,-0.005459099977411371,0.008309586610983435,0.9923225599115671
2016-04-07,1,0.002897377338502244,0.003367754361505044,-0.005603677675122307,0.0066494069234729405,0.9912141384970725
2016-04-11,1,0.002662267626392561,0.0030285639479961184,-0.005603677675122307,0.006625422872657829,0.9913430842015931
2016-04-13,1,0.0034894113265288625,0.004008515634481388,-0.006708858546429823,0.0052507751931510456,0.9902774476977048
2016-04-15,1,0.003398874130754853,0.003910989869686454,-0.006708858546429823,0.005417224992281977,0.9904244636126215
2016-04-19,1,0.003400948970556708,0.003897154014309913,-0.008869384510121873,0.005055502339863305,0.9899815420241104
2016-04-21,1,0.0031396087974891566,0.0035848258704000713,-0.00919652407426515,0.005055502339863305,0.9897821129895128
2016-04-25,1,0.0029485553407303912,0.0033713174328274705,-0.010180364063434817,0.006039604312794609,0.9888263619068862
2016-04-27,1,0.0037969920557106417,0.004336748564248408,-0.010180364063434817,0.005733693958668236,0.9889021040319936
2016-04-29,1,0.0029282177159138615,0.0033491853590902894,-0.00919652407426515,0.0075748297718166045,0.9898470857519588
2016-05-03,1,0.0025957239741678734,0.0029662453186690405,-0.008869384510121873,0.0075748297718166045,0.9904884793993652
2016-05-05,1,0.0010468651845909633,0.0012119201520423679,-0.004402507787343681,0.0075748297718166045,0.9929987879282725
2016-05-09,1,0.0007179584847268591,0.0007651275031416094,-0.004402507787343681,0.007639029676801543,0.9929759110982804
2016-05-11,1,0.0011628539273459261,0.0013052532653656304,-0.004371179212435276,0.007362999605496681,0.9936684136421255
2016-05-13,1,0.0004816441523925605,0.0005017721120614902,-0.007236980214928467,0.007362999605496681,0.992492785253443
2016-05-17,1,0.0006412062389876798,0.0006841223857478864,-0.0068620392967409845,0.007362999605496681,0.9924617985530219
2016-05-19,1,0.0005623508863733084,0.0006171253793382192,-0.006607002075420614,0.007921270240220895,0.9923100739657941
2016-05-23,1,0.0006292832613319262,0.0006804345928354352,-0.004029975030055181,0.007362999605496681,0.9936343101353218
2016-05-25,1,0.0007436073417091669,0.0007552426386038299,-0.004029975030055181,0.007713861677646414,0.9935157729000337
2016-05-27,1,0.00029204013277419857,0.0003675017726036476,-0.00676805357201577,0.002682139642869783,0.9911414468642104
2016-06-01,-1,-0.00039280058373223367,-0.0001932397981561473,-0.00676805357201577,0.007713861677646414,0.9894628675563863
2016-06-03,-1,-0.0007885321063116063,-0.000521769949964987,-0.00676805357201577,0.008908218233090747,0.9882514926441044
2016-06-07,-1,-0.0009403938787711498,-0.000627294786052077,-0.008478955287387537,0.008285992545367304,0.9881195799486316
2016-06-09,-1,-0.0009952609882183576,-0.0006662818762416447,-0.010008653624960248,0.009964141943839617,0.9869052598916129
2016-06-13,-1,-0.0023833130514716774,-0.001875289428548407,-0.004222355101558743,0.012574431675239266,0.9870251488283944
2016-06-15,-1,-0.0017670290279881622,-0.0014162357556574204,-0.0035121847161119282,0.012574431675239266,0.9868139967581252
2016-06-17,-1,-0.001708055927987648,-0.0013517094028384733,-0.003494528032594647,0.010836380553590066,0.987179016648131
2016-06-21,-1,-0.0022002273902759157,-0.0017644218244109993,-0.0022438173513317653,0.010836380553590066,0.9868050395477047
2016-06-23,-1,-0.0009037431964898702,-0.0006660434293035998,-0.0022438173513317653,0.008002364200253187,0.9881882464860535
2016-06-27,-1,-0.0037515479268977934,-0.003141527422022561,-0.0007442267016687884,0.009512625988200095,0.9892318726961936
2016-06-29,-1,-0.002139677668476115,-0.0017425218841224904,-0.0017346826742080338,0.008002364200253187,0.9919019041151981
2016-07-01,-1,-0.0018345634211768263,-0.001426197401321022,-0.002977108213368002,0.004469292498705515,0.993232763523867
2016-07-06,-1,-0.0024706774672447994,-0.0019681828475990345,-0.002977108213368002,0.00525358641624901,0.9922347227251824
2016-07-08,-1,-0.00012163850505288447,-3.4396124953430456e-05,-0.002117027716336458,0.008130198618496731,0.991736848012499
2016-07-12,1,0.00028233352738763124,0.0003404394274222183,-0.002977108213368002,0.005482524727532691,0.9921408211117687
2016-07-14,1,0.00044085413774989045,0.00047146022907594375,-0.002117027716336458,0.005268570844594433,0.9923528384398842
2016-07-18,1,0.00022537801887023365,0.00030161580780127995,-0.0031555414751158763,0.005268570844594433,0.9922654978011404
2016-07-20,1,0.0005419136132083749,0.0005564011539731602,-0.005699393713206038,0.007414697885929577,0.9915810194177654
2016-07-22,1,0.000730615810971967,0.0007492488907914058,-0.005699393713206038,0.007414697885929577,0.991484227101653
2016-07-26,1,0.0012889951907126668,0.0014224279546358536,-0.005699393713206038,0.007414697885929577,0.9915726430125003
2016-07-28,1,0.001276390947323226,0.0014464377825041657,-0.002804595655208064,0.007414697885929577,0.9921095927235722
2016-08-01,1,0.0006368621601335593,0.0006934830809650227,-0.0027057409748633718,0.007414697885929577,0.9919264005784593
2016-08-03,1,0.00045766913431015996,0.0004688073646279485,-0.0018584910934916323,0.006210578422828443,0.9930663009883879
2016-08-05,1,0.0014037965375821356,0.0014788721722802864,-0.0025628940959660593,0.005782527435199782,0.9952286874849173
2016-08-09,1,0.0016516481383724545,0.0018097552077928646,-0.0018584910934916323,0.006210578422828443,0.9955979714693334
2016-08-11,1,0.0018415948681929613,0.002030027182989488,-0.004789704655038756,0.005782527435199782,0.9934651013235636
2016-08-15,1,0.0014204926676374063,0.0015149042530661755,-0.0052204686634604175,0.006274446802288282,0.9922688252871392
2016-08-17,1,0.0013953165636935497,0.001484892153215815,-0.0052204686634604175,0.005782527435199782,0.9924190918184231
2016-08-19,1,0.0019591615749079924,0.0021705395512562104,-0.008487459486641867,0.00500793551101939,0.991668881066891
2016-08-23,1,0.002227324336234397,0.0024875167517136782,-0.009656486353601949,0.00500793551101939,0.9908745158587599
2016-08-25,1,0.0021316770767717597,0.002355149045754366,-0.009656486353601949,0.0061488408783633925,0.9905957155654947
2016-08-29,1,0.0021732964765475158,0.0024083590138470256,-0.009656486353601949,0.005104585007366759,0.9908948041221969
2016-08-31,1,0.002399833790618944,0.0026901990924276054,-0.009656486353601949,0.00656439529133039,0.9905334482194909
2016-09-02,1,0.0027250228413615903,0.0030891384509273015,-0.010846292121930029,0.00656439529133039,0.989802088370151
2016-09-07,1,0.002808454329167212,0.003173790412968648,-0.013240868216133883,0.002348630538231434,0.9890399920051857
2016-09-09,1,0.001407276484077097,0.0015974687476983508,-0.008896605737473471,0.0053042928552036045,0.9919908414500621
2016-09-13,1,0.0010666691653452205,0.0012055003897713204,-0.008896605737473471,0.0019704650341641353,0.9922441899870248
2016-09-15,1,0.0005773619335418398,0.0006398969273146299,-0.007359275381976069,0.0053042928552036045,0.992410843003222
2016-09-19,1,0.0005352391116981194,0.0006452909224608594,-0.007359275381976069,0.006586112471239836,0.992095146569844
2016-09-21,1,0.00040764035267870364,0.00045244505736026806,-0.00651945795719772,0.006586112471239836,0.9927101648670364
2016-09-23,1,0.00041314619984681486,0.0004410924451147668,-0.00651945795719772,0.00545161595903794,0.9930189173263481
2016-09-27,-1,-0.0006893972173188912,-0.0005051146627289342,-0.00651945795719772,0.007781111063129505,0.9923716156347965
2016-09-29,-1,-0.00013221602730819845,-3.29252029692993e-05,-0.0077558773047520955,0.005925743206454798,0.9913079780739322
2016-10-03,1,8.205222277175763e-05,0.0001506161111906614,-0.00651945795719772,0.005924861590482,0.9921716168643314
2016-10-05,-1,-0.0004824906015851947,-0.00034688166617558936,-0.00651945795719772,0.0070254369348244465,0.9916441576511605
2016-10-07,-1,-0.0004902183967226499,-0.00033950255869625223,-0.007130148046498546,0.0070254369348244465,0.9913574841403241
2016-10-11,-1,-0.0016186396879385953,-0.0013189331139059832,-0.006267331039189423,0.007297401879955854,0.9902745827839522
2016-10-13,-1,-0.001534277363720238,-0.001253875274887759,-0.006418446514619025,0.007294757032037458,0.9894815458449213
2016-10-17,-1,-0.0012821468868544912,-0.0010647340089352463,-0.003775649253983742,0.00790292649347323,0.9890050867791385
2016-10-19,-1,-0.0009541907505059344,-0.0007802415234746775,-0.0026008437870261446,0.007227278472663572,0.9897271908037351
2016-10-21,-1,-0.0010006465233919413,-0.0008193466675043239,-0.006340309501273065,0.007227278472663572,0.989262739783497
2016-10-25,-1,-0.00047432321864330964,-0.00034884250716630963,-0.006340309501273065,0.00790292649347323,0.9883903530948394
2016-10-27,-1,-0.000989626565147627,-0.0008199566971043188,-0.0026008437870261446,0.008429736853032423,0.989329823809376
2016-10-31,-1,-0.0006783626028052819,-0.0005463638263392804,-0.006340309501273065,0.008429736853032423,0.989243331798706
2016-11-02,-1,-0.0015910913027275193,-0.0013036936369745342,-0.006425457364682333,0.008227301174910762,0.9895252527089424
2016-11-04,-1,-0.0023728709935189407,-0.0019732432504925425,-0.006425457364682333,0.00966498686869622,0.9881995600188024
2016-11-08,-1,-0.0009998466099043351,-0.0007749839753981056,-0.006425457364682333,0.012967982433941108,0.9875886079548232
2016-11-10,-1,-0.0019394702993720035,-0.0015947830206919488,-0.005939672649970758,0.012967982433941108,0.9886143041059277
2016-11-14,-1,-0.0005492398621624075,-0.0003958276448790811,-0.006425457364682333,0.00966498686869622,0.9898890736312171
2016-11-16,-1,-0.0021067775161012787,-0.001647355507650882,-0.00957625822979908,0.00966498686869622,0.9891475206223093
2016-11-18,-1,-0.001496309253692678,-0.0011743921223627534,-0.00957625822979908,0.012191474636867046,0.9885664914687418
2016-11-22,1,0.0004412416729859206,0.0004894510925380498,-0.00957625822979908,0.005125920610575662,0.9899761624908768
2016-11-25,1,0.00046470246698067277,0.0005302585478943482,-0.00957625822979908,0.0043910801627247385,0.9900310253527592
2016-11-29,1,0.00019637493080463934,0.00026296996945337787,-0.00957625822979908,0.00690712435271954,0.9897518646514768
2016-12-01,-1,-0.00018156766627553953,-0.00010627359520226,-0.006725037253224513,0.00690712435271954,0.9902462447850591
2016-12-05,1,0.0001227595552669586,0.0001580295599828323,-0.0052471458244388374,0.009056032389120491,0.9903649054080104
2016-12-07,1,0.0021104065822430142,0.002339356117640442,-0.0052471458244388374,0.00690712435271954,0.9923926624227308
2016-12-09,1,0.0018675234035871312,0.0020657915774862845,-0.00610049543762743,0.00690712435271954,0.9919270349483671
2016-12-13,1,0.0015179735893185054,0.001674555861719604,-0.006019354496031052,0.00690712435271954,0.9919514810935821
2016-12-15,1,0.0008772373450928771,0.0009615432029851652,-0.004606474308512133,0.00690712435271954,0.9925594547628647
2016-12-19,1,0.0010763320251002222,0.0011633314185903506,-0.007230068706470125,0.005067337624264741,0.9915559017397063
2016-12-21,1,0.0007811978016805187,0.0007837851439195078,-0.007692192567571515,0.005067337624264741,0.9907502567954776
2016-12-23,1,0.0009624588033675323,0.000985593035058402,-0.012699035998691715,0.00418693007345643,0.9894534905863932
2016-12-28,1,0.0018114642221330212,0.0020661998209206833,-0.012842243215577906,0.0027074199258379362,0.9889553117747588
2016-12-30,1,0.00172027757638182,0.00195632630508474,-0.012842243215577906,0.0013308051168492779,0.9892424859416742
2017-01-04,1,0.002883075856807327,0.003283659555317937,-0.012842243215577906,0.0002552381011725797,0.989232435728074
2017-01-06,1,0.003010740787854488,0.0034181073173393294,-0.012842243215577906,0.0002552381011725797,0.9889948552745769
2017-01-10,1,0.0024189724296012514,0.0027470137997490226,-0.009818583290976103,0.0013308051168492779,0.9902720559582106
2017-01-12,1,0.002230211822490374,0.0025470501352097257,-0.012914256672811675,0.0013308051168492779,0.9883271815378928
2017-01-17,1,0.001942850636032105,0.0022368024586026844,-0.012914256672811675,0.0016477669028858916,0.9880629988197611
2017-01-19,1,0.0007751113119108692,0.0009250077481900373,-0.011076880258465786,0.0016477669028858916,0.9902481673676218
2017-01-23,1,0.00012813565415993182,0.00019246474106476673,-0.007917426992561297,0.004566275735335794,0.9907216115299857
2017-01-25,-1,-0.0008599451158608836,-0.0008086811098840243,-0.003769596340392564,0.008031937734314001,0.9916257790428136
2017-01-27,-1,-0.0015897804381496653,-0.0014654930794916988,-0.00240757161661467,0.009245645035602901,0.9920787333993613
2017-01-31,-1,-0.0013138446924053108,-0.001239265266869336,-0.003769596340392564,0.010333731205743891,0.9903338580225047
2017-02-02,-1,-0.001867702321605891,-0.0016477121756340333,-0.003769596340392564,0.009855803170375075,0.990639205025299
2017-02-06,-1,-0.0017817198930243274,-0.001558781782560938,-0.0031299229664272597,0.008031937734314001,0.9914518691628186
2017-02-08,-1,-0.0018628496390103262,-0.0016090737378715897,-0.0037814741073067884,0.008031937734314001,0.9914295482655928
2017-02-10,-1,-0.002430348681078843,-0.0020833629601491924,-0.0037814741073067884,0.0030490233124516914,0.9939073989218727
2017-02-14,-1,-0.0022926721719898294,-0.001979755839565614,-0.003748196160818379,0.0034004892978403453,0.9928602381455569
2017-02-16,-1,-0.0023858688047935115,-0.002072825702169579,-0.0035056949047477513,0.009165080103643992,0.9922026072259775
2017-02-21,-1,-0.0019302194068938508,-0.0016681759268094628,-0.004473925825801495,0.0034004892978403453,0.9925583383417079
2017-02-23,-1,-0.0014559799782239914,-0.0012707481774322871,-0.004473925825801495,0.00162665310885537,0.9929053539812385
2017-02-27,-1,-0.0009101818996090634,-0.0007993194168051023,-0.00491602807490044,0.00162665310885537,0.9928043210113463
2017-03-01,-1,-0.001565980600884111,-0.0013519683701612062,-0.004473925825801495,0.0027339427463502104,0.9939893363518661
2017-03-03,-1,-0.0013195904719492438,-0.0011458829098880486,-0.00491602807490044,0.005212422086861019,0.9933398117639348
2017-03-07,-1,-0.0019881384614802806,-0.0016922641711777393,-0.006161344422793284,0.005212422086861019,0.9921197239540404
2017-03-09,-1,-0.0024239034316847477,-0.0020775824278743455,-0.00491602807490044,0.005212422086861019,0.9924160826783649
2017-03-13,-1,-0.0026839574845148287,-0.002301454306678119,-0.006161344422793284,0.005212422086861019,0.9919296164468355
2017-03-15,-1,-0.0015161164492338843,-0.0012840721555776732,-0.006161344422793284,0.0050094361888182734,0.993300345399183
2017-03-17,-1,-0.0011138345516749797,-0.0009282277491225341,-0.006161344422793284,0.0050094361888182734,0.9933783930344174
2017-03-21,-1,-0.0013094415771393517,-0.001133600705837247,-0.0039841293221944,0.00568455107857218,0.9931730158495634
2017-03-23,-1,-0.0017394543700709484,-0.0014737710256787955,-0.00555037057089404,0.005968710338734632,0.9923488681740901
2017-03-27,-1,-0.0017309654251880225,-0.001480968152511825,-0.0039841293221944,0.006301997569852228,0.9921143397987483
2017-03-29,-1,-0.001496850212383155,-0.001258239533699976,-0.005334775404862578,0.006003005236424715,0.992562198147395
2017-03-31,-1,-0.0016617413998435806,-0.0013786273990803182,-0.005334775404862578,0.0055521053179480254,0.9929371123931455
2017-04-04,-1,-0.002021086022912221,-0.001759945717681238,-0.005334775404862578,0.006003005236424715,0.9917684606673575
2017-04-06,-1,-0.0029441447208887164,-0.002524402259315579,-0.005334775404862578,0.00724356267955674,0.9911795595251807
2017-04-10,-1,-0.0024415894782102193,-0.0021430713188406035,-0.0039841293221944,0.00745469222868485,0.9913753063433263
2017-04-12,-1,-0.0024146996269478996,-0.002118356191332794,-0.0041959344850171785,0.007775178920874029,0.9910582051410419
2017-04-17,-1,-0.0022899524532900228,-0.002003734187388709,-0.005979131341095233,0.007775178920874029,0.9908357085203834
2017-04-19,-1,-0.0007448049921539041,-0.0007124519894535147,-0.009186154246618342,0.007375748315086624,0.9906820707516216
2017-04-21,-1,-0.0004907963361406914,-0.0004698777545429245,-0.006795710831642061,0.007375748315086624,0.9912121467893693
2017-04-25,-1,-8.202376080448657e-05,-3.635979031071064e-05,-0.009186154246618342,0.0068742509697011026,0.9910269328878334
2017-04-27,-1,-0.0007295094371123386,-0.0006584913785654551,-0.009186154246618342,0.007375748315086624,0.9900782447283291
2017-05-01,-1,-0.0005431495004767754,-0.0005094617980852342,-0.010044441340204947,0.007375748315086624,0.9897496738475688
2017-05-03,-1,-0.000550762786408729,-0.0004631953764179878,-0.009186154246618342,0.007375748315086624,0.9907989303348427
2017-05-05,-1,-0.00028304230404767403,-0.00016671334835794468,-0.009186154246618342,0.006981079867097496,0.9904864951834842
2017-05-09,-1,-0.00017512690133345617,-6.180322663572725e-05,-0.009256837481851488,0.006353681781250012,0.9904167708406981
2017-05-11,-1,-0.0005138929053080143,-0.00048507005572591714,-0.009441767961090681,0.005895847866716116,0.9905695650762136
2017-05-15,-1,-0.00026085138930740173,-0.00016613753056556415,-0.009441767961090681,0.006790021924621046,0.9902102721323488
2017-05-17,-1,-0.0010209534387087174,-0.001017398357026333,-0.009441767961090681,0.006790021924621046,0.9902935656503604
2017-05-19,-1,-0.0005124101282149218,-0.00041690200309536194,-0.009441767961090681,0.005895847866716116,0.9905571690152123
2017-05-23,-1,-0.0008001294040846516,-0.0007509692571152924,-0.008576102746348978,0.0058821935197356885,0.9909630739056878
2017-05-25,1,0.00020951751594547807,0.0003969261840382468,-0.008576102746348978,0.0058821935197356885,0.9911037242521207
2017-05-30,1,0.0007010291711118732,0.0010250325989277246,-0.008343102776848542,0.005110511130940103,0.9911767907429514
2017-06-01,1,0.0014697570697732895,0.0019179013588604215,-0.008259425087367907,0.0047462478004936075,0.9919762875114722
2017-06-05,1,0.0012741507508341882,0.001670924628215463,-0.007976628896860237,0.004887559101545722,0.9921298430978603
2017-06-07,1,0.000868092228864594,0.0012122378309884507,-0.008742768052589379,0.004887559101545722,0.991115394161623
2017-06-09,1,0.0007055941730957984,0.001022311007423463,-0.007976628896860237,0.0063734105957651685,0.991268737616541
2017-06-13,1,0.000962875716632364,0.00122309993503482,-0.007976628896860237,0.004921972657743424,0.9915529567013207
2017-06-15,-1,-0.00016624617176457673,-9.416022042048596e-05,-0.006063226524925658,0.004921972657743424,0.9922295477531816
2017-06-19,-1,-0.0005105476348456055,-0.0004782031293817787,-0.006063226524925658,0.004921972657743424,0.9924001813199838
2017-06-21,-1,-0.0015709456118606128,-0.0013726589217210679,-0.005359978421319226,0.0063734105957651685,0.992239723365099
2017-06-23,-1,-0.0008909206175584653,-0.0007723942362109897,-0.005359978421319226,0.004921972657743424,0.9931318523723774
2017-06-27,-1,-0.0012592955397132204,-0.0011147310547006176,-0.00249954760525721,0.0063734105957651685,0.992776753301427
2017-06-29,-1,-0.0011413304222081542,-0.0010201005759177164,-0.0022135157725407598,0.009827702145759664,0.9926475447602925
2017-07-03,-1,-0.0004190482302567735,-0.0003908144180564331,-0.0022135157725407598,0.006253196072720429,0.9933060983820646
2017-07-06,-1,-0.002114185740276546,-0.0018811428366460894,-0.0013149894006460017,0.006253196072720429,0.9936160764102169
2017-07-10,-1,-0.0015736427511255507,-0.0013994096619182501,-0.0022135157725407598,0.00560433904544824,0.9934124842229947
2017-07-12,-1,-0.001006297835801585,-0.0008864003399118869,-0.002824160892246265,0.004735589941761009,0.9943430959097125
2017-07-14,-1,-0.0006056462302271776,-0.0005606163972353297,-0.002935587599218817,0.004735589941761009,0.9937727328989355
2017-07-18,-1,-0.0005367453917740615,-0.0005121862900857677,-0.002935587599218817,0.00560433904544824,0.9929810287853584
2017-07-20,0,-5.361875654780586e-05,9.766793729644267e-06,-0.002935587599218817,0.00560433904544824,0.9925027707228573
2017-07-24,0,-3.855239322169374e-05,3.4787634342630823e-06,-0.004674930824680137,0.00560433904544824,0.9923895435860447
2017-07-26,1,0.0006569111527801228,0.0007974363532653789,-0.004674930824680137,0.00560433904544824,0.9925704111602778
2017-07-28,1,0.0009304946048263711,0.0011006284243493397,-0.004674930824680137,0.004735589941761009,0.9931834699975859
2017-08-01,1,0.0008494232037842932,0.0009824579364667283,-0.004674930824680137,0.004289233492872543,0.9933971484024563
2017-08-03,1,0.00047542912780042907,0.0005485609415405102,-0.004674930824680137,0.0026239146238697603,0.9937940981536851
2017-08-07,1,0.0007584854812619236,0.0009423341845757588,-0.0059696158747180265,0.0017080023837222832,0.9942704180331713
2017-08-09,1,0.0008325004630206214,0.001053435598519946,-0.006454623121935184,0.0017419148000083285,0.9940848403663856
2017-08-11,-1,-0.00016687694303176522,-0.00011066392464493207,-0.0059696158747180265,0.005121042455448618,0.9941553149645891
2017-08-15,1,0.0005767217213812122,0.0007381266599321203,-0.0059696158747180265,0.003565232614472562,0.9939129304413444
2017-08-17,1,9.269354457992318e-05,0.0001819101441982257,-0.0059696158747180265,0.0017419148000083285,0.9947378005996034
2017-08-21,1,0.00014419204910291527,0.00026883907169897005,-0.005755905776133985,0.003565232614472562,0.9944562329175584
2017-08-23,1,0.0005153249818482183,0.0007041727278758437,-0.005755905776133985,0.0017419148000083285,0.9946020968319598
2017-08-25,0,-1.4102924059953035e-05,3.585918143888029e-05,-0.005755905776133985,0.002637455467706703,0.9943656849026126
2017-08-29,1,3.9350134341048656e-05,8.35069082029001e-05,-0.006108405352790134,0.005195569856229614,0.9930426254440321
2017-08-31,-1,-0.00045239860331020644,-0.000416779940198211,-0.005755905776133985,0.007531618870892502,0.9929213895508249
2017-09-05,-1,-0.0009551291439424983,-0.0008615866397660917,-0.0032757116695651877,0.00857985098099024,0.992924386954635
2017-09-07,-1,-0.0011314251972146503,-0.0010262046864817206,-0.002237614855203892,0.010139868303647829,0.9926408976054446
2017-09-11,1,1.8385809657457447e-05,8.393998973296428e-05,-0.0032757116695651877,0.008020875940172199,0.9934430588373838
2017-09-13,1,0.0004966228698874402,0.0006255438200667724,-0.002237614855203892,0.0071934428619108695,0.9941209060959375
2017-09-15,1,0.0005278998224812222,0.0007068771520971902,-0.0013009301309810251,0.0071934428619108695,0.9946033882578579
2017-09-19,1,0.000727425892874566,0.0009182378165866788,-0.00166468035968043,0.00495862784416506,0.9949729595854332
2017-09-21,1,0.0004838454810145388,0.0006434522817477394,-0.0002577378628473221,0.005212108081435722,0.9949992491562475
2017-09-25,1,4.445502854613001e-05,6.411360780943272e-05,-0.0011522015276224232,0.0071934428619108695,0.9937024008794733
2017-09-27,1,0.00015852452335892751,0.00021039395662414323,-0.0018960663633877171,0.005212108081435722,0.9948016843528203
2017-09-29,1,0.0006966669690634734,0.0008328527028753658,-0.0018960663633877171,0.005212108081435722,0.9948282858520371
2017-10-03,1,0.0010282475391745738,0.0012046168756058083,-0.0031479505923659424,0.005201265990216161,0.9937466277472305
2017-10-05,1,0.001500748486227724,0.0017331618267442993,-0.0031479505923659424,0.005264328685334712,0.9939172751063914
2017-10-09,1,0.0006824811262947472,0.0007426809534287427,-0.0035093608467065916,0.005264328685334712,0.9925523711664663
2017-10-11,1,0.0012019273147691341,0.0013427324712123245,-0.003929924391569529,0.005264328685334712,0.9908235150702924
2017-10-13,1,0.0010378394570862075,0.001131177987121384,-0.003929924391569529,0.0063065459530754426,0.9900826630845353
2017-10-17,1,0.0013417387040326426,0.0015355786638986512,-0.005066882182549203,0.006769709061554145,0.988664439317355
2017-10-19,1,0.0014695861958391536,0.001664706782709866,-0.005066882182549203,0.007492961401804005,0.9883734510547814
2017-10-23,1,0.002387967268603835,0.002733207091273669,-0.0046518981827701,0.006769709061554145,0.989348601360843
