JNU-Tangyin/eata/results/Batch4_SP500/Batch4_SP500-STT.csv
Date,Action,Predicted_Q25,Predicted_Q75,Actual_Q25,Actual_Q75,RL_Reward
2010-12-14,0,0.0,0.0,-0.00573559606345076,0.012980466546834742,0.9901546555732352
2010-12-16,0,0.0,0.0,-0.00573559606345076,0.016256377997939976,0.987947973378195
2010-12-20,0,0.0,0.0,-0.007972540676439486,0.016256377997939976,0.9865804190141256
2010-12-22,0,0.0,0.0,-0.008560402402940464,0.01364815504784372,0.9873923328426631
2010-12-27,0,0.0,0.0,-0.008548528519447669,0.01364815504784372,0.9874383176646263
2010-12-29,0,0.0,0.0,-0.008548528519447669,0.01364815504784372,0.987505520471143
2010-12-31,0,0.0,0.0,-0.009131016405958791,0.01364815504784372,0.9864632585283712
2011-01-04,0,0.0,0.0,-0.0082609145279921,0.01364815504784372,0.9874120184094421
2011-01-06,1,0.001988726985818525,0.0020790826516156723,-0.009131016405958791,0.01364815504784372,0.9869336057641467
2011-01-10,1,0.0018232556543229714,0.0019357526215729184,-0.0082609145279921,0.014921918603213874,0.987101609742331
2011-01-12,1,0.0017509489545049755,0.0017792217693588367,-0.0082609145279921,0.01364815504784372,0.9875204682306019
2011-01-14,1,0.0022149578404311357,0.0022320290566495648,-0.009131016405958791,0.00435924357417572,0.9880016296114181
2011-01-19,1,0.0004723078140565979,0.000687976929617985,-0.009131016405958791,0.0077449481090832,0.9892687633544343
2011-01-21,1,0.0003168230057743269,0.0005573499092546158,-0.008505829587329674,0.00435924357417572,0.9902273160695101
2011-01-25,1,0.0006791926832482807,0.000810582188723579,-0.01008684115983882,0.00435924357417572,0.9886379913282843
2011-01-27,1,0.0009613847980609397,0.0010156841198296017,-0.01008684115983882,0.0077449481090832,0.988451787078005
2011-01-31,0,-9.706529073586281e-05,0.00011256197274086503,-0.008280671160027037,0.004038411969826003,0.9897614903006479
2011-02-02,1,0.00023107819563992506,0.0003930474478000825,-0.008280671160027037,0.0020413214324297526,0.9905178695170339
2011-02-04,-1,-0.00027902790589205337,-6.483721890151485e-05,-0.008012708641889393,0.0020413214324297526,0.9911883647518389
2011-02-08,1,0.0002223309484345662,0.0003678909031015089,-0.008012708641889393,0.0020413214324297526,0.9911618132127229
2011-02-10,1,0.0009685878463417427,0.0009869167261869418,-0.008280671160027037,0.0011126822824574184,0.9903502416065861
2011-02-14,-1,-0.0008540176790346908,-0.0005577303571107756,-0.008012708641889393,0.0011126822824574184,0.9914238036191929
2011-02-16,-1,-0.0009210672680378486,-0.0006261226342430213,-0.007392916989590903,0.0020413214324297526,0.9920741026071036
2011-02-18,-1,-0.0013068559373425573,-0.0009521239626621839,-0.008012708641889393,0.00361859305550456,0.9907984084085875
2011-02-23,-1,-0.002670627309506084,-0.0021343734171074677,-0.007392916989590903,0.0038107659385605685,0.9920357000257909
2011-02-25,-1,-0.002520796142312327,-0.0019927654740987052,-0.007392916989590903,0.0038107659385605685,0.992404732714347
2011-03-01,-1,-0.002295856811846449,-0.0018453018143176486,-0.006912810213792913,0.005983153551159025,0.9920133729865855
2011-03-03,-1,-0.0026289840807224487,-0.0021341447540999215,-0.0066551293999801645,0.007312329361725883,0.9912077865269393
2011-03-07,-1,-0.0025556479485975316,-0.002091215154440461,-0.0038140314835800305,0.008503092456130379,0.9906258366180507
2011-03-09,-1,-0.002264416637088364,-0.001828574327571362,-0.0038140314835800305,0.008503092456130379,0.9907017686346138
2011-03-11,-1,-0.002496629810984712,-0.0020803210658954675,-0.0038140314835800305,0.008503092456130379,0.9914598470816264
2011-03-15,-1,-0.003330104351582255,-0.0027773835306706975,-0.0014017027511936395,0.008503092456130379,0.9914967252979693
2011-03-17,-1,-0.002974243980998274,-0.0024551424530130355,-0.00662346259493321,0.007312329361725883,0.9919598924195605
2011-03-21,-1,-0.0024909189022786988,-0.002057566294105486,-0.00662346259493321,0.006089535820414383,0.9925655094334639
2011-03-23,-1,-0.002536202741740356,-0.0020890556073322967,-0.003834645423680473,0.007417418918337255,0.9913209080632955
2011-03-25,-1,-0.0021806290104341344,-0.0018043783374962355,-0.006716971220281492,0.007417418918337255,0.9912266006950335
2011-03-29,-1,-0.0018700036815756066,-0.0015499604938015836,-0.006956986799786217,0.00836536060137646,0.9904822709542822
2011-03-31,-1,-0.00020310533595314305,-0.00017453313851827507,-0.006956986799786217,0.006694822958546003,0.9919086391300133
2011-04-04,-1,-0.0005054213523807002,-0.000389078617759087,-0.006956986799786217,0.006694822958546003,0.992152737777281
2011-04-06,1,0.0004124550024103851,0.0004412643061655102,-0.008064009357363245,0.005948630894785701,0.9919847014840668
2011-04-08,-1,-0.00047815609934862306,-0.0003577781953437755,-0.008064009357363245,0.006694822958546003,0.991704324238852
2011-04-12,-1,-0.000432873076694125,-0.00030095495643966876,-0.008064009357363245,0.0072429648737607245,0.9910434234447834
2011-04-14,-1,-0.0010974389787714524,-0.0008973894197605454,-0.007702403787250545,0.0072429648737607245,0.9908069707975343
2011-04-18,-1,-0.0019362870780799753,-0.0015941387279767953,-0.007219613620277704,0.008650709237450932,0.9908125743860152
2011-04-20,-1,-0.0004617504065408811,-0.00035083725243162915,-0.007219613620277704,0.009385545285380222,0.9911961416733642
2011-04-25,-1,-0.0008992633309840984,-0.0007032925229247509,-0.007994379191172532,0.009385545285380222,0.9901210636599318
2011-04-27,1,0.00040361332718783703,0.0004413638959092029,-0.008401178105966169,0.007548922968222402,0.9904656984237618
2011-04-29,1,0.0003867498723879298,0.0004192539847302368,-0.008401178105966169,0.007548922968222402,0.9902027819728713
2011-05-03,1,0.0005443265049812873,0.0006174836297174336,-0.011243238941106671,0.009385545285380222,0.9877617607060742
2011-05-05,1,0.00011963026464381426,0.00014788106338031227,-0.011672090220443776,0.010750265330634792,0.9876197253216202
2011-05-09,-1,-8.676351205765239e-05,-4.2179274258048554e-05,-0.011672090220443776,0.008738665697903216,0.9874629375513704
2011-05-11,1,0.0004521359915486184,0.0005056269251542164,-0.012284105768778017,0.008738665697903216,0.986236281945524
2011-05-13,-1,-0.0003470794451175467,-0.000299790949454806,-0.012284105768778017,0.008738665697903216,0.9865976472498148
2011-05-17,1,0.000983347619822164,0.0011801221326505026,-0.013732436172684217,0.008738665697903216,0.9846085988587822
2011-05-19,1,0.0009904285908784582,0.001152069968967814,-0.013732436172684217,0.0074427733849157995,0.9848558978729062
2011-05-23,-1,-0.00021128169228645604,-0.0001946521595400477,-0.01134293811686464,0.010389839386648248,0.9858274224283295
2011-05-25,-1,-0.0002737230106056742,-0.0002460292942706716,-0.010715751931326057,0.010389839386648248,0.9864921585153339
2011-05-27,-1,-0.0003058134570096349,-0.0002850071904282059,-0.01134293811686464,0.011645584950610946,0.9848945790035145
2011-06-01,-1,-0.0010100940163766602,-0.0009244670413385548,-0.010715751931326057,0.013159312687197881,0.9863415621076861
2011-06-03,-1,-0.0010198580950999095,-0.0009167765329246056,-0.009265438582911685,0.01893548201119965,0.9863804358195419
2011-06-07,-1,-0.0012051692251866153,-0.0011096254783289055,-0.006550524260477882,0.019401111937365986,0.9853293663575295
2011-06-09,1,0.0007539101820359855,0.000993185127871575,-0.006230445101069598,0.01893548201119965,0.9863601135774287
2011-06-13,-1,-0.0004343063797016379,-0.00042714758277712745,-0.006230445101069598,0.01893548201119965,0.9852195247677366
2011-06-15,-1,-0.0006943949416025519,-0.0006823900949377967,-0.006025935893041153,0.017588877084794452,0.9874086418533401
2011-06-17,-1,-0.00029856608731962137,-0.00026142220660661466,-0.010061109403480411,0.017588877084794452,0.9869713049936129
2011-06-21,1,0.0002744158266676332,0.00038143312984258935,-0.012467347091725454,0.014640999258834393,0.9861078445506517
2011-06-23,1,6.926092902359676e-05,0.00012184697160277992,-0.018029472086069143,0.017634709298561473,0.9845604426886787
2011-06-27,1,0.00038341958352560996,0.0004998916156154695,-0.012467347091725454,0.014640999258834393,0.9861730806779686
2011-06-29,1,0.0006919648072387437,0.0008246395315770864,-0.01810325921054802,0.006317796361256095,0.986486107326587
2011-07-01,1,0.0013718294359172144,0.0016211810806950901,-0.01810325921054802,0.003659325858456996,0.9867186918688272
2011-07-06,1,0.0018057208190881053,0.0021427867186966367,-0.018931131214821723,0.003659325858456996,0.9870706983967872
2011-07-08,1,0.0012240199311421526,0.0014299910000694553,-0.01933673242871157,0.003659325858456996,0.9857282795073364
2011-07-12,1,0.0002043806812570136,0.00026069114832889145,-0.01933673242871157,0.0038388346785497318,0.9820907607038009
2011-07-14,1,8.114666829063146e-05,0.00012068508388313065,-0.020066499024818725,0.0048886503838577785,0.9761375800671577
2011-07-18,-1,-0.0012969890418297512,-0.0011183982246727475,-0.020460372958212576,0.0056497886752379265,0.976258232830313
2011-07-20,-1,-0.0011996149005278388,-0.0010511682513358032,-0.01933673242871157,0.005266494701765191,0.9772674673074946
2011-07-22,-1,-0.001415145119241078,-0.001227434161885125,-0.023770949510005288,0.004140769651219877,0.9752298067967643
2011-07-26,-1,-0.001583997079463473,-0.001370023146944619,-0.023770949510005288,0.005266494701765191,0.9733665468210825
2011-07-28,-1,-0.002283722961134489,-0.0019778831255268243,-0.023770949510005288,0.006743548952733421,0.9724826159472759
2011-08-01,-1,-0.002130576761157985,-0.0018660523663400312,-0.023770949510005288,0.015931689329693906,0.9700879521636451
2011-08-03,-1,-0.0028091206591563103,-0.0024295704348502407,-0.023770949510005288,0.015931689329693906,0.9705912632844286
2011-08-05,-1,-0.004489021483897107,-0.003898389930783396,-0.023770949510005288,0.015931689329693906,0.9709436302757117
2011-08-09,-1,-0.005483903832312545,-0.004806465321612536,-0.02269240731192544,0.017682985453527582,0.9734328366716888
2011-08-11,-1,-0.0047335693295147705,-0.004161215852467811,-0.023770949510005288,0.01232361848785542,0.9773370113146764
2011-08-15,-1,-0.005825219581427759,-0.005130586432433324,-0.02269240731192544,0.01232361848785542,0.9773694292873628
2011-08-17,-1,-0.00569595134176811,-0.005025301320030769,-0.02269240731192544,0.018166537683670415,0.9750540496836266
2011-08-19,-1,-0.00796439179916709,-0.007039332195107708,-0.020828290528962564,0.018166537683670415,0.9759380705470506
2011-08-23,-1,-0.0056073074859298196,-0.0049902415099644885,-0.023455645117352167,0.013558051028046624,0.9770217090906271
2011-08-25,-1,-0.005355821990767945,-0.004798712301811893,-0.023455645117352167,0.01232361848785542,0.9788254940692683
2011-08-29,-1,-0.0032942501498344524,-0.003014588155450166,-0.023455645117352167,0.0124848025645697,0.977269963972983
2011-08-31,-1,-0.0031877698994012826,-0.002908376502494637,-0.028843078780461762,0.017126472787509454,0.9751172591657581
2011-09-02,-1,-0.004892975908043912,-0.004433397478955543,-0.029744240903229767,0.017126472787509454,0.97429999027865
2011-09-07,-1,-0.0038105529198762533,-0.0034438446981362924,-0.029744240903229767,0.017126472787509454,0.9741026214658625
2011-09-09,-1,-0.00627487023698441,-0.005616404269992793,-0.02853195825722409,0.017126472787509454,0.9747667613324101
2011-09-13,-1,-0.0043625473918119445,-0.003977537911346833,-0.02853195825722409,0.029117522487084723,0.9737401189623754
2011-09-15,-1,-0.0025414493488002806,-0.0023744333980276243,-0.02853195825722409,0.0224563155525267,0.9745639597964311
2011-09-19,-1,-0.0036727314194806553,-0.0033998684744876743,-0.019749124509966392,0.0224563155525267,0.9756761615293643
2011-09-21,-1,-0.00464292433211335,-0.004269144209953787,-0.01589305652314263,0.029407147288510446,0.9716715970364336
2011-09-23,-1,-0.004753960534409071,-0.004381142701398402,-0.01589305652314263,0.035427360295392264,0.969218675369725
2011-09-27,-1,-0.0023843747609009853,-0.002271230840753525,-0.016663051266756504,0.0224563155525267,0.9722634712501568
2011-09-29,-1,-0.0020307982794316244,-0.0019850972546433723,-0.015727505274297775,0.024463053221487306,0.9712807541512086
2011-10-03,-1,-0.0039996512811636825,-0.00373966424517201,-0.006801829934344386,0.024463053221487306,0.9724249663143814
2011-10-05,-1,-0.0019403332703472227,-0.0018785152975400409,-0.015727505274297775,0.024463053221487306,0.9727920575878641
2011-10-07,-1,-0.0023216269207907507,-0.002248353809922034,-0.01092735704569901,0.024463053221487306,0.9737942413488232
2011-10-11,-1,-0.0005763003058508322,-0.0003954135890347171,-0.01092735704569901,0.022880769637173552,0.9748646079818435
2011-10-13,-1,-0.0007656369845120084,-0.0006623025202405085,-0.01092735704569901,0.02237192822566511,0.973161938457581
2011-10-17,-1,-0.0004662432355166062,-0.0003256591454363999,-0.01092735704569901,0.028102311224461073,0.9725563296116952
2011-10-19,1,0.0012118467205779286,0.0015742802731219731,-0.011184021960236967,0.019760634804500948,0.9772986210052219
2011-10-21,1,0.0019929957133994723,0.00241167821858478,-0.01889751339650824,0.01623774048566127,0.9778343453528037
2011-10-25,1,0.0020036006012772905,0.0024294420370718052,-0.02807966757319119,0.015687269638671106,0.9776329866896901
2011-10-27,1,0.003423949523744978,0.004011163177030913,-0.02807966757319119,0.006423414365026138,0.9792697266292333
2011-10-31,1,0.0028182528444808744,0.0033636905644587106,-0.025047841449087508,0.015687269638671106,0.9803330965897812
2011-11-02,1,0.002757689967817621,0.0032758065632357888,-0.014308159423958923,0.015687269638671106,0.9796354028587512
2011-11-04,1,0.002681657944281937,0.003180248070108341,-0.014308159423958923,0.01736286221038341,0.9794058385177995
2011-11-08,1,0.0037903505865325626,0.004458172245207644,-0.014308159423958923,0.01736286221038341,0.9797699248934416
2011-11-10,1,0.0032688602147924618,0.003898241492342601,-0.014308159423958923,0.01871031176197783,0.9802416442502188
2011-11-14,1,0.0036380979885593263,0.004316785397943444,-0.02193310768674548,0.008186208254189704,0.9798613898967391
2011-11-16,1,0.003197753077515246,0.003824286610766988,-0.01498585039321669,0.008186208254189704,0.980619178552677
2011-11-18,1,0.0027936778371597504,0.003395152871802096,-0.01498585039321669,0.01871031176197783,0.9804551632436952
2011-11-22,1,0.0024663004556698814,0.0030515349283606417,-0.011378000385092617,0.02047814179261359,0.9807046407702373
2011-11-25,1,0.0020514783741561104,0.0025927129167026223,-0.008779487367952914,0.02047814179261359,0.9815469870853991
2011-11-29,0,0.0,0.0,-0.011378000385092617,0.02047814179261359,0.9808057951621104
2011-12-01,0,0.0,0.0,-0.011888220977482404,0.013777450390117464,0.9841630023775964
2011-12-05,0,0.0,0.0,-0.012570015086168364,0.014877767147579816,0.982916874593427
2011-12-07,1,0.002057800788044303,0.0025245491265341214,-0.012570015086168364,0.011655678614836684,0.9837970190684894
2011-12-09,1,0.0021956295221317516,0.002667942139883234,-0.011752458917576708,0.011655678614836684,0.9853307098969469
2011-12-13,1,0.002024971630588264,0.002495633729250071,-0.005828004554191227,0.012185034684264937,0.9864531976321084
2011-12-15,0,0.0,0.0,-0.006686548992835188,0.012185034684264937,0.9857690192936195
2011-12-19,1,0.003363908258832266,0.003958995242869112,-0.006686548992835188,0.012185034684264937,0.983926001233706
2011-12-21,0,0.0,0.0,-0.006686548992835188,0.011655678614836684,0.9847316888907305
2011-12-23,0,0.0,0.0,-0.011752458917576708,0.011331159134842799,0.9834483019078518
2011-12-28,0,0.0,0.0,-0.011752458917576708,0.011331159134842799,0.983008884179657
2011-12-30,1,0.0012967867393361063,0.001405433581569155,-0.011723055929225215,0.010821491784783796,0.9833686220097647
2012-01-04,1,0.002586261807299271,0.0028665081610801625,-0.007287771254747681,0.011605534977334863,0.983802867931643
2012-01-06,1,0.0024290680068113717,0.002655754910432397,-0.012455366177964826,0.014606860243965026,0.9816006679531255
2012-01-10,1,0.0030242047907617247,0.0033211388604942453,-0.012455366177964826,0.011289034196252554,0.9828254968257227
2012-01-12,0,0.0,0.0,-0.01576803355017306,0.009439205020238163,0.9821003657442431
2012-01-17,1,0.0035159780435292565,0.00362021657548707,-0.017082010004077927,0.009439205020238163,0.9813304549871569
2012-01-19,0,0.0,0.0,-0.012859905706916775,0.009439205020238163,0.9850305661537074
2012-01-23,0,0.0,0.0,-0.012859905706916775,0.007668615172541315,0.9854681507178245
2012-01-25,1,0.0005922697051200343,0.0006039006994387527,-0.010608024567466266,0.011610945724291583,0.9856262908467601
2012-01-27,-1,-0.0006658712000192407,-0.00044610348789569075,-0.009954539128939842,0.019865981841371345,0.9860630963785999
2012-01-31,-1,-0.00026948118022272305,-0.00012294221888526431,-0.009954539128939842,0.019865981841371345,0.985797611502464
2012-02-02,-1,-0.00040111108112880767,-0.00015984831899232093,-0.010423203350613608,0.007124955782701124,0.9873597071360886
2012-02-06,1,0.00013056137536501393,0.00028656999795767464,-0.010423203350613608,0.004623753635695052,0.988750574496134
2012-02-08,0,0.0,0.0,-0.010423203350613608,0.009211190291029455,0.9881377427058536
2012-02-10,0,0.0,0.0,-0.00980471217224449,0.009211190291029455,0.9886051419721569
2012-02-14,-1,-0.001721384996453983,-0.0012428492927449009,-0.00649118171243736,0.015444037172309685,0.9863164867738007
2012-02-16,-1,-0.0021937678621735384,-0.0016583887772836673,-0.00649118171243736,0.015477859442171739,0.9864103284005642
2012-02-21,0,0.0,0.0,-0.005949565666859463,0.015477859442171739,0.9864986788629654
2012-02-23,-1,-0.0012703588200924426,-0.0009122879348920541,-0.008064897059011988,0.012540980312778751,0.9876245508069406
2012-02-27,-1,-0.00225674460420176,-0.0016872751269361127,-0.005945730356906735,0.013573965652637483,0.9874585251086645
2012-02-29,0,0.0,0.0,-0.008539847286662525,0.012607917850195074,0.9877229412030843
2012-03-02,0,0.0,0.0,-0.00830002897291779,0.012607917850195074,0.9875322447273303
2012-03-06,0,0.0,0.0,-0.003324195914823469,0.012607917850195074,0.9883407766646456
2012-03-08,0,0.0,0.0,-0.00830002897291779,0.010767240060548711,0.9879115669506054
2012-03-12,-1,-0.0007613819070753108,-0.0005348931215750697,-0.009617960841405353,0.010767240060548711,0.9872318637879401
2012-03-14,1,0.0016368940204025783,0.0017699932136331139,-0.009617960841405353,0.008704935701473702,0.9892050966142764
2012-03-16,0,0.0,0.0,-0.012717503428576027,0.008704935701473702,0.9889105930375858
2012-03-20,0,0.0,0.0,-0.012717503428576027,0.010159860000272601,0.9877874456964403
2012-03-22,0,0.0,0.0,-0.01091441283784011,0.010159860000272601,0.9885432714873428
2012-03-26,1,0.002085525281754032,0.002322419439235746,-0.01329398962309625,0.009006828234259728,0.9887347428626069
2012-03-28,1,0.002219616831963988,0.002465224739309193,-0.009810122906245427,0.010159860000272601,0.988816052878414
2012-03-30,1,0.0020533906013356666,0.002266910247632789,-0.004666571211410465,0.009528368487522216,0.989357998672469
2012-04-03,1,0.0027404628864602853,0.003103243742279933,-0.009330981250056943,0.009528368487522216,0.9889876503338331
2012-04-05,1,0.001456724432267203,0.0015878982274431736,-0.009330981250056943,0.009528368487522216,0.9893124957246526
2012-04-10,0,0.0,0.0,-0.0037136650642622558,0.009528368487522216,0.9901662190901066
2012-04-12,0,0.0,0.0,-0.009210432701919812,0.008796331063342934,0.9900514024067514
2012-04-16,1,0.00020987498611330655,0.00030778754376074147,-0.009210432701919812,0.007543341222649518,0.9901166811371918
2012-04-18,1,0.0003190874879900428,0.00045837535561134654,-0.011828054047090175,0.005907726489307032,0.9899890561895612
2012-04-20,-1,-0.0002599028315675451,-5.262000984572034e-06,-0.011828054047090175,0.005907726489307032,0.9894868425971947
2012-04-24,0,-0.0002034733155113253,3.708322550621411e-05,-0.010155819613513804,0.005907726489307032,0.9898982532646552
2012-04-26,0,0.0,0.0,-0.010155819613513804,0.0027020230302870125,0.9902464746794386
2012-04-30,0,0.0,0.0,-0.010155819613513804,0.005907726489307032,0.9894095124994735
2012-05-02,0,0.0,0.0,-0.0135559768230672,0.0027020230302870125,0.9885951070437656
2012-05-04,0,0.0,0.0,-0.01430094057269755,0.0027020230302870125,0.9876065775576851
2012-05-08,0,0.0,0.0,-0.013087005650976938,0.008159296111522447,0.9863044270080503
2012-05-10,0,0.0,0.0,-0.009751174639606931,0.00922754607805853,0.9865221978794994
2012-05-14,0,0.0,0.0,-0.009179969976253187,0.013534782079700155,0.9867064798495176
2012-05-16,0,0.0,0.0,-0.007639535605424013,0.013534782079700155,0.9880789309052557
2012-05-18,0,0.0,0.0,-0.004970608164657374,0.013534782079700155,0.9880125659856567
2012-05-22,0,0.0,0.0,-0.006361640760602693,0.014778026074016902,0.987410723159354
2012-05-24,0,0.0,0.0,-0.009292553630826064,0.015645551448683265,0.986436548651679
2012-05-29,0,0.0,0.0,-0.010493285065289069,0.014778026074016902,0.9858528468426349
2012-05-31,0,0.0,0.0,-0.006361640760602693,0.014778026074016902,0.9866530721883793
2012-06-04,0,0.0,0.0,-0.0009220310880816538,0.015645551448683265,0.986918766634202
2012-06-06,1,0.9203919302358821,0.9211893445243386,-0.0023396275000722804,0.014778026074016902,0.5218135009970803
2012-06-08,0,0.0,0.0,-0.006205245537765085,0.013207296253040207,0.9885436702462967
2012-06-12,-1,-0.00026939264705578994,-0.00015231041791145312,-0.009106253829141705,0.006068833434859489,0.9894834200716249
2012-06-14,0,-4.7042755250192126e-05,1.4086087036119699e-05,-0.009749588080413766,0.011822603725006556,0.9876398105818605
2012-06-18,-1,-0.0008730869229733509,-0.0006311090736088777,-0.011341942665774471,0.006068833434859489,0.9854134172604422
2012-06-20,-1,-0.0012029397070251972,-0.0008853501789732155,-0.009749588080413766,0.004880148136027666,0.9864840286690673
2012-06-22,-1,-0.0012935574202378554,-0.0009615842152009837,-0.009749588080413766,0.004202360701971595,0.9861583861124514
2012-06-26,-1,-0.001553344487030717,-0.0012719456225418798,-0.009051361663849664,0.004202360701971595,0.9871552186874966
2012-06-28,0,0.0,0.0,-0.009051361663849664,0.004880148136027666,0.9861598398702894
2012-07-02,0,0.0,0.0,-0.009051361663849664,0.004430875557011463,0.9874335059858922
2012-07-05,0,0.0,0.0,-0.009749588080413766,0.0017544725893792901,0.9867676389378622
2012-07-09,0,0.0,0.0,-0.009051361663849664,0.00542689232566638,0.9863485913699325
2012-07-11,-1,-0.0016511292847235365,-0.0012476419051644391,-0.007910222704242508,0.008399902103276931,0.986194938055048
2012-07-13,-1,-0.0013566877217333713,-0.0009641063144800752,-0.006644705691072061,0.007678907692495769,0.987438858197173
2012-07-17,-1,-0.00268924600391071,-0.0021886393408128584,-0.006644705691072061,0.007678907692495769,0.9899660796244399
2012-07-19,0,0.0,0.0,-0.006644705691072061,0.00658822391489455,0.9896433616715548
2012-07-23,0,0.0,0.0,-0.004819744119993353,0.008732109360348576,0.9914069544516525
2012-07-25,0,0.0,0.0,-0.0036158065311619066,0.008732109360348576,0.9918199958495552
2012-07-27,0,0.0,0.0,-0.004223170104518127,0.005324636733352867,0.99251077658944
2012-07-31,0,0.0,0.0,-0.00433648292067211,0.005324636733352867,0.9925836488168579
2012-08-02,-1,-0.003527370628690649,-0.0018747050399250556,-0.002090745863126847,0.005324636733352867,0.9934038141312672
2012-08-06,-1,-0.001386740972208232,-0.0012740362416183517,-0.001432162367680853,0.005324636733352867,0.994046968352096
2012-08-08,0,0.0,0.0,-0.001432162367680853,0.005381096966457961,0.9941439214130227
2012-08-10,0,0.0,0.0,-0.0016566115810556384,0.005324636733352867,0.9944284498209097
2012-08-14,0,0.0,0.0,-0.0012674360259317676,0.005324636733352867,0.9948516329862548
2012-08-16,0,0.0,0.0,-0.0016551404772599328,0.005381096966457961,0.9940379417081222
2012-08-20,0,0.0,0.0,-0.0027081080774695766,0.00483073798364922,0.9941832674248535
2012-08-22,0,0.0,0.0,-0.0027081080774695766,0.00483073798364922,0.9941605469006362
2012-08-24,0,0.0,0.0,-0.0027081080774695766,0.0048746830944358,0.9942893214327305
2012-08-28,0,0.0,0.0,-0.004144414948513217,0.0048746830944358,0.9927653329033411
2012-08-30,0,0.0,0.0,-0.004144414948513217,0.005746481271830104,0.9924973722507373
2012-09-04,0,0.0,0.0,-0.004144414948513217,0.0048746830944358,0.9930012083388855
2012-09-06,0,0.0,0.0,-0.004144414948513217,0.0036153093021380135,0.9937676180578459
2012-09-10,-1,-9.666857915464766e-05,-9.460257901740795e-05,-0.0051310068294891185,0.0031316525382839933,0.9936663483789148
2012-09-12,1,0.0021911081594925136,0.0026245412372480816,-0.005893363726841709,0.000833702122315024,0.9923928328615071
2012-09-14,0,0.0,0.0,-0.0071506361579807935,0.000833702122315024,0.993203420632487
2012-09-18,1,0.0023893926400990004,0.002858460445587647,-0.0071506361579807935,0.00523673536653563,0.9903696531611181
2012-09-20,1,0.0022559796357958274,0.002706986712518771,-0.0071506361579807935,0.006813300100823536,0.9896479245072068
2012-09-24,1,0.002269064365933082,0.002722198159630435,-0.006280482873142239,0.006005728949425346,0.9898309992211273
2012-09-26,1,0.0007524875018817909,0.0009655892781532236,-0.003997643656891373,0.007783967734358993,0.9907665603815461
2012-09-28,0,0.0,0.0,-0.00624117363019224,0.007892341270003218,0.9902977741796498
2012-10-02,1,0.0006591101990075127,0.000811495973400328,-0.00624117363019224,0.008687813938846002,0.9898501541025987
2012-10-04,0,0.0,0.0,-0.006975929697632065,0.009978885814437418,0.9885893531685946
2012-10-08,1,3.05529135183353e-05,3.068028138322267e-05,-0.007033752921178409,0.009978885814437418,0.9868679231397663
2012-10-10,0,0.0,0.0,-0.007033752921178409,0.009978885814437418,0.986984057947314
2012-10-12,0,0.0,0.0,-0.00624117363019224,0.008960534973282641,0.9881765940503128
2012-10-16,0,0.0,0.0,-0.006815443144342594,0.007983248281482098,0.990198041878022
2012-10-18,0,0.0,0.0,-0.006815443144342594,0.007983248281482098,0.9904924678487868
2012-10-22,0,0.0,0.0,-0.006815443144342594,0.007983248281482098,0.9907230793996511
2012-10-24,0,0.0,0.0,-0.006815443144342594,0.008454721960408404,0.9906160306395138
2012-10-26,0,0.0,0.0,-0.006912575610838937,0.005303378346751606,0.9909075651597832
2012-11-01,0,0.0,0.0,-0.006912575610838937,0.0029301410254118834,0.9914046442181382
2012-11-05,1,0.0022371203338387964,0.0025865805824764297,-0.006814667391785783,0.0029301410254118834,0.992231375421585
2012-11-07,1,0.0010908902226555157,0.0012779587099074174,-0.0043843431626436535,0.0029301410254118834,0.9942577328153088
2012-11-09,1,0.00099665744651985,0.0011708188236826335,-0.0038533871971190743,0.00402355280976403,0.9939498121342206
2012-11-13,1,0.0012117106949877884,0.0014279360956909258,-0.0038533871971190743,0.005404031781426528,0.9937965468846133
2012-11-15,1,0.001230666589888605,0.0014538328838118275,-0.0019051736033531626,0.005404031781426528,0.9941417916574116
2012-11-19,1,0.0014857761915673476,0.0016848614387941078,-0.0019051736033531626,0.006649209355451302,0.9937747028623419
2012-11-21,1,0.0017877972886845865,0.0020610273779393075,-0.0038533871971190743,0.006649209355451302,0.9933009127852676
2012-11-26,1,0.0019382290397510515,0.0022905529555627543,-0.003152489462824994,0.005404031781426528,0.9942904519804997
2012-11-28,1,0.001910567931084445,0.0022609804925214994,-0.003062609728810139,0.005404031781426528,0.994544997714688
2012-11-30,1,0.0014182526964179633,0.0016691468615497788,-0.003062609728810139,0.006837531627373483,0.9937088466628847
2012-12-04,1,0.0011664407835044073,0.0013476551350105007,-0.003062609728810139,0.009750062024868016,0.9926975418991484
2012-12-06,1,0.001873772079637025,0.002201433768845652,-0.003062609728810139,0.011976142954353822,0.9916955420811259
2012-12-10,1,0.0009206413397845174,0.0009929609995240078,-0.003062609728810139,0.009750062024868016,0.9917712674354471
2012-12-12,1,0.0011272457306944282,0.0012296497124876962,-0.003062609728810139,0.012459450727413819,0.9912614162841223
2012-12-14,1,0.0004289988394736813,0.0004884121640554299,-0.0034501467894063227,0.012459450727413819,0.9906766437040561
2012-12-18,1,0.0010122353216131818,0.0010394170567308064,-0.004432806516965892,0.009033972701804288,0.9908599817441168
2012-12-20,1,0.0011667369462925524,0.0012043190648790112,-0.0034501467894063227,0.016421603901259588,0.9868989871344639
2012-12-24,1,0.0008455069970528148,0.0008642463378029005,-0.0034501467894063227,0.016421603901259588,0.9869471676170698
2012-12-27,1,0.00036015854781054304,0.0004772103891567099,-0.0018263893739009168,0.0177747658651713,0.9862042495219805
2012-12-31,1,0.001262666193464016,0.0012805897393250412,-0.002635237955129706,0.01539756385575521,0.9872380195337597
2013-01-03,1,0.001928680212535119,0.00207443060119226,-0.002635237955129706,0.013305348019574791,0.9881555673824534
2013-01-07,1,0.002848187056067927,0.0031339769569359607,-0.004294683093932242,0.011163534553910174,0.9890613773716452
2013-01-09,1,0.002384824069550702,0.0025728563473098277,-0.0030246142016513385,0.011163534553910174,0.9893733973249803
2013-01-11,1,0.0030656732430059657,0.0033572620326086855,-0.0030246142016513385,0.009033972701804288,0.9900031628564387
2013-01-15,1,0.0031334677293120986,0.0034363135462095193,-0.0022711686814162477,0.007030802912536011,0.9904623281058265
2013-01-17,1,0.0026293901637694296,0.0028492907701410213,-0.001332528018013581,0.0057257855077135645,0.9917360988080169
2013-01-22,1,0.004887577609868847,0.0053915254447728725,-0.0022711686814162477,0.004393924169860718,0.9943597266095219
2013-01-24,1,0.004295346489225736,0.004696120154000213,-0.003202475272791866,0.005353534234071013,0.9933522488511322
2013-01-28,1,0.004536925959261336,0.004966418371286918,-0.005172886545151792,0.005353534234071013,0.9926745117899038
2013-01-30,1,0.0041459988537189026,0.004535661753670771,-0.005288748703540231,0.005353534234071013,0.9929624663622119
2013-02-01,1,0.004615533895746921,0.00510958574664575,-0.005378435771159158,0.005353534234071013,0.9927336973534614
2013-02-05,1,0.004405721317988937,0.004856636609716745,-0.0032323709619981756,0.006124136113058603,0.992572360388875
2013-02-07,1,0.004269907005284419,0.004704188508197261,-0.0012369622660447657,0.007555362431883285,0.9925347226753194
2013-02-11,1,0.004464606020888601,0.004948479051171628,-0.0043945910405023035,0.007555362431883285,0.9922466099506508
2013-02-13,1,0.004423328960156883,0.004883268923334805,-0.0043945910405023035,0.009779227760046728,0.9919603372931219
2013-02-15,1,0.004260289427659073,0.0046800834071021175,-0.005378435771159158,0.009779227760046728,0.9913059259400145
2013-02-20,1,0.0038101798009355934,0.004153923234517573,-0.0043945910405023035,0.011738949489751484,0.991218878424581
2013-02-22,1,0.0030846510548720204,0.0032198136450928947,-0.0043945910405023035,0.011738949489751484,0.9909132516151002
2013-02-26,1,0.0027725416011240393,0.0028778814465722545,-0.0043945910405023035,0.009779227760046728,0.991671338506163
2013-02-28,1,0.002290843526696471,0.0023653435838562192,-0.005057460168131359,0.009779227760046728,0.9914182903169652
2013-03-04,1,0.002436522067982099,0.002529354395073816,-0.0055039038614613555,0.008483776162955809,0.9912256195961209
2013-03-06,1,0.002854853371546098,0.002974299910626155,-0.006274769589248251,0.007623821997965005,0.990513731552834
2013-03-08,1,0.0025195221197162553,0.002566753105385313,-0.006274769589248251,0.007101871133566596,0.9905771031290843
2013-03-12,1,0.0021052313625443833,0.002118377771283251,-0.006274769589248251,0.008425302534887172,0.9894786648989631
2013-03-14,1,0.003021323639083583,0.0032068101084887684,-0.008645145012204938,0.008425302534887172,0.9890066652215631
2013-03-18,1,0.00289040023427884,0.0030919438812181278,-0.00866417959016792,0.008981040620008434,0.9875678530013968
2013-03-20,1,0.0031338905712414884,0.0033613487014933514,-0.013849760028281272,0.008425302534887172,0.986860203136191
2013-03-22,1,0.0024239108105951904,0.0025216236630266928,-0.012456320403539575,0.007635052597516999,0.9882667431399854
2013-03-26,1,0.0022787228982666715,0.0023415823769953807,-0.012456320403539575,0.008425302534887172,0.9881098950333468
2013-03-28,1,0.00208691767659438,0.0021501864455664346,-0.012456320403539575,0.008425302534887172,0.9882969900208886
2013-04-02,1,0.0017963530165200534,0.00185426773071122,-0.00867788435152518,0.007817189307060705,0.9890433939362797
2013-04-04,1,0.0004381849064181298,0.0006010359963526696,-0.00867788435152518,0.007817189307060705,0.9896122758201013
2013-04-08,1,0.0007772110298620041,0.0009271695071264378,-0.00867788435152518,0.008981040620008434,0.9887113028785125
2013-04-10,1,0.0014411843713210862,0.0015160347769985934,-0.00867788435152518,0.00782651726355085,0.9896005378419832
2013-04-12,1,0.0008947346702913911,0.0010482622617166834,-0.0060974885149510894,0.0060737864995746,0.9902201981056091
2013-04-16,1,0.0004446745618735844,0.0006249649590173981,-0.0012748065399984477,0.009260592674422244,0.9898434782834499
2013-04-18,-1,-0.0007738600479984782,-0.0004434665248516581,0.0004647483162294976,0.009260592674422244,0.9905634296055915
2013-04-22,-1,-0.0005831872280146503,-0.00024766760733702965,0.00042392031223365695,0.015469467619518978,0.990277444666712
2013-04-24,-1,-0.0004212044362722795,-8.705597011607997e-05,0.00042392031223365695,0.007813584582604408,0.9911814606133198
2013-04-26,-1,-0.001056207140633336,-0.0006296651795871017,-0.00014762624919969618,0.007813584582604408,0.9908623388114798
2013-04-30,-1,-0.000923006452589167,-0.0004939174125706471,-0.0015762523463024305,0.016348143086497346,0.9892933929790899
2013-05-02,-1,-0.0016378010116781415,-0.0011229902057615015,-0.0015762523463024305,0.016348143086497346,0.9890218198418493
2013-05-06,-1,-0.0006258986855123246,-0.00024087901418770445,-0.0018803092303126667,0.007500886227099237,0.9908271739063456
2013-05-08,0,-9.17602304302455e-05,0.00022417526959016103,-0.002926550785745877,0.006319184600592067,0.990357017075111
2013-05-10,-1,-0.0005164814502519979,-0.00014209235151872463,-0.0018803092303126667,0.012803038206975835,0.9891871379528449
2013-05-14,1,0.0014120865432011422,0.001498630389285553,-0.005499318561800759,0.0036296469966578745,0.9896750407009723
2013-05-16,1,0.0009881757150425696,0.001162640932540955,-0.006101363857347702,0.006319184600592067,0.9885779075165427
2013-05-20,1,0.0010335054161853025,0.0012191727611771423,-0.006101363857347702,0.007777642974397713,0.9887665011850962
2013-05-22,1,0.0008686030208634537,0.0010874607286970339,-0.009792082171443664,0.007777642974397713,0.9878499391969485
2013-05-24,1,0.00042362322656463655,0.0006898554309894699,-0.013688730964136992,0.007777642974397713,0.9870581083698546
2013-05-29,1,0.001549723807941287,0.0016725213075655184,-0.013688730964136992,0.007777642974397713,0.9884871471711189
2013-05-31,1,0.0013052597026026267,0.0014067636803161792,-0.011296133635224477,0.008967222687112437,0.9888098292931433
2013-06-04,1,0.0009634798079912591,0.0011101782339980842,-0.011296133635224477,0.008967222687112437,0.9886860863209888
2013-06-06,1,0.0008835408132052848,0.0010127890258101507,-0.009792082171443664,0.009388166359934908,0.9886123833307752
2013-06-10,1,0.0015183745832747808,0.0015799683667308989,-0.009792082171443664,0.009388166359934908,0.9893614507705095
2013-06-12,1,0.00023810704022729013,0.0004703930665948986,-0.005207800952938851,0.009388166359934908,0.9909749988748673
2013-06-14,1,0.0019067191990867684,0.0020334865247280407,-0.004020837921066588,0.008479949696047422,0.9919818855512226
2013-06-18,1,0.002280042401639876,0.002453121466783662,-0.005911857230310442,0.008479949696047422,0.9917920903784136
2013-06-20,1,0.0017961874502541724,0.0019246928771364969,-0.004020837921066588,0.008984195564425852,0.9919305037972241
2013-06-24,1,0.0007310666515029903,0.0007636737836126743,-0.0009748597297644,0.010422525511551654,0.9919926139154162
2013-06-26,1,0.0016116286072504725,0.0016901252323596868,-0.003872372142441919,0.010148878301325343,0.9913662703409184
2013-06-28,1,0.0015035860134633163,0.0015494346225938716,-0.00488677465778103,0.010148878301325343,0.9912831006782838
2013-07-02,1,0.0016251768256671944,0.0016899215966719476,-0.00488677465778103,0.010422525511551654,0.9909679409752054
2013-07-05,1,0.002417571664517069,0.0025868030180792667,-0.00488677465778103,0.010422525511551654,0.9916223322523365
2013-07-09,1,0.0025969540857632457,0.002761138823949667,-0.00488677465778103,0.010148878301325343,0.991942801115444
2013-07-11,1,0.0025198008899842525,0.0027170912003217818,-0.005848735866197624,0.010148878301325343,0.991410497592445
2013-07-15,1,0.0024875657229103173,0.002635946624522177,-0.006590160039863364,0.010148878301325343,0.9907381979830758
2013-07-17,1,0.002496055959224484,0.0026435381302762767,-0.005848735866197624,0.009961430737034704,0.991174182895203
2013-07-19,1,0.0022406303405203163,0.0023531257090947545,-0.005848735866197624,0.005678269498168759,0.9910681039103953
2013-07-23,1,0.0026252709506552688,0.0027775251408561808,-0.0061528866667401125,0.002904937265885943,0.9910942345500166
2013-07-25,1,0.001856286126446255,0.0018992022639791233,-0.005848735866197624,0.005678269498168759,0.9917389309126825
2013-07-29,1,0.001665199282850683,0.0017392381484816282,-0.002829463349413937,0.005678269498168759,0.9922406417116411
2013-07-31,1,0.0021975269929117207,0.0023468091061994295,-0.003922495456591097,0.002904937265885943,0.9906056817313167
2013-08-02,1,0.002229428972011108,0.002365233467264666,-0.006538833861102189,0.002904937265885943,0.9907539207416908
2013-08-06,1,0.0024027978350212986,0.0025740396811091797,-0.006538833861102189,0.00708388067047627,0.9901711485249607
2013-08-08,1,0.0016226063428151883,0.0016622867506063466,-0.006538833861102189,0.00708388067047627,0.9907829628975833
2013-08-12,1,0.0012831967275599783,0.0013347214874370528,-0.003199150206401731,0.008426216076574854,0.9911212081782161
2013-08-14,1,0.0013404259472144606,0.0013541043406122744,-0.006538833861102189,0.007305210058325432,0.9908182448126198
2013-08-16,1,0.00046822558980507914,0.0005690896094261097,-0.0055173784886273745,0.00853658057083028,0.9914441218165674
2013-08-20,1,0.00029260256008606606,0.00045022068698721905,-0.0029257717520038314,0.007305210058325432,0.9921552397013225
2013-08-22,1,0.0007075272006281329,0.0008018111894605247,-0.006131651676847398,0.0063783109916357335,0.9921816596495279
2013-08-26,0,-0.0002419841789739216,1.2192546513963161e-05,-0.007150908043742362,0.0063783109916357335,0.9916635372205833
2013-08-28,-1,-0.0012775608085086407,-0.0009232774780340507,-0.006131651676847398,0.0063783109916357335,0.9931622594697556
2013-08-30,-1,-0.0007588514740600174,-0.0005217415151154444,-0.00700449557711651,0.004716367406455,0.9929786709405516
2013-09-04,-1,-0.0002615971820477556,-5.629308243729767e-05,-0.007870093749490298,0.0037461514126191603,0.9928342290900034
2013-09-06,-1,-0.0012113648592611001,-0.0008485888190597403,-0.00700449557711651,0.004716367406455,0.9928834488211941
2013-09-10,-1,-0.0015318941969325373,-0.0010789367256547144,-0.008218537038847316,0.0036290649274669483,0.9926435617378969
2013-09-12,-1,-0.001885765967281462,-0.0014111902700647166,-0.008144249492662247,0.0037461514126191603,0.9911786865952331
2013-09-16,-1,-0.0011071883544787919,-0.0007656592061101206,-0.008144249492662247,0.003599825309092151,0.9917449151426707
2013-09-18,-1,-0.0013839610001617944,-0.0009844648926818139,-0.008144249492662247,0.003599825309092151,0.9907667299477781
2013-09-20,-1,-0.0020133321528620005,-0.001558153409159645,-0.0069797330617214865,0.005254757615330121,0.9905756461301365
2013-09-24,-1,-0.003126268254328395,-0.0024995143500636816,-0.0069797330617214865,0.005254757615330121,0.989515279012114
2013-09-26,-1,-0.002399961615807058,-0.0019081312254879352,-0.0069797330617214865,0.005873989485863556,0.9896501756446424
2013-09-30,-1,-0.00263210157839916,-0.0021454130833543244,-0.003053003350118094,0.010586321632745897,0.9895369642986683
2013-10-02,-1,-0.0029680233731136665,-0.0024177732117798105,-0.0024660262996615287,0.010586321632745897,0.9892303123072567
2013-10-04,-1,-0.0016491434236907574,-0.0013408785335914644,-0.0022905989463367173,0.006270224898908882,0.990001675543481
2013-10-08,-1,-0.002582283164831541,-0.0021671298714751467,-0.0007432207144277743,0.00902051290813476,0.9900747909263301
2013-10-10,-1,-0.0008705686647678948,-0.0006889557054645338,-0.001838554106775238,0.006050979773542723,0.991655098613002
2013-10-14,-1,-0.0009087045481414105,-0.000719474836552482,-0.001838554106775238,0.00902051290813476,0.9903830321414656
2013-10-16,-1,-0.0003570005745738373,-0.00023383972346535865,-0.001838554106775238,0.00902051290813476,0.9897941143996268
2013-10-18,1,0.001096968641230493,0.0012824513408811553,-0.0022905989463367173,0.006050979773542723,0.9905438826910478
2013-10-22,-1,-9.342273308817902e-05,-9.264027759662224e-05,-0.001838554106775238,0.006050979773542723,0.9917926940710586
2013-10-24,-1,-5.493195783892144e-05,-4.6902181728818306e-05,-0.001838554106775238,0.00902051290813476,0.9912957176870094
2013-10-28,-1,-0.0001286200649801508,-0.00010504448955028416,-0.001838554106775238,0.008332112876157219,0.991148134875763
2013-10-30,1,0.0008759657660286862,0.0010281900806826181,-0.0024323725092304034,0.0066019523673541865,0.992037199669006
2013-11-01,1,0.00021984880016572928,0.00023139362928508532,-0.0019926459031857934,0.0066019523673541865,0.9919159737432198
2013-11-05,1,0.0003163787090381249,0.0003269351636824918,-0.004779943974285597,0.00555085014480999,0.9909827494280943
2013-11-07,-1,-5.879510506671394e-05,-5.374741027516567e-05,-0.004779943974285597,0.00683172398995902,0.9909142452054338
2013-11-11,1,0.0003309655557594433,0.0003487379795682516,-0.00693698968482642,0.006647110806897537,0.9916737471344597
2013-11-13,-1,-0.001681897861105001,-0.0014100873087919247,-0.00693698968482642,0.005241464431242171,0.9929603328176572
2013-11-15,-1,-0.0024001353335790523,-0.0020691276281015036,-0.007156302470243552,0.005241464431242171,0.9925744361473722
2013-11-19,-1,-0.0016712612699378102,-0.0014189995432025496,-0.007156302470243552,0.006647110806897537,0.9913349586641824
2013-11-21,-1,-0.0007255090720271811,-0.0005963662429795386,-0.007156302470243552,0.006406594709173734,0.9914960015191316
2013-11-25,1,0.0001512692805563074,0.0001894426230144791,-0.00661725940940029,0.006406594709173734,0.9917600134733325
2013-11-27,1,0.00036947652915497004,0.00045336831501482103,-0.00661725940940029,0.007021975994840007,0.991757412972456
2013-12-02,1,0.0003784628817036445,0.00044980164905275897,-0.00661725940940029,0.0075614267185543805,0.9913868495223467
2013-12-04,-1,-0.0003633603623246785,-0.00035108541114047453,-0.005735208803884264,0.008518296963073263,0.991544185940092
2013-12-06,1,4.8812775896113004e-05,0.00010002670172198799,-0.004483811896394008,0.007593525293821896,0.9924535404276825
2013-12-10,1,2.332858953247533e-05,6.981967642339187e-05,-0.0033783576769033,0.007331610145919749,0.9928575284573428
2013-12-12,1,4.7844903023837196e-05,0.0001525167270495131,-0.004483811896394008,0.007331610145919749,0.9920913476398167
2013-12-16,-1,-0.0004290560665391498,-0.0004195642740839474,-0.0033783576769033,0.007859345355324876,0.9915278515113813
2013-12-18,-1,-0.0002475545533954091,-0.00024592497767559127,-0.0033783576769033,0.007373874757905766,0.9926601691785908
2013-12-20,0,-2.8032366270080338e-05,3.448883326615288e-05,-0.0030216819122172315,0.009142781713924969,0.9922632158184376
2013-12-24,0,-4.215790246135399e-05,0.00010190588682170912,-0.004643228158628262,0.007832184987594635,0.9890266398810988
2013-12-27,1,0.002336160621012064,0.0026417208837596923,-0.006696474913835932,0.008647801849122437,0.9880852568313152
2013-12-31,1,0.0011233115279673134,0.0013792855109879497,-0.01044208622895117,0.008647801849122437,0.9875030629167693
2014-01-03,1,0.000142980392771313,0.00024318272619670026,-0.018663240170778063,0.007676245155237205,0.9860548400739115
2014-01-07,0,-4.167026427569177e-05,4.4739281173953064e-05,-0.018663240170778063,0.008647801849122437,0.9849720028541334
2014-01-09,-1,-0.0002269029692246997,-0.0002021255309480327,-0.018663240170778063,0.009992916872663104,0.9823953448959465
2014-01-13,-1,-0.0010480824275460013,-0.0009843655475757682,-0.0178073680869823,0.009992916872663104,0.9834861863879759
2014-01-15,0,-3.858341872387894e-05,6.967174138678128e-05,-0.0178073680869823,0.009203577711179385,0.9841788448014402
2014-01-17,-1,-0.000541029290485555,-0.0005222375855935274,-0.0178073680869823,0.009203577711179385,0.9840364038530658
2014-01-22,-1,-0.0006018156841656325,-0.0005516933861617452,-0.0178073680869823,0.00853290878586904,0.9849606896536224
2014-01-24,-1,-0.0025900544060964443,-0.0023135455746276998,-0.010708143532365152,0.008858898521419193,0.987645301646706
2014-01-28,-1,-0.0014190220720595582,-0.0012974329441548353,-0.010708143532365152,0.008858898521419193,0.987898906999439
2014-01-30,-1,-0.0020133214314582877,-0.001815475628105122,-0.010708143532365152,0.008184186076968417,0.9880759182419937
2014-02-03,-1,-0.00376361621376407,-0.0033660686093504597,-0.006872491035613355,0.00907238535789834,0.989071245183494
2014-02-05,-1,-0.003875477519435078,-0.003460789634816702,-0.004964794313829426,0.00907238535789834,0.9891922509081283
2014-02-07,-1,-0.0010101035303405731,-0.0009524352039121517,-0.004964794313829426,0.006546766079085223,0.9922933698485277
2014-02-11,-1,-0.0013598563545404124,-0.0012593636466145277,-0.007511332473392247,0.0049074810125031895,0.9914073923755191
2014-02-13,-1,-0.0018637316042524386,-0.0016973814081570884,-0.008937064158075032,0.0049074810125031895,0.9902543765611339
2014-02-18,-1,-0.002086382706464374,-0.001880105837426408,-0.00787411442213824,0.006546766079085223,0.9902588608433188
2014-02-20,-1,-0.0017967391570182971,-0.0016277019495662555,-0.00787411442213824,0.010483201676341307,0.9882366158248667
2014-02-24,-1,-0.0013046886220187826,-0.0011802272766967636,-0.00787411442213824,0.01203299017952685,0.9876498376209651
2014-02-26,-1,-0.0015779648256077643,-0.001426124750891467,-0.00787411442213824,0.01203299017952685,0.987615371618144
2014-02-28,-1,-0.0022566179075902276,-0.002030606645172768,-0.0034282566748747097,0.01203299017952685,0.9881586318883806
2014-03-04,-1,-0.0021734810244188425,-0.001902589620391253,-0.0016924921621902542,0.011204400387623869,0.988858810492857
2014-03-06,-1,-0.0012234313099145336,-0.0009342389480887389,-0.0026811218502446155,0.008830051467382248,0.9900411294491352
2014-03-10,-1,-0.0011758154884150222,-0.0008864294192410526,-0.01198012349074732,0.008830051467382248,0.9884947594067323
2014-03-12,-1,-0.002029347921815366,-0.0016723776541279405,-0.005381312740314753,0.011204400387623869,0.9884002447980397
2014-03-14,-1,-0.0024295235605285596,-0.0020559154314419292,-0.011225931866947706,0.011204400387623869,0.9874967645756915
2014-03-18,-1,-0.002462028897512781,-0.00204962038861505,-0.011225931866947706,0.010976726167627236,0.9875194422321254
2014-03-20,-1,-0.0006770835357178479,-0.0004802014215793478,-0.011225931866947706,0.008914769944618858,0.9887486469486083
2014-03-24,1,0.0004612696191962328,0.0005126986378892523,-0.011225931866947706,0.007504550500720397,0.9895169536322092
2014-03-26,0,-5.558515518109484e-05,1.3354774244214837e-05,-0.008320865439296915,0.008191640228447875,0.9901444839658661
2014-03-28,1,0.00022647038469242537,0.0002600630774189892,-0.011225931866947706,0.008191640228447875,0.9888914662168792
2014-04-01,1,0.0005534009887568798,0.0005718420241932504,-0.011225931866947706,0.008486856852653997,0.988441877712469
2014-04-03,1,0.00018164090653366677,0.00023761377997880064,-0.011225931866947706,0.008914769944618858,0.9882629969792431
2014-04-07,-1,-0.00026139892837431984,-0.00016202908582317095,-0.00902589052155966,0.008914769944618858,0.9890344848168842
2014-04-09,-1,-0.0003390302752844638,-0.00027773273813945835,-0.00832693478827638,0.009829973046584868,0.9891996173336006
2014-04-11,-1,-0.002563202478269776,-0.0022160844062836986,-0.0032239808357878404,0.010752534216101391,0.9903167415943857
2014-04-15,-1,-0.0019024650995209899,-0.0016398163697944929,-0.005549159648437803,0.009917448640133034,0.9906016737002755
2014-04-17,-1,-0.000892874388623443,-0.0007820007567795402,-0.00832693478827638,0.009064974719294912,0.9903809109826436
2014-04-22,-1,-0.0009841060458932976,-0.0008606359926831596,-0.00905545215303136,0.01011253230556077,0.990128783279091
2014-04-24,-1,-0.0006497905480455639,-0.0005739411649685138,-0.00905545215303136,0.0110238630995931,0.9894640653466779
2014-04-28,-1,-0.0016026660879246402,-0.0014307396709252605,-0.0053357771849277804,0.0110238630995931,0.9902793142543183
2014-04-30,-1,-0.002006912186340563,-0.0018701852585355444,-0.00617382593999964,0.010661946882394534,0.9907647031705883
2014-05-02,-1,-0.0009154428049059627,-0.0007858016922283144,-0.00617382593999964,0.009994860934110318,0.9912547362860298
2014-05-06,-1,-0.002060143151257991,-0.0017964046766535662,-0.0033437214648999493,0.010661946882394534,0.9913241548302502
2014-05-08,-1,-0.001450989003550787,-0.0012272694214771373,-0.0033437214648999493,0.00888827268687694,0.9920467473530327
2014-05-12,-1,-0.001047754692694395,-0.0008661999889865872,-0.0038146809803309115,0.008187051664876308,0.9925984637165157
2014-05-14,-1,-0.0010696280589376735,-0.0009430201232804949,-0.0037298957892285926,0.008187051664876308,0.9927657528260222
2014-05-16,-1,-0.002397947353637839,-0.002227524806720338,-0.003248725105986579,0.008187051664876308,0.9936274917942293
2014-05-20,-1,-0.0017612653518595763,-0.0015555367848671528,-0.003071045863574411,0.008187051664876308,0.9932478621064778
2014-05-22,-1,-0.0012363062972048232,-0.0012237901504146555,-0.003248725105986579,0.008187051664876308,0.99367687497632
2014-05-27,-1,-0.0008819122921759737,-0.0008335875765805347,-0.0037298957892285926,0.005013454282525825,0.99392571838715
2014-05-29,-1,-0.000495973346893741,-0.000355965672645185,-0.0037298957892285926,0.007343317184316759,0.9938392654987583
2014-06-02,1,0.0004914461254607127,0.000656394799511053,-0.004143344995408664,0.007343317184316759,0.9934433174859036
2014-06-04,1,0.0013281799825576807,0.0016098729011597202,-0.004143344995408664,0.006523492893819918,0.9939087115592603
2014-06-06,1,0.0011117333216899253,0.0012984062865052223,-0.0045913469036243685,0.006523492893819918,0.99348200190602
2014-06-10,1,0.00037431052676639275,0.0006119402419558682,-0.005732756087702937,0.006523492893819918,0.9930448194383168
2014-06-12,1,2.7699667706766837e-05,0.00020263707958439276,-0.005619631192781499,0.006523492893819918,0.9931258146939835
2014-06-16,1,0.0004783424966072372,0.0007553292402164452,-0.005619631192781499,0.00726138362173695,0.9923451073055995
2014-06-18,1,0.00030874391728314657,0.0004400999221935492,-0.005619631192781499,0.006715114538377317,0.9930441717244304
2014-06-20,1,0.0006889043754275732,0.0008854446669049644,-0.0045913469036243685,0.006715114538377317,0.9933178745561085
2014-06-24,1,0.0004178282395775738,0.0005469020326174417,-0.004330557803764517,0.006715114538377317,0.9934329175746189
2014-06-26,-1,-0.00041831656624666746,-0.00032738580228283047,-0.002689822234108121,0.00687071420964897,0.992889730352605
2014-06-30,-1,-0.0006936139688722572,-0.0005595302064968741,-0.0029063675673369595,0.006809315702454231,0.9935721601526212
2014-07-02,1,0.0007386499768379164,0.0009357168327268912,-0.003501451804786655,0.008512722440504803,0.9927235124853323
2014-07-07,1,0.0009744595239788788,0.0012078767173223253,-0.003501451804786655,0.007399478580249268,0.992797557345592
2014-07-09,1,0.0006993139785725128,0.0008930884027317081,-0.003501451804786655,0.008309771423039165,0.9924881292855809
2014-07-11,1,0.0006933167884975937,0.0008768322465841022,-0.003501451804786655,0.009724118147125187,0.9920353365449787
2014-07-15,1,0.0013205004719905246,0.0015815141478423616,-0.004944680879084883,0.007870927488277942,0.9925285692959321
2014-07-17,1,0.001706092490224429,0.002047837188804507,-0.0041246773356130775,0.007870927488277942,0.9928666410474739
2014-07-21,1,0.0016008008398373497,0.001897472982376908,-0.006995570328721359,0.007478079230703174,0.9927295376902417
2014-07-23,1,0.001151562113369097,0.0013515930460835529,-0.006995570328721359,0.007478079230703174,0.9927743591960916
2014-07-25,1,0.0020084547744725336,0.0023513900167525977,-0.006995570328721359,0.005336044401769399,0.9935966597305128
2014-07-29,1,0.0022054039887924107,0.0026166770055607086,-0.006995570328721359,0.007478079230703174,0.9934952921651071
2014-07-31,1,0.0019589216612858652,0.0023406347051322957,-0.006995570328721359,0.0065262784931595565,0.9944419943419915
2014-08-04,1,0.001466900344854912,0.0017108166882419953,-0.002524344131741922,0.005335206739680429,0.9946717933386469
2014-08-06,1,0.0008652982701287473,0.0009648777999993628,-0.0009158294869161444,0.005004202276847354,0.9954241874325966
2014-08-08,1,0.0010004273050501938,0.001134089779213904,-0.00010638650725247351,0.0047630482844745504,0.9962553989518688
2014-08-12,1,0.0014665378553726741,0.0017313328561837037,0.0003452468638371471,0.005004202276847354,0.9957729906030222
2014-08-14,1,0.002176946037968602,0.0025947144344690923,0.0003452468638371471,0.006714447162047676,0.9949931627486365
2014-08-18,1,0.0017962691750686272,0.0021146915996947614,0.0003452468638371471,0.005335206739680429,0.9955104008582152
2014-08-20,1,0.0019753627512772414,0.0023354268221524727,0.0007315945527249971,0.007384189026238743,0.9949882149524873
2014-08-22,1,0.002321997818829218,0.0027348492675493014,-0.0002762875802224676,0.007384189026238743,0.9941516708295425
2014-08-26,1,0.0028096840746290445,0.003288059861608504,-0.0020648165597891704,0.007384189026238743,0.993796068965365
2014-08-28,1,0.001694151633006367,0.0019265549881545957,-0.0020648165597891704,0.007384189026238743,0.9932060799601293
2014-09-02,1,0.002004542052088025,0.0023025571045728246,-0.005487097292631853,0.007384189026238743,0.9928785328062631
2014-09-04,1,0.0011039397961485134,0.0011804787993875657,-0.007692696643332044,0.007384189026238743,0.9920986968061352
2014-09-08,1,0.0013060962950686423,0.0014242466155220182,-0.007692696643332044,0.009236624799094505,0.9915731056244114
2014-09-10,1,0.0012472635100932317,0.0013689974412569234,-0.007692696643332044,0.009473493789851073,0.9908329423544531
2014-09-12,1,0.001886513279265356,0.00209224367885174,-0.012417165791831095,0.006285422297889131,0.9890773877733972
2014-09-16,1,0.001925519913766804,0.0021418818740324775,-0.014578535156705616,0.006285422297889131,0.9881592658196299
2014-09-18,1,0.0018218273960795028,0.001948300884899259,-0.015180250667229212,0.005143140227618838,0.9875793708846001
2014-09-22,1,0.0014436318899187241,0.0015437677638784745,-0.015180250667229212,0.005853846211818437,0.9877962979654938
2014-09-24,1,0.0016575910588150708,0.001810010515131531,-0.015490416329671023,0.005853846211818437,0.9869045497484265
2014-09-26,1,0.0014924248103933989,0.001572875053323155,-0.015490416329671023,0.01014526718029577,0.9852374712159604
2014-09-30,1,0.0010459009307826521,0.0010660032623624198,-0.015490416329671023,0.01014526718029577,0.9851955780470718
2014-10-02,1,0.0007993266721431176,0.0008065398715426106,-0.015490416329671023,0.012144320619754675,0.985247147204913
2014-10-06,1,0.0007103311064977896,0.0007427752456152989,-0.015490416329671023,0.012773674949112922,0.9844794167945409
2014-10-08,-1,-0.0006933234106740074,-0.00045230092879444857,-0.00661376480985275,0.012773674949112922,0.9852074135508482
2014-10-10,-1,-0.0025147755715624644,-0.0020562669678486885,0.0003167910897311863,0.012773674949112922,0.9864298244696594
2014-10-14,-1,-0.002507048839208512,-0.0020832263726510013,0.0003167910897311863,0.012773674949112922,0.9870004558568756
2014-10-16,-1,-0.003018472486265312,-0.002547503150581063,-0.0011255923550852534,0.012773674949112922,0.9875753598830321
2014-10-20,-1,-0.0031067396739443594,-0.0026373262834187613,-0.004057708638423315,0.010099891678447694,0.9885198805036102
2014-10-22,-1,-0.0024144082045685572,-0.002022763609767766,-0.0031350561984049515,0.008640744941225012,0.9902009204503174
2014-10-24,0,-8.342368606741626e-05,2.0992586245461415e-05,-0.0031350561984049515,0.008154837154640989,0.9932972031811018
2014-10-28,1,0.0004927980197678887,0.0005149813926669984,-0.0031350561984049515,0.008208170663348415,0.9936509094883426
2014-10-30,1,0.0005605700613678041,0.0005864493754351983,-0.003257083876167895,0.006015249549837613,0.9940781242757675
2014-11-03,1,0.0012372601512671399,0.0012829012698360042,-0.004423791671712147,0.005681377577918539,0.9941415222275134
2014-11-05,1,0.001588783677252436,0.001671209461082731,-0.004423791671712147,0.004376805690731537,0.9942057720949234
2014-11-07,1,0.0019876850406268802,0.0021758146719383755,-0.004423791671712147,0.005029254569126998,0.9939010151425265
2014-11-11,1,0.0017093742530044321,0.0018670847753795364,-0.004423791671712147,0.005029254569126998,0.9933791347686529
2014-11-13,1,0.0011638066888026443,0.001237282854415272,-0.004423791671712147,0.005029254569126998,0.9922375538798544
2014-11-17,1,0.0008186921407008602,0.0008461862042432002,-0.0027587837962664593,0.005029254569126998,0.992428636638189
2014-11-19,1,0.0007267646915130629,0.0007368632113576317,-0.0027587837962664593,0.009271868748415055,0.9896525078306779
2014-11-21,1,0.0009903712282021725,0.001051871327908944,-0.0027587837962664593,0.009271868748415055,0.9898197977752382
2014-11-25,1,0.0012048359223046435,0.001302694289384157,-0.003463909165318593,0.00931114275307162,0.989667155445392
2014-11-28,1,0.0010660849153528245,0.0011191606091614697,-0.002531549973957193,0.00931114275307162,0.9898544857508516
2014-12-02,1,0.0009761588317915091,0.0010048784233915072,-0.00418433093103133,0.00626516589371537,0.9902419771266533
2014-12-04,1,0.0015263896636857465,0.0016542176311520385,-0.007460451201359809,0.003841271363949176,0.9897400434648427
2014-12-08,1,0.0019248128408670248,0.0020849683150329637,-0.00881080960338837,0.0026121868853136174,0.9884737854259593
2014-12-10,1,0.001480546883737219,0.001592343439124816,-0.00881080960338837,0.00455645683156555,0.9878689506963
2014-12-12,1,0.0002994953873707491,0.00032839164036775246,-0.008700526824993797,0.00455645683156555,0.9896100711130305
2014-12-16,1,0.0005603544074673115,0.0005828069132632848,-0.00881080960338837,0.00455645683156555,0.9883586076521275
2014-12-18,1,0.0020123846980059715,0.0022089535591527073,-0.00881080960338837,0.0009118128037421112,0.9896666867507788
2014-12-22,1,0.0018403595157585632,0.0019879286133353186,-0.00881080960338837,0.008646066411491134,0.9875758744557109
2014-12-24,1,0.0017153382161779012,0.0018661119257818593,-0.010351929852116856,0.010036899354275257,0.9846426265893455
2014-12-29,1,0.0016253796745671198,0.0017380238246725878,-0.015035946316877342,0.010036899354275257,0.9834353580390898
2014-12-31,1,0.0009443255775858052,0.000964040588126262,-0.015035946316877342,0.010036899354275257,0.9840794400105902
2015-01-05,1,5.648228965438989e-05,0.00016247565522577363,-0.011202970631065031,0.014255138948061309,0.9832036314605277
2015-01-07,-1,-0.0005005362022068968,-0.0003373491403809955,-0.01042145055672414,0.014492600558020194,0.9839628511125993
2015-01-09,-1,-0.00043545484170914476,-0.00027530649020405536,-0.009035104967884344,0.014139906592877123,0.9846978253813015
2015-01-13,-1,-0.0008272798982158721,-0.0006271464843808656,-0.00835277393265903,0.01571731675475088,0.9843012237023806
2015-01-15,-1,-0.0017924934281881295,-0.0014902310845410238,-0.00601918143443283,0.01571731675475088,0.9851235306355149
2015-01-20,-1,-0.0012300264143352887,-0.0010215619875739196,-0.006982487537915045,0.01571731675475088,0.9852123725542601
2015-01-22,1,0.0002816096254010369,0.0003287198286323628,-0.006982487537915045,0.012913673006236852,0.9870858596304175
2015-01-26,-1,-0.0008998715220426886,-0.0007305105078772064,-0.006164741970103162,0.014279877663560142,0.9894553958558544
2015-01-28,-1,-0.001994372417743976,-0.0016952887736050655,-0.006164741970103162,0.014279877663560142,0.9885131886736808
2015-01-30,-1,-0.0017598496814963463,-0.00149411642393377,-0.006164741970103162,0.01444129326294836,0.9881231012727931
2015-02-03,-1,-0.0005226009557953643,-0.0003894891761234596,-0.006164741970103162,0.012913673006236852,0.9901984371918345
2015-02-05,1,8.609140860941128e-06,3.721085581227598e-05,-0.006298841996755071,0.007456842862968582,0.9897907762318211
2015-02-09,1,0.0005979671920478047,0.0006490369653261671,-0.008420537272365138,0.006506164002039497,0.9886503492305501
2015-02-11,1,0.0010087290851489572,0.0011529858198264147,-0.008420537272365138,0.011388835181685146,0.9880212085771194
2015-02-13,1,0.0006894374629695434,0.0007619342743049414,-0.008420537272365138,0.014279877663560142,0.9874005408508033
2015-02-18,1,0.0005458949738876642,0.0006113199155711256,-0.006298841996755071,0.014279877663560142,0.9875632834133177
2015-02-20,1,0.0010002091831494558,0.0011105234185201027,-0.006298841996755071,0.014558594262362765,0.9872014499220642
2015-02-24,1,0.0009296631939313481,0.001009757079399681,-0.009303726191417871,0.011589539982312286,0.9871839531414573
2015-02-26,-1,-0.0006835345728387775,-0.0005327881867317882,-0.006789034992815284,0.011589539982312286,0.9885476387313605
2015-03-02,-1,-7.488229326800102e-05,-2.451782755689074e-05,-0.006789034992815284,0.009218310968733035,0.9889672036299477
2015-03-04,-1,-0.0006783902835505432,-0.0005325810306812587,-0.006789034992815284,0.009218310968733035,0.9891233801052529
2015-03-06,-1,-0.0025584163277834644,-0.0021110738909913725,-0.0049757551410798675,0.009504229095944948,0.989761324926964
2015-03-10,-1,-0.003501294289614227,-0.0029276616288443314,-0.004179111295593274,0.008907001893795998,0.9905835552237595
2015-03-12,-1,-0.0024377087138799138,-0.0019910681125926105,-0.004179111295593274,0.007453938556982205,0.9920304323349911
2015-03-16,-1,-0.001979839830273402,-0.0015909462587787024,-0.004179111295593274,0.007151691994136266,0.9928990501648048
2015-03-18,-1,-0.0020738206864163757,-0.001675853434866477,-0.0035423066329807523,0.006124661358496038,0.9933734992873491
2015-03-20,-1,-0.0006071957768278918,-0.00047112963833408875,-0.003728400048493733,0.006124661358496038,0.9937789247429932
2015-03-24,-1,-0.0011839307574367137,-0.0009950881361376813,-0.0014929701677457163,0.007151691994136266,0.993427274376431
2015-03-26,-1,-0.0013297581426689187,-0.0011298016841802085,-0.0014929701677457163,0.007151691994136266,0.9932758023207426
2015-03-30,-1,-0.0007018045532861822,-0.0006203092361230166,-0.0011100025559294163,0.007391900181383721,0.9930308805040661
2015-04-01,-1,-0.0005445392673995699,-0.000505040545200969,0.000985174372769859,0.007391900181383721,0.9928552671539403
2015-04-06,1,4.9821281910888225e-05,9.31805691498108e-05,0.000985174372769859,0.007391900181383721,0.9929221221005655
2015-04-08,1,0.00021537372272352625,0.00027633260813910104,-0.0017299885688190336,0.0069416419739290695,0.9932580508380601
2015-04-10,1,0.00023824491908904394,0.0002827770504713382,-0.0017299885688190336,0.007216984607996266,0.9931580109725731
2015-04-14,1,8.919569994124632e-05,9.724920082095434e-05,-0.004205677235728772,0.007216984607996266,0.9928184177204727
2015-04-16,1,0.00014394850163012012,0.0001660265253945621,-0.004398666749632809,0.007216984607996266,0.9926603958410071
2015-04-20,1,0.00019724308084565205,0.00023655974424200267,-0.0033967384257994893,0.007216984607996266,0.9929680691302495
2015-04-22,1,0.0009329582108258188,0.001080593013338338,-0.0033967384257994893,0.0069416419739290695,0.9938576267324936
2015-04-24,1,0.00020982222966571987,0.00025128903748526383,-0.0033865015418934616,0.0069416419739290695,0.9947440912627655
2015-04-28,1,0.0008982485550305282,0.0010519491275066692,-0.0035590172879854426,0.005721130008111426,0.9943193256681122
2015-04-30,1,0.0007625524778643843,0.0009091076623314701,-0.0035590172879854426,0.007009230383095361,0.9936090010548239
2015-05-04,1,0.001629709927547279,0.0019182720415758946,-0.00438055147322863,0.0036491382693825667,0.9938459966274241
2015-05-06,1,0.0010791462528083064,0.0012648017727192205,-0.00438055147322863,0.005857969825578019,0.9930970010955852
2015-05-08,1,0.0006648883848528284,0.0007385301699008736,-0.00438055147322863,0.006073892299695458,0.9926246558795297
2015-05-12,1,0.0003819759421471108,0.0004139471536699658,-0.0036285075585504112,0.008910087775047655,0.9921552771608898
2015-05-14,1,0.0013252421983877987,0.0015777994711633657,-0.0035977969068323283,0.008910087775047655,0.9924814526147605
2015-05-18,1,0.0015423879026929064,0.0018167911344666376,-0.00438055147322863,0.006073892299695458,0.9923095954764328
2015-05-20,1,0.0015221404542038355,0.0018011976718589344,-0.0048597281302363,0.006033677359338867,0.9922001486492147
2015-05-22,1,0.00133944441883196,0.001596148018312042,-0.007257911757279438,0.007485676749240415,0.9916130727704462
2015-05-27,1,0.0011764522727007384,0.0013848288360535752,-0.0048597281302363,0.005767756365097373,0.9924440672215008
2015-05-29,1,0.0007081967844557173,0.0008330613094320102,-0.0048597281302363,0.004904989370244573,0.9926699344923355
2015-06-02,1,0.0003306232726120127,0.00037822456902932407,-0.005829973239874422,0.005767756365097373,0.9910249482841926
2015-06-04,1,0.0003423390753592979,0.000400040123488834,-0.0046438690922765355,0.005358922313281998,0.9918950281172972
2015-06-08,1,0.000667360064318085,0.0007602234570388235,-0.00515425959931082,0.004904989370244573,0.9924901176085021
2015-06-10,1,0.0008763764270570901,0.0009544430266701181,-0.006610334643400144,0.004713434896775816,0.9920128012541097
2015-06-12,1,0.000821385335595181,0.0008998542349934072,-0.006610334643400144,0.005358922313281998,0.9908511333780979
2015-06-16,1,0.0012942755467504007,0.0015115651336651686,-0.00515425959931082,0.005639168874528241,0.9911430280420214
2015-06-18,1,0.0007931386692273545,0.0008032143055717719,-0.00515425959931082,0.006157501579925259,0.9906563068738157
2015-06-22,0,-0.00012198151692337835,2.4152905169276442e-05,-0.0025802042491640696,0.005639168874528241,0.9911181759055188
2015-06-24,0,-2.541825523617641e-05,0.00010554279199932379,-0.00515425959931082,0.006679207928736896,0.9902590269303947
2015-06-26,1,0.00027726739679680525,0.0002880731002885977,-0.005892249027341147,0.006679207928736896,0.9881192336568072
2015-06-30,-1,-0.00031009925894016227,-0.00024927207050320444,-0.00515425959931082,0.007073021614880216,0.9890464979109534
2015-07-02,-1,-9.485896617192494e-05,-7.8637956625279e-05,-0.005622278130849711,0.009884846971854145,0.9887999385223399
2015-07-07,1,0.0001627392228037028,0.00018625003382411013,-0.0010675105951330574,0.011270584895298856,0.9881653180670227
2015-07-09,-1,-0.0007192382792563972,-0.0006362165053452127,0.0005966069845998307,0.011270584895298856,0.9890995801595126
2015-07-13,0,-6.390861246029312e-06,3.6863941124765185e-06,0.0005966069845998307,0.009884846971854145,0.9901469348272256
2015-07-15,1,0.0005040722727284552,0.0005999973701059484,-0.007384101297369241,0.009884846971854145,0.9893987723266754
2015-07-17,1,0.0008919112510059661,0.001041553107264519,-0.007384101297369241,0.009884846971854145,0.9896211163040487
2015-07-21,1,0.0004272392559959041,0.00045253636390708287,-0.007384101297369241,0.009884846971854145,0.9893479222541709
2015-07-23,1,0.0004702520299078081,0.000519968253658331,-0.007384101297369241,0.008559807456762313,0.9889849554114437
2015-07-27,-1,-0.0014955536009603997,-0.0012902759845092471,-0.009193428410359273,0.008559807456762313,0.9875782727869755
2015-07-29,-1,-0.00014502296871171964,-1.5704791565541694e-05,-0.014262251683213548,0.008559807456762313,0.9859077085202754
2015-07-31,-1,-0.000650329211812519,-0.000422516569955363,-0.014262251683213548,0.009137500602258028,0.9851378197290077
2015-08-04,1,0.0008331703934659387,0.0008337985009773127,-0.017138562708011153,0.003501674818183382,0.9836978448065825
2015-08-06,1,0.0008929144766155056,0.0009485771979630077,-0.017138562708011153,0.009637637531863048,0.9827712611544633
2015-08-10,1,0.0010755218631490935,0.0011536825530284178,-0.019761219542268386,0.009637637531863048,0.9809341560544901
2015-08-12,1,0.0007222410173359407,0.0007818735613329051,-0.019761219542268386,0.009637637531863048,0.9815640663687444
2015-08-14,1,0.0006680613685489969,0.0006778773557412838,-0.019761219542268386,0.0060128865643744745,0.9819772888377127
2015-08-18,1,0.0003453312192142231,0.0003848882795914111,-0.019761219542268386,0.00885083764770762,0.9819168904541159
2015-08-20,-1,-0.0005830203380590799,-0.00043453470657077133,-0.019761219542268386,0.00885083764770762,0.9814956566311969
2015-08-24,1,1.1268724406482595e-05,9.496444268250809e-05,-0.016610563177447656,0.009715280046008183,0.9841630221459877
2015-08-26,1,0.0005818927787665565,0.0005912993163203314,-0.014038746940737416,0.00885083764770762,0.986312728676555
2015-08-28,1,0.0009121148504391884,0.0009796888376139945,-0.016610563177447656,0.00885083764770762,0.9854316142292402
2015-09-01,-1,-0.00010989380672960398,-5.566623315270315e-05,-0.012402751115796473,0.00886604635444232,0.9873178205491155
2015-09-03,1,0.00046485100733129547,0.000477432741477135,-0.012402751115796473,0.005997914645321083,0.9883711968758696
2015-09-08,1,0.0005848738855116257,0.000612081770785011,-0.009268706751286571,0.005997914645321083,0.9893263825079917
2015-09-10,1,0.0003337693989449972,0.00034270623369747524,-0.008196908681539028,0.008840935297565796,0.9893405500767743
2015-09-14,1,0.0004088772575429067,0.0004456452002639403,-0.00868998707757393,0.008840935297565796,0.9888859814439758
2015-09-16,1,0.0003487339810483571,0.0003572914843501438,-0.013030246076555388,0.006886598223145785,0.9875815939717555
2015-09-18,-1,-0.00029753706008673144,-0.00023773477073090702,-0.010369941200800014,0.009685572995582708,0.9883725795713365
2015-09-22,-1,-0.0004907806961057897,-0.00039457963622298916,-0.009861305577117754,0.007079884313366875,0.9890204486677452
2015-09-24,-1,-0.0004543683167773988,-0.00039243828945021504,-0.009861305577117754,0.00998227840610355,0.9873124862963915
2015-09-28,-1,-0.00117120797076747,-0.001010652082256328,-0.009861305577117754,0.007079884313366875,0.9880749662622328
2015-09-30,-1,-0.000576190090156367,-0.0004927718327182683,-0.009861305577117754,0.009504281283111045,0.9862173326978201
2015-10-02,-1,-0.00020474942002065503,-0.00015364583956288557,-0.010348160961435114,0.009504281283111045,0.9854027139117454
2015-10-06,-1,-0.0006771326408632906,-0.0005816391360573118,-0.010348160961435114,0.013259115680307897,0.9853100173194267
2015-10-08,1,0.00018994941582279343,0.00021029498321882036,-0.010348160961435114,0.014093220910435592,0.9854600731476727
2015-10-12,-1,-0.00015409380108917915,-0.0001249931401495468,-0.012302316488189522,0.016180938033978257,0.9845982898099537
2015-10-14,-1,-0.0012967581633456212,-0.0011244361011092064,-0.010348160961435114,0.016180938033978257,0.9853834239404896
2015-10-16,-1,-0.00042208371032474744,-0.0003589215441898349,-0.011801034918827061,0.013921166077753847,0.9857771144609275
2015-10-20,-1,-0.0007208899671074687,-0.0006056226060028513,-0.011801034918827061,0.013921166077753847,0.9858373241383328
2015-10-22,-1,-4.3632185089288614e-05,-1.337886377538388e-06,-0.009803877080219634,0.013921166077753847,0.9866552467744554
2015-10-26,-1,-0.0012581117871644878,-0.0010680453082892415,-0.008307433760445487,0.013921166077753847,0.9879466605842803
2015-10-28,1,0.0008679922707205843,0.0009652302539993921,-0.008307433760445487,0.01006014508456909,0.99012712663631
2015-10-30,1,8.521331386487396e-05,0.00012383915871220673,-0.003639518556417313,0.01006014508456909,0.9908565244938178
2015-11-03,1,0.001072294996185863,0.001228803788400551,-0.003639518556417313,0.005802566171744433,0.9921468912531968
2015-11-05,1,0.0012911019509065599,0.0014597500025554442,-0.0052282929031775985,0.005802566171744433,0.9906039761248363
2015-11-09,1,0.0009931528912645745,0.001127348106469175,-0.010426941334932927,0.0036912070079405173,0.9902921008167896
2015-11-11,1,0.0006236597691564134,0.0006942400444235517,-0.010533445580088348,0.003778464155939496,0.9895735622279795
2015-11-13,1,8.361933308135072e-05,8.89410321668994e-05,-0.007947829013539121,0.003778464155939496,0.9885073623087782
2015-11-17,1,0.0004371447818167822,0.00047273405257716673,-0.007947829013539121,0.004056068728647487,0.9870071556681309
2015-11-19,1,0.0006850097885640344,0.0007284827113485277,-0.017285870202083827,0.0024514708949182596,0.9855525574034466
2015-11-23,1,0.0005819538139097947,0.0006075272077287087,-0.017285870202083827,0.007371262433625516,0.9846162321032902
2015-11-25,1,0.0008049157978358744,0.0008702201576722619,-0.017285870202083827,0.010045636309085056,0.9845033550293588
2015-11-30,-1,-0.00015658085627598937,-4.513623084661454e-05,-0.017285870202083827,0.010045636309085056,0.9845744369600024
2015-12-02,1,0.00038553285597151086,0.0003873765643916654,-0.017351231130087942,0.010045636309085056,0.9836929519624147
2015-12-04,1,0.0014219232794447888,0.0015698857372962978,-0.019166259071679154,0.007754300651758925,0.9848689090888305
2015-12-08,1,0.00014040935751013237,0.00014684102595320062,-0.026367148845902334,0.007754300651758925,0.9830445675500971
2015-12-10,-1,-0.00033416064253716455,-0.0002976737815446689,-0.02538069747595075,0.007754300651758925,0.9833050510479794
2015-12-14,-1,-0.001212578758906087,-0.0010656174456188214,-0.02538069747595075,0.010045636309085056,0.9828458885073802
2015-12-16,-1,-0.0003718339896890673,-0.00026913615042562,-0.02760605893329044,0.007754300651758925,0.9823358184537427
2015-12-18,-1,-0.0020291497912282765,-0.0017538121273741446,-0.02030620721695102,0.009776504188505257,0.9843082100608208
2015-12-22,-1,-0.0009946881909145132,-0.0008387695260346714,-0.02030620721695102,0.007951894775367344,0.9837169360244215
2015-12-24,-1,-0.0004560377349001074,-0.00040177385984661683,-0.026762688484460485,0.007951894775367344,0.981283301816883
2015-12-29,-1,-0.00014013010950095805,-0.00013946456552976072,-0.029943608294242176,0.0037436703701603504,0.9780657100272907
2015-12-31,-1,-0.00025615210380438376,-0.00023927232873694902,-0.029943608294242176,0.010549351991266871,0.9747491893751444
2016-01-05,-1,-0.0008671161075754508,-0.0007868044690304293,-0.03322874465340664,0.012140068237806577,0.9735330307143816
2016-01-07,-1,-0.0021756095424307204,-0.0019619606821809532,-0.026762688484460485,0.015361602094177255,0.975596101993695
2016-01-11,-1,-0.00271633018904497,-0.002437009880623822,-0.019859647880791576,0.015361602094177255,0.9761941530519315
2016-01-13,-1,-0.0036893157504561767,-0.003257240314737641,-0.018931659738132333,0.012140068237806577,0.9776206107589375
2016-01-15,-1,-0.0035460298233373913,-0.0031278835430901333,-0.01593117583408569,0.024978097630798373,0.9760686391269872
2016-01-20,-1,-0.002839005380209087,-0.002557223873746144,-0.017068782052294562,0.024978097630798373,0.9760720823711925
2016-01-22,-1,-0.0022488537698572347,-0.0020491896238312712,-0.017068782052294562,0.017651325480120543,0.9765986406358944
2016-01-26,-1,-0.003136402372451737,-0.002788398217438996,-0.018491393348498034,0.012231891052298752,0.9775173813350939
2016-01-28,-1,-0.003975473355486695,-0.0035640113075612124,-0.017068782052294562,0.013002640513568425,0.979547860624809
2016-02-01,-1,-0.0028967464158955025,-0.002634649354192732,-0.016132944887455255,0.013002640513568425,0.981294074407488
2016-02-03,-1,-0.0026525519249888598,-0.0024137647233426025,-0.013295150938085063,0.011468895193488737,0.9826307210485739
2016-02-05,-1,-0.0030401221796033957,-0.0027451589074577974,-0.01243216364411872,0.011034329359375771,0.9837257877943929
2016-02-09,-1,-0.0027534290794148978,-0.002515050098064471,-0.012945878419101386,0.011034329359375771,0.9834105274995497
2016-02-11,-1,-0.003840216874207321,-0.0034289110415345707,-0.008369763469699055,0.011468895193488737,0.9831976502853453
2016-02-16,-1,-0.001683156344309137,-0.001529064542934802,-0.01289888637432414,0.010754100450244303,0.9867233665763537
2016-02-18,-1,-0.0026899177839326614,-0.002405380526210118,-0.008369763469699055,0.010754100450244303,0.9867927881959438
2016-02-22,-1,-0.002231167193486639,-0.0019744141222124024,-0.008369763469699055,0.011070233386341886,0.9857699263608473
2016-02-24,-1,-0.0027535254710886587,-0.002465325040757795,-0.005639536135606423,0.011070233386341886,0.9870650003041169
2016-02-26,-1,-0.00207838562426656,-0.0018994098741207319,-0.007946388965424107,0.00992608453842336,0.9876145567272943
2016-03-01,-1,-0.0010718520748312136,-0.0009891979610787353,-0.006182864623522811,0.00963776006220303,0.9900338099417868
2016-03-03,-1,-0.00041889544753830114,-0.00038255790694585864,-0.006182864623522811,0.007929599343677646,0.9904895393333633
2016-03-07,-1,-0.0003640035236314068,-0.0003302920483098287,-0.007946388965424107,0.005374700489394552,0.9900763366374962
2016-03-09,-1,-0.0017318987623075564,-0.0015540976215777879,-0.007946388965424107,0.007929599343677646,0.9890569629676781
2016-03-11,-1,-0.000384591559964728,-0.0003599537409737184,-0.006759505014237324,0.005835548181855579,0.9902824408283945
2016-03-15,-1,-0.0011825970023352137,-0.00111024505770427,-0.003355225495031992,0.009816297154901019,0.9882308962878222
2016-03-17,-1,-0.00015612810295275576,-5.8666360968716205e-05,-0.006462606743690135,0.008071260324081867,0.9885277497287092
2016-03-21,1,0.00038180730909890024,0.0004864182878848986,-0.006462606743690135,0.005812992419144286,0.9902296190335963
2016-03-23,1,0.001036332945535288,0.0013312725396706381,-0.006462606743690135,0.006470461511632891,0.9894590910451173
2016-03-28,0,-8.998092081944741e-06,8.178315394985388e-05,-0.0038473384023400433,0.008071260324081867,0.9892699592234776
2016-03-30,1,0.0006900136588791659,0.0009407658984473183,-0.0038473384023400433,0.012645610874526396,0.9876801280387366
2016-04-01,1,0.0012833061415087874,0.001634746812230143,-0.008211999257631643,0.012645610874526396,0.9868907040552523
2016-04-05,1,0.000727087904270022,0.0009943759575811422,-0.008211999257631643,0.012645610874526396,0.9860111052568619
2016-04-07,1,3.706097276085727e-05,0.00020518290554120695,-0.008211999257631643,0.012645610874526396,0.9868727727244483
2016-04-11,0,-1.5617125913529924e-05,0.00011707169492608505,-0.008211999257631643,0.012645610874526396,0.9871304263326135
2016-04-13,1,0.0018381919354060238,0.0022459654924719546,-0.008633749829149643,0.010203454251736795,0.988212149623347
2016-04-15,1,0.0016958546239546222,0.0021116591323879653,-0.009788052145186773,0.010203454251736795,0.9877962231640074
2016-04-19,1,0.0020336840864472036,0.0024971476076668187,-0.009788052145186773,0.010203454251736795,0.9876679814934402
2016-04-21,1,0.002469627436600342,0.0030042954536574048,-0.012129974842130275,0.010203454251736795,0.9871142922069852
2016-04-25,1,0.002604802767402918,0.0031500987520892854,-0.012129974842130275,0.010266757088811236,0.9873009813932402
2016-04-27,1,0.003783758896333676,0.0044880016881435475,-0.012129974842130275,0.010266757088811236,0.9870726096709812
2016-04-29,1,0.0034783268579813794,0.00419135093966936,-0.012129974842130275,0.010266757088811236,0.9878301153012219
2016-05-03,1,0.002605092121736204,0.003134929145847465,-0.007333910433965702,0.00900124571725874,0.9892636286131014
2016-05-05,1,0.0017344623937468068,0.002117175369844921,-0.007333910433965702,0.00900124571725874,0.9890190969617884
2016-05-09,1,0.0014366087036013471,0.001737304761713231,-0.012076749251340507,0.013286142575774285,0.9873523812905394
2016-05-11,1,0.002074586327882613,0.002517512924026572,-0.012523230208067684,0.00900124571725874,0.9875275104330542
2016-05-13,1,0.0009737029323041648,0.001182282576553245,-0.012523230208067684,0.00900124571725874,0.9877515188683342
2016-05-17,1,0.0017414077717934756,0.0020988677180793476,-0.012692147923020971,0.008410799049849085,0.9867927597687031
2016-05-19,1,0.0020670120128605846,0.002467596388470417,-0.012532471150651665,0.0069117119029789235,0.9881392103108355
2016-05-23,1,0.0023814988805705116,0.0028382826399552617,-0.012532471150651665,0.0069117119029789235,0.9882535517312656
2016-05-25,1,0.0030614832522314734,0.003588198190171185,-0.012532471150651665,0.0033565452721572684,0.987847140330638
2016-05-27,1,0.0024183259995661866,0.0028379988240364936,-0.015895253457123122,0.0010306268998543978,0.9808915168962922
2016-06-01,1,0.0016747681229135843,0.0019091529444538024,-0.015895253457123122,0.007445196558688555,0.9806419304777098
2016-06-03,1,0.0007686965855448266,0.0008669161599830766,-0.013116669342076096,0.01015152912521388,0.9807358916088835
2016-06-07,1,0.00045705412611954984,0.0004756390896691031,-0.015895253457123122,0.007445196558688555,0.9809866946105673
2016-06-09,-1,-0.0001626715876100007,-8.318915902651329e-05,-0.01060826601448855,0.01015152912521388,0.9811574696095688
2016-06-13,-1,-0.00037794075130395026,-0.0002777203454204598,-0.006943781812379141,0.013530346516863977,0.9807579561586599
2016-06-15,-1,-0.0009949514070902781,-0.0008172770643767582,-0.005254339628166302,0.018148933311501587,0.9802745708838636
2016-06-17,-1,-0.0007873203913709532,-0.0006424805308921874,-0.002384561462215707,0.018148933311501587,0.9796585773414778
2016-06-21,-1,-0.0015209667953095057,-0.0012126572307024324,-0.003316008677698381,0.018148933311501587,0.9799873473183423
2016-06-23,-1,-0.00028628508724957443,-0.00016920788939692584,-0.0041165411678528285,0.016643463871869685,0.9806335909551154
2016-06-27,-1,-0.0039505233731508115,-0.0034050345790884126,-0.0018453637942025657,0.016643463871869685,0.9863376512739813
2016-06-29,-1,-0.0032437641294298263,-0.002773129658053172,-0.0018453637942025657,0.021105648098894828,0.9821992079072501
2016-07-01,-1,-0.0027767972899302405,-0.002345181054437882,-0.0018453637942025657,0.01743332985935943,0.9836431349348481
2016-07-06,-1,-0.0047145567174153745,-0.004016205038180254,0.000987175610861721,0.01743332985935943,0.982937529077636
2016-07-08,-1,-0.0027948480423238345,-0.0024200596957288656,0.0011431147888586017,0.01743332985935943,0.9835313803029919
2016-07-12,-1,-0.002310301797041947,-0.0019645982035646535,-0.0013775462602119242,0.013458099589658736,0.9849427643152548
2016-07-14,-1,-0.0010970995278624502,-0.0009287395674434892,-0.0020213866652781173,0.012323846512336475,0.9861981253123988
2016-07-18,-1,-0.001099707734691605,-0.0008656164683748902,-0.0030315211632145457,0.012528349216325405,0.9866700497193303
2016-07-20,-1,-0.0008217561749895765,-0.0006458670428299896,-0.0033329747136376198,0.012528349216325405,0.9868753691197677
2016-07-22,-1,-0.00013779215609131405,-8.330287984733116e-05,-0.0021218711820858087,0.00986990683850672,0.988095830022535
2016-07-26,1,3.015487419471636e-05,4.8106021022804655e-05,-0.00112573814540955,0.008961223759352465,0.9886339536244976
2016-07-28,1,0.002765910855440504,0.0031122803940190538,-0.0021218711820858087,0.005050195746861341,0.9939855411732775
2016-08-01,1,0.0024422930576999324,0.0027015435676413747,-0.0021218711820858087,0.005795870491523993,0.9938030416233288
2016-08-03,1,0.00258515436481042,0.0028854221013018388,-0.001508628068035253,0.005832906324117667,0.9940502452007327
2016-08-05,1,0.0029508706200218984,0.0032614027537714026,-0.0017236637240043437,0.005624277759580628,0.9951698031124231
2016-08-09,1,0.002829060820406639,0.0031386089917550247,-0.0017236637240043437,0.005624277759580628,0.995293681711747
2016-08-11,1,0.0035020615556086016,0.003958463099014385,-0.0020759563556144093,0.0034002195407878784,0.9947410672199701
2016-08-15,1,0.003572743819360474,0.004023387674652315,-0.0020759563556144093,0.0034002195407878784,0.9938932856210672
2016-08-17,1,0.003097522800555149,0.00345090431119278,-0.00149332312587812,0.005624277759580628,0.9940285325101496
2016-08-19,1,0.002982069415231178,0.0033179394057893307,-0.003734990213001578,0.005624277759580628,0.9931571436265348
2016-08-23,1,0.003060304239490333,0.0034128536836454397,-0.003734990213001578,0.008629946505096818,0.9923003828994147
2016-08-25,1,0.0026069451518129765,0.002858253686541066,-0.003734990213001578,0.008629946505096818,0.9922293440877972
2016-08-29,1,0.0024454906387042885,0.0026269031289851844,-0.004400579923757003,0.01035201301837153,0.9911599792189012
2016-08-31,1,0.002548184097075887,0.0027451539947234527,-0.007411150561788232,0.008159332303520261,0.9901863484855263
2016-09-02,1,0.003075593896826309,0.0034278882145022116,-0.007411150561788232,0.011520847734313718,0.9899915488125399
2016-09-07,1,0.0029190618367852727,0.0032372432469256604,-0.007411150561788232,0.013704710851551638,0.988660474205496
2016-09-09,1,0.0026152988548800767,0.0029054524399897024,-0.004400579923757003,0.013704710851551638,0.9889526689334839
2016-09-13,1,0.0025130741151593197,0.0028080684231549012,-0.005837352365075742,0.013704710851551638,0.9890670149235614
2016-09-15,1,0.002922547682551349,0.003270864444090603,-0.008270970887858014,0.011554418954101125,0.9880917088083216
2016-09-19,1,0.0027805296446293216,0.003168949902046106,-0.005837352365075742,0.011554418954101125,0.988925564358057
2016-09-21,1,0.0030384688013609246,0.0034208314323598554,-0.005837352365075742,0.010836611887867404,0.9889944419103485
2016-09-23,1,0.002510493876672101,0.002793964288540737,-0.005582995289907238,0.010836611887867404,0.9891122673463654
2016-09-27,1,0.001982344908661041,0.0021611712250385095,-0.005582995289907238,0.008542969043573061,0.989675804563224
2016-09-29,1,0.0013977581488831261,0.0014947763496505097,-0.005582995289907238,0.009348064200715812,0.9901946776001007
2016-10-03,1,0.0017985749116367579,0.001957962464538004,-0.005582995289907238,0.008028002087797002,0.9903614367168706
2016-10-05,1,0.0023084792086943426,0.0025094567387328763,-0.006249283684291694,0.0066861157307247865,0.9912945559029515
2016-10-07,1,0.002132315157156211,0.002315568919958013,-0.006249283684291694,0.0066861157307247865,0.9916095756606222
2016-10-11,1,0.0015575538011858992,0.0016929347227017675,-0.0048718374672665505,0.00725679578218225,0.9917003830541745
2016-10-13,1,0.0011173268732175747,0.0011851013607352646,-0.0040382700781648306,0.009348064200715812,0.9902717524453889
2016-10-17,1,0.0013928376181290057,0.0015556701775420595,-0.0037919881418412844,0.012141119530773865,0.9892947390299212
2016-10-19,1,0.0018176224299898515,0.0020282400240393887,-0.0040382700781648306,0.00898120378848268,0.9892146276739122
2016-10-21,1,0.001803979524799419,0.0020139094459339785,-0.0040382700781648306,0.00898120378848268,0.9892499209536537
2016-10-25,1,0.001353829949628572,0.0014548938999830164,-0.0040382700781648306,0.00898120378848268,0.9895005407359223
2016-10-27,1,0.0013670888289364226,0.0014848859864460427,-0.0037919881418412844,0.008519703391557516,0.9902941573106868
2016-10-31,1,0.0008353176740134893,0.0008606282684788592,-0.001774108080412722,0.008519703391557516,0.9896332056614772
2016-11-02,1,0.000465402128154202,0.0005113881900191909,-0.0004674542651918693,0.016958591619150986,0.9882846327359731
2016-11-04,1,7.314644301002597e-06,0.00014744546096668811,-0.001774108080412722,0.016958591619150986,0.9868174981322825
2016-11-08,1,0.00047900906970420125,0.0005717043395782697,-0.0011357535854477087,0.011040538294074469,0.9879116081596522
2016-11-10,1,0.0016506741042076872,0.0017068635118534076,-0.004679254622138917,0.00924063504549794,0.9896537315994779
2016-11-14,1,0.002605088363655475,0.0027858831380798235,-0.004638947318163473,0.00845807393368634,0.9907362854400652
2016-11-16,0,-0.00012468321903989473,0.00023960945866561092,-0.004638947318163473,0.008399399347811804,0.991050905329744
2016-11-18,1,0.00013997614456767032,0.00044775182112232435,-0.0076584087358902144,0.0064995646277108046,0.9903729884937938
2016-11-22,1,7.66960696394097e-05,0.000362737987032345,-0.0049853046839291384,0.00884360787680266,0.990247609708984
2016-11-25,-1,-0.0005582410523337223,-0.00015420336506265686,-0.0050664232589051105,0.00884360787680266,0.9902789145550479
2016-11-29,-1,-0.0007899363403760292,-0.00038835222387133966,-0.004841744145260582,0.00884360787680266,0.9907957037101428
2016-12-01,0,-0.00015338014000734735,0.00015590201745606272,-0.007819596507582426,0.004375771345322064,0.9923788934725286
2016-12-05,1,5.48973732690933e-05,0.00031785971962713347,-0.004841744145260582,0.006465998171935485,0.9911587298649657
2016-12-07,1,0.0002795004754402356,0.0004942111471996406,-0.007277327518820753,0.00884360787680266,0.9907560270559136
2016-12-09,1,0.0001438662997674165,0.0003802602750533155,-0.007277327518820753,0.00515711909501935,0.9915532521844634
2016-12-13,0,-8.169696954050476e-05,0.0001742639163954526,-0.007819596507582426,0.00884360787680266,0.9905141461874863
2016-12-15,-1,-0.0003321416181505712,-4.6333881168183306e-05,-0.007989495680419347,0.008933688428010102,0.9892925890162991
2016-12-19,1,0.0009884700807011762,0.0010286469028637664,-0.007989495680419347,0.008933688428010102,0.9892260167722049
2016-12-21,1,0.0008764320363187581,0.0008900807381754125,-0.007989495680419347,0.005280766102002111,0.9893211689469477
2016-12-23,1,0.0007820476324148265,0.0007959300929333169,-0.009239609924563416,0.009536652147501155,0.9867512526858554
2016-12-28,1,0.000745599110476575,0.0008202676272325679,-0.010323844122852099,0.009536652147501155,0.9861339698209295
2016-12-30,1,0.00045484173913727866,0.00047110969835053494,-0.010124705968752956,0.009536652147501155,0.9865391408988932
2017-01-04,1,0.0016999905337121064,0.0018932289178196279,-0.010124705968752956,0.0027990577015761246,0.9886755413741734
2017-01-06,1,0.0016103777763418806,0.00179785807560553,-0.010124705968752956,0.0027990577015761246,0.9883596066743762
2017-01-10,1,0.0012097674887448916,0.0013357839524733273,-0.007973659722847621,0.0027990577015761246,0.9890530282154634
2017-01-12,1,0.0013017705183237794,0.0014374548023567656,-0.006165105221999048,0.0027990577015761246,0.9900774065670268
2017-01-17,1,0.0006078920967031811,0.0006452962783640096,-0.005058890752445291,0.004383140294171228,0.9902010538021392
2017-01-19,1,0.000518307154781403,0.0005434508950280443,-0.005058890752445291,0.006142718893763464,0.9901683635545306
2017-01-23,1,0.0005609404725339654,0.0005949942391897383,-0.003339614388411946,0.006142718893763464,0.9904224547224196
2017-01-25,1,0.0009801858509971963,0.0010786894684634341,-0.00419192164508312,0.003385583901440203,0.9928070860293171
2017-01-27,1,0.0006035546341881602,0.0006524422030529235,-0.0031213634210252245,0.0038818678653427066,0.9933302184937279
2017-01-31,1,0.0007009829860189994,0.0007605811924443856,-0.0031213634210252245,0.006641180253566669,0.9920269631192977
2017-02-02,1,0.0005444772271462809,0.0005603258799742034,-0.0031213634210252245,0.006641180253566669,0.9913987602756832
2017-02-06,1,0.0005815933012598927,0.0005907097331564054,-0.004195810277004193,0.005813873014380796,0.9921132583362187
2017-02-08,1,0.0009055466300832613,0.0009742611438116309,-0.004195810277004193,0.005813873014380796,0.9921148288681838
2017-02-10,1,0.0004249645862958553,0.00045073356815091497,-0.004688239626624284,0.004427002366226335,0.9923098599229615
2017-02-14,1,0.0015770505224502566,0.0017299865933632288,-0.004903905654808893,0.0034749622448249093,0.9933573523974165
2017-02-16,1,0.0007802886924920753,0.0008141861524256504,-0.004903905654808893,0.0034749622448249093,0.992802549983087
2017-02-21,1,0.0008316871357263848,0.0008715365168665374,-0.008312772867529752,0.0034749622448249093,0.9914740638483502
2017-02-23,1,0.0002423709537851534,0.00032718750276889384,-0.008312772867529752,0.006260612783181168,0.991595653062773
2017-02-27,1,0.00015644673957632144,0.00024359003098143236,-0.005641554652891955,0.0062957160036869065,0.9917000057026923
2017-03-01,1,0.0007161365419693752,0.0007453173293560947,-0.005641554652891955,0.006260612783181168,0.9921337322490908
2017-03-03,1,0.0004925757232273594,0.0005050262235900669,-0.0051147809444443155,0.006360304499069916,0.9923898098129769
2017-03-07,-1,-0.0004842364560272734,-0.00033093622624526427,-0.0051147809444443155,0.006360304499069916,0.9923844506687982
2017-03-09,-1,-0.00048715973832969353,-0.0003014250430379971,-0.0051147809444443155,0.006360304499069916,0.9924117401799827
2017-03-13,-1,-0.0010129079901492401,-0.0007657306919803305,-0.0051147809444443155,0.006360304499069916,0.9925090609834081
2017-03-15,-1,-0.0005239899632829663,-0.0003680131126614163,-0.005912525798564198,0.006260612783181168,0.9925609767149147
2017-03-17,-1,-0.0007913911393310535,-0.0006084061341207014,-0.0054122315272347385,0.006260612783181168,0.993434680063518
2017-03-21,-1,-0.0015648493614398226,-0.0012601640507209915,-0.004770351065872438,0.006260612783181168,0.9942752567475657
2017-03-23,-1,-0.0012853661695630529,-0.0010104133735134688,-0.0054122315272347385,0.0040206817967220095,0.9943845317675244
2017-03-27,-1,-0.0010663113825990305,-0.0008058922449111676,-0.0054122315272347385,0.006635224722808294,0.9930396541472538
2017-03-29,-1,-0.0015959079416606643,-0.0012677086805128793,-0.0054122315272347385,0.009503905062046198,0.9913422069739644
2017-03-31,-1,-0.0016534211993805828,-0.0013174378225928173,-0.0060322675970121324,0.006934699329611171,0.9915470716653305
2017-04-04,-1,-0.0015235405275960579,-0.0012277261404315424,-0.00590619928817674,0.006934699329611171,0.9913755949465746
2017-04-06,-1,-0.0002338188346931032,-0.00016336304549715506,-0.00590619928817674,0.006934699329611171,0.9914608267782017
2017-04-10,-1,-0.00020284169919928546,-0.00015643166119334916,-0.00590619928817674,0.006934699329611171,0.9915573226795803
2017-04-12,-1,-0.0006429543248891888,-0.000532396206292655,-0.00590619928817674,0.006934699329611171,0.9914709190852138
2017-04-17,-1,-0.00011767531354816345,-7.784584082522188e-05,-0.004111458070470472,0.005313934674634557,0.9922203719167523
2017-04-19,-1,-0.0006289989015208547,-0.0005183501921359021,-0.004111458070470472,0.005313934674634557,0.9909016522735437
2017-04-21,-1,-0.0007852291157965835,-0.0006603093198471575,-0.002668709371641287,0.00646981119224911,0.9908814670984256
2017-04-25,-1,-0.00018162716443698181,-0.00010377712265448885,-0.002668709371641287,0.003288058554759513,0.9923841010367196
2017-04-27,1,0.0016346694735931938,0.0018512304843813741,-0.002668709371641287,0.0029184339990718845,0.9943550930679805
2017-05-01,1,0.0010117364925700638,0.0011117149341256724,-0.002668709371641287,0.0029184339990718845,0.9947116857376889
2017-05-03,1,0.0011488219958956155,0.0012734983480586918,-0.002557326298027954,0.0029184339990718845,0.9943383535027519
2017-05-05,1,0.0010073722002321448,0.0011234876441038608,-0.002557326298027954,0.0037687951068666506,0.9942595632978777
2017-05-09,1,0.0008587000406160306,0.0009454950350940559,-0.0020429899839375506,0.004204562840025035,0.9937442015564151
2017-05-11,1,0.0008607452429147585,0.0009499090111554209,-0.0017243464514929672,0.009375716244444655,0.9926143851601236
2017-05-15,1,0.0005162684624347186,0.0005348355911218534,-0.0017243464514929672,0.011908155993142745,0.9917835412056029
2017-05-17,-1,-0.00035203831774463057,-0.0002721709567536641,-0.00042260139508665885,0.011908155993142745,0.9932754926392893
2017-05-19,-1,-6.503304494707141e-05,-1.5132543927024762e-05,-0.0017243464514929672,0.013411616439836828,0.993000270785759
2017-05-23,-1,-0.00010470677443203706,-4.1209127463394445e-05,-0.0020429899839375506,0.013411616439836828,0.9930988513703943
2017-05-25,-1,-0.0003073054179055885,-0.0002113735787100767,-0.0030058869420839483,0.013411616439836828,0.9923082604530538
2017-05-30,1,0.0006271417934664415,0.0007342203021812616,-0.0027069752682570896,0.013411616439836828,0.9923868838414032
2017-06-01,1,0.0010405761676801242,0.0012040470650818355,-0.00195468989780133,0.013411616439836828,0.9924414570024598
2017-06-05,1,0.00062739788991459,0.0007129515417665863,-0.0008542201284782952,0.014554452063496886,0.9919211227147285
2017-06-07,1,0.001187595725766163,0.001358240836580696,-0.0030939321908580947,0.014554452063496886,0.9920021907723097
2017-06-09,1,0.0014260495779095193,0.0015786261238715823,-0.0030939321908580947,0.006774512815154435,0.9932122528002125
2017-06-13,1,0.001471191077320181,0.0016118034045895292,-0.004648257121571627,0.006774512815154435,0.9930362072851338
2017-06-15,1,0.0013990755285741248,0.0015274343145733516,-0.004648257121571627,0.007554337654677464,0.9926954405412585
2017-06-19,1,0.0022990654575476364,0.002520549827113472,-0.00439627000682744,0.006774512815154435,0.9933334526069806
2017-06-21,1,0.0016927199866773068,0.001785665417437851,-0.005847258488994559,0.006774512815154435,0.9926037425842311
2017-06-23,1,0.0009050744572624617,0.0009104717100422199,0.0006274531697069066,0.006774512815154435,0.9934743904181674
2017-06-27,1,0.0011066146478625363,0.0011117790683689245,0.0006972671081581182,0.008766796154173423,0.992465183032738
2017-06-29,1,0.0019737815776725413,0.002124741719355379,-0.004342983092043102,0.007554337654677464,0.9930508727262491
2017-07-03,1,0.0024558677636020284,0.0026716197835846365,-0.004342983092043102,0.006239298336263914,0.9937134717728187
2017-07-06,1,0.0020818745040988816,0.002254097254301668,-0.0042405643853510935,0.006756222916517815,0.9937909463010327
2017-07-10,1,0.0030689555536496647,0.0034620729318187273,-0.0048785232684253246,0.007157552132348176,0.9931985810333068
2017-07-12,1,0.0026668890414071307,0.0029685515418889858,-0.0042405643853510935,0.006107036495487485,0.9939464081965844
2017-07-14,1,0.00293121799708344,0.0032582818230399452,-0.0048785232684253246,0.005475192872142464,0.992740137935278
2017-07-18,1,0.00250335099903888,0.002753758053802633,-0.004599416699449492,0.006107036495487485,0.9926765954698281
2017-07-20,1,0.00173512784479587,0.0018642355779742614,-0.0052908101150648725,0.006107036495487485,0.9923731110220243
2017-07-24,1,0.002443929567810592,0.0027308640871968964,-0.0052908101150648725,0.006683836497878855,0.9921378476339618
2017-07-26,1,0.0028366330496844617,0.0031427782329434095,-0.0052908101150648725,0.004632460588562202,0.9924364073947447
2017-07-28,1,0.002295975640402196,0.0025106750430951316,-0.004599416699449492,0.004632460588562202,0.9930538486927482
2017-08-01,1,0.002409778499348858,0.0026359150801539967,-0.006282389183174173,0.00430448017127408,0.9921676571388102
2017-08-03,1,0.002188645818803364,0.0023738770112598576,-0.006282389183174173,0.003735450570487936,0.9926149663096995
2017-08-07,1,0.0022672863224239012,0.002463101795670666,-0.006652102335481657,0.003735450570487936,0.9925282061888291
2017-08-09,1,0.001763170984975782,0.0018592361547465851,-0.00748057339975033,0.003735450570487936,0.9922929734653447
2017-08-11,1,0.00028696410221942857,0.00043197334422924157,-0.006374367007301941,0.007012670209079537,0.9921129822992467
2017-08-15,1,0.000919687215981435,0.0009712095921130528,-0.0072186893373202676,0.006724854675401816,0.9922124611684523
2017-08-17,1,0.00020120047378970144,0.0003476624239732183,-0.0040037396576092805,0.006724854675401816,0.9932787877975218
2017-08-21,1,0.00042491724722700116,0.0005257188857931755,-0.0040037396576092805,0.007509301749388776,0.9928131242884238
2017-08-23,1,0.0010114833668935267,0.0010310049104864025,-0.0040037396576092805,0.006874062120190089,0.9935277516537114
2017-08-25,1,0.000538619577737174,0.0006323724922029444,-0.006374367007301941,0.006874062120190089,0.993039113620342
2017-08-29,0,-5.3773860657233864e-05,0.00011040991623780964,-0.004504088565985342,0.007509301749388776,0.9927131705550537
2017-08-31,-1,-0.0002121946064282806,-1.732482737162996e-05,-0.004504088565985342,0.007509301749388776,0.9927112704178032
2017-09-05,-1,-0.0008047781646338548,-0.000522320296301415,-0.003129684548549225,0.007835599063037412,0.9930405939689535
2017-09-07,-1,-0.001234708099003235,-0.0009103299251258362,-0.0020569942439931533,0.00870723569339568,0.9921956624860049
2017-09-11,0,-0.00012962494276522781,7.532993840386921e-05,-0.003129684548549225,0.006974297859142355,0.9938927381999426
2017-09-13,-1,-0.0004176449888244572,-0.00016497384745797641,-0.0020569942439931533,0.007835599063037412,0.9939436644757568
2017-09-15,1,0.00010720319840915949,0.00024279332677404472,-0.003129684548549225,0.007835599063037412,0.9934680508784242
2017-09-19,1,0.0015829514428931423,0.0017305087121107549,-0.006028699473310985,0.006477407422613194,0.9932541265428745
2017-09-21,1,0.0013116968567942495,0.0013979436477197398,-0.00678199956757176,0.00715356755495773,0.9922666517543774
2017-09-25,1,0.0008113574484167583,0.0008493692502567677,-0.00678199956757176,0.009032635048981733,0.9908263011047286
2017-09-27,1,0.0007291389876834886,0.0007363557774521295,-0.007203149250794607,0.00715356755495773,0.9905946031974049
2017-09-29,1,0.0005840451198452783,0.0006116954536951314,-0.007651744215489487,0.00759570283205945,0.9898723166927851
2017-10-03,1,0.0007862263953837458,0.000803561023954417,-0.009880145543072245,0.006624785848313767,0.9896786766494229
