JNU-Tangyin/eata/results/Batch4_SP500/Batch4_SP500-TMO.csv
Date,Action,Predicted_Q25,Predicted_Q75,Actual_Q25,Actual_Q75,RL_Reward
2010-12-14,0,0.0,0.003384673255613273,-0.0035724823416590436,0.004633252651558736,0.9970811326116085
2010-12-16,0,0.0,0.0,-0.0035724823416590436,0.004257130415927705,0.9951477584431995
2010-12-20,0,0.0,0.0,-0.0035724823416590436,0.003418345619043391,0.9949167034943893
2010-12-22,0,0.0,0.0,-0.0038037515940730466,0.004019517352732893,0.9940411623199465
2010-12-27,0,0.0,0.0,-0.0038037515940730466,0.005945208269724644,0.9930527258055007
2010-12-29,0,0.0,0.0,-0.0035724823416590436,0.006234222850228104,0.9932890174207873
2010-12-31,0,0.0,0.0,-0.0035724823416590436,0.006234222850228104,0.9926847541898808
2011-01-04,0,0.0,0.0,-0.0038037515940730466,0.004636386526538108,0.9926116112205107
2011-01-06,0,0.0,0.0,-0.0038037515940730466,0.004636386526538108,0.9926793535207733
2011-01-10,0,0.0,0.0,-0.002542310159166489,0.004636386526538108,0.9928697619325363
2011-01-12,0,0.0,0.0,-0.002542310159166489,0.004636386526538108,0.9924630375877203
2011-01-14,0,0.0,0.0,-0.005032874056638263,0.006547031355756634,0.9913167882434548
2011-01-19,0,,,-0.004326293820146241,0.01018471559165426,
2011-01-21,1,0.0002116813744198376,0.0003694919293823016,-0.002542310159166489,0.01018471559165426,0.9918210068175137
2011-01-25,0,0.0,0.0,-0.009980466148011072,0.005745617380058415,0.9905341767778465
2011-01-27,0,0.0,0.0,-0.009980466148011072,0.005057740181199574,0.9908165841505953
2011-01-31,1,0.049072152610410404,0.049770831639881156,-0.004602574441083584,0.005146955903168984,0.9516687958115684
2011-02-02,0,0.0,0.0,-0.002769189996667752,0.007009678344042814,0.9912785802237856
2011-02-04,0,0.0,0.0,-0.004288419507745233,0.007009678344042814,0.9909201065007982
2011-02-08,0,0.0,0.0,-0.007711314043478405,0.007009678344042814,0.9899994531236797
2011-02-10,0,0.0,0.0,-0.009980466148011072,0.0067808512428874776,0.9896853022429717
2011-02-14,0,0.0,0.0,-0.010480778784432463,0.005815123981467086,0.9899656501017116
2011-02-16,0,0.0,0.0,-0.012623352090908547,0.005234710978308337,0.9895673814980034
2011-02-18,0,0.0,0.0,-0.012623352090908547,0.005234710978308337,0.9888777167157904
2011-02-23,0,0.0,0.0,-0.008973981330869043,0.005234710978308337,0.9906063692129018
2011-02-25,0,-0.00011375993174514995,0.00018799049399082694,-0.008973981330869043,0.005234710978308337,0.990459146880629
2011-03-01,-1,-0.00047403620920487483,-0.00023365061743891333,-0.008973981330869043,0.006046937524570468,0.99032085240784
2011-03-03,1,0.00039989689451180903,0.0005433566559177989,-0.008973981330869043,0.005713097869510045,0.9907361751935311
2011-03-07,-1,-0.00033480500540741896,-0.00010029534985868404,-0.008973981330869043,0.0074976644877954805,0.9908522702356973
2011-03-09,-1,-0.00045440592487360084,-0.00011744151365722442,-0.008973981330869043,0.007606531670300593,0.9906567916263314
2011-03-11,-1,-0.0012851789146299249,-0.0008505307046709043,-0.00638328907854608,0.007606531670300593,0.9916143985000836
2011-03-15,-1,-0.0016062597944375993,-0.0012734964064165038,-0.003761385697869692,0.007606531670300593,0.9917631323186608
2011-03-17,-1,-0.0014178211797977788,-0.001117020821211089,-0.0025230930174032665,0.007606531670300593,0.9925627200488488
2011-03-21,-1,-0.002105789129877156,-0.0017316664119020183,-0.004475754756751194,0.007606531670300593,0.9917937372160099
2011-03-23,-1,-0.0021219751939630447,-0.0017644973568111328,-0.0025230930174032665,0.008582353834411251,0.9909456608769801
2011-03-25,0,0.0,0.0,-0.0025230930174032665,0.008582353834411251,0.9914565657958193
2011-03-29,0,0.0,0.0,-0.0011216555962958294,0.012751050704009982,0.9894757257027367
2011-03-31,0,0.0,0.0,-0.002448149647192065,0.012339789119133814,0.9898643185915876
2011-04-04,-1,-0.0006539543924774422,-0.0004829402076578055,-0.00451103397309752,0.016182458020274224,0.9888147958812417
2011-04-06,-1,-0.0003242934030379977,-0.00022935063829038465,-0.004741625466404454,0.016182458020274224,0.9894767348508401
2011-04-08,-1,-0.0007812786254452305,-0.0005918664724459851,-0.004741625466404454,0.016182458020274224,0.9888718168188724
2011-04-12,-1,-0.0013127136516551206,-0.0010394223198108938,-0.002902631274195569,0.016182458020274224,0.988805689006513
2011-04-14,-1,-0.0013893152306019116,-0.001124448721267192,-0.0012336946875041378,0.016182458020274224,0.9886144886756582
2011-04-18,-1,-0.0018120846014769729,-0.0014833738678114172,-0.0012336946875041378,0.012191512892835377,0.9895878846425014
2011-04-20,-1,-0.0010663890784915406,-0.00083169932579685,-0.0012336946875041378,0.014577419696852431,0.988380797676842
2011-04-25,-1,-0.0011195504609139459,-0.0008704405649136321,-0.003077550376534112,0.011511969658604616,0.9886147036078938
2011-04-27,1,0.0010304509351402647,0.0010889361661551107,-0.0035128703718767854,0.006543906136037365,0.991225225525573
2011-04-29,1,0.000680127909308429,0.0006879061854266188,-0.0035128703718767854,0.007773598299765171,0.9905836975343066
2011-05-03,1,0.000805773039341377,0.0008095355699838917,-0.0035128703718767854,0.006543906136037365,0.9907072848702647
2011-05-05,1,0.0005293400503201618,0.0005337773613285819,-0.0034571979809083944,0.006543906136037365,0.9905843017309983
2011-05-09,1,0.0015683109011637377,0.0017411386898057062,-0.0052141058191731,0.00517087227388259,0.9910384321051362
2011-05-11,0,0.0,0.0,-0.0052141058191731,0.005650117354549127,0.990439810310045
2011-05-13,0,0.0,0.0,-0.007361237917552894,0.005068770015704795,0.9900107959608445
2011-05-17,0,0.0,0.0,-0.008686584936779568,0.006258455682633492,0.9887502816324079
2011-05-19,1,0.0032703315179087793,0.003661853657665154,-0.010664067272461365,0.003438520810915869,0.9887128710360241
2011-05-23,0,0.0,0.0,-0.008620944314776502,0.009796236843767202,0.9890958219726314
2011-05-25,0,0.0,0.0,-0.008620944314776502,0.009796236843767202,0.9890777570417104
2011-05-27,0,0.0,0.0,-0.010664067272461365,0.009796236843767202,0.988609390063129
2011-06-01,1,0.0024208853840540284,0.002740421323574834,-0.008620944314776502,0.011654306581651702,0.9888220369103987
2011-06-03,1,0.001958008819508969,0.002172151408030714,-0.007361237917552894,0.011654306581651702,0.9893768619786146
2011-06-07,0,0.0,0.0,-0.005072525436223454,0.011654306581651702,0.9895012277510742
2011-06-09,0,0.0,0.0,-0.008020398696113493,0.010026590096869587,0.9894854414564777
2011-06-13,0,0.0,0.0,-0.005931868087671722,0.010026590096869587,0.9886313200590335
2011-06-15,0,0.0,0.0,-0.004320624549516191,0.009398513845189667,0.9903975310682249
2011-06-17,0,0.0,0.0,-0.004320624549516191,0.009398513845189667,0.9909114148925993
2011-06-21,0,0.0,0.0,-0.004320624549516191,0.006153116138726624,0.9913899638548472
2011-06-23,1,0.0017512774953385513,0.0018794673112426405,-0.0037582886669908543,0.0104611375859191,0.9905636492483544
2011-06-27,1,0.0020218863523225818,0.0020411179490141414,-0.006073742433141914,0.006153116138726624,0.9891621783683138
2011-06-29,0,0.0,0.0,-0.011553666773372797,0.004926790533157166,0.9888463058538635
2011-07-01,0,0.0,0.0,-0.012385926933116898,0.004199105439437559,0.9873996676974506
2011-07-06,0,0.0,0.0,-0.015601990215578766,0.004474455038276723,0.9863009844139038
2011-07-08,0,0.0,0.0,-0.022831868419916135,0.002499486857246945,0.9846984376200684
2011-07-12,0,0.0,0.0,-0.022831868419916135,0.004490650134572382,0.9810324374168706
2011-07-14,0,0.0,0.0,-0.02831703105892611,0.007255781303327559,0.9768178253304656
2011-07-18,1,0.0005748982728117376,0.0007087624377729303,-0.02831703105892611,0.017351424950412243,0.9759585947329021
2011-07-20,0,0.0,0.0,-0.02831703105892611,0.009850729738916555,0.9757476705974212
2011-07-22,0,0.0,0.0,-0.03918665206692216,0.0053465060806819065,0.9735036648061656
2011-07-26,-1,-0.00011627101828313346,-2.6441041691811827e-05,-0.028321690974859138,0.009850729738916555,0.9737846526311421
2011-07-28,0,0.0,0.0,-0.0264581820332035,0.020893411228570698,0.9728228588248548
2011-08-01,0,0.0,0.0,-0.0200886547316299,0.02458993804678505,0.9729043453430196
2011-08-03,-1,-0.002869993840552273,-0.00239934611019708,-0.017001574067779184,0.02458993804678505,0.974131573267639
2011-08-05,-1,-0.005453699854585223,-0.0046475884567592825,-0.017001574067779184,0.02458993804678505,0.9741858886116951
2011-08-09,-1,-0.00678574996610995,-0.005780531136758485,-0.013010384019403179,0.02458993804678505,0.9771335775568112
2011-08-11,-1,-0.005894412450554694,-0.005046510573723325,-0.017001574067779184,0.020893411228570698,0.9786971924867237
2011-08-15,-1,-0.004734714681675857,-0.004020792588441107,-0.017001574067779184,0.016736223439163145,0.9791290565014565
2011-08-17,-1,-0.004973421533616773,-0.004245025616418464,-0.013803628236123676,0.02224531664221766,0.9776005144262941
2011-08-19,-1,-0.007478786737463853,-0.006470381421026315,-0.010989520568608246,0.02224531664221766,0.9790803143904957
2011-08-23,-1,-0.005262661040577573,-0.004540159054066699,-0.02049818549199615,0.02071317678393358,0.979795484452264
2011-08-25,-1,-0.005832046203232346,-0.005062104216715109,-0.024941220563627464,0.02071317678393358,0.9794282865908039
2011-08-29,-1,-0.004123884318527528,-0.0035478404453182432,-0.024941220563627464,0.02071317678393358,0.9806770175890596
2011-08-31,-1,-0.004162256888844721,-0.0035918109911355694,-0.024941220563627464,0.02071317678393358,0.9794064806603376
2011-09-02,-1,-0.006128014406386493,-0.005307831598198684,-0.024941220563627464,0.02071317678393358,0.9793721248233598
2011-09-07,-1,-0.005000926244485596,-0.004310493505897446,-0.024941220563627464,0.021402858369035153,0.9777067944382793
2011-09-09,-1,-0.007998272491679014,-0.00694393583541952,-0.02268975618677898,0.021402858369035153,0.9763487754764655
2011-09-13,-1,-0.004390438776368386,-0.00377712902307252,-0.02268975618677898,0.023875215371130666,0.9756601912131998
2011-09-15,-1,-0.0027139776902751368,-0.002321638056660815,-0.02268975618677898,0.02208207044256255,0.9770077647811092
2011-09-19,0,0.0,0.0,-0.024330240968667868,0.02208207044256255,0.9762317076387016
2011-09-21,-1,-0.0043065533693969526,-0.0038149544339353306,-0.023068121152704433,0.02208207044256255,0.9761246213055264
2011-09-23,-1,-0.0034706202775922537,-0.0030907606070967684,-0.01810013097768796,0.02275608943860846,0.9764173120376844
2011-09-27,-1,-0.0031822729246745894,-0.0028192919500404524,-0.0224187644778577,0.02359013916398444,0.9755885391083039
2011-09-29,0,0.0,0.0,-0.02341421165332419,0.026337613279781107,0.9707803026209507
2011-10-03,-1,-0.004161762338412245,-0.003734268860203795,-0.02217955568872856,0.026337613279781107,0.9707259149597139
2011-10-05,-1,-0.0009543773667499024,-0.0009147963284730874,-0.02341421165332419,0.022902083002972962,0.9720456909953429
2011-10-07,-1,-0.0023644377558889474,-0.002166606598290252,-0.02341421165332419,0.022902083002972962,0.9737787717653987
2011-10-11,1,0.0004813471996689282,0.000716795495498729,-0.02341421165332419,0.01695994687687914,0.9755939480898935
2011-10-13,1,0.00034133713387176593,0.000533409047151,-0.02593713110739549,0.016900630862697424,0.9743639738311316
2011-10-17,-1,-0.0009801397276611257,-0.0009633599615499591,-0.02341421165332419,0.019287650683897394,0.975032437554558
2011-10-19,-1,-0.0008065095337574562,-0.0007364723504060936,-0.02217955568872856,0.019287650683897394,0.9754966945939576
2011-10-21,1,0.0002277647014089475,0.000393735503417801,-0.023989061082855298,0.015649233659252262,0.975073130921991
2011-10-25,0,0.0,0.0,-0.023403761793106395,0.014339058522942606,0.9762613865286013
2011-10-27,0,0.0,0.0,-0.019919154459791463,0.0136767116957376,0.9821838836694045
2011-10-31,-1,-0.000574930740957747,-0.00048454423096479384,-0.018944287916360023,0.0136767116957376,0.9822554244242936
2011-11-02,-1,-0.0007065593521373007,-0.0006621122214585807,-0.018437694818689246,0.0136767116957376,0.9835447478546236
2011-11-04,-1,-0.001871932517965078,-0.0017460289642660853,-0.017242512806473338,0.0136767116957376,0.9846908636515415
2011-11-08,0,-5.379254501584299e-05,9.606612541551268e-05,-0.017242512806473338,0.009099434439041022,0.9855035038751689
2011-11-10,-1,-0.001259812160621394,-0.0012214122726031372,-0.015215809959792662,0.009099434439041022,0.9860623096505327
2011-11-14,0,0.0,0.0,-0.015215809959792662,0.007933629946639893,0.9861755121908136
2011-11-16,-1,-0.0005625342552926969,-0.0004305273094341302,-0.015215809959792662,0.007933629946639893,0.9864758837603265
2011-11-18,-1,-0.0015737825157278989,-0.001561324310939635,-0.010765531567076044,0.007933629946639893,0.9884659325248344
2011-11-22,-1,-0.001379752111969884,-0.00130225192230438,-0.009969562446781138,0.008698744643277342,0.9875727729984928
2011-11-25,0,0.0,0.0,-0.007703577836623,0.009543581815852966,0.9869172051942636
2011-11-29,-1,-0.00038296425218108826,-0.0001639055799507902,-0.009969562446781138,0.007933629946639893,0.9873336283252673
2011-12-01,-1,-0.0003435534510276394,-0.00017063442024746044,-0.009969562446781138,0.007933629946639893,0.9879138868869507
2011-12-05,-1,-0.00027827824800403676,-9.175949995785882e-05,-0.010105842520051278,0.008698744643277342,0.9856067296516756
2011-12-07,1,0.0001637336898074863,0.00041834374331873204,-0.010105842520051278,0.01092681195060203,0.9844931272895749
2011-12-09,1,6.061015812374826e-05,0.00034729875154358,-0.007703577836623,0.01752689099976059,0.9851719323148929
2011-12-13,0,-0.00021356052904659647,7.491665725551191e-05,-0.006217780583220973,0.01907384457764983,0.9850759953934272
2011-12-15,-1,-0.0008124670867015038,-0.0006860288905205233,-0.006217780583220973,0.01907384457764983,0.9854083198969984
2011-12-19,-1,-0.0014744430622984014,-0.0014543543316705996,-0.00389135491246094,0.022622548834161836,0.9836961637934662
2011-12-21,-1,-0.0012330369459067543,-0.0012149885595780625,-0.00389135491246094,0.01907384457764983,0.9843179641039721
2011-12-23,-1,-0.00044560982743888637,-0.0003510214230050359,-0.00389135491246094,0.018805431653439824,0.9842002109225315
2011-12-28,-1,-0.002360731007790181,-0.0021473878537438926,-0.0006168707854425925,0.018805431653439824,0.9836059853758076
2011-12-30,-1,-0.0016952429747013114,-0.0015621603335188587,-0.0010935246088443964,0.018805431653439824,0.9842814814670251
2012-01-04,-1,-0.0010129555643021491,-0.000983380873790869,0.0007398248934216558,0.018805431653439824,0.985774279403122
2012-01-06,1,0.0008906439506601012,0.0011459507160811052,-0.0010935246088443964,0.018805431653439824,0.9867932490153934
2012-01-10,1,0.0014332902171919496,0.0017412251449673982,-0.004556093925257324,0.014704610460410177,0.987480711778939
2012-01-12,1,0.0004827067335832968,0.0005456308731940754,-0.007272542369211991,0.01289647245888037,0.9875928084753228
2012-01-17,1,0.001408410365422287,0.0016925210034891927,-0.0018472884007271634,0.01289647245888037,0.9887584391259501
2012-01-19,1,0.0021828460355969065,0.0025331942010470695,-0.0018472884007271634,0.012778821557603879,0.9900103787159356
2012-01-23,1,0.002840362049730317,0.0033549214043742883,-0.004883406749506719,0.011805750571275204,0.9905085709216063
2012-01-25,1,0.0035320212357994995,0.004130881568954792,-0.004883406749506719,0.005905632089829465,0.9912259268645932
2012-01-27,1,0.0021834419836639033,0.0025192468439693277,-0.0041041565776274175,0.008840274169483717,0.9921458149286501
2012-01-31,1,0.0032152822100269926,0.003777672902180769,-0.004883406749506719,0.010106861540890397,0.991214804439011
2012-02-02,1,0.002673947687090973,0.0030251115699626236,-0.004883406749506719,0.009689321543216018,0.9924524479215495
2012-02-06,1,0.0035647204362738057,0.004101315890414457,-0.0071527821933769775,0.006166292219394649,0.9921247417615209
2012-02-08,1,0.004212003377294888,0.004890077334552403,-0.005218803641978072,0.006166292219394649,0.9919000689670322
2012-02-10,1,0.0037688637646790665,0.004353440683856822,-0.005218803641978072,0.006166292219394649,0.9918617874521091
2012-02-14,1,0.0028410196486977485,0.0032214035954085366,-0.005218803641978072,0.010396152510855263,0.990410099741598
2012-02-16,1,0.0034313790661577278,0.003915786694991256,-0.005218803641978072,0.009689321543216018,0.9907259004376786
2012-02-21,1,0.002770706509115592,0.0031629505494527813,-0.00575237826185357,0.009689321543216018,0.9908505575776587
2012-02-23,1,0.003508503646967464,0.003996328959737793,-0.009684024456975061,0.009689321543216018,0.9900093876248086
2012-02-27,0,0.0,0.0,-0.009684024456975061,0.010396152510855263,0.9896166007586832
2012-02-29,0,0.0,0.0,-0.009910693478868889,0.006458448600745825,0.9894858546945247
2012-03-02,0,0.0,0.0,-0.009910693478868889,0.005412859034785593,0.989334952206736
2012-03-06,1,0.0029880913062407324,0.0034701847635788714,-0.008602767008837924,0.005412859034785593,0.9903469981415097
2012-03-08,1,0.0035474092163467674,0.0040944218634155795,-0.009032170493618173,0.0053801934186842254,0.9903195807515801
2012-03-12,1,0.0021258750285730824,0.0024029899300880017,-0.009602056667537743,0.0053801934186842254,0.9887924437214508
2012-03-14,1,0.0031918500236102695,0.003595567426715807,-0.009602056667537743,0.004859014537436218,0.9887518891188591
2012-03-16,1,0.00359366444735487,0.004121704552429484,-0.010812399622860238,0.004859014537436218,0.9872389594450567
2012-03-20,1,0.0031437160958207432,0.0035923357250132026,-0.009602056667537743,0.005610167386181238,0.987839108037383
2012-03-22,1,0.002778613089678015,0.0031526159429609776,-0.009332739208281956,0.005610167386181238,0.9882243044742319
2012-03-26,1,0.003319107781331457,0.0037224044202828887,-0.012504094230967419,0.004924783987901433,0.9876129903995644
2012-03-28,1,0.0018770826797697502,0.002099814430366503,-0.009003007673032346,0.005610167386181238,0.9873972211845532
2012-03-30,1,0.0014116464825580832,0.0015151514204289006,-0.009003007673032346,0.006217143578906968,0.9875302872095214
2012-04-03,1,0.0019376423637793624,0.0021751260065677952,-0.009309241289601878,0.008152771582587478,0.9869703920136189
2012-04-05,1,0.0010822817702591434,0.00109892668913025,-0.011309572709040205,0.008152771582587478,0.9863359164273514
2012-04-10,0,-7.402300646376842e-05,1.931630091792498e-05,-0.007528340366737221,0.008152771582587478,0.9889375616943327
2012-04-12,1,0.0009209121803700112,0.0009366085712189155,-0.008400099967186946,0.003721291316891059,0.9898555993936158
2012-04-16,-1,-0.0008342982535746559,-0.0005789217626881024,-0.007494121702399504,0.003721291316891059,0.9909568828948775
2012-04-18,-1,-0.0007605022656333742,-0.0004894132404328706,-0.00850217783937679,0.0,0.9909185763818097
2012-04-20,-1,-0.001409773381401495,-0.00103637123799139,-0.009664730655900238,0.0,0.9905837818299233
2012-04-24,-1,-0.0015830103311002912,-0.0012346299632844632,-0.00947604922314162,0.0005624246885146646,0.9899082532264905
2012-04-26,-1,-0.00040882374301767603,-0.00021259223020162182,-0.00947604922314162,0.0005624246885146646,0.9902954260784151
2012-04-30,-1,-0.00020454143378282968,-2.0763073438105997e-05,-0.01040621524134431,0.00019350287969782402,0.9903608222162659
2012-05-02,-1,-0.00031516918144819806,-0.00012264369166225272,-0.011359675978446674,-0.002244666809093451,0.9900784828401431
2012-05-04,-1,-0.0017919404768118193,-0.001390294908441846,-0.011359675978446674,-0.002244666809093451,0.990422214692261
2012-05-08,-1,-0.0023983972525153437,-0.0018799545962793305,-0.011359675978446674,0.0011429333276081366,0.9892881558639217
2012-05-10,-1,-0.0029033684902316044,-0.002317399711045508,-0.011359675978446674,0.005951689608315529,0.9890471396870733
2012-05-14,-1,-0.003827951752305027,-0.0031001246708311516,-0.011359675978446674,0.011048846449646835,0.9882024148267087
2012-05-16,-1,-0.004175992077206729,-0.0034399253680972857,-0.010768430753251467,0.012595667055213339,0.9876458962817807
2012-05-18,-1,-0.004310723485838691,-0.0035934258651164723,-0.010291371449499062,0.012595667055213339,0.9873369852592739
2012-05-22,-1,-0.00468572087558064,-0.003865438116832,-0.010157736852885377,0.012595667055213339,0.9880166887525027
2012-05-24,-1,-0.003724241652779553,-0.003045518058456714,-0.010291371449499062,0.012074441233110616,0.9876813560922042
2012-05-29,-1,-0.0040394257875979115,-0.0033388245626350104,-0.011346791416222291,0.012074441233110616,0.9871418700190412
2012-05-31,-1,-0.0038866244183259654,-0.0032662158534239633,-0.00925268930962037,0.013219626025916543,0.9862675065351264
2012-06-04,-1,-0.004309659318249035,-0.0036781485577497184,-0.007246949620394055,0.014943122198270476,0.9858721981861219
2012-06-06,-1,-0.0032203813672529854,-0.002733308683187819,-0.007246949620394055,0.013434744646185028,0.9861213378899669
2012-06-08,-1,-0.002882969794139336,-0.0024344633972254058,-0.009260907892589628,0.013434744646185028,0.9858787757599186
2012-06-12,-1,-0.002242753944729142,-0.0019262077368309696,-0.00805236950031225,0.013434744646185028,0.9865422634060991
2012-06-14,-1,-0.0021034941496869803,-0.0018045035479291544,-0.0069495532042060095,0.01191275407493181,0.9869052571895417
2012-06-18,-1,-0.001582152463312982,-0.00137543301727659,-0.0069495532042060095,0.011775185238109767,0.9871681913352411
2012-06-20,-1,-0.001503011350377522,-0.001286277048240911,-0.0069495532042060095,0.011775185238109767,0.9873831398400394
2012-06-22,-1,-0.0014879326564281624,-0.0012826005200060923,-0.00836871864402549,0.010780122460403652,0.9871235462223875
2012-06-26,-1,-0.0018235972557687622,-0.0016159886483299816,-0.00836871864402549,0.0129488260736243,0.9833273886223713
2012-06-28,-1,-0.0010716960268702515,-0.0009750344469887396,-0.00836871864402549,0.0129488260736243,0.9830086772773098
2012-07-02,-1,-0.0006430116047913058,-0.0006137482226371291,-0.007156409986940835,0.010780122460403652,0.9844597145672114
2012-07-05,-1,-0.00019323420572034842,-0.00017634519390659868,-0.010352728677976167,0.010256878668468304,0.9848456299009091
2012-07-09,-1,-0.00025282686820065546,-0.0002356257013449966,-0.007156409986940835,0.010780122460403652,0.9840756502468155
2012-07-11,0,0.0,0.0,-0.005654542009388931,0.010485986820403225,0.9842974757872048
2012-07-13,0,0.0,0.0,-0.006320354159857303,0.010095377456808111,0.9847080775586107
2012-07-17,0,0.0,0.0,-0.006320354159857303,0.010095377456808111,0.9849247322253395
2012-07-19,0,0.0,0.0,-0.00960440278320221,0.010095377456808111,0.9843728126256612
2012-07-23,-1,-0.0005070380344518333,-0.0004999982245822097,-0.0052119349951587,0.010095377456808111,0.9864413181553372
2012-07-25,1,0.002002174967710255,0.0023510257497829264,-0.0036151468233346176,0.00491302650134512,0.991126519172442
2012-07-27,1,0.0018329662115984507,0.0021109796587562616,-0.0045433605758709765,0.002766630559798728,0.992251730312537
2012-07-31,1,0.0016718075462412779,0.001963939169154934,-0.0045433605758709765,0.002766630559798728,0.9924121059965924
2012-08-02,1,0.0008771735425666461,0.001023588101665065,-0.0035975692846572775,0.0036375831385497864,0.9928787373061786
2012-08-06,1,0.0024703262615236397,0.002901357687482104,-0.0035975692846572775,0.0036375831385497864,0.9942647348184119
2012-08-08,1,0.00274287573083872,0.0032034559817807765,-0.004492870457990716,0.0036375831385497864,0.993269188665249
2012-08-10,1,0.0025205461834992065,0.0029346891532150924,-0.0035975692846572775,0.0053527109546965,0.9933348129869808
2012-08-14,1,0.002123794553073359,0.002472461552460172,-0.0032176991812218345,0.0053527109546965,0.9937948835677423
2012-08-16,1,0.0024467985048098285,0.0028850020209168882,-0.001458033623435877,0.00753811391846303,0.9945846404987098
2012-08-20,1,0.0019947183941971362,0.002315702353014531,-0.003364782225600028,0.00753811391846303,0.994050932922811
2012-08-22,1,0.0020340258663573015,0.0023620373675025293,-0.003617026939747387,0.00753811391846303,0.9939287622702434
2012-08-24,0,0.0,0.0,-0.003617026939747387,0.00753811391846303,0.9941178470104781
2012-08-28,0,0.0,0.0,-0.0040058215236845034,0.00753811391846303,0.9938505949524921
2012-08-30,1,0.0032458920993888893,0.003712194736222373,-0.004192350526623917,0.00753811391846303,0.993124862499535
2012-09-04,1,0.0022975898112148215,0.0026449967360269453,-0.004192350526623917,0.008872645403935538,0.993230992997628
2012-09-06,1,0.0022662698730194384,0.0025592293601327727,-0.0040058215236845034,0.008505899373557035,0.9940482487300066
2012-09-10,1,0.002717914891311359,0.003099549171859347,-0.004243136710905991,0.008505899373557035,0.9936718492216184
2012-09-12,1,0.0026246670778667307,0.0029755935859847836,-0.006658522601937585,0.008505899373557035,0.9918634650264949
2012-09-14,1,0.002745312378542074,0.0030811566786058363,-0.006658522601937585,0.007167625502311169,0.9916654431649223
2012-09-18,1,0.0030959674048536695,0.0035224467340791658,-0.005824880270914735,0.009391327823555862,0.991550703890069
2012-09-20,1,0.0031994821408965627,0.0036696139255200785,-0.0068598872986979096,0.009391327823555862,0.9906520540532546
2012-09-24,1,0.0030009054861495146,0.003434468890381369,-0.007796870154326003,0.009391327823555862,0.9900334409942003
2012-09-26,1,0.0019749009272763325,0.002216081083771954,-0.008552367122107241,0.00996951386782462,0.9877199771987951
2012-09-28,1,0.0020659210479957437,0.0023252492684420344,-0.008660997652359911,0.00996951386782462,0.9872332115298529
2012-10-02,1,0.002304618624816268,0.0025696484375289275,-0.008660997652359911,0.010773256699205171,0.9866808548201829
2012-10-04,1,0.002249170569549496,0.0024810828284547773,-0.011615503460606016,0.010773256699205171,0.986022476879212
2012-10-08,1,0.0018042463322309188,0.0019321805569755583,-0.014502617206478626,0.010773256699205171,0.985740953382345
2012-10-10,1,0.0004527005793419438,0.0005270344914417129,-0.014502617206478626,0.01329215098080227,0.9859581593334112
2012-10-12,1,0.0006585201124080542,0.0006902561701720811,-0.014502617206478626,0.011053965743376871,0.986343036015309
2012-10-16,1,0.0018718405516735676,0.002036774759872311,-0.014502617206478626,0.007607146043787912,0.9866050300078171
2012-10-18,0,0.0,0.0,-0.011615503460606016,0.010310628740711016,0.987534049969184
2012-10-22,0,0.0,0.0,-0.010731737342574037,0.010310628740711016,0.9878101035247401
2012-10-24,0,0.0,0.0,-0.008434943049290164,0.010310628740711016,0.9894128954277007
2012-10-26,0,0.0,0.0,-0.0057516518595143815,0.0090625918603828,0.9904814008385096
2012-11-01,0,0.0,0.0,-0.0057516518595143815,0.0090625918603828,0.9909733110779787
2012-11-05,0,0.0,0.0,-0.004735667997270351,0.0090625918603828,0.9919407929171261
2012-11-07,0,0.0,0.0,-0.0027173619702440584,0.0090625918603828,0.9922141285860435
2012-11-09,0,0.0,0.0,-0.001570177528476199,0.008085023361270574,0.9934116503500895
2012-11-13,1,0.0005934735631288317,0.0006634564892262303,-0.0020150408618992955,0.007733441156350078,0.9935960384954043
2012-11-15,0,-0.0001226236255095054,4.467485224082172e-05,-0.0020150408618992955,0.007733441156350078,0.9934054934850113
2012-11-19,-1,-0.00028682859517434886,-4.691439236671443e-05,-0.0020150408618992955,0.007733441156350078,0.9934106528117216
2012-11-21,-1,-0.0003635209581182219,-0.00014214954142169637,-0.0020150408618992955,0.007733441156350078,0.9935736999984895
2012-11-26,1,0.0003637417117044749,0.0004943247270356031,-0.0020150408618992955,0.007137905706812598,0.9939940362825858
2012-11-28,1,0.0008231522786122396,0.000876120770345036,-0.002376126174504064,0.006543834574286103,0.9939461876134048
2012-11-30,1,0.0006023971051572834,0.0007077843860854649,-0.004563483388776452,0.006543834574286103,0.9934410197049516
2012-12-04,1,0.0005152918655253965,0.0006311427969121462,-0.004563483388776452,0.007137905706812598,0.9924523249778907
2012-12-06,1,0.0007968038528142302,0.0008761002204225965,-0.004563483388776452,0.007784266898622166,0.9922287964775665
2012-12-10,1,0.0008772621520928923,0.000941525543527069,-0.006583241255428319,0.008050317462798417,0.9906768159602073
2012-12-12,1,0.0009131010546917678,0.0009613968946932975,-0.006583241255428319,0.008050317462798417,0.9909257968037385
2012-12-14,-1,-0.0005314132814941112,-0.0002453616328593571,-0.003863501242824758,0.008050317462798417,0.991478925205559
2012-12-18,1,0.0012313352992166916,0.0012686732920411759,-0.003863501242824758,0.008050317462798417,0.9914074427218523
2012-12-20,0,0.0,0.0,-0.002873188085174855,0.008050317462798417,0.9915058515143577
2012-12-24,0,0.0,0.0,-0.0011311322632951138,0.008050317462798417,0.9925051744567401
2012-12-27,0,-9.044078728446343e-05,6.367992828914214e-05,-0.0011311322632951138,0.010054534124093547,0.9918498155068236
2012-12-31,1,0.0007737313613081914,0.0007757724384287785,-0.0011311322632951138,0.008050317462798417,0.9926373587804681
2013-01-03,1,0.0011031357296551285,0.0011612994073417308,-0.0004627682582554777,0.011064137541616628,0.9908471585344321
2013-01-07,1,0.001432341659355552,0.001525439770973332,-0.0011311322632951138,0.018597134005573494,0.9884464064483998
2013-01-09,1,0.0020279344189239987,0.0021813886476728457,-0.0011311322632951138,0.009580816071643284,0.9895826552346249
2013-01-11,1,0.0015797756416093822,0.001663176213520432,-0.0004627682582554777,0.012392662338245533,0.9894592851637951
2013-01-15,1,0.0016043146750796414,0.0016876298856287847,-0.0009983649944513807,0.012392662338245533,0.9891322941859869
2013-01-17,1,0.001930494039610181,0.002051261877724276,-0.0033631670166608387,0.007871164495586135,0.9894153648362419
2013-01-22,1,0.002009155323982559,0.0021376163160139227,-0.005000646338454574,0.008385563046655817,0.9878249914633899
2013-01-24,1,0.0016915700923343185,0.0017596174863818595,-0.006122119665549484,0.010908128576356767,0.9870256336272789
2013-01-28,1,0.002089090590003433,0.002223858395839472,-0.006400088131996481,0.010908128576356767,0.9863248240287802
2013-01-30,1,0.0018844738347497721,0.001993436553851681,-0.00643833071431508,0.012394733227508295,0.9858075586910573
2013-02-01,1,0.003705370277296809,0.004076174532182308,-0.00643833071431508,0.010908128576356767,0.9877574135899825
2013-02-05,1,0.003803439183876914,0.0041920114943004,-0.006022322377172142,0.010908128576356767,0.9903125065634073
2013-02-07,1,0.0032018354101569575,0.00351132060928051,-0.0036994765204201837,0.010908128576356767,0.9908410274525528
2013-02-11,1,0.00372168845527449,0.004130881416936464,-0.0036994765204201837,0.008726034054975459,0.9911156350350003
2013-02-13,0,0.0,0.0,-0.004111298597516015,0.008726034054975459,0.9905991153953291
2013-02-15,0,0.0,0.0,-0.003743054163108774,0.008726034054975459,0.9906882640444131
2013-02-20,1,0.0020185227190090502,0.0021440577692090046,-0.0028088426428919183,0.008939422374082021,0.9925914872269329
2013-02-22,0,0.0,0.0,-0.003743054163108774,0.007501890485661516,0.9920521674713585
2013-02-26,0,0.0,0.0,-0.003743054163108774,0.007231629050524756,0.9931300132930979
2013-02-28,0,0.0,0.0,-0.0028088426428919183,0.007231629050524756,0.99306521310757
2013-03-04,1,0.0026410980794768337,0.002844516678799025,-0.003743054163108774,0.006459593720563187,0.9917557062114172
2013-03-06,1,0.0029374702725528195,0.0031712413096032883,-0.00486629425327335,0.004257558834505812,0.9915690357185405
2013-03-08,1,0.0022568218764292417,0.002343201566161241,-0.006577361366941783,0.004257558834505812,0.9909910719300978
2013-03-12,1,0.0024175186209484173,0.0025193246163010023,-0.006577361366941783,0.004689250128427034,0.9893141004751903
2013-03-14,1,0.0023983773038445387,0.0025368547287637397,-0.008995847118282855,0.004689250128427034,0.9884965059977391
2013-03-18,0,0.0,0.0,-0.010344671973285438,0.009780237530315226,0.9866203136511744
2013-03-20,0,0.0,0.0,-0.012226250957467814,0.006526771693738131,0.9860694356796229
2013-03-22,0,0.0,0.0,-0.010452804520228485,0.006526771693738131,0.9870055787892312
2013-03-26,0,0.0,0.0,-0.00682992004780494,0.010296019203318381,0.9871983117515934
2013-03-28,1,0.001155421731798576,0.0012575890950427696,-0.010452804520228485,0.00962432411421901,0.9867122137429154
2013-04-02,1,0.002242559659287705,0.002371428055003207,-0.00682992004780494,0.0073659168818082975,0.9884707400963786
2013-04-04,1,0.001126200002371168,0.0011803222077780484,-0.00585877210397391,0.009198280862161505,0.9888944553355579
2013-04-08,1,0.0013688654676183383,0.0013952030670212306,-0.004143577843313548,0.007396574096862313,0.9896732054162751
2013-04-10,0,0.0,0.0,-0.004143577843313548,0.007396574096862313,0.9907179083725381
2013-04-12,1,0.0008443445661250452,0.0008751168694646912,-0.004073395801073408,0.009198280862161505,0.9908981044549495
2013-04-16,0,0.0,0.0,-0.0017274911476193957,0.007396574096862313,0.9932595206802173
2013-04-18,0,0.0,0.0,-0.000992871044317595,0.009198280862161505,0.9932623931069954
2013-04-22,0,0.0,0.0,-0.0008692463304003524,0.009479818733531622,0.9926070799389183
2013-04-24,1,0.0006982409964642843,0.000723403659343061,-0.0018830894733802724,0.009479818733531622,0.9926487635038826
2013-04-26,1,0.0022591495066542544,0.0022996208211371006,-0.0018830894733802724,0.009479818733531622,0.9930254185559488
2013-04-30,1,0.0013344868193695915,0.0014359687236276063,-0.0021039852601085316,0.011111208424279529,0.9921748265248425
2013-05-02,1,0.0017517812496052592,0.001789755206423638,-0.005369270096679981,0.011842752263102019,0.9917272590105948
2013-05-06,0,0.0,0.0,-0.005369270096679981,0.011842752263102019,0.9914417747311245
2013-05-08,0,0.0,0.0,-0.00615671553899854,0.009689178296190143,0.9908554519788675
2013-05-10,0,0.0,0.0,-0.00615671553899854,0.009792643447037069,0.9897545252638725
2013-05-14,0,0.0,0.0,-0.007733960618278668,0.009792643447037069,0.9891507368436031
2013-05-16,1,0.0015841520662491595,0.0015890573927690556,-0.007733960618278668,0.009718197709856812,0.9894824154127918
2013-05-20,1,0.0014825098859322624,0.0015408463432040945,-0.007733960618278668,0.009489363464518303,0.9896324404435105
2013-05-22,1,0.0006535477965041784,0.0008278680137459311,-0.01094760870796452,0.009489363464518303,0.9879445415576312
2013-05-24,1,0.0011268159268867887,0.0012333766621558974,-0.01094760870796452,0.009489363464518303,0.9877184902683334
2013-05-29,0,0.0,0.0,-0.010803974265845374,0.009231016596616518,0.9881945272980137
2013-05-31,0,0.0,0.0,-0.010803974265845374,0.009231016596616518,0.9876537695374729
2013-06-04,1,0.00027938596063384466,0.0004956134477873096,-0.01333221849525859,0.011080324163216413,0.9862555912905917
2013-06-06,1,0.0008776193349481028,0.0009714820331676277,-0.010803974265845374,0.011080324163216413,0.987466145641074
2013-06-10,1,0.0003544732058393135,0.0005137186670146044,-0.009058624180627193,0.011080324163216413,0.9885231720751515
2013-06-12,-1,-0.0002881868593106894,-7.337545610521684e-05,-0.00418810574112302,0.011080324163216413,0.9886336617781344
2013-06-14,0,0.0,0.0,-0.004117933500331723,0.009322925589555487,0.9891426117112088
2013-06-18,0,0.0,0.0,-0.007946748101204491,0.009322925589555487,0.9892445086743514
2013-06-20,-1,-0.0014269949467073538,-0.0010939410965613303,-0.0010032840860791804,0.011448292279903394,0.9904072918740429
2013-06-24,-1,-0.0012659988268346337,-0.0009376806108235532,-0.0010032840860791804,0.009322925589555487,0.9909937655028113
2013-06-26,1,1.5169103074273282e-05,0.00010885517900570472,-0.0010032840860791804,0.009661454970372435,0.9911725445254148
2013-06-28,1,0.0004340154309452167,0.00047390345433478693,-0.0022232717109302055,0.008485113709498155,0.992389316918693
2013-07-02,1,0.00010835463243517607,0.00020896656785574988,-0.0008773169307542009,0.007390524548054191,0.9937344001776521
2013-07-05,1,0.0005545032217600254,0.0005887471661057895,-0.0021435040962668114,0.008485113709498155,0.9935591599312336
2013-07-09,1,0.001046164832303562,0.0010719728962670376,-0.0021435040962668114,0.007390524548054191,0.9945319833616574
2013-07-11,1,0.001000485500761443,0.0010005498846000901,-0.0023618703329149624,0.00699289937227641,0.9946979251176478
2013-07-15,1,0.0003267501800487683,0.0004558325238576804,-0.0024956175699394085,0.00699289937227641,0.9944234920624799
2013-07-17,1,0.0003172935601679234,0.00042876443420615236,-0.0024956175699394085,0.00699289937227641,0.9943550279625144
2013-07-19,1,0.0007715571507054039,0.0008361984984143728,-0.004850072484426665,0.005900143128661832,0.9945242238791064
2013-07-23,1,0.00044320418897433997,0.0005459675510364152,-0.0034381378783000663,0.0052105280417817715,0.9951505921412275
2013-07-25,1,0.0013359554560928694,0.001377276569337321,-0.0034381378783000663,0.003067735846561771,0.9955125412535704
2013-07-29,1,0.001125834097335978,0.0011601329961505198,-0.0034381378783000663,0.003606193052618215,0.9956077527967891
2013-07-31,1,0.0012115121189416051,0.001260034852358112,-0.004606419442524544,0.003067735846561771,0.994974217429286
2013-08-02,1,0.0014619298252742108,0.0015495301099288665,-0.004606419442524544,0.003041333884445201,0.995180896847543
2013-08-06,1,0.0012917607408218736,0.001345184661272979,-0.004606419442524544,0.003606193052618215,0.9943460642380173
2013-08-08,1,0.0010169471738901619,0.0010182354345337308,-0.004208046025173309,0.003606193052618215,0.9944594379968359
2013-08-12,1,0.001093091881270894,0.0011117553839021179,-0.004208046025173309,0.003606193052618215,0.9943594967081644
2013-08-14,1,0.0004020535619102201,0.0005081570810750249,-0.0037520724043001398,0.0030549818343573064,0.9949994017785554
2013-08-16,-1,-0.0002582889332949684,-6.303118210423096e-05,-0.0028202576826234834,0.003715018373342178,0.9954477904590707
2013-08-20,0,-0.00011061005993206943,3.9672172982645497e-05,-0.002098012138865394,0.006782800353165959,0.9942968228622903
2013-08-22,1,0.00019796376971327717,0.0002725953409684973,-0.002338977166129748,0.006782800353165959,0.9942118402164338
2013-08-26,-1,-0.0003182453527674994,-0.00016426910366577365,-0.002338977166129748,0.006782800353165959,0.9943531676886418
2013-08-28,-1,-0.0004445937181514786,-0.00028503918995025497,-0.002338977166129748,0.0070074740543609815,0.9946254269704292
2013-08-30,0,-4.866668465622231e-05,1.755100640130636e-05,-0.002338977166129748,0.0070074740543609815,0.9945214289279959
2013-09-04,1,5.277096759063104e-05,0.0001491486532200392,-0.0037412233489956307,0.006703975975305276,0.9950855255542704
2013-09-06,1,0.00022168883915723266,0.00028161029414163006,-0.004039143325651641,0.0070074740543609815,0.9940897192975707
2013-09-10,-1,-0.00021155258669664217,-6.622745150943073e-05,-0.005750781221440015,0.0070074740543609815,0.993739558707739
2013-09-12,-1,-0.00020567290473025426,-5.8486917877460895e-05,-0.007186651075299352,0.00733202967107444,0.9922272935615527
2013-09-16,1,0.0001244142670165419,0.0002154355574938672,-0.007186651075299352,0.007507629482590905,0.9919846069696169
2013-09-18,1,0.0007566892853921611,0.0007737028288905164,-0.008036513815158765,0.00706600732486647,0.9916893228181207
2013-09-20,1,0.00029842368472709927,0.0003905611090752689,-0.007264760635354279,0.007507629482590905,0.990991335196758
2013-09-24,1,0.00015598037076018227,0.00025125061027214836,-0.008415540925589396,0.007507629482590905,0.9906562349969581
2013-09-26,1,0.00027915334433108283,0.0003485098168110346,-0.008415540925589396,0.008488986670426324,0.9901337025562382
2013-09-30,1,0.0002557837166697636,0.00030038772819056356,-0.007264760635354279,0.008820832646753696,0.9902082152062471
2013-10-02,1,0.0003670781415696395,0.00039635076640284723,-0.008415540925589396,0.008820832646753696,0.9900290254259068
2013-10-04,1,0.0002758926259006066,0.00031415541139833997,-0.007264760635354279,0.007618244808033363,0.9909952865048588
2013-10-08,-1,-0.0002017104056588595,-0.00011725468394610582,-0.005529994390807522,0.007618244808033363,0.9912672591064251
2013-10-10,1,0.0005387155594302923,0.0005636480005142318,-0.005674692821073371,0.006357706640910291,0.9921814298305692
2013-10-14,1,0.0004944890036347777,0.0004976452229456472,-0.005674692821073371,0.006497871178978672,0.9915817051057294
2013-10-16,1,0.0008047515750810255,0.0008726143759182426,-0.005291369210300219,0.006497871178978672,0.9921309021476067
2013-10-18,1,0.0014766208431121997,0.0016283440602907697,-0.005291369210300219,0.008895250687385515,0.9924539090692619
2013-10-22,1,0.0014690434535151722,0.0016318431503360895,-0.004942026509550127,0.008895250687385515,0.9926300079369679
2013-10-24,1,0.0017291270379719385,0.0019236640503889138,-0.003414801655174532,0.00757513431069904,0.9932666727303804
2013-10-28,1,0.0015852263890947895,0.0017416936339438656,-0.0037631661332840345,0.006069889405098578,0.9932138705186211
2013-10-30,1,0.0012594498394774265,0.001343341253549516,-0.004650400944882054,0.006033820282955788,0.9932528410957631
2013-11-01,1,0.0009929234819172504,0.0009995083086144609,-0.004650400944882054,0.006033820282955788,0.9931032432923799
2013-11-05,1,0.0007947581996044407,0.0007989187410407529,-0.004650400944882054,0.006033820282955788,0.9932592021085244
2013-11-07,1,0.0005150351465086279,0.0005320631144798678,-0.0033923365542855525,0.008431646575846049,0.9927078891730615
2013-11-11,1,0.0002419115869504046,0.00038864907306076504,-0.004650400944882054,0.006033820282955788,0.9934865145890199
2013-11-13,1,0.0004700449466372267,0.0005823508191241432,-0.005450727105044562,0.004939307111400768,0.9934732535524052
2013-11-15,1,0.0013041414291986146,0.0013059275765722423,-0.005450727105044562,0.004939307111400768,0.9934353015462579
2013-11-19,1,0.0011187934881307807,0.0011271255865083667,-0.004650400944882054,0.006033820282955788,0.9921036563011848
2013-11-21,1,0.0013702402474219794,0.0013809397662738708,-0.004650400944882054,0.005766669496659835,0.9916785380343816
2013-11-25,1,0.0015407255869215788,0.0015861570882117631,-0.004650400944882054,0.00614808701756066,0.9917968359951348
2013-11-27,1,0.0014441341440923437,0.0015109988205475064,-0.001837283493202417,0.00811546057493822,0.992030070318206
2013-12-02,1,0.0013872842812637052,0.001462436904955295,-0.0013850188495884434,0.00811546057493822,0.9918833276953436
2013-12-04,1,0.0010263551629947428,0.0010502815071315298,-0.0013850188495884434,0.00811546057493822,0.9912701813517932
2013-12-06,1,0.0017061901382983882,0.0018068086029884207,-0.0007627007870978022,0.00811546057493822,0.9919588962360859
2013-12-10,1,0.0016014145825491179,0.0017219414567524024,-1.957713440382556e-05,0.009429372083016085,0.9917093886564613
2013-12-12,1,0.0009107177829566901,0.0009270317630279111,0.0006095723718100036,0.009429372083016085,0.9915244971015266
2013-12-16,1,0.0018551622363418565,0.002032790441848908,0.0006095723718100036,0.009746163886969587,0.9918832215531248
2013-12-18,1,0.002866742646925116,0.003151908848637928,-1.957713440382556e-05,0.007119257084085044,0.9939004599359493
2013-12-20,1,0.0032476826534693975,0.003590734943662922,-0.0010158561319378323,0.00668491400148566,0.993874817457114
2013-12-24,1,0.0036010459554342913,0.003999263633240701,-0.003658934264775992,0.00668491400148566,0.9916202528766308
2013-12-27,1,0.003859309093579639,0.004289720158363084,-0.003658934264775992,0.00668491400148566,0.9906442304751072
2013-12-31,1,0.0036881729907974952,0.004088081150542541,-0.005833877961995202,0.008817807249228435,0.9893832872871483
2014-01-03,1,0.0027145945980125057,0.0030012887647989615,-0.005833877961995202,0.008817807249228435,0.9893069313388086
2014-01-07,1,0.0031282731551104882,0.0034557672570939167,-0.005833877961995202,0.005486148550229729,0.9899383249414386
2014-01-09,1,0.003142207001069547,0.003439899168820607,-0.005833877961995202,0.007683290007218494,0.9890649476095307
2014-01-13,1,0.0026279016640983225,0.002842177804866804,-0.0028998399243345633,0.012065601050928085,0.9888944786942719
2014-01-15,1,0.003186633704024314,0.0034690706726878354,-0.0028998399243345633,0.010988364712140276,0.9891956991299921
2014-01-17,1,0.003001052597352077,0.0032394861257985055,-0.0028998399243345633,0.010988364712140276,0.9891266463891912
2014-01-22,1,0.002336009498667572,0.002459847504473569,-0.002420272691139393,0.013554663498637421,0.9880249758661405
2014-01-24,1,0.0006699059598096063,0.0007610755663014742,-0.0015108688269695675,0.013554663498637421,0.989247885757713
2014-01-28,1,0.0017904169782965505,0.0018650531743765165,-0.0015108688269695675,0.010988364712140276,0.9904362104963094
2014-01-30,1,0.001951888020076461,0.0020304017374115323,-0.0015108688269695675,0.008065873866572686,0.9917489810837193
2014-02-03,1,0.0012256176928358733,0.00123989786246599,-0.0015108688269695675,0.010988364712140276,0.9911851645514432
2014-02-05,1,0.0014222833688024147,0.0014382956657695714,0.0007729995768689639,0.010988364712140276,0.9911708751432888
2014-02-07,1,0.0023536836315511843,0.0024932917720550344,-0.001892115445054242,0.0069092414787579,0.9930839637608129
2014-02-11,1,0.003183361501157302,0.0034737254807202193,-0.001892115445054242,0.0046179588312587295,0.9941155390088184
2014-02-13,1,0.0031602236714460856,0.0034176492950030715,-0.004337543744690677,0.004035621796403474,0.9925523206295203
2014-02-18,1,0.002985824043247257,0.003206037858639035,-0.004337543744690677,0.0046179588312587295,0.9926980277864366
2014-02-20,1,0.003103028334033473,0.003336338585679307,-0.004337543744690677,0.0046179588312587295,0.9938132897938633
2014-02-24,1,0.0023430699167534138,0.0024501271044377413,-0.00615528072926065,0.0046179588312587295,0.9931838734377361
2014-02-26,1,0.0025364067983985827,0.0026634140455369195,-0.008511009984018504,0.0046179588312587295,0.9919477698277399
2014-02-28,1,0.0023057773961663516,0.002380337844080742,-0.008511009984018504,0.004793517854229342,0.9918927660545908
2014-03-04,1,0.002042288975025781,0.0020483943100918513,-0.008125930814692667,0.005903240772634467,0.9920139531743402
2014-03-06,1,0.002249050357535616,0.0022923697466225297,-0.008125930814692667,0.005903240772634467,0.9918948079485251
2014-03-10,1,0.0021128674488572743,0.0021334960579668084,-0.010825270641796097,0.005903240772634467,0.9903474762216632
2014-03-12,1,0.0021065383513692065,0.002120983094134187,-0.010825270641796097,0.006475862683086243,0.9888952953375462
2014-03-14,1,0.0010881218274908623,0.0011560468841648572,-0.010825270641796097,0.006475862683086243,0.9888701821383973
2014-03-18,1,0.0012545154131851787,0.0013135497978684209,-0.010825270641796097,0.007019280745684712,0.9886331890798123
2014-03-20,1,0.0011878367148530316,0.0012506490839261698,-0.010825270641796097,0.007974938029015648,0.9883661226415161
2014-03-24,1,0.0001587097604888615,0.0003267764885983314,-0.010451527706634229,0.008905371357446661,0.9893940888441928
2014-03-26,-1,-0.0008268652658852188,-0.0005226108938853512,-0.008568471659519277,0.008905371357446661,0.9884953208342612
2014-03-28,-1,-0.0006604122987195598,-0.00037377608017619666,-0.00967118617118102,0.008905371357446661,0.9882723395306378
2014-04-01,1,5.1158052976575425e-05,0.0002765733757805919,-0.00967118617118102,0.006154954477373066,0.9888145783646246
2014-04-03,-1,-0.0006186815216328199,-0.00028450829720245833,-0.00967118617118102,0.008126174028821787,0.9885847786852479
2014-04-07,-1,-0.0014776089355865846,-0.0010880096739456007,-0.0065877894982097175,0.008126174028821787,0.9898480783148516
2014-04-09,-1,-0.0005616144698242317,-0.0002802594201030222,-0.007211494346911319,0.008126174028821787,0.9900814321983181
2014-04-11,-1,-0.0016856471159074696,-0.00130930303936582,-0.006099578142882749,0.008602577544824557,0.9906904935801345
2014-04-15,-1,-0.0013435925173215723,-0.000986838599726318,-0.006681644595017711,0.008317872785201508,0.9909576012255197
2014-04-17,-1,-0.0009626479157876479,-0.000657435896138904,-0.007211494346911319,0.008317872785201508,0.9905508730194977
2014-04-22,-1,-0.0007806095917366369,-0.0004974092737974833,-0.007999874710943098,0.008602577544824557,0.9884355169678541
2014-04-24,-1,-0.002839427031089384,-0.002294313915637982,-0.006681644595017711,0.008602577544824557,0.9898624955863722
2014-04-28,-1,-0.0032816035809515327,-0.0026782659894158973,-0.0062158890275210025,0.008602577544824557,0.990287623703468
2014-04-30,-1,-0.0033130378096618025,-0.0026904272851459693,-0.0062158890275210025,0.008531657436412819,0.9899812455464114
2014-05-02,-1,-0.002920996178451314,-0.002384812278946937,-0.004260308668838723,0.008531657436412819,0.9906604777531263
2014-05-06,-1,-0.0031305039687536725,-0.0025505314200621777,-0.003915518135250638,0.009507863993738826,0.9902432725548532
2014-05-08,-1,-0.003371511051687679,-0.002729822438263108,-0.0028730263237069335,0.009309665041698988,0.9901936136359143
2014-05-12,-1,-0.0021910896275640314,-0.0017170077905754044,-0.0028730263237069335,0.0078091642446245875,0.9919806386287101
2014-05-14,-1,-0.0020864505858732554,-0.0016916746295209013,-0.002524546667814898,0.008024241312108405,0.9920157972338149
2014-05-16,-1,-0.001228714430553265,-0.0009643549104101001,-0.00286571583515087,0.007497205285475418,0.9931066083319411
2014-05-20,-1,-0.002533019598413378,-0.0021252235620503827,-0.002524546667814898,0.007497205285475418,0.994833301364995
2014-05-22,-1,-0.0015097449896353558,-0.0012360707050025196,-0.00286571583515087,0.00703309721803244,0.9955753705471218
2014-05-27,-1,-0.0016552742984749422,-0.0013731303770453352,-0.00286571583515087,0.00703309721803244,0.9953848990065418
2014-05-29,-1,-0.001406291317991803,-0.0011312328211673336,-0.00286571583515087,0.005370715541987406,0.9958083229027365
2014-06-02,-1,-0.0012690317557091666,-0.0010400301181972475,-0.0032321448852029415,0.005370715541987406,0.995467688157154
2014-06-04,-1,-0.0007510051409735474,-0.0006013227746488621,-0.004091718240157873,0.005370715541987406,0.9952209638349966
2014-06-06,-1,-0.00043983781990634274,-0.00030710611805972814,-0.004091718240157873,0.0022319003521866993,0.995034062641829
2014-06-10,-1,-0.00013580782591657962,-7.80730723098579e-05,-0.004839797907582515,0.0022319003521866993,0.9943565845599595
2014-06-12,0,-2.237426813480841e-05,2.0997933831069224e-05,-0.00578170328741534,0.0022319003521866993,0.9940855569605306
2014-06-16,-1,-0.000621279414177187,-0.0004907785137648567,-0.004864347913425577,0.0024963385221757387,0.994427830123279
2014-06-18,-1,-0.0012091707867487862,-0.0009313747262060847,-0.004864347913425577,0.0024963385221757387,0.9945662325572269
2014-06-20,-1,-0.0011079325779016305,-0.0008866492407219506,-0.004113931059825143,0.00845705973599401,0.9934398892286642
2014-06-24,-1,-0.0011086940168334165,-0.0008986205448472014,-0.0034287398024210386,0.00845705973599401,0.9928757330667364
2014-06-26,-1,-0.0012468255929459836,-0.0009890346519351705,-0.0036227630667846097,0.009456199632922586,0.9925349402473934
2014-06-30,-1,-0.0016751711820440604,-0.0013722071908444954,-0.004359660380066179,0.009456199632922586,0.992465327949686
2014-07-02,-1,-0.0008005496189880373,-0.0006740648233669656,-0.004359660380066179,0.00949303914801621,0.9914446439246437
2014-07-07,1,0.00035359036873645,0.00042073866380280703,-0.004359660380066179,0.009433762397442537,0.9923450466077575
2014-07-09,1,0.00011991707318072001,0.00018955920457531413,-0.004359660380066179,0.009433762397442537,0.9926314834325666
2014-07-11,1,0.00040467649522317684,0.0005245865278274736,-0.004291190313354395,0.009433762397442537,0.9924733226520528
2014-07-15,1,0.0005728277521053327,0.0007423228753641103,-0.005311519863748054,0.009433762397442537,0.9922316964682363
2014-07-17,1,0.0006137054940512712,0.0007624538187546374,-0.005311519863748054,0.009433762397442537,0.9921611773755237
2014-07-21,1,0.0018100538203434692,0.0021356680202550262,-0.005311519863748054,0.007558886310821832,0.9929138289112718
2014-07-23,1,0.0022610891643153187,0.0026503856342485125,-0.005311519863748054,0.0036859872528021407,0.9931563489450661
2014-07-25,1,0.0029785663222232726,0.0034848837000662643,-0.005311519863748054,0.0029751530705751403,0.9929303094966921
2014-07-29,1,0.002607416898755186,0.003080809389606361,-0.004943446648313639,0.0036859872528021407,0.9933391107428593
2014-07-31,1,0.001975558084166414,0.002366473240555278,-0.004937458571923864,0.0029751530705751403,0.9947715262800808
2014-08-04,1,0.002101979444011136,0.002515893230201741,-0.004937458571923864,0.0036859872528021407,0.9940445439414878
2014-08-06,1,0.0010338645034811676,0.0012279341705463964,-0.003971433153845875,0.004281326079577725,0.9945399587696618
2014-08-08,1,0.0016605954884448659,0.0019683714256037853,-0.0024058522569728796,0.004281326079577725,0.9951420459998975
2014-08-12,1,0.0012511863253095823,0.0015021769613314732,-0.0032790467497086488,0.004281326079577725,0.9950746370379174
2014-08-14,1,0.001328045336737247,0.0015313059568881845,-0.0032790467497086488,0.003134654585720568,0.9953409341171372
2014-08-18,1,0.0009253486179038792,0.001023444949858973,-0.003971433153845875,0.002791375514881283,0.9952142287636491
2014-08-20,1,0.0010328855717431035,0.0011534619844179967,-0.003971433153845875,0.004412188063062079,0.9948965521189554
2014-08-22,1,0.0012781670935865588,0.0014979357537435387,-0.005706797559398079,0.004412188063062079,0.9943861373416985
2014-08-26,1,0.001094289044967744,0.001287532342668246,-0.00524835544253869,0.0047295735946965714,0.9938683922344389
2014-08-28,1,0.00019603678491559792,0.00020024400381760094,-0.005794571412582634,0.0047295735946965714,0.9929140866712521
2014-09-02,1,0.0015141503699417495,0.0017362125223545238,-0.005794571412582634,0.004534402348346411,0.9936559285319828
2014-09-04,1,0.0010460766596474093,0.0011094604907693028,-0.00728365801314371,0.003365599064490008,0.9928507699518699
2014-09-08,1,0.0016281441709099786,0.0018036339757125292,-0.00728365801314371,0.003365599064490008,0.9918140393360039
2014-09-10,1,0.0014663553426934725,0.001653211127476116,-0.00728365801314371,0.004534402348346411,0.990165501835672
2014-09-12,1,0.0014800066150413474,0.001688687810516486,-0.011494452242714713,0.004534402348346411,0.9882089989694153
2014-09-16,1,0.00029203032115373065,0.00033465424782286974,-0.013078041679156452,0.004534402348346411,0.9868488307650252
2014-09-18,1,0.00034733859435348135,0.0004299175916054167,-0.014160443396722597,-0.0010797493732802254,0.9864510526970565
2014-09-22,-1,-0.0005515735861017882,-0.0003698958026520815,-0.014160443396722597,0.008338406054355374,0.9857041943242144
2014-09-24,1,2.0510516211050473e-05,0.00011801862140254656,-0.018121127590626635,0.008338406054355374,0.9832611803508468
2014-09-26,-1,-0.0006206597310762028,-0.00046391576098664134,-0.014160443396722597,0.017828279787703086,0.9828380908476824
2014-09-30,-1,-0.0003513996654288288,-0.0002421682106802236,-0.014160443396722597,0.017828279787703086,0.9829338229813247
2014-10-02,-1,-0.0006426377363526009,-0.0005366087551348214,-0.014538188856121294,0.017828279787703086,0.9827886865443551
2014-10-06,-1,-0.0005632414073663323,-0.0004417898079272009,-0.014538188856121294,0.01515927052483486,0.9832068202122873
2014-10-08,0,-2.2321124225265103e-05,1.671033709884548e-05,-0.011855252815236762,0.00989617630336033,0.9854519538433463
2014-10-10,-1,-0.002054304099645074,-0.0017304184037564895,-0.007995393221043595,0.00989617630336033,0.9860844584305669
2014-10-14,-1,-0.0030058435873311293,-0.0025963544407815427,-0.0019381500734208744,0.012898844885885205,0.986541870114381
2014-10-16,-1,-0.0036962054842958197,-0.0031987911080322076,0.00046719981769086235,0.012898844885885205,0.9864668773275981
2014-10-20,-1,-0.0019502695497986705,-0.0016817531757593496,-0.0010763495395715104,0.007396117906302084,0.9893882359589795
2014-10-22,-1,-0.002232279472787904,-0.001922156487520102,0.00046719981769086235,0.009406442213979233,0.9899883997022934
2014-10-24,-1,-0.000858739703386292,-0.0007245983632465523,-0.0006872374658609666,0.007396117906302084,0.9916919728293747
2014-10-28,-1,-0.00039585514295901385,-0.0003430077362484827,-0.0006872374658609666,0.007396117906302084,0.9915188355488254
2014-10-30,-1,-0.0009393837473188229,-0.0008167450793458726,0.0011624323251388244,0.007396117906302084,0.9918125149869936
2014-11-03,-1,-0.0003420511450883401,-0.0002966379194001761,-0.0006872374658609666,0.006642266356164995,0.9920732562671938
2014-11-05,-1,-0.0004931752532601324,-0.00041448909019477665,-0.0011109885412845287,0.006642266356164995,0.9919155714267875
2014-11-07,-1,-0.0008547326838932434,-0.0007507333614707103,-0.00047213588743009544,0.006642266356164995,0.9927590105814346
2014-11-11,-1,-0.0004925333861522693,-0.0004174395297861823,-0.0017370584173165744,0.0062157844913788025,0.9933009459399249
2014-11-13,-1,-0.0005787873755403684,-0.0004886433949578377,-0.003048817510747096,0.0062157844913788025,0.9926303436073041
2014-11-17,-1,-0.00038130554055968845,-0.0003251906761127778,-0.00546377454105085,0.0062157844913788025,0.9916629727786916
2014-11-19,1,0.0009610361547563574,0.0010542729803909602,-0.00546377454105085,0.0062157844913788025,0.9918489542149057
2014-11-21,1,0.0013305515002166347,0.0014694280425734268,-0.00546377454105085,0.0062157844913788025,0.9922156602429753
2014-11-25,1,0.0017740509605948143,0.0019956576708987104,-0.008132425678530503,0.0051972891111212735,0.9915343921994143
2014-11-28,1,0.001790565429555782,0.001984235845544532,-0.008132425678530503,0.0044437676830207384,0.9912154966327268
2014-12-02,1,0.0016657264171166205,0.0018470751816240902,-0.008132425678530503,0.0018104081719177393,0.9912994857469494
2014-12-04,1,0.0014180578453177853,0.0015588104194052318,-0.010167000592837698,0.004537769251090661,0.9899415322522371
2014-12-08,1,0.0014608342432504673,0.0016171148677267917,-0.010167000592837698,0.007028685618338086,0.9881246258576853
2014-12-10,1,0.0015344538041376756,0.001745560092032943,-0.010167000592837698,0.008068063971255436,0.988025270914603
2014-12-12,1,0.0010930499124256303,0.0012613552654877278,-0.009745624198006831,0.008068063971255436,0.98846389892685
2014-12-16,1,0.0004248669547222807,0.0005269368968844885,-0.009831862102863444,0.008068063971255436,0.9882533872788813
2014-12-18,1,0.001722206554602193,0.0019720248562321826,-0.009831862102863444,0.007028685618338086,0.989820385232335
2014-12-22,1,0.0016620346840804717,0.0018698232509136593,-0.009831862102863444,0.007541709358690462,0.9895904546558284
2014-12-24,1,0.001203873900269077,0.0013580414893382005,-0.009831862102863444,0.007541709358690462,0.989576899678748
2014-12-29,1,0.0010470340982446694,0.0011598496005723533,-0.009831862102863444,0.006961057337335724,0.9896401063743293
2014-12-31,1,0.0007237710464600528,0.0008080126945324698,-0.010659703300269129,0.009607135192312563,0.9879531963504908
2015-01-05,1,0.0007232837906414396,0.0007848630163516001,-0.009412278289986248,0.009607135192312563,0.9889693843961913
2015-01-07,1,0.001624423526837448,0.001831643156662999,-0.008180899950937837,0.006961057337335724,0.9901494644416658
2015-01-09,1,0.0017091093082019391,0.0019284771367159112,-0.01251410391170551,0.005637376784135542,0.9892454616359321
2015-01-13,1,0.0013473115149191623,0.0015209898519112715,-0.01251410391170551,0.006961057337335724,0.9893582017384486
2015-01-15,1,0.00026428200646023644,0.0002770815160529415,-0.006460925205858413,0.009819367269093836,0.9901437912418948
2015-01-20,1,0.0004612797191983995,0.0004901983680489599,-0.006460925205858413,0.007435353408682086,0.9904969396081327
2015-01-22,1,0.0007861290441928805,0.000851510319406349,-0.006460925205858413,0.007435353408682086,0.9898142841752939
2015-01-26,1,0.0008209232492161089,0.0009255195821028264,-0.004755380459584334,0.007792300038646225,0.9905675190572784
2015-01-28,1,0.000545583307161052,0.0006247753458469181,-0.006210729249756803,0.007792300038646225,0.9903968680643351
2015-01-30,1,0.0008578595318165101,0.0009959936216407945,-0.002709414358637855,0.007577901751546889,0.9923843048860055
2015-02-03,1,0.0012230962660744159,0.0013875679947533584,-0.006630095201829219,0.006273044827067811,0.9920825919442922
2015-02-05,1,0.0010796694293093018,0.0012225568090643794,-0.006630095201829219,0.007577901751546889,0.9906507002443437
2015-02-09,1,0.0001604785645414325,0.00017161248251218778,-0.006055592542914343,0.007577901751546889,0.9915300233332006
2015-02-11,1,0.0007801105061436808,0.0008921045693111529,-0.006055592542914343,0.0067726589240113474,0.9917127650426729
2015-02-13,1,0.0009319794113351247,0.0010293699036312705,-0.006630095201829219,0.0067726589240113474,0.9898587230984143
2015-02-18,1,0.0011355185781024453,0.0012842983260406685,-0.006630095201829219,0.007968933852128952,0.9892139077069908
2015-02-20,1,0.0015287807175847746,0.0017010487436279792,-0.006630095201829219,0.007968933852128952,0.9896846825292743
2015-02-24,1,0.0015715242647302238,0.0017473129485340994,-0.0074098555203323535,0.009402815971926977,0.9888460246144026
2015-02-26,1,0.0008431946062123112,0.0008864808476542841,-0.008558629582906338,0.009402815971926977,0.9885592050057207
2015-03-02,1,0.0011929654368445677,0.0012984241503981094,-0.008558629582906338,0.00971559110436275,0.9883211807914868
2015-03-04,1,0.0007607252222751758,0.0008261526833896336,-0.00909861319635046,0.00971559110436275,0.9879255371389766
2015-03-06,-1,-0.00019186429918614372,-7.367563811894423e-05,-0.008532900652074325,0.008575705112472482,0.9894562342307504
2015-03-10,-1,-0.0011319340997804272,-0.0008618604633468452,-0.005858076111884945,0.008575705112472482,0.9897646636555062
2015-03-12,-1,-0.0011715881847419473,-0.000871061633666825,-0.005858076111884945,0.008575705112472482,0.9900462100969737
2015-03-16,1,0.00034634469365004767,0.0004114639657617893,-0.005477977641601306,0.006975650094049705,0.9922307173274506
2015-03-18,1,0.0002758133265761283,0.00039542851044219564,-0.007778552912738067,0.0066445596847612125,0.9922962218255177
2015-03-20,1,0.0013994814119997515,0.001468566102254058,-0.007778552912738067,0.006006238202017647,0.9922430152225353
2015-03-24,1,0.0009276200521046902,0.0009391825675947703,-0.007778552912738067,0.004906058639700286,0.9920029048207192
2015-03-26,1,0.00011780072297771008,0.00021906482073309508,-0.007778552912738067,0.004906058639700286,0.992472984283428
2015-03-30,1,0.0008243366303983368,0.0008305932733529472,-0.008523287197423117,0.003201271045832157,0.9920834027713221
2015-04-01,-1,-0.00016959354733213605,-4.318480057801809e-05,-0.007778552912738067,0.003201271045832157,0.9927870334880291
2015-04-06,-1,-0.00019405009571706494,-3.5479434013834844e-05,-0.007778552912738067,0.003201271045832157,0.9925405220535117
2015-04-08,-1,-0.0001819062461162127,-5.127713450582148e-05,-0.008523287197423117,0.004132649071636747,0.9919386717413742
2015-04-10,0,-9.015000118378549e-05,3.544421699425089e-05,-0.008523287197423117,0.004492147636235002,0.9913796464266419
2015-04-14,-1,-0.0003698732350322797,-0.00021249409384874022,-0.008523287197423117,0.004492147636235002,0.991642145789627
2015-04-16,1,0.00031174079433289245,0.00032032310873106833,-0.005118912565825818,0.0047146517344531695,0.991795971620307
2015-04-20,1,0.0007674866321364135,0.0008386760299118508,-0.007558319911277051,0.003201271045832157,0.9922264092504948
2015-04-22,1,0.00013993251992068702,0.00014298983249412628,-0.00473071010415461,0.005340624320693233,0.9929652958451707
2015-04-24,1,0.0002810730698690902,0.0003166295391114689,-0.004236740024401664,0.006652027438628553,0.9930441301380408
2015-04-28,-1,-0.00018732932444597914,-0.0001604551487619879,-0.004236740024401664,0.008273055038216098,0.992846577149025
2015-04-30,-1,-0.0007579091920147201,-0.0006584150607020627,-0.004180292825482875,0.008273055038216098,0.993073534176291
2015-05-04,-1,-0.00026074785458776826,-0.00022122226918503887,-0.004180292825482875,0.006652027438628553,0.9938299659306329
2015-05-06,-1,-0.000395756183142102,-0.0003250827764401953,-0.0037302101563315856,0.004899716704007724,0.9943383401209676
2015-05-08,-1,-0.0002459655195955126,-0.00016846403655233124,-0.004180292825482875,0.003488812867772645,0.9947372088889521
2015-05-12,-1,-0.0009175583818972399,-0.0007183534732436989,-0.004180292825482875,0.004899716704007724,0.9941045823471178
2015-05-14,1,0.00025700851564877376,0.0002680324939229928,-0.004180292825482875,0.003488812867772645,0.9943374465912547
2015-05-18,1,0.00015337438232840457,0.0001650883341916869,-0.004180292825482875,0.003488812867772645,0.9942995247315352
2015-05-20,1,0.00023553086734133243,0.00023892233756122108,-0.004180292825482875,0.0027499489238588352,0.9945879645403521
2015-05-22,1,0.00023870507617461108,0.0002407176336898266,-0.00383370064660544,0.0024070945918479693,0.9950187550468028
2015-05-27,-1,-0.00021811457153728665,-0.00014066913138983765,-0.00383370064660544,0.0024070945918479693,0.9959124012588833
2015-05-29,-1,-0.000432860010394678,-0.0003380867456615533,-0.003692078850762525,0.0036656631810798803,0.9956231721642053
2015-06-02,0,-5.046942954059821e-06,3.789337183030263e-06,-0.003727339908384794,0.0036656631810798803,0.994611196900983
2015-06-04,1,1.5617732093468282e-05,1.984893081950074e-05,-0.00372657568085381,0.005266914943832211,0.9945001430745409
2015-06-08,-1,-0.0004910993590825785,-0.00041225847088600877,-0.00372657568085381,0.005266914943832211,0.9944952376834557
2015-06-10,-1,-0.0005447941121906408,-0.0004218786653006582,-0.003910853026786166,0.004513587781348525,0.9941573894482676
2015-06-12,-1,-0.0004584412568970495,-0.00035840002168567966,-0.0038065983089813284,0.006189413006579216,0.9919633465906557
2015-06-16,-1,-0.0006002926151657151,-0.0004971455051854375,-0.0032608031361210156,0.008105650314675975,0.9910188890922872
2015-06-18,-1,-0.00055533107680503,-0.000445266956922159,-0.00418229639480143,0.00854481396836111,0.9906556145974645
2015-06-22,-1,-0.0007152601756070674,-0.0005691248235135127,-0.00418229639480143,0.00854481396836111,0.9905259248341239
2015-06-24,-1,-0.0005995101942876393,-0.0004771171021726655,-0.0032921786197537242,0.00986042399135562,0.9894858303141152
2015-06-26,0,-6.7880290637662355e-06,2.213155757174154e-05,-0.006661554291460068,0.008733061207494881,0.9891335296098885
2015-06-30,-1,-0.00046961057891029933,-0.00038475103546908244,-0.004872039140940478,0.010792873648810168,0.9892463255098184
2015-07-02,-1,-0.0006519380746747292,-0.0005104943941628297,-0.004872039140940478,0.010792873648810168,0.9894170774931057
2015-07-07,-1,-0.00040874261515371483,-0.00031473603576402746,-0.006661554291460068,0.010792873648810168,0.9892737500913104
2015-07-09,-1,-0.0008411246487208602,-0.0007169602793843775,-0.006661554291460068,0.010792873648810168,0.9893915346740425
2015-07-13,1,0.0003788977675844657,0.0003997850713066591,-0.006661554291460068,0.00737904974164289,0.9912430822623466
2015-07-15,1,0.000567401499536361,0.0006448590020221508,-0.006661554291460068,0.006757347694406045,0.9916383013372173
2015-07-17,1,0.0007305224566556859,0.0008341549081108334,-0.006839455000385185,0.006757347694406045,0.991669683419524
2015-07-21,1,0.0006798906351336584,0.0007577133007375867,-0.007284379094219763,0.00737904974164289,0.991013924767651
2015-07-23,1,0.0013148212355440889,0.0014887141291853624,-0.00845745377693299,0.006757347694406045,0.9911310803846923
2015-07-27,1,0.0007867668054730139,0.0008596506065313785,-0.01073305783115324,0.006757347694406045,0.9884659316338106
2015-07-29,1,0.0006713054259080831,0.0007233685530012786,-0.012003084912438176,0.003879787551634168,0.9865667446641383
2015-07-31,1,0.0004947616962850999,0.0005206715202924007,-0.012003084912438176,0.007140355146805672,0.9853706502856372
2015-08-04,1,0.00038462039512838673,0.00041136416229800495,-0.012900395563731399,0.007140355146805672,0.9840597116338877
2015-08-06,1,0.00038816827377207124,0.0004503249275052871,-0.012141174316367402,0.008784576599152317,0.9844772234688055
2015-08-10,1,0.0005850537366374094,0.000670006528827131,-0.013103031736847973,0.00959602494847447,0.9835205947223162
2015-08-12,1,0.0005605923611658222,0.0006602277660823137,-0.013103031736847973,0.00959602494847447,0.9835233030063802
2015-08-14,1,0.00028069111266281296,0.0003049182146364241,-0.013103031736847973,0.00773558526749169,0.983770211760595
2015-08-18,1,0.00017627862197284934,0.00020069527471158397,-0.013103031736847973,0.009872633744820435,0.983012829470222
2015-08-20,1,0.00016547439784142176,0.00020941712683438736,-0.014169843845800351,0.01207373079315195,0.98244236915271
2015-08-24,-1,-0.001975468780246466,-0.0017256686412866064,-0.01140842475668658,0.01207373079315195,0.9857502154698344
2015-08-26,-1,-0.00026074045702610053,-0.00023913948278400668,-0.009533835623486017,0.009872633744820435,0.9880894700101243
2015-08-28,-1,-0.0004918749356571096,-0.00043317148069843103,-0.011423435282528274,0.007725355324300824,0.9873866553785079
2015-09-01,-1,-0.0012241399017539143,-0.0010920748330456784,-0.009133560569808992,0.011832160582919964,0.9875350667844576
2015-09-03,-1,-0.0007695099406853922,-0.0006889253910345064,-0.009133560569808992,0.014717140549951041,0.9871262083878187
2015-09-08,-1,-0.00044600090165685714,-0.00039785152635166295,-0.009133560569808992,0.014717140549951041,0.9870045069769523
2015-09-10,-1,-0.0005444829710319006,-0.0004994294866928017,-0.0066531166165925085,0.014717140549951041,0.9872426745978113
2015-09-14,-1,-0.0011593432489974882,-0.0010119947742958588,-0.0059097017940977405,0.014717140549951041,0.9873823124241642
2015-09-16,-1,-0.00029096361079921306,-0.00025397750589750386,-0.009133560569808992,0.010327736829689245,0.9883432767466594
2015-09-18,-1,-0.0007661058132974889,-0.000663988984394472,-0.0059097017940977405,0.009733769600147591,0.9890852819608679
2015-09-22,-1,-0.0008490395638718703,-0.000709107545037838,-0.00498883927882732,0.012693668651094097,0.9885638997028913
2015-09-24,-1,-0.0008269476679625674,-0.0007080281948921073,-0.011100305118293647,0.012693668651094097,0.9872744742229378
2015-09-28,-1,-0.002383835403282051,-0.002094009181844162,-0.0037270678995802694,0.014993566708395353,0.987978115196368
2015-09-30,-1,-0.0007137767223672247,-0.0006335979067829847,-0.0037270678995802694,0.013211665019770395,0.9889916645174343
2015-10-02,-1,-0.0004620658984538437,-0.0004053092607550769,-0.004650306720630175,0.013194708141236867,0.9890031761936319
2015-10-06,-1,-0.000734979087728999,-0.0006610108182926991,-0.0036437126267812514,0.013194708141236867,0.989238257737296
2015-10-08,-1,-0.00017699247885272643,-0.00015809632716753434,-0.0036437126267812514,0.013194708141236867,0.989501029161923
2015-10-12,-1,-0.0001486261114879203,-0.0001431029935126345,-0.0036437126267812514,0.013194708141236867,0.9897589374525807
2015-10-14,-1,-0.0007611745570038364,-0.0006842475664504697,-0.0035249258763048116,0.013781114250580418,0.9894252565890446
2015-10-16,1,7.803011185018067e-05,0.00010481291047815054,-0.0046293519911777955,0.013781114250580418,0.9894881817537113
2015-10-20,1,5.7310673290127364e-05,6.535345625179138e-05,-0.0046293519911777955,0.013781114250580418,0.9894353292542597
2015-10-22,-1,-0.0012629304342839454,-0.0011175188296520576,-0.0022626042566672162,0.01658674772561259,0.9902638654514593
2015-10-26,1,3.834255558686862e-05,4.70467851613065e-05,-0.0022626042566672162,0.013781114250580418,0.9912197135111225
2015-10-28,1,0.00019736746179571424,0.0002065500467864128,-0.0022626042566672162,0.008750739286062143,0.9918772492681284
2015-10-30,1,0.0003393051933367664,0.0003931346882812491,-0.0022626042566672162,0.007874213353594072,0.9919098059351658
2015-11-03,1,0.0009723566545364624,0.001105472423571365,-0.0030011425508692695,0.005648882488865119,0.9927177989665145
2015-11-05,1,0.0007923483297991202,0.0008792743382279126,-0.00576267284188663,0.006149302205713172,0.9900290402921568
2015-11-09,1,0.0008619998998996996,0.0009721130259497459,-0.009237306070527137,0.006149302205713172,0.9896137626955123
2015-11-11,1,0.0007090822508421718,0.0008006847723542064,-0.011168398845773496,0.0051820348247580555,0.9898050749667038
2015-11-13,1,0.0004085470224010697,0.00045751751162362986,-0.007948273189084015,0.006383913154357528,0.9899984582525682
2015-11-17,1,0.0009510591968189795,0.0010814319734157372,-0.007948273189084015,0.009106200883392175,0.9895566946789035
2015-11-19,1,0.0010791350026605447,0.0012067959360617308,-0.011281478688118561,0.006383913154357528,0.9883113758331664
2015-11-23,1,0.0012629982818906803,0.0014334279926586852,-0.011281478688118561,0.010630287917925228,0.9869008395833299
2015-11-25,1,0.0015393537959623004,0.0017487141854144082,-0.011281478688118561,0.011607743452741584,0.9867003105047433
2015-11-30,1,0.0007454274286622307,0.0007987166199068345,-0.011281478688118561,0.014636242951644474,0.9865155554909152
2015-12-02,1,0.001163048846248263,0.0013500539676368766,-0.008111164358884908,0.014636242951644474,0.9868020336882315
2015-12-04,1,0.0013958834913767604,0.0015999207502839087,-0.008111164358884908,0.011607743452741584,0.9886925768097815
2015-12-08,1,0.0012800098413262525,0.0014851133153128923,-0.00879000059168147,0.011607743452741584,0.9878037908496047
2015-12-10,1,0.0011820679137165926,0.0013823514653688832,-0.007215580022403654,0.011607743452741584,0.9883590540703034
2015-12-14,1,0.0016998937766497454,0.002004949275365684,-0.009815816627611081,0.014636242951644474,0.9872365671619227
2015-12-16,1,0.002080628005725853,0.0024059625896695608,-0.017692043821992846,0.011607743452741584,0.9869399973450708
2015-12-18,1,0.0010597076221792305,0.0012728073816264947,-0.009186388104512463,0.014571166394966903,0.9878524822351327
2015-12-22,1,0.002049524592713765,0.0023854264590425648,-0.011169462276011337,0.011784175688422263,0.9875310827551864
2015-12-24,1,0.0020187770283787657,0.002331144012472205,-0.011169462276011337,0.007800167212496609,0.9872892160047837
2015-12-29,1,0.0019417142673872558,0.0022241645345570343,-0.015803758252696996,0.007250248395978158,0.9849613925016677
2015-12-31,1,0.0016721366781797355,0.001934759437380647,-0.015803758252696996,0.013450706652453591,0.9836725426772853
2016-01-05,1,0.0009876361136853045,0.0011427112642238815,-0.015918694708834023,0.013450706652453591,0.9832511829560481
2016-01-07,1,0.000802214758636852,0.0009361133255589702,-0.015918694708834023,0.014187650231856593,0.9824419706937993
2016-01-11,1,0.0006583413039500223,0.000767460162084762,-0.015918694708834023,0.015199154158932447,0.9812951066511463
2016-01-13,1,6.083200957898608e-05,6.840946489828238e-05,-0.014644382744895414,0.014187650231856593,0.9820223117498443
2016-01-15,-1,-0.0010210449250662914,-0.000794522611927535,-0.011227270016793935,0.014461211098855144,0.9824347367726982
2016-01-20,-1,-0.00018348302676090533,-0.0001131299975392353,-0.010316227868143155,0.015558496520858275,0.9821146946894248
2016-01-22,1,0.00040119854368532914,0.0004017635223123079,-0.01014342281295646,0.013146435695736142,0.9832436421502666
2016-01-26,-1,-0.0006458747770140789,-0.0004656148330632429,-0.011013935327863541,0.013146435695736142,0.9830773191684897
2016-01-28,-1,-0.001969320940203053,-0.001653052439678019,-0.01014342281295646,0.010846375377041214,0.9858511777859769
2016-02-01,-1,-0.0009320104949894269,-0.000748352815856272,-0.010457121076180086,0.010846375377041214,0.9850985103737405
2016-02-03,-1,-0.0022689813125781138,-0.0019031184610382508,-0.008312321962697504,0.015558496520858275,0.9850389410497592
2016-02-05,-1,-0.0031271767894166694,-0.0026592535693880223,-0.001758477957507502,0.013961882438426231,0.98589281714729
2016-02-09,-1,-0.0019058648843642625,-0.001627034594011408,-0.006947036609397379,0.0103141706828972,0.9868699362302731
2016-02-11,-1,-0.002250169784999834,-0.0019198130086283773,-0.002703131956834735,0.012911300188456586,0.9870525960861535
2016-02-16,-1,-0.0013817350842919686,-0.0011568201601260299,-0.006947036609397379,0.0103141706828972,0.9886088682574803
2016-02-18,-1,-0.0012193475089820958,-0.0009993863814857999,-0.006147565039380687,0.00914061980552824,0.9896929609324124
2016-02-22,-1,-0.001788735925664907,-0.0014229484300109457,-0.006147565039380687,0.009620749744083536,0.9897123154553374
2016-02-24,-1,-0.0013905026299411303,-0.0011311241677717508,-0.0056815877085237484,0.009620749744083536,0.9901019613087426
2016-02-26,-1,-0.0010324760925931958,-0.0008371495856166208,-0.0056815877085237484,0.009620749744083536,0.9903052337042892
2016-03-01,-1,-0.00032573863335719075,-0.00019791540141482407,-0.004040079870916049,0.009605655298109163,0.9923325829538051
2016-03-03,1,0.0005344269640592923,0.0005373548675537921,-0.004040079870916049,0.00794812271050219,0.9928476608424301
2016-03-07,1,0.0009045844993501677,0.0009428067448303499,-0.0056815877085237484,0.006355098703140461,0.992403102093017
2016-03-09,-1,-0.00027445552626254434,-0.00014054397797014153,-0.004040079870916049,0.008138929224338119,0.9913958708825727
2016-03-11,1,0.0005796360914534296,0.0005825975675659158,-0.004297201641762402,0.006355098703140461,0.9919556531711557
2016-03-15,1,0.0003663104833071941,0.00037894403252062864,-0.0036104193710681035,0.008138929224338119,0.9915508732717042
2016-03-17,-1,-0.0005006621963024777,-0.0003266844748910186,-0.0031045902597771147,0.008138929224338119,0.9916469385543895
2016-03-21,1,0.00030180066982807996,0.0003364155401835099,-0.0036104193710681035,0.007664479463343763,0.9918204191045025
2016-03-23,1,0.0003041823911845394,0.0003191393822464938,-0.0031045902597771147,0.007664479463343763,0.9915622148195977
2016-03-28,1,0.0002146864886493386,0.00023585521584717437,-0.00307173252186326,0.007664479463343763,0.9914897645941726
2016-03-30,1,0.0008964107434880014,0.0010021902563839863,-0.003511846157326538,0.007664479463343763,0.9916167404965044
2016-04-01,1,0.0012672493140662958,0.0014247646863104362,-0.006126558704079117,0.00660435715865468,0.9911210981707342
2016-04-05,1,0.0008367196215709161,0.0009320049375392157,-0.006126558704079117,0.00660435715865468,0.9911841893831959
2016-04-07,1,0.0008119346062846035,0.0008988145474191666,-0.004402678242382464,0.005932309866216758,0.9932068074139071
2016-04-11,1,0.0006231641454541478,0.0006619818250085788,-0.004046983257794545,0.00660435715865468,0.9927052730111753
2016-04-13,1,0.0014629635921049678,0.0016405732338355848,-0.0058358290769916716,0.00660435715865468,0.9931460411286548
2016-04-15,1,0.0016098669302166435,0.0018243569592649783,-0.006126558704079117,0.006758876354337962,0.992899255367335
2016-04-19,1,0.0015306837528156754,0.0017357717986244113,-0.006590588914774179,0.007137805117626405,0.9923249495226979
2016-04-21,1,0.0019222790578255734,0.0021912041599537434,-0.007028120543366255,0.008823763553395807,0.9917667435717009
2016-04-25,1,0.0015901169081429722,0.0017986568419522384,-0.007028120543366255,0.008823763553395807,0.9920574739375643
2016-04-27,1,0.0015073130947501302,0.0016895550857423227,-0.007028120543366255,0.008823763553395807,0.9922712079789802
2016-04-29,1,0.0012402604552103004,0.0014028151634953492,-0.003101218901579207,0.008823763553395807,0.9930436752444147
2016-05-03,1,0.0010420135174958323,0.0011617819134685874,-0.0022482169453333836,0.008541780321450244,0.9937614716727594
2016-05-05,1,0.001023797078373145,0.0011307203471073771,-0.002881944946461553,0.008541780321450244,0.993684057726265
2016-05-09,1,0.0013057853727657847,0.0014558343179783394,-0.003555084551228735,0.006940064483930194,0.9941543404288623
2016-05-11,1,0.0015483970214952908,0.0017713924957098268,-0.002590780964665835,0.006940064483930194,0.9944981988046939
2016-05-13,1,0.0009487790536056281,0.0010221713923736753,-0.003555084551228735,0.00673804944477388,0.9937465432685189
2016-05-17,1,0.001487850187096355,0.001692990837589066,-0.00399600789908858,0.003938757726235311,0.9938847894846616
2016-05-19,1,0.0016271728361377787,0.0018622026023646457,-0.00399600789908858,0.003189572621012533,0.9943008635424734
2016-05-23,1,0.0018183350125016984,0.0020910197975269216,-0.00399600789908858,0.0042674171775418,0.9937226448748304
2016-05-25,1,0.001967550560910565,0.002243258377690432,-0.00399600789908858,0.00619127319280035,0.9934053810978936
2016-05-27,1,0.001710526163178273,0.001917186796307856,-0.007151115034364489,0.004307844118085498,0.9898226818261674
2016-06-01,1,0.0014998038017079332,0.0016485595516254046,-0.007151115034364489,0.007108501772297407,0.9890708628956235
2016-06-03,1,0.0013922450610519429,0.001519179980247887,-0.007151115034364489,0.010971751485733264,0.9882256110129746
2016-06-07,1,0.0010961935513856633,0.001163218120451158,-0.009641124858470348,0.012984008400881467,0.9871928222421826
2016-06-09,1,0.0012534632503990505,0.001335446534285419,-0.009641124858470348,0.014172219987178285,0.9864576328474519
2016-06-13,1,0.0007079969416336476,0.0007177593217076115,-0.004569890507094297,0.014172219987178285,0.9868790701100977
2016-06-15,1,0.0005256053433724966,0.0005372023855193923,-0.001488919889512438,0.01474424602433251,0.9869204921335386
2016-06-17,1,9.290667300092416e-05,0.00015011881731498918,-0.0008245740397070838,0.01474424602433251,0.9869990039079901
2016-06-21,-1,-0.000436899989651666,-0.00022638512421803252,-0.002371863717580257,0.014351439042040372,0.987357873367726
2016-06-23,1,0.0007005865136926532,0.0007382692072854339,-0.0030516375490449023,0.013553687534743331,0.9878361919019398
2016-06-27,-1,-0.0026047089365444052,-0.0021249489783669463,-0.0008245740397070838,0.013553687534743331,0.9898056075487444
2016-06-29,-1,-0.0020089456617166847,-0.0015549586028499958,-0.0009505991124764296,0.01228327980653561,0.9916078882734141
2016-07-01,-1,-0.0008808790860292906,-0.0006078905289753326,-0.0009505991124764296,0.008069260790473168,0.9931909353032436
2016-07-06,-1,-0.0014418443872330432,-0.001050771622696517,-0.002371863717580257,0.005075475323735559,0.9933048534162259
2016-07-08,-1,-0.00033643857150572013,-0.00011909517057990518,-0.002371863717580257,0.005075475323735559,0.9943210475970831
2016-07-12,1,0.0001333581401992511,0.00027699374710852496,-0.0026611414839223814,0.004446289728548583,0.9947996799011636
2016-07-14,1,0.0008803307683121658,0.0009218017866301013,-0.003178501679567826,0.004446289728548583,0.9950237661664794
2016-07-18,1,0.00033720351461810226,0.00046791490433697135,-0.003178501679567826,0.004446289728548583,0.9946341558147248
2016-07-20,1,0.0003866940950945623,0.0005076985699432747,-0.004778478601837933,0.0034195980639228104,0.9946320421550358
2016-07-22,1,0.0006688640828093159,0.0007049876962359988,-0.004778478601837933,0.002790968880003313,0.9947423760712828
2016-07-26,1,0.001222869198037835,0.001294100024039824,-0.004778478601837933,0.002790968880003313,0.9950096249717459
2016-07-28,1,0.0014140817040900033,0.0015365933533096014,-0.006316812412637325,0.002790968880003313,0.9939900909745794
2016-08-01,1,0.001032415911427997,0.0010580756244017717,-0.006316812412637325,0.003224386690551392,0.9936464634048131
2016-08-03,1,0.0006243326442516843,0.0006301656594026993,-0.006297253602208074,0.003224386690551392,0.9943179744355917
2016-08-05,1,0.0005854316236757918,0.0006191030280808823,-0.006352812907517628,0.0027739786036963237,0.9942722133889499
2016-08-09,1,0.00028529487924099247,0.0003594990864119658,-0.006352812907517628,0.0027739786036963237,0.9944006237694688
2016-08-11,1,0.0005289686498081786,0.0005638414483891793,-0.006845553519762265,0.001810151862640441,0.9926953377824894
2016-08-15,1,1.0172855907187217e-05,0.0001187539470954532,-0.006845553519762265,0.001810151862640441,0.9921960128568751
2016-08-17,-1,-0.00042304225432276965,-0.0002530397334253423,-0.0067868770884745135,0.004395747172613514,0.9909815557882206
2016-08-19,-1,-0.0004293726130957657,-0.0002785166254433217,-0.004066757232881366,0.004395747172613514,0.9914259869119967
2016-08-23,-1,-9.693796877996707e-05,-2.9576929132982374e-06,-0.004066757232881366,0.008360896422940963,0.9899806367237421
2016-08-25,-1,-0.000989256651280761,-0.0007732198380923416,-0.0025377562211416085,0.011703124343424168,0.9901786061731042
2016-08-29,-1,-0.0005049221599749519,-0.00035137855849927093,-0.004066757232881366,0.014444877127598219,0.98970556468238
2016-08-31,-1,-0.0009127988695257933,-0.0007055148311137684,-0.004520380224267502,0.014444877127598219,0.9892091180400137
2016-09-02,-1,-0.000692981493823892,-0.0005480857090898704,-0.0019607709790343667,0.015260802614268949,0.9886652315796518
2016-09-07,-1,-0.0008510002591698457,-0.0006890378665705115,-0.003267519340019379,0.015260802614268949,0.9880723749567456
2016-09-09,-1,-0.002349151087835671,-0.00201298095338537,-0.0014663721124920505,0.015260802614268949,0.9896146162720671
2016-09-13,-1,-0.001641725449981811,-0.0014083490084725893,-0.0014663721124920505,0.014444877127598219,0.9897370844328013
2016-09-15,-1,-0.0007395924331388665,-0.0006042805963999931,-0.00770450870164506,0.006966444006084395,0.9909148048623803
2016-09-19,-1,-0.0006974081892555119,-0.0005729128583947413,-0.00770450870164506,0.006966444006084395,0.9906397498574644
2016-09-21,0,-3.6985675598930355e-05,4.112800029532692e-05,-0.00770450870164506,0.0048015602885867386,0.9920452068947209
2016-09-23,1,0.0003734186787112684,0.0003998005617762372,-0.00770450870164506,0.001884637330210393,0.9922801902045447
2016-09-27,1,0.0005331801175715671,0.0005345064168230968,-0.007761222541717391,0.001884637330210393,0.9910988915993428
2016-09-29,1,2.9443357427113727e-05,6.623822627649259e-05,-0.00672059642244055,0.0048015602885867386,0.991696143594114
2016-10-03,1,0.0006003593736874375,0.0006334817441575023,-0.007761222541717391,0.001884637330210393,0.9917985444169519
2016-10-05,1,0.0004419063975935692,0.0004540669445199026,-0.006927306038255535,0.000895589658195346,0.9920808232452031
2016-10-07,1,0.00040450278995889647,0.00041494560805042957,-0.006927306038255535,0.00227891389818636,0.9919935197710477
2016-10-11,-1,-0.00014628518084158426,-9.085043341064495e-05,-0.006662599472271287,0.0037508694907615217,0.9916888216003311
2016-10-13,-1,-0.0005045252696207411,-0.0004102097579298767,-0.004039725488004459,0.005180948468008841,0.9917044691659617
2016-10-17,-1,-0.0004853826515011875,-0.0004108008743587511,-0.006662599472271287,0.005180948468008841,0.9900641708203202
2016-10-19,-1,-0.00018758138642679327,-0.00015568886197570784,-0.006662599472271287,0.005101095113444367,0.9898879315578004
2016-10-21,-1,-0.0002888551271963693,-0.00025112889395606964,-0.008519483642885937,0.005101095113444367,0.989049677164628
2016-10-25,-1,-0.0008740517789401733,-0.0007665972538382104,-0.008519483642885937,0.004477898362236946,0.9903431216006465
2016-10-27,-1,-0.0008041886056564553,-0.0007025700441976846,-0.008519483642885937,0.004409964746220989,0.990350350484883
2016-10-31,-1,-0.0008027420989069939,-0.0007141355880165197,-0.01017304754481594,0.004736585240230171,0.9893454407681888
2016-11-02,-1,-0.001340479478225601,-0.0011587582146723291,-0.011179505031294874,0.004736585240230171,0.9891852781418209
2016-11-04,-1,-0.0015357714911307407,-0.0013077178693379336,-0.011179505031294874,0.005101095113444367,0.9886091505521428
2016-11-08,-1,-0.0006796403275225193,-0.0005415804295230131,-0.01410939158057722,0.0048972942653964955,0.9892546802082441
2016-11-10,-1,-0.0001328071837273942,-7.896224793672895e-05,-0.01410939158057722,0.0058799709793921455,0.9888350344223301
2016-11-14,-1,-0.0011160196301021677,-0.0009768690767974495,-0.005113221428845383,0.0058799709793921455,0.9904848211093553
2016-11-16,-1,-0.0019887753663875994,-0.001634382152202889,-0.009187881253152301,0.005412081426608553,0.990532121069754
2016-11-18,-1,-0.002285157393720766,-0.001945792253640378,-0.00842095043432,0.005412081426608553,0.9909595430857299
2016-11-22,-1,-0.002360951105077563,-0.002049567425231354,-0.007500620349418175,0.005412081426608553,0.991575016055387
2016-11-25,-1,-0.001830068618497457,-0.0015820978838014398,-0.007500620349418175,0.007227823690193447,0.9915777114487277
2016-11-29,-1,-0.001982742923722037,-0.0017481499412015703,-0.007500620349418175,0.005869687766063441,0.9926206526843914
2016-12-01,-1,-0.002056317688489612,-0.001830678469278059,-0.006833392442209081,0.005869687766063441,0.9927736545129474
2016-12-05,-1,-0.0014707758307856602,-0.0013434100587533149,-0.006833392442209081,0.008798887997287848,0.9921648973079767
2016-12-07,-1,-0.0011896810478822847,-0.001092471983967279,-0.0036868496200941833,0.008798887997287848,0.9926880583774286
2016-12-09,-1,-0.00034464498961139496,-0.0003345057808334587,-0.0036868496200941833,0.0042538405595457995,0.9937826887030946
2016-12-13,-1,-0.00030477875164869626,-0.00029472324009259776,-0.006833392442209081,0.003925036251848389,0.9935336057214573
2016-12-15,-1,-0.0004786634592874464,-0.0004702284468574426,-0.006833392442209081,0.003925036251848389,0.993772758238729
2016-12-19,-1,-0.0009187990552431139,-0.0008762752700682637,-0.0026865449959606073,0.003925036251848389,0.9942771763258105
2016-12-21,-1,-0.0007795830815552521,-0.0007596615196392905,-0.00327081299006886,0.002648798743918375,0.9943804699584509
2016-12-23,-1,-0.000756062228493108,-0.0007130754914196893,-0.005165964570249099,0.002648798743918375,0.9938098339573929
2016-12-28,-1,-0.0007357933854759574,-0.0007118011958030207,-0.00327081299006886,0.006099401128129104,0.993296447806344
2016-12-30,-1,-0.0007345991147567639,-0.0007046104699742912,-0.005165964570249099,0.010306600980454954,0.9896709911307237
2017-01-04,1,0.00011816846087542808,0.00020870609396351515,-0.006285446640955958,0.0038829254780681577,0.9905901559208573
2017-01-06,1,0.00041523329307948385,0.0005317893472185041,-0.006285446640955958,0.003780003810414951,0.9909806428322708
2017-01-10,1,0.00032510982453153736,0.00041751157480401447,-0.006285446640955958,0.004395394669782565,0.990690786673552
2017-01-12,1,3.219183579845978e-05,7.954518111712814e-05,-0.005165964570249099,0.005056908327321086,0.9908676461664645
2017-01-17,0,-3.5805640853512035e-05,7.850756232766594e-06,-0.00327081299006886,0.006605918638755982,0.990625894601069
2017-01-19,-1,-0.0003658301907380695,-0.00034231303264451926,-0.003860682775900548,0.006692726886376014,0.9902849234593143
2017-01-23,-1,-0.0004490159157776012,-0.00043655297966652736,-0.0004428556439197182,0.006692726886376014,0.9904009276873681
2017-01-25,-1,-0.0005356520948173232,-0.0005019653350461124,-0.0004428556439197182,0.006144090373597796,0.9910894984316501
2017-01-27,-1,-3.1005828992111385e-05,-8.868868065402719e-06,-0.0019730767253856754,0.005989898132134358,0.9921364474958677
2017-01-31,1,0.001075484733245377,0.00123702877973034,-0.0019730767253856754,0.005989898132134358,0.9954866819381641
2017-02-02,1,0.00017857369598868266,0.0002101724061756695,-0.0019730767253856754,0.006051433354186602,0.995252678511321
2017-02-06,1,0.0005411263337034008,0.0005817917438650791,-0.003227591534268249,0.006051433354186602,0.9947038397619951
2017-02-08,1,0.0010458796633224755,0.0011977040158939326,-0.003227591534268249,0.005968657819843963,0.9951552913068626
2017-02-10,1,0.0012083613560850777,0.00137868946806959,-0.003227591534268249,0.005968657819843963,0.9949573222616102
2017-02-14,1,0.0019357343340230307,0.002251186815699131,-0.0035677701544603144,0.005930187770606087,0.9944484815054994
2017-02-16,1,0.0019694023380959756,0.0023020537504806022,-0.0038539299025126196,0.0048439991269565216,0.9937302456404565
2017-02-21,1,0.0021414427967389868,0.002506212221147717,-0.004563035828543392,0.002456589506098813,0.9929806198666938
2017-02-23,1,0.0018941878304979676,0.0021926045373002645,-0.004563035828543392,0.0016256937198668026,0.99300323547586
2017-02-27,1,0.002176654665346841,0.0025498697940534894,-0.004563035828543392,0.0022259578043645444,0.9928001157569479
2017-03-01,1,0.0022572745736302597,0.002633057308730773,-0.004383717895132413,0.001589070041862238,0.9932217151471825
2017-03-03,1,0.0023325132962825875,0.002716081913902561,-0.004383717895132413,0.000624134462691388,0.9932695777055272
2017-03-07,1,0.0017739263930997167,0.0020571124361422758,-0.004383717895132413,0.001589070041862238,0.9938589361610201
2017-03-09,1,0.0016459850208696714,0.0018898708268960365,-0.004383717895132413,0.0005535412313175295,0.9938445185323024
2017-03-13,1,0.001704727606275846,0.001944534956198847,-0.004383717895132413,0.0010955373743008845,0.9943268422332829
2017-03-15,1,0.002031319695779941,0.0023252680798600393,-0.004295457546247466,0.0005041213156755016,0.99462537936146
2017-03-17,1,0.0014810748330429092,0.001691666534425955,-0.00402529623020114,0.0010955373743008845,0.9955904549590938
2017-03-21,1,0.0008677603739435853,0.0009623116180555075,-0.003043143838241908,0.0014879982826537467,0.9962267789082254
2017-03-23,1,0.0009823634125866968,0.0011044390119472956,-0.002710858764176334,0.0025580816091037963,0.9961983512048462
2017-03-27,1,0.0007524109731108434,0.0008221310204685879,-0.0022153199342654995,0.005965078686583355,0.995478778433769
2017-03-29,1,0.0005099047817598679,0.0005301578986448933,-0.0022153199342654995,0.006726158242913491,0.9924791232827945
2017-03-31,1,0.000468531747462627,0.0004908302839731491,-0.002710858764176334,0.00777370312643792,0.9918602495111671
2017-04-04,1,0.0008437389365216515,0.000981602831593894,-0.0022153199342654995,0.00777370312643792,0.9924551156087228
2017-04-06,1,0.001098963656914744,0.0012900819189219147,-0.0022153199342654995,0.008187610085269605,0.9918900833972483
2017-04-10,1,0.0004928952456254536,0.0005281395241461397,-0.002710858764176334,0.009504174438683757,0.9910443738148764
2017-04-12,1,0.0005116431083297356,0.000572260375211993,-0.0022442370721205765,0.009504174438683757,0.9910638405252035
2017-04-17,1,0.00028777742505540745,0.0003022776698194023,-0.0022442370721205765,0.008187610085269605,0.9912434645242569
2017-04-19,1,4.049641909859613e-05,0.00011100324772897471,-0.00252402045441802,0.008187610085269605,0.9913323850759471
2017-04-21,1,0.0002556159131398832,0.0002888445842648679,-0.0018962991814349256,0.008187610085269605,0.991476832960524
2017-04-25,1,0.0005250018341562031,0.0005602185106062321,-0.0021558459916017486,0.005743557475730209,0.9924270161669911
2017-04-27,1,0.0015568134762952296,0.0016298197471140985,-0.0013093332763250618,0.00475918577279986,0.9956467306606465
2017-05-01,1,0.0015389212644307871,0.001625267895492701,-0.0010409058255410211,0.004361666236113371,0.9962479760858148
2017-05-03,1,0.0017483828414263246,0.0018655598483377721,-0.0013093332763250618,0.004361666236113371,0.9959210140941123
2017-05-05,1,0.00241524329489089,0.00265476527842427,-0.0013093332763250618,0.003570884603064025,0.9961793840577293
2017-05-09,1,0.002458383047436535,0.0027034274910339856,-0.0013093332763250618,0.003311440213066531,0.9965952051625756
2017-05-11,1,0.0019287840740229289,0.0020721566350356984,-0.0013093332763250618,0.003311440213066531,0.9965236396467236
2017-05-15,1,0.0016991979985896326,0.0017780793704602956,-0.0017009106770711708,0.003311440213066531,0.9958213274669913
2017-05-17,1,0.001279964331341431,0.0012942269627360071,-0.0020676624053547216,0.003311440213066531,0.9959986117473155
2017-05-19,1,0.001349354585190358,0.0013813457396681984,-0.0020676624053547216,0.003540368818315157,0.9958174736613973
2017-05-23,1,0.0011111048032112533,0.0011241628741528106,-0.002202875029230948,0.003528732436761272,0.9957563320802086
2017-05-25,1,0.001153100104191868,0.001167964401707087,-0.0025541599297732314,0.0033037190826630037,0.9955028376875205
2017-05-30,1,0.0014575380122300995,0.0015209378421981007,-0.0028140686884037948,0.003082933647482651,0.995147721936445
2017-06-01,1,0.0017527012212274976,0.0018758336593809775,-0.003935578468475228,0.003082933647482651,0.9946409474970026
2017-06-05,1,0.001826811441853302,0.001956450365410789,-0.003935578468475228,0.002868735397064036,0.9948614358476771
2017-06-07,1,0.0015082260610740656,0.0015741248058601276,-0.00445490527483729,0.003549650738143534,0.99458070302689
2017-06-09,1,0.0010565099122563943,0.0010652798794608483,-0.0034638994662607586,0.00505061408541211,0.9945543945481905
2017-06-13,1,0.0008619187181801294,0.0009059931585938526,-0.002713067210574212,0.006001105057150315,0.9948610698535155
2017-06-15,1,0.0003366859830475501,0.0004663439225457478,-0.0015302371935686308,0.006001105057150315,0.994871709786686
2017-06-19,1,0.0004577857376038813,0.0005800469230599614,-0.0034638994662607586,0.005197578645035325,0.9949397264543183
2017-06-21,1,0.0004915359983798332,0.0005846024822736126,-0.0017033461290226518,0.006001105057150315,0.9946065921805882
2017-06-23,1,0.0009628244090968342,0.000987855666639936,-0.0008990283307664705,0.006001105057150315,0.9948608342952702
2017-06-27,1,0.0006999697918496322,0.0007243637840370951,-0.0017033461290226518,0.006001105057150315,0.9932740071577266
2017-06-29,1,0.00044420061060704616,0.00048072675106028293,-0.0008990283307664705,0.005197578645035325,0.9941607555187082
2017-07-03,1,0.000544228410877808,0.0005639192179215393,-0.0013326495772816123,0.005197578645035325,0.9941573691603918
2017-07-06,1,0.000776477038615398,0.0007953686133365107,-0.0013326495772816123,0.005197578645035325,0.9942843368561903
2017-07-10,1,0.0012618047291146613,0.0013665234020127789,-0.0013326495772816123,0.005197578645035325,0.9946602446942331
2017-07-12,1,0.0015255307575063838,0.0016589368098896792,-0.0040244293523638485,0.004110486371687261,0.9939152183251554
2017-07-14,1,0.001585065568975559,0.0017331497271209561,-0.0051380227574602914,0.004110486371687261,0.9933468153544915
2017-07-18,1,0.0011848862666617513,0.001279910981915694,-0.0040244293523638485,0.004499901700832269,0.9936032276110646
2017-07-20,1,0.0013678437876510892,0.0014776299277617737,-0.005339999645912375,0.004149904293628279,0.9928021269051643
2017-07-24,1,0.0015265523914973918,0.0016613396501012317,-0.005339999645912375,0.004845620951098599,0.992454921973076
2017-07-26,1,0.0004834202511576886,0.0004880932059921845,-0.0040244293523638485,0.005592171196956778,0.9934623193283777
2017-07-28,1,0.00040142606450545136,0.0004365170088052877,-0.0040244293523638485,0.00612864614430719,0.9933389491350536
2017-08-01,1,0.0002282119691103644,0.0002810049778696616,-0.0040244293523638485,0.007456606467636606,0.9926232934436767
2017-08-03,1,0.000421924414041291,0.0004468744925226591,-0.0030744447272561797,0.00921489052938026,0.9913649521712986
2017-08-07,1,0.0008495315264095075,0.0008825602670471448,-0.004532598830084784,0.00921489052938026,0.9914812547490857
2017-08-09,-1,-0.00046203312407538217,-0.0002965889056753321,-0.0020633041762670233,0.011052348514648874,0.9912280279481368
2017-08-11,-1,-0.0009695544377484788,-0.0007105192886042958,-0.00038204810118202235,0.011052348514648874,0.9910848205478013
2017-08-15,-1,-0.0011774002616587766,-0.000888729243650657,-0.00038204810118202235,0.011052348514648874,0.9905914808447912
2017-08-17,-1,-0.0015214847000118254,-0.0011912577529720279,-0.00038204810118202235,0.010521101834170255,0.9913664652253044
2017-08-21,-1,-0.0011616744669528944,-0.0008639110791511849,-0.0013017748079425602,0.010521101834170255,0.9911329670930568
2017-08-23,-1,-0.0011732882002459173,-0.0008640027788590942,-0.004088692461720992,0.007901437219175208,0.9918626209244191
2017-08-25,-1,-0.0012860708170173132,-0.0009397802885302336,-0.00524810904723758,0.007651639746604589,0.9919997809723431
2017-08-29,-1,-0.0005385661137026693,-0.00028889669027692467,-0.00524810904723758,0.006285441487979444,0.9927718563928983
2017-08-31,1,0.000444406790991697,0.0005843434154334356,-0.0054167784053824886,0.005650046632202092,0.9934469210988334
2017-09-05,0,-3.959482418012085e-05,0.00016902934025001838,-0.0054167784053824886,0.006285441487979444,0.992814655695692
2017-09-07,1,0.0007345728207783396,0.0008466500433890766,-0.0054167784053824886,0.005705655202347327,0.993195007131254
2017-09-11,1,0.0011424358967401249,0.0012067963046067936,-0.0054167784053824886,0.0028866966967106018,0.9936984758136608
2017-09-13,1,0.0003467307321919836,0.000508914023663009,-0.00524810904723758,0.00425821642132926,0.9942316026876687
2017-09-15,1,0.00046950007796989055,0.0005780603205203022,-0.005062942723705948,0.00425821642132926,0.9942053363644892
2017-09-19,1,0.0009470994171542715,0.0009609907258167462,-0.00524810904723758,0.002620764414466507,0.9939329822820935
2017-09-21,1,0.000755357517678047,0.0007651982901822147,-0.005062942723705948,0.00425821642132926,0.9936273105601938
2017-09-25,1,0.0007505222157156987,0.000753336359535275,-0.0036600105778627203,0.005041841945047599,0.9935640227426914
2017-09-27,1,0.001195338482392132,0.0012860859523988748,-0.0036600105778627203,0.00862614665345822,0.9924499035556094
2017-09-29,1,0.001242471788351269,0.0013440611485259699,-0.0036600105778627203,0.005037240337052698,0.9915786225311223
2017-10-03,1,0.0012117381704894637,0.001294556598332963,-0.002361087778757282,0.005037240337052698,0.9919260598398084
2017-10-05,1,0.001824604570176537,0.0019899063543686035,-0.0036600105778627203,0.003693497607479459,0.9919102093627897
2017-10-09,1,0.0014760835120006593,0.0015734542687861537,-0.0036600105778627203,0.005037240337052698,0.9914437878936814
2017-10-11,1,0.001527712187565034,0.001637794074897972,-0.0028130101086117063,0.00447405539253453,0.99157065223359
2017-10-13,1,0.0011443103651214404,0.00119927245843963,-0.006983897420338784,0.00447405539253453,0.9898470732229345
2017-10-17,1,0.0006280492902537258,0.0006285054637476798,-0.0017597756418845775,0.007890707400088837,0.9901146218939082
2017-10-19,1,0.0013086326747153488,0.0013979673955173213,-0.002312724642472839,0.007890707400088837,0.9904267707842216
