JNU-Tangyin/eata/results/Batch4_SP500/Batch4_SP500-SBUX.csv
Date,Action,Predicted_Q25,Predicted_Q75,Actual_Q25,Actual_Q75,RL_Reward
2010-12-14,0,0.0,0.00596170588700456,-0.007765542657383161,0.0038460046149690597,0.9915038142697307
2010-12-16,0,0.0,0.0,-0.005837411483374356,0.004736400535658117,0.9911053792945591
2010-12-20,0,0.0,0.0,-0.005837411483374356,0.004409038336973167,0.9911510177490823
2010-12-22,0,0.0,0.0,-0.005837411483374356,0.005492938820791041,0.991077499436363
2010-12-27,1,0.003267991153790075,0.0035497770049931665,-0.0033075713832599876,0.007075024691146119,0.9910004702334438
2010-12-29,1,0.0027221077301139143,0.002928216835507568,-0.00516168980483088,0.007075024691146119,0.9901363142850529
2010-12-31,1,0.002703057715734764,0.0029633504794393333,-0.007741266129339985,0.007075024691146119,0.9885002988045626
2011-01-04,0,0.0,0.0,-0.004577658779764028,0.007075024691146119,0.9904840153279242
2011-01-06,0,0.0,0.0,-0.0016277261609982995,0.007282657494831747,0.9906945278133419
2011-01-10,0,0.0,0.0,-0.002970646401130763,0.007282657494831747,0.9904541367907257
2011-01-12,0,0.0,0.0,-0.0021440324477282747,0.007282657494831747,0.9908636198621003
2011-01-14,1,0.002728084417289418,0.0027921196796279,-0.0021440324477282747,0.006823078885564831,0.9913961572444343
2011-01-19,1,0.0017256228118051925,0.001972541228845501,-0.00451956526132069,0.006823078885564831,0.9906737443952388
2011-01-21,1,0.001530303459579884,0.001810227787223919,-0.00451956526132069,0.007356231306629754,0.9900618543134005
2011-01-25,1,0.0004993616836815695,0.0008977331912973156,-0.00827271055098939,0.006823078885564831,0.9874997910957984
2011-01-27,0,0.0,0.0,-0.006492272441837973,0.008111002076227267,0.9873633871119042
2011-01-31,0,0.0,0.0,-0.004708690571857935,0.012507841830664095,0.9879975890076906
2011-02-02,0,0.0,0.0,-0.005701269892422214,0.012507841830664095,0.9877350001512472
2011-02-04,0,0.0,0.0,-0.005701269892422214,0.014561859372956395,0.9874395931499802
2011-02-08,-1,-0.00036400323473974533,-0.0001796529421184066,-0.00425589774484877,0.014561859372956395,0.9875961423448943
2011-02-10,0,0.0,0.0,-0.006914332069961896,0.014808255796728124,0.9814173770648326
2011-02-14,-1,-0.0009460360648932075,-0.00047544769729096644,-0.013406331551162328,0.014808255796728124,0.9810378494639113
2011-02-16,-1,-0.001033224062946993,-0.0005617658574155126,-0.018456428315715468,0.014808255796728124,0.9810666985194849
2011-02-18,-1,-0.0006573507210650472,-0.00021933294615283493,-0.018456428315715468,0.014561859372956395,0.981278153034225
2011-02-23,-1,-0.0029991127674128225,-0.0023919382163026894,-0.006485215037450268,0.014972844740071291,0.9807685220491928
2011-02-25,0,0.0,0.0,-0.012118980453627443,0.014972844740071291,0.9800925171512299
2011-03-01,0,0.0,0.0,-0.006485215037450268,0.014765487428832977,0.9816113620967764
2011-03-03,0,0.0,0.0,-0.005397461158566379,0.012774967791219068,0.9825616572816088
2011-03-07,0,0.0,0.0,-0.011136507673316892,0.01055922477586288,0.9823563672696063
2011-03-09,1,0.0006131962703786076,0.0007858007756981597,-0.011136507673316892,0.006727467667906585,0.9831281853141043
2011-03-11,-1,-0.0009252164394757277,-0.0005648889625287012,-0.011012866521354627,0.0034944756691067027,0.9894005825340333
2011-03-15,-1,-0.0016582004275209324,-0.0012103733196431779,-0.00928717783062094,0.006670080807950581,0.9897740031634035
2011-03-17,-1,-0.0016272882042192853,-0.0012571694797053321,-0.008116922681387697,0.006670080807950581,0.9904308323572462
2011-03-21,-1,-0.0013630385176555686,-0.0010250702981608652,-0.00928717783062094,0.006670080807950581,0.9897843787091968
2011-03-23,-1,-0.00026917329401872846,-2.9867523237221173e-05,-0.008116922681387697,0.0079468984422212,0.9912049679794602
2011-03-25,-1,-0.0002225241493931852,-2.1840272574697155e-05,-0.0048055425259461906,0.006670080807950581,0.9929470052861195
2011-03-29,0,-1.4385312769913164e-05,0.00014915415976349234,-0.007449218214914351,0.0079468984422212,0.9918157829880818
2011-03-31,1,0.0010588447244446611,0.0011021930577477007,-0.008497738419081302,0.0079468984422212,0.9908260532763911
2011-04-04,0,-4.750517858782019e-05,9.29295825975923e-05,-0.008497738419081302,0.008360574490237471,0.9909039407944803
2011-04-06,1,0.00012386517477189966,0.0002053837722785187,-0.00795469300231237,0.008360574490237471,0.9908718875228844
2011-04-08,-1,-0.0006022027724391162,-0.00043603514925388023,-0.00795469300231237,0.008360574490237471,0.9911113226431176
2011-04-12,-1,-0.0010839404769539263,-0.0008145661615670956,-0.00884160609803636,0.008021962775406979,0.9911477921644817
2011-04-14,-1,-0.00041446845210561307,-0.0002634662700545593,-0.00884160609803636,0.010179918139682081,0.9901465773203316
2011-04-18,-1,-0.0009944608502349904,-0.0007468999219056548,-0.00884160609803636,0.008021962775406979,0.9899855750830658
2011-04-20,1,0.0005172789768784296,0.0005524260991553792,-0.00884160609803636,0.008893435867724852,0.9888176539717755
2011-04-25,0,-8.998328169842481e-05,5.396696907727537e-05,-0.01057583562685678,0.008893435867724852,0.9882678555667751
2011-04-27,1,0.001441788712951541,0.0016087978786305628,-0.01057583562685678,0.004845842440338578,0.9886194893216483
2011-04-29,1,0.00029448224801754356,0.00030459242715771503,-0.008762798221657927,0.0077933593492702435,0.9897633612649469
2011-05-03,1,0.00035379092946695624,0.00035740876991449384,-0.008978735676387193,0.0077933593492702435,0.9893953163518754
2011-05-05,1,0.00045495279877366576,0.0004735263181538026,-0.011453884435653972,0.005201172493784283,0.9886985072354069
2011-05-09,-1,-0.0003350114487003268,-0.0002305172526259639,-0.009208972120996584,0.008907278446942116,0.9883109821978131
2011-05-11,-1,-0.0004350506488148706,-0.00034159177774753275,-0.006464495609177159,0.008907278446942116,0.9885394395502629
2011-05-13,1,0.00020615846081587877,0.00020702612142143415,-0.007583007461043871,0.006201937638720331,0.9888473295316736
2011-05-17,-1,-0.000530443568163555,-0.00044393079084568705,-0.007583007461043871,0.008907278446942116,0.9894726492603604
2011-05-19,1,0.0008678566607438598,0.0009231918817248292,-0.007583007461043871,0.008158384489711457,0.9908673048915608
2011-05-23,1,0.00011713938943418503,0.00015578552417769222,-0.005972928524222564,0.008907278446942116,0.990226734853952
2011-05-25,-1,-0.0005555043877864194,-0.000413421031849995,-0.005972928524222564,0.010702417475670831,0.9892886027068533
2011-05-27,0,-7.458261468655617e-05,2.4843939995877284e-06,-0.007216019804663682,0.011271163214142121,0.9884786358449192
2011-06-01,-1,-0.0010985903878917395,-0.0008724497946046456,-0.005972928524222564,0.012796655983018367,0.9880356016024064
2011-06-03,-1,-0.0012657571033103786,-0.0010717389571790648,-0.00543497896011636,0.015354603837256366,0.9879184933012688
2011-06-07,-1,-0.0009148046112236426,-0.0007236123705784237,-0.005972928524222564,0.015514409746558246,0.9876506548274404
2011-06-09,-1,-0.0009539190416110758,-0.0007921670863118273,-0.003421529649789182,0.015514409746558246,0.9879177860005015
2011-06-13,-1,-0.0015277221895078253,-0.0013160916689578732,-0.002924952709900258,0.015514409746558246,0.9876474314951293
2011-06-15,-1,-0.0014593416929013247,-0.0012618282093495208,-0.002924952709900258,0.015514409746558246,0.9881827484316942
2011-06-17,-1,-0.00037158099982814556,-0.00033252782085175484,-0.005720940089330021,0.017125597404565727,0.9880263760469307
2011-06-21,1,0.000550717255195185,0.0005856345797727524,-0.010055542836605008,0.017125597404565727,0.9882394392677559
2011-06-23,1,0.0006171411763467028,0.0006580654976169822,-0.010055542836605008,0.017125597404565727,0.9887975899193413
2011-06-27,1,0.0012038411161141597,0.0012744904882734187,-0.006596729408387457,0.014637091649710247,0.9897672195930326
2011-06-29,1,0.0024886908247230767,0.0027496386874410524,-0.01037999476167545,0.014637091649710247,0.9883175678593505
2011-07-01,1,0.003488612764675582,0.003916841846046441,-0.01037999476167545,0.005515710021752913,0.9881574680245181
2011-07-06,1,0.003492548763296939,0.003918330980839324,-0.01037999476167545,0.005515710021752913,0.9874039282320947
2011-07-08,0,0.0,0.0,-0.011565229139878931,0.005515710021752913,0.9855291008469144
2011-07-12,0,0.0,0.0,-0.011565229139878931,0.014637091649710247,0.9801313599090467
2011-07-14,0,0.0,0.0,-0.016589409554837724,0.017180016320880037,0.9757559473451326
2011-07-18,1,0.00033495315232697105,0.0004392401966790562,-0.016589409554837724,0.018852278848085175,0.9754304884913226
2011-07-20,1,0.00038746575040144593,0.0004902428437278524,-0.012900176086444963,0.014694742760862188,0.9763051091972039
2011-07-22,0,0.0,0.0,-0.02995321311782899,0.01351317558191161,0.9717227990740046
2011-07-26,0,0.0,0.0,-0.02995321311782899,0.01949405935453074,0.9692722925916936
2011-07-28,1,0.0021556419561188853,0.00232430875450058,-0.026540977544537575,0.017370835310617873,0.9699756019590495
2011-08-01,1,0.002398904825381442,0.0026639435170032573,-0.026540977544537575,0.019897269216667627,0.9686484189981549
2011-08-03,1,0.0020600891773786623,0.0022876321250831504,-0.010842530671560024,0.019897269216667627,0.9703157457307598
2011-08-05,-1,-0.0008470681937106048,-0.0006705574267450732,-0.012932933292014313,0.019897269216667627,0.971435495595359
2011-08-09,-1,-0.0013765971492131109,-0.001095519332952241,-0.0072706940209676255,0.019897269216667627,0.975361355029924
2011-08-11,0,0.0,0.0,-0.007760603851601943,0.01748126789899286,0.9782162405346582
2011-08-15,1,0.00039539957196544555,0.00040478030596236356,-0.007760603851601943,0.015113021993074616,0.9788553460809448
2011-08-17,0,0.0,0.0,-0.007760603851601943,0.015113021993074616,0.9784965552722817
2011-08-19,-1,-0.0011942695447641366,-0.0010297228475267934,-0.006146183436473743,0.01748126789899286,0.9808625580375661
2011-08-23,1,0.0006725777689719275,0.0007368846737312511,-0.007760603851601943,0.015113021993074616,0.9828068192905445
2011-08-25,1,0.00031741380260479394,0.0003200867095579516,-0.007760603851601943,0.013702378598039949,0.9830492657056464
2011-08-29,1,0.0016710332805611335,0.0018289605958342657,-0.007760603851601943,0.012242170106393228,0.9842632938134979
2011-08-31,1,0.001725879518038729,0.001850419054123101,-0.012932933292014313,0.010442172705201574,0.9825858137161178
2011-09-02,0,0.0,0.0,-0.024472124710798456,0.010442172705201574,0.9812506546232918
2011-09-07,1,0.00342144103174339,0.003737672569653772,-0.024472124710798456,0.013702378598039949,0.981361636091759
2011-09-09,1,0.0012036610407538746,0.0012087242554291455,-0.013668279298355067,0.015691967959138527,0.98212067650553
2011-09-13,0,0.0,0.0,-0.013668279298355067,0.019842637000852995,0.9803811811009059
2011-09-15,0,0.0,0.0,-0.013668279298355067,0.019842637000852995,0.9807870709736688
2011-09-19,0,0.0,0.0,-0.023567667234016515,0.019842637000852995,0.9808217076144378
2011-09-21,0,0.0,0.0,-0.023567667234016515,0.020481547075569522,0.9790588426999922
2011-09-23,0,0.0,0.0,-0.013668279298355067,0.022816311011279046,0.9793644441006242
2011-09-27,0,0.0,0.0,-0.023567667234016515,0.022816311011279046,0.9788350575900365
2011-09-29,0,0.0,0.0,-0.013352171155262774,0.0270019900446577,0.9787991167215305
2011-10-03,0,0.0,0.0,-0.005000077500086671,0.0270019900446577,0.9805149494914253
2011-10-05,1,0.0003358205906880297,0.00041424108180331367,-0.010897065807496314,0.02151410592993005,0.9817126807153955
2011-10-07,1,0.0008230306487332557,0.0008896914229163158,-0.010897065807496314,0.0270019900446577,0.9798196398576875
2011-10-11,1,0.003326037594518434,0.003677396288245976,-0.010897065807496314,0.014727489105605732,0.9822655190734453
2011-10-13,1,0.002504976137858483,0.0027079527905246384,-0.016202351190717137,0.0166623725421475,0.9808356219383254
2011-10-17,1,0.0021907564426575385,0.0023299672548980216,-0.0138724763102923,0.014663904858558778,0.9816688296446755
2011-10-19,1,0.0019211557840557564,0.00203628700413707,-0.0138724763102923,0.011336354856801066,0.9833704666048049
2011-10-21,1,0.0025382458231607654,0.002696869506763091,-0.01757505457908468,0.009375404484816493,0.9832293294339562
2011-10-25,1,0.0012600504898101106,0.0013146526767789297,-0.0138724763102923,0.010020365630330414,0.9841679758455549
2011-10-27,1,0.0028927589707518587,0.003079654280433098,-0.01757505457908468,0.006241006972160583,0.9839061105199138
2011-10-31,1,0.0018406052920539478,0.0018667933377908338,-0.01757505457908468,0.010020365630330414,0.9837183302616237
2011-11-02,0,0.0,0.0,-0.011401321889345848,0.013552267909834298,0.9835681334456593
2011-11-04,0,0.0,0.0,-0.011401321889345848,0.010020365630330414,0.9864199770383256
2011-11-08,0,0.0,0.0,-0.011921912906926575,0.010020365630330414,0.985923047206373
2011-11-10,0,0.0,0.0,-0.011921912906926575,0.010301395246821882,0.985735793318491
2011-11-14,0,0.0,0.0,-0.010112920579487136,0.008685809428987936,0.986944845982958
2011-11-16,0,0.0,0.0,-0.010112920579487136,0.007656386054412721,0.9875665636378564
2011-11-18,0,0.0,0.0,-0.009132564429080847,0.007656386054412721,0.9884542556480963
2011-11-22,0,0.0,0.0,-0.009132564429080847,0.007656386054412721,0.9877454138328448
2011-11-25,0,0.0,0.0,-0.0006438149585698747,0.008951628315208885,0.9886729316368706
2011-11-29,1,0.0016638198857089775,0.001884414262673593,-0.003938369502786436,0.008005848934079783,0.9903201050288715
2011-12-01,0,0.0,0.0,-0.006194713142273073,0.008005848934079783,0.9900226436536828
2011-12-05,0,0.0,0.0,-0.009015867752641618,0.010195270446924056,0.9889880349860711
2011-12-07,-1,-0.3056168951753768,-0.30529278035445206,-0.006194713142273073,0.010195270446924056,0.7641251962024775
2011-12-09,1,0.0027638697173417363,0.003028282500772174,-0.003938369502786436,0.008324000230980936,0.9918045432878907
2011-12-13,1,0.0025801948775582744,0.00284094536747239,-0.0029576178868446676,0.010046699648578544,0.9918819133999334
2011-12-15,1,0.002216724531336184,0.0024163730049934556,-0.0029576178868446676,0.010046699648578544,0.9920657560742557
2011-12-19,1,0.0021587624153787976,0.0023320062139116937,-0.0029576178868446676,0.010046699648578544,0.9917392838374081
2011-12-21,1,0.00312321442429776,0.003409462514380239,-0.00387259335208579,0.008324000230980936,0.9925895887106864
2011-12-23,1,0.0028517892724315586,0.003063966003163689,-0.0029576178868446676,0.007483959789027423,0.9930768392644133
2011-12-28,0,0.0,0.0,-0.0033474107993354697,0.007483959789027423,0.9917775983105733
2011-12-30,1,0.0021899021748763695,0.0022735400125474658,-0.0033474107993354697,0.007483959789027423,0.9924460266387852
2012-01-04,1,0.0028088750716402646,0.002865886849494212,-0.0033474107993354697,0.007035163180718117,0.9933779931012648
2012-01-06,1,0.0038152793902661926,0.00408527224487528,-0.0033474107993354697,0.007035163180718117,0.9930812932870753
2012-01-10,1,0.0037923065765042337,0.004067279046282169,-0.0017261197735227083,0.007035163180718117,0.993271320436272
2012-01-12,1,0.0008614763626471274,0.0011412094906185061,-0.005712378773584277,0.007035163180718117,0.992656813888043
2012-01-17,1,0.0017411319666104717,0.0018363292582283493,-0.003910611403601941,0.007389588567269149,0.9927686372481354
2012-01-19,1,0.001406288711694565,0.0015469819007354652,-0.008326841014778954,0.007210370348337713,0.9923465645660405
2012-01-23,0,0.0,0.0,-0.004872113923355138,0.007210370348337713,0.9927453386594747
2012-01-25,1,0.0020880558864506803,0.0021425531652152436,-0.004872113923355138,0.007210370348337713,0.9930319691638692
2012-01-27,1,0.0012104965022990905,0.001325464676666058,-0.003456671512115755,0.006472215455303561,0.9938581058758589
2012-01-31,1,0.0018109520942058146,0.001832199603847366,-0.003456671512115755,0.006472215455303561,0.9938892035517612
2012-02-02,1,0.00032140605384279155,0.0005516954773873987,-0.0028051339548982833,0.004372425575575993,0.9947646905173897
2012-02-06,1,0.0010893951442515627,0.0011909218638253088,-0.003456671512115755,0.0032405226908096695,0.9945850573962641
2012-02-08,1,0.0016935094567085975,0.0016961997690010978,-0.003456671512115755,0.00497347755916548,0.9928853760523998
2012-02-10,0,0.0,0.0,-0.003456671512115755,0.00497347755916548,0.9915622142268073
2012-02-14,0,0.0,0.0,-0.003456671512115755,0.008396771726495614,0.9906234522581868
2012-02-16,0,0.0,0.0,-0.0019123740578661718,0.0090771618028787,0.9908105895887652
2012-02-21,0,0.0,0.0,0.0007255947508355493,0.0090771618028787,0.9905953084285196
2012-02-23,0,0.0,0.0,0.0007544028859379833,0.01501966464328327,0.9894502027556557
2012-02-27,0,0.0,0.0,0.0026124506959569038,0.01501966464328327,0.9890635335242255
2012-02-29,0,0.0,0.0,0.0026124506959569038,0.012033423166464453,0.989597303210485
2012-03-02,0,0.0,0.0,0.0022740611698402018,0.012033423166464453,0.9895267503342986
2012-03-06,1,0.0019306178249951637,0.002080478735203605,0.0026124506959569038,0.014912300929523633,0.9908704742277167
2012-03-08,0,0.0,0.0,0.0022740611698402018,0.011077085518653452,0.9904500268145866
2012-03-12,1,0.0012476584250446909,0.0013087337183801673,0.0013363618553208388,0.008081747977272426,0.9921243750455933
2012-03-14,1,0.0027362118069329837,0.0029853412487481717,0.0013363618553208388,0.011077085518653452,0.9910318703996032
2012-03-16,1,0.003348680921622363,0.0037171533344859168,-0.0003631134144823113,0.014755266550466847,0.9889364738066745
2012-03-20,1,0.00341786140293874,0.0037657961095503775,-0.004404680816388262,0.018219522542794676,0.9868745818346366
2012-03-22,1,0.004549365213373128,0.005079494562817586,-0.006802178723438765,0.014755266550466847,0.9865866616466972
2012-03-26,1,0.0043015033391107654,0.00475668389317919,-0.01039295452408726,0.014755266550466847,0.9855811614787047
2012-03-28,1,0.0038050869490793403,0.004128387019857677,-0.01039295452408726,0.019976487091366492,0.9843356717144511
2012-03-30,1,0.0038310015316703337,0.004218704019654315,-0.011625185145934868,0.019976487091366492,0.9818647970760513
2012-04-03,1,0.004262829379504273,0.004706129791749616,-0.011625185145934868,0.019976487091366492,0.9823090526723397
2012-04-05,1,0.004627771044119333,0.005077983942868573,-0.01725787069926659,0.01773883120625343,0.9808090607143574
2012-04-10,1,0.003606512614215119,0.003910036131212445,-0.019912401126393413,0.01773883120625343,0.9808575217631987
2012-04-12,1,0.004914646134362167,0.005352707200054151,-0.019912401126393413,0.007929311211755673,0.9826680378551116
2012-04-16,1,0.0037009052649045544,0.003934333218211627,-0.019912401126393413,0.005279027781056162,0.983918391782816
2012-04-18,1,0.0038434330342369694,0.004094391710355748,-0.019912401126393413,0.004645602736740311,0.9850841748741043
2012-04-20,1,0.0023856364679565017,0.0024102468189312843,-0.019912401126393413,0.0033150735213216737,0.9854582458449009
2012-04-24,1,0.0020541090390396493,0.002082309988190602,-0.019912401126393413,0.004645602736740311,0.984363114285849
2012-04-26,0,0.0,0.0,-0.019912401126393413,0.0033150735213216737,0.9848988698952974
2012-04-30,0,0.0,0.0,-0.011999639082758777,0.004645602736740311,0.986450690055907
2012-05-02,1,0.0013377732328827712,0.0013787374608212827,-0.01628022257736757,0.002918642739702033,0.985519524833395
2012-05-04,1,0.0015944880704862401,0.0017063756128141419,-0.01101272814294913,0.005658383856653922,0.983550166227898
2012-05-08,1,8.103063432407217e-05,0.0004087123136666099,-0.01101272814294913,0.015071168138460628,0.9829693718154918
2012-05-10,1,0.00011077076845989538,0.00045566577455336194,-0.01101272814294913,0.006866335337931741,0.9835579919412203
2012-05-14,-1,-0.0009643900771738442,-0.0004947814533982633,-0.010734829974972432,0.007655003192339846,0.9842473683196903
2012-05-16,0,0.0,0.0,-0.014459617133627835,0.019077560470288264,0.9818616658514896
2012-05-18,0,0.0,0.0,-0.010734829974972432,0.0203376018988638,0.9815216826346748
2012-05-22,0,0.0,0.0,-0.010734829974972432,0.019077560470288264,0.9825571213243605
2012-05-24,0,0.0,0.0,-0.014459617133627835,0.017685918178994366,0.9828855787270424
2012-05-29,0,0.0,0.0,-0.017646770373488444,0.013626182351728317,0.9821738666984448
2012-05-31,0,0.0,0.0,-0.02285891008326513,0.013626182351728317,0.9813768357010104
2012-06-04,-1,-0.0005050220239243101,-0.00024345077621563385,-0.01619699703688673,0.013626182351728317,0.9838824368211981
2012-06-06,-1,-0.0005634300221455498,-0.0003127457585972894,-0.01466168358906565,0.011002678365227945,0.9849809093909337
2012-06-08,-1,-0.0006178555725665305,-0.00035723021490943426,-0.01466168358906565,0.011002678365227945,0.9843548115237469
2012-06-12,-1,-0.0009571511358452474,-0.0006601156614088798,-0.013409278451255393,0.011002678365227945,0.9850892973420239
2012-06-14,-1,-0.0018587843906743265,-0.0014300144565379937,-0.01058293298156755,0.011002678365227945,0.9862045843991398
2012-06-18,-1,-0.0006832643460164669,-0.000396585058026282,-0.012694829229075428,0.011002678365227945,0.9866739538385986
2012-06-20,1,1.679640643566802e-05,0.0002163398354332771,-0.012694829229075428,0.011002678365227945,0.9867091769792533
2012-06-22,-1,-0.0009477815823115856,-0.0006371701076352566,-0.013958229792769295,0.010573265415874545,0.9855285958342889
2012-06-26,-1,-0.0016061545176397464,-0.0012092553390972956,-0.012694829229075428,0.009134655081878697,0.9874055238547398
2012-06-28,-1,-0.0012715467091908579,-0.0009309276028106677,-0.010765916762072184,0.01139948625547911,0.9824245459994634
2012-07-02,-1,-0.0014048139618486498,-0.001092355811165787,-0.013958229792769295,0.009134655081878697,0.9819129898092992
2012-07-05,0,0.0,0.0,-0.017164768305716914,0.00855349607019996,0.9803539537009113
2012-07-09,0,0.0,0.0,-0.017164768305716914,0.01139948625547911,0.979831286742611
2012-07-11,0,0.0,0.0,-0.017164768305716914,0.015988852944587358,0.9780040237574255
2012-07-13,0,0.0,0.0,-0.017164768305716914,0.01157044208632426,0.9786477563233867
2012-07-17,0,0.0,0.0,-0.017164768305716914,0.010610436655044932,0.9791337634706497
2012-07-19,0,0.0,0.0,-0.017164768305716914,0.010610436655044932,0.9783043933843544
2012-07-23,-1,-0.002021639548397969,-0.0017093025713075883,-0.01045180001335757,0.010610436655044932,0.9815308736576119
2012-07-25,0,0.0,0.0,-0.01045180001335757,0.010610436655044932,0.9813073170193697
2012-07-27,0,0.0,0.0,-0.005877078551318925,0.010610436655044932,0.9867436856544108
2012-07-31,0,0.0,0.0,-0.0037828593243450738,0.010610436655044932,0.9883551324615317
2012-08-02,0,0.0,0.0,-0.0035739154651405944,0.011199224339882574,0.9899429661923774
2012-08-06,0,0.0,0.0,-0.0023932138450014065,0.010393537628088572,0.991078237135542
2012-08-08,0,0.0,0.0,-0.0023932138450014065,0.010393537628088572,0.991854260674779
2012-08-10,-1,-0.0014860452840327345,-0.0011791251201763737,-0.0023932138450014065,0.009521740770981838,0.991656599198025
2012-08-14,-1,-0.0006224104387999628,-0.0005071343248280195,-0.0023932138450014065,0.00876372618147844,0.9922524177381592
2012-08-16,0,0.0,0.0,-0.0035739154651405944,0.00876372618147844,0.9926557024651297
2012-08-20,0,0.0,0.0,-0.004029952500877436,0.00876372618147844,0.9918254535379342
2012-08-22,1,0.0005721814790472183,0.0006139917521983391,-0.004029952500877436,0.010806990426907243,0.9900610384235365
2012-08-24,1,0.0013692176843716776,0.0015470931353362021,-0.0027204703072466778,0.009463295808975515,0.9910576950278139
2012-08-28,0,0.0,0.0,-0.00704736988618837,0.009192142733453573,0.9904646968590768
2012-08-30,0,0.0,0.0,-0.00704736988618837,0.009192142733453573,0.9899550037339464
2012-09-04,0,0.0,0.0,-0.009143136505099365,0.009192142733453573,0.9887821003670011
2012-09-06,0,0.0,0.0,-0.009143136505099365,0.007036520182832481,0.9895162315170015
2012-09-10,0,0.0,0.0,-0.009143136505099365,0.005058839172983379,0.9897803364285965
2012-09-12,1,0.0027455035225971793,0.0031437150659212806,-0.01136093634426568,0.0022852187805775326,0.9874014994263545
2012-09-14,0,0.0,0.0,-0.009143136505099365,0.0022852187805775326,0.9899512938837562
2012-09-18,0,0.0,0.0,-0.008463211806381788,0.00595104574107765,0.9892982335948313
2012-09-20,0,0.0,0.0,-0.011192891814128409,0.0022852187805775326,0.9896467885272635
2012-09-24,1,0.002860834378785912,0.0032843191845128876,-0.011810195377419262,0.0012815746778268786,0.9864047410177341
2012-09-26,1,0.0015679045691537941,0.0017536984030049269,-0.011192891814128409,0.004008709686676995,0.9875166461061327
2012-09-28,1,0.0016352733545461698,0.0017931096261165993,-0.011192891814128409,0.004008709686676995,0.9872467805668242
2012-10-02,1,0.0008891520428811453,0.0009636200900189546,-0.008469704088340281,0.00496678764901501,0.9882435499734825
2012-10-04,1,0.0005048054747485713,0.0005119029791597191,-0.008469704088340281,0.007432937054885917,0.9843749893861797
2012-10-08,1,8.120270374528164e-05,0.00014430361777258892,-0.008469704088340281,0.01121998721312964,0.9840092394949655
2012-10-10,-1,-0.001630349006287482,-0.0013226182703463124,-0.008296122366351594,0.01121998721312964,0.9844966486403599
2012-10-12,-1,-0.000710238380849169,-0.0005686294905835278,-0.008296122366351594,0.01121998721312964,0.984409898342939
2012-10-16,1,0.0006374671142630183,0.000682843020213833,-0.009312366362026042,0.004120010541774234,0.9843499354832619
2012-10-18,-1,-1.9857538357204265e-05,-1.2783917967098883e-05,-0.008260868294022491,0.008541141681136144,0.9846357036540162
2012-10-22,-1,-0.0011330850336892775,-0.000976776247193982,-0.007288715714129433,0.010172567516723973,0.9858257117284818
2012-10-24,-1,-0.0010158724563056826,-0.0008839880895753579,-0.006220550969354359,0.013527719074739835,0.9855733985869334
2012-10-26,-1,-0.0009471676905358343,-0.0007617244601472832,-0.006220550969354359,0.013527719074739835,0.9853165768407182
2012-11-01,0,0.0,0.0,-0.006220550969354359,0.010107535588538236,0.9858007160079514
2012-11-05,0,0.0,0.0,-0.007574205725882907,0.008525275778768123,0.9896731356162568
2012-11-07,0,0.0,0.0,-0.007574205725882907,0.008525275778768123,0.9873234674605955
2012-11-09,0,0.0,0.0,-0.007574205725882907,0.008525275778768123,0.9876407687790519
2012-11-13,0,0.0,0.0,-0.006940209105270084,0.008525275778768123,0.9876770594852388
2012-11-15,0,0.0,0.0,-0.006009218762483418,0.008525275778768123,0.9889660708168722
2012-11-19,0,0.0,0.0,-0.006009218762483418,0.008525275778768123,0.9889490330027564
2012-11-21,0,0.0,0.0,-0.006009218762483418,0.007873822485178301,0.9895865657369493
2012-11-26,0,0.0,0.0,-0.006800467033478004,0.005184222090294245,0.9898996204490919
2012-11-28,0,0.0,0.0,-0.006800467033478004,0.003624275549183328,0.9910751578197747
2012-11-30,-1,-0.3271030492053466,-0.32624296665088415,-0.008484390846066274,0.003624275549183328,0.7527484010471085
2012-12-04,0,0.0,0.0,-0.006800467033478004,0.006972493270328287,0.9892051750620201
2012-12-06,0,0.0,0.0,-0.005256881015781208,0.006016286430376811,0.9920231204006138
2012-12-10,0,0.0,0.0,-0.005256881015781208,0.006016286430376811,0.9917378309287294
2012-12-12,0,0.0,0.0,-0.005256881015781208,0.006016286430376811,0.9918256777860468
2012-12-14,0,0.0,0.0,-0.004843108621901316,0.006016286430376811,0.9919026328264366
2012-12-18,0,0.0,0.0,-0.004151703974163102,0.0035147626855881004,0.9929917278584689
2012-12-20,0,0.0,0.0,-0.004151703974163102,0.005710898312247733,0.9926675085133637
2012-12-24,0,0.0,0.0,-0.004151703974163102,0.005710898312247733,0.9927302645038583
2012-12-27,-1,-0.002777403806525231,-0.0021880333599713286,-0.004151703974163102,0.006016286430376811,0.9904958578274112
2012-12-31,-1,-0.0023678463406734537,-0.0018326213313711493,-0.004151703974163102,0.006016286430376811,0.9913692353357983
2013-01-03,0,0.0,0.0,-0.004151703974163102,0.005710898312247733,0.9922316117292346
2013-01-07,1,0.00010337947531019801,0.00025144077508956324,-0.006509862469487605,0.0038850829495167384,0.9918563250902953
2013-01-09,-1,-0.0003930294077206263,-0.0002272749751016177,-0.004151703974163102,0.0038850829495167384,0.9925317266476311
2013-01-11,1,0.0008727007942677449,0.000946947353119824,-0.004605306684336732,0.0038850829495167384,0.9923392507532772
2013-01-15,0,0.0,0.0,-0.004934471772221247,0.0038850829495167384,0.9922946446373082
2013-01-17,0,0.0,0.0,-0.0075337741801752576,0.0038850829495167384,0.9912298423449643
2013-01-22,0,0.0,0.0,-0.008141808365711798,0.00213883028492449,0.9905430953285621
2013-01-24,0,0.0,0.0,-0.0075337741801752576,0.0034056966134332124,0.9903242208446539
2013-01-28,1,0.0018552310713244105,0.0021086543190026947,-0.0075337741801752576,0.00213883028492449,0.9920141972056555
2013-01-30,1,0.001778181581495253,0.0020107348848766122,-0.00567220919588761,0.0028898790599204173,0.9915040742219972
2013-02-01,1,0.002814041978475754,0.0032447128202658555,-0.00567220919588761,0.0028858712754740922,0.9908794475961951
2013-02-05,1,0.002283827685437878,0.002644574302493462,-0.004313950110792031,0.009457611468638551,0.9909856071364811
2013-02-07,1,0.0021864964069518056,0.0025522773952653937,-0.004313950110792031,0.0114660113091395,0.990451224508321
2013-02-11,1,0.0020996582072921174,0.002415662948937216,-0.005169070734174742,0.0114660113091395,0.9905319980884689
2013-02-13,1,0.0013896987535778073,0.0015574601225972011,-0.005169070734174742,0.0114660113091395,0.9899539128921815
2013-02-15,1,0.0012736706722875424,0.0015259287329227199,-0.002174588108050499,0.0114660113091395,0.9906737480540792
2013-02-20,1,0.0005491692874740149,0.0006978429916085781,-0.0012060997671931696,0.011553869158705914,0.9910594095186278
2013-02-22,1,0.0008022148590878021,0.0009332487297518657,-0.002725004651854124,0.010469918937152347,0.9911981069029175
2013-02-26,1,0.0004380839945816822,0.000561177523134294,-0.002725004651854124,0.010469918937152347,0.9911903985867522
2013-02-28,1,0.0009896578157979144,0.0011186058351722748,-0.0032481002168627195,0.008017859992901204,0.9923975950216066
2013-03-04,1,0.0015073152043444094,0.001692520679051094,-0.0032481002168627195,0.008017859992901204,0.9918272142808721
2013-03-06,1,0.0021170983765318326,0.002362566900810722,-0.005877044603442558,0.00653918206713806,0.9919775503557187
2013-03-08,1,0.002268568926668898,0.0024472920270303725,-0.005877044603442558,0.00559835318546251,0.9924955400807762
2013-03-12,1,0.0018982677241934076,0.0020302691303519397,-0.007365587576370652,0.005925908180930508,0.99217826990784
2013-03-14,1,0.002230685489307133,0.002492258565688714,-0.005655242554578905,0.00687135236135353,0.9923346225044101
2013-03-18,1,0.00103099156395164,0.0010745621969360658,-0.005655242554578905,0.00750579089758426,0.9912221338512003
2013-03-20,1,0.0002964321436147601,0.00042982735452748254,-0.006928891507525377,0.00687135236135353,0.9910972843671344
2013-03-22,1,3.106024959939331e-05,0.00020143139419492406,-0.006928891507525377,0.00750579089758426,0.990955582664584
2013-03-26,0,0.0,0.0,-0.005666022864058626,0.00947476477481683,0.990767514500525
2013-03-28,0,0.0,0.0,-0.006928891507525377,0.01134402758484168,0.9899678469175323
2013-04-02,1,0.001061645665660021,0.0011635746920155305,-0.006928891507525377,0.010049614014877955,0.9909262689642784
2013-04-04,1,0.0012714646177208752,0.0014359570840173155,-0.006928891507525377,0.010049614014877955,0.9910867105577413
2013-04-08,1,0.0008231886366193131,0.0008860994410655082,-0.006928891507525377,0.01134402758484168,0.9898129016136624
2013-04-10,1,0.00033794799973611714,0.00040890647174357785,-0.005146097628918407,0.01134402758484168,0.99015845909005
2013-04-12,1,0.00032847043988883015,0.0004650605206803984,-0.005146097628918407,0.01134402758484168,0.9906296407699127
2013-04-16,1,0.0005196223607188417,0.0005924556187274108,-0.004488411275087593,0.011156811355204651,0.9917519849158877
2013-04-18,1,0.00014462092838159082,0.000235409661995347,-0.0017102015071078802,0.011156811355204651,0.9915508833848911
2013-04-22,1,0.0008495394643672448,0.0008509216124796513,-0.004488411275087593,0.010180284534904499,0.9917907244662046
2013-04-24,0,0.0,0.0,-0.004488411275087593,0.009714871041095061,0.992132543743611
2013-04-26,0,0.0,0.0,-0.004488411275087593,0.0092616549017318,0.9924832450226279
2013-04-30,1,0.0006075183157606998,0.0006112528964359133,-0.004650606630990788,0.00930982875858207,0.9919904522783853
2013-05-02,1,0.0002970529249726761,0.0003226596418580216,-0.004650606630990788,0.00930982875858207,0.9923542036470551
2013-05-06,0,0.0,0.0,-0.004650606630990788,0.007099631419395311,0.9937235712470581
2013-05-08,1,0.002128334240659927,0.0023122452690103393,-0.004808278854584608,0.008775668779073506,0.9924718330223008
2013-05-10,0,0.0,0.0,-0.004808278854584608,0.009571962894375168,0.9910547517872021
2013-05-14,1,0.0031989806964532828,0.003575388538468432,-0.008538082096531313,0.008775668779073506,0.990101513068021
2013-05-16,1,0.003039705099535754,0.0033832959826854483,-0.006657473094310407,0.009571962894375168,0.9895113820698349
2013-05-20,0,0.0,0.0,-0.006657473094310407,0.011732089216212833,0.9895318884416883
2013-05-22,0,0.0,0.0,-0.009936332400900708,0.011732089216212833,0.9885504698710329
2013-05-24,0,0.0,0.0,-0.010321608544374796,0.011732089216212833,0.9882428177013067
2013-05-29,0,0.0,0.0,-0.010321608544374796,0.012604488466370297,0.9880587994227084
2013-05-31,0,0.0,0.0,-0.010321608544374796,0.012604488466370297,0.9882200053438244
2013-06-04,1,0.0016588043974392445,0.0017973769736150315,-0.010321608544374796,0.012604488466370297,0.9876894606829193
2013-06-06,1,0.00160933885285699,0.0017527886671873491,-0.008665512653170327,0.012604488466370297,0.9884735376149075
2013-06-10,1,0.002463531835951353,0.0027010394251373764,-0.008665512653170327,0.009098572751718562,0.9902054010236319
2013-06-12,1,0.0014635302097448072,0.0015564561595065502,-0.003457273606227147,0.011208553716099717,0.9906028601623365
2013-06-14,1,0.0020135479508934504,0.0021935622809879252,-0.0024422889963516326,0.009098572751718562,0.9918283771066487
2013-06-18,1,0.0026404882973131635,0.002884271324484512,-0.004086691416215279,0.008331641467844408,0.9914692071380581
2013-06-20,1,0.001983988181571974,0.0021524894087564424,-0.0020931474620412,0.008331641467844408,0.9928693345376698
2013-06-24,1,0.0015919063011670964,0.0017079588283485194,-0.0017562718797109454,0.008331641467844408,0.9927446602477442
2013-06-26,1,0.0024409748387477074,0.002680964489082557,-0.0020931474620412,0.007802725743950021,0.9921876191711201
2013-06-28,1,0.0016799594050435766,0.0017653831093478055,-0.0020931474620412,0.008331641467844408,0.9880703918765799
2013-07-02,1,0.00224954901329845,0.0023992835962627483,-0.007607370938002856,0.006589490678871369,0.9879334309642066
2013-07-05,1,0.002476648445850334,0.0026571671912922683,-0.007607370938002856,0.008864469559131338,0.9866309122090969
2013-07-09,1,0.002222291617573512,0.0023524022698046677,-0.009774305555684946,0.006661949379919387,0.9859655840137573
2013-07-11,1,0.0022546607417339055,0.0023334001395248164,-0.009774305555684946,0.006661949379919387,0.9859331021023965
2013-07-15,1,0.0015627456238340347,0.0016054203460069607,-0.009774305555684946,0.005946839599933915,0.9861119881396079
2013-07-17,1,0.0011193086304886908,0.0011853581605851047,-0.009392038902342636,0.005946839599933915,0.986464727126344
2013-07-19,0,0.0,0.0,-0.011257830009141606,0.0050592999440468665,0.9861911602734489
2013-07-23,0,0.0,0.0,-0.009392038902342636,0.006499673894837337,0.986767459738799
2013-07-25,0,0.0,0.0,-0.008508729371662546,0.006499673894837337,0.9878105183933309
2013-07-29,0,0.0,0.0,-0.0074777704781602335,0.002655243782012634,0.9920396627631602
2013-07-31,0,0.0,0.0,-0.006549578307540216,0.006499673894837337,0.9910930207713692
2013-08-02,0,0.0,0.0,-0.008602426408786577,0.0021143462276652734,0.99249737904666
2013-08-06,0,0.0,0.0,-0.006549578307540216,0.005833437356289462,0.9923232087753961
2013-08-08,0,0.0,0.0006188240947076044,-0.006120317719427425,0.0036412530157563967,0.993162758122246
2013-08-12,0,0.0,0.0,-0.006120317719427425,0.00850704496933082,0.9912331477616783
2013-08-14,0,0.0,0.0,-0.0024228641415614885,0.011590824454304486,0.9910059409265848
2013-08-16,0,0.0,0.0,-0.002082839783458906,0.011590824454304486,0.9915063039262235
2013-08-20,0,0.0,0.0,-0.001268309003300707,0.01294568501430739,0.9907011347236694
2013-08-22,0,0.0,0.0,-0.0033509992182198657,0.011590824454304486,0.9907920042149397
2013-08-26,-1,-0.0006869919352288916,-0.00044469614706010277,-0.004940648995810235,0.01294568501430739,0.9897056190929039
2013-08-28,-1,-0.0010122896616551766,-0.0007267629343864981,-0.0033509992182198657,0.01294568501430739,0.9907561594131754
2013-08-30,-1,-0.001747796418981526,-0.0013576194492573616,-0.0033509992182198657,0.01294568501430739,0.9909572622487277
2013-09-04,-1,-0.0004701513036119853,-0.00026391225667413956,-0.0033509992182198657,0.011291586155449354,0.992031516539685
2013-09-06,-1,-0.0010962803489259335,-0.0008009490159133974,-0.0032956927576254487,0.011291586155449354,0.9917680392123913
2013-09-10,-1,-0.0002988476480428363,-6.18256753722688e-05,-0.004438972570720746,0.007829226710555658,0.9925433345752812
2013-09-12,1,0.0003615951113970429,0.0004955680057150471,-0.004438972570720746,0.007829226710555658,0.9920072640175869
2013-09-16,1,0.00033955039471705536,0.0004455562126536626,-0.004273053188937496,0.009465713461446632,0.9917360430132705
2013-09-18,1,0.0014411708599266035,0.001458296034936846,-0.005235724613514108,0.007440236839775799,0.9911771408110456
2013-09-20,1,0.000639570345584278,0.0007051239879794914,-0.004273053188937496,0.008996470813384566,0.99138474744167
2013-09-24,1,0.000748763902811238,0.0008159841081136996,-0.003717423253487719,0.008996470813384566,0.991755537024575
2013-09-26,1,0.0013790942283430387,0.0014427857669160494,-0.005235724613514108,0.007671688070919436,0.991284858202141
2013-09-30,1,0.001157420192446656,0.0011880901203150545,-0.007859261772072775,0.008996470813384566,0.9902362060017896
2013-10-02,1,0.0013062526520743975,0.001370562290932558,-0.007859261772072775,0.011524106789501484,0.9891910182166785
2013-10-04,1,0.0012756169104922261,0.0013518465460330537,-0.008919109542638016,0.011524106789501484,0.9891885935326753
2013-10-08,1,0.00018837725675452624,0.00026011430655128846,-0.004778492154870539,0.01247039966940886,0.9891950344237322
2013-10-10,1,0.0009854957550508522,0.0010117471434962538,-0.010493513678416489,0.011524106789501484,0.9889326557071146
2013-10-14,1,0.0012919979375544263,0.0013639904760841116,-0.010493513678416489,0.01247039966940886,0.9880677420768765
2013-10-16,1,0.0011614239719527847,0.0011969009217625893,-0.008914687616370497,0.011524106789501484,0.9890068887382597
2013-10-18,1,0.0014159899054966,0.0014782277030221073,-0.008914687616370497,0.011524106789501484,0.9893945294393005
2013-10-22,1,0.0019003897088824282,0.002003022183447293,-0.008914687616370497,0.010786346532452694,0.9891903822682702
2013-10-24,1,0.0010112718188364676,0.001020033803634972,-0.007775036845165523,0.011524106789501484,0.9893755867176648
2013-10-28,1,0.0005265798437882517,0.0006060747972439402,-0.0077403624334319455,0.010798802498626239,0.9902744623658977
2013-10-30,1,0.002183354058695803,0.002391469939865525,-0.0077403624334319455,0.004519349734717699,0.990491796490094
2013-11-01,1,0.0013439806085230547,0.0013839081137240637,-0.005515231856448153,0.0034901685012864022,0.990859766379627
2013-11-05,1,0.002292503137918859,0.0024863337860573003,-0.0077403624334319455,0.0007995761519497758,0.9902055390685475
2013-11-07,1,0.0012856792703491095,0.0013973421922380083,-0.00519425593191905,0.0027615832950193325,0.9925631739423533
2013-11-11,1,0.0013446162395246467,0.001391072274082158,-0.0067351444828596205,0.0017020698574906705,0.9922606121363605
2013-11-13,1,0.0015973692128999123,0.001645606279349208,-0.0077403624334319455,0.0011227420529654822,0.9921522071624886
2013-11-15,1,0.0014086359799146487,0.0014805462061877246,-0.0077403624334319455,0.0013723367103116069,0.9924148650350818
2013-11-19,1,0.0005014688739476339,0.0005674337947255455,-0.005232917803450221,0.0017704746344083962,0.9923002898837462
2013-11-21,1,0.0018318422178019557,0.001971361151620278,-0.006516338240370917,0.0017704746344083962,0.9924857053755959
2013-11-25,1,0.0013097454610696993,0.0014042883665023552,-0.005232917803450221,0.0028734913888935603,0.9929264463628215
2013-11-27,1,0.001587337150037646,0.0017159225795670826,-0.005232917803450221,0.0028734913888935603,0.9928950538597919
2013-12-02,1,0.0016696476349263504,0.0018487290407420004,-0.005232917803450221,0.0028734913888935603,0.9931068004581184
2013-12-04,1,0.0009325444137280084,0.0010084580760262572,-0.004157283990400473,0.0028734913888935603,0.9932917362889205
2013-12-06,1,0.000728870637488545,0.0007395602812079316,-0.0053350874854906204,0.0033803983302925352,0.9923089388890136
2013-12-10,-1,-7.814679837742e-05,-6.177669903909721e-06,-0.005007051916279216,0.004611753065068608,0.9932765182939038
2013-12-12,-1,-0.0009259345276578806,-0.0007252843258310264,-0.005007051916279216,0.004611753065068608,0.9923778236809838
2013-12-16,-1,-0.000774288356720667,-0.0006245593693903232,-0.005007051916279216,0.007082527960663002,0.9917376101057725
2013-12-18,-1,-0.0004165844957640647,-0.00028244730846613075,-0.005838740578857899,0.0050471636499985735,0.9922293036936768
2013-12-20,-1,-0.0010795802974296498,-0.0008387730272052877,-0.006667137952266746,0.004090632086255838,0.9921577454826543
2013-12-24,1,1.9276655120562138e-05,5.862376989620394e-05,-0.006667137952266746,0.004090632086255838,0.9913174898409889
2013-12-27,-1,-0.0006732762051480075,-0.0005129095848153034,-0.010169693009165499,0.0018080541233439695,0.9912562930007294
2013-12-31,-1,-0.00048574895344677296,-0.00034885978721825903,-0.010655244641548007,0.004617303507919652,0.9894946192756114
2014-01-03,-1,-0.0011592975630414838,-0.0009458814207977969,-0.01119262349757714,0.004617303507919652,0.9885705895932647
2014-01-07,-1,-0.0011937199482634831,-0.0009529673191651795,-0.01119262349757714,0.004617303507919652,0.9884497265970243
2014-01-09,-1,-0.0014438108967234284,-0.0011439234855921071,-0.01119262349757714,0.0060868255319796,0.9867609744406114
2014-01-13,-1,-0.0025689085415286604,-0.002136306088074369,-0.010448587981622539,0.009821720679534044,0.9878736070213799
2014-01-15,-1,-0.0017591882685554809,-0.001447395939371615,-0.010448587981622539,0.010336902545168902,0.9876886141837233
2014-01-17,-1,-0.002528054579089692,-0.0021165310390624473,-0.010448587981622539,0.010336902545168902,0.9875720617553922
2014-01-22,-1,-0.0032803592374649852,-0.002769052955286018,-0.00915789045265045,0.010336902545168902,0.9878032251093567
2014-01-24,-1,-0.0028138360376967304,-0.0023348408637585763,-0.010448587981622539,0.006234502137958838,0.9883457840022845
2014-01-28,-1,-0.0029965242640598933,-0.0025328928552571387,-0.011604551443964302,0.010336902545168902,0.9865763128930622
2014-01-30,-1,-0.003878987226417054,-0.0032979053207292343,-0.011604551443964302,0.010336902545168902,0.9872215963014812
2014-02-03,-1,-0.0044101977040208575,-0.0038347846955736646,-0.008136402124756864,0.012136682209017232,0.9875796232608991
2014-02-05,-1,-0.0032494903227137046,-0.0028324606646984666,-0.008136402124756864,0.012136682209017232,0.987923074100816
2014-02-07,-1,-0.0016617336589365744,-0.0014203428961562362,-0.008136402124756864,0.007595589558978734,0.9898290451991589
2014-02-11,-1,-0.0009787564046362493,-0.000871916485348678,-0.008136402124756864,0.008635925476571032,0.9890575865915431
2014-02-13,-1,-0.0011982042260624526,-0.0010238956946838022,-0.009955601344306125,0.007028597202779444,0.989188318139231
2014-02-18,-1,-0.0015408768177463397,-0.001347503724649326,-0.007375793234375884,0.007028597202779444,0.9897176023319045
2014-02-20,-1,-0.0012899235890663629,-0.0011341655738098917,-0.0054941157342826875,0.01459574472070289,0.9886693438928105
2014-02-24,-1,-0.0017878452989470895,-0.0015704852028648056,-0.0054941157342826875,0.01459574472070289,0.9886311253670286
2014-02-26,-1,-0.0017723057673004012,-0.0015613766511037481,-0.008242445407175645,0.009455612980466252,0.9895541281477008
2014-02-28,-1,-0.0024469078039976015,-0.0021610800359140553,-0.0054941157342826875,0.009455612980466252,0.9902849647257161
2014-03-04,-1,-0.002590651793240921,-0.0022444069104666526,-0.004512374926151353,0.008143963926587335,0.9908129418318149
2014-03-06,-1,-0.0014983386462719792,-0.0013211524076618309,-0.005413763438576304,0.007028597202779444,0.9916480287096285
2014-03-10,-1,-0.0008246826633354608,-0.000744755509309975,-0.012775790775203359,0.006245604346263597,0.9904887966282108
2014-03-12,1,0.000247143160197989,0.0002986931905455001,-0.012775790775203359,0.006392787200176334,0.9901192901073806
2014-03-14,-1,-0.00024132075214717386,-0.00023266401500156804,-0.01458328707528556,0.006392787200176334,0.9885661793253713
2014-03-18,1,0.0004041557108656705,0.0005509720046957091,-0.01458328707528556,0.008475428463983255,0.9880490512685555
2014-03-20,1,0.0011111125625591985,0.001297598455415161,-0.01458328707528556,0.0051750317047270546,0.9874755783408511
2014-03-24,1,0.00039984739613318024,0.00047985623272798204,-0.01458328707528556,0.008475428463983255,0.9878817309480623
2014-03-26,0,-5.63813547053244e-05,2.4271152988280273e-05,-0.009451034243080586,0.008815688484552811,0.9884113448817976
2014-03-28,1,6.157962472976282e-05,0.0001438718346541989,-0.009451034243080586,0.008815688484552811,0.9880904499538233
2014-04-01,1,0.0007106929558637797,0.0009312561605266127,-0.009451034243080586,0.008705604460210521,0.9884248871220452
2014-04-03,-1,-0.00045970226045211364,-0.0004450895067280573,-0.009451034243080586,0.008705604460210521,0.9884175710452703
2014-04-07,-1,-0.0011926857035442899,-0.0011409200837258053,-0.007743938441598799,0.008705604460210521,0.9889722255537376
2014-04-09,1,0.00029228596036978043,0.0004591346851395672,-0.007743938441598799,0.005568045914789287,0.9902708476737405
2014-04-11,-1,-0.001818100853019069,-0.0017051118886290107,-0.006364221572397891,0.008705604460210521,0.9914310788754811
2014-04-15,-1,-0.001803446978932643,-0.001666234880018676,-0.007286238947993003,0.00768666436208303,0.9914702659974346
2014-04-17,-1,-0.000587816573330632,-0.0005236286982441356,-0.005239704393692891,0.00768666436208303,0.9924756443211071
2014-04-22,-1,-0.0001775202794820483,-8.701886690392713e-05,-0.007286238947993003,0.005568045914789287,0.9926687448159475
2014-04-24,1,0.0001427968757308067,0.00030405656561203977,-0.005239704393692891,0.005568045914789287,0.9929164887957762
2014-04-28,1,5.5811664139343955e-05,0.00019349967926944454,-0.004206500463144177,0.008643473129910442,0.9919704530764246
2014-04-30,-1,-0.000417902613074901,-0.00037769952468385675,-0.004743934853625953,0.008643473129910442,0.9916664074241428
2014-05-02,-1,-0.00029679529604921323,-0.00022512077623984526,-0.0028607214864742074,0.008797610048656928,0.9918921819369195
2014-05-06,-1,-0.00115819604478043,-0.0010779527989005996,-0.0022112822755751267,0.008797610048656928,0.9921380622386592
2014-05-08,-1,-0.0013442724336831541,-0.0012232414998859993,-0.0004404788962256147,0.008797610048656928,0.9917500489247477
2014-05-12,-1,-0.0003909043743646002,-0.0003831661643666673,-0.002777824845850042,0.00813341097793496,0.9928512425928739
2014-05-14,-1,-0.0005249449547454514,-0.0005111791569257328,-0.002777824845850042,0.00813341097793496,0.9928223370228213
2014-05-16,0,-4.714216244224533e-05,2.4699738556482236e-05,-0.002039356583935382,0.00813341097793496,0.993239541368709
2014-05-20,-1,-0.00016712843173002893,-8.443385832919258e-05,4.4256980694023715e-06,0.00813341097793496,0.9934788951774249
2014-05-22,1,0.0004990398561717634,0.0006690069382162831,-0.002039356583935382,0.00813341097793496,0.9931407612135043
2014-05-27,1,0.0015568154982091352,0.0018663383526905128,-0.002039356583935382,0.006995098824022406,0.9945750607438322
2014-05-29,1,0.0009265066520849453,0.0011147036894386723,0.0003102115028849941,0.00820506236443595,0.9942978440426375
2014-06-02,1,0.0014202488687793564,0.0016865461172124608,-0.0016507270736078952,0.006995098824022406,0.994320597495663
2014-06-04,1,0.0019032721454710778,0.002244761003057461,-0.0016507270736078952,0.00835069124751036,0.9943957903746283
2014-06-06,1,0.0015574859281077065,0.0017846652442434073,-0.0026634261346207247,0.008945060812271085,0.9939217845157415
2014-06-10,1,0.0014855289320042152,0.0017329498301385726,-0.0015659409734669885,0.009065458073675899,0.9939194474612137
2014-06-12,1,0.0008363807865716963,0.0009600078053775586,-0.002031730044598763,0.009065458073675899,0.9937355271325883
2014-06-16,1,0.0009803920685764569,0.0010853171538980388,-0.002031730044598763,0.008945060812271085,0.9941718604274248
2014-06-18,1,0.0016125309317483686,0.0018369825178993653,-0.003547914895977386,0.008945060812271085,0.9931918723305542
2014-06-20,1,0.0016567733606354345,0.0018558871852674282,-0.003436445213404511,0.008945060812271085,0.9940078420085001
2014-06-24,1,0.0016524759797721894,0.001817665919391528,-0.003436445213404511,0.008945060812271085,0.9935705932567097
2014-06-26,1,0.0012057753562942737,0.0012583269294566706,-0.004345519217056485,0.009050423835084188,0.9922105394591704
2014-06-30,1,0.0012433069886342801,0.0013447162033499893,-0.004345519217056485,0.009050423835084188,0.9923670656183514
2014-07-02,1,0.0023115864931975982,0.0026357566903562205,-0.0047164399239031625,0.006075702594657549,0.9918344442576067
2014-07-07,1,0.0024857620685184807,0.002840291757943241,-0.005507456308651615,0.005596185541309651,0.9918141960927279
2014-07-09,1,0.0028326506130748885,0.003239741348038203,-0.007916747699462089,0.00459071650075789,0.9917556772298172
2014-07-11,1,0.0021801041072312902,0.002476318275036855,-0.006336818644279435,0.005596185541309651,0.9916751464765201
2014-07-15,1,0.002191481342201042,0.0024803201678254847,-0.006336818644279435,0.005596185541309651,0.991712958559485
2014-07-17,1,0.0012332372969932226,0.0013669400064690175,-0.007596556851182489,0.005596185541309651,0.9919018551107127
2014-07-21,1,0.001215310399658596,0.0013285754321140453,-0.007596556851182489,0.005596185541309651,0.9920488309906824
2014-07-23,1,0.001477022822898589,0.001593767316274999,-0.007596556851182489,0.0050284241019428605,0.9924998629194451
2014-07-25,1,0.0015042641734613134,0.0016320774647489926,-0.007245801905313827,0.003945596303751388,0.9937399098522475
2014-07-29,1,0.001550811213679218,0.001709240641755599,-0.007245801905313827,0.0050284241019428605,0.9936157453090148
2014-07-31,1,0.001283348382710969,0.0014267560747593271,-0.005878170273909831,0.0050284241019428605,0.9944038096970912
2014-08-04,1,0.0016466024196375704,0.0018918902062947762,-0.004542101411434665,0.003945596303751388,0.9948097426346167
2014-08-06,1,0.0011380574124729519,0.0012781444209526115,-0.004542101411434665,0.004043286134242563,0.9948966006355077
2014-08-08,1,0.001383576217256185,0.001564789620935449,-0.0037542794303815777,0.004043286134242563,0.9950366348682913
2014-08-12,1,0.0018030852560764784,0.0020987434002106287,-0.00495106489173949,0.004043286134242563,0.9946587316595613
2014-08-14,1,0.0011571611837864477,0.001335488227676141,-0.00495106489173949,0.004043286134242563,0.994495742500647
2014-08-18,1,0.0009549863058321768,0.0010541024398345931,-0.007105060714824308,0.0018206136346097263,0.9945663419019067
2014-08-20,1,0.0011108536259652627,0.0012337906633966824,-0.007105060714824308,0.0025341315536017758,0.9946174081528757
2014-08-22,1,0.0008484473851381332,0.0009427982423396842,-0.007132812856606187,0.0036194001350630277,0.9940503772621503
2014-08-26,1,0.0008006265580058134,0.0008697084509838428,-0.007600570330985324,0.0036194001350630277,0.993266779064618
2014-08-28,1,9.095601820569601e-05,0.0001747121415530655,-0.008549146454029936,0.0045717821104984515,0.9920125629677976
2014-09-02,1,0.00042531015156268306,0.00042719061444453793,-0.008549146454029936,0.0045717821104984515,0.9920446151800417
2014-09-04,-1,-0.0003735495585347054,-0.00020582385458331378,-0.008549146454029936,0.0036194001350630277,0.9921040912557645
2014-09-08,-1,-0.0002917692440565781,-0.00013544161471596724,-0.008872042164120434,0.0036194001350630277,0.9913476476840553
2014-09-10,-1,-0.0004714781923220875,-0.00029469678675017857,-0.010129251913040557,0.004661345869472144,0.9902425658121861
2014-09-12,-1,-0.0009757382717345286,-0.0007649444690424271,-0.009904209121045528,0.004661345869472144,0.9907898430920512
2014-09-16,-1,-0.0013737100116800213,-0.001113596462035055,-0.010589097497773205,0.005787149874129739,0.9893792030196935
2014-09-18,-1,-0.0011834122708715318,-0.0009412166787359269,-0.010589097497773205,0.005271869276912993,0.9894913315673267
2014-09-22,-1,-0.0017830962603408824,-0.0014599716150589248,-0.009904209121045528,0.012833955378855136,0.9891597821923782
2014-09-24,-1,-0.0015553939373530857,-0.0012549324788804534,-0.009904209121045528,0.008811512310228442,0.9901090409809591
2014-09-26,-1,-0.0019287800975213102,-0.0015614746344176443,-0.006149588643201669,0.008811512310228442,0.9906156537380448
2014-09-30,-1,-0.0018893447547777891,-0.0015212645221934073,-0.006149588643201669,0.012532666807760886,0.9900122621342645
2014-10-02,-1,-0.0019789858122938784,-0.00163465756826195,-0.005366633324215791,0.012532666807760886,0.989628102700238
2014-10-06,-1,-0.0018223270922280686,-0.0014847964503672453,-0.005366633324215791,0.01074052263605012,0.9896299646153817
2014-10-08,-1,-0.0014948121602643364,-0.0012080081893881488,-0.004650903599210534,0.00855951614590909,0.990709742838247
2014-10-10,-1,-0.002186889134015878,-0.001799834637585348,-0.0016266820390859961,0.010219339363704168,0.9900622614299297
2014-10-14,-1,-0.0021113069669221147,-0.0017634535265665043,-0.0009387367058242079,0.010219339363704168,0.9917731077004511
2014-10-16,-1,-0.0017155166656896616,-0.0014546520633645886,0.00022242882377289375,0.010219339363704168,0.9920941580978272
2014-10-20,-1,-0.0010769654783493328,-0.0008770930612401932,-0.0009387367058242079,0.0073639323119997135,0.9936008527528349
2014-10-22,-1,-0.0009704325521711924,-0.0007975656286568011,-0.0009387367058242079,0.0073639323119997135,0.9936962575476411
2014-10-24,-1,-0.0001688196209985201,-0.00010513652879916058,-0.0009387367058242079,0.0073639323119997135,0.9935474349893493
2014-10-28,1,0.0005096845864494583,0.0005412634716211299,-0.0021849423719460088,0.0073639323119997135,0.993889579277285
2014-10-30,1,0.0003595059430155622,0.00036474793539121187,-0.0021849423719460088,0.0073639323119997135,0.9934097200575424
2014-11-03,-1,-0.00020110871851874214,-0.00011661027987012267,-0.0034335434389442584,0.0056662153803206505,0.9942756995910824
2014-11-05,1,0.00025604006190578445,0.0002641432706513567,-0.0034335434389442584,0.006044400311427935,0.9941968365287622
2014-11-07,1,0.00046336776414379654,0.0004935567908874674,-0.0034335434389442584,0.006044400311427935,0.9934891230110509
2014-11-11,1,0.0005349586381217116,0.0005924189881152187,-0.003995698544256755,0.006044400311427935,0.9929356686629361
2014-11-13,1,0.0007108892681774569,0.0008088757337628052,-0.003995698544256755,0.006555844353345062,0.9927486022830593
2014-11-17,1,0.0006466075707995372,0.0007549599243399184,-0.0048263382982310764,0.006555844353345062,0.9905389936939656
2014-11-19,1,0.0007542214161507335,0.0008534675294014124,-0.005306975913486565,0.009756044255668225,0.9898047737575427
2014-11-21,1,0.0016180910430747628,0.0018476451724025763,-0.006042234653609823,0.009756044255668225,0.9899015561110319
2014-11-25,1,0.001917957442450215,0.0021949038124308953,-0.006042234653609823,0.010591570855082283,0.9898794008456154
2014-11-28,1,0.002412923964400974,0.002771306469544799,-0.005306975913486565,0.007777663529628433,0.9906477248461864
2014-12-02,1,0.0018672547679856664,0.002130435850166146,-0.00561323111409055,0.007777663529628433,0.9908562573621466
2014-12-04,1,0.0022989161482135606,0.0026238496918166,-0.007387766905266855,0.006763565378407035,0.9897920393916165
2014-12-08,1,0.0025408195863495194,0.0028563764526869664,-0.007610156164622025,0.006763565378407035,0.9893870619310449
2014-12-10,1,0.002131707721389593,0.0023889732681753456,-0.007610156164622025,0.00793060725474707,0.987947382402581
2014-12-12,1,0.0026724600471220543,0.0030365286323760224,-0.007610156164622025,0.008745394003215777,0.9877610633418886
2014-12-16,1,0.00157817685604997,0.0017994487277605273,-0.007387766905266855,0.008745394003215777,0.9893536571539029
2014-12-18,1,0.0020701299468868627,0.0023496394131813283,-0.007387766905266855,0.008745394003215777,0.9896545033503029
2014-12-22,1,0.0020307866605446755,0.00227969201365254,-0.0072300408011498184,0.008745394003215777,0.9898413817882246
2014-12-24,1,0.0024231219706909593,0.0027154679245949614,-0.0072300408011498184,0.00921852720884339,0.9872483796883179
2014-12-29,1,0.0027696564100146955,0.003092060311911413,-0.007610156164622025,0.00921852720884339,0.9870878324679159
2014-12-31,1,0.0022846715229101313,0.002570491985847842,-0.008281918674338508,0.013741438493952506,0.9859631844153187
2015-01-05,1,0.001351431912899755,0.0015176875542640012,-0.006207689391234493,0.013741438493952506,0.9869392688870167
2015-01-07,1,0.0015245157286574154,0.0016773149369490553,-0.0022412700319760937,0.0111838944269977,0.9880816465272754
2015-01-09,1,0.0014143966409766338,0.0015764833228307208,-0.002907992161373406,0.008632180400193073,0.9898546959132345
2015-01-13,1,0.001953251933015735,0.00219671951158842,-0.00459907096370018,0.0111838944269977,0.9889595260806193
2015-01-15,1,0.0011069930647787025,0.0012143423848940899,-0.0021974619573423898,0.011826995733062833,0.9890021962546329
2015-01-20,1,0.0019331024750072554,0.0021608690217546755,-0.0021974619573423898,0.010811914720369097,0.9894826207704005
2015-01-22,1,0.002533996705237874,0.0028382115167354754,-0.0021974619573423898,0.010554427925743556,0.9903452592194122
2015-01-26,1,0.0026939288908987237,0.003005051207074827,-0.0021974619573423898,0.006896861714454096,0.9933489415475041
2015-01-28,1,0.0022591884615624624,0.002498741321765903,-0.0015475472404223082,0.009135858091377807,0.9935523728517569
2015-01-30,1,0.002279274760715678,0.002530990915353032,-0.0015475472404223082,0.008103456135313292,0.9942967992600333
2015-02-03,1,0.002457541895586455,0.002714094396794409,-0.0025112592952977945,0.008103456135313292,0.9937326583378168
2015-02-05,1,0.0023374253951551206,0.0025248583580096936,-0.00311112812802865,0.0065726441045811275,0.9930729079110382
2015-02-09,1,0.0017338828993817992,0.0018273074407892556,-0.00311112812802865,0.008103456135313292,0.9928173005789775
2015-02-11,1,0.0024112807297313483,0.00260898764029055,-0.004103006784721404,0.008103456135313292,0.9929339116725935
2015-02-13,1,0.0022537762746838766,0.0024017176838507376,-0.0038918442678108054,0.007973173578610479,0.9931579214762503
2015-02-18,1,0.0027806547472229723,0.0030076656570007807,-0.0038918442678108054,0.007973173578610479,0.9930252361712613
2015-02-20,1,0.002797477619216367,0.003006275764206907,-0.004362768616048517,0.008276944886770096,0.9919676587995951
2015-02-24,1,0.0026388212651549652,0.002827073655679513,-0.004362768616048517,0.008276944886770096,0.9919331480661504
2015-02-26,1,0.002634085171055251,0.0027789863894130814,-0.008494406943852006,0.007973173578610479,0.9905208707670061
2015-03-02,1,0.002449615851509767,0.0025823051738367298,-0.007464721042126481,0.008332941022029963,0.9909971033545274
2015-03-04,1,0.0018476620097329145,0.001897976995196568,-0.008494406943852006,0.008332941022029963,0.9901038445411358
2015-03-06,1,0.0010300913662003672,0.0011064024092162375,-0.007464721042126481,0.009061816059555305,0.9905502616585763
2015-03-10,1,0.000410325201101394,0.0006295737262349853,-0.005371825657291562,0.010261770123659704,0.9906752603169278
2015-03-12,1,0.0005751304841924537,0.0007846863798190729,-0.003491794452184887,0.008502979983667263,0.9916230473486638
2015-03-16,1,0.001185249117680995,0.0012786336183439474,-0.0042830115648888984,0.007827154093689398,0.9915261688082674
2015-03-18,1,0.001794703344006191,0.0018279884498261282,-0.0042830115648888984,0.006949471720342143,0.991989475017689
2015-03-20,1,0.0021638983806323655,0.002212150855188993,-0.005371825657291562,0.006949471720342143,0.9920927080094034
2015-03-24,1,0.002489498993042172,0.0026104567664611083,-0.005371825657291562,0.007271646165578165,0.9919489731754847
2015-03-26,1,0.0015423071612721134,0.0015685340740808264,-0.003515401487285703,0.008646855984753624,0.9902618284996597
2015-03-30,1,0.0015019424950445028,0.0015624311231874895,-0.004848407419822233,0.007597050173562316,0.9894342521417898
2015-04-01,1,0.00017279464957036493,0.0003747196765093029,-0.0042830115648888984,0.007597050173562316,0.9898703359344867
2015-04-06,1,0.0011523530866200925,0.0012092239512429186,-0.0042830115648888984,0.007597050173562316,0.9898704787059033
2015-04-08,1,0.0013111902035905754,0.0013579033049531636,-0.006261931761867725,0.007271646165578165,0.989101924227275
2015-04-10,1,0.0017485858526330269,0.0017522994311245477,-0.006261931761867725,0.008399786126553144,0.9888023856616623
2015-04-14,1,0.0015684733830452547,0.001602748104246857,-0.006647199241046011,0.008399786126553144,0.9888722527566317
2015-04-16,1,0.0012414184182682707,0.0013239040222135356,-0.006647199241046011,0.008616059882843207,0.9880969579807787
2015-04-20,1,0.0013746342763746398,0.0013959606544768361,-0.0052394570319306095,0.008616059882843207,0.9886002397586044
2015-04-22,1,0.0016541056414488356,0.001671072347335573,-0.0061146898415980165,0.008616059882843207,0.9884631376422752
2015-04-24,1,0.0027870686956363573,0.0029669105236212667,-0.0061146898415980165,0.006279300058435272,0.991728935226332
2015-04-28,1,0.0010546419945339986,0.00113154533267922,-0.0061146898415980165,0.007756165452064124,0.991441813764921
2015-04-30,1,0.00043475389643753945,0.0005579547956059,-0.003216665951175385,0.007756165452064124,0.9920853852943727
2015-05-04,1,0.0014654474760644476,0.0014908693646190848,-0.0061146898415980165,0.006279300058435272,0.9924382004542575
2015-05-06,-1,-0.0002173036807903392,-1.1443942781550723e-05,-0.003216665951175385,0.007495035532003879,0.9927785230938593
2015-05-08,1,0.0006503240708614726,0.0007434803874189599,-0.0061146898415980165,0.006279300058435272,0.992765316149391
2015-05-12,-1,-0.00046030558007692306,-0.00015851664632556244,-0.003706631281664506,0.007495035532003879,0.9919026815299159
2015-05-14,1,0.0005171258047703632,0.0006643366418791939,-0.004742943100724413,0.006279300058435272,0.9929201151756613
2015-05-18,1,0.0010115446876625017,0.0010907888996030905,-0.007026308956538569,0.006293999491575413,0.9925281731511922
2015-05-20,1,0.0008772109875121257,0.0009648748006903953,-0.004556850808548809,0.007926186195846377,0.9921439361012024
2015-05-22,1,0.0014703984292942446,0.0014784337479668212,-0.004556850808548809,0.007926186195846377,0.9922219492479185
2015-05-27,1,0.0012833519425637092,0.001316540598683827,-0.004556850808548809,0.00570770848440124,0.9929825697464081
2015-05-29,1,0.0007663349570625033,0.0009131235460603103,-0.004556850808548809,0.007926186195846377,0.9925168128718062
2015-06-02,1,0.0005665995640629798,0.0007076123685199071,-0.004556850808548809,0.007926186195846377,0.9921733714763931
2015-06-04,1,0.00023609682921631506,0.0004415165080934295,-0.0034438541760646543,0.00729884126569712,0.9923885517796518
2015-06-08,1,0.00017437539769176997,0.0003675739757406489,-0.0012488311665858935,0.006546733977276824,0.9933348671552555
2015-06-10,1,0.0003889224536824745,0.0005911647900793532,-0.0034438541760646543,0.006546733977276824,0.9929872976948874
2015-06-12,1,0.0005814509968319115,0.0007264494174303597,-0.0012488311665858935,0.00975854392123849,0.9918925875961918
2015-06-16,1,0.0009345686612084027,0.0009994319260949094,-0.0012488311665858935,0.007432187983214096,0.9925662575894436
2015-06-18,1,0.0016533374292004251,0.0017020349622216455,-0.0015044481116147116,0.006834023535106672,0.9931486088145755
2015-06-22,1,0.001195405000763812,0.0012241501938866882,-0.00035767497485791075,0.007755407258483216,0.9929995047057324
2015-06-24,1,0.0008687432073401467,0.0009458141763639015,-0.00035767497485791075,0.00887347029370823,0.9929628138044503
2015-06-26,1,0.0014523228660900864,0.001470678685228958,-0.0012460887090424057,0.00887347029370823,0.9928373189984083
2015-06-30,1,0.000977157037211039,0.0009984455608962539,-0.00035767497485791075,0.00887347029370823,0.9934637954720491
2015-07-02,1,0.001019097701354554,0.0010586725533299982,-0.0012325778031501023,0.009393960827368694,0.9933726193135747
2015-07-07,1,0.0012686935130828535,0.0012869333245588454,-0.0012325778031501023,0.009393960827368694,0.9928827715251611
2015-07-09,1,0.0010816879389109154,0.001087979233374286,-0.0012325778031501023,0.008907675052503129,0.992598397992923
2015-07-13,1,0.0021863361056861097,0.0023574018802889393,-0.0022525922879164857,0.0076007600451591505,0.9931377691288356
2015-07-15,1,0.0019642715265450355,0.002108222191275673,-0.0012325778031501023,0.0076007600451591505,0.9935386390932262
2015-07-17,1,0.0020158458034751554,0.002158730000440346,-0.0009529047968885184,0.008431888243071171,0.9935159199611958
2015-07-21,1,0.0023894388514079257,0.0025996564740833248,-0.0009529047968885184,0.008431888243071171,0.9935841187340392
2015-07-23,1,0.0023598762002724847,0.0025544432154803952,-0.002716842036292012,0.006940539681128223,0.9921459631689625
2015-07-27,1,0.002056548912115561,0.002126239789799928,-0.007177279593601968,0.005579612757891898,0.9878474984351255
2015-07-29,1,0.0024069529265350045,0.002528930437772465,-0.007177279593601968,0.008443289829336138,0.9848316725412649
2015-07-31,1,0.002370089932891997,0.0024835605342252184,-0.008354226680884536,0.008443289829336138,0.9833401865048592
2015-08-04,1,0.003021656616422537,0.0032292582592127906,-0.017932555605288922,0.006044847296615882,0.9814825564529185
2015-08-06,1,0.002200916538500611,0.0023160242331024565,-0.0163285284417401,0.009054298153572622,0.9813163802727022
2015-08-10,1,0.0017830684853402086,0.001881150988541573,-0.011870621103760538,0.012131019259346312,0.9812327842946336
2015-08-12,1,0.001966379437725408,0.002110015647316721,-0.011870621103760538,0.013049964623627737,0.9802685707299544
2015-08-14,1,0.0023751962261552495,0.0025756033463658606,-0.011870621103760538,0.01545736376988035,0.9794160790685383
2015-08-18,1,0.002075884948479532,0.0021717249053373557,-0.011870621103760538,0.01545736376988035,0.9792776261841889
2015-08-20,1,0.0010651035408451373,0.0010885033077747237,-0.009642661509694988,0.01545736376988035,0.9806732615385024
2015-08-24,-1,-0.0008285800055531554,-0.0005283647027637208,-0.007542983266971842,0.01545736376988035,0.9847242038511871
2015-08-26,1,0.0017065229717504096,0.0017294467600967641,-0.007542983266971842,0.012344894046134721,0.9870801555200862
2015-08-28,1,0.002026528393950008,0.0020966967067377953,-0.008115803335203207,0.011876116199165173,0.9867963502778941
2015-09-01,1,0.0007343620258073703,0.0008117126220732663,-0.007348677709370576,0.012344894046134721,0.9878620063403205
2015-09-03,1,0.0012103779851811323,0.0012321495910092694,-0.006707436100532225,0.011876116199165173,0.9890035862667649
2015-09-08,1,0.0013450459379762529,0.0013605369034306752,-0.006073703882132972,0.011876116199165173,0.989119540224485
2015-09-10,1,0.0011405376917623467,0.0011977180535075883,-0.004666177474900588,0.011608856331198288,0.9896646674396261
2015-09-14,1,0.00169569039836347,0.0017110067597391017,-0.002154449992251401,0.011336890678767517,0.9902474338751158
2015-09-16,1,0.0027210390463131224,0.002969918426766403,-0.006335181143554391,0.011336890678767517,0.9894765660528425
2015-09-18,1,0.0018397825164416016,0.0019149271992228503,-0.006015382044303689,0.011608856331198288,0.9891912301971589
2015-09-22,1,0.0014540302657256735,0.001475438883955373,-0.002589159447499317,0.011608856331198288,0.9891150399393036
2015-09-24,1,0.002344254872025594,0.002464180915698398,-0.005793844701319002,0.012374141968001075,0.9891291628793677
2015-09-28,1,0.00032993852939686575,0.0005223933277143964,-0.0010414288223634346,0.01505814012720486,0.9895925057452032
2015-09-30,1,0.0011563023129912955,0.0012248083039162379,-0.0025443666955512452,0.013520425618135535,0.9896859350493764
2015-10-02,1,0.0016197436266504456,0.001637518566819174,-0.005793844701319002,0.013520425618135535,0.9898473017921942
2015-10-06,1,0.0019943851281236367,0.002048063110697133,-0.005392808991421417,0.012842079124092355,0.9903053248153825
2015-10-08,1,0.0024472339742445397,0.0025753535223624023,-0.005881003788459476,0.012842079124092355,0.9899744752755135
2015-10-12,1,0.0027565998130561456,0.002910498486905556,-0.007249201102277896,0.012842079124092355,0.9896079982582889
2015-10-14,1,0.0018382996773774827,0.0018795199340253842,-0.005392808991421417,0.013246249808243904,0.9903120595380888
2015-10-16,1,0.0023156015454410483,0.002415294321830217,-0.010462448590531255,0.012842079124092355,0.989098185868033
2015-10-20,1,0.0028164588297458198,0.0029816759444541985,-0.010462448590531255,0.012842079124092355,0.9890727583500288
2015-10-22,1,0.002884184799648086,0.0030363453442257002,-0.010462448590531255,0.012842079124092355,0.9888324842783779
2015-10-26,1,0.0035925330585433067,0.003827280412332928,-0.010462448590531255,0.00936942362348616,0.9893234905238996
2015-10-28,1,0.0032349834488144035,0.0034081966356501177,-0.010338591930740059,0.008717000427458021,0.9898362321179386
2015-10-30,1,0.0028515263707942105,0.0030085393605437495,-0.010338591930740059,0.008717000427458021,0.9899988855815967
2015-11-03,1,0.0027252002354291606,0.0028513029783529664,-0.010338591930740059,0.006029347438639125,0.9902985627513019
2015-11-05,1,0.0023235467932834035,0.002398585882169994,-0.010338591930740059,0.009089034213348907,0.9881648675500391
2015-11-09,1,0.001972285101781336,0.0020336247396495126,-0.006840137556755027,0.009089034213348907,0.9890735674832891
2015-11-11,1,0.001961890694872067,0.002004857775111206,-0.011318032314545269,0.009089034213348907,0.9886571716672236
2015-11-13,1,0.00041315579613444077,0.0005675262398465343,-0.006840137556755027,0.009089034213348907,0.9889038852788068
2015-11-17,1,0.0011336896571291478,0.0011825277459762671,-0.006840137556755027,0.006782413182830211,0.989471362613521
2015-11-19,1,0.0011361836065848516,0.0012339872521397511,-0.012967066976372447,0.004814115942875331,0.9892465549569823
2015-11-23,1,0.0019229357994317556,0.0019304042945806157,-0.012967066976372447,0.004814115942875331,0.9889002402362304
2015-11-25,1,0.0014296692303574375,0.001483373956090812,-0.012967066976372447,0.00591788637583506,0.9894059152472643
2015-11-30,1,0.00048336664706437706,0.0006761069606225166,-0.005271383878777058,0.006516018094355839,0.9893379869726757
2015-12-02,1,0.0008233976672676845,0.0009260426579085152,-0.013180141157365507,0.006516018094355839,0.9885731984119795
2015-12-04,1,0.0010223966918206403,0.001127275005164025,-0.013180141157365507,0.006300075099337383,0.9899594816158269
2015-12-08,1,0.0011982073548982852,0.0012768458614376935,-0.014095054081994147,0.006300075099337383,0.9883808435168384
2015-12-10,1,0.0009922498614104275,0.0010786817726663575,-0.013180141157365507,0.006300075099337383,0.988667108872477
2015-12-14,0,-4.442951200017979e-05,0.00016151846234267807,-0.013180141157365507,0.006910127951792749,0.987836764384842
2015-12-16,1,0.0002261974601486499,0.00039406591367296614,-0.014095054081994147,0.009572780972503551,0.9863654713984599
2015-12-18,-1,-0.0008765082032602856,-0.0006062883297839176,-0.01389582115213606,0.011016372369788328,0.9861030174943031
2015-12-22,1,8.893320791687455e-05,0.00024297094677526242,-0.01389582115213606,0.011016372369788328,0.985208106410957
2015-12-24,1,0.0004534018389684405,0.0005464653373111563,-0.01863050862747677,0.015600746385750049,0.9834927088915063
2015-12-29,1,0.0004030887562085525,0.000538089143011338,-0.01870917898354382,0.01649166653060096,0.9821762475156102
2015-12-31,-1,-0.0008677964685956128,-0.000550200314120023,-0.01870917898354382,0.019639093340853293,0.9814126949261559
2016-01-05,-1,-0.0014460550401145173,-0.0010634237679977819,-0.01735930510577694,0.019639093340853293,0.9817598757464308
2016-01-07,-1,-0.0024659331792884097,-0.0019790186583079792,-0.019663816556619102,0.019639093340853293,0.9792011944230606
2016-01-11,-1,-0.0015220234623969436,-0.001230446316912058,-0.019663816556619102,0.01649166653060096,0.9797192516049809
2016-01-13,-1,-0.0022515553208016406,-0.0018219714434194044,-0.01735930510577694,0.01382165068759125,0.981610773723637
2016-01-15,-1,-0.0038496142034774375,-0.003154694746328462,-0.01735930510577694,0.01382165068759125,0.9818300516082052
2016-01-20,-1,-0.0034216496417184394,-0.0028757610411848994,-0.012899614659575979,0.015975395573759075,0.9819854107406343
2016-01-22,-1,-0.0012610935808613113,-0.0010258550342378237,-0.012899614659575979,0.015975395573759075,0.982320206614432
2016-01-26,-1,-0.0023290403026191443,-0.0019065650624105904,-0.011456978580801164,0.014201802106840212,0.9838472531304339
2016-01-28,-1,-0.0014751753803684767,-0.00119265060360697,-0.008084206507310732,0.012656267042048776,0.9851101014376185
2016-02-01,-1,-0.0002954402863419759,-0.00015899028876356435,-0.008084206507310732,0.012656267042048776,0.9851375264812616
2016-02-03,-1,-0.0012528344864853134,-0.0010092309085552478,-0.007232706223669515,0.012656267042048776,0.9859570512888461
2016-02-05,-1,-0.005305768992394554,-0.004615149627201441,-0.006968051887472103,0.012656267042048776,0.9895302631404492
2016-02-09,-1,-0.004954661164524917,-0.0043313701662416534,-0.007232706223669515,0.012656267042048776,0.9897644353285253
2016-02-11,-1,-0.004702562723401231,-0.00410041702058462,-0.007232706223669515,0.011376406157271583,0.9897603196618912
2016-02-16,-1,-0.0037066844386090406,-0.003228618221371363,-0.007232706223669515,0.011376406157271583,0.9897563105375806
2016-02-18,-1,-0.002963126660138391,-0.002604906158538779,-0.006968051887472103,0.010243193629399856,0.9906589045721308
2016-02-22,-1,-0.002802987354824423,-0.002392556807399592,-0.007232706223669515,0.007469991700513906,0.9919786404646461
2016-02-24,-1,-0.0028253065248412413,-0.0024392127452159997,-0.008178671661193905,0.007469991700513906,0.9916535274363083
2016-02-26,-1,-0.0022971024921924037,-0.0020041575135107646,-0.008178671661193905,0.007469991700513906,0.9916333761041256
2016-03-01,-1,-0.001174266304382318,-0.0010289621358371148,-0.008178671661193905,0.007764706138712536,0.9921429419256307
2016-03-03,-1,-0.0014011055699882221,-0.0012489826010749357,-0.0071697189487165275,0.008410399326213154,0.9914963875323096
2016-03-07,-1,-0.0014903493256023682,-0.0013539649238173577,-0.0071697189487165275,0.008410399326213154,0.9915564242048798
2016-03-09,-1,-0.002402576023608707,-0.002119768406842893,-0.00390553777726446,0.009991494308584986,0.9909279348547966
2016-03-11,-1,-0.0017431705715609393,-0.0015657136480305193,-0.00390553777726446,0.009991494308584986,0.9916546284529566
2016-03-15,-1,-0.0006890016901436468,-0.0006594362459448808,-0.005871609294579149,0.009991494308584986,0.9912902805460161
2016-03-17,-1,-0.00031722308663027847,-0.00028433836165619986,-0.005871609294579149,0.008295136176237682,0.9915057322603308
2016-03-21,1,5.771547699722716e-06,0.00013211841138026365,-0.00390553777726446,0.008295136176237682,0.991861410274208
2016-03-23,1,1.7258161054962745e-05,0.00015055961430624192,-0.0036814287110045504,0.008295136176237682,0.9923377647358151
2016-03-28,1,0.00010595374501112012,0.00022513766222912872,-0.0036814287110045504,0.006670842716580708,0.9907516044419752
2016-03-30,1,0.0006138187550513115,0.0008079554674044569,-0.004493437961432157,0.005761958131357216,0.9907193479629357
2016-04-01,1,0.0009758234736706572,0.00120843633803158,-0.005310974457237775,0.00256757337885813,0.9912692220364588
2016-04-05,1,0.00045036339028133927,0.0005938800466602735,-0.005310974457237775,0.005761958131357216,0.990365011069056
2016-04-07,1,0.001022784743176539,0.0012568845842414358,-0.005310974457237775,0.001792471140682202,0.9907812936825257
2016-04-11,1,0.00048111484289938477,0.0005947140574434696,-0.005310974457237775,0.0033317535753045724,0.9909549142732093
2016-04-13,1,0.000328750836314616,0.0004441337037318229,-0.005310974457237775,0.0033317535753045724,0.9908872207184566
2016-04-15,1,0.0006380270298023967,0.0008173501103283211,-0.008458370074897956,0.001792471140682202,0.9907477559071707
2016-04-19,1,0.0010858169338344614,0.0013516123101419177,-0.009320646031087747,0.0013237451174066192,0.9900046730321495
2016-04-21,1,0.000984758396856343,0.0012291972164718823,-0.009320646031087747,0.0013237451174066192,0.9899632188632409
2016-04-25,-1,-0.00081909175764978,-0.000812911993251844,-0.008458370074897956,0.0012544664456931548,0.9927811257231941
2016-04-27,-1,-0.0011190769279442229,-0.0010784031048103973,-0.0060320988358250425,0.0015846351255418083,0.9924732875976144
2016-04-29,-1,-0.0012170107238933517,-0.0011783796061379474,-0.005204172223294848,0.0025012885638904534,0.9926958582883846
2016-05-03,-1,-0.000942004359757761,-0.0009366819944599898,-0.004834662112293278,0.0015846351255418083,0.9944226619070714
2016-05-05,-1,-0.0008692679631412727,-0.0008558335886927446,-0.004834662112293278,0.0012544664456931548,0.9944937307477549
2016-05-09,-1,-0.0010668770917363606,-0.0010171838230995664,-0.005200660721710986,0.0012544664456931548,0.9938300509891261
2016-05-11,-1,-0.0010364986537683967,-0.0010018495629675076,-0.004834662112293278,0.0012544664456931548,0.9952501420482607
2016-05-13,-1,-0.0014857785327149998,-0.0013721401839527753,-0.004834662112293278,0.0015970456512378172,0.9950552348795392
2016-05-17,-1,-0.0014237234759893554,-0.0013475731449993271,-0.004109755457018441,0.0026784572050225688,0.9950587861188952
2016-05-19,-1,-0.001350085708144144,-0.0012923220744075988,-0.003959688445242316,0.0031367108287514555,0.9948590134454048
2016-05-23,-1,-0.0009878255512441652,-0.000982528389458668,-0.003959688445242316,0.0040688755792248265,0.9944352163046157
2016-05-25,-1,-0.0008207821359883622,-0.0008072709177393648,-0.0037259862713315385,0.0040688755792248265,0.9948194275601369
2016-05-27,-1,-0.0010583094752885573,-0.0010167103985328628,-0.004149945317938009,0.0040688755792248265,0.9930164939706537
2016-06-01,-1,-0.001670864900104181,-0.0015150741958777497,-0.003959688445242316,0.008161117048177288,0.9903373437183365
2016-06-03,-1,-0.0013601766171515237,-0.0012677153266023315,-0.003959688445242316,0.008161117048177288,0.9900790876949874
2016-06-07,-1,-0.0007135042839189771,-0.0007087317468662884,-0.0038850089232947194,0.006964010396429738,0.9910576643767097
2016-06-09,-1,-0.0006488542099147101,-0.0006456112984411909,-0.003959688445242316,0.006964010396429738,0.9909707372974279
2016-06-13,-1,-0.0012986758593446944,-0.0011903817875532447,-0.0038850089232947194,0.008161117048177288,0.9905689607020596
2016-06-15,-1,-0.0003378933163618329,-0.00024942345119354685,-0.0038857047122239034,0.008161117048177288,0.9894969130112293
2016-06-17,-1,-0.00029314839291446043,-0.0002008743377776995,-0.004652427895710005,0.008161117048177288,0.9893049230843991
2016-06-21,1,0.00019686572200032526,0.000378798277408138,-0.004652427895710005,0.010448662729461891,0.9888993389592793
2016-06-23,1,0.0008915080876349656,0.0012208224236569302,-0.004652427895710005,0.008458404570105032,0.9892507708898715
2016-06-27,-1,-0.00036678061116091363,-0.00023968573711854584,-0.003184714082414228,0.008458404570105032,0.9910346683818456
2016-06-29,-1,-0.0003262604752520979,-0.0002544050088606528,-0.0034867463475261045,0.006214947095788618,0.9931009732363848
2016-07-01,-1,-0.00024419052781361023,-0.00018324524186209097,-0.004652427895710005,0.005459355437892227,0.9930662303032008
2016-07-06,-1,-0.0005461539122666548,-0.0004289277992235976,-0.007398562845376019,0.005459355437892227,0.9918745947541058
2016-07-08,-1,-0.00039909257817315983,-0.00033199563108397986,-0.008050471444367477,0.006214947095788618,0.9914382080377133
2016-07-12,1,0.0001090750690076304,0.00011045277061766733,-0.008725266342483438,0.005459355437892227,0.9919079395718603
2016-07-14,1,0.0003767672385990414,0.0004429171538530298,-0.008050471444367477,0.005459355437892227,0.9931984555089849
2016-07-18,-1,-0.0002415298750070613,-0.00020414544517427183,-0.007398562845376019,0.005459355437892227,0.9936672723616712
2016-07-20,1,0.00011860771812347697,0.00012227707760206928,-0.007398562845376019,0.005459355437892227,0.993942692973487
2016-07-22,1,0.0006439848087304945,0.0007562903098534743,-0.008240610112767062,0.0031820103746972176,0.9933436363715842
2016-07-26,1,0.0005683179843195643,0.0006350537986169692,-0.008240610112767062,0.0065694164994701786,0.9923981936284877
2016-07-28,1,0.0002250148456541425,0.00023337395844706522,-0.00775025359034773,0.0076479827555689835,0.9924234655697176
2016-08-01,-1,-0.0005688728967797036,-0.000437195243533663,-0.008738674522637341,0.0076479827555689835,0.9926032017214214
2016-08-03,-1,-0.0011353907588005409,-0.0009540324994181738,-0.005389591790325912,0.0076479827555689835,0.9935898881121504
2016-08-05,-1,-0.0007506319744830567,-0.000645864488411919,-0.004184276780772051,0.004529605982856861,0.9942527171665013
2016-08-09,-1,-0.001046298496259353,-0.000920013196985873,-0.0032521970462584546,0.005918578052998184,0.9943809466467689
2016-08-11,-1,-0.0009619961577321905,-0.0008330166596018081,-0.005389591790325912,0.0039662445419458466,0.993246297936091
2016-08-15,-1,-0.0012306456221197193,-0.0010605470848092458,-0.00741991130162069,0.005672349075710292,0.9924789768273301
2016-08-17,-1,-0.0007812383524167873,-0.0006690976962846953,-0.00741991130162069,0.00426086925312893,0.9927444224677727
2016-08-19,-1,-0.0009167512422956416,-0.000819522000920574,-0.00741991130162069,0.00426086925312893,0.992506582823832
2016-08-23,1,0.0006276131199766731,0.0007834642562642014,-0.00741991130162069,0.00426086925312893,0.9927127995723651
2016-08-25,1,0.0008303336024728953,0.000988910616169705,-0.00741991130162069,0.00426086925312893,0.9930176929358984
2016-08-29,1,0.00200351686328705,0.0024647298017697293,-0.0070729487434437605,0.00426086925312893,0.9928407035753427
2016-08-31,1,0.0015623871292373564,0.001957443463071413,-0.007828473448067235,0.00426086925312893,0.9927704408270654
2016-09-02,1,0.0006654905087008286,0.0008350351008995801,-0.007828473448067235,0.005384083298103786,0.9921756472530033
2016-09-07,1,0.0008510822752591888,0.0010552954446602651,-0.007828473448067235,0.0042897359391455454,0.992008696467039
2016-09-09,1,7.863010326377567e-05,0.00019396133135110615,-0.006027845519857911,0.005608468381340141,0.993415619506096
2016-09-13,0,-7.29568670112222e-05,1.7884168029925986e-05,-0.006027845519857911,0.0042897359391455454,0.993906501035495
2016-09-15,-1,-0.00041534907373619393,-0.0004119510284131719,-0.006027845519857911,0.004769055288740196,0.9937856720283155
2016-09-19,-1,-0.001203666928601414,-0.0010882910487649933,-0.005595338204908112,0.004769055288740196,0.994464790593279
2016-09-21,-1,-0.0008071289706124475,-0.0007221350155664533,-0.005595338204908112,0.003215554281413995,0.9947390324725224
2016-09-23,-1,-0.0005510761030583296,-0.0004954384638089,-0.005595338204908112,0.003215554281413995,0.9946422603517591
2016-09-27,-1,-0.0006457361642693757,-0.0005798606212095147,-0.005595338204908112,0.004906840313926703,0.9941841181507312
2016-09-29,-1,-0.0008868563618447383,-0.0008036526648040588,-0.004348034912054653,0.004906840313926703,0.9948242099957122
2016-10-03,-1,-0.0007576952726323356,-0.0006826897178941191,-0.004402197637786334,0.0029751696925175595,0.9953152846498103
2016-10-05,-1,-0.0011374624761537997,-0.0010088546102818936,-0.0044699165249404696,0.004906840313926703,0.994747638530029
2016-10-07,-1,-0.0014087720936499144,-0.0012234975776076872,-0.006303895460960001,0.005470992229932742,0.9931853342240105
2016-10-11,-1,-0.002034995046660124,-0.0017668413927918293,-0.0044699165249404696,0.008494535446580142,0.9915415062412444
2016-10-13,-1,-0.0019434693832459267,-0.0016886803195234944,-0.006669850261614056,0.008494535446580142,0.9911038926882983
2016-10-17,-1,-0.0019004550103112058,-0.0016690502317693054,-0.004280588539980009,0.008494535446580142,0.9907410824344214
2016-10-19,-1,-0.0015741677470167646,-0.0013823972621459242,-0.002988051931509049,0.008494535446580142,0.9902346410639885
2016-10-21,-1,-0.001337897276874754,-0.001163418682133941,-0.003222603382191681,0.007832246975585844,0.9904800119289954
2016-10-25,-1,-0.0014029719720014132,-0.0012140365018959171,-0.001197821307473897,0.007832246975585844,0.9901092476324747
2016-10-27,-1,-0.0011481796818845341,-0.0010121215984582794,-0.0017688439330390887,0.008456946736820986,0.9897005069662301
2016-10-31,-1,-0.0013954559704520608,-0.0012415480915252193,-0.000907302750307673,0.00937492592879521,0.9892151402103772
2016-11-02,-1,-0.0016096353246163788,-0.0014153196524240353,-0.000907302750307673,0.009504124216865967,0.9894659153822589
2016-11-04,-1,-0.001205453796618464,-0.0010697045804400076,-0.000907302750307673,0.008500012832844572,0.9903553430590832
2016-11-08,-1,-0.000549637106115006,-0.0004901442774341543,-0.001140719797682907,0.008500012832844572,0.9912210496620251
2016-11-10,-1,-0.0011740249998396604,-0.0010595100346228166,-0.001140719797682907,0.008500012832844572,0.9917141831725771
2016-11-14,-1,-0.000583990032848969,-0.0005524968607578986,-0.001140719797682907,0.009220060888501452,0.9920328334288828
2016-11-16,-1,-0.0004477248785930088,-0.0003595193631604806,-0.002098539842591346,0.008468328859797238,0.9919735368548596
2016-11-18,1,0.0005779223270964361,0.0007132763466989421,-0.002098539842591346,0.008468328859797238,0.9924961626456051
2016-11-22,1,0.0014911195799874885,0.001756363285130758,-0.0029432296006469774,0.005858873178431409,0.993246388267472
2016-11-25,1,0.0015733980567321005,0.0018400354568361061,-0.003705135227486226,0.00335676324675486,0.9932187141806553
2016-11-29,1,0.0019213620284065347,0.0022247913808696547,-0.004815849853865821,0.0010767180180138603,0.9927119192548333
2016-12-01,1,0.002524898215549515,0.002943614097215058,-0.006551177212635685,0.00047214735065126564,0.9919643766638603
2016-12-05,1,0.0020720602363492545,0.0024349094333697787,-0.004815849853865821,0.00047214735065126564,0.9929046618559317
2016-12-07,1,0.0026018063358095866,0.00300699640698381,-0.004815849853865821,0.0010767180180138603,0.9930249804471958
2016-12-09,1,0.0028286289684898236,0.003289127116810284,-0.005559980091315478,0.0027490444622162765,0.9920353982395035
2016-12-13,1,0.0033060984286527144,0.003843894200531762,-0.005559980091315478,0.001600697731795968,0.9919921184121803
2016-12-15,1,0.002526295160916722,0.0029779061607937934,-0.003452912603870149,0.0028949350206280877,0.9936853320235136
2016-12-19,1,0.002452731709775691,0.0028911273552667954,-0.004754146233845303,0.004790350435021967,0.9931996082795935
2016-12-21,1,0.0020972468227608496,0.0024649641500345803,-0.0043543524741194994,0.004790350435021967,0.9933746827242693
2016-12-23,1,0.0012837812642949573,0.0014828334016439518,-0.0033196480172948814,0.007917552771283413,0.9933779022621818
2016-12-28,1,0.0008399461648932265,0.0009796462387247392,-0.004001936999172384,0.007917552771283413,0.9917454508505835
2016-12-30,1,3.7016454757309676e-05,3.731467187200621e-05,-0.004001936999172384,0.007917552771283413,0.9916070243841658
2017-01-04,1,0.00047368755254508925,0.000545839957857883,-0.004441030046453615,0.005276441601863633,0.9911103735111427
2017-01-06,1,0.0011520433705965163,0.001302861894103529,-0.004441030046453615,0.005276441601863633,0.9903931650712712
2017-01-10,1,0.001621066656906755,0.0018564877074428582,-0.005264549336104984,0.003962953021048619,0.9909450824533821
2017-01-12,1,0.001363668780072861,0.0015265177659370913,-0.005264549336104984,0.007449421549864999,0.9904784109589723
2017-01-17,1,0.0018334213833649223,0.0021188299094877998,-0.005264549336104984,0.007913081672227174,0.9902333600193506
2017-01-19,1,0.0020641702464352365,0.0024147352552602664,-0.004001936999172384,0.007603869378308498,0.9907096298732392
2017-01-23,1,0.0017867579336668,0.002079696833212373,-0.003962247328634882,0.008953453147166997,0.9905376811508029
2017-01-25,1,0.002157503623409121,0.0024736998763213967,-0.003962247328634882,0.007603869378308498,0.9909699961586413
2017-01-27,1,0.0016533181234064315,0.0018991827021017302,-0.0030619168432593014,0.007603869378308498,0.9924751972479067
2017-01-31,1,0.001086639913672931,0.001262791182416022,-0.0020390414245345352,0.007603869378308498,0.9932700316469428
2017-02-02,-1,-0.00017526676877761152,-0.0001240531076811566,-0.0007607010397344114,0.007603869378308498,0.9941810853295956
2017-02-06,1,0.0009766753694194258,0.0010538668576087267,-0.002408713894769561,0.004797939548650696,0.9950878951392795
2017-02-08,1,0.0005720628661744051,0.0005997621699948192,-0.0039207568063058095,0.004797939548650696,0.9946645194477765
2017-02-10,1,0.0008219689088834808,0.0008308532136505537,-0.007562872819684119,0.0022036794717595247,0.9947587948794526
2017-02-14,1,0.001393646832803463,0.0015198055693930667,-0.007562872819684119,0.0022036794717595247,0.9946046423885632
2017-02-16,1,0.0016079092817210096,0.0017781583641497093,-0.007562872819684119,0.003671694366982406,0.9939501664786631
2017-02-21,1,0.0020039287924316115,0.0022113079291255517,-0.007562872819684119,0.001647274648817634,0.9938633761413509
2017-02-23,1,0.0016928841114177014,0.0018209610623562958,-0.007562872819684119,0.0025623407705371456,0.9937917157071664
2017-02-27,1,0.0011027700751116728,0.0011628818307812378,-0.006781218848317109,0.004819117587278927,0.9937169374763317
2017-03-01,1,0.0010495825733451184,0.0010751839093511599,-0.006781218848317109,0.004819117587278927,0.9937517066358645
2017-03-03,1,0.000955895493308269,0.0009692586638093549,-0.006781218848317109,0.005306783807472935,0.9932528959085821
2017-03-07,-1,-0.00017776223728016257,-3.0561624045816074e-05,-0.002749490087021821,0.005306783807472935,0.9937740337572646
2017-03-09,-1,-0.0010665104052942729,-0.0008124687993369381,-0.0017993310796225455,0.005306783807472935,0.9940981403101123
2017-03-13,-1,-0.0017196083564986156,-0.0013769152074379486,-0.001333519312368481,0.005306783807472935,0.9943799145649508
2017-03-15,-1,-0.0016786928219691432,-0.0013542260895647224,-0.0013346123179576504,0.005150768623676926,0.9947670728492414
2017-03-17,-1,-0.00046362703049001534,-0.00029930062451804645,-0.0013404834770364992,0.004541384317368489,0.9956988988665949
2017-03-21,-1,-0.0007696257029837391,-0.000567292746986832,-0.0012098896484126387,0.00657456073534621,0.9950702947670645
2017-03-23,-1,-0.0006347918965268263,-0.00044089893640051996,-0.0012098896484126387,0.009094008259722158,0.9940738076772683
2017-03-27,1,0.0001243791202307259,0.00025588838331599913,-0.0013404834770364992,0.008392485439218887,0.9949311604585148
2017-03-29,1,0.00023237202905878875,0.00035359900963983826,-0.0017993310796225455,0.009076802333423303,0.9944910291086785
2017-03-31,1,0.0010846485066940566,0.0010978219076217387,-0.0021536811531870656,0.008392485439218887,0.9940126506238748
2017-04-04,1,0.0011116577781692017,0.0011396816632584972,-0.0018996423713340308,0.008392485439218887,0.9939622945398708
2017-04-06,0,-0.00013977508921214263,6.678998776861434e-05,-0.0012098896484126387,0.008392485439218887,0.99396971144172
2017-04-10,1,7.723176542134797e-05,0.0002335173400681385,-0.0012098896484126387,0.008392485439218887,0.9941071633005221
2017-04-12,1,0.00014176449861105962,0.00024980077495863654,-0.0015254743626989958,0.008392485439218887,0.9938351946399288
2017-04-17,1,0.0005360413573233132,0.000588840354392722,-0.002896850364931429,0.0083562970718291,0.9937601293183852
2017-04-19,1,0.0015046054744538436,0.0016227304679825643,-0.004479571582589345,0.0060503979942572875,0.9939103645104274
2017-04-21,1,0.002145513418748193,0.002353025693585461,-0.004479571582589345,0.004300152050611713,0.9937068089189923
2017-04-25,1,0.002510327233201693,0.0027946914872252386,-0.004479571582589345,0.002488757468693877,0.9936652437653115
2017-04-27,1,0.002735070950580439,0.0030566579915453033,-0.004437946339380907,0.004300152050611713,0.9931521823081538
2017-05-01,1,0.002423672939855409,0.0026773157221505633,-0.002631010103177842,0.005577848052429661,0.9940747467912495
2017-05-03,1,0.002967726875004897,0.003337954560464352,-0.002631010103177842,0.005739384804020373,0.9939759676130597
2017-05-05,1,0.0031542873912913843,0.0035431725131996857,-0.004287583981395456,0.00693864724634622,0.9931606998245643
2017-05-09,1,0.003339192422046741,0.0037719743723884716,-0.004796530132117561,0.00693864724634622,0.9925046467921115
2017-05-11,1,0.0022261555231785457,0.0024547367824740486,-0.004287583981395456,0.00693864724634622,0.9923256826597454
2017-05-15,1,0.0022075618171438337,0.0024260801570163224,-0.004993855480848174,0.005739384804020373,0.9917873443500665
2017-05-17,1,0.0014797815511645063,0.0015862104922356461,-0.004993855480848174,0.005739384804020373,0.9919009158979151
2017-05-19,1,0.00184233119582274,0.0019712724422170516,-0.004993855480848174,0.005739384804020373,0.992413027206794
2017-05-23,1,0.0012639328587511025,0.0012803725303234346,-0.00709939883399947,0.005739384804020373,0.9919188940247569
2017-05-25,1,0.0018964778318664919,0.0019564645467473616,-0.0082004720139706,0.0029109818862284777,0.9923744845088084
2017-05-30,1,0.0021043499462835395,0.002204153578422971,-0.010382553035830262,0.0018031299047656722,0.9917274736925441
2017-06-01,1,0.002727057512401304,0.002955933380368545,-0.0108527074156609,0.0010416891658558886,0.9906647895017
2017-06-05,1,0.002889600721641266,0.003144780682774522,-0.0108527074156609,-0.0003945250578601473,0.9910235512208162
2017-06-07,1,0.0023077506337106134,0.0024853016519884676,-0.0108527074156609,-0.0003945250578601473,0.9914696754760449
2017-06-09,1,0.001606561918938528,0.0016867401692575237,-0.008296185516792079,0.0010416891658558886,0.9925729916439556
2017-06-13,1,0.0006768083108179503,0.0007278070104909316,-0.006277360714006323,0.002185745368629393,0.9935502315781778
2017-06-15,-1,-0.00015897497737133782,-1.8426706955119326e-06,-0.005458469547682711,0.00405882827781964,0.9939702521135209
2017-06-19,1,0.0007254086013833964,0.000748743924871923,-0.0062305676249998655,0.002185745368629393,0.993876250331988
2017-06-21,-1,-0.00020942591486243901,-6.734114368828144e-05,-0.005458469547682711,0.002100461022387024,0.9949746721037502
2017-06-23,-1,-0.0008565693037928134,-0.0006007354877831679,-0.004302560249821127,0.0009066383171577444,0.9958031112471997
2017-06-27,-1,-0.0020210609862923424,-0.0015944942664349025,-0.004302560249821127,0.002100461022387024,0.9955732555556309
2017-06-29,-1,-0.001092806724629439,-0.0008822786421717779,-0.004302560249821127,0.0027948778324788327,0.9904981378747809
2017-07-03,-1,-0.0013503410916238788,-0.0011032353133318806,-0.004302560249821127,0.006791506333551504,0.9897668227838984
2017-07-06,-1,-0.0013849006706324715,-0.0011577861816815076,-0.002226273390161652,0.008012888607217671,0.9892037704602129
2017-07-10,-1,-0.001199599490887385,-0.00100213072432158,-0.002226273390161652,0.007165463463992413,0.9894115790289434
2017-07-12,-1,-0.0008599462330511505,-0.0007032165013384328,-0.00506224216619595,0.00500990258002539,0.9885426394635196
2017-07-14,-1,-0.0005465294558120294,-0.0004443200013239818,-0.008092996946962144,0.003697927664556276,0.9882281497240718
2017-07-18,-1,-0.0008100245026233354,-0.0006788667713950997,-0.005837395294892718,0.003697927664556276,0.9885521099109104
2017-07-20,-1,-0.0011582663716132417,-0.0009660663901167674,-0.00905319937960876,0.005028921635680276,0.9878659604610424
2017-07-24,-1,-0.0010728549990455037,-0.0008988784181354133,-0.00905319937960876,0.0070735590773598235,0.9872333542762917
2017-07-26,-1,-0.0011200858960547168,-0.0009399513218319774,-0.007245932381157026,0.0070735590773598235,0.9866622992120941
2017-07-28,-1,-0.0013015256820587558,-0.0010794609633758044,-0.006506495698687812,0.006885447216118365,0.9920015968277484
2017-08-01,-1,-0.0012521712502147472,-0.0010128462281432176,-0.006506495698687812,0.005028921635680276,0.9924869345786078
2017-08-03,-1,-0.0010245590690017353,-0.0007979072015973009,-0.006506495698687812,0.006323461622152678,0.992642947583985
2017-08-07,-1,-0.001151390359417043,-0.0009062150090882879,-0.006506495698687812,0.006323461622152678,0.9926888733078678
2017-08-09,-1,-0.001714114262936682,-0.0014304581342824937,-0.006506495698687812,0.006323461622152678,0.9928184598896548
2017-08-11,-1,-0.002129021550654808,-0.0017878211246965892,-0.0057386361637315406,0.006879690129883209,0.992778951853442
2017-08-15,-1,-0.0020742961969791754,-0.0017464623234042728,-0.006506495698687812,0.007769195080480101,0.9918285812878576
2017-08-17,-1,-0.0017681862616262018,-0.0015063882680839292,-0.0057386361637315406,0.007769195080480101,0.9920848027381344
2017-08-21,-1,-0.0016199121218539814,-0.0013825680672666734,-0.0033203028771030285,0.00661804424360659,0.9927381696673507
2017-08-23,-1,-0.0009310437409338747,-0.0007933954693132752,-0.002551146123036353,0.00661804424360659,0.9938485671589772
2017-08-25,-1,-0.0008096485066514792,-0.0006847291515385375,-0.00253926322654363,0.004874559735885589,0.9941918217683251
2017-08-29,-1,-0.0010591317153689087,-0.0008959738381578256,-0.002538802253735551,0.004874559735885589,0.9941631369029431
2017-08-31,-1,-0.0006854039272841822,-0.0005657087448217523,-0.004127361075443292,0.0033670358966705646,0.9939107829582935
2017-09-05,-1,-0.0006778054771999587,-0.0005497613191934778,-0.004127361075443292,0.0032930602027307155,0.9939019184913626
2017-09-07,-1,-0.0013756347436225296,-0.0011762747661859512,-0.002538802253735551,0.0036139975964018275,0.994546248632123
2017-09-11,-1,-0.000810965551949078,-0.0006997048184669481,-0.002539902056356452,0.0036139975964018275,0.9945677695071966
2017-09-13,-1,-0.00023775252780120962,-0.0002273322104860029,-0.002538802253735551,0.0040824471950120286,0.9951210403665448
2017-09-15,1,4.8133838286629926e-05,8.373279203026583e-05,-0.002539902056356452,0.004460035612853632,0.9950179676050873
2017-09-19,1,0.0001148906364604092,0.00016831114745867565,-0.0031557902856764824,0.004460035612853632,0.9940231394056213
2017-09-21,1,0.00010255751912448084,0.0001325061174508804,-0.0031557902856764824,0.004460035612853632,0.9938227837292642
2017-09-25,1,0.00018295828030409931,0.00023510522417583563,-0.0059443029758311115,0.004460035612853632,0.9930094927917481
2017-09-27,1,0.0003055496551935433,0.0003842869936653456,-0.0059443029758311115,0.004460035612853632,0.9931756937161306
2017-09-29,-1,-0.0002589641650289774,-0.0002530651364727106,-0.0031557902856764824,0.006265773894159365,0.9935734836042367
2017-10-03,-1,-0.00026415203375926467,-0.00025322455531556385,-0.004724386901058938,0.006265773894159365,0.9933024215678764
2017-10-05,1,0.00010755383733595039,0.00015004400862172633,-0.004911501175080512,0.0054488501300803925,0.9934930180474975
2017-10-09,1,0.00018854614887282584,0.00022030632676999184,-0.004911501175080512,0.006265773894159365,0.9926367847567946
2017-10-11,1,0.0008978342144116859,0.0010669988391387203,-0.004911501175080512,0.01010083702714533,0.9921019022039927
2017-10-13,1,0.0008716358076937869,0.0010310535927225777,-0.005679465367259856,0.01010083702714533,0.9917722505996207
2017-10-17,1,0.0007112133625851078,0.0008971635485175703,-0.0055178329168356815,0.01010083702714533,0.992357240122256
2017-10-19,1,0.0012980615575683488,0.0015730997395567528,-0.0055178329168356815,0.009552296817487805,0.9923945119099947
2017-10-23,1,0.0009160534721033433,0.0011563249814051683,-0.0048910773804749855,0.009552296817487805,0.993054419743591
2017-10-25,1,0.001020000305021178,0.0012876787171025553,-0.0048910773804749855,0.009552296817487805,0.9927781703896995
2017-10-27,1,0.0012457892790511196,0.0015254294858373305,-0.005671671445833295,0.008321771436206698,0.9922905407054848
2017-10-31,1,0.0011085015503248712,0.0012993373553719873,-0.005456561533019101,0.01010083702714533,0.9915386189404636
2017-11-02,1,0.000856887346669302,0.0009867957071941318,-0.005671671445833295,0.01010083702714533,0.9913088627453547
2017-11-06,1,0.0014551379577688217,0.0016797141112778738,-0.005671671445833295,0.010275572862873538,0.9911507873726052
2017-11-08,1,0.0022518069456399243,0.0026029923003709162,-0.005671671445833295,0.008321771436206698,0.9917234214182943
2017-11-10,1,0.0015501982890499964,0.001781757039032972,-0.005549437800693533,0.008321771436206698,0.9918959574369463
2017-11-14,1,0.0014466013179206343,0.0016591417188912675,-0.004383985086710542,0.008321771436206698,0.9922990691585982
2017-11-16,1,0.0013440974755920157,0.0015185148815963024,-0.005549437800693533,0.00786662742080103,0.99161100001534
2017-11-20,1,0.0009574988747062518,0.0010627976549584118,-0.00483294475015494,0.00786662742080103,0.9917088932557915
2017-11-22,1,0.001038063720104145,0.0011487498394421223,-0.005107624890671133,0.006004911775996115,0.9917310231864269
