JNU-Tangyin/eata/results/Batch4_SP500/Batch4_SP500-LRCX.csv
Date,Action,Predicted_Q25,Predicted_Q75,Actual_Q25,Actual_Q75,RL_Reward
2010-12-14,0,0.0,0.0,-0.010656694767931936,0.0090206947274395,0.9890089748549538
2010-12-16,1,0.008418008792264047,0.0095124430956809,-0.0058824851415845165,0.010172490146877069,0.9857178553545268
2010-12-20,1,0.0088177444177472,0.009950604698890048,-0.010656694767931936,0.0090206947274395,0.9830270190934242
2010-12-22,1,0.009107093233959536,0.010276691140211949,-0.010656694767931936,0.005086948335979719,0.981656916296141
2010-12-27,0,0.0,0.0,-0.009118984419989847,0.010487905331330373,0.983722606807332
2010-12-29,0,0.0,0.0,-0.010768970422733927,0.015012318040411747,0.98078194279247
2010-12-31,0,0.0,0.0,-0.016344490706167412,0.015012318040411747,0.9792152284607533
2011-01-04,0,0.0,0.0,-0.009291509841041837,0.017791085147337536,0.9786467020431371
2011-01-06,0,0.0,0.0,-0.005730329115815398,0.021235447876625606,0.9797502196791815
2011-01-10,0,0.0,0.0,-0.005730329115815398,0.016330678117110108,0.9807612792635392
2011-01-12,0,0.0,0.0,-0.005730329115815398,0.015656062635584833,0.9815154922080257
2011-01-14,0,0.0,0.0,-0.005730329115815398,0.012981411959806085,0.9834789746890318
2011-01-19,0,0.0,0.0,-0.0056073428419501185,0.012981411959806085,0.984729387039873
2011-01-21,0,0.0,0.0,-0.001042899893350876,0.019970434847662172,0.9832131845101743
2011-01-25,-1,-0.0015584068143124183,-0.0012225866122879485,-0.011546025161339273,0.015656062635584833,0.9822589253811655
2011-01-27,1,0.001676867320240275,0.0018806761381769423,-0.0037926252604682954,0.019970434847662172,0.982850748716073
2011-01-31,1,3.2856710287087825e-05,0.00011367874617112408,-0.004354938003302233,0.019970434847662172,0.9844983021992754
2011-02-02,1,0.0004758703036888795,0.0005253841067147793,-0.001790596262151007,0.02059285974880927,0.9841226552781939
2011-02-04,-1,-0.00045273371259667967,-0.00012606221846134572,-0.004354938003302233,0.02059285974880927,0.9838699949444462
2011-02-08,0,0.0,0.0,-0.009315026552382668,0.02059285974880927,0.9801129507127667
2011-02-10,0,0.0,0.0,-0.01630259418239519,0.02059285974880927,0.9786403343217522
2011-02-14,1,0.0002509408207907901,0.0004899811942395984,-0.01630259418239519,0.02059285974880927,0.978810866407664
2011-02-16,1,0.001013321768371156,0.0011289795443723302,-0.022466769798487413,0.02059285974880927,0.9780914866405581
2011-02-18,0,0.0,0.0,-0.022466769798487413,0.019984973641168545,0.9784118646455398
2011-02-23,0,0.0,0.0,-0.013359070811825632,0.021873352647149125,0.9789587228908124
2011-02-25,0,0.0,0.0,-0.013359070811825632,0.021156737847443065,0.9805099482489483
2011-03-01,0,0.0,0.0,-0.013359070811825632,0.021156737847443065,0.9800150947963051
2011-03-03,0,0.0,0.0,-0.013359070811825632,0.01764839433589667,0.9819446264630605
2011-03-07,1,0.0016926259316493025,0.0018256373425621427,-0.013359070811825632,0.01764839433589667,0.982012360557789
2011-03-09,1,0.0010383197456242511,0.0012344374739149927,-0.007454428801115145,0.01786420548150562,0.9851546794163124
2011-03-11,-1,-0.002523578151838968,-0.0019010191635406525,-0.013359070811825632,0.01786420548150562,0.9837223660403909
2011-03-15,0,0.0,0.0,-0.01878330069827852,0.01786420548150562,0.9825822277057752
2011-03-17,-1,-0.0015626223725240676,-0.0011570467722910515,-0.014881828771566878,0.01786420548150562,0.983232745024431
2011-03-21,-1,-0.0016618814874766726,-0.0011619747816945481,-0.01878330069827852,0.01717352707943927,0.9823568580003532
2011-03-23,-1,-0.0029454560661801763,-0.0025568840718612983,-0.014881828771566878,0.01717352707943927,0.9828803411171982
2011-03-25,1,0.0005762145580210276,0.0006705323128587955,-0.01902715959809699,0.011391047966003268,0.9809163230272726
2011-03-29,0,0.0,0.0,-0.01902715959809699,0.00759079511924321,0.9816632485194554
2011-03-31,0,0.0,0.0,-0.01902715959809699,0.003511321713209263,0.9819972960631052
2011-04-04,0,0.0,0.0,-0.01902715959809699,0.003511321713209263,0.9821399220270913
2011-04-06,0,0.0,0.0,-0.01902715959809699,0.004743674781068192,0.9827602125395725
2011-04-08,0,0.0,0.0,-0.012101125246208448,0.007442620938957216,0.9847932688132194
2011-04-12,0,0.0,0.0,-0.012101125246208448,0.004743674781068192,0.9850993818604735
2011-04-14,-1,-0.0036207193406995503,-0.0027873958454603786,-0.008289126052625169,0.004743674781068192,0.9867688612247727
2011-04-18,-1,-0.005092671384617146,-0.004157804034099058,-0.007409830441330095,0.00369834901063225,0.9885573902727673
2011-04-20,0,0.0,0.0,-0.008940412985825196,0.00369834901063225,0.989037513518721
2011-04-25,-1,-0.005684786685833309,-0.004848876605511045,-0.008940412985825196,0.00369834901063225,0.9916118530888484
2011-04-27,-1,-0.004429206835815761,-0.003841479875326918,-0.011704070833081207,0.00369834901063225,0.991258544715763
2011-04-29,-1,-0.004632120121426799,-0.004054987564330441,-0.009066183999195985,0.0054254269286939105,0.9907273160199448
2011-05-03,-1,-0.005242571095031827,-0.004622029011473661,-0.009066183999195985,0.008184868898430522,0.9898591311383703
2011-05-05,-1,-0.00411157136270195,-0.003669254652914751,-0.01225321851452746,0.007803048805791867,0.9896431450948647
2011-05-09,-1,-0.0031910598656825625,-0.0028832624212661194,-0.01225321851452746,0.007803048805791867,0.9898465157107128
2011-05-11,-1,-0.004241460950673049,-0.0037783026539775625,-0.01225321851452746,0.007803048805791867,0.9901792947814912
2011-05-13,-1,-0.0036350022926805864,-0.003275269048650514,-0.01290397231052688,0.007803048805791867,0.9900118580994901
2011-05-17,0,0.0,0.0,-0.013926529261046478,0.008193976627643084,0.9878168894568892
2011-05-19,0,0.0,0.0,-0.015871440782900505,0.007803048805791867,0.9870236146703276
2011-05-23,-1,-0.0026659657382869786,-0.002344508846502352,-0.015799240121295837,0.007803048805791867,0.9884481583455613
2011-05-25,0,0.0,0.0,-0.013948818117717005,0.009323911258467316,0.9875698311940689
2011-05-27,0,0.0,0.0,-0.013948818117717005,0.009323911258467316,0.9879214283372789
2011-06-01,0,0.0,0.0,-0.013948818117717005,0.00811272570948108,0.9893703558305951
2011-06-03,0,0.0,0.0,-0.010693222154533827,0.01025314952838453,0.9884879156228749
2011-06-07,-1,-0.00020861335313624726,-0.00012929821516650437,-0.015871440782900505,0.009323911258467316,0.9875051612167937
2011-06-09,0,0.0,0.0,-0.013954152209310091,0.01025314952838453,0.9860997953674846
2011-06-13,0,0.0,0.0,-0.01600218308287767,0.012647015907491925,0.9838491054887855
2011-06-15,0,0.0,0.0,-0.01600218308287767,0.01025314952838453,0.9845542593802629
2011-06-17,0,0.0,0.0,-0.01341880357757032,0.01025314952838453,0.9853722749523505
2011-06-21,0,0.0,0.0,-0.01341880357757032,0.011244650376442686,0.9849840441454194
2011-06-23,-1,-0.004245248057415177,-0.0037141674233070127,-0.01341880357757032,0.02256401759002445,0.9831767911289683
2011-06-27,-1,-0.003829752780047199,-0.0033923366429630016,-0.01341880357757032,0.02256401759002445,0.983474847582726
2011-06-29,0,0.0,0.0,-0.015677212498887864,0.02256401759002445,0.9812958083632249
2011-07-01,0,0.0,0.0,-0.01712157500896551,0.01118865475901715,0.9813665204706801
2011-07-06,0,0.0,0.0,-0.01645238434938197,0.01118865475901715,0.9818240177784782
2011-07-08,-1,-0.002843520628880092,-0.0028404783756519635,-0.02170188140139176,0.008110997253673242,0.9813933279591506
2011-07-12,-1,-0.003624014262061581,-0.0034938662061095166,-0.02170188140139176,0.008110997253673242,0.9801397059778119
2011-07-14,-1,-0.002145798287767277,-0.002048008855955699,-0.0187071751903259,0.013078971161616541,0.9773935858495169
2011-07-18,-1,-0.003235609260320609,-0.0030297159642526973,-0.017853977839712234,0.023380431839135647,0.9768454018468148
2011-07-20,-1,-0.0018069025834266364,-0.0017259398081580844,-0.027641295513669777,0.013276618938688232,0.9763984752486349
2011-07-22,-1,-0.0007586232431190771,-0.0005357756332378445,-0.030532901389390087,0.0038358795250908054,0.97581097804462
2011-07-26,0,-0.00016309991650392125,0.00021094376107613018,-0.030532901389390087,0.008110997253673242,0.9738852841152422
2011-07-28,-1,-0.0008839738291732021,-0.0006491120055600114,-0.028945635110943824,0.004300808551911261,0.9746570414103004
2011-08-01,-1,-0.0022783030815721854,-0.0022105759363531124,-0.027641295513669777,0.026066880579683004,0.9736455392065904
2011-08-03,-1,-0.0024154932905642848,-0.0022909948243945346,-0.026201411301488096,0.026066880579683004,0.9736616000223557
2011-08-05,-1,-0.00436093087187617,-0.004025227777107072,-0.018159373627695354,0.026066880579683004,0.9760825099341642
2011-08-09,-1,-0.003906825023982934,-0.003592499072455238,-0.016330626019224807,0.026066880579683004,0.9774403005159449
2011-08-11,-1,-0.0025640439280741746,-0.0024262553457488917,-0.016330626019224807,0.01406672940838522,0.9795687829862182
2011-08-15,-1,-0.0012695994805208108,-0.0012224061283339534,-0.016330626019224807,0.01406672940838522,0.9793400563515361
2011-08-17,0,0.0,0.0,-0.015428299870696601,0.026360903320950254,0.9786444062486318
2011-08-19,0,0.0,0.0,-0.015428299870696601,0.026360903320950254,0.9798808773735753
2011-08-23,0,0.0,0.0,-0.016330626019224807,0.015086114916015834,0.9805326783237619
2011-08-25,0,0.0,0.0,-0.016330626019224807,0.015086114916015834,0.980571176245815
2011-08-29,1,0.0006950215411976358,0.001075105523493051,-0.016330626019224807,0.014187403570773353,0.9808946047772868
2011-08-31,-1,-0.0012717099038896942,-0.0012210986428050823,-0.016330626019224807,0.014535932443020821,0.9806165993271692
2011-09-02,-1,-0.0014454384809734098,-0.0014081092494138607,-0.01919955388765776,0.014535932443020821,0.9797194057840126
2011-09-07,-1,-0.0011500686554378108,-0.0010709541647963986,-0.013988338067286247,0.023664769285222816,0.9785788844245343
2011-09-09,-1,-0.0011392756173842404,-0.00110150453454813,-0.01198045431298081,0.023664769285222816,0.978479570547427
2011-09-13,1,0.0010645117114043302,0.0014634142300093888,-0.01198045431298081,0.025484362799856594,0.9786260506833608
2011-09-15,1,0.0009720985356767958,0.0013116807817839184,-0.01198045431298081,0.02281974187832251,0.9791556639240414
2011-09-19,1,0.0005212759712433162,0.0008011794572291615,-0.01198045431298081,0.02281974187832251,0.9793435444414764
2011-09-21,1,0.00022407446750953585,0.00044394708731401104,-0.011710784865430054,0.02281974187832251,0.9790075630192887
2011-09-23,1,0.000516079863733331,0.0006423577013099633,-0.011710784865430054,0.02281974187832251,0.977156640367254
2011-09-27,1,0.0020970246006229137,0.0024546763364444875,-0.011710784865430054,0.021185402759095674,0.9779509144961039
2011-09-29,1,0.002460161048645046,0.0029049770841833855,-0.011074576613616787,0.029261230457686666,0.9767577035907784
2011-10-03,1,0.00011513145611793485,0.00024949087645763574,-0.006809153097687301,0.029261230457686666,0.976586405916215
2011-10-05,1,0.0027948913954071106,0.0032958980958334516,-0.017912517442603422,0.018747981937942658,0.9798895612523886
2011-10-07,1,0.003152726838565152,0.003680661937067324,-0.017912517442603422,0.02041877985652455,0.9794780997657229
2011-10-11,1,0.003941082637532901,0.004556175177247177,-0.017912517442603422,0.013972399554338636,0.9805996560477714
2011-10-13,1,0.004947705733426706,0.005684591381770929,-0.01901308012824824,0.011501060901639576,0.9796619826872022
2011-10-17,0,0.0,0.0,-0.017912517442603422,0.013972399554338636,0.9782109107385188
2011-10-19,0,0.0,0.0,-0.017912517442603422,0.011501060901639576,0.9784532581454417
2011-10-21,1,0.002709960858988723,0.003143665028241341,-0.019788820124923324,0.010538969507497884,0.9778896848658835
2011-10-25,1,0.0035802480816841363,0.004134439835128229,-0.02519709143474363,0.01009750562152806,0.9766287068434797
2011-10-27,1,0.00559120159108565,0.006453914054703209,-0.027160456363936,0.008016189627069447,0.977260842638211
2011-10-31,0,0.0,0.0,-0.02519709143474363,0.008016189627069447,0.9795759691819871
2011-11-02,1,0.004082418316196302,0.004672579659586765,-0.02519709143474363,0.013078890857951336,0.9754302986614019
2011-11-04,0,0.0,0.0,-0.02519709143474363,0.014417260671156071,0.9761810185635795
2011-11-08,0,0.0,0.0,-0.02519709143474363,0.014417260671156071,0.9765834646527048
2011-11-10,0,0.0,0.0,-0.025169509347997946,0.016161522825456735,0.9764243586355618
2011-11-14,0,0.0,0.0,-0.026840305974524387,0.014417260671156071,0.9768800910697502
2011-11-16,0,0.0,0.0,-0.027160456363936,0.014417260671156071,0.9736648115081776
2011-11-18,0,0.0,0.0,-0.02707771010369894,0.014417260671156071,0.9757638168133598
2011-11-22,1,0.000960655644398788,0.001207475221348758,-0.019769397204326383,0.019061540623087486,0.9762999755898855
2011-11-25,-1,-0.0008500243270180024,-0.0008004573236781742,-0.013679870236879003,0.019061540623087486,0.9772931349460056
2011-11-29,0,0.0,0.0,-0.014662643241077335,0.01540788404369879,0.9779936750855329
2011-12-01,0,0.0,0.0,-0.014662643241077335,0.0128236467638699,0.9821352292954936
2011-12-05,0,0.0,0.0,-0.014662643241077335,0.004880062621097739,0.9830445244553225
2011-12-07,0,0.0,0.0,-0.014662643241077335,0.012365569092311722,0.9815350058691172
2011-12-09,0,0.0,0.0,-0.012760210769512911,0.012365569092311722,0.9823860514734585
2011-12-13,1,0.0012036587463669151,0.0014979645655908227,-0.007007196089695046,0.014009700255691787,0.9843318550753354
2011-12-15,0,0.0,0.0,-0.003768736614510089,0.01864223181094006,0.9853309064072895
2011-12-19,-1,-0.0016829180578555815,-0.0015091177488453268,-0.00039040640882087737,0.020439040582446905,0.9836371759658331
2011-12-21,0,0.0,0.0,-0.0021277907630781316,0.01715914972286622,0.9867453871357618
2011-12-23,0,0.0,0.0,-0.0021277907630781316,0.020439040582446905,0.985416187552349
2011-12-28,-1,-0.0015368861628953809,-0.0010865115378808682,-0.0021277907630781316,0.020439040582446905,0.9837749840734771
2011-12-30,-1,-0.001605602429303881,-0.0011513110961363878,-0.0022786542262902016,0.020439040582446905,0.9836121782844575
2012-01-04,0,0.0,0.0,-0.0007196499130136721,0.022863251632984978,0.9821027515754998
2012-01-06,0,0.0,0.0,-0.003395739761624799,0.022863251632984978,0.9822623316314434
2012-01-10,0,0.0,0.0,-0.003395739761624799,0.020070178815997403,0.9832997040191388
2012-01-12,0,0.0,0.0,-0.012423161239065497,0.017036195800716386,0.9829752337968046
2012-01-17,1,0.00011793459172117356,0.000210789999191715,-0.010890397055570267,0.013293390620094348,0.9861424751363801
2012-01-19,1,0.0007831827731496702,0.0008629049839535989,-0.010890397055570267,0.007219599176345054,0.9872259022943286
2012-01-23,1,0.0018996084113194285,0.0020575607612382733,-0.015486134937394418,0.007219599176345054,0.984641594114982
2012-01-25,1,0.0020196057509727374,0.0020913991472364516,-0.015486134937394418,0.003985499491964565,0.9857104219683898
2012-01-27,1,0.000998910343259523,0.001118975163040897,-0.012423161239065497,0.0029865859920057535,0.9882923623961477
2012-01-31,1,0.0008422596129929416,0.000949508348351942,-0.010890397055570267,0.003985499491964565,0.9868878232086435
2012-02-02,1,0.0020332032258398025,0.002054075567779708,-0.012961510085816547,0.0016658711919617316,0.9875805244564282
2012-02-06,1,0.0011773198259424252,0.0011974584361737427,-0.012961510085816547,0.0016658711919617316,0.9875995225354621
2012-02-08,1,0.001593194896957805,0.0017021216911774985,-0.012961510085816547,0.0016658711919617316,0.985973171650278
2012-02-10,0,-0.00011556316706621249,2.3917169242737156e-05,-0.01031069482787918,0.006216539490682351,0.986473981097972
2012-02-14,-1,-0.0009644784302281945,-0.0006984478866242889,-0.008839415401808371,0.01882733704213713,0.9851839954858532
2012-02-16,-1,-0.0007159808693910905,-0.0004180106081971992,-0.008839415401808371,0.01723429963984529,0.9859487587269657
2012-02-21,-1,-0.0017934890931723458,-0.0014748430243046481,-0.0035885685906713073,0.01723429963984529,0.9872399238407114
2012-02-23,-1,-0.0024259860258514657,-0.0020071961762239193,-0.007014451467176767,0.01723429963984529,0.9867806001266133
2012-02-27,-1,-0.003328431885499865,-0.0027014602079053276,-0.007014451467176767,0.01723429963984529,0.9856668874901978
2012-02-29,-1,-0.0003564420464388881,-0.00021196788659976195,-0.007014451467176767,0.015694721896080774,0.9869180244298901
2012-03-02,-1,-0.0008301995968920098,-0.0006759983102255531,-0.005826311236396089,0.015694721896080774,0.9867658744936647
2012-03-06,-1,-0.0011822046820002528,-0.0010377416729471672,-0.007014451467176767,0.015694721896080774,0.9874492555024876
2012-03-08,0,0.0,0.0,-0.007710751455115021,0.0099484997017424,0.9882448742139507
2012-03-12,0,0.0,0.0,-0.010624152088293709,0.008973218747422676,0.988284686048752
2012-03-14,1,0.0017820191029710732,0.0019112674030767633,-0.010624152088293709,0.0099484997017424,0.9879605200932592
2012-03-16,1,0.0015958344550676847,0.001764141475630713,-0.012457725077147996,0.008973218747422676,0.9872356017469893
2012-03-20,0,0.0,0.0,-0.013283329431409335,0.008973218747422676,0.9865251069766916
2012-03-22,0,0.0,0.0,-0.015028570258805036,0.008973218747422676,0.9852971322167885
2012-03-26,0,0.0,0.0,-0.015028570258805036,0.008186580758082875,0.9857423279034978
2012-03-28,0,0.0,0.0,-0.013925698852670476,0.010349786587014631,0.9852473765416602
2012-03-30,1,0.0032201927963136302,0.0037247684541238672,-0.013925698852670476,0.010028557072395645,0.98442041653196
2012-04-03,1,0.002845593870605927,0.0032457779879657657,-0.01339882178778051,0.013095898288726477,0.98517462828503
2012-04-05,0,0.0,0.0,-0.015028570258805036,0.013095898288726477,0.9847901544195146
2012-04-10,0,0.0,0.0,-0.015028570258805036,0.013095898288726477,0.9858274520009654
2012-04-12,0,0.0,0.0,-0.015028570258805036,0.009348292455045544,0.9874238919254006
2012-04-16,1,0.0006304479342247391,0.0006416750035746485,-0.012666791278801609,0.012288874586799132,0.9873043266080248
2012-04-18,-1,-0.0009198606104478533,-0.0006139473171220685,-0.012666791278801609,0.009348292455045544,0.9865874998297149
2012-04-20,0,0.0,0.0,-0.010163915209555379,0.009348292455045544,0.9865143117153993
2012-04-24,0,0.0,0.0,-0.008020228592702731,0.012288874586799132,0.9863861146037238
2012-04-26,0,0.0,0.0,-0.010538603879644608,0.003473446965731659,0.9877065133281353
2012-04-30,1,0.0010656503608061478,0.0012587234037346967,-0.009050833214431548,0.011265951465081463,0.9868371896722755
2012-05-02,1,0.0013280633986315843,0.0014962726088094222,-0.015045398096149028,0.004112666635743631,0.9855631671875285
2012-05-04,-1,-0.0002098790769231689,-0.00016649812366735818,-0.012348016944938622,0.004112666635743631,0.986466067612851
2012-05-08,0,0.0,0.0,-0.012348016944938622,0.01302859583599108,0.9836046750086126
2012-05-10,-1,-0.0034884416221472813,-0.0028184334216020375,-0.015390270728139373,0.012069052256562034,0.9839138542302933
2012-05-14,-1,-0.003838448551699195,-0.0030591042892670873,-0.015390270728139373,0.006774149185859293,0.9845505325659901
2012-05-16,-1,-0.004949010459324997,-0.00411929920444511,-0.012777568936808413,0.006774149185859293,0.9863137053805955
2012-05-18,-1,-0.006265101960268835,-0.00528652654459192,-0.012063734008931074,0.012069052256562034,0.9854872477033515
2012-05-22,0,0.0,0.0,-0.012063734008931074,0.015377184562111148,0.9844126205709832
2012-05-24,0,0.0,0.0,-0.012063734008931074,0.015377184562111148,0.983782038691678
2012-05-29,-1,-0.0046763746455400655,-0.003938188772038237,-0.014537421920116726,0.007830541167521422,0.984196792757333
2012-05-31,-1,-0.005701267666924354,-0.004894264830132817,-0.011958635650490778,0.01104234409813659,0.9848787852325065
2012-06-04,-1,-0.006651668721941026,-0.005780836609049619,-0.010666611144957204,0.015377184562111148,0.9837724703372264
2012-06-06,-1,-0.003570314706892068,-0.003103225591783715,-0.011958635650490778,0.006454098689593521,0.9859546987647898
2012-06-08,-1,-0.004084737250773024,-0.0035596420644511966,-0.011958635650490778,0.006454098689593521,0.9852085360669434
2012-06-12,-1,-0.003182025377166422,-0.002851334696433558,-0.014494957861770739,0.006203320103084374,0.9845606468179774
2012-06-14,-1,-0.003845277178648177,-0.0034453348494193976,-0.014494957861770739,0.010804978379870059,0.984393490056863
2012-06-18,-1,-0.002090877195004519,-0.001949238811571951,-0.014494957861770739,0.006203320103084374,0.9857710356402434
2012-06-20,-1,-0.0009256198841661639,-0.0009107135211173953,-0.014494957861770739,0.00447384731906663,0.9856447639637488
2012-06-22,-1,-0.0016194088152491901,-0.001483532520719187,-0.011157774087713224,0.00447384731906663,0.9863399904997178
2012-06-26,-1,-0.0021506284325561345,-0.0020382764348093703,-0.010243476248641286,0.00447384731906663,0.9880392044272285
2012-06-28,-1,-0.002358019740972313,-0.0021855123814346253,-0.010243476248641286,0.003918008345374117,0.9883674942458371
2012-07-02,-1,-0.000796903875524317,-0.0007554128647629604,-0.010243476248641286,0.003918008345374117,0.9896799955408787
2012-07-05,-1,-0.0020766664196097085,-0.001919688205079175,-0.010243476248641286,0.0022672942683035872,0.9900605888327029
2012-07-09,-1,-0.003802004085199549,-0.003429543800903965,-0.008174780649769574,0.003918008345374117,0.9904911236269734
2012-07-11,-1,-0.003968842491724987,-0.003641635950045463,-0.006857137302788342,0.004746646745657949,0.9899442021130541
2012-07-13,-1,-0.004651368771532191,-0.004133057663920527,-0.004823297391402612,0.003918008345374117,0.9904543245456424
2012-07-17,-1,-0.004502879073923426,-0.004017464032808703,-0.007559695341399299,0.003918008345374117,0.9903261251969522
2012-07-19,-1,-0.003340767637718892,-0.0030016389114510714,-0.007559695341399299,0.0022672942683035872,0.991410148506956
2012-07-23,-1,-0.0035284405365916616,-0.0031976569790185686,-0.004823297391402612,0.0022672942683035872,0.9916559782302514
2012-07-25,-1,-0.004006178863159434,-0.0036028378255964734,-0.0038262473483677063,0.0022672942683035872,0.9918995412405506
2012-07-27,-1,-0.004397018776768989,-0.0039037338022166147,-0.0038262473483677063,0.0018246422297201336,0.9915389750956722
2012-07-31,-1,-0.0030766935027879637,-0.002809861500907113,-0.005049601656250597,0.0017984471289494873,0.9916271462147104
2012-08-02,-1,-0.0033921831971055402,-0.003116024404371091,-0.005049601656250597,0.0017984471289494873,0.9916712018169067
2012-08-06,-1,-0.0018926280668160687,-0.001816746438418308,-0.008816602873800932,0.0017984471289494873,0.9915502807863161
2012-08-08,0,0.0,0.0,-0.011370410167607994,0.0017984471289494873,0.9911469081666119
2012-08-10,0,0.0,0.0,-0.011543313760461953,0.00284073038473802,0.9900081570958008
2012-08-14,0,0.0,0.0,-0.011059797326980269,0.00284073038473802,0.9902035676898875
2012-08-16,0,0.0,0.0,-0.011059797326980269,0.004207547160123385,0.9898848630236623
2012-08-20,0,0.0,0.0,-0.011059797326980269,0.004207547160123385,0.9890098456630373
2012-08-22,0,0.0,0.0,-0.011568298341343076,0.004207547160123385,0.9877988560464562
2012-08-24,0,-0.0001772904722552363,6.417805284177059e-05,-0.011539079391737431,0.0060316184691075175,0.9876292611281836
2012-08-28,-1,-0.0006674667617843772,-0.0005244642711072315,-0.013006128028763227,0.004954365338032649,0.9870235438858479
2012-08-30,-1,-0.0017391661562279983,-0.0017092601123436285,-0.011539079391737431,0.009339081681952743,0.9875457419676754
2012-09-04,-1,-0.000316846966275545,-5.9653551379554e-05,-0.011059797326980269,0.009339081681952743,0.9880125779387795
2012-09-06,1,7.245427159820932e-05,0.0003264649797356153,-0.010985710060760682,0.004954365338032649,0.9893814243770147
2012-09-10,1,8.022001492990452e-05,0.0003499732127474483,-0.010653045380398088,0.004954365338032649,0.9895961529811633
2012-09-12,-1,-0.0009272726943616372,-0.0008813366311878672,-0.010653045380398088,0.004954365338032649,0.9900516570407116
2012-09-14,-1,-0.000338266192045173,-0.00022014744496717266,-0.010653045380398088,0.002776695888004288,0.9892431989490389
2012-09-18,0,-6.578071303355016e-05,0.0001818204512424827,-0.008458037094257347,0.009979995788287304,0.9887114818158307
2012-09-20,-1,-0.0009131170078368936,-0.0007875693885672852,-0.007513010606901559,0.01516170059478459,0.9862963594968505
2012-09-24,-1,-0.0006789357194423179,-0.0004873642600395601,-0.007513010606901559,0.01516170059478459,0.9858647610398786
2012-09-26,-1,-0.002253773531096109,-0.00217116871982369,-0.006823397066222202,0.01516170059478459,0.9867632267314841
2012-09-28,-1,-0.001325349280559664,-0.0012740139639754056,-0.007513010606901559,0.013954048685259998,0.9870471256959016
2012-10-02,-1,-0.0007761834055360373,-0.0006355463757938547,-0.007513010606901559,0.013954048685259998,0.9860732953041587
2012-10-04,-1,-0.0005359934968620984,-0.0003252027518703334,-0.007513010606901559,0.01673546834969012,0.984555583131272
2012-10-08,-1,-0.001214384769958026,-0.0011441712346425812,-0.007963710340644957,0.021991112098490445,0.9822166099863732
2012-10-10,-1,-0.0018715518237931387,-0.0018038414894639796,-0.007963710340644957,0.021991112098490445,0.9814998135571916
2012-10-12,-1,-0.0009109593053060409,-0.0008213326581810549,-0.008936704878872038,0.0156330562844064,0.9824889230057298
2012-10-16,1,0.00010482432364973125,0.00031599864625627186,-0.012008615038750883,0.013586577996832092,0.9818967679111577
2012-10-18,0,0.0,0.0,-0.012008615038750883,0.008539559492584819,0.9851277591002762
2012-10-22,0,0.0,0.0,-0.009248253876601243,0.00658161765415729,0.9863981912558899
2012-10-24,0,0.0,0.0,-0.009248253876601243,0.008555327290618007,0.9856341714749739
2012-10-26,1,0.0018005878207278917,0.0022624998580284706,-0.009755848749622348,0.013877647678563618,0.9851489801111448
2012-11-01,1,0.003081737678966287,0.0036855190975364945,-0.009755848749622348,0.008555327290618007,0.9862307731210869
2012-11-05,1,0.0029065274427103735,0.0034758213453518717,-0.00796370472407296,0.008555327290618007,0.9871897361192711
2012-11-07,1,0.0015737860079639693,0.0019322772894377592,-0.007356114319678979,0.005191861274350591,0.9898605212642061
2012-11-09,1,0.0021216355723210098,0.0026002155965901873,-0.007356114319678979,0.007710963965688723,0.9895848269517902
2012-11-13,1,0.0026131387264495326,0.0032152022753218767,-0.007356114319678979,0.008805422766413919,0.9894985714180903
2012-11-15,1,0.0010251976520799953,0.0013840678285286763,-0.005163354433016271,0.008805422766413919,0.9920157567716574
2012-11-19,1,0.0002535207052105331,0.00044019880873096755,-0.005163354433016271,0.01134455770377577,0.9914739728572224
2012-11-21,1,0.0004366779868981024,0.0006681988519201302,-0.007115312657687443,0.01134455770377577,0.9911864580924146
2012-11-26,0,0.0,0.0,-0.007356114319678979,0.01134455770377577,0.9909556587389364
2012-11-28,0,0.0,0.0,-0.007615624691240903,0.008805422766413919,0.9908490322620498
2012-11-30,1,0.0016748127273436995,0.0019043654373081843,-0.008343789700934055,0.010916339310514458,0.9903281007267787
2012-12-04,1,0.0025757326599991906,0.00285432804458768,-0.008853305324162867,0.010916339310514458,0.9871367755512196
2012-12-06,0,0.0,0.0,-0.00961573526280755,0.010916339310514458,0.9868284571195678
2012-12-10,0,0.0,0.0,-0.010548628131839828,0.00833705247379163,0.9869651983683752
2012-12-12,0,0.0,0.0,-0.010548628131839828,0.013426396003093578,0.9862823209189063
2012-12-14,1,0.0018326749472964284,0.0020877452463368075,-0.010548628131839828,0.013426396003093578,0.9861952283992758
2012-12-18,1,0.0021273594490959823,0.002406032891004661,-0.010548628131839828,0.013426396003093578,0.984771802656609
2012-12-20,1,0.0018725723915492187,0.0021017246312260364,-0.010397662244608282,0.013426396003093578,0.9851581005619269
2012-12-24,1,0.0022892054939726908,0.002587136011186178,-0.012954232103492898,0.009511228432647593,0.9856311047815594
2012-12-27,1,0.0009870698636522692,0.00106020088430024,-0.006446337287904296,0.013426396003093578,0.9842071348443487
2012-12-31,1,0.0015807567936641088,0.0017840808217801651,-0.004178025111843017,0.010041551467326909,0.9849907492538864
2013-01-03,1,0.003055864939861681,0.0035124529978387874,-0.004178025111843017,0.009811771685801525,0.9878760467205326
2013-01-07,1,0.002593861117688995,0.0029866123397822696,-0.0027082625566053147,0.014327265764736148,0.9880634962385011
2013-01-09,1,0.0018734369765110313,0.0021242466289738047,-0.0027082625566053147,0.014327265764736148,0.9888165661386983
2013-01-11,1,0.0029998612516068607,0.0034188208122131244,-0.0027082625566053147,0.005890055091325236,0.9896963592373647
2013-01-15,0,0.0,0.0,-0.0012868839186461526,0.005890055091325236,0.9902499501265664
2013-01-17,0,0.0,0.0,-0.00221504931814479,0.0035803395859566,0.992310915554951
2013-01-22,0,0.0,0.0,-0.002849599914668578,0.005304223692288076,0.9912460288248185
2013-01-24,0,0.0,0.0,-0.002849599914668578,0.005673470050852451,0.9894101528125031
2013-01-28,0,0.0,0.0,-0.0055022638967878405,0.005673470050852451,0.9900921021948164
2013-01-30,0,0.0,0.0,-0.005860436368503799,0.007839000434866784,0.9889798664180701
2013-02-01,0,0.0,0.0,-0.004347727832741761,0.006560308177015214,0.9897146444844964
2013-02-05,0,0.0,0.0,-0.004347727832741761,0.006481192975055287,0.9901110658578042
2013-02-07,0,0.0,0.0,-0.005327159912303015,0.006481192975055287,0.9898972944992956
2013-02-11,1,0.0039136722624538356,0.004258929849582262,-0.007724215192039683,0.006481192975055287,0.9888618378754535
2013-02-13,1,0.0035119011532890026,0.003744506494149032,-0.007724215192039683,0.006871076586923316,0.9886176408939467
2013-02-15,1,0.0027002739626528303,0.002809793985591543,-0.011521160336001235,0.006871076586923316,0.9877858555107308
2013-02-20,1,0.0014981324177622502,0.0015609569528782126,-0.008133416324475227,0.006871076586923316,0.9887463850138897
2013-02-22,1,0.0005131171893793399,0.0007772847188805125,-0.008133416324475227,0.0059405937231687255,0.9908009142276334
2013-02-26,1,0.00042054614353279876,0.000665795872357565,-0.005327159912303015,0.0059405937231687255,0.9924763566018939
2013-02-28,1,0.0013614116350746286,0.0015044795713146037,-0.0067175681162595525,0.0059405937231687255,0.9924774767880398
2013-03-04,1,0.0014857886980496652,0.0016496111962587983,-0.008133416324475227,0.005680790142986331,0.991932387210544
2013-03-06,1,0.001626098156795729,0.0017758904564092468,-0.008133416324475227,0.005680790142986331,0.9913205610725601
2013-03-08,1,0.0003994676792247072,0.0006740800959417275,-0.011009862439785982,0.0059405937231687255,0.9910410990269275
2013-03-12,1,0.0004433946805995979,0.0007351158259644566,-0.0077090590542976505,0.006905772680861358,0.990548954823577
2013-03-14,1,0.000784279395726319,0.0009677357458619481,-0.01158681426432729,0.009785033845680897,0.9889435809820083
2013-03-18,1,0.0005970512854063727,0.0006972894189448354,-0.0077090590542976505,0.012314971388967583,0.9876273768078679
2013-03-20,1,0.0008424897398570147,0.0009183471242285252,-0.0077090590542976505,0.012314971388967583,0.9877816385113469
2013-03-22,-1,-0.0004952542015364907,-0.00027236670350183276,-0.0056949471825964125,0.012314971388967583,0.9879856999659657
2013-03-26,1,9.491221613792565e-05,0.0002993203061541276,-0.0056949471825964125,0.014457274983969374,0.9873860924396658
2013-03-28,1,0.0014960204158423322,0.0015522070181752557,-0.005327593243745264,0.01634520983870868,0.9854612640952256
2013-04-02,1,0.000303661986364982,0.00032943110222804285,-0.002961674969141438,0.01634520983870868,0.9855099003684731
2013-04-04,1,0.00043976490503044353,0.0005091181155733085,-0.002961674969141438,0.014533325636221395,0.9860463161979593
2013-04-08,1,0.0005310776632650336,0.000575892037643545,-0.0020233896967272783,0.014533325636221395,0.9865511664402025
2013-04-10,1,0.00211888999405415,0.0021790715520847385,-0.0027203691244174297,0.014533325636221395,0.986959000108083
2013-04-12,-1,-0.0006297911639485672,-0.0003210495864863429,-0.0027203691244174297,0.012506045046545842,0.9876217641853923
2013-04-16,-1,-0.0008035104662158822,-0.00046845987761222937,-0.00033276404170548156,0.012138716692269829,0.9897744656823382
2013-04-18,-1,-0.0013265867789447566,-0.0009106804163612823,-0.00033276404170548156,0.012901160477503816,0.9885232129239736
2013-04-22,-1,-0.0003108139914385238,-4.828848547674567e-05,-0.0019983457945272095,0.012901160477503816,0.9890096938042159
2013-04-24,1,0.000592705513507796,0.0007407475186717413,-0.0028036696020085055,0.011031073781685198,0.9894873739096197
2013-04-26,1,0.0016541406972232296,0.001692503915250574,-0.004446890522870437,0.009358666499320774,0.9917957197040974
2013-04-30,1,0.001967037675984664,0.0020001938740075997,-0.005368218182514498,0.009358666499320774,0.9907634912236909
2013-05-02,1,0.0010373919210758206,0.0011423514406812404,-0.005368218182514498,0.011031073781685198,0.9897447887884527
2013-05-06,1,0.0016997395817205886,0.001729911866050587,-0.005837811795962459,0.012901160477503816,0.9883394177377043
2013-05-08,0,0.0,0.0,-0.00824361731140149,0.011031073781685198,0.988882270775402
2013-05-10,0,0.0,0.0,-0.007517775152343454,0.012901160477503816,0.9884476140166273
2013-05-14,0,0.0,0.0,-0.01360998760928266,0.011360315470541124,0.9868931748897534
2013-05-16,1,0.0022444876032294125,0.002381984397599777,-0.011329808033930858,0.012769020041913198,0.9862665691315653
2013-05-20,0,0.0,0.0,-0.011329808033930858,0.011386106464714843,0.9866872125273907
2013-05-22,0,0.0,0.0,-0.012613375706046122,0.011386106464714843,0.9847382534155078
2013-05-24,0,0.0,0.0,-0.01499299951679442,0.011386106464714843,0.9832811574109052
2013-05-29,1,0.0006555439412564699,0.0007621557484855824,-0.012613375706046122,0.011585398490958312,0.9826513771450293
2013-05-31,1,0.0001008012082830827,0.00029716046207081703,-0.011788741519986648,0.005528621420351799,0.9838560801065401
2013-06-04,1,0.0005087354607724166,0.0006778343428739873,-0.011788741519986648,0.005528621420351799,0.9849348482131485
2013-06-06,1,0.0004009513834212929,0.000545415465487874,-0.011296424874410477,0.011614798370276617,0.9844103418507778
2013-06-10,1,0.0007703945994585399,0.0008975092141852502,-0.011296424874410477,0.011614798370276617,0.9832301397185986
2013-06-12,1,0.0007488936570816675,0.0008058069646512171,-0.008792703155621182,0.012921766356462697,0.9829974966577915
2013-06-14,1,0.001363675221940018,0.0013703714458818436,-0.011296424874410477,0.011614798370276617,0.9833783602191646
2013-06-18,0,0.0,0.0,-0.011296424874410477,0.011614798370276617,0.9831883078024392
2013-06-20,0,0.0,0.0,-0.003993183121069506,0.012345526556005001,0.9854044301184199
2013-06-24,0,0.0,0.0,-0.003993183121069506,0.012345526556005001,0.986488318589622
2013-06-26,0,0.0,0.0,-0.003993183121069506,0.011614798370276617,0.9878164631133045
2013-06-28,0,0.0,0.0,-0.003993183121069506,0.011614798370276617,0.9875614009364792
2013-07-02,0,0.0,0.0,-0.007747390729170703,0.012345526556005001,0.9868658940269682
2013-07-05,0,0.0,0.0,-0.010306048519243364,0.010423774979157509,0.9858502175406161
2013-07-09,0,0.0,0.0,-0.013168104327846146,0.009139105853518539,0.9869207406520344
2013-07-11,1,0.004273858596161577,0.004718101228869438,-0.013168104327846146,0.006980380004345836,0.9879788046409401
2013-07-15,1,0.0028374329081615204,0.003082157683342104,-0.013168104327846146,0.0059789883951965606,0.9886443227350118
2013-07-17,1,0.0029649073909469776,0.0032202043964929357,-0.013168104327846146,0.0059789883951965606,0.9883582570330931
2013-07-19,0,0.0,0.0,-0.014233944843896663,0.0059789883951965606,0.9880309786473179
2013-07-23,0,0.0,0.0,-0.014233944843896663,0.006819348005034448,0.9883474969586117
2013-07-25,0,0.0,0.0,-0.01254736248183442,0.008839375861363262,0.9883634657999312
2013-07-29,0,0.0,0.0,-0.011682656703669995,0.008839375861363262,0.9889067582969147
2013-07-31,0,0.0,0.0,-0.01254736248183442,0.006492368657081498,0.9887700238031699
2013-08-02,1,0.00409608420948247,0.004343920638922799,-0.011740944289681386,0.006492368657081498,0.9884268191982435
2013-08-06,1,0.003486549318963933,0.0036552915493967783,-0.008662005024469685,0.008839375861363262,0.987690092254431
2013-08-08,0,0.0,0.0,-0.008815036824254073,0.008839375861363262,0.9879565282758782
2013-08-12,0,0.0,0.0,-0.00771779354135387,0.010366646193410439,0.98799813832843
2013-08-14,0,0.0,0.0,-0.00771779354135387,0.008839375861363262,0.9885942993469538
2013-08-16,-1,-0.0005358606969443461,-0.00024090856991238645,-0.00771779354135387,0.007506130292521487,0.9893905641307467
2013-08-20,-1,-0.0003756708467351641,-0.00010623371423606272,-0.00771779354135387,0.0061615316284411685,0.9893327183074809
2013-08-22,-1,-0.0010136359554924904,-0.0006303645289516173,-0.00779206983840104,0.004344692963877359,0.9894965742432091
2013-08-26,-1,-0.001212466034865001,-0.0008214733609280041,-0.00779206983840104,0.0061615316284411685,0.9881470894257353
2013-08-28,-1,-0.00260232682225392,-0.0020369091325522387,-0.007279058866830934,0.009834359753568278,0.9880916166072695
2013-08-30,-1,-0.0021781257396980102,-0.0016936458802793322,-0.007279058866830934,0.0061615316284411685,0.9890872588785327
2013-09-04,0,-0.00024270365075898623,3.9995938163209254e-05,-0.007279058866830934,0.0061615316284411685,0.991880135431552
2013-09-06,-1,-0.0008446175462906021,-0.00047381256770246847,-0.005961617075693674,0.007369371889874578,0.9913497697086292
2013-09-10,-1,-0.00038967565748728784,-5.435229955679964e-05,-0.007279058866830934,0.0061615316284411685,0.9913205027674524
2013-09-12,0,-0.00024424892456067766,6.01366880274625e-05,-0.007279058866830934,0.007369371889874578,0.9892485963838045
2013-09-16,0,-2.850350851561767e-07,0.0002244747503790793,-0.005961617075693674,0.008083444118920837,0.9895501636900437
2013-09-18,1,0.0014371131893725726,0.0014561929565126124,-0.007279058866830934,0.010578554418035948,0.9884951644997318
2013-09-20,1,0.0008450119004578759,0.0008797371597352905,-0.004544939778052524,0.010578554418035948,0.9891941611153657
2013-09-24,1,0.001600727530753497,0.0016299205642302888,-0.004544939778052524,0.008083444118920837,0.9905854561941014
2013-09-26,1,0.002287331636826066,0.0023804919988666675,-0.004544939778052524,0.008083444118920837,0.9893947922856913
2013-09-30,1,0.0019415324754252995,0.0020128396900168043,-0.004544939778052524,0.010455112881577848,0.9877872572266023
2013-10-02,1,0.0019168560694404822,0.001989131784484701,-0.006336013538735952,0.015254660256634087,0.9870782554266204
2013-10-04,1,0.0023014697735902613,0.0024408182687951723,-0.011185027747910616,0.010455112881577848,0.9871272033441142
2013-10-08,1,0.001482653965179027,0.0015131222861995484,-0.0052430839515263524,0.010455112881577848,0.9881844005616724
2013-10-10,1,0.0029069419962270437,0.003133562920453037,-0.011185027747910616,0.00766499582148665,0.9883829855981509
2013-10-14,1,0.0027402622864098453,0.002905412100161729,-0.011185027747910616,0.009088418137108934,0.9878912895852063
2013-10-16,1,0.0025655808783335977,0.002685924589038322,-0.00770941180674677,0.0064380426538622445,0.9887822268173359
2013-10-18,1,0.002629471388945857,0.002753819096762554,-0.00770941180674677,0.006114900803416172,0.9887667494078192
2013-10-22,1,0.002597714422650222,0.0027117547945008087,-0.012132412593913889,0.006114900803416172,0.9864317143004269
2013-10-24,1,0.0025863135662709345,0.002744764867894045,-0.011185027747910616,0.006114900803416172,0.9873261697246394
2013-10-28,1,0.0026800000404189916,0.0028126215153512686,-0.009749378257768893,0.006321156440066802,0.9888073785936276
2013-10-30,1,0.0031105561414101483,0.00334025043001062,-0.0073188788153807725,0.006321156440066802,0.9891416320912938
2013-11-01,1,0.0018355133355879556,0.0018460463860494553,-0.0073188788153807725,0.006321156440066802,0.9893435056744434
2013-11-05,1,0.002141628017004628,0.0021874990379882,-0.009993605858374763,0.007542797503382982,0.986928478913134
2013-11-07,1,0.0010548736749166965,0.0011270132571019602,-0.008193392183121408,0.007607563871193528,0.9885432285680632
2013-11-11,1,0.00030803163503905265,0.0005599712626280968,-0.008193392183121408,0.007015606875864671,0.9890499932076663
2013-11-13,-1,-0.0007891639327493941,-0.00036963245738021286,-0.008778715609902933,0.007015606875864671,0.9889322387781463
2013-11-15,0,-0.0002680811218977514,4.480731414123831e-05,-0.008778715609902933,0.007015606875864671,0.988686825832129
2013-11-19,-1,-0.002148524408888434,-0.0015980225451734597,-0.006894047534818842,0.012694820106691568,0.9890322720268886
2013-11-21,-1,-0.0017097755051899974,-0.001219322847338003,-0.006074511428349964,0.012694820106691568,0.989738286731413
2013-11-25,-1,-0.0004678719811514728,-0.00016817200532499594,-0.006074511428349964,0.010365217384134196,0.9903235854826626
2013-11-27,1,0.0002749459844135848,0.0004364204378509625,-0.0035805881341857302,0.009400643286143071,0.9909359422171838
2013-12-02,1,0.0008095077921729213,0.000844947253884461,-0.0017742426092151086,0.009400643286143071,0.9913583535995003
2013-12-04,1,0.000501394706325798,0.0005201578173206697,-0.0017742426092151086,0.006891401174977249,0.9934992795169495
2013-12-06,1,0.000530756244587592,0.0005375212420094285,-0.0017742426092151086,0.009400643286143071,0.9929341851336214
2013-12-10,1,0.000928349766696674,0.0009957647961127355,-0.0017742426092151086,0.0061569117163194804,0.993243132991112
2013-12-12,1,0.0001688770416602582,0.00021892021569061847,-0.001479604895767826,0.010055919021862439,0.9931718986269436
2013-12-16,1,0.0001683034921408898,0.0002590394424082599,-0.001479604895767826,0.012432305227562118,0.9923752633256944
2013-12-18,1,0.0011253229813032917,0.0011320304765624239,-0.003299595848129273,0.00607537620944533,0.9923659163619208
2013-12-20,1,0.0016605256769021194,0.0017527045106460904,-0.003299595848129273,0.00607537620944533,0.992256627144374
2013-12-24,1,0.0021528104915233036,0.0023449971391939807,-0.00993806301477344,0.004851179747078166,0.9887279144579487
2013-12-27,1,0.0013383668818287501,0.0013905660873859119,-0.00993806301477344,0.005031787520066097,0.9887094139321339
2013-12-31,1,0.001227637595189317,0.0012452275549044887,-0.00993806301477344,0.005031787520066097,0.9888597888552273
2014-01-03,1,0.0005168574913740384,0.0006065622744676272,-0.012708297760825035,0.005031787520066097,0.9869235508666151
2014-01-07,1,0.0005072047374616363,0.0006008934409721185,-0.012323134398692589,0.0063033195386010136,0.9868426996140216
2014-01-09,1,0.00040727937100327083,0.0005352025809323192,-0.012323134398692589,0.013327322226637479,0.9852984232715855
2014-01-13,1,0.0006449585191905104,0.0007345270954353894,-0.012323134398692589,0.016023145913847552,0.984952670751103
2014-01-15,1,0.001330960416455008,0.0013511327150053584,-0.013117665049873295,0.01134799629362836,0.9852007117619147
2014-01-17,0,-2.3504397503597892e-05,0.00017582690777004915,-0.012940190162785858,0.012153127091186905,0.9857372071500302
2014-01-22,0,-2.632962546816756e-05,0.0002296689214550604,-0.012940190162785858,0.010175406603707412,0.9862448487993817
2014-01-24,-1,-0.002366973168903051,-0.0018404626354053223,-0.005127812595111569,0.010175406603707412,0.9889328126565627
2014-01-28,-1,-0.001261825397682899,-0.0009733687787596602,-0.002351503647953001,0.010175406603707412,0.9896024405617655
2014-01-30,-1,-0.0014651657564528318,-0.0011406774202073595,-0.006786302774679056,0.010175406603707412,0.9890205065187749
2014-02-03,-1,-0.00264545092832317,-0.0022140310575797964,-0.003552815879088438,0.010175406603707412,0.99054357901859
2014-02-05,-1,-0.0016451710592597724,-0.0013324438819785189,-0.003552815879088438,0.012153127091186905,0.9899298292310984
2014-02-07,-1,-0.0002591185157381191,-9.054460263520532e-05,-0.00488141460623366,0.006753065880385087,0.9916480841312887
2014-02-11,1,0.00016650867842365026,0.00028919490116279743,-0.003612629571972451,0.006753065880385087,0.9920404035940513
2014-02-13,-1,-0.0007831458818339834,-0.000513613118806814,-0.0053543127874316095,0.006753065880385087,0.9919728494300449
2014-02-18,-1,-0.00025275032148405454,-0.00010583416347753253,-0.003612629571972451,0.00837768017872643,0.9909956333256561
2014-02-20,1,0.0002937531473476498,0.0003467311794165749,-0.005345888623200768,0.012906126563582533,0.9893911757510405
2014-02-24,1,0.000272233443568949,0.00035226162732304397,-0.005345888623200768,0.012906126563582533,0.9897306704165809
2014-02-26,1,0.0002900891399107646,0.00036751224615021855,-0.006209411602376811,0.012906126563582533,0.9884375968134093
2014-02-28,-1,-0.00020306514380799372,-9.34175782475586e-05,-0.006209411602376811,0.012906126563582533,0.9887187910302224
2014-03-04,-1,-0.0012662963249756585,-0.0009893317928354396,-0.005345888623200768,0.012906126563582533,0.9882863218351704
2014-03-06,1,0.0015856713848049842,0.0017123079895900607,-0.005345888623200768,0.01253143266355687,0.9888632861845248
2014-03-10,1,0.0014452078203608895,0.0015805257747206719,-0.007803857234109819,0.01253143266355687,0.986687697735007
2014-03-12,1,0.0018997692370037345,0.002094858030810299,-0.007803857234109819,0.01253143266355687,0.9858381428014742
2014-03-14,1,0.000990949822494608,0.0011011755598722937,-0.009346027165057245,0.01253143266355687,0.9839011578021781
2014-03-18,1,0.0025277268230291766,0.002846677430334193,-0.009346027165057245,0.009837790275054478,0.9851107218907765
2014-03-20,1,0.003180800927355095,0.0035713612819698805,-0.009346027165057245,0.009837790275054478,0.986130723759232
2014-03-24,1,0.003630517098586321,0.004111611133372637,-0.009346027165057245,0.009837790275054478,0.9861662726269331
2014-03-26,1,0.0026784165344560405,0.0030436795100388216,-0.009346027165057245,0.011476988482583671,0.9821883346068208
2014-03-28,1,0.0003565295590746353,0.0005268435638070303,-0.009988207736301028,0.011476988482583671,0.9814782046181159
2014-04-01,1,0.0011052792161514123,0.0013941348593132805,-0.009988207736301028,0.012183043612015476,0.9809804403690318
2014-04-03,1,0.001244676133137314,0.001475470514463505,-0.009988207736301028,0.0053781164882622905,0.9819511105180251
2014-04-07,-1,-0.00022201611552466433,-0.00016377780057617023,-0.007410340621786579,0.0053781164882622905,0.9839385373284624
2014-04-09,1,0.0002584181938708588,0.0003715091946540997,-0.007410340621786579,0.0034429055502746813,0.9853554826036757
2014-04-11,-1,-0.0017873441760452038,-0.0016601718271792173,-0.005194254464094825,0.0053781164882622905,0.9868526486206971
2014-04-15,-1,-0.002809527725890807,-0.002484937237243556,-0.007566237013514781,0.0053781164882622905,0.9856746994629485
2014-04-17,-1,-0.002390775473190931,-0.0021344403318719375,-0.00848640684041578,0.0053781164882622905,0.9837910454366899
2014-04-22,-1,-0.0017961229558304615,-0.001636579838064608,-0.00848640684041578,0.006032780238427301,0.9838004453884933
2014-04-24,-1,-0.00045000798389441623,-0.000440653106268806,-0.007423540548127138,0.006032780238427301,0.9886112391045007
2014-04-28,-1,-0.0014966873186784942,-0.001363389103186929,-0.005821294514888661,0.01245353847402439,0.9881187065183783
2014-04-30,-1,-0.000943506854111752,-0.0008679047259888138,-0.005821294514888661,0.008102717189795406,0.9894497306479202
2014-05-02,-1,-0.0009620914783358163,-0.0008828777621754889,-0.004501274207900015,0.008102717189795406,0.9895615834064623
2014-05-06,-1,-0.001169928972042261,-0.0010787522581367066,-0.0015106291400022222,0.01245353847402439,0.988192556080724
2014-05-08,-1,-0.0012642730941341243,-0.0011408077065106041,-0.0015106291400022222,0.01245353847402439,0.9880324004672608
2014-05-12,-1,-0.00041342671677890673,-0.0004033760200385401,-0.0015106291400022222,0.008102717189795406,0.9892191630969916
2014-05-14,-1,-0.0008288032438603005,-0.0008245911751504207,-0.0004733442638875308,0.008102717189795406,0.9903265701191009
2014-05-16,1,0.000345359614349957,0.0005236901039000767,0.00028747113105950686,0.008102717189795406,0.993009436697017
2014-05-20,1,0.0006584876056432267,0.0008941080076414055,0.00028747113105950686,0.007935632627056318,0.9934445531233569
2014-05-22,1,0.0008310365911586312,0.0010859659746429576,0.00028747113105950686,0.005045313942329261,0.9937288102623572
2014-05-27,1,0.0020401095718804636,0.002466210414239458,-0.0004733442638875308,0.004244396843373883,0.9943137477781017
2014-05-29,1,0.0019415744394868306,0.0023403811811452137,-0.0005310569114590328,0.004244396843373883,0.9943349763716819
2014-06-02,1,0.0021904532398270443,0.002620866480496672,-0.0005310569114590328,0.006856438797375071,0.9939884744961203
2014-06-04,1,0.0032085095019727316,0.003782868221020261,0.0003846625130930428,0.006856438797375071,0.9950483772147899
2014-06-06,1,0.0035305439212001315,0.0041593344153650685,0.00016115165052385787,0.005076054114281054,0.9947915686441644
2014-06-10,1,0.00398919365445928,0.004720453877506281,0.0005739198628028324,0.010063652525501647,0.9933028457771638
2014-06-12,1,0.0035824444696005518,0.004203081327073775,-0.001276336463499241,0.010063652525501647,0.992899993611636
2014-06-16,1,0.004293771942336657,0.005040763253386739,-0.0025745038531094213,0.0074276737589590615,0.9925781477265739
2014-06-18,1,0.0026854414418046213,0.003060219889466614,-0.005850289707149098,0.0074276737589590615,0.9924070765157217
2014-06-20,1,0.0024728379230322985,0.0028121466918541635,-0.0023502629601114614,0.010486580715250233,0.9923165133935301
2014-06-24,1,0.00239502155678704,0.0027223000526273586,-0.005305865132618066,0.0074276737589590615,0.9929149359020941
2014-06-26,1,0.0011934931479739175,0.001262502748345565,-0.005850289707149098,0.0074276737589590615,0.9920633148794985
2014-06-30,1,0.0019568886569419426,0.0021703111145160723,-0.005850289707149098,0.0049316792939631685,0.9919486132128806
2014-07-02,1,0.002706741535337513,0.003075861804550334,-0.006020125120387896,0.0049316792939631685,0.9903003735671408
2014-07-07,1,0.0027628771976532674,0.0031634321765335142,-0.006020125120387896,0.004267330106327125,0.9903753238383157
2014-07-09,1,0.0033538631110311494,0.0037999621955874877,-0.006207941436844075,0.001955157491804589,0.9911958392591909
2014-07-11,1,0.0031129160030398603,0.0035137505996919614,-0.006815844156588644,0.001955157491804589,0.9900342474191217
2014-07-15,1,0.00299365640850724,0.0033947150818325385,-0.007719474542526628,0.00412630244949961,0.9896214860489791
2014-07-17,1,0.002782073322833585,0.0031608960175626005,-0.007719474542526628,0.004580581241767825,0.9899573785241401
2014-07-21,1,0.0031835156701678375,0.0036111342490495473,-0.007719474542526628,0.006582660725593947,0.989252285289184
2014-07-23,1,0.0021005484887092448,0.002340561677444134,-0.005974604247220382,0.007848139847338738,0.9901664098793952
2014-07-25,1,0.0011322661867645886,0.0012102838163898435,-0.005801563507825971,0.007848139847338738,0.9905226896372773
2014-07-29,1,0.0013570287228987974,0.0015469365995864144,-0.006894205945445951,0.007848139847338738,0.9904991770408671
2014-07-31,1,0.001817684932422822,0.002057239932377459,-0.0037722449224408473,0.007589119123548576,0.9923289026469719
2014-08-04,1,0.0018921818003800831,0.002162422244460815,-0.005247521959219409,0.007589119123548576,0.9922760606721539
2014-08-06,1,0.0014896608481340303,0.001672857369808504,-0.005076051586783565,0.007589119123548576,0.992246089686949
2014-08-08,1,0.0011353764779446062,0.0013421971405424178,-0.0032529102802846726,0.007180809072708,0.9937332307394235
2014-08-12,1,0.0014812703505159507,0.0017929869992625793,-0.0022536722783806752,0.006453839529745441,0.9947163660392748
2014-08-14,1,0.0015523010878553617,0.001874538959976445,-0.002745431290640196,0.007180809072708,0.9939825510118784
2014-08-18,1,0.0017681049523635777,0.002056774696173063,-0.002745431290640196,0.006808601897317043,0.9937968083798816
2014-08-20,1,0.0018792639363776915,0.0021456731337749684,-0.002745431290640196,0.007457361207040297,0.9927048451716499
2014-08-22,1,0.002097051370646068,0.0024169177685271553,-0.005076051586783565,0.007457361207040297,0.9919775397974845
2014-08-26,1,0.0022332463100486234,0.0026254116961512315,-0.005076051586783565,0.008536919099065694,0.9916333488902184
2014-08-28,1,0.0014847087536745518,0.0016498355086402316,-0.0064242744736014564,0.007575504779560525,0.9909762125640912
2014-09-02,1,0.0015418925008438553,0.001744025502132389,-0.007118401189682882,0.007575504779560525,0.9908673162796293
2014-09-04,1,8.826595839469859e-06,0.00014478445775909334,-0.008173936577605526,0.007575504779560525,0.9897444383065157
2014-09-08,0,-3.722528446423412e-05,0.00012066202854565987,-0.008173936577605526,0.010532764722326577,0.9883982869464034
2014-09-10,0,-0.0001498905036956831,1.825855973792848e-05,-0.01088983626890364,0.01586421667986354,0.9866823699804561
2014-09-12,-1,-0.0003679065322305384,-0.0001740868214969905,-0.011928330746224732,0.01586421667986354,0.9821354430927087
2014-09-16,1,0.0013307650062322628,0.0014064923526441778,-0.011928330746224732,0.01586421667986354,0.9822730630480139
2014-09-18,1,0.0016840682564657613,0.0017802177405254103,-0.011928330746224732,0.009186950309084133,0.9820626755664854
2014-09-22,1,0.0009485440312272966,0.0011188273948446498,-0.008382520655803515,0.01586421667986354,0.9816554881159645
2014-09-24,1,0.0009163432949716886,0.0011108445523995026,-0.013179021490698757,0.019212025749612706,0.9806234662654482
2014-09-26,1,0.00011266916685309224,0.0004532871253162831,-0.009923302804463983,0.02578294807230177,0.9790912590048098
2014-09-30,-1,-0.0004355577619743361,-2.7231086165748538e-05,-0.009923302804463983,0.02578294807230177,0.9787406941279947
2014-10-02,-1,-0.0014126389820259357,-0.0009253314948183583,-0.006756601080426123,0.02578294807230177,0.979868417796373
2014-10-06,-1,-0.0010837914043527914,-0.0005746613436020146,-0.006756601080426123,0.024247720774784636,0.9797202730566272
2014-10-08,-1,-0.000720172102364297,-0.0003074764181338434,-0.004335183728518864,0.024247720774784636,0.9812106500941791
2014-10-10,-1,-0.00482769706561306,-0.003940020122235048,-0.0023044726783266792,0.024247720774784636,0.9846824827142269
2014-10-14,-1,-0.0037821143353695508,-0.0030211944484859793,-0.0023044726783266792,0.018279835512191856,0.985905787830044
2014-10-16,-1,-0.001854827798707818,-0.0013987786390642688,-0.0030651641095448268,0.013516986188111512,0.9878973627791257
2014-10-20,-1,-0.0011662922083370626,-0.0007838507874744862,-0.0030651641095448268,0.012266936431544114,0.9881038204228513
2014-10-22,-1,-0.0008540686156824427,-0.0005162321258467604,-0.0030651641095448268,0.012266936431544114,0.9888930676301743
2014-10-24,1,0.001765001085684207,0.0017958707584049924,-0.0030651641095448268,0.009638512146318386,0.9915895860752855
2014-10-28,1,0.0017905143690995422,0.0018296035230886583,-0.0016099825624239798,0.012324363375079549,0.9910870010401919
2014-10-30,1,0.0018097810894752804,0.0018487284343551807,-0.0016099825624239798,0.013173880152442951,0.9903681261572648
2014-11-03,1,0.0030931393867234544,0.0033042729143716535,-0.0034839620021755832,0.012194146792003743,0.9912610466982291
2014-11-05,1,0.003356415975975839,0.003625266974267123,-0.0034839620021755832,0.012324363375079549,0.990270511141006
2014-11-07,1,0.002792081788360366,0.0029791420426185113,-0.0035990220067282047,0.012324363375079549,0.9897228834418833
2014-11-11,1,0.0029730512064785842,0.003166113098836647,-0.010191376431724358,0.012194146792003743,0.9883943083372694
2014-11-13,1,0.0023872173074255885,0.0024974003702662733,-0.010191376431724358,0.012194146792003743,0.9883591201685494
2014-11-17,1,0.0017161971667850261,0.0017307541656699065,-0.010191376431724358,0.008753776620112706,0.9891548925893797
2014-11-19,1,0.0021974990850305125,0.002297878663393825,-0.003632917699775801,0.01295551123382184,0.9881855087483118
2014-11-21,1,0.0021163113340682436,0.0022512887821901258,-0.005782967663634751,0.013549468060345835,0.9875136128712884
2014-11-25,1,0.0029529885276378624,0.003186498087755764,-0.0068590359594333915,0.008951762228954037,0.9880463198886049
2014-11-28,1,0.004397954467283501,0.004899264627083507,-0.0068590359594333915,0.002838047392172411,0.9874741529393805
2014-12-02,1,0.004089549938294124,0.0045428040059553535,-0.007830144076241755,0.001204486183926007,0.9872947697685488
2014-12-04,1,0.0046022246938167335,0.005103495923380535,-0.009654809265897424,0.001204486183926007,0.9870697809439262
2014-12-08,1,0.003550739432510983,0.0038911759433190142,-0.009654809265897424,0.0012876977979212419,0.9881779380783587
2014-12-10,1,0.002534290153745137,0.0027724985382254043,-0.007830144076241755,0.0027095314513682902,0.9894552089117353
2014-12-12,1,0.0014842618207178602,0.0015405302021610431,-0.00902789601883743,0.0027095314513682902,0.9887590246916599
2014-12-16,1,0.00020032832995374222,0.00033479501555408475,-0.007830144076241755,0.0059585327845482604,0.9894356251384177
2014-12-18,1,0.0017909479382994735,0.001819761829672214,-0.007830144076241755,0.0059585327845482604,0.9903916415105899
2014-12-22,1,0.002238696724209588,0.0023541223539713992,-0.007830144076241755,0.008774208823365654,0.98984233034768
2014-12-24,1,0.001761984090438548,0.0018056676653020669,-0.007830144076241755,0.009649027598945228,0.9896487408382377
2014-12-29,1,0.0012499936270183765,0.0012745101381201084,-0.00902789601883743,0.009649027598945228,0.9890843977438658
2014-12-31,0,-1.4117227085138576e-05,0.00019788291098719706,-0.010328116502584224,0.009649027598945228,0.9877956066602087
2015-01-05,-1,-0.0005477324476167676,-0.0002727467747586824,-0.007421328665556694,0.010617932487051243,0.9876399438409241
2015-01-07,-1,-0.0011168919349149953,-0.0007726849564337088,-0.0057464931065122635,0.010617932487051243,0.9881459993177689
2015-01-09,1,0.00040229316380065703,0.0005208093818067285,-0.006080486155096749,0.009649027598945228,0.9892681904447106
2015-01-13,-1,-0.0008987727051063375,-0.0006492516518307694,-0.005384091827584903,0.010617932487051243,0.9891733094288195
2015-01-15,-1,-0.0009867993662795674,-0.0007201959904182411,-0.0031768166082644846,0.011767507439319196,0.9888231069392233
2015-01-20,-1,-0.0004017614427944229,-0.000186006212960003,-0.004078087701166507,0.009649027598945228,0.9900271667049804
2015-01-22,1,0.0008205236809865163,0.0008775726312801539,-0.004078087701166507,0.009314541000648557,0.9904824084027647
2015-01-26,1,0.0006951973227926431,0.0007797379138014065,-0.004078087701166507,0.010107753781808192,0.9902107268294956
2015-01-28,0,-0.00019568833417035227,1.267927369548341e-06,-0.0027478643614729263,0.010107753781808192,0.9905124970798562
2015-01-30,-1,-0.0017051636927328995,-0.0013401984684882368,-0.0027478643614729263,0.012630745033214881,0.9906279062698573
2015-02-03,-1,-0.0012413097267654893,-0.0009316268127792904,-0.006383166145049793,0.010107753781808192,0.9896052004329002
2015-02-05,-1,-0.001273802491914468,-0.0009490006315250088,-0.007539384180701979,0.010107753781808192,0.9897896290195464
2015-02-09,-1,-0.0008275074375510988,-0.0006115974134911179,-0.007981725870147133,0.010107753781808192,0.988011367398167
2015-02-11,1,0.0011364716315562953,0.001229763086679104,-0.007981725870147133,0.008023941911116862,0.9890256255120252
2015-02-13,1,0.0012721846543365186,0.001333028658443743,-0.007981725870147133,0.010107753781808192,0.9886029319274672
2015-02-18,1,0.00117494709170927,0.0012366895150049437,-0.01108742368553264,0.010107753781808192,0.9873178020542979
2015-02-20,1,0.00174093986244694,0.001856262512542289,-0.01108742368553264,0.008862445110342208,0.9872734462741758
2015-02-24,1,0.0016327170755414484,0.0017160543969169848,-0.01108742368553264,0.005057907477048841,0.987583704631259
2015-02-26,1,0.0005957967931376562,0.0006672564377006718,-0.013259360523136251,0.005057907477048841,0.9834973550260773
2015-03-02,1,0.0015859664432470765,0.001690531387496245,-0.013259360523136251,0.005057907477048841,0.9844925554102942
2015-03-04,-1,-0.00019813373077206685,-6.751460222333898e-05,-0.013259360523136251,0.005057907477048841,0.9854314192519379
2015-03-06,-1,-0.003687909074188289,-0.0029780466347727724,-0.013259360523136251,0.008833823118463284,0.9840516462082881
2015-03-10,-1,-0.004546443664922849,-0.0037591697115487545,-0.012620362102003235,0.012566083129422253,0.9840703996877785
2015-03-12,-1,-0.004097354539491108,-0.00341389397013486,-0.012620362102003235,0.012566083129422253,0.9840685130914147
2015-03-16,-1,-0.0026077399559599024,-0.002144647719785216,-0.012620362102003235,0.005141860036147243,0.9854596160096574
2015-03-18,-1,-0.003800675152616875,-0.003213629092843013,-0.009745732741710401,0.006118497325856541,0.9858265397849505
2015-03-20,-1,-0.001988935161457133,-0.0017182547326798146,-0.011507996462201126,0.006118497325856541,0.9855853329199188
2015-03-24,-1,-0.0023887265931476233,-0.0021291748274557855,-0.011156505704452943,0.008357743051020739,0.9817553918946414
2015-03-26,-1,-0.007407375841106798,-0.006575958295704631,-0.008931554771826694,0.008357743051020739,0.98444565664621
2015-03-30,-1,-0.006179729499211542,-0.0055451262245028105,-0.008931554771826694,0.00675383529315118,0.9857033808387056
2015-04-01,-1,-0.006882125910667228,-0.006185388054570141,-0.008931554771826694,0.00675383529315118,0.9862931482446918
2015-04-06,-1,-0.005846882362357612,-0.005263343967540798,-0.008931554771826694,0.006045087224449776,0.9872175855176349
2015-04-08,-1,-0.005034491329451666,-0.004570866832810514,-0.008931554771826694,0.004856670612308931,0.9887436855705677
2015-04-10,-1,-0.004974489385553302,-0.004503149032697009,-0.008931554771826694,0.006045087224449776,0.9877507198075226
2015-04-14,-1,-0.005496869345115923,-0.004946647908563074,-0.009142884108731309,0.008548373992461973,0.9864059892116516
2015-04-16,-1,-0.005198187409620134,-0.004702608515658971,-0.006586740811888623,0.01334517088222579,0.985765830088597
2015-04-20,-1,-0.004907126673434704,-0.004456347960442467,-0.005020261005348279,0.010223144682544169,0.9863029833694359
2015-04-22,-1,-0.002816194750568643,-0.0026544020220616088,-0.005222219523211831,0.010223144682544169,0.9900802067848343
2015-04-24,-1,-0.0028539850546771585,-0.002722486036962837,-0.0049177656180031375,0.011388775465860894,0.9901096115786139
2015-04-28,-1,-0.0027352831196426207,-0.0026202624895116694,-0.005222219523211831,0.01334517088222579,0.9886349572669629
2015-04-30,-1,-0.0024468447630481343,-0.0024004422568185075,-0.004601685141802972,0.01334517088222579,0.9890945977928346
2015-05-04,-1,-0.002167857134987912,-0.0021192516757105855,-0.003840406540017012,0.013272159521105373,0.9896364528836099
2015-05-06,-1,-0.0032628382011140565,-0.0030451472111763266,-0.0022318321606678852,0.013272159521105373,0.9896118997050205
2015-05-08,-1,-0.002736929503600024,-0.002562003478068084,-0.003840406540017012,0.011388775465860894,0.9903164796433664
2015-05-12,-1,-0.0030688812290622504,-0.002831959677042941,-0.0033088373011555617,0.00966068504513241,0.9911866882409768
2015-05-14,-1,-0.0015850890401992743,-0.0015833588167318976,-0.003840406540017012,0.008356056883372272,0.9920926736944474
2015-05-18,-1,-0.0009430862732675826,-0.0008395011134084838,-0.003840406540017012,0.008744600477811181,0.9920824975186653
2015-05-20,-1,-0.0005933983896653744,-0.00044426498197643857,-0.003449134984575644,0.008744600477811181,0.9919571011814917
2015-05-22,-1,-0.00024584219869579194,-5.339372296039532e-05,-0.004371947086031755,0.0062612083748978375,0.9918939561745823
2015-05-27,1,0.0001133751030863902,0.00033303796795226793,-0.004371947086031755,0.005381047764896923,0.9932195248896422
2015-05-29,0,-7.408047776336687e-06,0.00018438375607302123,-0.006639778253299535,0.0058108596103238755,0.9926684037476934
2015-06-02,1,0.00020506678241215292,0.0003970201066004687,-0.007010359577464608,0.0058108596103238755,0.9911097155844754
2015-06-04,1,0.0005485807035057209,0.000827385124487252,-0.007010359577464608,0.008865305436500015,0.9905219335525919
2015-06-08,-1,-0.00025379414272072484,-0.00015414561289118763,-0.008320780666651222,0.008865305436500015,0.9896029282108809
2015-06-10,0,-9.867874197354922e-05,2.9073461887214305e-05,-0.010812389433732297,0.00751425914277813,0.9886070872974057
2015-06-12,0,-7.875101093645812e-05,8.962286929673088e-05,-0.008320780666651222,0.011380220798418878,0.9882954232784765
2015-06-16,1,0.0006319204672115399,0.0009391300960180155,-0.008320780666651222,0.009894626414900513,0.9886846225395036
2015-06-18,1,0.0011976877815962842,0.0015890597592725984,-0.010812389433732297,0.007843372503431725,0.9883437008513498
2015-06-22,1,0.0010907826239761214,0.0014464627770299243,-0.010812389433732297,0.007843372503431725,0.9886839251053178
2015-06-24,1,0.00043641605557852834,0.0006381812634248754,-0.011646828104208761,0.007843372503431725,0.9881677519568329
2015-06-26,1,0.0005864586946257475,0.0008346626036358541,-0.014154456298561668,0.007843372503431725,0.9879184950513711
2015-06-30,1,4.9230507330531035e-05,0.00023466263545688184,-0.011646828104208761,0.007843372503431725,0.9887277064976091
2015-07-02,1,0.0006489803737391256,0.0009103025517817577,-0.014154456298561668,0.007124633243643791,0.9880572064486678
2015-07-07,1,4.5285707693012425e-05,0.00029045136797774403,-0.016121232742491515,0.007124633243643791,0.9876188932863428
2015-07-09,-1,-0.000288369464164693,-6.0140241909913085e-05,-0.016121232742491515,0.007843372503431725,0.9875830211872818
2015-07-13,1,0.00038703215175265,0.0007091438342964184,-0.016121232742491515,0.007124633243643791,0.9867487187367014
2015-07-15,1,0.0009702375993277778,0.0014123763346446108,-0.020453684704060882,0.004586897824214941,0.9855859742713337
2015-07-17,1,0.00020669725759245208,0.0005625686857751921,-0.016121232742491515,0.007725643378448165,0.9864037318953001
2015-07-21,1,0.00037084459071817094,0.0007407991254160271,-0.020453684704060882,0.010187498433432363,0.9841513461940649
2015-07-23,1,0.0005513577450607149,0.0009719167168222075,-0.020453684704060882,0.010187498433432363,0.9839905909574441
2015-07-27,-1,-0.0005968072481556274,-0.00039530425964198757,-0.020905530132185053,0.010187498433432363,0.9826905731137292
2015-07-29,1,0.00021405040603805526,0.0003754527957497585,-0.020905530132185053,0.010187498433432363,0.9815411479241137
2015-07-31,-1,-0.0004539142135513301,-0.00042446888523362317,-0.019562704870308038,0.010574268134352936,0.9814867550788541
2015-08-04,-1,-0.0019483950963505325,-0.0017984687050478037,-0.019562704870308038,0.010574268134352936,0.9819461083728116
2015-08-06,-1,-0.00152310736478247,-0.0014476987409148762,-0.018210765087369945,0.012825415668752423,0.9818496794370611
2015-08-10,-1,-0.0010873589482485592,-0.001022441161477996,-0.0206414201625776,0.012825415668752423,0.9801789384638004
2015-08-12,-1,-0.0014735445843300614,-0.0013930259729803924,-0.021365895797456066,0.019453251476957083,0.9793023102202283
2015-08-14,-1,-0.0013478388916303605,-0.0012787570902013292,-0.021365895797456066,0.019453251476957083,0.9796321317607671
2015-08-18,-1,-0.0027787761752729235,-0.0023705816129770568,-0.018210765087369945,0.019159825617728124,0.9803462478576838
2015-08-20,-1,-0.003054944704533491,-0.002630166835598112,-0.021629965945069954,0.019159825617728124,0.9792532536554681
2015-08-24,-1,-0.0054790125534612,-0.004743650419674562,-0.027927818542084554,0.019159825617728124,0.9774420924298532
2015-08-26,-1,-0.0037441478842141383,-0.003250788356451584,-0.028155047168470348,0.012137515480641152,0.9792724252910858
2015-08-28,-1,-0.0028713088780493805,-0.0024906734760068473,-0.028155047168470348,0.009495008130744116,0.9800537797077856
2015-09-01,-1,-0.004098945233980019,-0.0035804932195696026,-0.027927818542084554,0.017874067608773102,0.979153820575436
2015-09-03,-1,-0.003550325144943073,-0.0030763304445311627,-0.027927818542084554,0.017874067608773102,0.979370747247943
2015-09-08,-1,-0.0033147308541627927,-0.0028660137922736292,-0.02259737080665987,0.011909556735558241,0.9825991422710971
2015-09-10,-1,-0.003316602162443434,-0.0028809897618027455,-0.019853150033261727,0.01286254916051957,0.9830352328811118
2015-09-14,1,0.00018920057369913786,0.00020507792293908102,-0.019853150033261727,0.01286254916051957,0.9823212105600327
2015-09-16,1,0.0007407049192857965,0.0007559360069624736,-0.022532477753396576,0.01286254916051957,0.9802584381667205
2015-09-18,-1,-0.0009192885110869479,-0.000729525632495394,-0.015409175938331248,0.0135280374362691,0.9822998729317689
2015-09-22,-1,-0.0033382698352419204,-0.002848565649298868,-0.010149749942365206,0.018045249776221826,0.9840256375547939
2015-09-24,-1,-0.00459941261684931,-0.004001032919334353,-0.006011032224432031,0.019451152119438223,0.9829493544682392
2015-09-28,-1,-0.005942729880601752,-0.005159508135096337,-0.002938579238145404,0.02148490354721273,0.981007912332261
2015-09-30,-1,-0.0031017185114120623,-0.0026955715921399047,-0.002938579238145404,0.019451152119438223,0.9846620444197461
2015-10-02,-1,-0.0028298606089231276,-0.0024552151985037856,-0.0005367844878821791,0.014135657954422223,0.9855475522400245
2015-10-06,-1,-0.0026070751119593298,-0.0022933812324341736,0.00014550527004612133,0.014135657954422223,0.9855345501806138
2015-10-08,-1,-0.0010447397626467676,-0.0009425151357105359,0.00014550527004612133,0.011178228602297906,0.9873758125597644
2015-10-12,-1,-0.0011627787322798725,-0.0010701528821839565,0.00033235637815146925,0.011178228602297906,0.9877456926406852
2015-10-14,-1,-0.00037206649849068157,-0.00035204168782666724,0.00033235637815146925,0.01013006135861791,0.9909160619363344
2015-10-16,1,0.0005201811158948279,0.0006991888034619525,-0.00045349586485700355,0.009054762078037643,0.9911929136417507
2015-10-20,1,0.001261148211288277,0.0015319125093356742,0.00033235637815146925,0.009054762078037643,0.9923180763844691
2015-10-22,1,0.002798314979613076,0.0032985697145173605,-0.00045349586485700355,0.00854552990372076,0.9932244021359808
2015-10-26,1,0.0038910877375724377,0.004529040763355561,-0.0025028933556033592,0.006558100049597134,0.9932515889824209
2015-10-28,1,0.003974728939554588,0.004606417479734743,-0.0025028933556033592,0.005401558763897618,0.9933792033865002
2015-10-30,1,0.004396945791318515,0.005093326040221941,-0.0025028933556033592,0.005401558763897618,0.9935119910001214
2015-11-03,1,0.003999298278711257,0.004614393623454813,-0.0032799826499633846,0.006263238999028256,0.9927809906459621
2015-11-05,1,0.0044862752042521305,0.00519909751112952,-0.006760103583990431,0.006263238999028256,0.9908997172905808
2015-11-09,1,0.004705426527450321,0.005477116343217852,-0.006760103583990431,0.007660946752014123,0.9899641166713973
2015-11-11,1,0.004507391470038459,0.005246932092868714,-0.007829596835998005,0.010517634744890529,0.9882869158591447
2015-11-13,1,0.0038549343920488803,0.004497526369171089,-0.012419010951295408,0.010517634744890529,0.9875956990761855
2015-11-17,1,0.004606905624966401,0.005338924426945205,-0.012419010951295408,0.010517634744890529,0.9872113462308041
2015-11-19,1,0.004426016051298666,0.00511240960010838,-0.017077732785578798,0.009562350137091682,0.9855168012767385
2015-11-23,1,0.004466262414537422,0.005196589072767787,-0.014898223338094907,0.017902633034455443,0.9851891341899014
2015-11-25,1,0.003940192876287739,0.004530963001468614,-0.014898223338094907,0.017902633034455443,0.9851552026847903
2015-11-30,1,0.003760678782912196,0.004262544573195053,-0.014898223338094907,0.017902633034455443,0.9846573980843057
2015-12-02,1,0.004216418109587139,0.004815677256256689,-0.014898223338094907,0.016737819997017005,0.9847866819859823
2015-12-04,1,0.003895007029760685,0.0044477404152740065,-0.014898223338094907,0.011318917563509199,0.9857215331448205
2015-12-08,1,0.004547131340787418,0.005165338846881874,-0.019759186757989648,0.006301631957732708,0.9824284286077005
2015-12-10,1,0.00426750473288983,0.004845067359866978,-0.017692940023102257,0.005719588346237068,0.9836810491600827
2015-12-14,1,0.0031401178212018934,0.003559403239053723,-0.019759186757989648,0.006727937842758595,0.9839393231657705
2015-12-16,1,0.00365113568762449,0.004101598648560941,-0.02113933326268949,0.006727937842758595,0.9804556736281158
2015-12-18,1,0.00273142443639686,0.0030845730979339172,-0.018184072557188853,0.007428922720844294,0.9810641758693871
2015-12-22,1,0.003741915489243584,0.004207791290597507,-0.02095150746435033,0.006727937842758595,0.9810405268224057
2015-12-24,1,0.002956933132907894,0.0032358753940475446,-0.02095150746435033,0.0073817530950380334,0.98036559604705
2015-12-29,1,0.0027937538666964845,0.003034045302001481,-0.02095150746435033,0.0073817530950380334,0.9787768759665948
2015-12-31,1,0.002715947419079137,0.002998816311792063,-0.02095150746435033,0.011052122188080741,0.9779865804035264
2016-01-05,1,0.0016820078220820748,0.0017733602995161756,-0.02191908445800544,0.011718629215563296,0.9772206783000369
2016-01-07,-1,-0.0006313103676865413,-0.00043913639911606194,-0.01873978605857239,0.011718629215563296,0.9795195769841516
2016-01-11,-1,-0.0011109446262695345,-0.000879912502659597,-0.02275783971765675,0.011718629215563296,0.9783624799751167
2016-01-13,-1,-0.0022671898714745654,-0.0018732350632641986,-0.019757042909271584,0.011718629215563296,0.979502175748242
2016-01-15,-1,-0.004356928705760561,-0.0037801370467950143,-0.018378042589621595,0.014933520739873331,0.9813721864675107
2016-01-20,-1,-0.0025687198905929576,-0.0022628575812170854,-0.019757042909271584,0.014933520739873331,0.9810368504501317
2016-01-22,-1,-0.0023469197512566396,-0.002116845308056893,-0.018378042589621595,0.023551043787889404,0.9804121748964165
2016-01-26,-1,-0.003526060638272268,-0.00311204166703332,-0.018378042589621595,0.023551043787889404,0.9796934120190407
2016-01-28,-1,-0.002460246269467552,-0.0022007378651979666,-0.01668412169061652,0.023551043787889404,0.9795879836736481
2016-02-01,-1,-0.000978823483020181,-0.0009155653878784539,-0.01668412169061652,0.023551043787889404,0.9802884615450427
2016-02-03,-1,-0.0016810995813338159,-0.0015192500978129999,-0.014068130376476362,0.023551043787889404,0.9813670988711288
2016-02-05,-1,-0.0027860342185803424,-0.002510233372070424,-0.009049283121049764,0.023551043787889404,0.982138896122224
2016-02-09,-1,-0.003963430515539248,-0.003603831435401904,-0.008783729035887077,0.023551043787889404,0.9825709347390688
2016-02-11,-1,-0.005586917734959198,-0.004957969642319379,-0.006985297393243884,0.023551043787889404,0.981065976965615
2016-02-16,-1,-0.005035425029550209,-0.004297016566594949,-0.006985297393243884,0.019099296668378646,0.9832204847670001
2016-02-18,-1,-0.005636596908868027,-0.004767034523326535,0.000612757558294522,0.01873960737581513,0.9834463453445723
2016-02-22,-1,-0.005068813293960195,-0.004224654062799061,-0.00021342270098758265,0.018200615546547276,0.9852258501269726
2016-02-24,-1,-0.00398856405655588,-0.0033591040549158244,-0.00021342270098758265,0.014030008397288381,0.9865077029498749
2016-02-26,-1,-0.0024735555394023324,-0.0020288521055488147,-0.006263711674393085,0.009625588085221922,0.9892007590250832
2016-03-01,-1,-0.001814836618227477,-0.001424592726752239,1.8596230788201981e-06,0.009625588085221922,0.9892143171669785
2016-03-03,-1,-0.0015532705713292131,-0.0012368712473879542,0.002792915287595828,0.009625588085221922,0.9895722601601201
2016-03-07,-1,-0.0018028702392421454,-0.0014333317510847037,0.001001492077265661,0.008779579922968486,0.9897256041334053
2016-03-09,-1,-0.0022059654719751515,-0.001814240014946636,0.001001492077265661,0.010230923787414435,0.9895598299922778
2016-03-11,-1,-0.0009627364073978182,-0.000736377795388465,-0.0014358786566479498,0.0060553243235814975,0.9915165090970773
2016-03-15,-1,-0.0001993377845104728,-0.00011448841914322571,-0.0014358786566479498,0.0060553243235814975,0.9915012158418199
2016-03-17,1,0.000945566035902736,0.0010606569589301804,-0.0030495319877661587,0.0044579139300643614,0.9923443321068856
2016-03-21,1,0.0017602982456792204,0.00201938172165736,-0.0030495319877661587,0.005174829524819679,0.9921364468563559
2016-03-23,1,0.0017221598507008037,0.001990053097358953,-0.0030495319877661587,0.005027423399211207,0.9915583310204645
2016-03-28,1,0.0017798154412531847,0.0020737735904687625,-0.0029104837665334606,0.005027423399211207,0.9914685020920784
2016-03-30,1,0.002731620186102429,0.003144548891893445,-0.0029104837665334606,0.005027423399211207,0.9926088695522675
2016-04-01,1,0.0030452136403932815,0.0035163207002743063,-0.013319452141377822,0.0036899239355008134,0.9894984251715269
2016-04-05,1,0.0025755323379605772,0.0029840321438487374,-0.012044138381756503,0.0036899239355008134,0.990002392487805
2016-04-07,1,0.002361112227976825,0.002735404477243228,-0.01102714205097932,0.0026663973746408353,0.9907611269705454
2016-04-11,1,0.0021508111937295093,0.0024683821783203666,-0.01102714205097932,0.002123728678661516,0.9905608819372914
2016-04-13,1,0.0029329392926024126,0.003403343701852568,-0.01102714205097932,0.002123728678661516,0.9898635175370611
2016-04-15,1,0.0025608103471927487,0.0029867110436751177,-0.009782713361033653,0.002123728678661516,0.9899462784510282
2016-04-19,1,0.0027620861051121178,0.0031799294278255274,-0.01102714205097932,-0.0008126225292476981,0.9890683131302238
2016-04-21,1,0.0021465881615454077,0.0024877309643112243,-0.009782713361033653,0.0007811399062416092,0.9899884675375692
2016-04-25,1,0.0020034414544909352,0.0023643702348634895,-0.009782713361033653,0.002123728678661516,0.9885244339449546
2016-04-27,1,0.0023827284230310618,0.0027939114974976993,-0.009782713361033653,0.004702163445809766,0.9866226530759462
2016-04-29,1,0.0006457206096527317,0.0007917206171346115,-0.0078043701466181115,0.012768713533537196,0.9885604375963795
2016-05-03,1,0.0009450332599549412,0.0011835681440934376,-0.005226612149751583,0.012768713533537196,0.9889953449741085
2016-05-05,1,0.0007127664686152535,0.0009149396572102247,-0.004941792075399238,0.012768713533537196,0.9890064881727199
2016-05-09,1,0.00018031286595096682,0.00026503857558338075,-0.006622244404175744,0.012768713533537196,0.9883900019907416
2016-05-11,1,0.001046620718021141,0.0013043776739571607,-0.006622244404175744,0.008759056751911276,0.9893711042328974
2016-05-13,1,8.176843528886563e-05,0.00016086846434984088,-0.00513540054625448,0.008759056751911276,0.9889329602457911
2016-05-17,1,0.000276771959845048,0.0004514122308485626,-0.002630020463664837,0.008759056751911276,0.9895407903571023
2016-05-19,1,0.00047070004221444613,0.0006796713314227188,-0.0005736182598500832,0.006640369349319945,0.9904112030590944
2016-05-23,1,0.001750078991432654,0.0021369530456929247,-0.0005736182598500832,0.006640369349319945,0.9923224643726619
2016-05-25,1,0.0027510842714438544,0.003244205007182137,-0.0005736182598500832,0.006640369349319945,0.9936642950914202
2016-05-27,1,0.0030651934396367228,0.0035689391567649154,-0.00513540054625448,0.0060664606126878745,0.9903238896152421
2016-06-01,1,0.0019547974305890183,0.002081659020406055,-0.00513540054625448,0.006841145707275917,0.9891944421288912
2016-06-03,1,0.0016512330396358116,0.0017157763165796518,-0.005897611231606037,0.008845477691039497,0.9879372518124941
2016-06-07,1,0.0011115199703996459,0.0011603349280134686,-0.0067630187471292656,0.007790589284022598,0.9879040230176614
2016-06-09,1,0.0010450384678172896,0.0010937835277416976,-0.0067630187471292656,0.01296265755821912,0.9865351339595902
2016-06-13,1,0.0006708708752976482,0.0007395492961268114,0.0006105993736997741,0.017278092073563824,0.9856541239817168
2016-06-15,1,0.00045428419170026596,0.0005773650656964533,-0.0014464791857944064,0.017278092073563824,0.9852764783059051
2016-06-17,1,0.0004065690181959709,0.0005412817880769292,-0.0014464791857944064,0.017278092073563824,0.9847042942106462
2016-06-21,1,0.0010472173644869613,0.0010932665164723593,-0.0014464791857944064,0.01817407098878093,0.9849463022908591
2016-06-23,1,0.002436512972964963,0.002629318150389372,-0.009474715229752607,0.017588780084650465,0.9851734337403261
2016-06-27,-1,-0.0004358628511862751,-0.00024295583303924782,0.0009457815620315057,0.017588780084650465,0.9876030357332404
2016-06-29,0,-0.00013719395577024363,9.391924389287381e-05,0.0009457815620315057,0.013405177531266252,0.9883759531633187
2016-07-01,-1,-0.0006628920353438218,-0.0002798016737234454,0.0009457815620315057,0.011566623475491927,0.9876038242134034
2016-07-06,-1,-0.0018155078443123404,-0.0012658505911076802,0.0016713037224705036,0.011904701919780315,0.9865706444408564
2016-07-08,0,-1.5313822218336257e-05,0.00024089829519517855,0.0034233621866786874,0.012273539279593381,0.9878640767598647
2016-07-12,1,0.0010504372636704954,0.0011854350273715684,6.368405159021652e-06,0.011475111335469291,0.9896503105780684
2016-07-14,1,0.001119120834380245,0.001193597552558491,-0.003272562552392366,0.011475111335469291,0.9878439469413878
2016-07-18,1,0.0014380379116614396,0.0014779840563476521,-0.003272562552392366,0.011904701919780315,0.9877359047450806
2016-07-20,1,0.0024290032629311637,0.0025977580376478028,-0.006687226844199014,0.011475111335469291,0.9883262997301978
2016-07-22,1,0.0022831833651367813,0.0024658311118068137,-0.003272562552392366,0.011904701919780315,0.9883249751599893
2016-07-26,1,0.002319558469295358,0.0024914066761186943,-0.003272562552392366,0.011904701919780315,0.9885898672889611
2016-07-28,1,0.0025541605703103655,0.002757093396082479,-0.006687226844199014,0.011475111335469291,0.988195990721157
2016-08-01,1,0.0014658176874073206,0.0014913061811492887,-0.003272562552392366,0.009021913101256648,0.9898469434442881
2016-08-03,1,0.0017810411002021753,0.0018936553029294553,-0.003272562552392366,0.008008914685657783,0.9902587871175934
2016-08-05,1,0.0025501292322390903,0.002779506192708594,-0.0035607950585856527,0.0074674532393578345,0.9907934449345528
2016-08-09,1,0.002784398042218611,0.0030845789529579263,-0.003888518791865114,0.0074674532393578345,0.990940824308562
2016-08-11,1,0.001453024608680023,0.001583459650472597,-0.005497046621854765,0.0074674532393578345,0.9914003422807026
2016-08-15,1,0.0017942299676003124,0.0019619192408791225,-0.007670398044037396,0.0074674532393578345,0.9902908310636563
2016-08-17,1,0.001446101337319013,0.0015605182537830557,-0.005497046621854765,0.008008914685657783,0.989951048875337
2016-08-19,1,0.0026988729598479686,0.003043861808420063,-0.007424245704282857,0.006061313699584303,0.9906125634506382
2016-08-23,1,0.0029404222129797227,0.0033285853417290992,-0.007424245704282857,0.006260150371928402,0.9901724214182954
2016-08-25,1,0.002534487559087543,0.002839452813762408,-0.007424245704282857,0.0043822070979529695,0.9901271148104305
2016-08-29,1,0.002651330569175327,0.0029573442477012625,-0.007424245704282857,0.0057509149280887155,0.989505756148544
2016-08-31,1,0.0023171358357841594,0.0025761170046513116,-0.006572287805839011,0.006494531295745003,0.9903401508930283
2016-09-02,1,0.0028791173221394497,0.003230040086148249,-0.006572287805839011,0.006494531295745003,0.9902515550149145
2016-09-07,1,0.0024487420277406933,0.00271333005718257,-0.00535629990544502,0.012557885505462643,0.9902567017238096
2016-09-09,1,0.001471597695932511,0.0016498558330495785,-0.004094621293800475,0.014158432762399429,0.989996769544007
2016-09-13,1,0.0011673649634907333,0.0012640050377462886,-0.004094621293800475,0.014158432762399429,0.9898463869123179
2016-09-15,1,0.0015152240162075088,0.0016447585652832547,-0.0070020055550536215,0.012557885505462643,0.9897670677401993
2016-09-19,1,0.0011937666227118022,0.0012939154172002415,-0.004631379950734026,0.012557885505462643,0.9901847119366718
2016-09-21,1,0.000406188503425739,0.0005066425563976784,-0.004631379950734026,0.012557885505462643,0.9901113847426275
2016-09-23,-1,-0.0004737683059767155,-0.00025661746821310446,-0.002229606606196797,0.012557885505462643,0.9890590458619666
2016-09-27,-1,-0.0005568510249810499,-0.00030878598590501855,-0.0034949653259739146,0.014059234057195608,0.9887083320726333
2016-09-29,-1,-0.0006037784708997384,-0.0003351414599991598,-0.009103926862853886,0.014059234057195608,0.9885008395208702
2016-10-03,0,-8.57178039615163e-05,0.0001111797852945954,-0.009103926862853886,0.008692473245875297,0.9887713471431819
2016-10-05,0,-8.666562535843516e-05,0.00013916481232383255,-0.009103926862853886,0.006794920936700399,0.9890865760666966
2016-10-07,1,0.0005700575181094001,0.0007518971146461919,-0.009103926862853886,0.00544936125005188,0.990555654218677
2016-10-11,1,8.62659528013971e-06,0.00026308982133601286,-0.008545110216436589,0.006333220701776062,0.9907573732347698
2016-10-13,1,3.0325228951393426e-05,0.0002339639115385275,-0.008545110216436589,0.006333220701776062,0.9900831278060059
2016-10-17,1,0.0008561671705488249,0.0008940839245475028,-0.008545110216436589,0.0077992683372301915,0.9889794815641807
2016-10-19,1,0.0016584295966995703,0.001770099449235381,-0.008545110216436589,0.0077992683372301915,0.988354428984181
2016-10-21,1,0.0008651115311002404,0.0008702667730832291,-0.00686372777298273,0.011355860512415848,0.988556957996751
2016-10-25,1,0.0009037458081048195,0.00090609333515047,-0.005391426466552284,0.011499935052733364,0.9888439869217112
2016-10-27,1,0.0002374706008612719,0.0003248803775472057,-0.003156744487973356,0.011499935052733364,0.9891873249117354
2016-10-31,1,0.00032857941340849457,0.00039642540095708427,-0.0034809746853074275,0.011499935052733364,0.9890636048113801
2016-11-02,-1,-0.0005762947351734393,-0.00036489742487081907,-0.0065631293270793705,0.011499935052733364,0.9852745906772228
2016-11-04,-1,-0.000903035564565768,-0.0006550026406204286,-0.0009000461272481652,0.016630411512555475,0.9836013431458069
2016-11-08,1,0.0004599392983081532,0.0005487182665560101,-0.0009000461272481652,0.016630411512555475,0.9842986153303943
2016-11-10,-1,-0.0004191440452027763,-0.00025180432769068394,0.0019834648670216354,0.016630411512555475,0.9837747959048599
2016-11-14,1,0.0010299072896297096,0.0010614454798688116,-0.00021481557654317858,0.01571055585007545,0.9852935242921949
2016-11-16,-1,-0.0003110944722121941,-2.1261472764235053e-05,0.0005819887492580153,0.01498027840739462,0.985189876914771
2016-11-18,1,0.0013192908661886354,0.0013705482358450363,-0.005104474480539026,0.01498027840739462,0.9854124226450466
2016-11-22,1,0.0019368377314731423,0.001973360106996896,-0.005104474480539026,0.00964102602633945,0.9859585130638209
2016-11-25,1,0.0016731473014438597,0.001703297756237676,-0.005104474480539026,0.012544168913128309,0.9855617796726847
2016-11-29,1,0.0020888952585893543,0.002174270116443616,-0.006662133352811761,0.012544168913128309,0.9853004211280305
2016-12-01,-1,-0.0012469778425859318,-0.0009950200717706416,-0.004033123965656749,0.012544168913128309,0.9880311500854548
2016-12-05,0,-5.985300307593215e-05,6.253108224544147e-05,-0.004033123965656749,0.0095732863813724,0.9893278737371931
2016-12-07,1,0.0016053428411148575,0.0017144113318017583,-0.004033123965656749,0.006467484958487936,0.9910065702678966
2016-12-09,1,0.0009961830710862821,0.0010608796640490092,-0.003663037458325749,0.0095732863813724,0.9919123765304266
2016-12-13,1,0.000646333681082454,0.0006573944491027426,-0.003663037458325749,0.0095732863813724,0.9917002210292133
2016-12-15,1,0.0014892018400915925,0.0016216625956671513,-0.004809218825239674,0.0095732863813724,0.9908627034641576
2016-12-19,1,0.0019205331097027635,0.0021395969507669197,-0.003672986296182319,0.0095732863813724,0.9916879713304605
2016-12-21,1,0.0011592000335242107,0.001217800656347024,-0.003672986296182319,0.011450234854005833,0.9913033306777236
2016-12-23,1,0.0015735824442095693,0.0016779502336192328,-0.003672986296182319,0.013835147797882051,0.9903059329118209
2016-12-28,1,0.0014811459152398712,0.001636157385345151,-0.003672986296182319,0.014998719738167746,0.988661560578109
2016-12-30,1,0.0006953058321426117,0.000755229224505953,-0.0045777878104910075,0.014998719738167746,0.9879644979561034
2017-01-04,0,-4.348460473383326e-05,8.884076613957655e-05,-0.005129554449709217,0.017340593629809616,0.98717720289739
2017-01-06,1,0.00033483737877855935,0.0003927013244059148,-0.005129554449709217,0.017340593629809616,0.9871407127601358
2017-01-10,1,0.0003387682265064976,0.00040803188428865673,-0.008057241571889164,0.017340593629809616,0.9873194295491644
2017-01-12,1,0.0007697717258842222,0.0007985461154356415,-0.005663172653432642,0.017340593629809616,0.9878404029559704
2017-01-17,1,0.0010289923117980787,0.0011009639247604726,-0.004603381256980623,0.014363057636122233,0.989191082300205
2017-01-19,1,0.001313915287716484,0.001409558567842742,-0.006478721993703384,0.007297578389876547,0.9893623137405667
2017-01-23,1,0.0018955364839043786,0.0020811411099716593,-0.006478721993703384,0.008037375595465232,0.9888121269943588
2017-01-25,1,0.00271040563886372,0.0029745267990271018,-0.007790631700907908,0.003984268141385706,0.9895414101826194
2017-01-27,1,0.002996079743767046,0.0033138073267957088,-0.005856233832986207,0.004454085786197403,0.9918801692770347
2017-01-31,1,0.0018808506646695801,0.0020386778570426214,-0.004603381256980623,0.005504397253977588,0.9928690837732106
2017-02-02,1,0.0017562043037503143,0.001831223075478802,-0.005635997751450757,0.004454085786197403,0.9936670395070154
2017-02-06,1,0.0016717619750603809,0.0017426728441252402,-0.006507435295584382,0.004454085786197403,0.9933902391817349
2017-02-08,1,0.0014677266578952382,0.0015433710138656439,-0.005635997751450757,0.004454085786197403,0.9939248728008728
2017-02-10,1,0.0011511331450526831,0.001154680538596964,-0.005635997751450757,0.007088809772948037,0.9920809301985779
2017-02-14,1,0.001100895278334546,0.0011141564222460014,-0.00321571817864042,0.009135879564230124,0.9917060583974981
2017-02-16,1,0.00028367889325438603,0.0004033703419613371,-0.0016946662855722402,0.010773537954265878,0.9916849017661643
2017-02-21,1,0.0011885454844155247,0.0011909653884563897,-0.00321571817864042,0.009135879564230124,0.9920013462417832
2017-02-23,1,0.0011182750819214735,0.001123891517586914,-0.0016946662855722402,0.009203013438514856,0.9921932709550009
2017-02-27,1,0.001566618305228511,0.0016474404395631433,-0.0016946662855722402,0.010773537954265878,0.9919762326996778
2017-03-01,1,0.0017364738358451935,0.0018741194250161896,-0.0006886224093173815,0.010443927428797226,0.9926575782513954
2017-03-03,1,0.0020832115737484305,0.0023066000401711917,-0.0006886224093173815,0.010443927428797226,0.9929028558573832
2017-03-07,1,0.0015001557802527858,0.0016224126636709241,-0.00039313223598379894,0.010443927428797226,0.9932785913590315
2017-03-09,1,0.0011222797757601247,0.0011497350422337285,-0.00039313223598379894,0.010443927428797226,0.9924999823752272
2017-03-13,1,0.002236319165167037,0.0024089947685148553,-0.000401191725600789,0.006941940767942135,0.994237383004912
2017-03-15,1,0.002788066298155167,0.0030564559249272255,-0.002948074670739858,0.004639514747837382,0.9937616341538336
2017-03-17,1,0.0026822037458236296,0.002883318554611643,-0.004862037325083354,0.004347971528272046,0.993139365643319
2017-03-21,1,0.0019882532037651416,0.0020994471799035603,-0.002948074670739858,0.006941940767942135,0.9910042012457919
2017-03-23,1,0.001705774436529475,0.0017877246517808412,-0.002948074670739858,0.006941940767942135,0.9902881854027846
2017-03-27,1,0.002077973458499128,0.002203635476894601,-0.002948074670739858,0.010712379156114707,0.9892635743919591
2017-03-29,1,0.0017350129704624862,0.001790333923730054,-0.002948074670739858,0.011994053304076437,0.9887841608805322
2017-03-31,1,0.001495252633653115,0.0014987029601800615,-0.004862037325083354,0.017460921071412255,0.9869878463552917
2017-04-04,1,0.002031247773500483,0.0021557018739426564,-0.004862037325083354,0.017460921071412255,0.9870476103261071
2017-04-06,1,0.0012967057576792583,0.0013325193386053075,-0.0024606838804984757,0.017460921071412255,0.9874967439412377
2017-04-10,1,0.0014878388781758467,0.0015165784934450524,-0.0034557452721021243,0.017460921071412255,0.9870164004337192
2017-04-12,1,0.001114695572235474,0.0011255511301480627,-0.0017843411557904238,0.017460921071412255,0.9873813561899324
2017-04-17,1,0.0017302516461540952,0.0018769634788326503,-0.0017843411557904238,0.012992239172602204,0.9881445496929181
2017-04-19,1,0.003380921390558724,0.003774530504561751,-0.002060902847440692,0.010504492671139752,0.9898165881195163
2017-04-21,1,0.004120528937442814,0.004617692254979317,-0.002060902847440692,0.012785535292657364,0.9896223153169627
2017-04-25,1,0.005030840800471369,0.005642130929401572,-0.002060902847440692,0.009701861215276778,0.9909976980991335
2017-04-27,1,0.0028194864888376582,0.0029698993053604464,-0.0025970431545655594,0.008776445070095439,0.9909927343125786
2017-05-01,1,0.0032908824615521352,0.0035697227808358443,-0.002060902847440692,0.008776445070095439,0.9927497839087471
2017-05-03,1,0.003779810214929574,0.004184298303094254,-0.0025970431545655594,0.008776445070095439,0.9921086462630485
2017-05-05,1,0.003104290713851319,0.003342780253642528,-0.0025970431545655594,0.010143635228277645,0.9913286769787458
2017-05-09,1,0.002944853683791384,0.003149956520222272,0.001942927729070449,0.010143635228277645,0.9917775916412874
2017-05-11,1,0.002920386555496252,0.0031487045413191635,0.001942927729070449,0.011285771125942642,0.9895407757933636
2017-05-15,1,0.003059277766700362,0.0032958814631827258,0.0016137363757534602,0.010143635228277645,0.9890704427784848
2017-05-17,1,0.0016571829218122787,0.001690919197204048,-0.005397707828904108,0.010143635228277645,0.9880939748041195
2017-05-19,1,0.002644153782876,0.0028270810743979166,-0.005397707828904108,0.008579528885516866,0.9889914518101122
2017-05-23,1,0.002471244448546903,0.002615178042607429,-0.007129771687793721,0.008579528885516866,0.9884498034567165
2017-05-25,1,0.0020558252429203824,0.0020999469327598118,-0.007129771687793721,0.010143635228277645,0.9879595096479855
2017-05-30,1,0.002624673410271324,0.0027545322792239617,-0.016054303406170627,0.008579528885516866,0.9862108501951616
2017-06-01,1,0.0023116382669072172,0.0023985557931249686,-0.018967640167971145,0.010222474182984062,0.9842357354016695
2017-06-05,1,0.0027636785753756034,0.002913962266760786,-0.018967640167971145,0.006050014479179908,0.98385424242318
2017-06-07,1,0.0027619651275662058,0.0028982316500450562,-0.018967640167971145,0.010055627557205887,0.9828676316006534
2017-06-09,1,0.0009668135414918868,0.00106159962347788,-0.016054303406170627,0.013271379170559802,0.9838915171945154
2017-06-13,1,0.00030557615671915957,0.0004712425335672271,-0.015167983337596955,0.01842716075310207,0.9840256021906303
2017-06-15,-1,-0.0012880529738115826,-0.0009572800330015628,-0.006036286145061737,0.01842716075310207,0.9851297449643454
2017-06-19,-1,-0.00021106036888366835,-5.00180175715862e-05,-0.006036286145061737,0.015997450424728575,0.9854095352286375
2017-06-21,0,-0.0001328445896767122,3.618686002977478e-05,-0.005988961536144438,0.018494290011411556,0.9843144042775624
2017-06-23,-1,-0.000740010418092468,-0.0004408834828504146,-0.006773862241362477,0.018494290011411556,0.9845134095099569
2017-06-27,-1,-0.0025365711808002303,-0.002055087113285596,0.0010452002486256826,0.019868870519493327,0.9846340272599955
2017-06-29,-1,-0.0034435171651498874,-0.002848563186474491,-0.003141541247552661,0.018494290011411556,0.9854278548112115
2017-07-03,-1,-0.0046299386093734615,-0.0038746440010777924,-0.0034523659877762226,0.018494290011411556,0.9847491881332837
2017-07-06,-1,-0.004011912202425222,-0.003339250320934392,-0.012717389872760687,0.015997450424728575,0.9846877732208058
2017-07-10,-1,-0.0027878501044507308,-0.002248825223900839,-0.012717389872760687,0.015131074938598388,0.9850328123213914
2017-07-12,-1,-0.0023434953903002757,-0.0018234224539829353,-0.012717389872760687,0.00956690731363175,0.9864223931044798
2017-07-14,-1,-0.0011933342424884376,-0.0008502474376427925,-0.014303437056202219,0.00956690731363175,0.9840352422154711
2017-07-18,-1,-0.000883889915095138,-0.0005605785164888839,-0.014303437056202219,0.013750504367729725,0.9829309018617847
2017-07-20,1,0.00023471730204082406,0.00040845879675976895,-0.017909364396081477,0.012549381131193176,0.9821697717278908
2017-07-24,0,-3.6847990619439676e-05,0.0001684079103408102,-0.017909364396081477,0.014305048277578808,0.981510425534794
2017-07-26,1,0.0004003698346172418,0.0005789981219993265,-0.017909364396081477,0.014305048277578808,0.9803782455795186
2017-07-28,-1,-0.001791950837202788,-0.001333409241585122,-0.014303437056202219,0.014305048277578808,0.981619832744421
2017-08-01,-1,-0.003045812382558033,-0.0024407479040547348,-0.01413852710386819,0.018047376916344907,0.981168593674685
2017-08-03,-1,-0.005129996471142442,-0.004339434828403212,-0.00775366067915196,0.018047376916344907,0.9815502768314428
2017-08-07,-1,-0.003268871096924076,-0.002720002343011717,-0.012916257831460182,0.016786875035606833,0.9835709765458093
2017-08-09,-1,-0.00309877216079523,-0.0025997791746475377,-0.012916257831460182,0.018047376916344907,0.9821137153259923
2017-08-11,-1,-0.004167441366176157,-0.0035087057274636874,-0.012916257831460182,0.018047376916344907,0.9832106224767397
2017-08-15,-1,-0.0029671405647098657,-0.0024619271753947877,-0.012916257831460182,0.016786875035606833,0.9848743936018689
2017-08-17,-1,-0.003212088941803996,-0.0026997334936920284,-0.00775366067915196,0.013720341213379656,0.9864154724170827
2017-08-21,-1,-0.003288731028012071,-0.002766349375404049,-0.0023148427042637004,0.016786875035606833,0.9861673296313684
2017-08-23,-1,-0.002586807180933277,-0.0021505973147574785,-0.004718900573782454,0.011814409593603272,0.987660883217807
2017-08-25,-1,-0.003536859124611681,-0.002993174946546901,-0.0018729359744921906,0.016786875035606833,0.9851137373770465
2017-08-29,-1,-0.0025263980813705032,-0.002102499736166408,-0.004280196072603797,0.017760649877421618,0.9840787731902886
2017-08-31,-1,-0.002054747296503765,-0.0016999939673994612,-0.004280196072603797,0.018706225391672805,0.9837921501744529
2017-09-05,-1,-0.0031573489070425512,-0.0026318836419780087,-0.004280196072603797,0.018706225391672805,0.984009394721675
2017-09-07,-1,-0.002151690212814984,-0.001752918478656865,-0.004669357781047278,0.01458689862926825,0.9852287837508161
2017-09-11,-1,-0.000766121272028931,-0.0005815527010512299,-0.004280196072603797,0.011632280152255025,0.986926030570624
2017-09-13,0,-3.4689413684592244e-05,2.27321805046688e-05,-0.004280196072603797,0.011632280152255025,0.987057210310476
2017-09-15,1,0.000958812153936648,0.0010907829202321858,-0.004280196072603797,0.01405002914973098,0.986722861090885
2017-09-19,1,0.0018478147951278493,0.0021055935074586083,-0.004280196072603797,0.013102154100207897,0.9870890335644013
2017-09-21,1,0.0007908494875782535,0.000943827845775267,0.0003786343380179663,0.01405002914973098,0.9867709330503016
2017-09-25,1,0.0004516878959985019,0.0005651921950249857,0.0011775823779843777,0.01405002914973098,0.9885053133153088
2017-09-27,1,0.0018568128767707825,0.0021599472445007813,0.0005478571495113215,0.013102154100207897,0.9915252319464531
2017-09-29,1,0.0027664275027583242,0.0031879414062704293,0.0005478571495113215,0.011777242517780296,0.9921510942384903
2017-10-03,1,0.002565690465456495,0.0029520240430827597,0.0005478571495113215,0.01185886499479538,0.9916480944336121
2017-10-05,1,0.002248583705422073,0.002615516133232136,0.0009140090128882877,0.013606233404138642,0.9900616479027852
2017-10-09,1,0.00197948015405536,0.0022416101562781144,0.0008458696680619527,0.013606233404138642,0.9902412823071354
2017-10-11,1,0.002795437929682935,0.003224404091846413,0.0008458696680619527,0.013606233404138642,0.9899998815380587
2017-10-13,1,0.0034813263505089074,0.004012294690291187,-0.0006650867238988227,0.012383584922024383,0.989402375956463
2017-10-17,1,0.004231996010206027,0.004865005246898019,-0.0021537800094755632,0.011668652573800025,0.9897100239217946
2017-10-19,1,0.005491800078663456,0.006326420679627985,-0.003049507170503944,0.011668652573800025,0.9896689824644668
2017-10-23,1,0.006178087255257038,0.007077119317340433,-0.0049673335259564555,0.011668652573800025,0.9887831945858336
2017-10-25,1,0.005978546319473346,0.006892341377704109,-0.0049673335259564555,0.013573199355413951,0.9884401333606172
2017-10-27,1,0.006756883155685711,0.007798506650774396,-0.009714764796994688,0.011668652573800025,0.9873223262941899
2017-10-31,1,0.0060540305282660856,0.006826069087873079,-0.013944275399499592,0.010906424445859814,0.9835225291657156
2017-11-02,1,0.0056030060043167195,0.006196948639651204,-0.013944275399499592,0.009969149009800551,0.9834343200665633
2017-11-06,1,0.004627282393078827,0.004978247260162827,-0.018671783373974467,0.009969149009800551,0.9816436263092917
2017-11-08,1,0.00548121929406325,0.005953874138268882,-0.018671783373974467,0.012286251300244737,0.9803567911484793
2017-11-10,1,0.004511139935267276,0.004838724340778063,-0.014976378650877198,0.012286251300244737,0.9804387239229782
2017-11-14,1,0.004457444498830691,0.004777675025739546,-0.018189110258815314,0.012286251300244737,0.9794548570961413
2017-11-16,1,0.003934415105547408,0.004070884971799171,-0.018189110258815314,0.012286251300244737,0.9800308004333578
2017-11-20,1,0.003618551615179722,0.0036591335554481104,-0.018189110258815314,0.011547969539658223,0.9802693877005251
2017-11-22,1,0.002537639815907592,0.00267130382963197,-0.018045742802250637,0.011511836105115475,0.9806715530063416
