JNU-Tangyin/eata/results/Batch4_SP500/Batch4_SP500-EW.csv
Date,Action,Predicted_Q25,Predicted_Q75,Actual_Q25,Actual_Q75,RL_Reward
2010-12-14,0,0.0,0.00429102435899963,-0.008398923063445654,0.005375723475580432,0.989519253024128
2010-12-16,1,0.006401723909013302,0.007138498770429037,-0.008398923063445654,0.005375723475580432,0.9860990639405085
2010-12-20,1,0.0069394824397178805,0.007702554853116224,-0.008398923063445654,0.005966740431632592,0.987190472800185
2010-12-22,1,0.006167363491768739,0.00682595377667682,-0.007246483732501016,0.005966740431632592,0.9882857431146044
2010-12-27,1,0.007122862310296169,0.007777623898370771,-0.00563932856859829,0.009168666005664317,0.9888193962310855
2010-12-29,1,0.007471427221419302,0.008189668139149859,-0.00563932856859829,0.00929458156371001,0.9886293350519705
2010-12-31,1,0.006400588375225948,0.006948183186618186,-0.00563932856859829,0.012989147612510283,0.9886420844528486
2011-01-04,1,0.005453364480431039,0.005832249998971768,-0.003860546643660649,0.01402139354494318,0.989716406710738
2011-01-06,1,0.004172067864233659,0.004355926728451224,-0.003860546643660649,0.01402139354494318,0.9906715846766373
2011-01-10,0,0.0,0.0,-0.0016904723367600267,0.01595482932806068,0.9892655560414838
2011-01-12,0,0.0,0.0,-0.0007009889158109472,0.01398906340482323,0.9901489662740549
2011-01-14,1,0.0026983897594541886,0.00280154905005091,0.0002799472920282759,0.009706882857125272,0.9923593744912151
2011-01-19,1,0.0030417100834554682,0.0031104466956119597,-0.0032268645535118478,0.008200493311915007,0.9926919861417866
2011-01-21,1,0.0029481108396075496,0.003020632766857706,0.0002799472920282759,0.008920305296533254,0.9932393198251285
2011-01-25,1,0.002584167312852931,0.0026926670847295447,-0.003461643169748292,0.008920305296533254,0.9908320311809832
2011-01-27,1,0.005428287303316546,0.005829657194776149,-0.004944175643065738,0.008920305296533254,0.9900681116924663
2011-01-31,1,0.004715916611889369,0.004989441860034647,-0.004944175643065738,0.0063849261730268315,0.9906068942650185
2011-02-02,0,0.0,0.0,-0.004944175643065738,0.008920305296533254,0.988488873046801
2011-02-04,0,0.0,0.0,-0.004944175643065738,0.008920305296533254,0.9882416033929539
2011-02-08,0,0.0,0.0,-0.004944175643065738,0.006810915930209967,0.9886051447886167
2011-02-10,0,0.0,0.0,-0.00867461743326128,0.010566874705402558,0.9866750734975517
2011-02-14,0,0.0,0.0,-0.01516004439509879,0.010566874705402558,0.9852392990535892
2011-02-16,0,0.0,0.0,-0.01516004439509879,0.010566874705402558,0.9850992984735392
2011-02-18,0,0.0,0.0,-0.01516004439509879,0.011829305491044814,0.984467858913573
2011-02-23,0,0.0,0.0,-0.012470466880691845,0.011829305491044814,0.9854726129924481
2011-02-25,0,0.0,0.0,-0.012470466880691845,0.011829305491044814,0.9849319552684589
2011-03-01,1,0.002282216129078962,0.0023673879107127026,-0.010828833654029696,0.011829305491044814,0.9855385642010284
2011-03-03,1,0.003484437873585486,0.0037263636113871847,-0.010828833654029696,0.006028046291600963,0.9876024140728495
2011-03-07,1,0.002657013477594479,0.0027583246616464403,-0.010591627533907768,0.006028046291600963,0.987573324464981
2011-03-09,1,0.002652027663356456,0.0027542473312306423,-0.010926842876755818,0.000994923667526734,0.9860326208679497
2011-03-11,1,0.0013233601489014554,0.0013664264546641362,-0.010591627533907768,0.003047568296311994,0.9885653080224307
2011-03-15,0,-7.789896696050198e-05,0.00015763863733160935,-0.010487751567637121,0.003409693461918434,0.9906029158961438
2011-03-17,0,0.0,0.0,-0.010487751567637121,0.003409693461918434,0.9899738100452941
2011-03-21,0,0.0,0.0,-0.01052042130854583,0.003047568296311994,0.9899031313588067
2011-03-23,0,0.0,0.0,-0.006686535985803476,0.003409693461918434,0.9896516469352364
2011-03-25,0,0.0,0.0,-0.007757169442420188,0.003409693461918434,0.9907293640058431
2011-03-29,0,0.0,0.0,-0.007757169442420188,0.003968196396967227,0.9903491688511523
2011-03-31,0,0.0,0.0,-0.006686535985803476,0.005629056244115456,0.9895217183814734
2011-04-04,0,0.0,0.0,-0.005953030798841131,0.005629056244115456,0.9898525603150926
2011-04-06,0,0.0,0.0,-0.003082123515338049,0.006661161440381937,0.9910234257207685
2011-04-08,0,0.0,0.0,-0.003082123515338049,0.008887781586119045,0.9905205481429471
2011-04-12,0,0.0,0.0,-0.005953030798841131,0.008887781586119045,0.9900622490678349
2011-04-14,0,0.0,0.0,-0.00615688244748221,0.008887781586119045,0.989859011067514
2011-04-18,0,0.0,0.0,-0.00615688244748221,0.011966123968431068,0.9902324875126574
2011-04-20,0,0.0,0.0,-0.00615688244748221,0.01167798464190184,0.9911361010144448
2011-04-25,0,0.0,0.0,-0.00615688244748221,0.01167798464190184,0.9910735786534193
2011-04-27,0,0.0,0.0,-0.004073078756439259,0.01167798464190184,0.9914644722572549
2011-04-29,0,0.0,0.0,-0.005861207575395743,0.0077646567806086385,0.9923566659743075
2011-05-03,0,0.0,0.0,-0.005861207575395743,0.008445303812638494,0.9918976915043121
2011-05-05,0,0.0,0.0,-0.007426537788728344,0.006698960033371533,0.9919229005039328
2011-05-09,0,0.0,0.0,-0.007426537788728344,0.005629189553114524,0.9923967257767665
2011-05-11,0,0.0,0.0004342318508388786,-0.006452036162302473,0.0055238603360413495,0.9926725095288511
2011-05-13,1,0.000607169589341549,0.0006763351151593512,-0.007377549165098104,0.004930519243291409,0.99198118376889
2011-05-17,0,0.0,0.0,-0.007377549165098104,0.004930519243291409,0.9909511320981458
2011-05-19,1,0.0007666957449144706,0.0007948464159024275,-0.007502360337375554,0.004930519243291409,0.9906465086254695
2011-05-23,1,9.59913998673648e-05,0.00014932149405983366,-0.007377549165098104,0.004930519243291409,0.9915297936298718
2011-05-25,1,0.00010469248772831748,0.00016467528757437363,-0.007377549165098104,0.005494843962619366,0.9913761635970317
2011-05-27,-1,-0.00019992519881704951,-8.137423026751984e-05,-0.007377549165098104,0.005963711700802932,0.9914267350076417
2011-06-01,-1,-0.0005238911549997565,-0.000354881351142431,-0.0064378497009895275,0.005494843962619366,0.9923196982398047
2011-06-03,-1,-0.0013190648469914323,-0.0010356006465839498,-0.005263250581492657,0.006396250292358909,0.9913554213307183
2011-06-07,0,0.0,0.0,-0.00364998133344023,0.00958091630809566,0.9904324471056949
2011-06-09,-1,-0.0005866049566221669,-0.00039922011150612664,-0.0021879662398878036,0.00958091630809566,0.9907464405771491
2011-06-13,-1,-0.0008049537664524328,-0.0006197141538284782,-0.002120061273724769,0.00958091630809566,0.9917798305164863
2011-06-15,0,0.0,0.0,-0.002120061273724769,0.007917446253811276,0.9935850633066821
2011-06-17,-1,-0.0010915692745539795,-0.0009124606918150142,-0.002120061273724769,0.007682701913819733,0.9932477080918093
2011-06-21,-1,-0.0006902788931650219,-0.0005894251449550052,-0.002619811757189764,0.007682701913819733,0.9924209584122952
2011-06-23,-1,-0.0013215850567070697,-0.0011274608586276805,-0.005548049360869691,0.007682701913819733,0.9874344010712683
2011-06-27,0,0.0,0.0,-0.009242067604735584,0.0059458164047689705,0.9854444221180102
2011-06-29,0,0.0,0.0,-0.014333260732539899,0.008876683288121029,0.9834113527764403
2011-07-01,0,0.0,0.0,-0.018420726607552562,0.0032605036962864275,0.9832618382891574
2011-07-06,0,0.0,0.0,-0.018420726607552562,0.001088052889694996,0.983509303309443
2011-07-08,1,0.0021408646884658387,0.0024583553119211037,-0.025778357151761598,-0.0001919197951955253,0.9801327108876021
2011-07-12,1,0.0015685343445749332,0.0017964937801598102,-0.035423226341786185,0.0017068421112088426,0.976471918043937
2011-07-14,1,0.0018691412660610512,0.002171116898702268,-0.045274173773566115,0.0025357871551498464,0.9720352213780948
2011-07-18,1,0.0008187234462635679,0.0008644673101609092,-0.045274173773566115,0.005063600860150649,0.9711904061644568
2011-07-20,1,0.0001076495418754983,0.00011135277043430635,-0.045274173773566115,0.008034832106411947,0.9717057925526282
2011-07-22,-1,-0.005294395616748431,-0.004626038628906853,-0.027819584827788284,0.008917960459451415,0.9762538766314919
2011-07-26,-1,-0.004543710309364952,-0.0041095989729964715,-0.01910113583289479,0.015418646823909515,0.9756061273373308
2011-07-28,-1,-0.0052345511897177645,-0.004695564437674316,-0.017350460235158346,0.023385771221564704,0.9756775932991515
2011-08-01,-1,-0.006086503988868063,-0.005492735438995344,-0.013278311248739507,0.027442897919181287,0.9734710050692643
2011-08-03,-1,-0.004553531340779645,-0.004106852069657152,-0.013278311248739507,0.025187626779591805,0.9746362902125961
2011-08-05,-1,-0.007398128950729305,-0.006555315157637801,-0.01398670772687402,0.025187626779591805,0.9747087614838472
2011-08-09,-1,-0.007625637208377299,-0.006788668943859459,-0.011485059791593557,0.022687633257320084,0.9772510776218061
2011-08-11,-1,-0.006399365996686968,-0.005729896444030637,-0.01398670772687402,0.016055355189803333,0.9802222561253237
2011-08-15,-1,-0.00581236894407235,-0.005153975221610943,-0.01398670772687402,0.016055355189803333,0.9806979560112568
2011-08-17,-1,-0.004817485823585875,-0.004367996523105818,-0.01398670772687402,0.022636794168367103,0.9794114043131951
2011-08-19,-1,-0.005219971526693054,-0.004717102046501361,-0.003852652840524903,0.022636794168367103,0.979849761673781
2011-08-23,-1,-0.003376736781096045,-0.0030693965685499904,-0.01398670772687402,0.017794407355908017,0.9810157275073812
2011-08-25,-1,-0.004362398792634892,-0.0039013566187739235,-0.014763064355465368,0.015990559376202064,0.981697750840977
2011-08-29,-1,-0.0025512268982272874,-0.0022594399040595185,-0.014763064355465368,0.015990559376202064,0.982689378605337
2011-08-31,-1,-0.0018019933573427066,-0.0016194413570274958,-0.023888243988315995,0.015990559376202064,0.9794285551737454
2011-09-02,-1,-0.0031735974650672167,-0.0028366928811985256,-0.02401422296134088,0.015990559376202064,0.978526595967578
2011-09-07,0,0.0,0.0,-0.02401422296134088,0.015990559376202064,0.9788772477363382
2011-09-09,0,0.0,0.0,-0.014181924160134814,0.01875689313948095,0.9796744300682387
2011-09-13,-1,-0.0018521244741404254,-0.0017005804660906868,-0.014181924160134814,0.016622140719243735,0.9809970056976853
2011-09-15,-1,-5.566125309147601e-05,-3.938527285752647e-06,-0.014182523628509764,0.015791569992081932,0.9823924108133768
2011-09-19,1,0.0005265409253706612,0.0006623044104073542,-0.02401422296134088,0.015791569992081932,0.9801833613863478
2011-09-21,0,0.0,0.0,-0.02401422296134088,0.016232505628459935,0.9793635379617006
2011-09-23,0,0.0,0.0,-0.01453038615139304,0.01967315380796816,0.9766917953824548
2011-09-27,0,0.0,0.0,-0.027238330668839253,0.01967315380796816,0.9757753719759718
2011-09-29,0,0.0,0.0,-0.011020645223485535,0.021840823983843925,0.9784724295580184
2011-10-03,0,0.0,0.0,-0.009065968739958997,0.021840823983843925,0.9798819044060036
2011-10-05,0,0.0,0.0,-0.009066168562750648,0.020321248119021477,0.979651003871886
2011-10-07,0,0.0,0.0,-0.009066168562750648,0.020321248119021477,0.9798722270286653
2011-10-11,0,0.0,0.0,-0.009066168562750648,0.020321248119021477,0.9801295492631434
2011-10-13,-1,-0.0015855862804357453,-0.0015351876301495193,-0.02743856942096774,0.020321248119021477,0.9761019102380902
2011-10-17,-1,-0.0016594144949557297,-0.0016402920176197845,-0.012642056272992698,0.022789275044886887,0.9776526118525527
2011-10-19,-1,-0.0019226341131487151,-0.0019113696705014885,-0.022862760335269048,0.01998930416164915,0.9771277250568967
2011-10-21,1,0.0012295221280955904,0.0016222397595413557,-0.02538230207600322,0.00919703933353314,0.9791501142235771
2011-10-25,1,0.0006524255884171803,0.0009581208239961221,-0.022862760335269048,0.00919703933353314,0.9806689972745064
2011-10-27,1,0.00222120295889069,0.0027424630349283724,-0.022862760335269048,0.0026766798570625884,0.9809915024802753
2011-10-31,1,0.0023872844489252728,0.002934457587345325,-0.022862760335269048,0.0036136383206397016,0.9804073406224639
2011-11-02,1,0.0012314453433724534,0.0015516806414816071,-0.01790918553045233,0.013450488354980757,0.9803854571675131
2011-11-04,1,0.0022269894146778116,0.002677770535572504,-0.02292026687844358,0.005913938468401727,0.9803206090959087
2011-11-08,1,0.0024358367535564024,0.002939802077452226,-0.02292026687844358,0.005913938468401727,0.9800362722223659
2011-11-10,-1,-0.0010425394139949396,-0.0009876903222170719,-0.01558945046505441,0.011372669072334089,0.9845965841624917
2011-11-14,1,0.0004460000633365758,0.0007301464919346701,-0.01558945046505441,0.011372669072334089,0.9825011961490188
2011-11-16,-1,-0.0021012741051594603,-0.002069186181382494,-0.011777642152443457,0.011372669072334089,0.9850780586715351
2011-11-18,-1,-0.002838784643499929,-0.002723833860382715,-0.008014313606382141,0.013196868869621214,0.9853722226192904
2011-11-22,-1,-0.0018002251225973144,-0.0017146760832749833,-0.006364135604181571,0.013196868869621214,0.9848566459420952
2011-11-25,-1,-0.0010642689190144172,-0.0007999250962328853,-0.005783032205650602,0.013196868869621214,0.9846136067616583
2011-11-29,0,-0.00031840190483502446,5.015015847898417e-05,-0.006662972870802506,0.011372669072334089,0.9855633021236456
2011-12-01,1,0.0016591358671146166,0.0022751362479654603,-0.008778196199680136,0.008852846567448287,0.9868158866354705
2011-12-05,0,0.0,0.0,-0.008778196199680136,0.012453844639799306,0.9863485031343151
2011-12-07,0,0.0,0.0,-0.008778196199680136,0.015861899431089746,0.985279564023679
2011-12-09,0,0.0,0.0,-0.006662972870802506,0.01692719592891472,0.985218297280877
2011-12-13,0,0.0,0.0,-0.004378590345014222,0.015861899431089746,0.9880818694456754
2011-12-15,-1,-0.001099762925190292,-0.0010473166366224262,-0.006662972870802506,0.015861899431089746,0.9880700575640334
2011-12-19,0,0.0,0.0,-0.006662972870802506,0.016348699787987597,0.9852054568730046
2011-12-21,0,0.0,0.0,-0.00872932547540598,0.016348699787987597,0.9856971931998147
2011-12-23,0,0.0,0.0,-0.009752969179392253,0.016348699787987597,0.9855979068956799
2011-12-28,1,4.497140752795397e-05,0.0002005405791394561,-0.009752969179392253,0.016348699787987597,0.9852540715904484
2011-12-30,1,3.880518901208294e-06,0.00022674022021931296,-0.009752969179392253,0.016348699787987597,0.9833947954569423
2012-01-04,-1,-0.00032056763267926934,-0.00011902972838991163,-0.010287488131436236,0.013611482147964048,0.98389560478644
2012-01-06,1,0.00121797325374558,0.001297093723940017,-0.011583182590334883,0.012144483821029273,0.9794686590198135
2012-01-10,1,0.0017368924702795723,0.001856758611449251,-0.011583182590334883,0.012144483821029273,0.9799110081742439
2012-01-12,1,0.0010289267859906973,0.0010449494000817914,-0.011583182590334883,0.012144483821029273,0.9793725589975137
2012-01-17,1,0.001097379248573216,0.001191045354331691,-0.009752969179392253,0.012144483821029273,0.9804609022578049
2012-01-19,1,0.002858588533994434,0.003170342753428052,-0.009752969179392253,0.012144483821029273,0.9829906600146109
2012-01-23,1,0.004602244007780193,0.005240553681265415,-0.01015473954925701,0.008635753575041257,0.9835466291178123
2012-01-25,1,0.0042265371464116006,0.004848487669701022,-0.009866429315261317,0.008635753575041257,0.9832628230495325
2012-01-27,1,0.00369604107053735,0.004158613579149187,-0.009866429315261317,0.007662930792266975,0.9834886404848278
2012-01-31,1,0.0056755167291546,0.00647027070552602,-0.00929982084781514,0.005963730847823381,0.9853861678113478
2012-02-02,1,0.003479753515077434,0.003830066069501916,-0.00929982084781514,0.005963730847823381,0.9860212623999511
2012-02-06,1,0.00189341525900668,0.0021950916244497156,-0.00929982084781514,0.005120171584675582,0.9900164130327489
2012-02-08,1,0.0026518044659591183,0.003112791559746746,-0.00929982084781514,0.0019759556277752915,0.9900390692771934
2012-02-10,1,0.002776985226258793,0.003301555754528206,-0.009180540713987745,0.003800462267292621,0.9906342456251154
2012-02-14,1,0.002507849377444408,0.002913404166325074,-0.009180540713987745,0.004833633192560355,0.9907831014601952
2012-02-16,1,0.0031485771535052645,0.0036477597342935457,-0.009180540713987745,0.00460458442406352,0.9908798890100943
2012-02-21,1,0.0027258108411915075,0.0032371810861003924,-0.009180540713987745,0.004889212293136066,0.9912956659692695
2012-02-23,1,0.001644384804064734,0.0017921475791365963,-0.006745810453853993,0.005643477233525476,0.9919722470440538
2012-02-27,0,0.0,0.0,-0.005616150080279685,0.005643477233525476,0.9897793384894997
2012-02-29,0,0.0,0.0,-0.011802556414516658,0.005643477233525476,0.9884394362266191
2012-03-02,0,0.0,0.0,-0.005616150080279685,0.005643477233525476,0.9895372845609244
2012-03-06,0,0.0,0.0,-0.003688322225046745,0.005710016453228189,0.990311036457763
2012-03-08,-1,-0.0026640103434979047,-0.0022951423979077333,-0.003836045540810891,0.005710016453228189,0.989381336005462
2012-03-12,-1,-0.0028492582300641625,-0.0023974054084851034,-0.00895831578303333,0.0056625923656148935,0.9894656019473052
2012-03-14,-1,-0.0024669721241627664,-0.0020663843218160366,-0.00895831578303333,0.010154505576177978,0.9884589526356925
2012-03-16,1,0.0007407327708159658,0.0009237143906942347,-0.011520656665063432,0.006702062038612315,0.986496838440696
2012-03-20,1,0.0003079623877810161,0.0004031215421385833,-0.00895831578303333,0.01238938455439821,0.9847414923856703
2012-03-22,1,0.0012240446357636506,0.0015240245836965031,-0.00895831578303333,0.01238938455439821,0.9846604997088976
2012-03-26,1,0.003165215077801253,0.0037276060356591168,-0.00895831578303333,0.007549795705958384,0.9869828565406732
2012-03-28,1,0.0011785971030387646,0.0014365282422381513,-0.0030719503238235478,0.01238938455439821,0.9843477019496241
2012-03-30,1,0.0017366076791898832,0.0021470964255872428,-0.0027318482419082246,0.01238938455439821,0.9841352072038455
2012-04-03,1,0.0019050258542625184,0.0023328643160592396,-0.001500901138079658,0.015351835652218293,0.9833393492145651
2012-04-05,-1,-0.000539335262854325,-0.0004562716125181621,-0.0015316780800962268,0.015351835652218293,0.9829361477194719
2012-04-10,-1,-0.0007177027036538058,-0.0006704755866601127,-0.0011561614184029969,0.015351835652218293,0.9833895094299094
2012-04-12,-1,-0.0010125104767274482,-0.0007929793513419146,-0.0014765681639753105,0.013207613079771164,0.984010743162293
2012-04-16,-1,-0.004541167114389682,-0.003807498925860128,-0.0011561614184029969,0.013207613079771164,0.9839892109853243
2012-04-18,-1,-0.0020195380215031916,-0.001562641840885191,-0.001970147142944787,0.006398788524275899,0.9883705212672259
2012-04-20,-1,-0.002047222323106116,-0.001556340274883437,-0.006223755253467565,0.006286143418474922,0.988505412321224
2012-04-24,-1,-0.0019455963753790895,-0.0014862439767585134,-0.0073051426742184455,0.008589082908101208,0.9869806875543505
2012-04-26,1,0.0026334736044181335,0.002828975045053004,-0.0073051426742184455,0.013207613079771164,0.9893007790007815
2012-04-30,1,0.0027556901635661544,0.002912105549614498,-0.0073051426742184455,0.009926881635773991,0.9895682795714151
2012-05-02,1,0.003642441386257222,0.0038874677742638357,-0.007789137232769392,0.002586309103424696,0.9892772906014066
2012-05-04,1,0.0026436509791009635,0.0027363660552261774,-0.007789137232769392,0.002586309103424696,0.989770710399435
2012-05-08,1,0.0032524247453797933,0.0034883101861779456,-0.008393738944649601,0.0029894298839671053,0.987630991288054
2012-05-10,1,0.0021019631417416437,0.002133601455705003,-0.007789137232769392,0.010539163251297994,0.9882880761712305
2012-05-14,1,0.002249495574586745,0.002335003938260103,-0.007789137232769392,0.013447686919979768,0.9872942754007438
2012-05-16,1,0.0022113779173641218,0.002358214487672129,-0.0063253905323400585,0.02099024244312777,0.9845708722257203
2012-05-18,1,0.0017884527482833544,0.001914005037276543,-0.0046246093480823355,0.026852708112352457,0.9838281754122665
2012-05-22,1,0.002333199773059272,0.002494981992245276,-0.0046246093480823355,0.02099024244312777,0.9843629238940163
2012-05-24,1,0.004168616798006789,0.004590161828232979,-0.0049614289477332,0.018608199208650568,0.9842044858654088
2012-05-29,0,0.0,0.0,-0.00603084916468784,0.018608199208650568,0.9837062954334672
2012-05-31,0,0.0,0.0,-0.005962516548593762,0.018608199208650568,0.9844391346157644
2012-06-04,1,0.005770468006462957,0.005852829386422121,-0.0036936401956326904,0.020381308058563502,0.9851665124681944
2012-06-06,1,0.0038795693110100244,0.004289596206956921,-0.002698408669631099,0.018608199208650568,0.9868306520744103
2012-06-08,0,0.0,0.0,-0.0036936401956326904,0.018608199208650568,0.9847184834568478
2012-06-12,0,0.0,0.0,-0.005962516548593762,0.014969496063959494,0.9854113841069668
2012-06-14,0,0.0,0.0,-0.006353928918827297,0.010090078659473324,0.9882878629601095
2012-06-18,0,0.0,0.0,-0.006353928918827297,0.010090078659473324,0.9889274253497704
2012-06-20,0,0.0,0.0,-0.006862894331663258,0.007491292382740239,0.9892131391954113
2012-06-22,0,0.0,0.0,-0.006862894331663258,0.006375218775303596,0.9902073537920725
2012-06-26,0,0.0,0.0,-0.008591663406855665,0.007491292382740239,0.986742674956685
2012-06-28,0,0.0,0.0,-0.012488085013868961,0.010090078659473324,0.9847897815951344
2012-07-02,1,0.004266597561600771,0.004824798816912535,-0.0171967157047372,0.006375218775303596,0.9834831101910573
2012-07-05,0,0.0,0.0,-0.0171967157047372,0.006375218775303596,0.9838121779633036
2012-07-09,0,0.0,0.0,-0.016683863563591382,0.006375218775303596,0.9842399724924261
2012-07-11,0,0.0,0.0,-0.01268192527561343,0.0069163351800277705,0.9844955918167133
2012-07-13,0,0.0,0.0,-0.016683863563591382,0.0069163351800277705,0.9841448330359313
2012-07-17,1,0.004278618907160133,0.0045644995635556376,-0.016683863563591382,0.0007259701885894837,0.9830630475852095
2012-07-19,1,0.004063820852210787,0.00425309235440462,-0.016683863563591382,0.0005711507883694063,0.9835387645347302
2012-07-23,1,0.0033416574514896244,0.0034415585648109536,-0.01268192527561343,0.006406668934052516,0.9834786567945745
2012-07-25,0,0.0,0.0,-0.011055559556225183,0.00413019253309194,0.9886079855427613
2012-07-27,0,0.0,0.0,-0.00940025605542034,0.00040424315896817487,0.9908369168113464
2012-07-31,0,0.0,0.0,-0.0076496925591678176,0.006406668934052516,0.9917814679239247
2012-08-02,0,0.0,0.0,-0.0033360225381820273,0.006983573581870547,0.9922622615391119
2012-08-06,0,0.0,0.0,-0.0031236404400151957,0.006983573581870547,0.9926211214822315
2012-08-08,0,0.0,0.0,-0.0030005683566825146,0.007535377377648627,0.9918625199486026
2012-08-10,0,0.0,0.0,-0.0030005683566825146,0.008856376760051948,0.9913049028234849
2012-08-14,0,0.0,0.0,-0.003136142447926357,0.008856376760051948,0.9908393540141658
2012-08-16,0,0.0,0.0,-0.003136142447926357,0.008856376760051948,0.9910804964099184
2012-08-20,0,0.0,0.0,-0.003136142447926357,0.007535377377648627,0.9924269218487444
2012-08-22,1,0.0021787430696577595,0.0023260386454765744,-0.0033760904661183293,0.007535377377648627,0.9918410783524227
2012-08-24,0,0.0,0.0,-0.004112573318643288,0.008856376760051948,0.9907968201709092
2012-08-28,1,0.003427613779275254,0.0036601258320721245,-0.006222713644581966,0.0031561278121296716,0.9896543285691908
2012-08-30,0,0.0,0.0,-0.006222713644581966,0.01782999016725224,0.9893229658880349
2012-09-04,0,0.0,0.0,-0.006222713644581966,0.007177103796963789,0.990096808631502
2012-09-06,0,0.0,0.0,-0.006222713644581966,0.005895024815266702,0.9908086605724599
2012-09-10,0,0.0,0.0,-0.009808857121671469,0.0035372639451152136,0.9913524538354906
2012-09-12,0,0.0,0.0,-0.009808857121671469,0.005895024815266702,0.9853769028518004
2012-09-14,0,0.0,0.0,-0.010810993025028165,0.011107556377116462,0.9842117993429815
2012-09-18,-1,-0.00047087579835509226,-0.00012657562727689143,-0.010153569276234342,0.013484445325815211,0.9838853127361894
2012-09-20,-1,-0.0005942405770752578,-0.00024923747289993506,-0.011902063425776243,0.013484445325815211,0.9830259071141398
2012-09-24,1,0.00035627965459024186,0.0005335092916307117,-0.010989473779542538,0.011107556377116462,0.9843272053602666
2012-09-26,-1,-0.0007677113602349837,-0.0004200109936655655,-0.010989473779542538,0.0127123191982163,0.9834783925109548
2012-09-28,1,0.0008317241230625077,0.0009940791190803093,-0.010989473779542538,0.009366824488569373,0.9852505142265182
2012-10-02,1,0.0002909688278726671,0.0005515532631195008,-0.010989473779542538,0.009366824488569373,0.9848725455507804
2012-10-04,1,0.0005582000232926529,0.000789502580813833,-0.010989473779542538,0.009366824488569373,0.9846414601060812
2012-10-08,0,0.0,0.0,-0.01067161426835798,0.009366824488569373,0.9846291125620099
2012-10-10,0,0.0,0.0,-0.01067161426835798,0.009366824488569373,0.9894016497089603
2012-10-12,0,0.0,0.0,-0.01067161426835798,0.009785830006145444,0.9896367276375378
2012-10-16,0,0.0,0.0,-0.010992857089168266,0.008624437792278164,0.9889686074753588
2012-10-18,-1,-0.004025274964086811,-0.003557399269597015,-0.008875795621414006,0.008624437792278164,0.9892258547730709
2012-10-22,0,0.0,0.0,-0.010960216147708457,0.008624437792278164,0.988989457314543
2012-10-24,0,0.0,0.0,-0.010960216147708457,0.008624437792278164,0.988771810712807
2012-10-26,0,0.0,0.0,-0.010960216147708457,0.00808920291241775,0.9889627511278032
2012-11-01,0,0.0,0.0,-0.010960216147708457,0.009046469787253174,0.9878882241110802
2012-11-05,0,0.0,0.0,-0.010960216147708457,0.009046469787253174,0.9859598779610428
2012-11-07,0,0.0,0.0,-0.010341696101326483,0.009046469787253174,0.986271368670358
2012-11-09,0,0.0,0.0,-0.008669622272620013,0.007896880133016357,0.9875082192579975
2012-11-13,-1,-0.0006774178306110681,-0.0006157747215621436,-0.008669622272620013,0.006274880927954513,0.9880495877473644
2012-11-15,-1,-0.0011499976278634225,-0.0010323247008534474,-0.006677820726209386,0.005768902025336397,0.9893597707783522
2012-11-19,0,0.0,0.0,-0.004247597891012677,0.006362966077622047,0.9893656527050826
2012-11-21,0,0.0,0.0,-0.0030840225985385487,0.006362966077622047,0.990116721835386
2012-11-26,0,0.0,0.0,-0.0030294429478135592,0.005768902025336397,0.9915558365759368
2012-11-28,0,0.0,0.0,-0.0030294429478135592,0.00632965449299608,0.9907418897010402
2012-11-30,0,0.0,0.0,-0.003528745338454607,0.00632965449299608,0.9909657118640893
2012-12-04,0,0.0,0.0,-0.003528745338454607,0.00632965449299608,0.9926610239434203
2012-12-06,0,0.0,0.0,-0.0024123779353304848,0.00778096803159849,0.9923754881963757
2012-12-10,0,0.0,0.0,-0.003528745338454607,0.007041137311712472,0.9915531590508403
2012-12-12,0,0.0,0.0,-0.002824423533484968,0.007041137311712472,0.9916055865627467
2012-12-14,0,0.0,0.0,-0.006325055061228151,0.007041137311712472,0.9910238568920366
2012-12-18,0,0.0,0.0,-0.006325055061228151,0.007041137311712472,0.9907416731529384
2012-12-20,1,0.002311322767685001,0.0026459368983443397,-0.013053056294966722,0.008331179564410478,0.9879883238480356
2012-12-24,1,0.0013664710051000848,0.0014936904587398675,-0.014076011374948334,0.010097429224134629,0.9872549303212027
2012-12-27,0,0.0,0.0,-0.014076011374948334,0.010097429224134629,0.9871192423254611
2012-12-31,0,0.0,0.0,-0.012894613859878857,0.007640340736560718,0.9883057442389318
2013-01-03,0,0.0,0.0,-0.012894613859878857,0.007640340736560718,0.9876142769708188
2013-01-07,0,0.0,0.0,-0.014076011374948334,0.005631105957084151,0.9851730975867927
2013-01-09,0,0.0,0.0,-0.012894613859878857,0.0029526767991524365,0.9860199567180898
2013-01-11,0,0.0,0.0,-0.010391877237667836,0.0064658157603524145,0.9859726243261139
2013-01-15,0,0.0,0.0,-0.005392672333272933,0.0064658157603524145,0.9864799433077784
2013-01-17,0,0.0,0.0,-0.008420608651754983,0.004497713323436615,0.9868540816728134
2013-01-22,0,0.0,0.0,-0.005127326327101164,0.004015345283795297,0.9894517740012451
2013-01-24,0,0.0,0.0,-0.005127326327101164,0.004015345283795297,0.9898332597958845
2013-01-28,0,0.0,0.0,-0.0038502854690127108,0.0035854128163940718,0.9906715541518802
2013-01-30,-1,-0.000482246864213362,-0.0004667169715846613,-0.004643296304862444,0.0035854128163940718,0.9904934764122751
2013-02-01,1,0.0009462757286074167,0.0011940396421702183,-0.004643296304862444,0.0035854128163940718,0.9920091733160704
2013-02-05,-1,-0.001569665730477554,-0.001481469393908954,-0.004154192235180751,0.004639608571032438,0.993998407281828
2013-02-07,-1,-0.0016448276401409168,-0.0015202992942702578,-0.003711192869522158,0.00636870201526938,0.9935517837695903
2013-02-11,-1,-0.0010926167529347695,-0.0010261276082327037,-0.004154192235180751,0.004639608571032438,0.9933070919529202
2013-02-13,-1,-0.0017087602066350564,-0.0015191273821256964,-0.006072296606230404,0.0044045353008060435,0.9923246797899382
2013-02-15,-1,-0.0023222482577043395,-0.0020964067547558254,-0.0072552533402523885,0.0044045353008060435,0.9904307398085345
2013-02-20,-1,-0.0025037875145182253,-0.0022648766040941092,-0.009144774512861845,0.00636870201526938,0.987839986094591
2013-02-22,-1,-0.0027631014589985874,-0.002460816365675965,-0.008181516295163794,0.007299958023334361,0.9876267592870893
2013-02-26,-1,-0.001095372860166336,-0.0010920959138751042,-0.008181516295163794,0.007299958023334361,0.9876748316594373
2013-02-28,-1,-0.002079907861752199,-0.001958671652370789,-0.008181516295163794,0.007299958023334361,0.9874866555510226
2013-03-04,-1,-0.0013198835920671921,-0.0013072577244602219,-0.008181516295163794,0.01078266081159525,0.9873636960699657
2013-03-06,1,0.0005515701697839561,0.00066679958539342,-0.011939544476726143,0.003916637754596406,0.9880570994581561
2013-03-08,1,0.0003024049847700792,0.0003506243246474603,-0.01208452646156118,0.0032980218385634187,0.988072234806915
2013-03-12,-1,-0.0006816336443902853,-0.0005899424870025009,-0.011939544476726143,0.003916637754596406,0.9879116193612957
2013-03-14,-1,-0.001531359370145111,-0.001378502268058639,-0.007556798889708705,0.009292984136375169,0.9880951399145237
2013-03-18,-1,-0.0029727201647356686,-0.0025872637912532524,-0.005905393581474895,0.010761009733083032,0.9886788121891725
2013-03-20,-1,-0.0030845474750021934,-0.002670804275232441,-0.0075727799888387825,0.009292984136375169,0.990641673518647
2013-03-22,-1,-0.002687300616879705,-0.0023535876212873266,-0.0075727799888387825,0.006828493796882777,0.9909136845521462
2013-03-26,-1,-0.0032029285484203,-0.0029022316378284124,-0.012051957605572285,0.006828493796882777,0.986177964402821
2013-03-28,-1,-0.003085766064773257,-0.0028116707135475857,-0.01227793595592891,0.009292984136375169,0.9851255845695706
2013-04-02,-1,-0.0031169569404471526,-0.0028570837675891136,-0.01227793595592891,0.006828493796882777,0.9855368803010973
2013-04-04,-1,-0.003554799165935725,-0.0032555774726267038,-0.012642590426536756,0.009603211529712337,0.9840661349576235
2013-04-08,-1,-0.003185708836229058,-0.0029199041386133743,-0.013479874118529064,0.009603211529712337,0.9836953999298952
2013-04-10,-1,-0.002543871762557309,-0.0023526493406336568,-0.013479874118529064,0.009603211529712337,0.9835278267110585
2013-04-12,-1,-0.0023091850774861924,-0.0021239981798224722,-0.013479874118529064,0.012966856303094647,0.9827718802828469
2013-04-16,-1,-0.0023940785238593994,-0.00213126891099495,-0.012581323842638888,0.013442680454750961,0.9807822300724212
2013-04-18,-1,-0.003858223598220415,-0.0034232483960424886,-0.011170534527622032,0.013442680454750961,0.9799797130251989
2013-04-22,-1,-0.0032677491206204263,-0.0029270297499289213,-0.01611466679045893,0.013442680454750961,0.9795103320727433
2013-04-24,-1,-0.004838838530535939,-0.00430585643739489,-0.01611466679045893,0.013442680454750961,0.9835288695179379
2013-04-26,-1,-0.004419165795055508,-0.0040086482710333955,-0.011533739018119651,0.017702109390351863,0.9835925048233672
2013-04-30,-1,-0.0036540984051919036,-0.00344856116051617,-0.014976486224468614,0.017702109390351863,0.9833116486615526
2013-05-02,-1,-0.002838356864887056,-0.0027406953858960218,-0.011436854590508659,0.017702109390351863,0.9834534684706523
2013-05-06,-1,-0.0024766792578458374,-0.0024306587879280397,-0.010887251781840104,0.017702109390351863,0.9839410586761167
2013-05-08,-1,-0.0018970089701844035,-0.0018828454706192354,-0.010887251781840104,0.017285355644481245,0.984356786932231
2013-05-10,-1,-0.000402021238900576,-0.00022239798744457732,-0.010887251781840104,0.012997890869145068,0.9836993133915207
2013-05-14,1,0.0011403923817993496,0.0015440723107175878,-0.013230793370851954,0.010736545264648827,0.9857777288497992
2013-05-16,0,-0.00019765569652805835,3.062389324445401e-05,-0.013230793370851954,0.012997890869145068,0.9843426983295922
2013-05-20,-1,-0.0008673178080722392,-0.00074032657036633,-0.007351455859457551,0.012997890869145068,0.9854248414332656
2013-05-22,-1,-0.0018513492006085477,-0.0018457493691130188,-0.013230793370851954,0.012997890869145068,0.9844796435620089
2013-05-24,-1,-0.0009487549661994887,-0.0008105743938235061,-0.013230793370851954,0.010736545264648827,0.9855772334090153
2013-05-29,-1,-0.0007625996587070619,-0.0005686431552292235,-0.013082849802668505,0.011690418869008496,0.9851673763483304
2013-05-31,1,0.0006257667041992914,0.0010591228213138522,-0.013082849802668505,0.009312910922860622,0.9859974947338055
2013-06-04,1,0.0005911019305134884,0.0010184569046471194,-0.01444388234316583,0.009312910922860622,0.9859530760918694
2013-06-06,1,0.0005355098028531086,0.0008890897831265417,-0.01444388234316583,0.009312910922860622,0.985254369516947
2013-06-10,1,0.0015798264640333793,0.0020175177993113722,-0.015187925508953315,0.0059794216349709,0.9861052919779778
2013-06-12,1,0.0012163297367119436,0.0016666157062827406,-0.01444388234316583,0.0059794216349709,0.9867564780821402
2013-06-14,1,0.0014557255061134785,0.0019147012785343729,-0.012768157567364623,0.0059794216349709,0.988842826875479
2013-06-18,1,0.002422184069252411,0.003036020656038246,-0.01444388234316583,0.005087510100047306,0.9882875574031537
2013-06-20,1,0.0006640625153035978,0.0010113013406923786,-0.007597475605958421,0.008320094519317468,0.9900371876963487
2013-06-24,1,0.0005168174267546972,0.0008269295177649474,-0.007597475605958421,0.013984350662504322,0.9885390940375046
2013-06-26,1,0.0008878012869721114,0.0012947180736953712,-0.006931179908522299,0.011170619411040071,0.9891568681872724
2013-06-28,1,0.0007764704162059984,0.0010228257143256765,-0.009948019684895847,0.016373890117323986,0.9883690219552644
2013-07-02,1,0.00013194897810186562,0.00029928054499972067,-0.007680030714693651,0.016373890117323986,0.9881640313474765
2013-07-05,1,0.0008481954425832087,0.0011201359023277394,-0.007680030714693651,0.016373890117323986,0.9880637150595455
2013-07-09,0,0.0,0.0,-0.007341090575267618,0.016373890117323986,0.9881400852131111
2013-07-11,0,0.0,0.0,-0.007341090575267618,0.016373890117323986,0.9879017353367643
2013-07-15,0,0.0,0.0,-0.007341090575267618,0.013215507840184063,0.9893845377168595
2013-07-17,0,0.0,0.0,-0.005372532283951625,0.013215507840184063,0.9894635570590993
2013-07-19,0,0.0,0.0,-0.008579597707088969,0.011519829569832087,0.9888928735162661
2013-07-23,0,0.0,0.0,-0.008579597707088969,0.010622054411556848,0.9896719031861064
2013-07-25,1,0.0011166027587029227,0.0015708807458164533,-0.007845062211588162,0.011519829569832087,0.9893194561632328
2013-07-29,1,0.0015502968510273918,0.002168422433578291,-0.0072092254565760275,0.010622054411556848,0.9902677322029646
2013-07-31,0,0.0,0.0,-0.008498878518433593,0.009242441253164601,0.9893408087306991
2013-08-02,0,0.0,0.0,-0.007845062211588162,0.008489173907018765,0.9909154432943884
2013-08-06,1,0.004193132709379631,0.0047970114932476705,-0.005540522829391806,0.009242441253164601,0.9903023957371117
2013-08-08,1,0.00215209577439802,0.002443691231626585,-0.005540522829391806,0.008489173907018765,0.9909305844685482
2013-08-12,0,0.0,0.0,-0.0052713800373623545,0.008489173907018765,0.9908453347128792
2013-08-14,0,0.0,0.0,-0.008103283162358818,0.006611399956927457,0.9909016634101242
2013-08-16,0,0.0,0.0,-0.00440340338278174,0.006611399956927457,0.9927164935431481
2013-08-20,0,0.0,0.0,-0.00440340338278174,0.005584841191036606,0.9930845148719141
2013-08-22,0,0.0,0.0,-0.005661466106824602,0.003594166602210894,0.9938007784694229
2013-08-26,0,0.0,0.0,-0.00933807718673754,0.003594166602210894,0.9934365595192469
2013-08-28,0,0.0,0.0,-0.0057260019228165815,0.003594166602210894,0.9941533842931792
2013-08-30,1,0.001385832503480832,0.0016138103917017921,-0.0057260019228165815,0.004271649535565542,0.9940209559734808
2013-09-04,1,0.0014295246221405532,0.0016823705600228392,-0.0057260019228165815,0.005584841191036606,0.9931742596639913
2013-09-06,1,0.001668495052825814,0.0019513318111269006,-0.0037593138273518986,0.005594195036989806,0.9932351220112791
2013-09-10,1,0.0016956806579790876,0.0019410709797673265,-0.004752076809169007,0.0052746425591384,0.9930187168392576
2013-09-12,1,0.0017056801229246698,0.0019874287309993885,-0.0027531338813512876,0.00689972009455282,0.9929640293730401
2013-09-16,1,0.00012901359507920844,0.00025462443988143397,-0.0027531338813512876,0.007616218119028181,0.9920306030297124
2013-09-18,-1,-0.0005251896825426107,-0.00031071898651043766,-0.0020308644457361098,0.009391401048761896,0.9914029649330298
2013-09-20,-1,-0.0011907806329525337,-0.0008908220084845252,0.0016655652509039223,0.009391401048761896,0.9911831583829509
2013-09-24,-1,-0.0010244402979638946,-0.0007672194274510099,0.0018461427666614017,0.009391401048761896,0.9913963512192111
2013-09-26,-1,-0.0021084680667336434,-0.0016991082855423235,0.0016655652509039223,0.009391401048761896,0.9912705354811763
2013-09-30,-1,-0.0006440567680953593,-0.00047762645856053013,-0.0004625283470873234,0.007878981389510913,0.9903231360217871
2013-10-02,1,0.0008422536302810198,0.0009176398929921084,-0.003660143332061808,0.0069873078513803975,0.9875483659219375
2013-10-04,1,0.0020083809590171918,0.0023358119903109332,-0.010054847776057658,0.005605154324778522,0.9865648399027501
2013-10-08,1,0.0008309708603861676,0.0008966488109888449,-0.014639547464930076,0.005605154324778522,0.9853579777809354
2013-10-10,1,0.000872284159828315,0.000903229315128849,-0.014639547464930076,0.00448596909660883,0.9852633969065947
2013-10-14,1,0.0007764981983409075,0.0008136972790265607,-0.014639547464930076,0.00448596909660883,0.985310314114018
2013-10-16,1,0.0014248888503962307,0.0015072936030304219,-0.014639547464930076,0.0035866048677138376,0.9858313094457786
2013-10-18,1,0.0012043177525805984,0.0012193932022021678,-0.014639547464930076,0.0035866048677138376,0.984922715066351
2013-10-22,1,0.0020140410607243316,0.0022043169018715067,-0.01573868484541329,0.00034906592060095627,0.9839386408491482
2013-10-24,1,0.001167088737579713,0.001195413577040695,-0.01573868484541329,0.0013133845943296544,0.9829302441144918
2013-10-28,0,-1.666758926323472e-07,8.791871677336498e-05,-0.01459559152274175,0.0024644054223188776,0.985924211589587
2013-10-30,-1,-0.0021441202303231596,-0.0018700702903741875,-0.013866537121727477,0.004844452901821193,0.9905053646418062
2013-11-01,-1,-0.0034598846532346364,-0.0029976605802569892,-0.003973334869421298,0.00496009402628047,0.9910425503080115
2013-11-05,-1,-0.003984054805293525,-0.003496936297607812,-0.003332207041151484,0.00496009402628047,0.9918255943986255
2013-11-07,-1,-0.00278591140891344,-0.0024488089035097343,-0.003332207041151484,0.006249253609399772,0.9922087347596763
2013-11-11,-1,-0.003316632656826961,-0.0028444229611250017,-0.004292246574231419,0.0039519765167956985,0.990258624818397
2013-11-13,-1,-0.0030687937028869446,-0.0026403089178305993,-0.00469085047158738,0.0039519765167956985,0.990238548276808
2013-11-15,-1,-0.002476207284218636,-0.0020984292233110153,-0.00469085047158738,0.0039519765167956985,0.9903048912310097
2013-11-19,-1,-0.0028244536111446715,-0.002445840847199984,-0.004124770475403055,0.006249253609399772,0.9899654899402738
2013-11-21,-1,-0.002442472089327223,-0.0020755954796452657,-0.003389139540623572,0.006249253609399772,0.9907447948024546
2013-11-25,-1,-0.002461139823580737,-0.0021231007464243955,-0.003389139540623572,0.006249253609399772,0.990421201986639
2013-11-27,-1,-0.0026174558110624796,-0.0022198475024748027,-0.003626850924570051,0.00630127034698153,0.9904394713294272
2013-12-02,-1,-0.0025293389517211658,-0.0021539632321666584,-0.004124770475403055,0.00630127034698153,0.9905019879441084
2013-12-04,-1,-0.0025614180400840977,-0.0022093455386912497,-0.003267455678941011,0.011176297320547509,0.9893386061987763
2013-12-06,-1,-0.0019473963458605083,-0.0016497488001559263,-0.003759718890355372,0.010464161466168718,0.9894249363694573
2013-12-10,-1,-0.002932418035486806,-0.0025677545726208503,-0.003759718890355372,0.01412376245451031,0.9901824755916384
2013-12-12,-1,-0.002709380580519412,-0.0024208165000668596,-0.002043164391736152,0.01412376245451031,0.9901537079865818
2013-12-16,-1,-0.001916349765813985,-0.0017140279555675347,0.0003297856292933724,0.01676309889003941,0.989337257317228
2013-12-18,-1,-0.001648949338827429,-0.0014760484021296583,-0.00010888435856229732,0.014626691326903038,0.987041795806804
2013-12-20,-1,-0.0007881864589272053,-0.0007376663947758254,-0.0038786928262335403,0.014362777151190024,0.9866784497454086
2013-12-24,-1,-0.00046077065123600403,-0.0004541019300337871,-0.0038786928262335403,0.014362777151190024,0.9866857611521238
2013-12-27,-1,-0.0002993672543333026,-0.00027750615976414257,-0.00564536427250676,0.014362777151190024,0.9856279230549118
2013-12-31,-1,-0.00021374836541640898,-0.00015510069703167178,-0.00903295401264032,0.014362777151190024,0.9849037202101805
2014-01-03,1,0.0004482146746012711,0.0005800942793250995,-0.013682780096717858,0.01149034607068707,0.9851764654404389
2014-01-07,1,0.0006010098229576482,0.0007720856351895429,-0.009334858282432796,0.013316801504330913,0.9848068895606921
2014-01-09,1,0.0005240071255396956,0.0006147345112360856,-0.007770483130203294,0.011141687521734032,0.9860819055939044
2014-01-13,1,0.0007280614329300294,0.000870220734744987,-0.007770483130203294,0.011141687521734032,0.9862388074598875
2014-01-15,1,0.002299021601737389,0.0026846066846272984,-0.007770483130203294,0.007300121208603234,0.9876902609871558
2014-01-17,1,0.0005173569283699053,0.0006788118352650943,-0.004063024422115079,0.005627638057052169,0.9909138313892409
2014-01-22,1,0.0002386693483934245,0.0003064370207475711,-0.004063024422115079,0.005627638057052169,0.9914930399476825
2014-01-24,1,0.0007998465412097629,0.0009419110381624677,-0.004063024422115079,0.005627638057052169,0.9914886443842491
2014-01-28,1,4.8286290807453616e-05,0.00012337038265200392,-0.004063024422115079,0.005627638057052169,0.9923624785102634
2014-01-30,-1,-0.0003033619174781081,-0.00028271302373529056,-0.0015677473217782798,0.00781441658493061,0.9919254513472783
2014-02-03,-1,-0.0006753964369025616,-0.0006696041378404019,-0.0003343975841683532,0.010258035770238249,0.9912220112904004
2014-02-05,1,0.0005009532438597793,0.0006403091862825861,-0.0013955918530231901,0.00781441658493061,0.9919115686751216
2014-02-07,1,0.0005554060006424129,0.0007035049270411008,-0.0029673938959758448,0.010687947940107193,0.9913459203753078
2014-02-11,1,0.0004366525699623135,0.0005529436736955828,-0.0029673938959758448,0.010687947940107193,0.9909075948161644
2014-02-13,1,0.0004865923221631278,0.0005932931191196502,-0.0029673938959758448,0.010687947940107193,0.9901144583384017
2014-02-18,1,0.0005563228279774762,0.0006721701227716219,-0.0029673938959758448,0.010687947940107193,0.9898966771631427
2014-02-20,1,0.0006495475584911113,0.0007487363969780382,-0.0029673938959758448,0.010681738887166477,0.9898482822178751
2014-02-24,1,0.0012132209099283324,0.0014239837396830906,-0.01099929863030461,0.010293702977523472,0.9889963101516445
2014-02-26,1,0.0011272726026554415,0.0013691577787565577,-0.00503782985467476,0.013718013924972999,0.9884793487883015
2014-02-28,1,0.0022449159707008904,0.0026558925272827704,-0.01099929863030461,0.0120366584922863,0.9883787352157564
2014-03-04,1,0.002152621365737748,0.0025317790452256813,-0.005429279242510635,0.0120366584922863,0.9877996574420749
2014-03-06,1,0.0029294550309098104,0.0034397582985360503,-0.005429279242510635,0.009735320850941477,0.9891005841451991
2014-03-10,1,0.003518402236241673,0.004139966095343177,-0.012211172385718637,0.00809202845367214,0.9885639893426594
2014-03-12,1,0.004141406844959666,0.004870096069272451,-0.012211172385718637,0.008673013625259749,0.9884442576307231
2014-03-14,1,0.0036075321427911874,0.004277580704614573,-0.012211172385718637,0.008673013625259749,0.9882822279340858
2014-03-18,1,0.0023544753893742147,0.002786812187870484,-0.012211172385718637,0.01179731166023824,0.9834884690927013
2014-03-20,1,0.0020212467215669416,0.0023933124631281702,-0.008636523671751507,0.01088897069048279,0.9840545827098013
2014-03-24,1,0.0012609341602204454,0.001499360146670441,-0.00675247524600681,0.01088897069048279,0.983925717457018
2014-03-26,1,0.000873032015157235,0.0009632116900619048,-0.00675247524600681,0.007718953235760684,0.985020573033111
2014-03-28,1,0.00020229042022232668,0.00022043724875190647,-0.0043280280819551434,0.007988892296843905,0.9857458669899755
2014-04-01,1,0.0003433098978331298,0.00035926503558206133,-0.0043280280819551434,0.007718953235760684,0.9877039504327983
2014-04-03,1,0.0008858258505029248,0.0009721379590331534,-0.0043280280819551434,0.007988892296843905,0.9878190978579149
2014-04-07,1,0.000430156955322394,0.0004450914206792717,-0.0034907800696112245,0.009008504745546446,0.9873638579158639
2014-04-09,1,0.0006801028332488822,0.0007309794583176338,-0.0034907800696112245,0.007988892296843905,0.9879470628200221
2014-04-11,1,0.0003693937025542142,0.0004042229035652568,0.0007408131912005184,0.009699711124627124,0.9879042569563654
2014-04-15,1,0.0010398197396076008,0.0011285792778529464,-0.0009573856596102881,0.00867756329861917,0.9931434393735593
2014-04-17,1,0.0016024814136217551,0.0017932218533566668,-0.0009573856596102881,0.007988892296843905,0.9939212996271903
2014-04-22,1,0.0010471891023880863,0.0011424229186963004,-0.0009573856596102881,0.0066157364841175625,0.9943650826895101
2014-04-24,1,0.0010355290143117958,0.0011373118395635899,-0.0014369146563632698,0.0066157364841175625,0.9923071084197438
2014-04-28,1,0.0013178940530780814,0.0014421471085394445,-0.0034322560913405183,0.0054243555746531155,0.9915093290242918
2014-04-30,1,0.0011747713215300116,0.0012695372084571776,-0.0034322560913405183,0.006846138610477788,0.9910279121202045
2014-05-02,1,0.0016066103879518537,0.0017802919251678456,-0.006922574381251621,0.006552611289733997,0.9909513727229149
2014-05-06,1,0.0013697595604139792,0.0014561748868333602,-0.003159939540413035,0.0054243555746531155,0.9920316676699853
2014-05-08,1,0.0011090033871888566,0.0011347079705666854,-0.003159939540413035,0.0029876053621611673,0.9921243887152592
2014-05-12,1,0.0016861413197065778,0.001816491512389462,-0.003159939540413035,0.0019573849940915005,0.9928464469794565
2014-05-14,1,0.0014876544750893797,0.0015964357183747124,-0.006922574381251621,0.002954806417478679,0.9905140081681719
2014-05-16,1,0.0015871487695397358,0.0017218750508380648,-0.009649457007749995,0.002954806417478679,0.9896142570650684
2014-05-20,1,0.0008657909409327087,0.0009092787295048178,-0.006922574381251621,0.005873308442269213,0.9882019198023919
2014-05-22,0,-1.760919482436671e-05,4.661174110749241e-05,-0.002593355539994869,0.010381679943617774,0.9891386614454594
2014-05-27,-1,-0.00011825231264474148,-3.059869080471533e-05,-0.0012383524960989053,0.010381679943617774,0.9896048222256445
2014-05-29,1,0.0005323918575630832,0.0005483999713048692,-0.0012383524960989053,0.011218766759817771,0.98946940711987
2014-06-02,1,0.0004096523274745989,0.0004178472358663548,-0.0012383524960989053,0.014182978912445203,0.9879577842419744
2014-06-04,1,0.000610288065314587,0.0006461114527432935,-0.0011053717259645705,0.014303022401349928,0.987117229604541
2014-06-06,1,0.00036710403311250535,0.00037351079664930877,-0.00280118345624911,0.014303022401349928,0.9865888991506989
2014-06-10,1,0.0005621370061265867,0.0006274621955057354,-0.006076471728145279,0.014303022401349928,0.9861859361399689
2014-06-12,-1,-0.0008254215023356087,-0.0006402032039231536,-0.003187845079102834,0.014182978912445203,0.9882275786955298
2014-06-16,-1,-0.00047520666544248566,-0.0003535660034316013,-0.003187845079102834,0.014182978912445203,0.9882156171721669
2014-06-18,1,0.0006949073587603521,0.000746791624398946,-0.008100307012588698,0.01173677216265665,0.9897280236274903
2014-06-20,1,0.0005822285168163605,0.0005875650453052875,-0.008100307012588698,0.007496684393923116,0.9908700590153497
2014-06-24,1,0.00011882990357731799,0.00018078712062988094,-0.006076471728145279,0.007496684393923116,0.991277807500869
2014-06-26,1,0.00016527416289132822,0.0002438463587410203,-0.006076471728145279,0.005119090467777813,0.9917036336299566
2014-06-30,1,6.76253337669216e-05,0.00010952266716275527,-0.0054647388027912825,0.003933648580561401,0.9936129864438568
2014-07-02,1,0.00042273865293397596,0.0004334066699082685,-0.006076471728145279,0.003497730694624961,0.9882836010719981
2014-07-07,1,0.00019059016441350872,0.0002107378418230981,-0.0054647388027912825,0.005500711827918531,0.9872353988478699
2014-07-09,1,0.00045361352067671546,0.0004703154716219566,-0.004598674730842364,0.005500711827918531,0.9871963752781473
2014-07-11,1,0.00017282876000486745,0.00020016564909101258,-0.005747644761086302,0.005500711827918531,0.9869851071758735
2014-07-15,1,0.0003968359689215793,0.00041424096209532405,-0.004598674730842364,0.004636625446016861,0.9876564812856231
2014-07-17,-1,-0.00015656101666438718,-0.0001048384673265099,-0.0020512944138899925,0.006231242349081765,0.9885622556383105
2014-07-21,-1,-0.00010819164475000571,-4.709114333199658e-05,-0.0020512944138899925,0.010224970630344193,0.9876167878245125
2014-07-23,1,9.233460109960462e-05,0.00010157572026985614,-0.002683669022091395,0.010224970630344193,0.9876767501801541
2014-07-25,1,4.334819370885677e-05,6.465677410137954e-05,-0.0023975250273172996,0.011884029649587912,0.9872839203827848
2014-07-29,-1,-0.00021289535213191166,-0.000164378194217551,-0.0020405583248647224,0.011884029649587912,0.9873386802515405
2014-07-31,1,2.8314642271004868e-06,2.1734731286799676e-05,-0.0020405583248647224,0.009922380229192528,0.9926837551735667
2014-08-04,1,0.0009020144180262131,0.0010120155335812118,-0.0023975250273172996,0.009318001081993906,0.9933648018277373
2014-08-06,1,0.0008856076702550555,0.000975056339522071,-0.0023975250273172996,0.008016432596020856,0.9937632245299015
2014-08-08,1,0.000581953500811968,0.0006355903969444551,-0.0020405583248647224,0.008016432596020856,0.9939146474166992
2014-08-12,1,0.00039666786357243417,0.0004083301570161725,-0.0006469803326780675,0.009318001081993906,0.9934409481213432
2014-08-14,1,2.7506729198666785e-06,5.176390235466389e-05,-0.0008861290816959237,0.008016432596020856,0.9928091421369069
2014-08-18,1,0.0006078452873750039,0.0006648584857675819,-0.003165324498342955,0.006896531063083794,0.9930840312702246
2014-08-20,1,0.00033417718162570364,0.0003344702060544888,-0.0008861290816959237,0.008839320394290678,0.9921167049929623
2014-08-22,1,0.00029067669902208584,0.0002912052508717635,-0.00022365741490580838,0.007789565565681613,0.9924668081334285
2014-08-26,1,0.0004265932267523843,0.000457881395805475,-0.0011779094979726097,0.007789565565681613,0.992122737737298
2014-08-28,1,0.0003873904636716055,0.00040019831168774684,-0.0011779094979726097,0.007179659837785802,0.9926165061798334
2014-09-02,1,2.121340564083592e-05,4.561920535298848e-05,-0.0011779094979726097,0.0066932291537851905,0.9931625071320503
2014-09-04,1,0.00022584659560652892,0.00026774113833433444,-0.0011779094979726097,0.008447094817141225,0.9926447209581605
2014-09-08,1,0.0012559249861158505,0.0013506251327838129,-0.0011779094979726097,0.009490861885913478,0.992097043417347
2014-09-10,1,0.0016514445792145348,0.0018195747006202563,-0.004808183707429652,0.008447094817141225,0.9921578510019833
2014-09-12,1,0.00095292657461149,0.0010044664942035725,-0.00787434862726633,0.008447094817141225,0.991939186307044
2014-09-16,1,0.0011451798910707542,0.0012143371500665514,-0.008582252300665012,0.007254661384196728,0.9918837047775927
2014-09-18,1,0.0018222863772945999,0.0019798897328309533,-0.009641959181157565,0.006504691962320489,0.9905231743689384
2014-09-22,1,0.001631258576079396,0.001763065528041801,-0.009641959181157565,0.007308343065406814,0.9891597836060733
2014-09-24,1,0.001845751251838198,0.001997631056210524,-0.009641959181157565,0.008929840570325913,0.9875701616919897
2014-09-26,1,0.0016538440172159216,0.001792599680872781,-0.009641959181157565,0.010455964014576777,0.9832566445413413
2014-09-30,1,0.0011229661030404889,0.0012025853866380076,-0.008703809097410635,0.011110338267987173,0.9833859526858548
2014-10-02,1,0.001833821448225055,0.002033029703168327,-0.008703809097410635,0.011711025220952817,0.9837080648004979
2014-10-06,1,0.0019120100655206028,0.0021094304727889658,-0.008703809097410635,0.010113067450126011,0.9840818487279162
2014-10-08,1,0.0018569859109716072,0.002045471809633354,-0.008632244490718415,0.010830623633595137,0.9842013616181166
2014-10-10,1,0.0010784685471177298,0.001133441188762509,-0.006963069435531363,0.01190057101112901,0.9838929555705789
2014-10-14,1,4.3494534843134666e-05,0.00016269041379923343,-0.0022375392039469533,0.014653488985367837,0.9840300513058926
2014-10-16,-1,-0.0005973312728357482,-0.00040405141112780096,-0.0008113860714524908,0.014653488985367837,0.9846109017325462
2014-10-20,1,0.0005375029694728263,0.0005824589705465639,-0.0008113860714524908,0.014057150912779991,0.9861000475779556
2014-10-22,1,0.0003533772688981392,0.0004265783064708639,-0.0008113860714524908,0.013277421696339475,0.9866909661871025
2014-10-24,1,0.002023139434844823,0.002162964097842467,-0.002833162789964599,0.01302789548967331,0.9910743925179962
2014-10-28,1,0.0017300467468975003,0.0018182487483491686,-0.002833162789964599,0.013277421696339475,0.9899030470007375
2014-10-30,1,0.0017143071290341187,0.001785311116138032,-0.002833162789964599,0.01302789548967331,0.9899130614872758
2014-11-03,1,0.0011586327026028077,0.0011825130073202482,-0.0017534682364428204,0.013277421696339475,0.9892668226265251
2014-11-05,1,0.0013515632580544073,0.0013585918798651457,-0.0066911865178612105,0.013277421696339475,0.9888534742901748
2014-11-07,1,0.0019149537052010846,0.0020235704596221656,-0.003452102857295875,0.013277421696339475,0.9891582907747815
2014-11-11,1,0.0022247578777221696,0.002395429728819222,-0.008101302372067987,0.01302789548967331,0.9881765327723763
2014-11-13,1,0.002120026825096694,0.0022524265502472346,-0.008101302372067987,0.013047745766391259,0.9877049900398037
2014-11-17,1,0.00236974566659043,0.002546863290455775,-0.01287915815974585,0.012607755917295342,0.9868497769985635
2014-11-19,1,0.00160564012697613,0.0016502960024182228,-0.011419773475520666,0.012856083241907847,0.986322097945023
2014-11-21,1,0.001542928161176283,0.0016091844394429647,-0.008101302372067987,0.013223606573150146,0.9863621582146576
2014-11-25,1,0.0020625920300061575,0.0021785751039755923,-0.011419773475520666,0.012856083241907847,0.9864514975789114
2014-11-28,1,0.00226968050109315,0.002415970890942218,-0.011419773475520666,0.012856083241907847,0.9863142945328551
2014-12-02,1,0.0025231454496111726,0.0026911329605369782,-0.01287915815974585,0.010861625312204271,0.986488408906499
2014-12-04,1,0.0017815093981710134,0.0018414780641991264,-0.01287915815974585,0.010861625312204271,0.9876283217450929
2014-12-08,1,0.0017518337728160641,0.0017606836385058093,-0.01287915815974585,0.010861625312204271,0.9871985252344151
2014-12-10,1,0.0009160525233786331,0.0010089554952547864,-0.007966065897548101,0.012856083241907847,0.9878511992759766
2014-12-12,1,0.0005874183849389734,0.0007314901556726551,-0.007961719782127338,0.013039815181282825,0.9883715635640649
2014-12-16,0,-0.0001411761316651212,9.057937827781643e-05,-0.007961719782127338,0.013039815181282825,0.9879487898476985
2014-12-18,1,0.0005072956618332675,0.0006888383333422642,-0.007961719782127338,0.005581807033078183,0.9896119550357323
2014-12-22,1,0.0015702692572657486,0.0016420846215423458,-0.007961719782127338,0.005581807033078183,0.9896551725819781
2014-12-24,1,0.0018622899672991202,0.001886074922345089,-0.006086062309174776,0.004058905567880475,0.9906309716334109
2014-12-29,1,0.0015877449588011037,0.0015938326667482832,-0.0058668455854734985,0.004058905567880475,0.9906981551572438
2014-12-31,1,0.000541532651298238,0.0006798834067186111,-0.0058668455854734985,0.004058905567880475,0.990144949332193
2015-01-05,1,0.0007485969812503024,0.0008664826341360859,-0.0058668455854734985,0.006156593212433512,0.9896583933367846
2015-01-07,1,0.0010823828148679398,0.0011685704586725852,-0.005545455709567429,0.006156593212433512,0.9880415583968472
2015-01-09,1,0.0017457664749107363,0.0017610857252281056,-0.012906252888489513,0.004058905567880475,0.9864833000666199
2015-01-13,1,0.0012686444966117237,0.001325021366215897,-0.008028325190992322,0.006156593212433512,0.9867738255690295
2015-01-15,1,1.8706929187678142e-05,0.0002213578136045527,-0.005426558840187058,0.011417804681960292,0.9877711623030807
2015-01-20,1,1.9114590129192996e-05,0.0002226345180109153,-0.005545455709567429,0.011417804681960292,0.9873873458697233
2015-01-22,1,0.00033083007780225677,0.0005068548891418098,-0.005545455709567429,0.009573713291730299,0.9876540921965439
2015-01-26,0,-0.00018890522354111103,7.472217935028033e-05,-0.004416412212252658,0.009573713291730299,0.9879461408219072
2015-01-28,-1,-0.000552335243405462,-0.0002620411121122626,-0.0023838184696542493,0.009573713291730299,0.9879877383583503
2015-01-30,-1,-0.0015825591265712577,-0.001171463071546055,-0.0023838184696542493,0.011792915559406602,0.9876807320334067
2015-02-03,-1,-0.0008091378273341234,-0.0005074973217235759,-0.0050103124625661966,0.009573713291730299,0.987669669632291
2015-02-05,1,0.00022717864543485148,0.0004371007665801425,-0.008986242863215407,0.008793416300309286,0.9897769091306701
2015-02-09,-1,-0.001394076352445332,-0.0010086839969049592,-0.0023838184696542493,0.008793416300309286,0.991764205520824
2015-02-11,1,6.677629483835268e-05,0.00025083716476393325,-0.0023838184696542493,0.008140428529645645,0.9919520517598663
2015-02-13,1,0.0003971418003615341,0.0005459003298069159,-0.0050103124625661966,0.008140428529645645,0.9874958084278382
2015-02-18,1,6.806512948598039e-05,0.0002834627514887866,-0.00365602256349607,0.007057982517598993,0.988128893133373
2015-02-20,0,-0.000260890061108109,1.0759720757289623e-05,-0.005061839079679146,0.007057982517598993,0.9877144650077465
2015-02-24,-1,-0.0008308911618718606,-0.0004714561984420229,-0.0057608258188945344,0.007057982517598993,0.9876073658067379
2015-02-26,-1,-0.00038862669255291637,-0.00010883314688473497,-0.010022336084909232,0.007057982517598993,0.9866338665114719
2015-03-02,1,0.00011128939454547288,0.00030926510026319605,-0.0057608258188945344,0.007057982517598993,0.9874759295205287
2015-03-04,0,-0.00019826590032708848,4.228683406842706e-05,-0.011752408372711657,0.004522321357224325,0.9872423083458499
2015-03-06,-1,-0.0016767496828055941,-0.0012243910262692735,-0.006967598380704555,0.004522321357224325,0.9882400313368156
2015-03-10,-1,-0.0019104194169661298,-0.0013980901234277008,-0.008812970433609584,0.0033446767128936985,0.9882329443591379
2015-03-12,-1,-0.0020593101769961165,-0.0014695747706516714,-0.008812970433609584,0.002688570227353977,0.9885682996184304
2015-03-16,1,0.001443155340114673,0.0015680379541969216,-0.006020160313418194,0.002688570227353977,0.9925939063358568
2015-03-18,1,0.000684917431013082,0.0008666643365469159,-0.008473588778831302,0.003189278939521363,0.9923739737442558
2015-03-20,1,0.002127641577026088,0.002199917753741283,-0.008473588778831302,0.003189278939521363,0.9918329550190439
2015-03-24,1,0.0019231883257829943,0.0019814659717398743,-0.008473588778831302,0.003189278939521363,0.9919928209578748
2015-03-26,1,0.001230422978939432,0.0012384276097654882,-0.008473588778831302,0.004264576993496927,0.9918684502207665
2015-03-30,1,0.0014986148880112792,0.0015017540641005104,-0.010637139671133819,0.0028784020233016757,0.989332624611113
2015-04-01,1,0.0006402759888291896,0.0007330527874228395,-0.008701795287951395,0.0028784020233016757,0.9894873966032626
2015-04-06,1,0.0005380446559935743,0.0006243370708706556,-0.008701795287951395,0.004298520207102531,0.9894920759960436
2015-04-08,1,0.0005441334031860581,0.0006031380629628533,-0.010880738676750608,0.004309986762782853,0.988259712562211
2015-04-10,1,0.0011476988478122288,0.0011551923747788822,-0.010880738676750608,0.004309986762782853,0.9879152140115167
2015-04-14,1,0.0014511174680075284,0.0015185887894254549,-0.010880738676750608,0.004627323929149597,0.9871031825822167
2015-04-16,1,0.0009030500893896739,0.0009211807344395374,-0.013591984266926708,0.005838873441277117,0.986082528473855
2015-04-20,1,0.00025395185106825215,0.0003847489913114083,-0.010247079557337353,0.005603042244007608,0.9868035869102294
2015-04-22,1,0.0007573007865636449,0.0007701843132810584,-0.010247079557337353,0.0067462361082712835,0.9865018679234188
2015-04-24,1,0.00014781995811407163,0.00020596826502625995,-0.007390624671411657,0.005603042244007608,0.9874717822425273
2015-04-28,-1,-0.001457020048066839,-0.001250667215403224,-0.0054268143760386935,0.007324058639513126,0.9886754755088006
2015-04-30,-1,-0.002896061344043904,-0.002484578927583529,-0.004274538779898468,0.007324058639513126,0.9894087418855722
2015-05-04,-1,-0.0020487193720859095,-0.001770302358966861,-0.00542184603187373,0.01013512698183812,0.9892954898849129
2015-05-06,-1,-0.003302687552544659,-0.0028478392826840676,-0.004449208979573313,0.01013512698183812,0.9903009963782945
2015-05-08,-1,-0.002858206352647971,-0.0024385668554004797,-0.004449208979573313,0.009793375629641029,0.990751525012268
2015-05-12,-1,-0.002358952215215155,-0.0019523306561029827,-0.004449208979573313,0.009793375629641029,0.9918055132521667
2015-05-14,-1,-0.0011884056953013374,-0.0010032980865889102,-0.004449208979573313,0.007698409148505099,0.9929340845563441
2015-05-18,-1,-0.0007872712926503533,-0.0006604685676396551,-0.004449208979573313,0.009793375629641029,0.9918572770887774
2015-05-20,-1,-0.0008615137298726829,-0.0007054815975765902,-0.004138012827214226,0.010688339760243672,0.9899617192553952
2015-05-22,-1,-0.0016260466213217483,-0.0013586564494278705,-0.0010217252916957136,0.010688339760243672,0.989141904630358
2015-05-27,-1,-0.0021054667663573307,-0.0017491182483220665,-0.0010217252916957136,0.010034491498297245,0.9898465765367079
2015-05-29,-1,-0.001980085333139202,-0.001648580736564893,-0.0010217252916957136,0.010688339760243672,0.9888964679316808
2015-06-02,-1,-0.0014374987407340589,-0.0012020987500647204,-0.0010217252916957136,0.010249579828033917,0.988722782135461
2015-06-04,-1,-0.0008415713282549219,-0.0007143692369172671,-0.0019456331200246463,0.010249579828033917,0.9887063322750368
2015-06-08,-1,-0.00046255255646703296,-0.0003821544877841817,-0.0018897623326409071,0.013252958476679753,0.9876387685076218
2015-06-10,-1,-0.0008226820441689131,-0.0006329124670082294,-0.008946991393699115,0.014815862940242891,0.9860954334639845
2015-06-12,-1,-0.0012483971103798073,-0.0010045371401475485,-0.0018897623326409071,0.016882657337491253,0.9842520107069773
2015-06-16,1,0.0003034530359427959,0.00033800774616976414,-0.0015806128296562254,0.014870731333636368,0.9862879448235473
2015-06-18,1,0.0018412597805272956,0.0019985452823094805,-0.0028274911802195217,0.01277077683887743,0.9886083965576422
2015-06-22,1,0.0012984526057627172,0.0013578343777214362,-0.0012952841513719394,0.013566553275254533,0.9886809273245215
2015-06-24,1,0.00025797995951938027,0.00038068860560233094,-0.0012952841513719394,0.013566553275254533,0.9887426591543647
2015-06-26,1,0.0012216343692067865,0.001232978287649121,-0.004089230272195192,0.013566553275254533,0.9887312746131688
2015-06-30,1,0.0013552748727648617,0.001501861768209556,-0.004089230272195192,0.014351970766905062,0.9885368025116696
2015-07-02,1,0.00029803295693453356,0.0003860160518505396,-0.00475425665209438,0.014351970766905062,0.9885616616145342
2015-07-07,1,0.0019399988835321956,0.002110604399732787,-0.007114060451686532,0.012468699182549418,0.9891014143093337
2015-07-09,1,0.0016523062581258528,0.0018197304104209378,-0.007114060451686532,0.006812812426201695,0.9891917357828052
2015-07-13,1,0.0030935625220269206,0.0034465510336854524,-0.007114060451686532,0.0040797339267531025,0.9905538453141295
2015-07-15,1,0.0030765233917369058,0.0034255430144174235,-0.007114060451686532,0.0040797339267531025,0.9902700271651714
2015-07-17,1,0.0032196267729199335,0.0035735474604275926,-0.007424467994790542,0.002624244325604113,0.9902388461282197
2015-07-21,1,0.0035879227404817205,0.0039982433365869695,-0.007424467994790542,0.0035978163673926556,0.9904774197072373
2015-07-23,1,0.0035551088150965705,0.003971180519655911,-0.008559315670026973,0.0035978163673926556,0.9896483232400741
2015-07-27,1,0.0028375432191397104,0.0031459227877599343,-0.01181139222013783,0.0035978163673926556,0.987950276585894
2015-07-29,1,0.0018650695962173403,0.0020152625831780157,-0.008559315670026973,0.004055006433528261,0.9878484125509109
2015-07-31,1,0.001569394008875516,0.00169235718591266,-0.008559315670026973,0.004352964189943943,0.9863457162121824
2015-08-04,1,0.0014160151878563122,0.0015571145884326753,-0.020571334189724597,0.004352964189943943,0.9841037667815407
2015-08-06,1,0.0016724895774023465,0.0020162437108020544,-0.013074064724256528,0.005662230798452991,0.9845461815896732
2015-08-10,1,0.00151702972751159,0.0017955995101756406,-0.013074064724256528,0.011090912703385079,0.9830385199383832
2015-08-12,1,0.0013076981303483122,0.0015282088800657098,-0.016688095281937397,0.011090912703385079,0.9823547241094517
2015-08-14,1,0.0010589098140117296,0.0012481142726427335,-0.016688095281937397,0.011090912703385079,0.9824338714411028
2015-08-18,1,0.001202502674650201,0.0013786602939000214,-0.016688095281937397,0.011490821253722023,0.9824702059804756
2015-08-20,1,0.0007710658658333352,0.0009035373875073355,-0.011849912729832676,0.011490821253722023,0.9830136296014933
2015-08-24,-1,-0.0009808193221240644,-0.0008610152817635359,-0.008800725584445992,0.011490821253722023,0.985267805936082
2015-08-26,1,0.0002563555030268321,0.000280564679205862,-0.009380302714959769,0.007507680858064734,0.9870215698252692
2015-08-28,1,0.0007265096684282299,0.0008039959782803477,-0.011849912729832676,0.006824115505957352,0.9868842652362685
2015-09-01,-1,-0.0006984004246319834,-0.000632405690061508,-0.009380302714959769,0.008735567562171833,0.9871014131581282
2015-09-03,-1,-0.00021434320172344722,-0.00020691002557449362,-0.00838940639088332,0.01468842525721046,0.984744715913746
2015-09-08,1,0.00040711437012944096,0.0004759778359136467,-0.01059272346292621,0.008735567562171833,0.9833875085519674
2015-09-10,1,4.34081878546273e-05,5.7495810763532006e-05,-0.00838940639088332,0.008735567562171833,0.9836626532333697
2015-09-14,1,6.759666788364907e-05,7.866285630858589e-05,-0.00838940639088332,0.011426410278188795,0.9829675285074482
2015-09-16,-1,-0.00012870681272179974,-6.890267679701882e-05,-0.012017825993550292,0.009961572009886632,0.9818557907654137
2015-09-18,-1,-0.00043456581891906866,-0.0002772312967376052,-0.012017825993550292,0.021246977169224735,0.980356057251689
2015-09-22,-1,-0.0011917477041921783,-0.0009007790825590606,-0.012017825993550292,0.021246977169224735,0.9808358130373047
2015-09-24,-1,-0.0015192513523172393,-0.0012117563178514618,-0.016650257378251525,0.021246977169224735,0.9805541463385363
2015-09-28,-1,-0.0035152972023989567,-0.002940673197037868,-0.0054484767069130306,0.021246977169224735,0.9805441200632026
2015-09-30,-1,-0.0009315714609403622,-0.0006993347380460719,-0.0054484767069130306,0.019313767078962044,0.9820016376081708
2015-10-02,1,0.0015176452200467885,0.0016005304038549072,-0.0054484767069130306,0.013466419653184996,0.9854726624394861
2015-10-06,-1,-0.0009431590217605758,-0.0007358323742811881,-0.0012121209618979401,0.013466419653184996,0.9880002677129386
2015-10-08,-1,-0.00011402088343003919,-5.142084115423908e-06,-0.0015447668551376364,0.013934999100543629,0.9877797149044312
2015-10-12,1,0.0003737111411107552,0.00042064872491807454,-0.003994276003944952,0.013934999100543629,0.9884388904842625
2015-10-14,-1,-0.0009375435438327978,-0.0007162655339674989,-0.0015447668551376364,0.013934999100543629,0.9897335043885827
2015-10-16,1,0.0005288318216066,0.0005751593489505191,-0.003994276003944952,0.006812486019125598,0.9907745187805967
2015-10-20,1,2.3911752566753918e-05,0.00013874008748329366,-0.003994276003944952,0.008910931071703584,0.9903952484883106
2015-10-22,-1,-0.0005756917114789177,-0.0003921363955488315,-0.0026552609551186114,0.010514145010254362,0.9899582389937255
2015-10-26,-1,-0.0010378724869969584,-0.0008037729258092474,-0.0002219953101090526,0.013934999100543629,0.9895103201748425
2015-10-28,1,0.0006990622578604464,0.000723272771349776,-0.0017871872190731246,0.011885038415633918,0.9912246048496647
2015-10-30,1,0.001147794663048784,0.0011942637123463257,-0.004780128193549196,0.009852140448157212,0.9911301164732605
2015-11-03,1,0.0008605210951914525,0.0008743676458713179,-0.007870451023545846,0.011239349680137952,0.9901017055006833
2015-11-05,1,0.0015830015463539425,0.0017272058301890745,-0.007870451023545846,0.011239349680137952,0.9882484248878616
2015-11-09,1,0.001588905336803803,0.0017947790289448812,-0.007436175266732795,0.011239349680137952,0.9880672906298528
2015-11-11,1,0.0012008796786698423,0.0013177748538193601,-0.007436175266732795,0.01189194959160914,0.9871795759868943
2015-11-13,1,0.0005806830663384161,0.0006105170212634418,-0.007436175266732795,0.01189194959160914,0.9869885166273233
2015-11-17,1,0.0010508542479429179,0.001176724439430186,-0.007436175266732795,0.014041081804630607,0.9862904265556452
2015-11-19,1,0.0007424865035574815,0.0007849067373029698,-0.008696650863955217,0.01189194959160914,0.9852292326284458
2015-11-23,1,0.0016247166033518153,0.0017787937338398523,-0.008696650863955217,0.010043856985750263,0.9862042691719872
2015-11-25,1,0.0023384550246572746,0.0026458858526221393,-0.008696650863955217,0.009405813527510964,0.9871447862540403
2015-11-30,1,0.0015728848110455238,0.0017450680157745522,-0.007230737828977828,0.009405813527510964,0.9877844832157964
2015-12-02,1,0.0020642482324444095,0.0023592715948680485,-0.006949348499945945,0.008672423321147631,0.9882314919460328
2015-12-04,1,0.002427518803343042,0.002771701986188362,-0.006380545544749883,0.008672423321147631,0.9904440535254528
2015-12-08,1,0.0018448601632760266,0.0021236663887932127,-0.006380545544749883,0.008672423321147631,0.9893810369757625
2015-12-10,1,0.002632431528594368,0.0030376598055139306,-0.006949348499945945,0.0060514593720616,0.9889027004163309
2015-12-14,1,0.0020165864892788877,0.002326462196221128,-0.006949348499945945,0.0060514593720616,0.9876006378480806
2015-12-16,1,0.0022123356592568914,0.002516394936026867,-0.010232252792535246,0.0060514593720616,0.9857689051616371
2015-12-18,1,0.0010061546804827936,0.0011604587283339093,-0.0039016463443991805,0.008394981974896902,0.9874429246032402
2015-12-22,1,0.0014076351951636708,0.0015968973685752598,-0.0039016463443991805,0.013104409725143755,0.9859021841794499
2015-12-24,1,0.0011564692570621626,0.0012885274962398446,-0.0039016463443991805,0.013735792643762238,0.9852605679294619
2015-12-29,1,0.0006719978518328984,0.0006795986039235425,-0.021180962090175413,0.013735792643762238,0.9829919796810925
2015-12-31,1,0.0006969454993486978,0.0007282759223291946,-0.021180962090175413,0.015442646761147193,0.9817371300815584
2016-01-05,1,0.000986216651002859,0.0010618714769438718,-0.024842649535104747,0.018929961800098337,0.9773834989352125
2016-01-07,-1,-0.00032186511184920574,-0.00023172767223744565,-0.020818275197746997,0.018929961800098337,0.978295197593552
2016-01-11,-1,-0.0003324112995654237,-0.00025374476857274936,-0.024842649535104747,0.018929961800098337,0.9759640150354966
2016-01-13,-1,-0.001384734864918514,-0.0011605319790059794,-0.020294631059859715,0.02058758775142068,0.97709772876939
2016-01-15,-1,-0.0016985550084487563,-0.0013705627091639971,-0.010863664235901769,0.026627720231415755,0.9766800629845855
2016-01-20,-1,-0.0006871987614805965,-0.0005183439110134718,-0.010863664235901769,0.02692176467399959,0.9761688717022788
2016-01-22,1,0.0003022667648895222,0.0003289011596716465,-0.010863664235901769,0.02540163472497442,0.9781209983839396
2016-01-26,-1,-0.0002613705506915346,-8.763179698475571e-05,-0.010863664235901769,0.02540163472497442,0.9783269952709096
2016-01-28,-1,-0.0018208334269317122,-0.0014784248266383458,-0.005336454314579853,0.02540163472497442,0.9785773998614428
2016-02-01,-1,-0.00025830878380775054,-0.00012171094869720968,-0.008782928350457502,0.021447221610136236,0.9799332954383403
2016-02-03,1,0.0008298973525594734,0.0008553469886799065,-0.008782928350457502,0.012983309713575596,0.9843770966078298
2016-02-05,1,9.62253304109908e-05,0.00020869768707474902,-0.005336454314579853,0.012983309713575596,0.9852084116245051
2016-02-09,-1,-0.001188021586701346,-0.0009377735313710876,-0.001955283465880914,0.012983309713575596,0.986686728142575
2016-02-11,0,-7.238838845869408e-05,2.7953191679010116e-05,-0.001955283465880914,0.011238042200751877,0.9876629932203984
2016-02-16,1,0.0014114995029464062,0.0014817771881147866,-0.005934337194586391,0.008972342750221362,0.9901444894800908
2016-02-18,1,0.0011437410025671613,0.0011473373372700236,-0.011245373497226853,0.007708407663959998,0.9903193600276766
2016-02-22,1,0.0002849410833136992,0.00044629353223496373,-0.011245373497226853,0.008972342750221362,0.9896344542845121
2016-02-24,1,0.0015904566289956024,0.0016730391575284838,-0.011245373497226853,0.007708407663959998,0.9896712931257572
2016-02-26,1,0.001993851481153146,0.0022526719490141684,-0.007968123492329043,0.007708407663959998,0.990467062380102
2016-03-01,1,0.0010731931413041442,0.001091676323349833,-0.006207388737836999,0.007708407663959998,0.9901249865671944
2016-03-03,1,0.0009784452258949161,0.0010204952898076637,-0.006207388737836999,0.009767506222400971,0.9896959857608777
2016-03-07,1,0.0010147188733461631,0.00109128791341875,-0.0072364455225210535,0.014106031050086815,0.984318888844643
2016-03-09,1,0.00036984932455236404,0.0004173126489996035,-0.0072364455225210535,0.016928466374274045,0.9830038484868231
2016-03-11,1,0.0012651997550690618,0.0013925843951032595,-0.007470625371895864,0.016928466374274045,0.9829081943497718
2016-03-15,1,0.0004851786239284575,0.0004883975417545874,-0.007176698942737954,0.017647133166807365,0.9827117497471406
2016-03-17,-1,-0.00019763556939606875,-9.765929676021546e-05,-0.007470625371895864,0.017647133166807365,0.9830949339597751
2016-03-21,0,-4.3712310722178894e-05,6.237721117071602e-05,-0.007653005840446759,0.017507937517385486,0.9825007587818684
2016-03-23,1,0.0007269314582742623,0.0007792100392384443,-0.007653005840446759,0.017507937517385486,0.9821029864290154
2016-03-28,1,0.0008833193036427512,0.0009688134962996584,-0.007653005840446759,0.01743124640065721,0.9830187761554822
2016-03-30,1,0.001228346228594123,0.0013554473844522791,-0.007653005840446759,0.015107207400297275,0.9839048975821826
2016-04-01,1,0.0018204012341025834,0.0020358859330034287,-0.008983046417651363,0.013843899326235186,0.9838548991459368
2016-04-05,1,0.0025402085507339554,0.002823884659071605,-0.008983046417651363,0.009375493295271318,0.9883324406428269
2016-04-07,1,0.002467396313629659,0.002735516417528364,-0.008983046417651363,0.0065810852162925095,0.9902008595204812
2016-04-11,1,0.0026426093080100786,0.002901829601657708,-0.008983046417651363,0.0065810852162925095,0.9905614553874238
2016-04-13,1,0.003129503109755783,0.003457823405502136,-0.010618251024435883,0.006069423535778143,0.9908764434433626
2016-04-15,1,0.002429835902734427,0.002664294921380399,-0.013578058341103792,0.006069423535778143,0.9906667982808927
2016-04-19,1,0.0025929273976717368,0.0028982892388927624,-0.013578058341103792,0.006069423535778143,0.990231109110049
2016-04-21,1,0.003125532363907132,0.0035074679705499306,-0.014480455412402086,0.005631694250740698,0.9890586214739941
2016-04-25,1,0.002729482781890843,0.0030274602985759843,-0.014480455412402086,0.0065810852162925095,0.9886832568805848
2016-04-27,1,0.0024293551746807974,0.0026829942399650476,-0.015432224690023429,0.00688540318160688,0.9875630874598743
2016-04-29,1,0.0022632618906795396,0.002515379655128884,-0.014489894310328506,0.0068966892797893255,0.988505302298584
2016-05-03,1,0.0016824539194389178,0.0018145697530712668,-0.01541058070859418,0.009337976899922325,0.9879572232628803
2016-05-05,1,0.001982675799358767,0.0021827926784534555,-0.01447324075192567,0.01063665294803488,0.9876602857757502
2016-05-09,1,0.0019155158910021028,0.0020725391129317516,-0.01447324075192567,0.009337976899922325,0.9881672020166908
2016-05-11,1,0.0015477351314212415,0.0016779499441077542,-0.011657933581072097,0.010236839399774017,0.9883300717412712
2016-05-13,1,0.0002315926319955212,0.00033725313733947045,-0.009628905053058315,0.010236839399774017,0.9891944536894324
2016-05-17,0,-5.414682592003888e-06,0.00010226077321914969,-0.009628905053058315,0.009768055763109698,0.9895892157024395
2016-05-19,-1,-0.0006053194770383822,-0.00042383575163954933,-0.006125398077620109,0.011942181147470943,0.9900548852514046
2016-05-23,1,0.0001407360958450838,0.00023454120401378422,-0.00640084281393139,0.007600627486976458,0.9904179103674371
2016-05-25,-1,-0.00041060740902566784,-0.0002436216079445208,-0.005674536642226292,0.007370849311023312,0.9912562769051179
2016-05-27,1,7.1844534483916e-05,0.00015984756204451186,-0.008156988491823594,0.007370849311023312,0.989377518405754
2016-06-01,-1,-0.0005703861923584459,-0.0003489914973976618,-0.00640084281393139,0.007370849311023312,0.9897615792231972
2016-06-03,-1,-0.0008097244382894758,-0.0005447177254928442,-0.008156988491823594,0.007370849311023312,0.9892181649459335
2016-06-07,-1,-0.001305746977607584,-0.0009445226069879193,-0.008156988491823594,0.010870169810331216,0.9868953450801095
2016-06-09,-1,-0.0010092942980177173,-0.0006903115366994916,-0.008156988491823594,0.010618772735141724,0.9868445014343517
2016-06-13,-1,-0.0011146711234106643,-0.0008058918567919376,-0.00640084281393139,0.011718578033256112,0.9864417144338399
2016-06-15,-1,-0.002057039720483687,-0.001665863033371739,-0.005520153209129937,0.011718578033256112,0.9872513896532837
2016-06-17,-1,-0.0013461282194926045,-0.0010587302935421402,-0.005520153209129937,0.010618772735141724,0.9874771009228424
2016-06-21,-1,-0.002469322268312768,-0.001967516739530435,-0.0030630460763892632,0.010618772735141724,0.9871845464346433
2016-06-23,-1,-0.001462785976860686,-0.001143332536371241,-0.0027730967289455945,0.009674857545950573,0.9880575730552885
2016-06-27,-1,-0.002616472366825294,-0.0021787662333389735,0.001111245390999786,0.012271500996334856,0.9884311505383236
2016-06-29,-1,-0.002046307393646192,-0.0016473335030912047,-0.0006434581623400742,0.012271500996334856,0.986847048206803
2016-07-01,-1,-0.002696371046971957,-0.002172953273121471,-0.0006434581623400742,0.011373644953787362,0.987736408940886
2016-07-06,-1,-0.0002468405070367518,-4.3501081181059856e-05,-0.002351889341999423,0.008002534453686021,0.9908963709730484
2016-07-08,1,0.00035565064881041815,0.0003923553753452098,-0.0027372281210764583,0.005691574540790776,0.9911942454605789
2016-07-12,1,0.0005667616981295791,0.000592074670969781,-0.0035683913199728175,0.005691574540790776,0.9913700569092339
2016-07-14,1,0.00044494436171513393,0.00048223106037365666,-0.0035683913199728175,0.00612156766657708,0.9913455898274408
2016-07-18,1,0.0005573182175493829,0.0005630225405557428,-0.0029447047850928213,0.00612156766657708,0.9919685032195101
2016-07-20,1,0.0002776612488280032,0.000336072780167887,-0.0035683913199728175,0.005306229607481768,0.9917424329726239
2016-07-22,1,0.00033100519032115005,0.0003636394444871294,-0.0029447047850928213,0.009991076229086439,0.9896947600239684
2016-07-26,1,0.0006633195569655642,0.0006885095790203006,-0.003936693179078386,0.006435117686441771,0.9900714197187008
2016-07-28,1,0.0009748208927501903,0.0009930502986053055,-0.003936693179078386,0.005306229607481768,0.9920193259972413
2016-08-01,1,0.0011141741968838477,0.001130515187743215,-0.003936693179078386,0.005306229607481768,0.9923375822969387
2016-08-03,1,0.0010906228821920539,0.0011279706033349114,-0.004172183948762332,0.005306229607481768,0.9923248835076477
2016-08-05,1,0.0005883926304291878,0.0006545017942091113,-0.0037647268948534144,0.005774513800353002,0.9923017313421852
2016-08-09,1,0.00030187971720213927,0.00042720304257413846,-0.0037647268948534144,0.005774513800353002,0.991960671840344
2016-08-11,1,0.0004238588759288778,0.000511508646758342,-0.00725000803882472,0.00644600512119832,0.9907597335133734
2016-08-15,1,0.0004024166976946362,0.0004963959004779526,-0.009114243903228157,0.007311924283297408,0.9896313028701194
2016-08-17,0,-5.94815580480713e-06,0.00013144926013961098,-0.00725000803882472,0.009071947964077929,0.9891364124257079
2016-08-19,1,0.0015652345413961922,0.0016429543776548912,-0.00725000803882472,0.00644600512119832,0.9912897472220976
2016-08-23,1,0.0011065715256969092,0.0011601065390276879,-0.00403045879903649,0.007311924283297408,0.9908986425609659
2016-08-25,1,0.0019884272083632634,0.002213729671739398,-0.00403045879903649,0.009071947964077929,0.991342357407391
2016-08-29,1,0.002302873769776598,0.0025803201526485584,-0.006706662921281211,0.014168463587708303,0.9904502509149902
2016-08-31,1,0.0021389388976284967,0.0024223810113802027,-0.007472609882721311,0.014168463587708303,0.990054973173682
2016-09-02,1,0.0026381936608122773,0.0030265548970273047,-0.007563069208197753,0.014168463587708303,0.9895402012832241
2016-09-07,1,0.0022553723737989387,0.002547651506725684,-0.00696005395948466,0.011709471439629186,0.9900849278532983
2016-09-09,1,0.0015074171805524903,0.0016843747054851035,-0.006434682887804643,0.011709471439629186,0.9912592408084756
2016-09-13,1,0.0017868468506655965,0.0020392445377046013,-0.006434682887804643,0.01065674678687072,0.9910470080858893
2016-09-15,1,0.0026591652640005677,0.003023499619350938,-0.006434682887804643,0.007930481999098942,0.9917444173785912
2016-09-19,1,0.0023532125142237195,0.002669789505115652,-0.00696005395948466,0.007930481999098942,0.9905571244087932
2016-09-21,1,0.002578625888766514,0.002896338191694656,-0.00696005395948466,0.007930481999098942,0.9899133557467437
2016-09-23,1,0.002267768879118521,0.00253084810741595,-0.006434682887804643,0.004935892028863775,0.9908649075704461
2016-09-27,1,0.002692707983990231,0.00300675269409364,-0.00646483599629679,0.0033757975285279964,0.990070542669801
2016-09-29,1,0.0021632345176067352,0.0024266489308433547,-0.010725558620976815,0.0033757975285279964,0.9851193048405373
2016-10-03,1,0.002030905431928265,0.0022399073035490238,-0.01276920861630254,0.0033757975285279964,0.9834732857577485
2016-10-05,1,0.001648276003330182,0.0017664161708683937,-0.023219277256711593,0.002047474210246226,0.9806319388190362
2016-10-07,1,0.0013834905904025127,0.0014262146224723775,-0.023219277256711593,0.003829467669611428,0.9806262681312397
2016-10-11,1,0.0001110563908723789,0.0002642315093069935,-0.021917260050091324,0.003829467669611428,0.9818487235353094
2016-10-13,1,0.0008940700195118684,0.000917876038978609,-0.021917260050091324,0.004907715781085203,0.9811734814699746
2016-10-17,-1,-0.00028070208382121426,-0.00010243821539448371,-0.02346929458443702,0.004907715781085203,0.979368979702762
2016-10-19,1,0.00025428276090825756,0.0003635000668340361,-0.02346929458443702,0.004907715781085203,0.9792483905801902
2016-10-21,1,0.00019919490466665314,0.0003170809057047176,-0.02346929458443702,0.007887834808989835,0.9776615640013713
2016-10-25,-1,-0.0010495636180272224,-0.0007967641791342933,-0.02476711549465465,0.007887834808989835,0.9769523561816988
2016-10-27,-1,-0.004378527013700877,-0.0037384051955927505,-0.018925803175566767,0.013158793132048872,0.9806692789680023
2016-10-31,-1,-0.0029121519388623017,-0.0024557964668361874,-0.018925803175566767,0.007887834808989835,0.9825796370736496
2016-11-02,-1,-0.005602353586612958,-0.004812450265169406,-0.0168630606375959,0.007887834808989835,0.9844009991926471
2016-11-04,-1,-0.005626511966174596,-0.004775721135283458,-0.0168630606375959,0.013158793132048872,0.9838326843923795
2016-11-08,-1,-0.0048863142218134,-0.004141479538063099,-0.0168630606375959,0.009536798795864587,0.9840521880850602
2016-11-10,-1,-0.004520275627266784,-0.0038164617313844605,-0.0168630606375959,0.013446343431670608,0.9810107123448529
2016-11-14,-1,-0.006878123677497374,-0.005906745343340857,-0.013369803207804344,0.013446343431670608,0.9826412131653888
2016-11-16,-1,-0.0066159506595297205,-0.005598497658454715,-0.013369803207804344,0.0096326488957385,0.983534732815658
2016-11-18,-1,-0.006360569714075705,-0.005414747169003702,-0.012281366533497349,0.009151496415022463,0.9841787697838574
2016-11-22,-1,-0.007577829404514095,-0.0065085980235039444,-0.010789285957864634,0.009151496415022463,0.9855573931976747
2016-11-25,-1,-0.005793406273599327,-0.005029852267173735,-0.007580551240801727,0.009151496415022463,0.9862134802013427
2016-11-29,-1,-0.006215784110964292,-0.005407838547049923,-0.006715060427326182,0.009151496415022463,0.9861798903011817
2016-12-01,-1,-0.006698609206270537,-0.005863593547502911,0.0007119260063158554,0.01023968807171684,0.9855751947461152
2016-12-05,-1,-0.0061316655519508744,-0.005371013393240292,0.003068786972809145,0.010705383375816802,0.9854363958554627
2016-12-07,-1,-0.0055481194951544745,-0.004843993609745958,0.0007119260063158554,0.010705383375816802,0.9862600827619479
2016-12-09,-1,-0.003003459161951442,-0.0026105866414787037,0.0007119260063158554,0.010212701396857846,0.9906109728044593
2016-12-13,-1,-0.0033379959321092187,-0.002900834200897024,-0.00038873203165745794,0.010212701396857846,0.9909985447749251
2016-12-15,-1,-0.0023852795116849233,-0.002097107203993247,-0.0031088487960556845,0.010212701396857846,0.9921883910784706
2016-12-19,-1,-0.0018332960172640178,-0.0016688267348986363,-0.004770792733030195,0.009468853982948763,0.9922387036610754
2016-12-21,-1,-0.001434299148204293,-0.0013409452367401783,-0.0050418164187622655,0.009468853982948763,0.9924215789528144
2016-12-23,-1,-0.0008760837313707345,-0.0008388414297410765,-0.005583726512695782,0.009468853982948763,0.992217440289152
2016-12-28,-1,-0.0009896953452510778,-0.0009414869784972978,-0.005583726512695782,0.010705383375816802,0.9911526449824509
2016-12-30,-1,-0.000497258748569951,-0.00047954795037234916,-0.006762008936730354,0.009468853982948763,0.991220939301495
2017-01-04,1,0.0005445058905401677,0.0007054741206709955,-0.008208040945887882,0.007316150398778719,0.9874375858524714
2017-01-06,1,0.0006556510825650181,0.0008258533621430294,-0.008208040945887882,0.00845167060616888,0.9870712321598195
2017-01-10,1,0.0010950934358882948,0.0013029275924844102,-0.008208040945887882,0.005976594264088692,0.9874687077609081
2017-01-12,1,0.0013554921748120694,0.0016758862130622123,-0.0069991922929941094,0.005976594264088692,0.9879003106043304
2017-01-17,1,0.0010882957561733323,0.0013557825853779619,-0.0069991922929941094,0.005976594264088692,0.9878873049799205
2017-01-19,1,0.0007442771512545381,0.0009398631212073047,-0.006394874431654103,0.008476004905858701,0.9881162671628324
2017-01-23,1,0.0005901695498930729,0.0007843037938089897,-0.005542834251451276,0.009208971994339498,0.9871929655824242
2017-01-25,1,0.0008201282226658362,0.0010161013982832,-0.005239727774897386,0.009208971994339498,0.9862231471070282
2017-01-27,1,0.0010988096042278718,0.001314007474590303,-0.005239727774897386,0.008476004905858701,0.9871005973192596
2017-01-31,1,0.0007454622933134958,0.0009171389824169639,-0.005239727774897386,0.008476004905858701,0.987350833847217
2017-02-02,-1,-0.0008271367107566021,-0.0007751165901112315,-0.00550741406422086,0.003053899004373725,0.9920480245340493
2017-02-06,-1,-0.0004613643593134245,-0.0004556810559792608,-0.00550741406422086,0.0026319485244057418,0.9910100358444811
2017-02-08,1,0.00033446016311019583,0.0004815394010452413,-0.006268040898349999,0.0015572108221939892,0.9887632599472588
2017-02-10,1,8.689065266022887e-05,0.00019265760427909155,-0.006268040898349999,0.007210153465954751,0.9885393923496101
2017-02-14,1,0.00029152394321665476,0.0004587526491436607,-0.006268040898349999,0.007210153465954751,0.9888358949754182
2017-02-16,1,0.00033739560140067274,0.0005015439611104597,-0.007367916237224298,0.007237711752071439,0.9881967542838022
2017-02-21,1,0.0011634275337876337,0.0014726885608226273,-0.00983036251250869,0.00372312013214584,0.988809029623714
2017-02-23,1,0.0009906521515912008,0.0012453071332130354,-0.00983036251250869,0.0065616699945109675,0.9903221833230822
2017-02-27,1,0.0014980371334550263,0.0018311289707940116,-0.0073759115052351235,0.00714675533428897,0.9902574216754902
2017-03-01,1,0.0013562470884004888,0.001673205324672996,-0.010051756125447734,0.00714675533428897,0.9898803798667166
2017-03-03,1,0.0012817022129015566,0.0015986493824238677,-0.006872236407726001,0.00714675533428897,0.9904313119602041
2017-03-07,1,0.0008749461091215795,0.0011105856438244272,-0.006872236407726001,0.00714675533428897,0.9911335283117744
2017-03-09,1,0.0020317950775643233,0.002447966128799015,-0.003982725978047257,0.004671936387915204,0.9935460126215824
2017-03-13,1,0.0014673239311424613,0.001774122902122987,-0.003946117588893541,0.004671936387915204,0.9935379613410705
2017-03-15,1,0.0016587035782593081,0.0020138392593230096,-0.006382385839777885,0.004671936387915204,0.9931203742731848
2017-03-17,1,0.0020686188379780523,0.0024858522482571178,-0.003946117588893541,0.006042247735177787,0.9936129182832936
2017-03-21,1,0.0007554571018823879,0.0009261567163371536,-0.0017213643258445657,0.00714675533428897,0.9928232265050714
2017-03-23,1,0.0002842731314416065,0.00029094350877284855,-0.006089218061096222,0.007237246531081192,0.9920682861524881
2017-03-27,1,0.0009513039774906688,0.0011055155468358304,-0.006089218061096222,0.006849956003018989,0.9924564538990525
2017-03-29,-1,-0.0003713958004607376,-0.0002724975459169355,-0.0017213643258445657,0.010187199989356906,0.9878926113465536
2017-03-31,1,0.00016883539399524465,0.00018076136968378764,-0.00018640203792522937,0.010187199989356906,0.9883028981958463
2017-04-04,-1,-0.00021746046291105543,-0.00018424398265765835,-0.00018640203792522937,0.010187199989356906,0.9888627342261957
2017-04-06,1,0.00015320343835551297,0.000165325344711704,-0.00010587238420550613,0.010187199989356906,0.9888530915590348
2017-04-10,-1,-0.0006789758436746436,-0.000528596688111544,-0.0005676315033769475,0.006849956003018989,0.9888542504056971
2017-04-12,-1,-1.2086086753023723e-05,-8.215562175108631e-07,-0.0005676315033769475,0.006849956003018989,0.9891609296204718
2017-04-17,1,7.59887152294943e-05,0.00010284246681295875,-0.0005676315033769475,0.0066776010656118745,0.9888022080635139
2017-04-19,-1,-0.00027482353182423265,-0.0001768524437092966,-0.0005676315033769475,0.005437062691171592,0.9892756294438546
2017-04-21,-1,-0.00036310643577264256,-0.00027940893419963527,6.820878527073165e-05,0.005437062691171592,0.9900174476425213
2017-04-25,1,9.998347672260485e-05,0.0001319145314195781,-0.0005676315033769475,0.005437062691171592,0.9900550588196081
2017-04-27,1,0.0005505819494076819,0.0005546567284896233,-0.0006989444200782464,0.005437062691171592,0.9949178938309132
2017-05-01,1,0.0003535143679433859,0.00036971406572838285,-0.0006989444200782464,0.005437062691171592,0.9948390162642591
2017-05-03,1,0.0005896398711551469,0.0006385599805890255,2.443781303696533e-05,0.005658815471266921,0.993999762349341
2017-05-05,1,0.0005716423663717005,0.0006513736814273477,-0.0009449753479537168,0.005658815471266921,0.9939460438478602
2017-05-09,1,0.000564741177372959,0.0006428818198377298,-0.0003664574434946659,0.006392740747791222,0.9936462377287465
2017-05-11,1,0.00057936236046713,0.000657142537199795,-0.000615896105088421,0.006392740747791222,0.9931677033724933
2017-05-15,1,0.0011688182032412225,0.0013146418024878065,-0.0019106041153084516,0.005735992044139833,0.9935893211529694
2017-05-17,1,0.00017732606470862155,0.0002017507257854561,-0.000626423812290237,0.005735992044139833,0.9942179034078196
2017-05-19,1,0.0006909412233986675,0.0007925799735575045,-0.000626423812290237,0.005735992044139833,0.9930622687528295
2017-05-23,1,0.0003177704665023464,0.00034044816587177007,-0.000626423812290237,0.005735992044139833,0.9929565647299203
2017-05-25,1,0.00038846406448704205,0.0004261917563878133,-0.0014624531573905392,0.006490651470432571,0.9924344278597721
2017-05-30,1,0.0006809345531865439,0.0007807506037169403,-0.005932219099159518,0.006490651470432571,0.991261973011558
2017-06-01,1,0.0008232555437388902,0.000921902618974869,-0.008571206548259139,0.006490651470432571,0.9913231284475803
2017-06-05,1,0.0005344308726432366,0.0006192797720689379,-0.008571206548259139,0.008625046926046064,0.991215228114653
2017-06-07,1,0.0005697583359436098,0.0006378531983415821,-0.009862941598497689,0.008625046926046064,0.9901337944328437
2017-06-09,-1,-7.4494548433956146e-06,-5.08304927256161e-06,-0.008571206548259139,0.008817656150742492,0.9903842768826118
2017-06-13,1,0.0004465887033030026,0.0005025315603340636,-0.006102502079438927,0.008817656150742492,0.991033140949942
2017-06-15,1,0.0003299410536454141,0.0003555317560188583,-0.008571206548259139,0.008817656150742492,0.9897321953079206
2017-06-19,1,0.0011304315409568664,0.00128845101685106,-0.008571206548259139,0.008625046926046064,0.9908478819253597
2017-06-21,1,0.0008236657042874319,0.0009462285779075767,-0.007709479044300644,0.00878909796950226,0.990543411545371
2017-06-23,1,0.0007301876210875013,0.000811571624150371,-0.009862941598497689,0.007906675886658667,0.9903242830325746
2017-06-27,-1,-0.000205911242071394,-0.00011248828106788815,-0.00797873282102881,0.007906675886658667,0.9909552481898611
2017-06-29,1,1.4969552138926904e-05,5.4837932849044284e-05,-0.007321746962008901,0.007338967630955518,0.9912597327167342
2017-07-03,1,0.0003335467002366287,0.0003475122017922202,-0.007321746962008901,0.0066726192485876915,0.9915865449568511
2017-07-06,-1,-0.00014672222767142418,-8.81979649343353e-05,-0.007321746962008901,0.0066726192485876915,0.9919012273859561
2017-07-10,1,0.00010439505397572206,0.00013719353309913458,-0.007321746962008901,0.0041412325080900534,0.9923799269323224
2017-07-12,1,0.0003819825552546425,0.000384287510544559,-0.007321746962008901,0.003233960102016797,0.9925298091563883
2017-07-14,1,0.00031844986672255023,0.0003352198549450623,-0.007321746962008901,0.0032046619899776473,0.9928608444411143
2017-07-18,1,0.00011304206463320189,0.0002179181398448996,-0.007321746962008901,0.0032046619899776473,0.9925973519895893
2017-07-20,1,0.0006619503378434541,0.0006637713322609616,-0.007763076506103641,0.0026824665098589546,0.9924957640337729
2017-07-24,1,1.0247559110054274e-05,0.00010094383840098182,-0.007079533077554028,0.004042578673641229,0.9929285180792
2017-07-26,-1,-0.00021990691941987337,-9.938453720052972e-05,-0.007079533077554028,0.004042578673641229,0.992943314614416
2017-07-28,-1,-0.00034874047428069154,-0.00021363288664946696,-0.007448416251362081,0.0026824665098589546,0.9931805114758369
2017-08-01,1,0.0001265601824702466,0.00015525247289612047,-0.008819193022109045,0.004042578673641229,0.992137859254542
2017-08-03,1,0.0003987353119835482,0.00042138350585072155,-0.007448416251362081,0.006755754257531634,0.9927333089028393
2017-08-07,-1,-0.00019709533902010674,-9.442484109509875e-05,-0.009414428094487523,0.006755754257531634,0.992235672353401
2017-08-09,1,4.134127640916026e-05,9.537478009420588e-05,-0.009414428094487523,0.006755754257531634,0.9921814287259043
2017-08-11,-1,-0.0007168039814810526,-0.0005281693318201482,-0.007448416251362081,0.007919534148496148,0.9919700648604368
2017-08-15,-1,-0.0006749342546795575,-0.0005219511023515551,-0.009414428094487523,0.007597263923444675,0.9914167337969818
2017-08-17,-1,-0.0010492287278414361,-0.0008495824757736001,-0.005232851661013966,0.007919534148496148,0.9915687249779706
2017-08-21,-1,-0.0005358119268917056,-0.0003834021422494065,-0.009414428094487523,0.007597263923444675,0.9913543159818543
2017-08-23,-1,-0.001281026617535844,-0.0010378943220774835,-0.009414428094487523,0.007597263923444675,0.9912452031327821
2017-08-25,-1,-0.0017060123750194962,-0.0013879353524034986,-0.008181533764903924,0.007597263923444675,0.9915148697364701
2017-08-29,-1,-0.0013487508639900049,-0.0010917677342779531,-0.008110360912873956,0.004857084573356365,0.9920334385926238
2017-08-31,-1,-0.0009429448513130098,-0.0007316533269653643,-0.008110360912873956,0.0034019970915988565,0.9924694041823561
2017-09-05,-1,-0.0015943774697455846,-0.0012985002334694384,-0.008110360912873956,0.00397589376909964,0.9921151082152456
2017-09-07,-1,-0.00116516031280581,-0.0009439207166888611,-0.008110360912873956,0.0065571812955241005,0.9907504533756494
2017-09-11,-1,-0.0005846492443195559,-0.0004291516283768892,-0.011055031288977116,0.00397589376909964,0.9914050083764028
2017-09-13,-1,-0.0020507612315676686,-0.0017107444219418312,-0.008110360912873956,0.004213502730915651,0.992610410879636
2017-09-15,-1,-0.000631306416646892,-0.0004835279782969193,-0.011055031288977116,0.00397589376909964,0.9925091468811447
2017-09-19,-1,-0.0017171614295593597,-0.0014563770645065527,-0.006186682874735627,0.004213502730915651,0.9926037489845289
2017-09-21,-1,-0.0020277693279712326,-0.0017268791482302356,-0.002980155693902474,0.006531625497238401,0.9922990050675143
2017-09-25,-1,-0.0019288020429985005,-0.0016359444170769713,-0.002980155693902474,0.009174576196263634,0.9914723109739306
2017-09-27,-1,-0.002077234810859033,-0.0017812984546307536,-0.002980155693902474,0.009174576196263634,0.9872900895991871
2017-09-29,-1,-0.0009514745621648381,-0.0008101890260397038,-0.004618482688950622,0.009174576196263634,0.987182784714852
2017-10-03,-1,-0.0015196837922374791,-0.001315649387246261,-0.0025485634527469747,0.009174576196263634,0.9877658932609146
2017-10-05,1,7.486202263223162e-05,0.00010339519893661624,-0.004088321953481645,0.006293863211728482,0.9890729110170295
2017-10-09,-1,-0.0010230287345643653,-0.0008715604340323788,-0.003136636755134852,0.007875214510657718,0.988710492506148
2017-10-11,-1,-0.0004498877033283441,-0.0003889796342850674,-0.003136636755134852,0.009174576196263634,0.9880968658798261
2017-10-13,-1,-0.0011387314154219055,-0.0009950952240301886,-0.004088321953481645,0.009174576196263634,0.9882824104591644
2017-10-17,-1,-0.0002753022736557657,-0.0002376546848413986,-0.004088321953481645,0.009174576196263634,0.9886113388882629
2017-10-19,-1,-9.59787626458e-05,-8.836333886347826e-05,-0.004088321953481645,0.009174576196263634,0.9884473258312046
2017-10-23,1,0.00040878922381800445,0.0004975815873650203,-0.004088321953481645,0.006415214327419301,0.9893583784527117
2017-10-25,-1,-0.001380174967848121,-0.0012304490875276717,-0.004088321953481645,0.008991397435670899,0.9925841445119113
2017-10-27,-1,-0.0013845820364240917,-0.0012514191219342066,-0.003136636755134852,0.008991397435670899,0.9926759627185392
2017-10-31,-1,-0.0013446404270051177,-0.0011849094736896479,-0.002215227024811618,0.013259455000179558,0.9901337168249805
2017-11-02,-1,-0.0016386035486660286,-0.0014605993540063853,-0.0010456357547425652,0.013259455000179558,0.9895949259625864
2017-11-06,-1,-0.0010923104165373775,-0.0009802385186372963,-0.004898983985441139,0.012434023519621246,0.989472934114049
2017-11-08,-1,-0.00019552481873957815,-0.00014960425177389114,-0.004898983985441139,0.015087108606612061,0.9887124046600884
2017-11-10,-1,-0.0006952473730200578,-0.0006666740288965926,-0.0010456357547425652,0.015087108606612061,0.9888135319394837
2017-11-14,-1,-0.0002179862614016878,-0.00016971172003811677,-0.0028332827711240053,0.010397875850484038,0.9885778712349724
2017-11-16,-1,-0.00010823865412023345,-8.991668758515128e-05,-0.0065097726755145875,0.005486784005050584,0.9891679134437918
2017-11-20,-1,-0.0002531035862887417,-0.0002499038089192236,-0.0065097726755145875,0.006379490999117575,0.9886277220558669
2017-11-22,1,6.5632127927026e-05,0.00012081697508769845,-0.006628029560269026,0.005235823521239756,0.9896365888120121
2017-11-27,1,0.00025425497448893864,0.00032125653497794195,-0.006842735751551214,0.005235823521239756,0.9895626026091414
2017-11-29,1,0.0016000214441352783,0.0018580759364172955,-0.006842735751551214,0.005235823521239756,0.9911475790536529
