JNU-Tangyin/eata/results/Batch4_SP500/Batch4_SP500-MU.csv
Date,Action,Predicted_Q25,Predicted_Q75,Actual_Q25,Actual_Q75,RL_Reward
2010-12-14,0,0.0,0.0,-0.00754207397823986,0.019331453022998407,0.9835528110682829
2010-12-16,1,0.006624595079924502,0.007764143943657353,-0.0025670199555793607,0.019485077504255953,0.9845466201518097
2010-12-20,1,0.005138170083130134,0.005872064986436292,-0.005462515674862908,0.019331453022998407,0.9832897061668601
2010-12-22,1,0.005504803697767215,0.006244816631271667,-0.005462515674862908,0.021048906557798355,0.982203599753676
2010-12-27,1,0.002879537125936714,0.0032655777796534585,-0.0022538544906475708,0.02214271971657275,0.9830135644663862
2010-12-29,1,0.002293967738495473,0.002579252952202386,0.0027613808762251228,0.024659852279958473,0.9800745140495913
2010-12-31,1,0.0027078198897076368,0.0029342212472317102,-0.0035418266066327537,0.024659852279958473,0.9798502132322888
2011-01-04,1,0.00504157044441619,0.005604805810740089,-0.0035418266066327537,0.024659852279958473,0.9818155101408061
2011-01-06,1,0.0048899895006936514,0.005354118359091799,-0.0035418266066327537,0.024659852279958473,0.9814380279467378
2011-01-10,1,0.005335372542476716,0.00594599596455548,-6.284105577200388e-05,0.024659852279958473,0.9814409217449217
2011-01-12,1,0.00791027505044885,0.00873051429941788,-0.0035418266066327537,0.022426196440297648,0.9847828695348294
2011-01-14,0,0.0,0.0,-0.0035418266066327537,0.022426196440297648,0.9827801240551163
2011-01-19,0,0.0,0.0,-8.841446567149907e-05,0.022426196440297648,0.9842322921567831
2011-01-21,0,0.0,0.0,-0.0031113862604807644,0.017630454360887796,0.9855153021571026
2011-01-25,0,0.0,0.0,-0.004689343734528882,0.015061394007659086,0.9820194944917785
2011-01-27,1,0.007996874071628114,0.008833769118093533,-0.004689343734528882,0.017724946602129428,0.9823685331625962
2011-01-31,1,0.007815232271165587,0.008515079777417127,-0.01017446655653698,0.016392890448744462,0.9812752290554975
2011-02-02,0,0.0,0.0,-0.01017446655653698,0.016392890448744462,0.9799646410689299
2011-02-04,0,0.0,0.0,-0.015389083035896903,0.016392890448744462,0.9778671678656026
2011-02-08,0,0.0,0.0,-0.01857512132046551,0.012550337024230009,0.976433561302096
2011-02-10,0,0.0,0.0,-0.028794085597895536,0.018251015844662127,0.974111108093848
2011-02-14,0,0.0,0.0,-0.028794085597895536,0.012550337024230009,0.9746599000875409
2011-02-16,1,0.004789597215432295,0.005166899528050549,-0.03428072500242068,0.014690656026880662,0.9727036303662508
2011-02-18,1,0.005128795544863628,0.005572081970682454,-0.03428072500242068,0.018382475730126073,0.9718186514874165
2011-02-23,1,0.0023981659444216943,0.002504877137181353,-0.0182299947319042,0.026040128546223985,0.9754118713580147
2011-02-25,0,0.0,0.0,-0.0182299947319042,0.01746304917662966,0.9748630329511107
2011-03-01,0,0.0,0.0,-0.01294747116941785,0.0199165413864329,0.9760138514161671
2011-03-03,0,0.0,0.0,-0.014110597466071042,0.015728328974531434,0.9774610100835294
2011-03-07,0,0.0,0.0,-0.013989380238807813,0.015728328974531434,0.9790831462020412
2011-03-09,1,0.0007670210847541744,0.000829457947262459,-0.013989380238807813,0.018627275693511063,0.9805489235511015
2011-03-11,-1,-0.001212071995571174,-0.0008779383644674778,-0.010728945489484854,0.015728328974531434,0.9832723385875538
2011-03-15,-1,-0.0017651124049715451,-0.0013232214470818068,-0.014913973893690969,0.015728328974531434,0.9820852309859446
2011-03-17,0,0.0,0.0,-0.013989380238807813,0.010955722736980538,0.9835045780702227
2011-03-21,0,0.0,0.0,-0.014913973893690969,0.008757694320042822,0.9836217836715537
2011-03-23,1,0.0033848786544243047,0.003424930950740093,-0.014913973893690969,0.009441522017897018,0.9800657335954732
2011-03-25,1,0.004497693359010976,0.004702772972316967,-0.015220580523639227,0.009441522017897018,0.982371723805573
2011-03-29,1,0.004798767820153373,0.005034263897576082,-0.015220580523639227,0.010051106725275503,0.9816703450218646
2011-03-31,1,0.0038648236630947227,0.004007945380499033,-0.015517318813125533,0.010051106725275503,0.9810316670770893
2011-04-04,1,0.0007879018658697558,0.001174261539820508,-0.01725809509307412,0.010051106725275503,0.9809331869027585
2011-04-06,1,0.0009385523197975108,0.0012942852750560954,-0.01725809509307412,0.010051106725275503,0.9811284761528711
2011-04-08,-1,-0.0016384091042691879,-0.0008650277689901545,-0.02144448209243094,0.010051106725275503,0.9803053746199378
2011-04-12,-1,-0.0029767678312529054,-0.0019706350162143056,-0.017543867916765835,0.012517319071918512,0.9809036147184113
2011-04-14,-1,-0.0025762775225095535,-0.0016685733561913902,-0.021619692347431274,0.01593461328366498,0.9792744542341446
2011-04-18,-1,-0.004013236283209253,-0.00293457764587609,-0.021619692347431274,0.01593461328366498,0.9779494437498625
2011-04-20,0,-0.00042381140986432614,0.00016953471866993524,-0.021619692347431274,0.01477452067406439,0.9807086640312763
2011-04-25,-1,-0.002401583928213246,-0.0014931797696467902,-0.025072373938729298,0.01477452067406439,0.9803588138688054
2011-04-27,1,0.0009728538079068834,0.0013163517011433733,-0.025072373938729298,0.011218899177731311,0.9807280777788815
2011-04-29,0,0.0,0.0,-0.021619692347431274,0.01477452067406439,0.9809662654951363
2011-05-03,0,0.0,0.0,-0.021619692347431274,0.01593461328366498,0.9788828668471614
2011-05-05,0,0.0,0.0,-0.0249345697503829,0.014880448676831436,0.9783202244643198
2011-05-09,-1,-0.003574407362863969,-0.002769977235057467,-0.021619692347431274,0.014880448676831436,0.9800045270812292
2011-05-11,-1,-0.004169307933383807,-0.003284839967610416,-0.0249345697503829,0.012660172778351256,0.979514464095009
2011-05-13,-1,-0.004471652382422395,-0.003546407053374401,-0.019971221108975347,0.011218899177731311,0.9811221887147266
2011-05-17,-1,-0.005315889858560496,-0.004329939300414986,-0.019971221108975347,0.011218899177731311,0.9822573196253624
2011-05-19,-1,-0.006026060562094818,-0.004836736453965237,-0.02522921402979967,-0.0011422543476720867,0.9831193563192298
2011-05-23,-1,-0.008539127020136216,-0.007010573597217273,-0.019525131841052527,0.010980067376033445,0.9826598949839719
2011-05-25,-1,-0.00825568088487844,-0.006819747969403273,-0.019525131841052527,0.014442719659323524,0.9805650395263789
2011-05-27,-1,-0.005632377397995787,-0.004571075178918242,-0.02522921402979967,0.010980067376033445,0.9773780699261378
2011-06-01,-1,-0.007127118683960619,-0.005906728511801334,-0.019525131841052527,0.010980067376033445,0.9799408882182679
2011-06-03,-1,-0.008926036188835959,-0.007496772638392459,-0.014268435187953113,0.01403334689399902,0.977969857673127
2011-06-07,-1,-0.007289320151832083,-0.006216399746261761,-0.019525131841052527,0.01403334689399902,0.9775972696618433
2011-06-09,-1,-0.008255182632965895,-0.007097424330175357,-0.017805064852933854,0.016752518678736936,0.9771278176008139
2011-06-13,-1,-0.009866452171921777,-0.008480044123953173,-0.02420891323867259,0.016752518678736936,0.9758179866002734
2011-06-15,-1,-0.009946365482074698,-0.008625717075666043,-0.02420891323867259,0.019678841644764467,0.9758142716553541
2011-06-17,-1,-0.010120730932511224,-0.008816851839855987,-0.024096884231887036,0.019678841644764467,0.9747532818439321
2011-06-21,-1,-0.007161701180144894,-0.006313439417543676,-0.024096884231887036,0.019678841644764467,0.9747802830469091
2011-06-23,-1,-0.005373141105926986,-0.004733767693933072,-0.024096884231887036,0.019678841644764467,0.9736977773931915
2011-06-27,-1,-0.0070379746630235334,-0.0062669418738362966,-0.024096884231887036,0.01850161223299958,0.9780358361881977
2011-06-29,-1,-0.005882505545198719,-0.005282173522137765,-0.02439908492266791,0.01850161223299958,0.9770409083738357
2011-07-01,-1,-0.0025083687494220942,-0.002364029871869385,-0.02439908492266791,0.012093938249785642,0.9789368457572521
2011-07-06,-1,-0.004658806042395896,-0.0042412657172476945,-0.02439908492266791,0.012093938249785642,0.9781349896539221
2011-07-08,-1,-0.0035914022276235637,-0.0033710445756739028,-0.02472633315529993,0.007593801349214508,0.9761288727862266
2011-07-12,0,0.0,0.0,-0.025216996581985937,0.012093938249785642,0.9690711335630489
2011-07-14,-1,-0.00454087192592168,-0.004205903499508533,-0.03102456262128665,0.012093938249785642,0.9638972027491078
2011-07-18,-1,-0.005995406379276923,-0.005348082298812523,-0.0348536210954116,0.018006376987172144,0.9623050069499696
2011-07-20,-1,-0.0036056011999523532,-0.0033311930651659144,-0.0348536210954116,0.005715295627501772,0.962389820430292
2011-07-22,0,0.0,0.0,-0.058317791307601195,-0.0031881511116804407,0.9574093090433544
2011-07-26,0,0.0,0.0,-0.058317791307601195,0.0027854549561714187,0.955149373099628
2011-07-28,0,0.0,0.0,-0.06499036453834282,0.007844133661671394,0.9541175152974968
2011-08-01,0,0.0,0.0,-0.06499036453834282,0.04941893088021043,0.9483963531565516
2011-08-03,0,0.0,0.0,-0.06499036453834282,0.04941893088021043,0.9491971735136941
2011-08-05,0,0.0,0.0,-0.04725990169660407,0.04941893088021043,0.9504553457755659
2011-08-09,0,0.0,0.0,-0.034843230535308245,0.04941893088021043,0.9540579318922785
2011-08-11,0,0.0,0.0,-0.03050058660011822,0.035650789171930805,0.9599457008051611
2011-08-15,0,0.0,0.0,-0.030120840103665687,0.036525998520111236,0.9599188234710705
2011-08-17,0,0.0,0.0,-0.029703707104801916,0.05018311521953417,0.9592812846709317
2011-08-19,-1,-0.012529264810352905,-0.011696088966368406,-0.021558405051484278,0.05018311521953417,0.9615904314396755
2011-08-23,0,0.0,0.0,-0.023857855980239154,0.03590551728503872,0.9667872673187875
2011-08-25,-1,-0.00805792698825649,-0.007466907541636972,-0.023474529486680627,0.03805165455779634,0.9668501923974164
2011-08-29,0,0.0,0.0,-0.023474529486680627,0.031020114848512435,0.972764145788063
2011-08-31,0,0.0,0.0,-0.027614839585840222,0.031020114848512435,0.9702046973921776
2011-09-02,-1,-0.0075113798614650715,-0.006992906488690659,-0.02918275067539746,0.031020114848512435,0.9649431125581908
2011-09-07,0,0.0,0.0,-0.02918275067539746,0.03206852414281695,0.9623272750951328
2011-09-09,-1,-0.0016473700621928,-0.0014227157749262614,-0.02918275067539746,0.027611969708143877,0.9648606220966699
2011-09-13,1,0.0029866555975656406,0.00402165248772747,-0.02918275067539746,0.0143676134695736,0.9649856580835556
2011-09-15,1,0.004183276374925741,0.005382153038220589,-0.02918275067539746,0.0143676134695736,0.9650539613845392
2011-09-19,1,0.004637756522647217,0.006008882173545598,-0.03648976606017924,0.033010163853972985,0.9628883716386529
2011-09-21,1,0.0029970106550860475,0.004084003299736561,-0.0410358591105429,0.036267059003032266,0.9607038226462036
2011-09-23,1,0.0030006431802883887,0.004029348064539537,-0.0410358591105429,0.03506256144143068,0.9619446463614257
2011-09-27,1,0.0024505761895937694,0.0034249766485089316,-0.0410358591105429,0.03807856402209489,0.9605605512957993
2011-09-29,-1,-0.0009889668675532911,-0.0005380816756414002,-0.024950712837905883,0.04214171576064897,0.962454554412796
2011-10-03,-1,-0.007437785625489982,-0.0070874677603800845,-0.008546196393179733,0.04214171576064897,0.9651976203105144
2011-10-05,0,0.0,0.0,-0.024950712837905883,0.0336139988603272,0.9706983750076583
2011-10-07,-1,-0.0002941678985304397,-0.0002022497719598901,-0.024950712837905883,0.03798438535384276,0.966913991767034
2011-10-11,1,0.0005384967353371508,0.0014023294802339727,-0.024950712837905883,0.0336139988603272,0.9690071427418555
2011-10-13,0,0.0,0.0,-0.034230390456846345,0.03183641764024547,0.9654551702671
2011-10-17,0,0.0,0.0,-0.030470441424086725,0.0328417518338002,0.966165356729109
2011-10-19,0,0.0,0.0,-0.024950712837905883,0.0328417518338002,0.9653117663575151
2011-10-21,0,0.0,0.0,-0.030470441424086725,0.0328417518338002,0.9637746435659409
2011-10-25,0,0.0,0.0,-0.031780904884682,0.02774350297159368,0.9653202771365751
2011-10-27,0,0.0,0.0,-0.039913122327734876,0.02203683056632175,0.962763497671521
2011-10-31,1,0.0022924483629999104,0.0027878900108277765,-0.03304175159615462,0.020875119992204108,0.9655004848872263
2011-11-02,1,0.0012994315999296923,0.001622079951708768,-0.031780904884682,0.020875119992204108,0.9655662425819059
2011-11-04,1,0.0016721554803360448,0.002131410382499967,-0.031780904884682,0.012832493728258444,0.9678837167716446
2011-11-08,1,0.004221286129344462,0.005034565835973613,-0.031780904884682,0.020875119992204108,0.9639100967642025
2011-11-10,0,-0.00013550802322644996,0.00021320339959879516,-0.020469974714638888,0.020875119992204108,0.9684790626040144
2011-11-14,1,0.00239068159643186,0.0031771864260017888,-0.03286797411980236,0.014160772210368568,0.9687411293582403
2011-11-16,0,0.0,0.0,-0.03286797411980236,0.0056758963094841845,0.9724895783964851
2011-11-18,1,0.002364356505679872,0.002829128106832928,-0.03286797411980236,0.013607752586314779,0.9722715967882685
2011-11-22,0,0.0,0.0,-0.036256257193363346,0.019216061120042743,0.969242812570279
2011-11-25,0,0.0,0.0,-0.019650995708224074,0.022219460088511996,0.9692029809536891
2011-11-29,0,0.0,0.0,-0.024708274971037975,0.01961736019781255,0.9686931504400706
2011-12-01,0,0.0,0.0,-0.024708274971037975,0.016742753451792613,0.9714859677363792
2011-12-05,1,0.0016434367002579402,0.00204180070808068,-0.024708274971037975,0.026073417934004535,0.9678564252257976
2011-12-07,0,0.0,0.0,-0.024708274971037975,0.023647635368349584,0.9703182372955937
2011-12-09,0,0.0,0.0,-0.015459369482705316,0.023647635368349584,0.9719046652504193
2011-12-13,1,0.0017413903551750142,0.002412198886759323,-0.00731521938263914,0.023647635368349584,0.9743663527451037
2011-12-15,1,0.001107480738158346,0.0016345901565856516,-0.006547019722880471,0.023647635368349584,0.9755466627151408
2011-12-19,0,-0.00017208185914995824,9.248330644033782e-05,-0.005490736944643541,0.03105492113932768,0.9736324998904349
2011-12-21,1,0.0006669913029752855,0.0010541781245845393,-0.005490736944643541,0.025756692529846945,0.9774869511146117
2011-12-23,1,0.002608245100303984,0.0031531666862643732,-0.006547019722880471,0.018235697206323728,0.981793492885715
2011-12-28,-1,-0.0002306240581661414,-0.0002169098646467187,-0.006547019722880471,0.018235697206323728,0.9800191115385216
2011-12-30,1,0.00034450942912928116,0.0004016126038102792,-0.006547019722880471,0.019202605678909877,0.9799919965957354
2012-01-04,1,0.004572660288471135,0.005243370833783316,-0.006547019722880471,0.013412215033013316,0.9854445533395912
2012-01-06,1,0.005113028457939854,0.0058610785975459845,-0.010091607127050655,0.013412215033013316,0.9836531822083219
2012-01-10,1,0.003809500424452659,0.0042462150176281,-0.010091607127050655,0.01797372035229221,0.9820584727193726
2012-01-12,1,0.0012411619014031572,0.0014134602359342015,-0.012297638564840183,0.01797372035229221,0.9804144757288169
2012-01-17,1,0.0021103742322772954,0.002204467685645537,-0.012297638564840183,0.022001883499680894,0.9780320787548554
2012-01-19,1,0.0040551950904850875,0.004266972628716347,-0.012297638564840183,0.01797372035229221,0.9812668405828532
2012-01-23,1,0.006404897090552138,0.007196829760404585,-0.012464057485153265,0.01797372035229221,0.9807333197363141
2012-01-25,1,0.005319064128070882,0.0058646789566568595,-0.022054174148997664,0.01797372035229221,0.9790190665831019
2012-01-27,1,0.0018362045008254398,0.0018957745899350132,-0.010865612133166292,0.019988488149309057,0.9780080269460949
2012-01-31,0,0.0,0.0,-0.022054174148997664,0.023752563343217896,0.9753318905567292
2012-02-02,0,0.0,0.0,-0.022054174148997664,0.023752563343217896,0.9748637644535842
2012-02-06,0,0.0,0.0,-0.024816991502095105,0.019988488149309057,0.9739642417220101
2012-02-08,0,0.0,0.0,-0.024816991502095105,0.017146353667271765,0.975689216552662
2012-02-10,1,0.003911728046790283,0.004318337804984208,-0.024816991502095105,0.019243409789462363,0.9745967786618664
2012-02-14,1,0.01143777026463803,0.012991180102124026,-0.024816991502095105,0.019243409789462363,0.9753218135745201
2012-02-16,1,0.01189258841010463,0.013511200211718002,-0.024816991502095105,0.019243409789462363,0.9751488806402394
2012-02-21,0,0.0,0.0,-0.022253982764714946,0.019243409789462363,0.9751892471483162
2012-02-23,0,0.0,0.0,-0.010599880700947344,0.02008582255471062,0.9763699317962363
2012-02-27,0,0.0,0.0,-0.022253982764714946,0.018994236283481052,0.9782757229127916
2012-02-29,0,0.0,0.0,-0.018778299512056344,0.018994236283481052,0.9795959093235144
2012-03-02,0,0.0,0.0,-0.02465841412137784,0.013396676567297074,0.9777824660534724
2012-03-06,1,0.0028197736535158367,0.002851418898552006,-0.018778299512056344,0.013396676567297074,0.9805384785067357
2012-03-08,1,0.003917211860647771,0.004232554015504543,-0.02252217567667788,0.012909705991352292,0.9783022179424118
2012-03-12,0,0.0,0.0,-0.025899959332071287,0.007894973214230348,0.9789459180589627
2012-03-14,0,0.0,0.0,-0.025899959332071287,0.0006993000230682476,0.981624908751584
2012-03-16,0,0.0,0.0,-0.026732790355507897,0.0006993000230682476,0.9806963182959294
2012-03-20,1,0.003083627904619221,0.003279049795492848,-0.026732790355507897,0.003846164059595974,0.9789434531030101
2012-03-22,1,0.00395559182077211,0.004317317397208737,-0.028313290415532693,0.0006993000230682476,0.9763184941229825
2012-03-26,1,0.001925601985173549,0.0019715756417866995,-0.026732790355507897,0.0006993000230682476,0.9790103930987032
2012-03-28,1,0.002993098280712616,0.0031353414361990823,-0.026732790355507897,0.00038401504197778277,0.9799141480719996
2012-03-30,1,0.0020159247385508243,0.0021656698456216424,-0.02425381485702351,0.001851345149001596,0.9834167504700441
2012-04-03,1,0.0017489815893152907,0.0018465618066171564,-0.02425381485702351,0.005350584532008276,0.9828773534973988
2012-04-05,-1,-0.0024426120478548575,-0.0018222653368475986,-0.02425381485702351,0.012293650923879811,0.983026010549628
2012-04-10,-1,-0.0037553407338372234,-0.003041100000105986,-0.01944479955388641,0.012293650923879811,0.9835526252045235
2012-04-12,-1,-0.0010553533709694164,-0.0008775504876794453,-0.01944479955388641,0.012687868712676163,0.9820987696354707
2012-04-16,-1,-0.0024559728972108116,-0.001991973800444579,-0.01944479955388641,0.012293650923879811,0.9830139157948758
2012-04-18,-1,-0.0034002824172021944,-0.00278932054788779,-0.019470877493401553,0.012293650923879811,0.9825160791219868
2012-04-20,-1,-0.007465348943017694,-0.006211959593830968,-0.025337645677808864,0.012293650923879811,0.9814076986660274
2012-04-24,-1,-0.007977549547337814,-0.006688608036191448,-0.025337645677808864,0.012687868712676163,0.9803119517862914
2012-04-26,-1,-0.006773264713639845,-0.005675348080719371,-0.025337645677808864,0.012687868712676163,0.9807333814515561
2012-04-30,-1,-0.007642150864553863,-0.006391780625962745,-0.025337645677808864,0.019662654950988106,0.9775374922739798
2012-05-02,-1,-0.004772813331183044,-0.003988422753151629,-0.026430210682308684,0.014081324059237399,0.9778371960057918
2012-05-04,-1,-0.007215585243312787,-0.006078099884594141,-0.026430210682308684,0.013154309398099062,0.9781739314482937
2012-05-08,-1,-0.010220901241956046,-0.008632257739116037,-0.02394910849497558,0.02285677770088843,0.9762891567659323
2012-05-10,-1,-0.01019561908926769,-0.008601447995651199,-0.02394910849497558,0.026678683251785875,0.9753058045506168
2012-05-14,-1,-0.011093039534400034,-0.009341157474449318,-0.02600914938418469,0.026800701781346376,0.9739135265309992
2012-05-16,-1,-0.011128257427760871,-0.009390618228624761,-0.022191805246419668,0.026800701781346376,0.9760576378209921
2012-05-18,-1,-0.012412448776231691,-0.010694234316215174,-0.014700980095629219,0.026800701781346376,0.9763415386055273
2012-05-22,-1,-0.012187245261907429,-0.010439753376523857,-0.014700980095629219,0.026868209104642524,0.975698293575468
2012-05-24,-1,-0.010789863200498214,-0.009259963130294388,-0.018109084605470154,0.026868209104642524,0.972895063385401
2012-05-29,-1,-0.006936940866070818,-0.006025616018333527,-0.022191805246419668,0.0236234684166457,0.9750697017976095
2012-05-31,-1,-0.008125581377599922,-0.007111108422510743,-0.014700980095629219,0.02682329907591666,0.973019273224265
2012-06-04,-1,-0.011713932918202212,-0.010281366164240965,-0.011079601556612707,0.0368424530334496,0.9694643737013402
2012-06-06,-1,-0.008042550903714972,-0.007064600697511315,-0.012186522275545984,0.0368424530334496,0.9715681182437695
2012-06-08,-1,-0.007225683260326256,-0.006312725163541988,-0.01417811859956327,0.029396398146870062,0.9725891498321415
2012-06-12,-1,-0.004542949035046775,-0.004130380944930076,-0.01417811859956327,0.02366103572079127,0.9731285525254796
2012-06-14,-1,-0.005780166031758919,-0.00522628413888429,-0.012965796862278556,0.02366103572079127,0.973118198631343
2012-06-18,-1,-0.004234799324581751,-0.003855338298008561,-0.02243848175659497,0.0187232996149361,0.972886051891047
2012-06-20,-1,-0.004233139058988993,-0.003773594684966014,-0.02243848175659497,0.015943292533891675,0.9736809170097201
2012-06-22,-1,-0.005395000556510984,-0.004846179249118029,-0.02243848175659497,0.013095242294120032,0.9760089759839177
2012-06-26,0,0.0,0.0,-0.015213710183021511,0.019291167660001662,0.975472993273159
2012-06-28,0,0.0,0.0,-0.015213710183021511,0.019816714687313927,0.9747813663199145
2012-07-02,1,0.0011231491652943996,0.001572570684758599,-0.022672915799978315,0.01707425483790808,0.97733157968633
2012-07-05,1,0.0021167553380261597,0.0026346105963713515,-0.022672915799978315,0.013190458207813116,0.9790046213684515
2012-07-09,0,0.0,0.0,-0.01845970976926728,0.019291167660001662,0.9781085581496245
2012-07-11,0,0.0,0.0,-0.014047796724360479,0.019816714687313927,0.97861820352179
2012-07-13,0,-0.00012231839352120602,0.0002868338137705776,-0.01309423497227259,0.019816714687313927,0.9785412557937023
2012-07-17,-1,-0.0029416011059006228,-0.002822644922588593,-0.010608226809910828,0.019816714687313927,0.9791897368438991
2012-07-19,-1,-0.0006919732576108771,-0.000315847771423748,-0.00977303176298891,0.019816714687313927,0.9795190515958618
2012-07-23,-1,-0.0012300212267898855,-0.0009145919303468693,-0.00977303176298891,0.019816714687313927,0.9807583319401896
2012-07-25,1,0.0007350681878829661,0.0013500385614477752,-0.011752419915382697,0.019004512080342918,0.9815119231023068
2012-07-27,0,0.0,0.0,-0.011752419915382697,0.011789562496240035,0.9841214842147658
2012-07-31,0,0.0,0.0,-0.01123610842461908,0.009812341009707877,0.9854554593349117
2012-08-02,0,0.0,0.0,-0.009898030686395755,0.007358298676136827,0.986621207903375
2012-08-06,0,0.0,0.0,-0.01123610842461908,0.0012136007541125855,0.9886370928687296
2012-08-08,1,0.00816127194528933,0.009829690783672093,-0.01123610842461908,0.0012136007541125855,0.9817576487976776
2012-08-10,1,0.006708285918663069,0.008110092102079199,-0.011377508709190012,0.0012136007541125855,0.9817215124730632
2012-08-14,1,0.006218361188820885,0.007602291879837086,-0.009898030686395755,0.005238244769946584,0.9831075246029309
2012-08-16,1,0.005861683018333164,0.007102160834822541,-0.009898030686395755,0.00858020275303588,0.983638457489856
2012-08-20,1,0.006359173496828298,0.007772874970323275,-0.011758016767919221,0.00858020275303588,0.9827033929255133
2012-08-22,1,0.004385271725392173,0.005400093198032429,-0.011758016767919221,0.015468711984840938,0.9825618977225506
2012-08-24,1,0.004598055529047216,0.0056248004877978,-0.014395892663956699,0.015468711984840938,0.9813098424273701
2012-08-28,1,0.002985753056839857,0.0037053403170185808,-0.019343472597294145,0.015468711984840938,0.9800146896159556
2012-08-30,1,0.002202078812717884,0.00272169010993982,-0.019343472597294145,0.015468711984840938,0.9796161275370204
2012-09-04,1,0.0017402896698624271,0.0021983946352602973,-0.020542617578538737,0.015468711984840938,0.9785749560667023
2012-09-06,1,0.005429703110653809,0.0063856537221676345,-0.020542617578538737,0.012465809295048284,0.9817303627039
2012-09-10,1,0.0035814121978890723,0.004269697666881549,-0.01664317422097164,0.012465809295048284,0.9838900539382894
2012-09-12,1,0.002890061583475413,0.003363809387672112,-0.01664317422097164,0.00816991765863996,0.9841730436291585
2012-09-14,1,0.0036361389097569015,0.00416970826261109,-0.01664317422097164,0.0004251595174343177,0.9840365446558097
2012-09-18,1,0.002796646732358637,0.0032522855503404995,-0.015469233934967574,0.007341554161653706,0.9858247700176337
2012-09-20,1,0.0025625547966181264,0.0029808285921082154,-0.015469233934967574,0.0029878056416824837,0.9872637780003632
2012-09-24,1,0.0024847351918457793,0.00297122951267376,-0.017161262272148623,0.0029878056416824837,0.9869431737868861
2012-09-26,-1,-9.306673571712028e-05,-3.7661993662215285e-05,-0.014280912709359276,0.0029878056416824837,0.9880477149326861
2012-09-28,-1,-0.0007335208734278709,-0.000639169678260465,-0.017161262272148623,0.0029878056416824837,0.9823741719352572
2012-10-02,-1,-0.0012671721628185915,-0.001120121016038738,-0.014280912709359276,0.0029878056416824837,0.9811790328526362
2012-10-04,-1,-0.001190761835068008,-0.001034397848385242,-0.014280912709359276,0.0034800514458180687,0.9798511341189816
2012-10-08,0,0.0,0.0,-0.017161262272148623,0.009236114739002585,0.9765068395790412
2012-10-10,0,0.0,0.0,-0.02425770125219415,0.009236114739002585,0.9748816805766248
2012-10-12,0,0.0,0.0,-0.02425770125219415,0.01355896197451454,0.9737535324232648
2012-10-16,0,0.0,0.0,-0.03000723880295761,0.005691773799142829,0.972416609860196
2012-10-18,-1,-0.003912556548416331,-0.0034414709006714977,-0.03000723880295761,0.015289603919752995,0.9739713977115126
2012-10-22,-1,-0.006255995473334842,-0.0054277139491649634,-0.0195294833818029,0.015289603919752995,0.9756169647016636
2012-10-24,-1,-0.011483651919158622,-0.009872743155114314,-0.014409453978697973,0.02432169132337792,0.9748653349918951
2012-10-26,-1,-0.007414659368321391,-0.006391620592895249,-0.012680964228497618,0.017575597123246956,0.9808421903430291
2012-11-01,-1,-0.004405442314308724,-0.003780502467313456,-0.012680964228497618,0.017575597123246956,0.9823975830610422
2012-11-05,-1,-0.003898722525447264,-0.003350376291556415,-0.009748138508546946,0.01652126584934373,0.9829979444014856
2012-11-07,-1,-0.0043106761317943275,-0.0036643995140103218,-0.007619864969619297,0.019707024072813023,0.9831521749446592
2012-11-09,-1,-0.006365605520097059,-0.005546715913425917,-0.004306616863227386,0.023449941612096487,0.9818861608145756
2012-11-13,-1,-0.004357514978667216,-0.003827297645808256,-0.004306616863227386,0.019707024072813023,0.9834273170361387
2012-11-15,-1,-0.00680293872091318,-0.005945169510253732,-0.0008771921752525522,0.023449941612096487,0.9823198665069203
2012-11-19,-1,-0.0069596826116592935,-0.006052454647920045,-0.004306616863227386,0.023449941612096487,0.9812025601954583
2012-11-21,-1,-0.0029064246303469755,-0.0025241059442231498,-0.0037312909338674677,0.023449941612096487,0.9822480963153642
2012-11-26,-1,-0.0020484373199389947,-0.0019301547036169506,-0.006888019315337935,0.019707024072813023,0.9803523562794058
2012-11-28,-1,-0.00043017117968814286,-0.00023757856818710328,-0.007595123102276807,0.019707024072813023,0.9809403327783699
2012-11-30,0,-8.897432209073962e-05,5.526963137859496e-05,-0.008234939785367646,0.019707024072813023,0.9802935204529425
2012-12-04,1,0.0002660065178497409,0.00045397463868431626,-0.008234939785367646,0.029960841920343907,0.9774503171158617
2012-12-06,1,0.0019166838467901599,0.002297037722941785,-0.008234939785367646,0.029298694601400496,0.9788386996445085
2012-12-10,1,0.002076729671966082,0.002354417454645487,-0.008234939785367646,0.020565011213496756,0.9798823990987253
2012-12-12,1,0.002302784643083209,0.00261572153940956,-0.007595123102276807,0.020565011213496756,0.9798209253746573
2012-12-14,1,0.0025281244245108137,0.0028008701607440153,-0.005305571417820002,0.01660699395172833,0.9812086735397438
2012-12-18,1,0.0025890393414258342,0.002951241005728471,-0.0010997144081098113,0.01799610574960801,0.9825561293004024
2012-12-20,1,0.004519155914096833,0.0052933807239155944,-0.0015842748651393897,0.016692597341277017,0.9838350944763367
2012-12-24,1,0.0025938646390467426,0.0030717765015185142,0.004820023703341593,0.016692597341277017,0.9865228838400107
2012-12-27,1,0.0029563830951216197,0.0034460181818494143,0.003831414007929017,0.016692597341277017,0.9868545152344578
2012-12-31,1,0.004758696476642524,0.0056381635928838755,0.003831414007929017,0.015329046286771203,0.9884079439396322
2013-01-03,1,0.0071882053851189745,0.008419088566532593,-0.0015842748651393897,0.012060721750363816,0.9906350902411909
2013-01-07,0,0.0,0.0,-0.0063411255682508105,0.01184255051832855,0.9882735575676134
2013-01-09,1,0.0071873349408522556,0.008244680763604309,-0.00667816636275104,0.011226254384215643,0.9889768390676047
2013-01-11,1,0.011930700451797706,0.01375818003838045,-0.00667816636275104,0.010184698061931115,0.9867242689398382
2013-01-15,1,0.011718457693719216,0.013478193905086398,-0.00667816636275104,0.010184698061931115,0.9867043850644711
2013-01-17,1,0.011728872325659861,0.013414375184363307,-0.007974774225041647,0.010184698061931115,0.9853175592619641
2013-01-22,0,0.0,0.0,-0.009646133097301774,0.011167684290938156,0.9854313398212649
2013-01-24,0,0.0,0.0,-0.014083447661709296,0.01471946381474379,0.9827404832379281
2013-01-28,0,0.0,0.0,-0.014083447661709296,0.01471946381474379,0.9825694061890696
2013-01-30,1,0.005108470817988699,0.005687666611923365,-0.011357698654371425,0.021596319581478524,0.9828553629156818
2013-02-01,1,0.007885296912235844,0.009018427021289705,-0.01229480221797324,0.01879761435768821,0.9835053866882034
2013-02-05,0,0.0,0.0,-0.01229480221797324,0.021596319581478524,0.9814260652288918
2013-02-07,0,0.0,0.0,-0.009678351784235675,0.026821064518015154,0.9802345599669429
2013-02-11,1,0.0013759398388040575,0.00165068394222439,-0.009678351784235675,0.026821064518015154,0.9809594654347843
2013-02-13,1,0.009695314299890321,0.011024520772507105,-0.009678351784235675,0.026821064518015154,0.9817693252651992
2013-02-15,1,0.009351836921947482,0.010634216281732188,-0.01229480221797324,0.026821064518015154,0.9799686929242528
2013-02-20,1,0.008261413283944516,0.009317083615312267,-0.009678351784235675,0.025246946233083704,0.9822779521648883
2013-02-22,1,0.007250946697768863,0.008030638643745685,-0.009678351784235675,0.025246946233083704,0.9794382662686699
2013-02-26,1,0.006250554804798251,0.006885926456873128,-0.010751131023653505,0.025246946233083704,0.9790457860236087
2013-02-28,0,0.0,0.0,-0.010751131023653505,0.01929211312721442,0.9792978065536365
2013-03-04,0,0.0,0.0,-0.010856906000254907,0.01929211312721442,0.9776245813120721
2013-03-06,1,0.007488168940850211,0.008200879328615698,-0.017021539078982552,0.01929211312721442,0.9781997148718061
2013-03-08,1,0.009038267360152214,0.009914940860846455,-0.017021539078982552,0.010520779289877233,0.979329983482182
2013-03-12,1,0.00874319407295095,0.009521929011730003,-0.017021539078982552,0.01898784693862807,0.9777824213703024
2013-03-14,1,0.00995443649123579,0.010912739393946156,-0.017021539078982552,0.00783009652703447,0.9767722217780006
2013-03-18,0,0.0,0.0,-0.01216051749445823,0.011236991527293709,0.9778738787485977
2013-03-20,0,0.0,0.0,-0.018155955081414016,0.011236991527293709,0.9754149005805782
2013-03-22,0,0.0,0.0,-0.0162120519596202,0.009694970448047516,0.9806038684762405
2013-03-26,0,0.0,0.0,-0.012436329611446091,0.01211170500382518,0.9809968138726144
2013-03-28,0,0.0,0.0,-0.012436329611446091,0.01211170500382518,0.9802212821457207
2013-04-02,1,0.0038368552433516614,0.0039191251236977715,-0.0105953256082971,0.01211170500382518,0.9827158051913895
2013-04-04,1,0.0025299840413475294,0.002543510734964221,-0.0105953256082971,0.01211170500382518,0.983160874637754
2013-04-08,1,0.0019187349486210323,0.0021782558911142627,-0.0105953256082971,0.013157472697184844,0.9816403744123683
2013-04-10,0,0.0,0.0,-0.0105953256082971,0.013157472697184844,0.9825135480634005
2013-04-12,0,0.0,0.0,-0.008985945969780258,0.015503718596061283,0.9804779686833716
2013-04-16,0,0.0,0.0,-0.008985945969780258,0.013157472697184844,0.9834505742385764
2013-04-18,0,0.0,0.0,-0.0017730984943147708,0.01827383830958357,0.9847839381989529
2013-04-22,0,0.0,0.0,-0.002824469524194162,0.02087207631789957,0.9840974839559603
2013-04-24,0,0.0,0.0,-0.008573107643587116,0.02087207631789957,0.9832472708233911
2013-04-26,0,0.0,0.0,-0.002824469524194162,0.021788291995553623,0.9813931540331278
2013-04-30,0,0.0,0.0,0.0011035308598407781,0.021788291995553623,0.9811684223255668
2013-05-02,0,0.0,0.0,0.0011035308598407781,0.021788291995553623,0.9818265872787085
2013-05-06,0,0.0,0.0,-0.0011298277482041277,0.02087207631789957,0.9837958792988657
2013-05-08,-1,-0.0011965513815682697,-0.0009818062166274417,-0.0011298277482041277,0.021143971466910137,0.9831840922670713
2013-05-10,1,0.006655330146514539,0.006971273461944165,-0.0011298277482041277,0.02288184078513235,0.9855858238400078
2013-05-14,1,0.003374846941443581,0.003380632848336507,-0.003489182315617012,0.02288184078513235,0.9841181256325183
2013-05-16,0,0.0,0.0,-0.009334015744778375,0.023859431971808745,0.982619296236018
2013-05-20,0,0.0,0.0,-0.003981431680238559,0.02671841063072035,0.9804664536198823
2013-05-22,0,0.0,0.0,-0.003981431680238559,0.02671841063072035,0.9796312247945623
2013-05-24,0,0.0,0.0,-0.011012790545581264,0.026501817361495813,0.9797443383724894
2013-05-29,0,0.0,0.0,-0.011012790545581264,0.026804455727975705,0.978202284106759
2013-05-31,1,0.0025283231015405722,0.0025855499893760615,-0.003981431680238559,0.026804455727975705,0.9794786417081947
2013-06-04,1,0.0024656569562545023,0.0025000859405852793,-0.005842928202952417,0.026804455727975705,0.9793986797286595
2013-06-06,1,0.004232918720018336,0.0044786049769154745,-0.011012790545581264,0.024865542201373787,0.9809202505011319
2013-06-10,1,0.005310750714149544,0.005693839834837676,-0.013801552976273503,0.02280595304212866,0.9783636375526923
2013-06-12,1,0.00464102449760226,0.00494721584740432,-0.013801552976273503,0.02280595304212866,0.977845759295931
2013-06-14,1,0.0055054913628849065,0.005919336886383321,-0.013801552976273503,0.02280595304212866,0.978594387507174
2013-06-18,1,0.007533291224389178,0.00818988453258818,-0.013801552976273503,0.017386343707688028,0.9804787737530805
2013-06-20,1,0.006748984199424837,0.007274566531128952,-0.006110189572239582,0.017157631628512488,0.9824517858687992
2013-06-24,1,0.005991352601803602,0.0063326080423725135,-0.006110189572239582,0.012940744449002173,0.9841574066644693
2013-06-26,1,0.007475320214816122,0.008051718675022987,-0.012344411965720215,0.011969779477615234,0.98342489518074
2013-06-28,1,0.007268937842060027,0.007811547992560919,-0.015195360926059111,0.011969779477615234,0.9803068428446837
2013-07-02,1,0.0063656300425654795,0.006730117377655956,-0.015195360926059111,0.012449477142247025,0.9788790891792799
2013-07-05,1,0.006145973351372302,0.0064941900245237254,-0.015195360926059111,0.014221268061110823,0.9785748721531873
2013-07-09,1,0.002868757324031994,0.002953136400864119,-0.006251652743240794,0.017700920444238027,0.9802171848969019
2013-07-11,1,0.002411962090384399,0.002573406469523587,-0.006251652743240794,0.017700920444238027,0.9812985065661849
2013-07-15,1,0.0029419634627276285,0.003057461724839478,-0.01000770612809998,0.014221268061110823,0.9821476059476352
2013-07-17,1,0.004735080446881198,0.0048504023701409025,-0.010374241045917386,0.011251271940221037,0.9791359137845239
2013-07-19,1,0.0037206001644089094,0.003741091643639884,-0.012012102335726027,0.011251271940221037,0.9764137106137795
2013-07-23,1,0.003891511074052857,0.003973595979558532,-0.012324871316810225,0.011251271940221037,0.976315500562563
2013-07-25,1,0.0027383093084572103,0.0028096838591385167,-0.011657258841347974,0.012037398683128704,0.9777518091392535
2013-07-29,1,0.00035651489127626725,0.0006859881425247389,-0.010374241045917386,0.012037398683128704,0.981015435850226
2013-07-31,1,0.0029313997677901816,0.0030087841328687616,-0.011657258841347974,0.0059486178067184575,0.9807527182436224
2013-08-02,1,0.0032420654474682713,0.003371058539914647,-0.011657258841347974,0.0059486178067184575,0.9808933158277817
2013-08-06,1,0.005218486124669697,0.005658943914615433,-0.011657258841347974,0.011821779650245196,0.9790352836481891
2013-08-08,1,0.003676568899120341,0.0038045439609056472,-0.010374241045917386,0.0188869972863858,0.9797983604791027
2013-08-12,1,0.0030483062630179353,0.0031042824666914727,-0.008874440156858192,0.0258119948366024,0.9777990804056091
2013-08-14,1,0.006660746284591503,0.00729124670963112,-0.009449132110145197,0.023924415211310182,0.9806549454765177
2013-08-16,1,0.002833977330131056,0.0028684836564334963,-0.0014430001025922397,0.023924415211310182,0.9829134057631161
2013-08-20,1,0.0020981379091425654,0.0021797823198403217,0.0,0.025076964399671654,0.9815953479629389
2013-08-22,1,0.0002794169444865033,0.0007136884865062835,0.0,0.025076964399671654,0.9821867333663477
2013-08-26,0,-0.00023408660901866958,0.00026381984337373325,-0.0001466029615923733,0.025076964399671654,0.9817855377923362
2013-08-28,-1,-0.0019171024946304516,-0.0012256023477447292,-0.0001466029615923733,0.026269490132864948,0.9816610854999182
2013-08-30,1,0.0001446753412951043,0.000480979641855927,-0.001466827640818736,0.026269490132864948,0.9829129485066417
2013-09-04,1,0.0026434721951996334,0.0027144204269446094,-0.001466827640818736,0.023776017781704045,0.9870871154520932
2013-09-06,1,0.0031815400460657867,0.0032408845910435313,-0.001466827640818736,0.023776017781704045,0.9866692922187168
2013-09-10,1,0.003576277211254552,0.0037371972628474806,-0.004673421749246073,0.01620737141645338,0.9878198586575325
2013-09-12,1,0.0029378324792449363,0.003182913427235944,-0.001466827640818736,0.01666654797584622,0.9883575853150801
2013-09-16,1,0.0030681215028786537,0.0032978128676764543,-0.004673421749246073,0.01666654797584622,0.9842218485319824
2013-09-18,1,0.004291862367986458,0.004401664456170341,-0.006905381328925469,0.01261690759362154,0.9855101238763861
2013-09-20,1,0.003397948376442062,0.0036377736946297122,-0.007376051702788522,0.01261690759362154,0.9853077283331064
2013-09-24,1,0.0019205782726065817,0.0023669184205268763,-0.007376051702788522,0.01261690759362154,0.9843267547692738
2013-09-26,1,0.003179743084917326,0.003411665668799664,-0.008581685664476124,0.01261690759362154,0.9845150432786316
2013-09-30,1,0.003573845763320943,0.0036963198580642546,-0.009722966008954333,0.01261690759362154,0.9841589163904576
2013-10-02,1,0.004521965365107941,0.004602528902345395,-0.009722966008954333,0.01410020630362018,0.9818300389009089
2013-10-04,1,0.005232426265042832,0.0053473891864786885,-0.009722966008954333,0.01261690759362154,0.9824471403525659
2013-10-08,1,0.0027566391877068587,0.0030768354530286658,-0.009664826741373762,0.01410020630362018,0.9830278132022269
2013-10-10,1,0.0028064142917478725,0.0031282630734104947,-0.010289956619526754,0.012843024485352968,0.983006242681388
2013-10-14,1,0.002259359650946421,0.0024965505841543162,-0.008995700657213968,0.01359761798862607,0.9866025781070333
2013-10-16,1,0.002302291926560431,0.002571014422103376,-0.007652974451068469,0.016736845781183122,0.9856844604181372
2013-10-18,1,0.0018737097200480246,0.0020399069393825598,-0.007119519506051561,0.016736845781183122,0.985234352039619
2013-10-22,1,0.000577763073081389,0.0009321477527178503,-0.008957038708218148,0.016736845781183122,0.9857727343344719
2013-10-24,1,0.00034110908954314983,0.0007320029852412883,-0.008957038708218148,0.016915639045178878,0.9834462689861581
2013-10-28,1,0.0008471988852103707,0.0010911662328950467,-0.008957038708218148,0.016915639045178878,0.9833106092826428
2013-10-30,1,0.002917320395380443,0.002992239074267237,-0.008957038708218148,0.01815132374938824,0.9833124700687611
2013-11-01,1,0.0022143698993446516,0.002307819821511522,-0.008957038708218148,0.01815132374938824,0.9836502484374159
2013-11-05,1,0.002441258360727141,0.0024786073135875056,-0.004663857292260015,0.020280547358021157,0.9837011403145672
2013-11-07,1,0.0036003923690515202,0.0038492079084098607,-0.0037437073645250722,0.022171465532068547,0.9835205531235759
2013-11-11,1,0.004205437019466931,0.004482277002041563,-0.0037437073645250722,0.02357594797754479,0.9830778735477481
2013-11-13,1,0.00498991682765256,0.005343917899300051,-0.005975324982630381,0.02357594797754479,0.9827370391736007
2013-11-15,1,0.0065433513127105165,0.007197844961893653,-0.009532668796885573,0.024550057069825305,0.9817868902704249
2013-11-19,1,0.0056896031120268545,0.0062396533596625605,-0.007149261132669877,0.024550057069825305,0.9807447082385452
2013-11-21,1,0.006963969659306837,0.007667654930680692,-0.005969265648822281,0.024327865975946994,0.9828110331995437
2013-11-25,1,0.006163687817447548,0.006753590743412054,-0.005969265648822281,0.024327865975946994,0.9818776118844081
2013-11-27,1,0.006144176750051784,0.006565354044014412,-0.009063544007527504,0.017506323122718284,0.9830283334532368
2013-12-02,1,0.0053833788206708805,0.005605111906746679,-0.010145449012175994,0.021834438872842064,0.9821323910461157
2013-12-04,1,0.00607535350346818,0.006425092995346183,-0.011025208466847706,0.016798681388745712,0.9811266811075019
2013-12-06,1,0.006948908579674674,0.007477897052381705,-0.013650168457300969,0.016798681388745712,0.9794089600587627
2013-12-10,1,0.0069573371944327625,0.007527103817036163,-0.01732783822243731,0.016798681388745712,0.9751444627867863
2013-12-12,1,0.005625316061179236,0.005991568876467717,-0.01473632631170084,0.02044949138831037,0.9756116364936055
2013-12-16,1,0.004987933028540879,0.005211411452271311,-0.014779874858402839,0.016572912805226006,0.9760803223141157
2013-12-18,1,0.0021276143450569824,0.0023796768676435445,-0.014779874858402839,0.016572912805226006,0.9770841924443502
2013-12-20,1,0.0031504380927290907,0.003195701440903158,-0.014779874858402839,0.02044949138831037,0.9759891595156109
2013-12-24,1,0.002554442367877324,0.0026578691528803392,-0.014779874858402839,0.02044949138831037,0.9765961746098024
2013-12-27,1,0.0024845839300157717,0.002532306503805752,-0.014779874858402839,0.02044949138831037,0.9771428677967332
2013-12-31,1,0.002120692291300552,0.002241918779419344,-0.015069651568868303,0.020898747554051925,0.9764780982442307
2014-01-03,1,0.0004149827956831534,0.0007562615342616819,-0.015069651568868303,0.020898747554051925,0.9772956363131482
2014-01-07,1,0.002435803170841853,0.0024479767763867003,-0.015069651568868303,0.01598606851837829,0.979109739459681
2014-01-09,1,0.00321577099363598,0.003242307863931526,-0.014460772696982116,0.017498888241767218,0.9829111314853971
2014-01-13,1,0.0025179938184082705,0.002664018355937296,-0.011078071171209502,0.015163582959966383,0.9837033559345784
2014-01-15,1,0.0020459384642269266,0.0022562980028632807,-0.008925189826772303,0.015163582959966383,0.984823935066785
2014-01-17,1,0.0001472190992129756,0.0006029018471086843,-0.00226284631398542,0.015163582959966383,0.9859605273466766
2014-01-22,1,0.0005969669059098482,0.0010742964833159042,-0.00226284631398542,0.013497834473517389,0.9886306697410134
2014-01-24,0,-0.0004710588381248179,0.00010913811633780847,-0.0073208185776751054,0.013497834473517389,0.9885301498826425
2014-01-28,1,0.0007390670765749074,0.0010672749749818507,-0.010776498989880739,0.013497834473517389,0.9878742067890257
2014-01-30,1,0.0014662401335634122,0.001671781832316416,-0.0073208185776751054,0.009616837092365434,0.9899104983614208
2014-02-03,1,0.0013884526795713624,0.0015210531843863223,-0.0013411571211646718,0.013497834473517389,0.9896670662753929
2014-02-05,1,0.001608217745956923,0.0017262300475215742,-0.0034206887512051045,0.01238044401353603,0.9897574078632145
2014-02-07,1,0.0029721280117177163,0.003026534511644586,-0.007612883964761403,0.00846048054266151,0.9902136020348326
2014-02-11,1,0.003527624440544077,0.003726860417742307,-0.008220345439724734,0.00698935101982847,0.9904395092740778
2014-02-13,1,0.003427616689621753,0.003593736028615492,-0.011652695151139631,0.006841169601310866,0.9886822694766758
2014-02-18,1,0.003472706834196753,0.003613347692789015,-0.011652695151139631,0.0037880348389533695,0.988097303527122
2014-02-20,1,0.0036191961322553,0.0038020832360758264,-0.013400921576684202,0.002661044333129351,0.9869431547668547
2014-02-24,1,0.0025237532708892963,0.0025465673808890863,-0.011895724992978592,0.002661044333129351,0.987798563124248
2014-02-26,1,0.0017278226980633104,0.0017946536636149824,-0.011895724992978592,0.003319881442238182,0.9878590883195086
2014-02-28,1,0.0021860100902473395,0.002232951602141633,-0.01464248797281309,0.003319881442238182,0.9857455562156731
2014-03-04,1,0.0025706037280296863,0.00260249048390046,-0.01464248797281309,0.003319881442238182,0.981922006515849
2014-03-06,1,0.0023472482896059695,0.0023813278725393,-0.01464248797281309,0.003319881442238182,0.9818135998513616
2014-03-10,1,0.0007330460990505606,0.0010248080370374988,-0.022079425889429197,0.0014706835631227231,0.9792275359728877
2014-03-12,1,0.00016957652074314484,0.0005506840825115335,-0.022079425889429197,0.005987069737328453,0.9782449599457161
2014-03-14,-1,-0.0013595511719527722,-0.0007871817725641622,-0.025487590978676554,0.005987069737328453,0.9772872919577357
2014-03-18,-1,-0.0013364231130112388,-0.0007292327082439962,-0.025487590978676554,0.013636520413522176,0.9760581077860473
2014-03-20,-1,-0.0023487391262504782,-0.0016157707956072848,-0.025487590978676554,0.018927503280825302,0.9734839189201444
2014-03-24,-1,-0.0036925482655714454,-0.002773550811087186,-0.025487590978676554,0.03321661399590851,0.9697435160021333
2014-03-26,-1,-0.0041768497412151525,-0.0032576792791781184,-0.01747085869380263,0.03321661399590851,0.970844511941075
2014-03-28,-1,-0.0055642746701116946,-0.004498876776460407,-0.025756802966522163,0.03321661399590851,0.9695677549276001
2014-04-01,-1,-0.001963966316878709,-0.0013135571702848807,-0.025756802966522163,0.025764464089234287,0.9724107624394912
2014-04-03,-1,-0.0029488546020206546,-0.0021707384090376195,-0.025756802966522163,0.025764464089234287,0.972381822124597
2014-04-07,-1,-0.006012630881309344,-0.004919398658340441,-0.002540001447307854,0.025764464089234287,0.9742828121095843
2014-04-09,-1,-0.004081500742536814,-0.0032665910574148334,-0.005007716906980795,0.024357889539345118,0.9761593468648229
2014-04-11,-1,-0.0059645000367736355,-0.00497231747787627,-0.002518357987002618,0.027213376002517418,0.976327654523409
2014-04-15,-1,-0.004857462824609807,-0.003955227131484029,-0.0033636468605277438,0.022107258413315636,0.9782843745452399
2014-04-17,-1,-0.0013796114336162158,-0.0009564521368229577,-0.005007716906980795,0.01976653228666478,0.9812681274520716
2014-04-22,1,0.001450080366731029,0.0015604851057183066,-0.010928017566760116,0.01708359727104451,0.9835872775679901
2014-04-24,1,0.00229862333556831,0.0024016123916276526,-0.010928017566760116,0.017255285604150655,0.9830576197862785
2014-04-28,1,0.0001714287806540227,0.0003276189996557868,-0.002518357987002618,0.01976653228666478,0.9841100296381062
2014-04-30,1,0.002420889279966057,0.002575417783673999,-0.002518357987002618,0.017255285604150655,0.9867265999910965
2014-05-02,1,0.002841984430911118,0.003092166441014759,-0.002518357987002618,0.017255285604150655,0.9868471865157074
2014-05-06,1,0.003720376855097943,0.004148637416738393,-0.0016219571417059602,0.017255285604150655,0.9874446796916787
2014-05-08,1,0.0034705680478373108,0.003808260389813962,-4.5734141397232864e-07,0.016733801552413295,0.9880648779933354
2014-05-12,1,0.004121120802115477,0.004557337368337353,-4.5734141397232864e-07,0.016733801552413295,0.9878142622600093
2014-05-14,1,0.002478213911357987,0.002610179822690394,-4.5734141397232864e-07,0.017309776430645376,0.9864073539081627
2014-05-16,1,0.0016369531533940809,0.0016781622247879911,0.0003496588659324454,0.018089885208639,0.986769907652116
2014-05-20,1,0.0018338807452518138,0.0018582476589430854,0.0003496588659324454,0.017309776430645376,0.9884401703627712
2014-05-22,1,0.0020956076195373435,0.002118176693912343,-4.5734141397232864e-07,0.017309776430645376,0.9889471535257536
2014-05-27,1,0.0030745538528175686,0.0032353302580004997,-0.0018351749244894405,0.017309776430645376,0.9875236094782737
2014-05-29,1,0.0027507089821332915,0.002784154151553379,-0.005165161742436153,0.012295636523589927,0.9874804977598242
2014-06-02,1,0.0029458400149563915,0.0030818395462295085,-0.006368057248159576,0.017309776430645376,0.9846757957334767
2014-06-04,1,0.005156702546496606,0.005679852350268511,-0.0068053090704940245,0.01912485333837812,0.983301229614509
2014-06-06,1,0.005662412585747196,0.00625177981976907,-0.008476778826045934,0.01912485333837812,0.9821245800590502
2014-06-10,1,0.005323322332152441,0.005858578846375593,-0.007382664523337183,0.01392642119240029,0.983154051842601
2014-06-12,1,0.005849969029484863,0.006348897854092302,-0.007382664523337183,0.010197754480907123,0.9849334660507713
2014-06-16,1,0.007847951382470368,0.008720842177119027,-0.007382664523337183,0.01119158845176617,0.9842835961609413
2014-06-18,1,0.00700284797447044,0.007680252767626263,-0.008476778826045934,0.01415721405247178,0.9822042862747569
2014-06-20,1,0.006365346568350349,0.006959661544630678,-0.008061505213394519,0.01415721405247178,0.9827077095481904
2014-06-24,1,0.007240255535566785,0.007969192288932938,-0.0066668845329435535,0.013834533147935065,0.9845644547057228
2014-06-26,1,0.005743521121027824,0.006195466941419979,-0.0066668845329435535,0.013834533147935065,0.985289848508455
2014-06-30,1,0.006872620296532405,0.0075078840494211384,-0.0066668845329435535,0.009362877447586758,0.985396535240466
2014-07-02,1,0.008249695341784154,0.009167793284622515,-0.008827534215046026,0.009274856082637638,0.9831159154222155
2014-07-07,1,0.006745485656846765,0.007476388433886075,-0.004547429731433658,0.013834533147935065,0.9846674433800637
2014-07-09,1,0.006566569323212204,0.00727859681300158,-0.0132849905734027,0.013834533147935065,0.9831998988583487
2014-07-11,1,0.006560628616178154,0.007301984223790352,-0.01491641997719832,0.013834533147935065,0.981872048915304
2014-07-15,1,0.007535286978551651,0.008398953234731908,-0.01491641997719832,0.013570469053087699,0.9815341290001277
2014-07-17,1,0.005637098209174255,0.006176542098921245,-0.0132849905734027,0.013570469053087699,0.9834839210654803
2014-07-21,1,0.004879237406745768,0.005262027670870905,-0.0132849905734027,0.01706683855190602,0.9829933258228294
2014-07-23,1,0.005116157034376604,0.005512873644171025,-0.0132849905734027,0.017518416858001436,0.9823737181733935
2014-07-25,1,0.005167677807688559,0.0056356587024467735,-0.011423032088785538,0.017518416858001436,0.9828269382019688
2014-07-29,1,0.003330330946214873,0.003515454122445024,-0.010161247702225727,0.017518416858001436,0.9839429145322197
2014-07-31,1,0.0013885983111772424,0.0014545790660619544,-0.006576332510311802,0.017518416858001436,0.9868593801274742
2014-08-04,1,0.002417247914455121,0.002467521571628141,-0.010161247702225727,0.012721396716187449,0.986336047789948
2014-08-06,1,0.00011657105942033605,0.0004148263789597985,-0.005692299803488521,0.014040980400687629,0.9873506819226192
2014-08-08,-1,-0.000466266543061055,-0.0001302615726040203,-0.0038415432361685133,0.015239513699820207,0.9879206139016498
2014-08-12,-1,-0.0003915608027746202,-2.0259362706916704e-05,-0.005692299803488521,0.014040980400687629,0.9872811144669891
2014-08-14,-1,-0.0008222473549234744,-0.0003503703145870522,-0.005692299803488521,0.011899191690159676,0.9880773907767035
2014-08-18,-1,-0.0006292679545307355,-0.00011814520040056122,-0.007284608457511141,0.00736274506909455,0.9850636474311765
2014-08-20,0,-0.0005597077288386771,3.711522585589703e-05,-0.007284608457511141,0.008025962974462675,0.9854242115486688
2014-08-22,1,0.001496251711147947,0.0016580812109804838,-0.018480697976909873,0.008025962974462675,0.9825115142899383
2014-08-26,1,0.00022515936461219282,0.0005875401818572689,-0.018480697976909873,0.015939105727349627,0.9808778433298556
2014-08-28,-1,-0.0023812112978939316,-0.0015620763781682766,-0.01864678396411976,0.017541044120543817,0.9772539006290366
2014-09-02,-1,-0.0031211293705976245,-0.0023117198187837264,-0.01597297168078123,0.019657104441926237,0.977451555822106
2014-09-04,-1,-0.0041206188684377015,-0.003087410668886327,-0.017650107310881416,0.019657104441926237,0.9770894442835191
2014-09-08,-1,-0.0025978027983995147,-0.001807480412134277,-0.023179932892790654,0.017541044120543817,0.9768602066832816
2014-09-10,-1,-0.002325803873221465,-0.0017040472272370855,-0.02166491589016977,0.017541044120543817,0.9769293722607219
2014-09-12,-1,-0.0015855236706529701,-0.001155122333854931,-0.0277684680817256,0.017541044120543817,0.9708330539408251
2014-09-16,-1,-0.0017164100416124542,-0.001274674274514056,-0.026464465696810158,0.015939105727349627,0.9734309031259877
2014-09-18,-1,-0.002067352258067023,-0.0014893795182532666,-0.026464465696810158,0.015491833083770116,0.9734710950882797
2014-09-22,-1,-0.003008514101866322,-0.0024014433689280024,-0.02166491589016977,0.019657104441926237,0.9734416783659502
2014-09-24,-1,-0.001498014156572507,-0.0010660313300409163,-0.02166491589016977,0.017407075997844988,0.9728982034258725
2014-09-26,-1,-0.003215651989790521,-0.002603396975342223,-0.02166491589016977,0.014741823602409698,0.9757447553272346
2014-09-30,1,0.001504358411469687,0.0016396062148787483,-0.02166491589016977,0.014741823602409698,0.9754316059719479
2014-10-02,1,0.001204041994851424,0.0013441013222834557,-0.020281678427652102,0.014741823602409698,0.9755672703696834
2014-10-06,-1,-0.0005455673739841818,-0.00015818523557312321,-0.015657259636037008,0.019354903527968093,0.9749344687801209
2014-10-08,-1,-0.0019970511130393475,-0.0013885323233603112,-0.011152308874204878,0.019354903527968093,0.9756630028171729
2014-10-10,-1,-0.005729619189896639,-0.004722497463080628,-0.010138465280293794,0.019354903527968093,0.9806334903354285
2014-10-14,-1,-0.005958636800710454,-0.0049562841240791255,-0.005663292307667438,0.019354903527968093,0.9816519984033787
2014-10-16,-1,-0.004265640687083785,-0.003505798278078722,-0.009081138145043535,0.01367140510658101,0.9838586714697389
2014-10-20,-1,-0.002528480351413694,-0.0020004356874772137,-0.010117237146526088,0.010258540167832801,0.986078606294716
2014-10-22,-1,-0.002035494013102092,-0.0015607822430755236,-0.009815075971834605,0.010258540167832801,0.9883362487291207
2014-10-24,-1,-0.0014498278955897552,-0.0010544551767766419,-0.009815075971834605,0.010814748169763161,0.9872116124649265
2014-10-28,1,4.8715054396927565e-05,0.00024946538134805614,-0.009815075971834605,0.010775711001576116,0.9890964742140372
2014-10-30,-1,-0.0008902664586747415,-0.0005803103083878022,-0.0053171212970544056,0.012575489492978162,0.9884011671844145
2014-11-03,1,0.0012290581185842586,0.0012291756852204957,-0.008979881302289364,0.010775711001576116,0.9892983110174899
2014-11-05,1,0.0017532110854328615,0.0018678287338345823,-0.008979881302289364,0.012913575349147253,0.9894438357676264
2014-11-07,1,0.001009644419960961,0.0010282758232053686,-0.0028069851471434933,0.012913575349147253,0.9891620525947915
2014-11-11,1,0.000936235649681432,0.0009488366392784221,-0.009784583941132248,0.012913575349147253,0.9876499096959545
2014-11-13,1,0.0010009046911674448,0.0010422173686370213,-0.0100249563776335,0.012913575349147253,0.9860443927092055
2014-11-17,1,0.00025034824109469906,0.00032760169455644964,-0.012883596257939384,0.012913575349147253,0.9853279832166363
2014-11-19,1,0.0014259395351737885,0.00154656621025445,-0.012883596257939384,0.014892073323755289,0.9843560255536391
2014-11-21,1,0.0027096068428904743,0.0030429901401922213,-0.012883596257939384,0.012913575349147253,0.9861807940317374
2014-11-25,1,0.0028958040699683138,0.0032082526454603705,-0.012883596257939384,0.012244296554598886,0.986134995720814
2014-11-28,1,0.003854185681103838,0.004294200955159951,-0.012883596257939384,0.012244296554598886,0.9867875148284896
2014-12-02,1,0.003602439940527098,0.003998016747821699,-0.011482847902574186,0.010055979088825783,0.9878510599246525
2014-12-04,1,0.004154040782515257,0.0046840462785229155,-0.012883596257939384,0.009481438061031447,0.9863296851428477
2014-12-08,1,0.003779665265727118,0.0042233998601176985,-0.019946788586439685,0.005628360115869455,0.9847774719532897
2014-12-10,1,0.0026777780900468237,0.0029783917748464088,-0.01444959520741265,0.009481438061031447,0.9844556405779723
2014-12-12,1,0.0022045873224158736,0.00246155218628489,-0.020194676640957934,0.005643418068478584,0.9824732416650647
2014-12-16,1,0.0011882105338236438,0.0012837188304656434,-0.0251228306140983,0.005643418068478584,0.981820815534407
2014-12-18,1,0.0017280117969950635,0.0019158006214774843,-0.0251228306140983,0.0030208017135167405,0.9820869119111714
2014-12-22,1,0.0011338097200682558,0.0011506737518663418,-0.0251228306140983,0.01042471969294035,0.9805776019898494
2014-12-24,1,0.0018238095912677362,0.001992385729050779,-0.0251228306140983,0.005213307437725008,0.9809518401285019
2014-12-29,1,0.002307394529987046,0.002440027667150668,-0.025687129426335865,0.0020222411328665296,0.9781582893531008
2014-12-31,1,0.0014270137308537224,0.0014374396811915975,-0.025687129426335865,0.004976037646332816,0.9776606833042942
2015-01-05,1,0.0006382688551573316,0.000710071947654885,-0.025687129426335865,0.014322406552043117,0.977449174044814
2015-01-07,-1,-0.0007354019938743747,-0.0005148723379083035,-0.0251228306140983,0.016367358021079397,0.9791742421177138
2015-01-09,1,0.001473692010986263,0.0015735766620820126,-0.0251228306140983,0.01380069350486366,0.9796395579737122
2015-01-13,-1,-0.0003925412861784856,-0.0003328110322383485,-0.019444751639715208,0.016367358021079397,0.9789397538350457
2015-01-15,-1,-0.0022747494603377193,-0.001995958052248796,-0.015744767319364743,0.018689911488857673,0.9797120183638345
2015-01-20,-1,-0.001583967793363461,-0.001368318393558083,-0.015744767319364743,0.016367358021079397,0.9804169106791788
2015-01-22,-1,-8.518121701225803e-05,-4.0067374782407766e-05,-0.015744767319364743,0.015264427974305817,0.9815635260492244
2015-01-26,-1,-0.0006000714816453434,-0.0004303099882516488,-0.019444751639715208,0.015264427974305817,0.9800134848670303
2015-01-28,-1,-0.0025557736853853083,-0.002165442514031314,-0.015949947349742144,0.015264427974305817,0.982590938971476
2015-01-30,-1,-0.0018310724454425357,-0.001509375899828034,-0.01323549331090303,0.015264427974305817,0.9830897979985085
2015-02-03,-1,-0.0024889800516229143,-0.0020431315050450246,-0.014704361725562127,0.00895470423939912,0.9825274451924491
2015-02-05,-1,-0.0019779575027276436,-0.0015673187928456783,-0.019444751639715208,0.0051739245210621326,0.982222961100662
2015-02-09,-1,-0.003082903744280532,-0.0025628615561538253,-0.01477901000720906,0.0059395329655816155,0.9820039974750469
2015-02-11,1,0.0008739954915566329,0.0008859562975911896,-0.01477901000720906,0.0059395329655816155,0.9855479181778335
2015-02-13,1,0.000582944155340191,0.0007126781143714251,-0.01477901000720906,0.0059395329655816155,0.9856389215345015
2015-02-18,1,0.0013215523973778773,0.00136811188880763,-0.019767693049127472,0.0059395329655816155,0.9841774635131809
2015-02-20,1,0.001661362964038837,0.0018300454792612641,-0.019767693049127472,0.006655275509721121,0.9837869010594517
2015-02-24,1,0.0012159596250250946,0.001351956241692795,-0.015614887990180303,0.006655275509721121,0.9845346649141128
2015-02-26,1,0.0008284262507808287,0.0009068133141049794,-0.023919251824165523,0.006655275509721121,0.9826553383417044
2015-03-02,1,0.0010286070397799976,0.001076541435966101,-0.023919251824165523,0.005169683039913842,0.9834298910958329
2015-03-04,-1,-0.0018238124699416036,-0.0014673659015552926,-0.011237096193756709,0.006655275509721121,0.985734683344157
2015-03-06,-1,-0.006213853930919142,-0.0051280042631789684,-0.009169912614281742,0.011550890535662061,0.9840545565713
2015-03-10,-1,-0.00797920908507357,-0.00664385497957037,-0.009169912614281742,0.011550890535662061,0.9840533832714671
2015-03-12,-1,-0.006979726849802655,-0.00585498773614939,-0.009169912614281742,0.01716905399096748,0.9835081942491284
2015-03-16,-1,-0.005338469267261774,-0.004499885817809629,-0.007990109817992065,0.01147374795470023,0.9854954756401042
2015-03-18,-1,-0.004815835875484032,-0.004085375442937831,-0.005694565735657518,0.011315565586985054,0.9868675638332811
2015-03-20,-1,-0.003822600296421961,-0.00323485145530308,-0.005694565735657518,0.008843015653791428,0.9875398027454778
2015-03-24,-1,-0.003738219355540753,-0.0032430118558023626,-0.005167306939169621,0.011754812813358512,0.9860465637970607
2015-03-26,-1,-0.005342264207273357,-0.0046353484169416115,-0.005167306939169621,0.011754812813358512,0.9875469012825215
2015-03-30,-1,-0.004419540454224257,-0.0038916043100530747,-0.005694565735657518,0.011754812813358512,0.9877041684112025
2015-04-01,-1,-0.0035035037789290205,-0.003094861623155246,-0.006695689701728964,0.009822571805118523,0.987930134234849
2015-04-06,-1,-0.0035112942799728247,-0.003062361798575191,-0.006695689701728964,0.009822571805118523,0.9879186945221455
2015-04-08,-1,-0.003543566896056085,-0.003105521573165968,-0.006695689701728964,0.008989431395915914,0.9883928546050227
2015-04-10,-1,-0.0026808120008371657,-0.0023560294610717254,-0.009884623438569289,0.003939262866098098,0.9890822618208147
2015-04-14,-1,-0.002813779331964931,-0.002428446627055379,-0.010889643077643932,0.008989431395915914,0.986822080497089
2015-04-16,-1,-0.0019744788941727116,-0.0017336254342788385,-0.012875987289940901,0.008989431395915914,0.9863400066313779
2015-04-20,-1,-0.0008853213288402377,-0.0008480824783159589,-0.014713443639767957,0.010673659443228557,0.9852149217375147
2015-04-22,1,0.0010233831843468246,0.0012786429011288844,-0.017209407219159728,0.004458529227430289,0.9855372843823834
2015-04-24,1,0.0013876852061121365,0.0017589520428729598,-0.017209407219159728,0.011721168735708876,0.9849028630663687
2015-04-28,1,0.0010663050071508615,0.001375959051354004,-0.017209407219159728,0.012928170929587276,0.9840661937459824
2015-04-30,1,0.0004331851230321704,0.0006876975845417822,-0.014320208284978193,0.012928170929587276,0.9848099740411993
2015-05-04,1,0.0012462093513176753,0.0016113005935569807,-0.017209407219159728,0.012928170929587276,0.9848737485024419
2015-05-06,1,0.0006221699854712253,0.0008896420978924703,-0.017209407219159728,0.012928170929587276,0.984641662956122
2015-05-08,-1,-0.0004844076400234555,-0.0003971976128972649,-0.017209407219159728,0.012928170929587276,0.9841271334339583
2015-05-12,-1,-0.0011434107634590357,-0.0011062880886317393,-0.017209407219159728,0.011721168735708876,0.9852903351845211
2015-05-14,1,0.00012698649991179018,0.0003619005414240554,-0.01531926032221611,0.01089640024407259,0.9862342060179737
2015-05-18,1,0.0004577634202451989,0.000734676103140886,-0.018153993422163457,0.006659921724820753,0.9858493159371441
2015-05-20,1,0.0005814463222724408,0.0008956962003797913,-0.016657081880009604,0.006474575005018798,0.9866592126397055
2015-05-22,1,0.001744224500484476,0.002249271177903694,-0.016657081880009604,0.004630433110333246,0.9871958017566628
2015-05-27,1,0.0024992036707583193,0.003079855834920402,-0.018710514254220843,0.0010991077237250534,0.9869507278665492
2015-05-29,1,0.0015651697340203648,0.0020031019488052377,-0.02292495491472979,0.0,0.9831131601722459
2015-06-02,1,0.0007190672552035171,0.0009140492777834315,-0.02528528237781818,0.0,0.982944454224669
2015-06-04,1,0.0008194301506744331,0.0011183797402992233,-0.01946801107340669,0.0010991077237250534,0.9834955777587246
2015-06-08,-1,-0.0018156141767261898,-0.0016547741757358676,-0.020209540356179945,0.0010991077237250534,0.9838488868995103
2015-06-10,-1,-0.003634538310157032,-0.0031927858089221845,-0.028249412588682753,0.0010991077237250534,0.9828309152706802
2015-06-12,-1,-0.003433052559540334,-0.003021461146348302,-0.028249412588682753,0.0031757359651728503,0.981748467636432
2015-06-16,-1,-0.002678584695235098,-0.0023699732001904623,-0.028249412588682753,0.006039376058825607,0.9768452216712682
2015-06-18,-1,-0.002081142795828003,-0.0018598369526957024,-0.028249412588682753,0.008764436036967454,0.9742020689916986
2015-06-22,-1,-0.0026039618634824766,-0.00222655078157368,-0.032668081615587985,0.008265199431231477,0.9719470314285219
2015-06-24,-1,-0.003030277766555134,-0.0026102766571873925,-0.03736921408855116,0.017703879843569744,0.9688114286098397
2015-06-26,-1,-0.005247940225108747,-0.0045653930766870405,-0.032668081615587985,0.017703879843569744,0.9724018410438213
2015-06-30,-1,-0.006742446084338738,-0.00592933149908865,-0.028249412588682753,0.024869138203021997,0.9698443248596574
2015-07-02,-1,-0.007214733276877551,-0.006292134164750683,-0.032668081615587985,0.024869138203021997,0.9677000180960331
2015-07-07,-1,-0.006665436636178659,-0.005976174306876286,-0.028249412588682753,0.02612340368490468,0.9672953865861661
2015-07-09,-1,-0.007489510677692507,-0.006764246156595219,-0.013809542495713069,0.02612340368490468,0.9689948078796461
2015-07-13,-1,-0.006203135803004608,-0.005650232364477421,-0.01603074241106401,0.02612340368490468,0.9694126535336189
2015-07-15,-1,-0.0045678959132105165,-0.004206423804721506,-0.01603074241106401,0.021957284391291264,0.9728087067499209
2015-07-17,-1,-0.0017114106505407608,-0.0017110622210091066,-0.03079661831826399,0.00889146520144852,0.9729622953878552
2015-07-21,-1,-0.0037774428574294237,-0.003557186234628912,-0.03079661831826399,0.016281309282707882,0.9730616140881944
2015-07-23,1,0.0003418851530437165,0.0007019312273264322,-0.03257122202656912,0.008539273220338695,0.9718785095378842
2015-07-27,-1,-0.005957863531723302,-0.005466729436914987,-0.03257122202656912,0.008539273220338695,0.9736053440055309
2015-07-29,-1,-0.002249395638876036,-0.0021167244406189887,-0.03257122202656912,0.0037601981309165417,0.9765076052408006
2015-07-31,-1,-0.004739322906774649,-0.00427431956580571,-0.027529399150622087,0.016281309282707882,0.9752944684264941
2015-08-04,-1,-0.003173035871756258,-0.0029295624860820003,-0.030966426246480414,0.016281309282707882,0.9734319250148938
2015-08-06,-1,-0.0028948507982633344,-0.002706584982637913,-0.030966426246480414,0.018438793338110306,0.9712623790344981
2015-08-10,-1,-0.002855740335679389,-0.002675801564977687,-0.030966426246480414,0.018438793338110306,0.9700290916394757
2015-08-12,-1,-0.0037167264979783366,-0.003483678930756842,-0.03010694652306077,0.018438793338110306,0.9710264477063545
2015-08-14,-1,-0.006292933993400755,-0.0057252029119752015,-0.024767926941594947,0.018438793338110306,0.9730793168460019
2015-08-18,-1,-0.007655283269374914,-0.006862661138843288,-0.016499187827942203,0.018438793338110306,0.9750580417795504
2015-08-20,-1,-0.010568393201531506,-0.009454499743962976,-0.014731981795842857,0.018438793338110306,0.9761457356843763
2015-08-24,-1,-0.010163934653595472,-0.00914203534712249,-0.01753713594942051,0.018438793338110306,0.9747584744408069
2015-08-26,-1,-0.009353590921249511,-0.008464000319727487,-0.0220044588655206,0.020928892809010197,0.9723511258871665
2015-08-28,-1,-0.004653193974432803,-0.0043124806669033134,-0.029152427147698935,0.016700813791461988,0.9745974939521053
2015-09-01,-1,-0.0040044191549192315,-0.003792782276648152,-0.024449753816474334,0.019502013624358147,0.9740932239300671
2015-09-03,-1,-0.0022622924883394404,-0.002245688559113914,-0.024449753816474334,0.017786669024165726,0.9721697410159243
2015-09-08,0,-0.00016171155043875288,0.00014014637771986446,-0.024449753816474334,0.02601633739452811,0.9682898505014196
2015-09-10,0,-0.0003024052773332687,6.903665251771149e-06,-0.0220044588655206,0.02601633739452811,0.969201618857537
2015-09-14,0,-0.00023733588781838,0.00017331408165133276,-0.023198311046177412,0.02601633739452811,0.968882433316269
2015-09-16,1,4.667416190279848e-05,0.0004899844732053991,-0.023198311046177412,0.03534926754397914,0.9678403663178937
2015-09-18,-1,-0.0018574287448091162,-0.0016702985712806926,-0.015910800994249744,0.03534926754397914,0.9700857614152505
2015-09-22,-1,-0.0021059454912492857,-0.001992469651506528,-0.017521800765005528,0.03570340347343728,0.9654358767858197
2015-09-24,-1,-0.002658540385768291,-0.0025458872516422983,-0.017521800765005528,0.03532153149822345,0.9662445666771877
2015-09-28,-1,-0.004879726184725049,-0.004709791165407672,-0.009935519811967122,0.03532153149822345,0.9663484485457122
2015-09-30,-1,-0.0028434821666079063,-0.0028015130660420926,-0.009935519811967122,0.03212625189034393,0.9687196522069252
2015-10-02,-1,-0.0006621163539370665,-0.0003378271121975715,-0.013909487707602745,0.02424061282472172,0.9705902970228513
2015-10-06,1,0.0038461259621918402,0.004775199250083552,-0.013909487707602745,0.02424061282472172,0.9746798580311425
2015-10-08,1,0.005087768288778613,0.00619782809571612,-0.03200664043791613,0.023968852933338468,0.9716790912170808
2015-10-12,1,0.0039180219961461385,0.004875388671679485,-0.03738234026528804,0.023968852933338468,0.9714312896801246
2015-10-14,1,0.0059827746328689315,0.00727489606039497,-0.03738234026528804,0.018635842502820042,0.9712703618874091
2015-10-16,1,0.006115190478149105,0.007489296343338191,-0.03738234026528804,0.018635842502820042,0.9705323722448559
2015-10-20,1,0.004169902015174826,0.005275105403896634,-0.026371520975523016,0.018635842502820042,0.9757416100134412
2015-10-22,1,0.0037299787319941997,0.00478463313047911,-0.02251645912090267,0.021592939658033626,0.9770865691926082
2015-10-26,1,0.003298538184111485,0.0042484929241627355,-0.02251645912090267,0.017889912301670675,0.9783559978942564
2015-10-28,1,0.003522597636756561,0.004433271507563557,-0.02251645912090267,0.020574169771201828,0.9777502896812891
2015-10-30,1,0.0026948210387253545,0.003451925252640923,-0.019336434439854652,0.02057547455955879,0.979783496038546
2015-11-03,1,0.005741978659002069,0.006904544200253374,-0.02251645912090267,0.01755075726884573,0.9780462732118475
2015-11-05,1,0.0028980085053301866,0.0036250928101425723,-0.014532773768788098,0.01755075726884573,0.9816981528861827
2015-11-09,1,0.0019801062284656237,0.002621176366254532,-0.017203281857779026,0.01755075726884573,0.9811622488344127
2015-11-11,1,0.0015357454218329534,0.0021964674131318995,-0.017420794482218633,0.02057547455955879,0.9805114989604596
2015-11-13,1,0.000368021966197424,0.0008328826407764008,-0.021149980363437574,0.02057547455955879,0.9790158712621672
2015-11-17,-1,-0.0005068217222227651,-0.0003376326178743895,-0.021149980363437574,0.02057547455955879,0.9785849578584719
2015-11-19,1,0.00016756000919656514,0.00034770130532661833,-0.021149980363437574,0.01838497998643086,0.979242189785951
2015-11-23,-1,-0.0006384961309360107,-0.0005337186742689891,-0.017420794482218633,0.021112018034119356,0.9791795426967611
2015-11-25,-1,-0.00038727694809651995,-0.0003843422122793164,-0.0196881734270644,0.019261983282173333,0.9785949321040394
2015-11-30,-1,-0.0007961787096384325,-0.0006477318641493377,-0.020325293617215884,0.01388260073642536,0.9784646667481377
2015-12-02,1,0.0001314651255371276,0.0001326934580361718,-0.01939050211792485,0.011074990638545142,0.9816009587216038
2015-12-04,0,-0.00010709210917986424,6.51246925430373e-05,-0.01939050211792485,0.01388260073642536,0.980480435500219
2015-12-08,-1,-0.000765459079184894,-0.0005282995091810664,-0.020325293617215884,0.01388260073642536,0.9795002280839961
2015-12-10,-1,-0.0015365250014404148,-0.0015312126564912324,-0.024884974272328084,0.012151083193651359,0.9775552601102777
2015-12-14,-1,-0.004341502087792293,-0.004014838951333206,-0.021953260808407996,0.013231437874442076,0.9776805816041978
2015-12-16,-1,-0.0036330788340208668,-0.0033371424805945194,-0.027963885968445876,0.012151083193651359,0.9762782046002179
2015-12-18,-1,-0.00038601779578545706,-7.83993201776891e-05,-0.03965733460167577,0.010929562679771233,0.9725012566562915
2015-12-22,-1,-0.0007719723804336292,-0.0006637224879375742,-0.03965733460167577,0.012151083193651359,0.9696313975351236
2015-12-24,-1,-0.00035131728043206784,-0.00012395326250047947,-0.043336038979100044,0.010929562679771233,0.9683690507676757
2015-12-29,-1,-0.0007175222064224348,-0.0005621438313543643,-0.04906409018442724,0.008011002421993126,0.9669359039098693
2015-12-31,-1,-0.0008419366091106614,-0.0006752612811545254,-0.04906409018442724,0.01279515399812035,0.9626090198762346
2016-01-05,1,0.0003325994077591147,0.0005902792636498929,-0.04906409018442724,0.008800501185236027,0.962091615647842
2016-01-07,-1,-0.003835759645485487,-0.0034537945138967004,-0.04906409018442724,0.015385959478031955,0.9640482507574464
2016-01-11,-1,-0.007573715409295476,-0.00670272332021747,-0.04906409018442724,0.015385959478031955,0.9644035419459751
2016-01-13,-1,-0.010937399002114776,-0.009495550695407329,-0.037350133593803396,0.009022810375418928,0.9674807027637473
2016-01-15,-1,-0.01431779954747871,-0.012449707002171104,-0.027392829029609062,0.02372128016671396,0.9649690575982126
2016-01-20,-1,-0.01766909632067798,-0.01541591435860438,-0.020663642664689508,0.03646192284389581,0.9633472426969563
2016-01-22,-1,-0.010895904890038619,-0.009634038851054625,-0.02308924955301215,0.020553620179901998,0.9689935970548069
2016-01-26,-1,-0.012821385793597553,-0.01133394543947705,-0.02308924955301215,0.020553620179901998,0.9686990371855567
2016-01-28,-1,-0.013793467492207527,-0.012295974285722393,-0.020663642664689508,0.020553620179901998,0.9688100928952647
2016-02-01,-1,-0.008376870412283027,-0.007628831473939243,-0.020663642664689508,0.020553620179901998,0.9725110607943013
2016-02-03,-1,-0.008937061675104014,-0.0081045469529802,-0.019132042421032468,0.035889926196070635,0.970933812036527
2016-02-05,-1,-0.008257931475084404,-0.007464630459557502,-0.01931487016037013,0.019238495561540378,0.9725795760149407
2016-02-09,-1,-0.011300894406836666,-0.010164574990379956,-0.0126954816172646,0.019238495561540378,0.9707641640305134
2016-02-11,-1,-0.013544370142688951,-0.012032279854699776,-0.007370670801574078,0.035889926196070635,0.9667721668320084
2016-02-16,-1,-0.008951073278372548,-0.007979134691138466,-0.022116518775201696,0.0141283582180428,0.973691029482633
2016-02-18,-1,-0.006315248726615721,-0.005653374484777926,-0.022116518775201696,0.014012213144580676,0.9765414261376612
2016-02-22,-1,-0.009500449865774287,-0.008318724640708267,-0.014253977212964161,0.01693430287153007,0.9735019952882091
2016-02-24,-1,-0.009154307762758409,-0.008140881787164378,-0.014253977212964161,0.016763273532141038,0.9737074905521328
2016-02-26,-1,-0.007213434723340373,-0.006555392776040025,-0.015831148299025776,0.016763273532141038,0.9745538020971034
2016-03-01,-1,-0.002374918505989751,-0.0021748016328414156,-0.015831148299025776,0.014012213144580676,0.975965411848551
2016-03-03,1,0.0007935519556357819,0.0014880292250274633,-0.015831148299025776,0.014012213144580676,0.9769119827992486
2016-03-07,0,-9.606021051090149e-05,0.0004307734271061412,-0.020906929666529468,0.014012213144580676,0.9756177797966963
2016-03-09,-1,-0.0010788201581826676,-0.0005680476232250656,-0.01577639885048914,0.008555906707178505,0.9795929776759804
2016-03-11,1,0.0009869843020900962,0.0017532482636942646,-0.020906929666529468,0.008555906707178505,0.9799794365589336
2016-03-15,-1,-0.00140536392291339,-0.00108282267259393,-0.01577639885048914,0.015489619459702475,0.9775321218262324
2016-03-17,-1,-0.001295729694908511,-0.00099182323407248,-0.021935787473152314,0.021195492477506437,0.9753382070291431
2016-03-21,1,0.0010100068576069394,0.001617580165886148,-0.021935787473152314,0.00973506786334435,0.9765976387789734
2016-03-23,-1,-0.0008737033387723966,-0.00045436319440703924,-0.016921038920507236,0.00973506786334435,0.9797297761989304
2016-03-28,-1,-0.0017032441442343033,-0.0014180513793522146,-0.016921038920507236,0.00973506786334435,0.9801325418497573
2016-03-30,1,0.0004930351039988587,0.00122986970069635,-0.016921038920507236,0.019027102928200007,0.9765494133721577
2016-04-01,1,0.001334432440808177,0.0020389445803830454,-0.021935787473152314,0.009725410376134617,0.9753241529847777
2016-04-05,-1,-0.0009380950483118459,-0.0005974011640058291,-0.017828526626922244,0.009725410376134617,0.9759921598238264
2016-04-07,-1,-0.0006048549297826695,-0.00025000383668390374,-0.02465825059239734,0.00917731797242464,0.9746377196953748
2016-04-11,-1,-0.0010278205000584023,-0.000782764025851195,-0.017828526626922244,0.005392709264063302,0.9759135288640937
2016-04-13,1,0.00106728517109233,0.0016397877097570378,-0.012972440048113565,0.005392709264063302,0.9794115234297938
2016-04-15,1,0.0015641158427175399,0.0022959356795096315,-0.012972440048113565,0.004555615111525664,0.9800477960505941
2016-04-19,1,0.0013614647135666937,0.002006466777420561,-0.012032259099124754,0.004555615111525664,0.9810756007689183
2016-04-21,1,0.0017845680330425833,0.0025344235340547102,-0.012032259099124754,0.005392709264063302,0.9797753036597909
2016-04-25,1,0.002208956462853994,0.0030710994439787282,-0.012032259099124754,0.014986665121012838,0.9757068887796252
2016-04-27,1,0.0056408572233254805,0.006964164766599366,-0.012032259099124754,0.014986665121012838,0.9779915390088469
2016-04-29,1,0.0032178018177772276,0.004189103299649808,-0.008454689771185863,0.030137271794848482,0.9795600755224344
2016-05-03,1,0.0012407713668353576,0.0018412724993606682,-0.002514389765079026,0.03048383761833278,0.9783609213455717
2016-05-05,1,0.0006832980952598904,0.0012335845078063825,-0.002514389765079026,0.03048383761833278,0.9791131087984128
2016-05-09,-1,-0.000897373048020633,-0.0006827575547228128,0.0004850568440343809,0.03048383761833278,0.9779268352234145
2016-05-11,1,0.0007317806770224713,0.0012376263819628274,-0.0059228684402027176,0.03048383761833278,0.9780401195646146
2016-05-13,0,-0.0003703667554397175,4.905700953100958e-05,-0.0059228684402027176,0.03048383761833278,0.9784762082148225
2016-05-17,1,0.0007211553628145996,0.0013321712982317683,-0.00710216736808172,0.03048383761833278,0.9786374083255015
2016-05-19,1,0.0022929264006555906,0.003108225967637956,-0.00710216736808172,0.030137271794848482,0.9795712665501085
2016-05-23,1,0.005926589935356127,0.0072164167567928626,-0.00710216736808172,0.02934742417238155,0.9830341549917649
2016-05-25,1,0.00723474590460153,0.008675924387501852,-0.00710216736808172,0.02934742417238155,0.9795303536982783
2016-05-27,1,0.009587621222785744,0.011402575434225213,-0.012858646592228011,0.018738320633404467,0.9737925472733369
2016-06-01,1,0.010216584213475578,0.011960055486853523,-0.012858646592228011,0.016050064977549093,0.9728204830983754
2016-06-03,1,0.00788670073356021,0.009149573485231054,-0.015485375611802757,0.018738320633404467,0.9688179704662058
2016-06-07,1,0.007265891329402122,0.008370039191550206,-0.030259171473946283,0.016777458908402255,0.9663423538092986
2016-06-09,1,0.004956914926068194,0.005606136270757676,-0.018729114267242445,0.03454533298449488,0.9658908616776297
2016-06-13,1,0.0021796277957152176,0.002275467035835076,-0.011869637287624912,0.03619402365888974,0.9654487293937832
2016-06-15,1,0.0035780985182372726,0.004042055798547378,-0.008146104749035632,0.03619402365888974,0.9664584815258694
2016-06-17,1,0.0031085231149773867,0.0034172677094227518,-0.012807680773089242,0.03619402365888974,0.9662716772410034
2016-06-21,1,0.003203625958723297,0.0034000128675313514,-0.012807680773089242,0.03583673360546135,0.9662753790219537
2016-06-23,1,0.007184295704761453,0.0080725894446707,-0.018877339588068354,0.02959747500270002,0.9687961663101019
2016-06-27,1,0.002697089815176257,0.002954039371162542,-0.009756399104509421,0.04085482089706789,0.970710942012854
2016-06-29,1,0.005151562607488686,0.005765411975816755,-0.018029872901690096,0.03583673360546135,0.9708593836360053
2016-07-01,1,0.00200995100124065,0.002033474898746926,-0.013603636261961899,0.02959747500270002,0.9763251359280942
2016-07-06,-1,-0.0008209914143937189,-0.0004561196241124534,-0.011859380485256671,0.02959747500270002,0.9786905092015763
2016-07-08,1,0.0025307872538381316,0.0027235553785325724,-0.011859380485256671,0.029722219101581973,0.9786176325149919
2016-07-12,1,0.0045301915043809305,0.00509727474807721,-0.011859380485256671,0.01899240436260531,0.9801154356460605
2016-07-14,1,0.004702047417734413,0.005239011294261394,-0.012304434212721675,0.0191448856554768,0.9786251314194915
2016-07-18,1,0.003948290865933422,0.004315860680134944,-0.012124698981547557,0.03471882861181018,0.9768660651779458
2016-07-20,1,0.003498651076131277,0.003767667285375221,-0.012124698981547557,0.03471882861181018,0.9782044651167878
2016-07-22,1,0.002732719516316992,0.002953255858429395,-0.008115175982752519,0.03471882861181018,0.9781979677950036
2016-07-26,1,0.006269242510937804,0.0070721078158663166,-0.008115175982752519,0.019757291109875473,0.9825955686081607
2016-07-28,1,0.005426176094046924,0.006104003386342704,-0.005523397751090932,0.03149064077019919,0.9820024208591889
2016-08-01,1,0.0047040051290142505,0.005192231207685573,-0.00285481190742415,0.03149064077019919,0.981725558807499
2016-08-03,1,0.004155460758666223,0.004627964939300673,-0.004490975719540844,0.03149064077019919,0.9810037626142291
2016-08-05,1,0.0038642354767883845,0.004177239281305176,-0.004490975719540844,0.020408755781543858,0.9837989146432424
2016-08-09,1,0.0048849859291420295,0.005355607366531552,-0.00285481190742415,0.020408755781543858,0.983582014416011
2016-08-11,1,0.005385284802420639,0.006012981301401132,-0.00285481190742415,0.020408755781543858,0.9828450279189568
2016-08-15,1,0.005874598962604529,0.006433411037414821,-0.005282513007288545,0.018706073218320875,0.9837747287520123
2016-08-17,1,0.005098254924703616,0.005500928789947722,-0.005282513007288545,0.019408342860785507,0.9827384771442642
2016-08-19,1,0.00620242266246597,0.006746135363686236,-0.01127349299362021,0.018706073218320875,0.9826612398634459
2016-08-23,1,0.006294778468039226,0.006926407936587782,-0.01127349299362021,0.019408342860785507,0.9813538347408537
2016-08-25,1,0.005211957959023251,0.005593620415534852,-0.007203497736672215,0.018706073218320875,0.9842463659970502
2016-08-29,1,0.006084099203387179,0.0065818291259822645,-0.007662002611725572,0.017315575657826827,0.9836720285906072
2016-08-31,1,0.005019052018777353,0.0053469077537528515,-0.006406422758086237,0.017315575657826827,0.9836271644849776
2016-09-02,1,0.00551534865706721,0.00596335318213538,-0.006406422758086237,0.017315575657826827,0.9831534100883815
2016-09-07,1,0.005719210491888371,0.006143653410274393,-0.006406422758086237,0.014487202474800495,0.983201669987049
2016-09-09,1,0.004725577421749111,0.005012561255135715,-0.006382223209967292,0.011480464281853819,0.9852403922353224
2016-09-13,1,0.004138075458090113,0.0043204362011201956,-0.006382223209967292,0.006987046707894349,0.9849965936345836
2016-09-15,1,0.004721682630396103,0.0049458238916748505,-0.006382223209967292,0.0040039737121562915,0.9858032256667795
2016-09-19,1,0.004975603948054573,0.005371077783755891,-0.006382223209967292,0.004562202566994377,0.9863718210079645
2016-09-21,1,0.004535739974004711,0.0047589155243818616,-0.006792328988782758,0.004562202566994377,0.987042202243944
2016-09-23,1,0.003279361275618711,0.0032918028733878203,-0.007191885983279849,0.004562202566994377,0.9871794602064871
2016-09-27,1,0.0031050912523406097,0.003193785972681886,-0.007119287338923013,0.006071415486220437,0.987979424420639
2016-09-29,1,0.0014796974037082726,0.0018019175624909118,-0.006376896352457709,0.006046815735459938,0.9896071264866209
2016-10-03,1,0.001631344157050547,0.0019202914697467092,-0.007119287338923013,0.004554002650074211,0.9891554267759343
2016-10-05,1,6.28736358501312e-05,0.00061899299499993,-0.010595471027098128,0.004554002650074211,0.9886267465392466
2016-10-07,0,-0.0004792763514008928,0.0001439761876431897,-0.010595471027098128,0.004554002650074211,0.9888687263338772
2016-10-11,-1,-0.0015368655346449578,-0.0008366894810875288,-0.008751952867005593,0.006046815735459938,0.9889576944300853
2016-10-13,0,-0.00024583831779609994,0.00016198463203837324,-0.011200469464125961,0.006046815735459938,0.987944702401867
2016-10-17,1,0.0002717046915041483,0.0005806213794999944,-0.011200469464125961,0.006046815735459938,0.9869979157731513
2016-10-19,1,0.0012499821799642574,0.001368494205351593,-0.01088264148359316,0.007246514678537273,0.9872297244047112
2016-10-21,1,0.0015368356197734301,0.0015527260053245415,-0.0072991978574160205,0.011306462353747014,0.9856859362680501
2016-10-25,1,0.001950693594251779,0.0019516353913259343,-0.0072991978574160205,0.013264262784824146,0.9860780086179547
2016-10-27,1,0.001802797247169871,0.00181310785788585,-0.00532019975560774,0.013264262784824146,0.9858830283916665
2016-10-31,1,0.00030897859344793815,0.0005472592246053377,-0.007838454948850384,0.013264262784824146,0.9849231217058252
2016-11-02,-1,-0.0013389140655675987,-0.0008526976474053775,-0.004436508616251025,0.013264262784824146,0.9829583368556404
2016-11-04,-1,-0.001772588137302179,-0.0012060061609160224,-0.007610967700193934,0.015125575305661823,0.9819166769343236
2016-11-08,-1,-0.0006510729728711059,-0.00022297163714182322,-0.007610967700193934,0.018086607671472243,0.9797186357098894
2016-11-10,-1,-0.0009440767084573508,-0.0005236234393917927,-0.0005656417284594425,0.018086607671472243,0.979788492086251
2016-11-14,1,0.0018112217530155768,0.0018199360862161157,-0.007152179447074452,0.015125575305661823,0.981302921086033
2016-11-16,0,-0.00012000777952994612,0.00032489425071861194,-0.007152179447074452,0.01375884659258857,0.9813788379304414
2016-11-18,1,0.0026774076308789642,0.002684673117169263,-0.007152179447074452,0.012991952235693398,0.9839903870830361
2016-11-22,1,0.002620027966369245,0.0027956928654374316,-0.007152179447074452,0.0116589010264549,0.9842673725709772
2016-11-25,1,0.001127194134977702,0.0015276082939614606,-0.007152179447074452,0.013800396276290327,0.9802260152221886
2016-11-29,1,0.0008510736338564615,0.0011738457863935906,-0.006034419093264582,0.013800396276290327,0.9807988113791056
2016-12-01,0,-0.00024618436560287305,0.0001496636567805804,-0.00820321461293628,0.013800396276290327,0.9816673018530409
2016-12-05,0,-0.00030533494820754025,0.00010334287623762865,-0.007914734771384288,0.013800396276290327,0.981147978842477
2016-12-07,1,0.002597601534939001,0.002676470303909515,-0.009114414874599224,0.006811624317578934,0.9846194145678124
2016-12-09,1,0.0026145747937613077,0.0026798041917173708,-0.009114414874599224,0.008071703013512375,0.9848019908001855
2016-12-13,1,0.0008346530620948053,0.0011784926237721604,-0.009114414874599224,0.013517797048459668,0.9847463114389811
2016-12-15,1,0.0029880416678654694,0.0030708070460477295,-0.012314566348712802,0.00810296401851422,0.9838626932848582
2016-12-19,1,0.0014578106228678497,0.0016623300754886276,-0.016746599070696058,0.013656209286963017,0.9818265129673227
2016-12-21,1,0.0009867116987496332,0.0012771052731378974,-0.016746599070696058,0.012039468387907714,0.9820762473765052
2016-12-23,1,0.0037901361335418143,0.0038001879016532204,-0.016746599070696058,0.013656209286963017,0.9828333882149117
2016-12-28,1,0.0038179706098157734,0.003952897161286068,-0.012314566348712802,0.015125723726091975,0.983243214294564
2016-12-30,1,0.0021986435019731494,0.002286889997472923,-0.006476624455080399,0.015125723726091975,0.9848769604216331
2017-01-04,1,0.002307879545937748,0.002397459379239359,-0.003847436544032898,0.015125723726091975,0.9854715186168235
2017-01-06,1,0.0027271752978311053,0.0028049708326282055,-0.006286309968288919,0.015125723726091975,0.9852767965949293
2017-01-10,1,0.0029361129484624725,0.003030490285483829,-0.008390580252016222,0.015125723726091975,0.9846724077737128
2017-01-12,1,0.0030883448533674924,0.003272420924701462,-0.008390580252016222,0.013419724380041048,0.985114701407688
2017-01-17,1,0.0020832408460306723,0.002113852701234734,-0.008390580252016222,0.013419724380041048,0.9845015715052322
2017-01-19,1,0.0018251456145425787,0.0018339743656323486,-0.00659384344473175,0.010890368490718163,0.9866674883972796
2017-01-23,1,0.002480719288463338,0.002621327160075472,-0.00659384344473175,0.016572534398292496,0.9858993593788458
2017-01-25,1,0.003922729954547318,0.00420113036356938,-0.008390580252016222,0.010105500082872549,0.9880741290508515
2017-01-27,1,0.004301753784246252,0.004639578733163629,-0.010308370353817134,0.010105500082872549,0.987408282849932
2017-01-31,1,0.004490777377352071,0.0048919017023637155,-0.010768946205199649,0.012036759248817596,0.9849824423321846
2017-02-02,1,0.0045955750472974205,0.004969297542050126,-0.010768946205199649,0.012036759248817596,0.9846211118262842
2017-02-06,1,0.00372783574090675,0.003971293525169831,-0.010508201727714401,0.012036759248817596,0.9856025641143266
2017-02-08,1,0.0037268017522944247,0.004034179212148929,-0.01016067497026914,0.011460245064973222,0.9856064150784617
2017-02-10,1,0.002860813599302664,0.0030018561359629724,-0.009331780700867714,0.016572534398292496,0.9860403749617025
2017-02-14,1,0.0021577679552030895,0.002263743193161916,-0.005767528914170582,0.018653198379184277,0.9870173259138179
2017-02-16,1,0.0016962507696847207,0.0017138122713385052,-0.009100840503516481,0.018653198379184277,0.9867189972542864
2017-02-21,1,0.002718140160029141,0.002910013659874839,-0.009447594192308919,0.01708143269124269,0.9860272710135075
2017-02-23,1,0.0018252959037954278,0.001853486995779434,-0.009100840503516481,0.0207660659276198,0.9852952842147399
2017-02-27,1,0.0016995698653124924,0.001755069260642996,-0.005767528914170582,0.0207660659276198,0.982907046459563
2017-03-01,1,0.003199704489401069,0.0033619095082537474,-0.005157603674523174,0.01708143269124269,0.9853011194072189
2017-03-03,1,0.004099772012754148,0.004355099027237162,-0.005157603674523174,0.016041401562254386,0.9860260608658199
2017-03-07,1,0.0021264244271390923,0.002148507412832873,-0.007216038243566206,0.016041401562254386,0.9857793108639322
2017-03-09,1,0.0013818373079974198,0.0014580644247160109,-0.005157603674523174,0.016041401562254386,0.9858377392861281
2017-03-13,1,0.0017303905303588437,0.001767716861288269,-0.007216038243566206,0.0157725557224647,0.9848927831368762
2017-03-15,1,0.0020943947159098976,0.0020963331143740963,-0.009798114157855255,0.013487385870461967,0.9841742612593212
2017-03-17,1,0.0012625262196393752,0.0013924111259271742,-0.009633034534831105,0.014871881257915338,0.9845169474995881
2017-03-21,1,0.001195160187473457,0.0013009938679749641,-0.007216038243566206,0.013200373460214881,0.98636554287109
2017-03-23,1,0.0017950186796761294,0.0018401800312320873,-0.009633034534831105,0.011890309327090301,0.9855345721937934
2017-03-27,1,0.0032168351851568433,0.0033047486590652634,-0.012817499554289086,0.006500880556693968,0.9868789805114544
2017-03-29,1,0.002175237325476101,0.0022590967287527968,-0.012817499554289086,0.013200373460214881,0.9860567298900812
2017-03-31,1,0.0021116879816879494,0.0022198263957167205,-0.012817499554289086,0.013200373460214881,0.9859832910334044
2017-04-04,1,0.002124064366960368,0.002197012929577515,-0.01698887398643152,0.013200373460214881,0.9854067788821985
2017-04-06,1,0.0013760737677098967,0.0015795152523464403,-0.01698887398643152,0.014627027255622316,0.9856666315043999
2017-04-10,1,0.0007100272482096658,0.0009386406245812751,-0.009785604046324264,0.015016952989816163,0.9858914837479678
2017-04-12,0,-4.002736754048946e-05,0.0002517720212591539,-0.007432574002941967,0.016281027143956392,0.9861704993416118
2017-04-17,1,0.0008703884266032215,0.000998724764018028,-0.007432574002941967,0.016281027143956392,0.986570109137523
2017-04-19,1,0.0011230411969933678,0.0011963142985822628,-0.008097681916212447,0.016281027143956392,0.9830435609051454
2017-04-21,1,0.0012463133439989582,0.0012934349594983898,-0.007432574002941967,0.016281027143956392,0.9840436897776881
2017-04-25,1,0.0001868620956499722,0.0004065321519480889,-0.005575966041617059,0.015490675612961418,0.9853435578069853
2017-04-27,0,-0.00018495450386319702,0.0001276435730443188,-0.0038336206481663993,0.015808798258302573,0.9852590718872148
2017-05-01,1,0.00017940121175550054,0.0004461291404978076,-0.0038336206481663993,0.015808798258302573,0.9844183930227849
2017-05-03,1,0.0009029018639054628,0.0009674366137650918,-0.003447702213104401,0.015808798258302573,0.9856728096328333
2017-05-05,1,0.0008924298638804274,0.0009616471061350198,-0.0011049308380248544,0.015808798258302573,0.9860431186798507
2017-05-09,1,0.0009171427937721253,0.0010112191114567306,-8.124982721042824e-05,0.015808798258302573,0.9857039046994158
2017-05-11,1,0.0009609464131605003,0.0010544360548710896,-0.0006283589974816453,0.014766430129148841,0.9841246633242804
2017-05-15,1,0.0006998043833815369,0.0008621606442499742,0.0017100902219370933,0.01582768971084646,0.9830868459416723
2017-05-17,-1,-0.0010324457960268895,-0.0006665359492822856,-8.124982721042824e-05,0.01582768971084646,0.9844761821761112
2017-05-19,1,0.0013712398081820016,0.0013914080912248083,-0.0006283589974816453,0.01628521334474149,0.9834077671419779
2017-05-23,1,0.0013114402543136718,0.001335037404962865,-0.004118578789423696,0.020891812630507038,0.9816575794633784
2017-05-25,1,0.0015828838835481632,0.0016400730943308595,-0.006727681814647649,0.015873977467284285,0.9829228393992568
2017-05-30,1,0.0027684411237466648,0.002890049241761248,-0.01269895455925544,0.015873977467284285,0.9822738213709663
2017-06-01,1,0.002320492813361544,0.0023500497012015078,-0.015438580340233408,0.01864174196320892,0.9804232021358272
2017-06-05,1,0.002808194397571664,0.002912870315838377,-0.023150153287484376,0.01864174196320892,0.9772296280329491
2017-06-07,1,0.0034821431268056936,0.0036549762006345184,-0.023150153287484376,0.01864174196320892,0.9758549182970764
2017-06-09,1,0.001012535138105842,0.0011945103970822475,-0.01779983704662512,0.01864174196320892,0.9789471788570714
2017-06-13,1,0.0016861208834677668,0.0018233724982509199,-0.01779983704662512,0.019806595558596457,0.9788351600107251
2017-06-15,1,0.00044461347226209397,0.0007261415928376673,-0.015805089435653206,0.021967920211123516,0.9790739300466321
2017-06-19,1,0.00218299065403203,0.0022222408608012774,-0.012253803694614485,0.019040145715404973,0.9818306476466313
2017-06-21,1,0.0029320726436166634,0.003089689413058927,-0.01099075156382959,0.012030238031580164,0.983872605023606
2017-06-23,1,0.002518313492869729,0.0026207991761733824,-0.01132577281593444,0.012030238031580164,0.9838128335502151
2017-06-27,1,0.002678682101435746,0.0028389338913323713,-0.01132577281593444,0.00673943454969892,0.9831294852305451
2017-06-29,1,0.0019793061956689803,0.002007783746711921,-0.01132577281593444,0.00673943454969892,0.9829679811293822
2017-07-03,-1,-0.0007432423687010897,-0.00042820991549632917,-0.01028660521047888,0.0083511286563025,0.9845652433364899
2017-07-06,0,-1.1493018360047755e-05,0.00023386123781743982,-0.01028660521047888,0.0083511286563025,0.9856786000724456
2017-07-10,-1,-0.0006078440517320693,-0.000222521872916289,-0.01028660521047888,0.008425904157995285,0.9850198762247847
2017-07-12,0,-4.562297623874386e-05,0.0002949809289270591,-0.01028660521047888,0.008053770363107057,0.9856857064323581
2017-07-14,1,0.0006470086674625617,0.0008629289935267777,-0.014951892746963909,0.008053770363107057,0.9843322971421918
2017-07-18,1,0.0001916205082435706,0.0004905946086839521,-0.014951892746963909,0.011280813544825163,0.9819797422589039
2017-07-20,1,0.00018356651805004072,0.00047352781357408924,-0.028893519127812628,0.014580499647766351,0.9790558626410144
2017-07-24,1,0.00017073667748179603,0.0004195119586722425,-0.028893519127812628,0.016014920062767286,0.9770370131094454
2017-07-26,-1,-0.0011938122852145935,-0.0008440077305406462,-0.02722924722877028,0.020186274024077716,0.978128632307825
2017-07-28,-1,-0.0018974120748262646,-0.0014639835370590234,-0.013509306467059352,0.020186274024077716,0.9797160940667248
2017-08-01,-1,-0.0034464087123913406,-0.0027988948459380576,-0.00791887631182354,0.024412423394754502,0.9794841766512548
2017-08-03,-1,-0.0037836986949334093,-0.0031246873416212696,-0.0018883533975547393,0.024412423394754502,0.9800877049315888
2017-08-07,-1,-0.0026363863395369525,-0.002136754597853439,-0.00791887631182354,0.021194031784282332,0.9803726897608719
2017-08-09,-1,-0.003019454078818741,-0.002451672786705001,-0.0018883533975547393,0.021194031784282332,0.9797581559270054
2017-08-11,-1,-0.003926506217037221,-0.0032349451197186585,-0.0018883533975547393,0.025764006522359682,0.9801760319505473
2017-08-15,-1,-0.0013987470870841369,-0.0010609735786193,-0.0018883533975547393,0.02547861772399064,0.9823670338963356
2017-08-17,1,7.722892211823595e-05,0.00012751219511270278,-7.226309257803725e-05,0.021134143836777117,0.9861197367269406
2017-08-21,-1,-0.0002597280660516194,-0.0001514670406913269,0.00151821192418262,0.02040715796515317,0.9867259674552634
2017-08-23,1,0.0010269300586049819,0.001100351111628771,0.00034499262381731906,0.01748464795710255,0.9886718299509768
2017-08-25,1,0.0005680281253969526,0.0005788230006015967,0.00034499262381731906,0.01748464795710255,0.9870942726502399
2017-08-29,1,0.0017391720139755835,0.001881637086052532,-0.0006338129867608496,0.01748464795710255,0.9842558880061931
2017-08-31,1,0.0013949858298062858,0.0014303088587176898,-0.0006338129867608496,0.022747196810412148,0.9819632664926242
2017-09-05,1,0.0006418913938521066,0.0007629913903889861,0.00034499262381731906,0.022747196810412148,0.9823275210036045
2017-09-07,1,0.0015011927765282433,0.001501338321616013,-0.002451794299542806,0.022747196810412148,0.9821734366124834
2017-09-11,1,0.0020058893605681915,0.002071760920897905,-0.0006338129867608496,0.022747196810412148,0.9825399785059542
2017-09-13,1,0.0028550034502695257,0.003030178943329271,-0.002451794299542806,0.022747196810412148,0.9825084545013686
2017-09-15,1,0.002440297196354204,0.0025307253052033,-0.005805593385416334,0.022747196810412148,0.9809316306373694
2017-09-19,1,0.0036349288731208915,0.003918384577568485,-0.011557207708506202,0.023817910149380228,0.9800070967784134
2017-09-21,1,0.0036444518681492013,0.003965865453034179,-0.011557207708506202,0.02542181680628824,0.9785555976652678
2017-09-25,1,0.0023782089812611467,0.002506977797140897,-0.008325875371000907,0.02542181680628824,0.979986288140449
2017-09-27,1,0.00416874757201826,0.004536511211196397,-0.008325875371000907,0.023817910149380228,0.984353805977937
2017-09-29,1,0.005908767868438265,0.006534201613095247,-0.009411068509740151,0.01107070234010376,0.9857360721388992
2017-10-03,1,0.006581513422862386,0.007294960614663634,-0.009411068509740151,0.020913527946027608,0.98279971496265
2017-10-05,1,0.005556510116199263,0.006105742826247977,-0.008325875371000907,0.020913527946027608,0.9842628739691416
2017-10-09,1,0.005497057984232153,0.005904883634987853,-0.010693712041336748,0.009514206466355452,0.9838357640287779
2017-10-11,1,0.006013761535001125,0.006531673041086692,-0.010693712041336748,0.008664473959174192,0.9846298717074713
2017-10-13,1,0.005016987542151404,0.005420344523614456,-0.010693712041336748,0.017034721245665727,0.9848847798248213
2017-10-17,1,0.005360243585775502,0.005867349009176919,-0.008753423214866439,0.01671667655373719,0.9867404774858353
2017-10-19,1,0.0062867071042344,0.006985335071181226,-0.009836189518201581,0.016658140163819977,0.9870279991985923
2017-10-23,1,0.006217683496223814,0.006898494930740231,-0.009836189518201581,0.01813613082974373,0.9858381108313713
2017-10-25,1,0.005892991152190219,0.006544164074738026,-0.0063491400005423635,0.018629784691423904,0.9850779296415828
2017-10-27,1,0.005937872439258161,0.006662288769022432,-0.0063491400005423635,0.018629784691423904,0.983841744372471
2017-10-31,1,0.0065954224250916625,0.007306063912390494,-0.009836189518201581,0.016658140163819977,0.98208741401586
2017-11-02,1,0.007803845374069331,0.008692045409025467,-0.011238345791987561,0.016658140163819977,0.979823129563134
2017-11-06,1,0.005653106887112916,0.006201963531997601,-0.010550648462612788,0.01813613082974373,0.9781431554705728
2017-11-08,1,0.006281978838582919,0.006935851272020984,-0.010550648462612788,0.021090119823166827,0.977035526032898
2017-11-10,1,0.006916675855064594,0.007685955548707324,-0.009478839710046583,0.01813613082974373,0.9781528304841154
2017-11-14,1,0.007097349866295883,0.007861297811910563,-0.013889696741789616,0.012761170927333235,0.976986951926878
2017-11-16,1,0.007043686757826812,0.007782494998021297,-0.013761579376759541,0.009481110050179882,0.9779795421710883
2017-11-20,1,0.007569793378668396,0.008352184557096378,-0.013761579376759541,0.009481110050179882,0.9781602755212091
2017-11-22,1,0.006385531630694296,0.006881806338940767,-0.02732120637505122,0.009481110050179882,0.9772511600990799
