JNU-Tangyin/eata/results/Batch4_SP500/Batch4_SP500-MOS.csv
Date,Action,Predicted_Q25,Predicted_Q75,Actual_Q25,Actual_Q75,RL_Reward
2010-12-14,0,0.0,0.0,-0.0007798455963342853,0.021449835576259263,0.9856810486768056
2010-12-16,0,0.0,0.0,0.0004022687984459702,0.026002788530402353,0.984117567924354
2010-12-20,0,0.0,0.0,-0.0007798455963342853,0.026002788530402353,0.9791081899415257
2010-12-22,1,5.4703769827233665e-05,0.00029884619290368637,-0.0034070598646205492,0.025629203576918492,0.9780040174238559
2010-12-27,-1,-0.0006602490734527828,-6.353593743797141e-06,-0.005483291019134317,0.026046819162381045,0.9776045155654518
2010-12-29,0,0.0,0.0,-0.005483291019134317,0.026046819162381045,0.9775851819309692
2010-12-31,0,0.0,0.0,-0.005483291019134317,0.026046819162381045,0.9771484578494167
2011-01-04,0,0.0,0.0,-0.005153540673406091,0.02829219598456885,0.9759469622722431
2011-01-06,0,-4.5852640803833696e-05,0.00020483447822408293,-0.006423520004312481,0.026046819162381045,0.9773461842765513
2011-01-10,1,0.0012972973916294188,0.0013365272802384608,-0.0027647718190599076,0.026046819162381045,0.9779953223850458
2011-01-12,1,0.002901660343704062,0.003099055967116284,-0.0027647718190599076,0.01875069275307417,0.9801554873822846
2011-01-14,1,0.0032012636946654135,0.0034240642429352306,-0.0027647718190599076,0.01875069275307417,0.9803999579445541
2011-01-19,1,0.00035107462819934914,0.0006192951216981896,-0.0027647718190599076,0.01606400950715816,0.9826348789445916
2011-01-21,0,0.0,0.0,-0.0027647718190599076,0.01606400950715816,0.9825842395263419
2011-01-25,0,0.0,0.0,-0.003188098262695371,0.01581941859061528,0.9822863539130545
2011-01-27,1,0.0009599781316617938,0.001083717350474476,-0.003188098262695371,0.01581941859061528,0.9826644227856741
2011-01-31,1,0.0025363761340694794,0.00264573205487632,-0.006423520004312481,0.01506121312996098,0.9834389190043734
2011-02-02,1,0.0024607914729310866,0.0025324688102069705,-0.005986178926086131,0.01506121312996098,0.9842174442288644
2011-02-04,1,0.0017004328200016345,0.0017545468025750063,-0.007818195667131522,0.01506121312996098,0.98247300015369
2011-02-08,1,0.0026718841843624726,0.002787275048415483,-0.01864609257339867,0.014828934579147125,0.9808718481558147
2011-02-10,1,0.003178284761309698,0.0033584308878629072,-0.032723378499733995,0.014086055743098173,0.9788385455739119
2011-02-14,1,0.0034020957548710727,0.003576393063066183,-0.032723378499733995,0.011698601076961508,0.9799167542174649
2011-02-16,1,0.002656639759750452,0.0027751049405318807,-0.01864609257339867,0.011698601076961508,0.9816042572582744
2011-02-18,1,0.0008128736007639926,0.000951058545550342,-0.015035120002994002,0.014086055743098173,0.9823460406723786
2011-02-23,1,0.00032592610652958814,0.000608464447570774,-0.013507096813543071,0.013920962089027695,0.983549744590892
2011-02-25,1,0.0011010969854504623,0.0013068006521896195,-0.013507096813543071,0.013920962089027695,0.984539091142567
2011-03-01,1,0.0015859399191104904,0.0016652702127209664,-0.014164997408724202,0.014265973665427447,0.9839797722898993
2011-03-03,1,0.0025719646404165097,0.0026950001272118946,-0.015460347541383344,0.014265973665427447,0.9830610801688995
2011-03-07,1,0.0017969620991759145,0.0018883262358601847,-0.014164997408724202,0.017051823466035794,0.9832137692307708
2011-03-09,-1,-0.0007872959334571822,-0.0005062738853952168,-0.013648839326339519,0.017051823466035794,0.9842218771676668
2011-03-11,-1,-0.0014391860176170997,-0.0010894131762163542,-0.013648839326339519,0.017051823466035794,0.9857246095655099
2011-03-15,-1,-0.0011823555310930757,-0.0008988535190654704,-0.015460347541383344,0.017051823466035794,0.9848763872541969
2011-03-17,-1,-0.001717534866683946,-0.0013349253850847564,-0.017214674236620695,0.015488485807107292,0.9854768614187965
2011-03-21,1,7.827720632198876e-05,0.00012314490273154354,-0.01749933462003517,0.014229799299449147,0.9861969452169506
2011-03-23,-1,-0.0003367342206279611,-0.00020446045695353247,-0.01749933462003517,0.015488485807107292,0.9850524494274284
2011-03-25,1,0.0003926477507387225,0.00039353623861316796,-0.01749933462003517,0.013696498428939939,0.9847269856035307
2011-03-29,1,1.4792961874428133e-05,9.497599561588828e-05,-0.01749933462003517,0.010404734239229484,0.9852349514152874
2011-03-31,-1,-0.0006494362095287677,-0.0004962257991445921,-0.01749933462003517,0.010404734239229484,0.9845978627695211
2011-04-04,1,0.0014062895862987416,0.0015350056842084398,-0.019298318279593656,0.0013008143265291945,0.9838525074780253
2011-04-06,1,0.0008718383772470775,0.000988363933067558,-0.01832757094483501,8.663705967441605e-05,0.984323252160194
2011-04-08,-1,-0.0025971031198617576,-0.0020827933448143597,-0.01720540598236329,0.010196482543962833,0.9855564302609147
2011-04-12,0,0.0,0.0,-0.01720540598236329,0.010196482543962833,0.9836151109125275
2011-04-14,-1,-0.0029580584475105524,-0.00243175709631568,-0.01520705436578593,0.010196482543962833,0.9846218175366728
2011-04-18,-1,-0.004272002146545583,-0.0035614237147753897,-0.013142794631513414,0.012573081053889367,0.9848663565738466
2011-04-20,-1,-0.003078865764523443,-0.002525204268133503,-0.01520705436578593,0.010196482543962833,0.985609898077219
2011-04-25,-1,-0.0038867982807349617,-0.003171774037024006,-0.01520705436578593,0.010196482543962833,0.9853193022272825
2011-04-27,-1,-0.003938832452608978,-0.0031809362145549724,-0.01520705436578593,0.011119766637551766,0.9851637619485678
2011-04-29,-1,-0.0036301377366801083,-0.002973067638278556,-0.013632563062813003,0.012491262546839483,0.9861031267706347
2011-05-03,-1,-0.005776096599216211,-0.004849212940258656,-0.012723959076873693,0.012491262546839483,0.985898935648467
2011-05-05,-1,-0.0064989745239209815,-0.005485745107072905,-0.012723959076873693,0.012491262546839483,0.9851251940919037
2011-05-09,-1,-0.0065455718165655565,-0.005439563735342474,-0.013632563062813003,0.010919755571475016,0.985502646088317
2011-05-11,-1,-0.00817902224993386,-0.006900269290791014,-0.013632563062813003,0.011891229348609235,0.9835279108064602
2011-05-13,-1,-0.008415210072488973,-0.007145696165187676,-0.015688843118716395,0.011891229348609235,0.982483153570673
2011-05-17,0,0.0,0.0,-0.019217832315368936,0.011891229348609235,0.9813457942719928
2011-05-19,-1,-0.00760231245794454,-0.006536519737436066,-0.029675212488310905,0.011891229348609235,0.9792423971872839
2011-05-23,0,0.0,0.0,-0.029675212488310905,0.0139556507361968,0.9768034457359214
2011-05-25,0,0.0,0.0,-0.029675212488310905,0.0139556507361968,0.9771566554782422
2011-05-27,-1,-0.002531490441131035,-0.0021799863455172707,-0.029675212488310905,0.013390588059836651,0.9779629546868126
2011-06-01,0,0.0,0.0,-0.019217832315368936,0.020079842303584117,0.9769627597810986
2011-06-03,0,0.0,0.0,-0.019217832315368936,0.020079842303584117,0.9770839728110495
2011-06-07,0,0.0,0.0,-0.015688843118716395,0.020079842303584117,0.9776886563175604
2011-06-09,0,0.0,0.0,-0.011449818531270233,0.020079842303584117,0.9791157607257455
2011-06-13,0,0.0,0.0,-0.009955419814326256,0.020079842303584117,0.9783516962959672
2011-06-15,0,0.0,0.0,-0.009955419814326256,0.014668364802828082,0.9804330070359781
2011-06-17,0,0.0,0.0,-0.007523518114297594,0.014668364802828082,0.9837020349420074
2011-06-21,0,0.0,0.0,-0.007523518114297594,0.010921519747810273,0.9857232474003191
2011-06-23,0,0.0,0.0,-0.005077148062001841,0.0201689925119194,0.9835355866736571
2011-06-27,-1,-0.0033219188073407195,-0.00313079147824177,-0.007941150219282765,0.015969360358348037,0.9831049792969622
2011-06-29,-1,-0.0008947011910115943,-0.0007389892971512624,-0.009955419814326256,0.010921519747810273,0.985536885828514
2011-07-01,-1,-0.0008836662908031951,-0.0007242660035316354,-0.007956498863105389,0.010921519747810273,0.9854367983288344
2011-07-06,0,-8.203264111763251e-05,0.0002277225261004402,-0.010376617424953017,0.011817078470727528,0.9841275693742259
2011-07-08,1,0.001788564138770295,0.002410483234325372,-0.011838388000041573,0.009640266181728313,0.9814635030330661
2011-07-12,1,3.272799840217005e-05,0.000314808711878954,-0.011838388000041573,0.011817078470727528,0.9767982210966627
2011-07-14,-1,-0.0006833165038413822,-0.0005625101537668057,-0.014028982436689964,0.018656036527099802,0.9725895469926368
2011-07-18,-1,-0.0005427535455541727,-0.00040919109485201567,-0.014028982436689964,0.02449989253923148,0.9718014548008953
2011-07-20,1,0.001254659325441846,0.0016980840141017182,-0.015674895300926774,0.024081765020541924,0.9721664675852979
2011-07-22,1,0.0028742092586459675,0.003532255721865622,-0.02215673755893894,0.01131814746147691,0.9713556990611225
2011-07-26,1,0.002906915184704292,0.0035924453220776446,-0.02215673755893894,0.018665822369162463,0.9699554255312834
2011-07-28,1,0.001890719323727622,0.002384683264077078,-0.018355836049190676,0.024529250065419457,0.9694451976911409
2011-08-01,0,0.0,0.0,-0.018355836049190676,0.03253508231922996,0.9657577342852635
2011-08-03,1,0.000734042883538604,0.0009512814957776634,-0.018355836049190676,0.03253508231922996,0.9666637423526976
2011-08-05,-1,-0.0018526889725998359,-0.0017490467851097753,-0.014407928131010689,0.03253508231922996,0.9701901925073675
2011-08-09,-1,-0.0028324372276389087,-0.0026344082052785506,-0.010540531777846742,0.026977144226447022,0.9765686359605035
2011-08-11,-1,-0.0008316112310681578,-0.0007782790884370999,-0.009942416242574251,0.024529250065419457,0.9811323908094443
2011-08-15,1,0.00013550890362052596,0.00032212406448154263,-0.009942416242574251,0.014122470768962279,0.981800202609881
2011-08-17,1,0.0008409031869896032,0.001158812206975417,-0.009272353710428078,0.010584051890244212,0.9831459021954468
2011-08-19,-1,-0.0006921094439556797,-0.0005708195219074571,-0.007445174183468013,0.010584051890244212,0.9842859354632526
2011-08-23,0,0.0,0.0,-0.009942416242574251,0.008204057310250926,0.982911378124721
2011-08-25,1,0.0019527771446350773,0.002524585787840634,-0.029743479613662704,0.0074109209311018385,0.9801200580449314
2011-08-29,1,0.004037998294006832,0.004847992273487102,-0.029743479613662704,0.0074109209311018385,0.9817107660682425
2011-08-31,1,0.0031083111349629816,0.0037517798390638343,-0.03631454548811463,0.005922211673220051,0.9781828743820026
2011-09-02,1,0.0025399214084599405,0.003084004911743764,-0.03820381021683992,0.005922211673220051,0.9726946084271789
2011-09-07,1,0.0029043232343704192,0.003476998489134092,-0.03820381021683992,0.008250667632461569,0.9684277751793595
2011-09-09,0,0.0,0.0,-0.039713730430570277,0.012687400464073177,0.9669684495193321
2011-09-13,0,0.0,0.0,-0.039713730430570277,0.022862913272169112,0.9637114393232656
2011-09-15,1,0.003467117239997799,0.004095332568142096,-0.039713730430570277,0.022862913272169112,0.963551617607353
2011-09-19,0,0.0,0.0,-0.041538959623532094,0.02368515827410898,0.9624732686525036
2011-09-21,-1,-0.00027831100440795745,-0.00012574824136879725,-0.041538959623532094,0.02368515827410898,0.963400499126221
2011-09-23,-1,-0.004335454513508446,-0.003925604260293937,-0.03807733383043939,0.03560097262098384,0.9627244860983941
2011-09-27,-1,-0.0024028608228195427,-0.0021601037118733476,-0.03807733383043939,0.03560097262098384,0.9638281140811858
2011-09-29,-1,-0.005032238414213532,-0.0045337693034072455,-0.02637717233411234,0.04011665965751653,0.9642904544069639
2011-10-03,-1,-0.010156354820541016,-0.008991166298855657,-0.007491511844737437,0.04011665965751653,0.9654115548766725
2011-10-05,-1,-0.006251185542354474,-0.005517166647902682,-0.02637717233411234,0.029295643442565845,0.9698455255146319
2011-10-07,-1,-0.006641342668733062,-0.005902013339800607,-0.007491511844737437,0.029295643442565845,0.9705689060993515
2011-10-11,0,0.0,0.0,-0.007491511844737437,0.019266440783621927,0.9759897432386486
2011-10-13,0,0.0,0.0,-0.02637717233411234,0.019266440783621927,0.9736230108284569
2011-10-17,0,0.0,0.0,-0.018204293316225837,0.02042631821120661,0.9747914281256974
2011-10-19,-1,-0.0005967869450528857,-0.0005431960583833586,-0.019105831098408306,0.018630948578949178,0.9754191325945769
2011-10-21,1,0.00011690527419868019,0.0003044142048659943,-0.021878020412867637,0.014788893420943205,0.9746751200190279
2011-10-25,-1,-0.0014238813628802232,-0.0013338459933682327,-0.02215548283757526,0.014788893420943205,0.9747720572483342
2011-10-27,1,0.00016386690977133632,0.00020752165221802875,-0.027026847131674095,0.011547791416460042,0.9756936347878004
2011-10-31,-1,-0.0009458484737884387,-0.000914288858193293,-0.02215548283757526,0.01382270712105328,0.9761436979639376
2011-11-02,-1,-0.0027991566223699027,-0.0024767843306448814,-0.019105831098408306,0.014788893420943205,0.9763300781665373
2011-11-04,0,0.0,0.0,-0.02215548283757526,0.011760329969965726,0.9759645768782046
2011-11-08,0,0.0,0.0,-0.02215548283757526,0.010914649968790558,0.9754955119672438
2011-11-10,0,0.0,0.0,-0.02215548283757526,0.010914649968790558,0.9757020936509957
2011-11-14,0,0.0,0.0,-0.02215548283757526,0.00444710962210859,0.9768228186825385
2011-11-16,0,0.0,0.0,-0.025452693775993497,0.00444710962210859,0.9766288161085307
2011-11-18,0,0.0,0.0,-0.01838577402044421,0.00444710962210859,0.9804145813052207
2011-11-22,0,0.0,0.0,-0.015655321412396866,0.007302096508656374,0.9792216346961242
2011-11-25,0,0.0,0.0,-0.012939049452572977,0.020986260758704797,0.9792576120230668
2011-11-29,-1,-0.004696201754849822,-0.004521779943367819,-0.012939049452572977,0.016285844887068406,0.9791749421033982
2011-12-01,-1,-0.0034687927135933086,-0.0031434346064066793,-0.012939049452572977,0.007095326558220908,0.9819163520588085
2011-12-05,-1,-0.004039075844946446,-0.003641537260792936,-0.010681476552071285,0.016285844887068406,0.9811412801857131
2011-12-07,-1,-0.0022595032364939632,-0.002090421003033056,-0.011896432457963128,0.016285844887068406,0.9817568953598383
2011-12-09,-1,-0.003033761584128901,-0.002836996300233213,-0.010122724806250129,0.01745973084626558,0.9816367128584153
2011-12-13,-1,-0.0023494098299264923,-0.0023367520749336362,-0.006179751755354896,0.01745973084626558,0.9819139141545961
2011-12-15,-1,-0.003664810379542753,-0.0034919211065817727,-0.0030944980590128174,0.01745973084626558,0.982561571693871
2011-12-19,0,0.0,0.0,-0.0055208359023005745,0.016839420994959182,0.984273050178583
2011-12-21,0,0.0,0.0,-0.0055208359023005745,0.016839420994959182,0.9858153080423805
2011-12-23,0,0.0,0.0,-0.0055208359023005745,0.012881210694981389,0.9871966832279111
2011-12-28,0,0.0,0.0,-0.0055208359023005745,0.019106100062770727,0.9875952631161581
2011-12-30,-1,-0.0032057980824890283,-0.0029041430081808606,-0.0055208359023005745,0.019106100062770727,0.9869706406546248
2012-01-04,-1,-0.0005377175745767463,-0.00041650148003014346,-0.005516153220425964,0.018309341727500397,0.9885744630283756
2012-01-06,0,0.0,0.0,-0.005089938133613489,0.012617220039576521,0.9898305965619677
2012-01-10,0,0.0,0.0,-0.005516153220425964,0.006641716060822356,0.9908708872073941
2012-01-12,0,0.0,0.0,-0.005516153220425964,0.006641716060822356,0.989857467185452
2012-01-17,0,0.0,0.0,-0.005516153220425964,0.006879865676110188,0.989792771315821
2012-01-19,0,0.0,0.0,-0.0043053865421502965,0.011782963496456182,0.9904403158025629
2012-01-23,0,0.0,0.0,-0.0043053865421502965,0.011782963496456182,0.990306948306007
2012-01-25,0,0.0,0.0,-0.0043053865421502965,0.011782963496456182,0.9895879201596116
2012-01-27,1,0.004878388506032242,0.006224256492796761,-0.00417056067393917,0.006879865676110188,0.9902372883925413
2012-01-31,1,0.004897897670033661,0.006272524472171403,-0.0035482657143219884,0.006879865676110188,0.9897366484004856
2012-02-02,1,0.0054787966203446925,0.006946944494293249,-0.00417056067393917,0.005019807417408297,0.9893188219117408
2012-02-06,1,0.005451617044261763,0.007031664631526646,-0.010992048985880593,0.004923797693818972,0.9869869127099696
2012-02-08,1,0.005439357437966148,0.007063002613699613,-0.005592511744892208,0.006646666022000961,0.9878059156526844
2012-02-10,1,0.004166297640634258,0.005589487337157704,-0.005592511744892208,0.006646666022000961,0.9894680243014932
2012-02-14,1,0.0035194533577534272,0.004680605084825688,-0.009283356582171965,0.006669188028568964,0.9891419461690121
2012-02-16,1,0.0025069970010575702,0.0033425465316817937,-0.009283356582171965,0.006888938477661689,0.987930476953213
2012-02-21,1,0.004118778626224303,0.0052507610337771266,-0.009283356582171965,0.0061856775152371035,0.9883033656359264
2012-02-23,0,0.0,0.0,-0.011753805157799838,0.004923797693818972,0.9882875224816566
2012-02-27,0,0.0,0.0,-0.011753805157799838,0.010619748425257335,0.9867101623510028
2012-02-29,1,0.0009991848394410234,0.0010682811668940046,-0.0101787516821568,0.010619748425257335,0.9876746395250876
2012-03-02,1,0.0001160196803343548,0.00021690411394098796,-0.011753805157799838,0.010619748425257335,0.9860383678983548
2012-03-06,1,0.0006193303443599475,0.0007298391217726671,-0.0101787516821568,0.010619748425257335,0.9871556679342004
2012-03-08,1,0.0006643736353012591,0.0007611646799595244,-0.012436004593720414,0.007633723698667089,0.9861344126850439
2012-03-12,-1,-5.092662503971345e-05,-8.024251241879463e-06,-0.017094741100694123,0.007633723698667089,0.9841575559638005
2012-03-14,-1,-0.00038777638324497134,-0.00028120423130042983,-0.017094741100694123,0.007633723698667089,0.9841759688435763
2012-03-16,0,0.0,0.0,-0.018467165280329198,0.001989601790622926,0.985265190509504
2012-03-20,0,0.0,0.0,-0.018467165280329198,0.001989601790622926,0.9847499985104082
2012-03-22,0,0.0,0.0,-0.016802219630356767,0.007269080117209521,0.9855696488537998
2012-03-26,0,0.0,0.0,-0.017416701623331105,0.0027240413830100924,0.9866760013390116
2012-03-28,0,0.0,0.0,-0.017416701623331105,0.005871663403089605,0.9838975819764888
2012-03-30,0,0.0,0.0,-0.01654957223480319,0.006847388697883714,0.9858762197553443
2012-04-03,1,0.0005472637479918025,0.0008900727673407818,-0.01654957223480319,0.005863192154402443,0.9863179496844735
2012-04-05,-1,-0.0009956674720029324,-0.0009291137269719543,-0.01218576964613688,0.005863192154402443,0.9866068172471227
2012-04-10,-1,-0.002435382754364057,-0.0023385012296627604,-0.008689781966603676,0.005863192154402443,0.9886419598116073
2012-04-12,-1,-0.0020231084254142737,-0.0018967759060731777,-0.010875156839737435,0.0052182692045758565,0.988337262142005
2012-04-16,-1,-0.0021921322804075026,-0.0018855782521395017,-0.010875156839737435,0.0052182692045758565,0.988353146061594
2012-04-18,-1,-0.002022209176568625,-0.001705099711087213,-0.012738536424423767,0.004810771071525309,0.9882789107567868
2012-04-20,-1,-0.002897292436145468,-0.002372532290423896,-0.015683016075311244,0.002517168408683195,0.9874265081447798
2012-04-24,-1,-0.003539262440635076,-0.0028950275610992275,-0.01583712272303983,0.004810771071525309,0.985997386500187
2012-04-26,-1,-0.0019227907070698618,-0.0015145229182374513,-0.01583712272303983,0.005543510969507226,0.9868275318984182
2012-04-30,-1,-0.0022211088385238565,-0.001748801017975049,-0.01583712272303983,0.005746138206094278,0.9861050581732252
2012-05-02,-1,-0.0015913949919112314,-0.001263286261000432,-0.01796402399709911,0.0054452004680088035,0.9848326224653731
2012-05-04,-1,-0.003711365893551601,-0.003056052688228221,-0.01796402399709911,0.0054452004680088035,0.9851378328122598
2012-05-08,-1,-0.004355164690300766,-0.0035707097732916994,-0.01796402399709911,0.017628737813249785,0.9832301688395213
2012-05-10,-1,-0.006235044028118017,-0.005160525560684023,-0.01583712272303983,0.017628737813249785,0.98377545825505
2012-05-14,-1,-0.007186270288333598,-0.005981022430797445,-0.016020665901447066,0.019185721672052725,0.9822147271811481
2012-05-16,-1,-0.007024156660639477,-0.005924689833363522,-0.019595850388461344,0.019185721672052725,0.9815813031247067
2012-05-18,-1,-0.005952636860143832,-0.005071196776139637,-0.010338946385977946,0.021940279358482893,0.9805528612999017
2012-05-22,-1,-0.005015967734088422,-0.004228982372369556,-0.006365895438568236,0.021940279358482893,0.9809522468148674
2012-05-24,-1,-0.004044033768560359,-0.0034167851144414744,-0.011420143242118479,0.019185721672052725,0.9810500636164166
2012-05-29,-1,-0.003195198196460953,-0.002700437525218459,-0.011420143242118479,0.020411473598026822,0.9794129889859822
2012-05-31,-1,-0.004384299043174262,-0.0037557970655554152,-0.006350600092536848,0.020411473598026822,0.97963634310038
2012-06-04,-1,-0.004885842405512566,-0.004250292545173352,0.00022366585059971507,0.020411473598026822,0.9799189138880963
2012-06-06,-1,-0.0026228235272405045,-0.002275650791539856,0.00022366585059971507,0.014990010397332703,0.9821938704125469
2012-06-08,-1,-0.0014329589102921412,-0.0012576919505769045,-0.0032397953124634095,0.013450723990380763,0.9832243487090508
2012-06-12,-1,-0.0011828215773007657,-0.0010065555248274529,-0.0032397953124634095,0.013139653141201302,0.9845148692976547
2012-06-14,-1,-0.001847129104356421,-0.0015663008377290813,-0.0032397953124634095,0.013139653141201302,0.984186415372046
2012-06-18,1,0.0005118474537550799,0.0006120712264465536,-0.0032397953124634095,0.013139653141201302,0.9847792921087348
2012-06-20,1,0.0012580994768981854,0.0014858584011313973,-0.004036005450364326,0.010994499588342673,0.9868120681285744
2012-06-22,1,5.375448429735625e-05,0.00012035207747951597,-0.0021477452810109003,0.010994499588342673,0.9881204727805385
2012-06-26,1,0.0015922820672118923,0.0019055488532801579,-0.004036005450364326,0.008616324655727462,0.9901567296658941
2012-06-28,1,0.0022614396625321555,0.002676017983505934,-0.004036005450364326,0.010284721552405545,0.9898373092381446
2012-07-02,1,0.002306204483105305,0.002685478031486414,-0.007131330442334374,0.009238600179864432,0.98959036505071
2012-07-05,0,0.0,0.0,-0.009140562703454336,0.008616324655727462,0.9897786122207857
2012-07-09,0,0.0,0.0,-0.007131330442334374,0.008616324655727462,0.9900826060466678
2012-07-11,1,0.002824768521672306,0.0032670807627539176,-0.0047023820262887895,0.008616324655727462,0.9901039224327249
2012-07-13,1,0.001681885849087216,0.0021950745737615578,-0.002835178526977556,0.00867050138568583,0.9910596293382283
2012-07-17,1,0.003689773578871372,0.004480401606000699,-0.0047023820262887895,0.007107580651790162,0.992091770752508
2012-07-19,1,0.003382087696301026,0.004128220372686503,-0.002835178526977556,0.00980900681395185,0.991784427619399
2012-07-23,0,0.0,0.0,-0.0047023820262887895,0.00980900681395185,0.991414039581188
2012-07-25,0,0.0,0.0,-0.0047023820262887895,0.00980900681395185,0.9914430371627356
2012-07-27,0,0.0,0.0,-0.00680586677035596,0.0073116974921285235,0.9911939122783788
2012-07-31,0,0.0,0.0,-0.006661029234544596,0.0073116974921285235,0.9911985739161965
2012-08-02,0,0.0,0.0,-0.006661029234544596,0.00969072835091323,0.9903637835642316
2012-08-06,0,0.0,0.0,-0.008920976722696122,0.011397839042361396,0.9887694729364411
2012-08-08,0,0.0,0.0,-0.008920976722696122,0.014039695371228606,0.985915792417224
2012-08-10,0,0.0,0.0,-0.013118472404070398,0.014039695371228606,0.985771438240131
2012-08-14,0,0.0,0.0,-0.009153082348991624,0.014039695371228606,0.9860989289219575
2012-08-16,1,0.0047664558709142844,0.005525969001316921,-0.009153082348991624,0.011319263976628666,0.985626768381179
2012-08-20,1,0.003990821708653768,0.00464146266552436,-0.01247935790295735,0.011319263976628666,0.9850713828380274
2012-08-22,1,0.003605406495311181,0.004117972427424996,-0.01247935790295735,0.015954489332855554,0.9852826182516613
2012-08-24,1,0.0026821839982738424,0.003066414687817383,-0.008940044181953943,0.015954489332855554,0.9862099088740338
2012-08-28,1,0.0017460685198697184,0.0019584119991419915,-0.01247935790295735,0.015954489332855554,0.9846936358647196
2012-08-30,1,0.000993848244013535,0.0010264513421699346,-0.009494899386690958,0.011876626690430308,0.9859794004182831
2012-09-04,1,0.0011844730263004025,0.0012809750145187006,-0.009494899386690958,0.007880964457966303,0.9856770869403056
2012-09-06,1,0.0029330728665330663,0.003212035801032544,-0.012446221151583508,0.005166294998156003,0.9877778147729974
2012-09-10,1,0.002159063326990903,0.0023402936776010332,-0.009494899386690958,0.005166294998156003,0.9884098817426172
2012-09-12,1,0.0020633558827585267,0.002251519487715555,-0.009494899386690958,0.00453853943021852,0.9886328168424425
2012-09-14,1,0.0020640000303899743,0.0022241706027659215,-0.012446221151583508,0.00453853943021852,0.9877149037334354
2012-09-18,1,0.002400671198912091,0.0026629645168086617,-0.007525958523193098,0.006743330186271557,0.9885884749889599
2012-09-20,0,0.0,0.0,-0.007525958523193098,0.004605162440764974,0.9895739594203716
2012-09-24,1,0.002288417162944829,0.0025246624553893187,-0.00993763899163316,0.00534889479686954,0.9886354815779593
2012-09-26,0,0.0,0.0,-0.008601767309887197,0.00534889479686954,0.9902123449952452
2012-09-28,0,0.0,0.0,-0.00991100184078968,0.004073727633751181,0.9903010924340492
2012-10-02,-1,-0.00013986239038519442,-1.8219203944597792e-05,-0.008458927452526275,0.004073727633751181,0.9914658237406256
2012-10-04,0,0.0,0.0,-0.008458927452526275,0.00528967239241136,0.9911515507593723
2012-10-08,0,0.0,0.0,-0.00991100184078968,0.007323731028276655,0.9892014793469761
2012-10-10,-1,-0.0033765996892181275,-0.0027243348425936625,-0.013224367504474512,0.007323731028276655,0.9890584277080758
2012-10-12,-1,-0.003690108692245394,-0.003010503630676612,-0.00991100184078968,0.00528967239241136,0.9904691667794628
2012-10-16,-1,-0.002468237303376555,-0.002001551714629246,-0.013224367504474512,0.00318287532043589,0.9893642633327253
2012-10-18,-1,-0.002331113158277198,-0.0018904851755750624,-0.013224367504474512,0.00528967239241136,0.987794131909981
2012-10-22,-1,-0.0031044107243352083,-0.002528461723569994,-0.01251961445491288,0.007065570629297994,0.9870492634506443
2012-10-24,-1,-0.004566711990603272,-0.003769129613925346,-0.009676084157602469,0.012747728612976192,0.9864551951513789
2012-10-26,-1,-0.003661118106887056,-0.0030461739633030303,-0.009455397946666671,0.012747728612976192,0.9866725969153252
2012-11-01,-1,-0.0031613999033957333,-0.0026223429157892705,-0.009455397946666671,0.013347087772368744,0.986754921387246
2012-11-05,-1,-0.00356974426863804,-0.002983197932233886,-0.009455397946666671,0.013347087772368744,0.9866249063341636
2012-11-07,-1,-0.004506959865223181,-0.0037655903467568703,-0.007707058971864165,0.011988634621059409,0.9876374994736112
2012-11-09,-1,-0.0038672525688687102,-0.0032784196098523694,-0.0035334061739177823,0.012727650963287361,0.9874974881251299
2012-11-13,-1,-0.004038263581654577,-0.0034575206294793076,-0.0009298545508097001,0.015426885786049536,0.9855654822098472
2012-11-15,-1,-0.005168250732185142,-0.004430764749066568,-0.0013190973384347424,0.015426885786049536,0.9858543148241179
2012-11-19,-1,-0.0025712746272668575,-0.0022147997174396476,-0.0013190973384347424,0.012727650963287361,0.9890967473966694
2012-11-21,-1,-0.0024717726377554735,-0.0021494048327833875,-0.0013190973384347424,0.011988634621059409,0.9900608739947989
2012-11-26,-1,-0.0013502363417385271,-0.001159055723596604,-0.0016845622268664793,0.009211838084867374,0.9921099237087675
2012-11-28,-1,-0.0010010575164879308,-0.0008784295915873037,-0.001502195259928265,0.009211838084867374,0.9916235215120265
2012-11-30,-1,-0.00115808309861247,-0.0009946543796831263,-0.00257097123576371,0.009211838084867374,0.9904498803470353
2012-12-04,-1,-0.001580608560716003,-0.0013855029581863341,-0.00257097123576371,0.011616457483489459,0.9901723513084381
2012-12-06,-1,-0.0011823373605408553,-0.0010177285489289553,-0.00257097123576371,0.012286848319215879,0.989300977274225
2012-12-10,1,0.0002859265150821956,0.0003873891371245614,-0.003708701052906045,0.012364743935462247,0.9893784363491677
2012-12-12,1,0.0005341271557620667,0.0006323810809348262,-0.003708701052906045,0.007644397981222093,0.9908715898255555
2012-12-14,1,0.0002913476330687236,0.00037241663980887654,-0.003532040071718174,0.007644397981222093,0.9914402777869183
2012-12-18,1,0.0005314183724714891,0.0006394725665027634,-0.003708701052906045,0.006982972894839974,0.9913519859322162
2012-12-20,1,0.0010306016827080675,0.0012362884776076508,-0.003532040071718174,0.006895370094177155,0.9917921827637329
2012-12-24,1,0.0006356234566061577,0.0007725409281384649,-0.0036584241556105197,0.009292180375862573,0.9905064548629203
2012-12-27,1,0.0006823341801878981,0.0008001985193673159,-0.004404128943637193,0.015172658931635337,0.988394067710093
2012-12-31,1,0.0012642053381521773,0.0014687163001730005,-0.005417869098104035,0.008814778614040331,0.9895773365469208
2013-01-03,1,0.0009910085103748485,0.001180741537311018,-0.004404128943637193,0.008562383703040827,0.9902656060732145
2013-01-07,1,0.0020234080631206354,0.0023516779470044817,-0.005417869098104035,0.006486094568476781,0.9907789271951093
2013-01-09,0,0.0,0.0,-0.005417869098104035,0.004262537207895845,0.9915834573922101
2013-01-11,0,0.0,0.0,-0.005417869098104035,0.0036428989180823704,0.9915053672591496
2013-01-15,0,0.0,0.0,-0.005417869098104035,0.005977512089422618,0.9908461607477427
2013-01-17,0,0.0,0.0,-0.004514160745766323,0.005977512089422618,0.9910929140157055
2013-01-22,0,0.0,0.0,-0.007104282987255051,0.004374271670987315,0.9886778911875725
2013-01-24,0,0.0,0.0,-0.011708185074964888,0.0034011849960962834,0.9892682789433089
2013-01-28,0,0.0,0.0,-0.011708185074964888,0.0033107787511582687,0.9904760724188627
2013-01-30,0,0.0,0.0,-0.006272597775829246,0.004374271670987315,0.9894411047475029
2013-02-01,0,0.0,0.0,-0.006272597775829246,0.0036529421393778523,0.9899776833220705
2013-02-05,0,0.0,0.0,-0.004301845579262229,0.0036529421393778523,0.9908076532758122
2013-02-07,1,0.003323884010316737,0.003870869240808734,-0.004301845579262229,0.006013445865423489,0.9892107369935689
2013-02-11,1,0.003653963757522656,0.004265395133785262,-0.003778671604217617,0.008046622892608726,0.9885791973237685
2013-02-13,1,0.003910687999557308,0.004512923315568053,-0.003778671604217617,0.007507783861424502,0.9883728460597639
2013-02-15,1,0.004165895319180888,0.004844933523526017,-0.006272597775829246,0.007507783861424502,0.9879292934251137
2013-02-20,1,0.002069717864738717,0.0024246639207116533,-0.003182124694927395,0.007507783861424502,0.9906407218006883
2013-02-22,1,0.0014384372123440632,0.0015994368027454206,-0.0034302924436275684,0.007507783861424502,0.9900192417423966
2013-02-26,1,0.0010343939615204728,0.0011623740201752689,-0.005755164424587223,0.007507783861424502,0.9903952500969282
2013-02-28,1,0.0014993341915074884,0.0016511636355110316,-0.005755164424587223,0.00722587279201173,0.9912898959906835
2013-03-04,1,0.001245384682110019,0.0013469261937829008,-0.007280391249670632,0.00722587279201173,0.9901806201219717
2013-03-06,1,0.0007400622947886493,0.00075199682451963,-0.007280391249670632,0.010589204016743667,0.9894165036586795
2013-03-08,1,0.0017002770052634022,0.0018289990899533768,-0.007280391249670632,0.00694560501223708,0.9904588265840294
2013-03-12,1,0.002228874644628271,0.0024025634861572142,-0.007280391249670632,0.006278298851386258,0.990726375320069
2013-03-14,1,0.002566114755878284,0.0027945677018266887,-0.009631680186611978,0.006278298851386258,0.9896055106229452
2013-03-18,1,0.002249388769774152,0.002436417686873153,-0.009631680186611978,0.00840800053329317,0.9883533204973833
2013-03-20,1,0.001616863668346034,0.0017119903860842705,-0.010003524798595108,0.00840800053329317,0.9884652027641666
2013-03-22,1,0.00014708485444076404,0.00026768419885112694,-0.007385183826392166,0.009631380837139504,0.9894600535192833
2013-03-26,-1,-0.0006630025092295573,-0.00043572707063544173,-0.004257889465861405,0.01243520078405953,0.9888075892331147
2013-03-28,1,0.0002851783866381172,0.00039495564539001357,-0.00694763366643112,0.01243520078405953,0.9882195511261562
2013-04-02,-1,-0.0012118968798499694,-0.0009066139570452334,-0.0038006780653130766,0.013711498898608216,0.987459702391196
2013-04-04,0,0.0,0.0,-0.005575999464786135,0.01243520078405953,0.9875060703381648
2013-04-08,0,0.0,0.0,-0.005575999464786135,0.01243520078405953,0.9873535767797182
2013-04-10,0,0.0,0.0,-0.005575999464786135,0.013711498898608216,0.9858151620138926
2013-04-12,0,0.0,0.0,-0.007558495729277912,0.013711498898608216,0.9866009827943457
2013-04-16,-1,-0.0033374314005000915,-0.002665482162834455,-0.007558495729277912,0.013711498898608216,0.9864847096255628
2013-04-18,-1,-0.0033559580631125924,-0.002716360900745168,-0.006302152616910821,0.013711498898608216,0.9868554730816346
2013-04-22,-1,-0.0021964839686652747,-0.0017408517138440252,-0.006302152616910821,0.01008605198896831,0.9872984009867622
2013-04-24,-1,-0.001036404085093534,-0.0007088953459013274,-0.010565488192452854,0.006340936348341378,0.9873106114861386
2013-04-26,-1,-0.0013910434198279597,-0.001038803323789428,-0.007558495729277912,0.006340936348341378,0.9880299762971925
2013-04-30,0,-0.00015831326807654662,9.237326645843342e-05,-0.007558495729277912,0.009621283568843194,0.9880291806550215
2013-05-02,-1,-0.0005514832882878906,-0.0002727833882885703,-0.007558495729277912,0.009621283568843194,0.9883212359200034
2013-05-06,0,-1.961110218257089e-05,0.0001693757225883954,-0.007558495729277912,0.012596023015659256,0.9879972593314241
2013-05-08,1,0.0021353223922162753,0.002272764694707757,-0.010658598032302891,0.006340936348341378,0.9885679204179589
2013-05-10,1,0.0012341598442378668,0.0012565505766510365,-0.009042432571210793,0.007428466137068058,0.9889690767383185
2013-05-14,1,0.00016904635378596874,0.0003182535891989938,-0.011710262268611552,0.007428466137068058,0.9886361117757169
2013-05-16,-1,-0.0003617396809964527,-0.00015010925417457315,-0.014812174686608759,0.009621283568843194,0.9873094049291544
2013-05-20,-1,-0.0005660849111582414,-0.00032054289787828425,-0.014812174686608759,0.012497742351327598,0.9870552451489093
2013-05-22,-1,-0.0017535179873750114,-0.0013796169120161015,-0.012860315362675097,0.012497742351327598,0.9868155466906775
2013-05-24,-1,-0.0009159076436486633,-0.0006910076414364107,-0.015094421418586386,0.008510877264890996,0.9862798492433712
2013-05-29,0,-2.517415827619422e-05,8.283576768659877e-05,-0.017557115854777452,0.0064155778216170144,0.9863500479680973
2013-05-31,-1,-0.00015586660554383426,-8.835591970336173e-05,-0.01846814313137024,0.0064155778216170144,0.9862713779133191
2013-06-04,0,0.0,0.0,-0.01846814313137024,0.003663770007615307,0.9864638294646805
2013-06-06,0,0.0,0.0,-0.015204012161378747,0.0043587064963748045,0.9878009948562886
2013-06-10,-1,-0.0003627146785566468,-0.0002883062053806417,-0.015204012161378747,0.00792791010791832,0.9860798224649745
2013-06-12,-1,-0.002032166309890743,-0.0017537284997848311,-0.014496943494577355,0.013047874123794913,0.9863361878889406
2013-06-14,-1,-0.0014523740859183898,-0.0012624760175141232,-0.013658862722461241,0.00792791010791832,0.9874747277492664
2013-06-18,-1,-0.00018469147108216106,-0.0001789636043434908,-0.015764682082750357,0.0030426970229756344,0.9865731211999884
2013-06-20,-1,-0.0010811047328167995,-0.0010057770085938245,-0.013658862722461241,0.0030426970229756344,0.9881097362082675
2013-06-24,-1,-0.002332746252923257,-0.0020817974269470513,-0.009570231985326066,0.0030426970229756344,0.9889998530354457
2013-06-26,-1,-0.0020059171270112555,-0.0018276116963362819,-0.009570231985326066,0.0027814980374365,0.9894037486064096
2013-06-28,0,0.0,0.0,-0.007090701431272168,0.0030426970229756344,0.9897933496066263
2013-07-02,0,0.0,0.0,-0.013658862722461241,0.0030131435336896656,0.9824557719165838
2013-07-05,0,0.0,0.0,-0.01629788583161168,0.004929896851062145,0.9807102041133876
2013-07-09,0,0.0,0.0,-0.018759472102643084,0.002554269833807356,0.9816812605058772
2013-07-11,0,0.0,0.0,-0.018759472102643084,0.004884976551626006,0.9802170155413982
2013-07-15,0,0.0,0.0,-0.020386529117242022,0.011269885882916632,0.978294161428852
2013-07-17,-1,-0.002896678611589252,-0.002529815864578336,-0.018759472102643084,0.011917226095716599,0.9789919765399315
2013-07-19,-1,-0.003416077162432359,-0.002945596368847542,-0.020386529117242022,0.011917226095716599,0.9772334624181341
2013-07-23,-1,-0.003119656271835536,-0.002749382089258584,-0.020386529117242022,0.011917226095716599,0.9766672459588555
2013-07-25,-1,-0.0037347706415720924,-0.0032796641043111824,-0.02169478941128078,0.011917226095716599,0.9762081471609477
2013-07-29,-1,-0.0031477416738978975,-0.0027562971830911087,-0.02169478941128078,0.013724054591619569,0.9756141999421931
2013-07-31,-1,-0.0004435137202237144,-0.0004204058221045882,-0.019127298141285286,0.013724054591619569,0.9814429975402021
2013-08-02,0,-6.304716667068517e-06,9.029162681238297e-05,-0.01805589916747787,0.012136748033066283,0.983283675598314
2013-08-06,-1,-0.0011138362285222608,-0.0011014696987670669,-0.01613521402685758,0.013724054591619569,0.9826249640302621
2013-08-08,1,0.0019426464856126802,0.0023047418150525653,-0.01613521402685758,0.01115289925561702,0.9861190153557412
2013-08-12,1,0.001939204467278276,0.0022868900225185987,-0.012164995786036458,0.012136748033066283,0.98511582684391
2013-08-14,1,0.0011180376003815263,0.0012963187589127333,-0.012475458132039449,0.01115289925561702,0.9849513197135096
2013-08-16,1,0.00014955040330188644,0.00015011831214370737,-0.011343677009045962,0.012405838585494598,0.9845589706064342
2013-08-20,-1,-0.0002743184440807751,-0.00026753287788883813,-0.011302021903285595,0.012405838585494598,0.9847784508560107
2013-08-22,-1,-0.0022213330406120296,-0.001980718094494477,-0.009936634223810885,0.012405838585494598,0.9856326015212551
2013-08-26,-1,-0.0007492308557035582,-0.0007160746100452102,-0.009936634223810885,0.003988417921954903,0.9867697274838625
2013-08-28,-1,-0.0014465418430198492,-0.0013285111627376746,-0.008873103509991546,0.0033501779400889747,0.987886761956676
2013-08-30,-1,-0.0006944128054456897,-0.0006757020160234111,-0.009936634223810885,0.0033501779400889747,0.9869087794886351
2013-09-04,1,0.0005757355850663018,0.0007076050848267615,-0.009472194007628503,0.00918740051202738,0.9857299480456155
2013-09-06,-1,-0.00054469302048833,-0.00047707405319055316,-0.009472194007628503,0.01921907088590396,0.9849459526842211
2013-09-10,1,0.00044444838748292667,0.0004582142245705276,-0.009670084605386951,0.0033501779400889747,0.9878370371797075
2013-09-12,1,0.00012166530711864418,0.00012436876526109088,-0.008841384854219016,0.009183465714260913,0.9882943368477816
2013-09-16,1,0.002781860895026117,0.0032193672418042987,-0.008841384854219016,0.005841046336992455,0.9890102253229792
2013-09-18,1,0.0005402216760477726,0.0006123616542659547,-0.008554875741964528,0.009183465714260913,0.9896552935359375
2013-09-20,1,0.0012427591445589798,0.001467688120784762,-0.00816906173434029,0.010021050955642975,0.9894469139737239
2013-09-24,1,0.0006812053403666182,0.0008066853677480186,-0.007394637630363809,0.010021050955642975,0.9896637006989821
2013-09-26,1,0.0018757896613632314,0.002196102746890307,-0.007623271889479074,0.010021050955642975,0.9892570498458338
2013-09-30,1,0.002020157824018964,0.002462558951332224,-0.004094031332661415,0.012414208537679081,0.9899360212981085
2013-10-02,1,0.0037088313371928376,0.004333605862843197,-0.004947040602691548,0.009183465714260913,0.9918491660117104
2013-10-04,1,0.0032298164529611876,0.003750339312561415,-0.004947040602691548,0.007220439515921975,0.9919950260618509
2013-10-08,1,0.002491868232642102,0.0028967466075691447,-0.0042207120833538565,0.009183465714260913,0.991705401648399
2013-10-10,1,0.003144342807630878,0.003645569780416856,-0.0042207120833538565,0.008015620708680206,0.9916236174533049
2013-10-14,1,0.0020849318997473226,0.0023744170008076102,-0.0016236430142794226,0.012414208537679081,0.991712098821421
2013-10-16,1,0.002550833973666209,0.002915410356178561,-0.002677097554679732,0.008086840785377367,0.9921711942826344
2013-10-18,1,0.0034525318454812406,0.003996952596644158,-0.002677097554679732,0.008220060381100725,0.9918292806772169
2013-10-22,1,0.0029963781490530777,0.003443088176498344,-0.007155347520936129,0.008220060381100725,0.9905617569049707
2013-10-24,1,0.003032708838114781,0.003522730728895013,-0.010537558684802242,0.008220060381100725,0.9901360661890418
2013-10-28,1,0.0033933332353099574,0.003872228872562184,-0.010537558684802242,0.008176167928233048,0.9893613112451437
2013-10-30,1,0.003065559948056882,0.0034891689870796888,-0.010537558684802242,0.008176167928233048,0.9892830681312836
2013-11-01,1,0.0024704454665019277,0.0027153233965628893,-0.00919195561678525,0.013287052168680496,0.9889616906079453
2013-11-05,1,0.002563749393117989,0.0028325065857747658,-0.00919195561678525,0.014490573820578303,0.9876198424545038
2013-11-07,1,0.0037353920085692097,0.004203040824140034,-0.010537558684802242,0.00743134681024398,0.9864209467780874
2013-11-11,1,0.0028090847718707343,0.0031069735280280213,-0.013598715302270517,0.00031469024264504843,0.985940517498226
2013-11-13,1,0.002479726312877478,0.0026960169270939492,-0.014818843164976846,-0.001166105287981925,0.9844356007327186
2013-11-15,1,0.0032932266336553996,0.0035875670201402803,-0.014818843164976846,-0.00033320178299329334,0.9848232358770742
2013-11-19,1,0.0013194204760851706,0.0013217627693409637,-0.014818843164976846,0.004542909329711943,0.9866031175113232
2013-11-21,0,-5.242085794127083e-05,0.00012650949756961237,-0.01283571636546536,0.006875480489891734,0.9872216131769727
2013-11-25,1,0.0009114659913037642,0.0009553951787161371,-0.01283571636546536,0.006875480489891734,0.9875449343418666
2013-11-27,1,0.0015047919352722964,0.0015863843236723378,-0.01283571636546536,0.006875480489891734,0.9877514803543369
2013-12-02,1,0.0017768424870542288,0.0018927517801077647,-0.01283571636546536,0.005608096364340995,0.9890057388630421
2013-12-04,1,0.0020644402225819918,0.002240239508614472,-0.007384941341482747,0.005398545281450615,0.9910883053896766
2013-12-06,1,0.0021259677880983707,0.002244742219751534,-0.005431812938664722,0.005398545281450615,0.9917234887420701
2013-12-10,1,0.000650040496156537,0.0007441763764900271,-0.005037974556625398,0.005608096364340995,0.9918773669537255
2013-12-12,-1,-0.0012764574033866706,-0.0009199113703176156,-0.0039471900869872826,0.00665619163549757,0.9924608329701581
2013-12-16,-1,-0.0014848233587797662,-0.0010520066861203496,-0.0039471900869872826,0.010668674157788504,0.9894625196872785
2013-12-18,-1,-0.001526928765907652,-0.001154353141432293,-0.005037974556625398,0.010010807594606014,0.9895443249912201
2013-12-20,-1,-0.0003431711309969651,-0.00012874808537301447,-0.005431812938664722,0.0064242538834896265,0.990179014134063
2013-12-24,-1,-0.000386789270810366,-0.00011986913524997484,-0.00929025501869149,0.005398545281450615,0.9888126739486923
2013-12-27,-1,-0.0003912998014168036,-0.00011218333252048767,-0.012282971228956704,0.0064242538834896265,0.9879569337122699
2013-12-31,1,0.00239753036859798,0.002516153871906971,-0.012282971228956704,0.006472674524496547,0.9863662764827673
2014-01-03,1,0.0016505827465992827,0.0017589086119375787,-0.012282971228956704,0.006472674524496547,0.9868053234253876
2014-01-07,1,0.0003348775060815229,0.0004157157202577723,-0.012282971228956704,0.009345280892240269,0.9870581019472788
2014-01-09,-1,-0.0005059988479444788,-0.00027876266951263934,-0.010652937637131607,0.009345280892240269,0.9869903728535282
2014-01-13,-1,-0.0012244201056698192,-0.0008608504114781079,-0.010652937637131607,0.010181912575991438,0.9862454665743048
2014-01-15,1,0.00119356805180642,0.0012998983759072665,-0.010652937637131607,0.006187891284697429,0.9887956744578456
2014-01-17,1,0.0019185703937927162,0.0019487921242918368,-0.008073448790634541,0.006187891284697429,0.9894145500468314
2014-01-22,1,0.0010585673623520898,0.001162492913388707,-0.007871334985889138,0.008490931172842914,0.9890021506584077
2014-01-24,-1,-0.00225737347179406,-0.001766396865561779,-0.006264306918919023,0.008490931172842914,0.9907328318101656
2014-01-28,-1,-0.0018411577995323261,-0.0014403719111294603,-0.0058241202184075545,0.006187891284697429,0.9917217407703239
2014-01-30,-1,-0.0005852383886285901,-0.00028876271821609513,-0.0019090317355406937,0.008454509791779242,0.9921324301515303
2014-02-03,-1,-0.001555244092120619,-0.0013478531972734812,-0.00030924407894913507,0.008454509791779242,0.991622610062714
2014-02-05,-1,-0.002031661149744862,-0.0017065483646284516,0.00010519109925924521,0.008454509791779242,0.9909793858981576
2014-02-07,-1,-6.109648983008937e-05,-1.5535987191485736e-05,-0.00030924407894913507,0.0058870818701226915,0.9934174381010874
2014-02-11,1,0.001010339254076125,0.001081276513020885,-0.0058072952688523775,0.0031662633513585142,0.9935118898305073
2014-02-13,1,0.00042670055713997827,0.00045334241379936616,-0.0058072952688523775,0.0036719542244369506,0.9929794911705815
2014-02-18,1,0.00039218824880822215,0.00044336361229849273,-0.0058072952688523775,0.005075344772409547,0.9926220538389052
2014-02-20,1,0.0006147885661030285,0.0006536407891204693,-0.0018184404533922818,0.005075344772409547,0.9936215611010066
2014-02-24,-1,-0.0006352160390847366,-0.0003922643975404178,-0.004741593457414173,0.005075344772409547,0.9931419438373705
2014-02-26,1,0.0010196421041361102,0.001115705392226525,-0.004741593457414173,0.00523783368844027,0.9931736432271214
2014-02-28,1,0.0016847062241311696,0.0018789468562022287,-0.004741593457414173,0.005118913045268559,0.9934500950331754
2014-03-04,1,0.0012128005695913198,0.0012983543176302694,-0.004741593457414173,0.006035053356429766,0.9923940318089577
2014-03-06,1,0.0022444182943422543,0.0025063237130618825,-0.005455623249921322,0.005118913045268559,0.9928830156333938
2014-03-10,1,0.001797307780309637,0.001956587341928349,-0.0062050189218482744,0.005118913045268559,0.9919419298943761
2014-03-12,1,0.0006465300416891564,0.0006747822539373669,-0.004656261389471579,0.005118913045268559,0.9934676822165844
2014-03-14,1,0.0006357219704140624,0.0006925743200918085,-0.0051996270460935405,0.004293034757839613,0.9929988447805743
2014-03-18,1,0.0010458023413197647,0.0011498504030153722,-0.0051996270460935405,0.005155659942806322,0.9924208690748266
2014-03-20,1,0.0010255923684637741,0.0010860910386599756,-0.0051996270460935405,0.005155659942806322,0.9925531637084594
2014-03-24,1,0.0008876953158295127,0.0009765353613177273,-0.004264681664967562,0.005155659942806322,0.993055290010806
2014-03-26,1,0.0008372614354301947,0.0009144764824880083,-0.004323409401223043,0.004222075236435953,0.9931430992349488
2014-03-28,1,0.0010874498731283106,0.0011676550259806277,-0.004323409401223043,0.005209020787035413,0.9928475118583907
2014-04-01,1,0.001544676313551623,0.0016798487090844355,-0.004323409401223043,0.0042868105319689076,0.9937673679368368
2014-04-03,1,0.0015063949804278724,0.0016786141846308715,-0.004157865962311718,0.0042868105319689076,0.993990343180581
2014-04-07,1,0.001088791759221323,0.0012593675165900246,-0.004157865962311718,0.0042868105319689076,0.9937898231951557
2014-04-09,1,0.0012393791600327038,0.0014332543761425768,-0.004157865962311718,0.0042868105319689076,0.9937742800007524
2014-04-11,1,0.0006002669764159573,0.0007510830479151469,-0.0029297230702376794,0.005154848784595856,0.9945898055350857
2014-04-15,1,0.0010523213805782557,0.0012035540357786994,-0.0029297230702376794,0.005419465876615001,0.9946541050464689
2014-04-17,1,0.0006108592462922152,0.000636162219201159,-0.003327295509534939,0.0043569588951621035,0.9939978192399499
2014-04-22,1,0.0010886468563960517,0.0012094885166004802,-0.003327295509534939,0.0043569588951621035,0.9940528874879812
2014-04-24,1,0.0007850669809748875,0.0008513009098010378,-0.0034068425647169544,0.005634274818164369,0.9934922086064276
2014-04-28,1,0.0016618525362783734,0.0018690599425300243,-0.0034068425647169544,0.0038950711895890397,0.9944527630943476
2014-04-30,1,0.0021419458538774845,0.002443968321455179,-0.004398928610255738,0.0042311828492601535,0.9937266392921785
2014-05-02,1,0.0014176799954935333,0.0015568627686670545,-0.0034092640471149287,0.0042311828492601535,0.99384629013841
2014-05-06,-1,-0.0002723077259526369,-0.00013763695244939052,-0.0030197115014689944,0.0042311828492601535,0.9940468562989679
2014-05-08,-1,-0.0013560194683077105,-0.0010246722924631343,-0.002910642111726227,0.0042311828492601535,0.9941430997645401
2014-05-12,-1,-0.0011882965848161822,-0.000888286189051078,-0.0021325068454416374,0.004500163793249077,0.9940797153536377
2014-05-14,1,0.00024610049715422677,0.0003481525732996955,-0.0044372409998691955,0.002713825994882169,0.9949841901731395
2014-05-16,1,6.698697401823987e-05,0.00014939298030069474,-0.003326086988663579,0.003690563811386965,0.9945763986316435
2014-05-20,1,0.0005952597652728044,0.0006024620118400603,-0.003326086988663579,0.0034150379570322205,0.9944598328028825
2014-05-22,1,0.0004802189763891038,0.0004842936903386339,-0.0021325068454416374,0.0034973782151663945,0.9947493329800017
2014-05-27,1,0.0006047674093446992,0.0006354173333289225,-0.003326086988663579,0.003914231277403305,0.9939886089936512
2014-05-29,1,0.000620241691930727,0.0006269484899491563,-0.003098278512745594,0.00254526241341155,0.9945268892391826
2014-06-02,1,0.0002240979556701464,0.00028312468440074966,-0.004484387496661603,0.0013519143759854362,0.9943955062090429
2014-06-04,-1,-0.0006830659609217715,-0.0005067608375645334,-0.004484387496661603,0.0013519143759854362,0.9951469132284934
2014-06-06,-1,-0.0008912959577554387,-0.0006884471155126901,-0.005073668214430598,0.0025746270852009118,0.99465955926025
2014-06-10,1,0.0008499850409941115,0.00099559510258727,-0.0053215309486267,0.0007612482356767365,0.9938757462190144
2014-06-12,1,0.00015694915802273227,0.00017620671929153198,-0.0053215309486267,0.0007612482356767365,0.993916741961659
2014-06-16,1,0.000682125699663367,0.0007397335733407693,-0.0053215309486267,0.0007612482356767365,0.9942962266868852
2014-06-18,-1,-0.00025868299667740563,-0.00010590132691224536,-0.005497111605370626,0.0007594747229298668,0.9944975825585257
2014-06-20,0,-6.48438035178397e-05,7.802200375354139e-05,-0.006440705878110574,0.0006113660720962655,0.9941675183329542
2014-06-24,-1,-0.0006283887433011253,-0.00041810724947458934,-0.005497111605370626,0.0012465701147869525,0.9948764849268062
2014-06-26,-1,-0.0011085830493408368,-0.0008171673763498575,-0.005497111605370626,0.0012465701147869525,0.9948803959097323
2014-06-30,-1,-0.0015193130495475638,-0.0011882688638111857,-0.005527130266349862,0.0030505121152152176,0.9947877008040652
2014-07-02,-1,-0.001117418034756794,-0.0008891629740406046,-0.006294101839408777,0.0030505121152152176,0.993822124189997
2014-07-07,-1,-0.0007095207051869316,-0.0005850699892101586,-0.005448243592470026,0.004911080194768866,0.9932124989462399
2014-07-09,-1,-0.0013782096924931653,-0.0011605604977703884,-0.005161867291280872,0.004911080194768866,0.993727840804181
2014-07-11,-1,-0.001938460226673168,-0.0016667185848251802,-0.005161867291280872,0.004911080194768866,0.9934657363770583
2014-07-15,-1,-0.0015113574371130303,-0.0013104261252111006,-0.005161867291280872,0.004781688745069043,0.9935455500289345
2014-07-17,-1,-0.0016590074747098941,-0.0014211806077596555,-0.005171873511607285,0.004781688745069043,0.9930497776008615
2014-07-21,-1,-0.001827475753082382,-0.0015780243775842526,-0.0037937493629395234,0.0049615659386958106,0.9925675657822698
2014-07-23,-1,-0.0011572546664581442,-0.0010184450910284372,-0.0037937493629395234,0.005263654941632837,0.992562009228616
2014-07-25,-1,-0.0014918912803858733,-0.0013143990587179545,-0.001686346411497914,0.005263654941632837,0.9925114710430147
2014-07-29,-1,-0.0009091657667798743,-0.0008384296982519863,-0.0015591761355115423,0.004877599088059168,0.9931132973733819
2014-07-31,-1,-0.0016806504896460983,-0.0015227417377969205,-0.0003795255578922288,0.005263654941632837,0.9933172633899562
2014-08-04,-1,-0.0015502044967890048,-0.0013465479064483097,-0.001686346411497914,0.004877599088059168,0.9940378622059957
2014-08-06,-1,-0.0016504746309220814,-0.0014244793763187134,-0.0034678908914670755,0.004877599088059168,0.993913084663453
2014-08-08,-1,-0.0018537307855438145,-0.001629108856533397,-0.0026954892457822996,0.005263654941632837,0.9942483677221727
2014-08-12,-1,-0.0014631488200454344,-0.0013033414694595493,-0.0034678908914670755,0.005263654941632837,0.9938344569916936
2014-08-14,-1,-0.002098336634855926,-0.0018428504466693053,-0.0026954892457822996,0.004335528672709298,0.9945395716046236
2014-08-18,-1,-0.0012058498771392188,-0.0010579737124112663,-0.0026954892457822996,0.0031151845513668034,0.9953556682131649
2014-08-20,-1,-0.0005877629666439335,-0.0005376904279230868,-0.0026954892457822996,0.0026483256531621745,0.9957710881419604
2014-08-22,-1,-0.00021372584776894278,-0.0001917962509281515,-0.004736838187447065,0.001596010898443995,0.995462873771321
2014-08-26,-1,-0.00030451220226573053,-0.00029929505363290594,-0.005911943418960519,0.0026483256531621745,0.9950081192885996
2014-08-28,-1,-0.00039318197604895546,-0.0003383722848854624,-0.006506256121156214,0.0018034470747776764,0.9948808301801249
2014-09-02,-1,-0.0007355230499922447,-0.0006484780572071291,-0.006506256121156214,0.0018034470747776764,0.9943826140092106
2014-09-04,-1,-0.001700182736967863,-0.0014541470112223846,-0.007099867600704536,0.0018034470747776764,0.9934373802693102
2014-09-08,-1,-0.0009268768493696461,-0.0008167583614474352,-0.007485652621979816,0.0018034470747776764,0.9929237597404647
2014-09-10,-1,-0.001424346970055665,-0.0012676104640714741,-0.007485652621979816,0.0026483256531621745,0.9924513581358786
2014-09-12,-1,-0.001169795301134644,-0.0010556161919501178,-0.010605510886979311,0.0018034470747776764,0.9909265524338018
2014-09-16,-1,-0.0008091863140723894,-0.0007306466641222257,-0.012060210889946998,0.0008661379483603023,0.9902498804621207
2014-09-18,-1,-0.0004317242683626864,-0.00043158513947703773,-0.01230998908086471,-0.0008808482753550786,0.9895663403807985
2014-09-22,-1,-0.0006395269934827335,-0.0006271236707099106,-0.01230998908086471,0.0020283451203933437,0.9887806425491934
2014-09-24,-1,-0.0007674533762374677,-0.000740838579227469,-0.01230998908086471,0.005663135041647857,0.9881258902661125
2014-09-26,-1,-0.0016917295146751583,-0.001516533339928372,-0.01230998908086471,0.010070582922602671,0.9876129302083279
2014-09-30,-1,-0.0025032703391174244,-0.002234567403648637,-0.010688770283951883,0.010070582922602671,0.9879733157641647
2014-10-02,-1,-0.0036532235404933234,-0.0032586434637783025,-0.010389968956604583,0.011138819645980378,0.9882447229582497
2014-10-06,-1,-0.00265909102146047,-0.0024296422142735005,-0.011039032961431905,0.014301147180054208,0.9873330856647841
2014-10-08,-1,-0.0026752340560193067,-0.0024249186292682476,-0.010389968956604583,0.010883220442171809,0.9880216741401062
2014-10-10,-1,-0.0036924558783836374,-0.0033423647552274865,-0.009019092663219989,0.010883220442171809,0.9890024296984015
2014-10-14,-1,-0.003706994935240583,-0.003354842045391002,-0.007126495272510627,0.014149907764111621,0.9889238792052567
2014-10-16,-1,-0.0040130005903682145,-0.0036357152704606945,-0.004370800394375175,0.014149907764111621,0.9882950579920198
2014-10-20,-1,-0.002790489454771763,-0.0025727969567316857,-0.005785212204327756,0.010116831052620325,0.9896617627310234
2014-10-22,-1,-0.0019238877472615085,-0.001821720370585938,-0.005785212204327756,0.014149907764111621,0.988533982231334
2014-10-24,-1,-0.001247896597390304,-0.001180280949548943,-0.005785212204327756,0.010116831052620325,0.9898349922036823
2014-10-28,-1,-0.0014122918082091849,-0.0013180124908739347,-0.005785212204327756,0.010116831052620325,0.9887182950984947
2014-10-30,-1,-0.0008576894905159418,-0.000845845646707345,-0.004092195934487583,0.008266269600113372,0.9896856439480566
2014-11-03,-1,-0.0007738297015275931,-0.0007551986652465442,-0.004092195934487583,0.00696285452198457,0.9901631688554147
2014-11-05,0,-9.337875230360057e-05,3.09601464594893e-05,-0.0012227833541378573,0.00696285452198457,0.9901338081680037
2014-11-07,1,2.5297396037075122e-05,0.00017163462870986628,-0.0016942539574553842,0.0058274245578979565,0.989457517254456
2014-11-11,1,0.0010133101696920984,0.0013174156836014204,-0.0016942539574553842,0.0081930136204777,0.989703626796483
2014-11-13,1,0.0011737445214779277,0.0014810071006326783,-0.006073227571699598,0.0049637120383564754,0.9887454564460196
2014-11-17,1,0.0011540271043137085,0.001460127234244669,-0.008862612544740127,0.0049637120383564754,0.9881243470905684
2014-11-19,1,0.0024061420837397135,0.0028575301436075395,-0.008862612544740127,0.0049637120383564754,0.9888899074285925
2014-11-21,1,0.002246643289687198,0.002667055662963314,-0.008862612544740127,0.009478419671535301,0.9887867915605599
2014-11-25,1,0.001027325341618787,0.0012754385867576536,-0.00651593798122292,0.009478419671535301,0.9899651457785329
2014-11-28,1,0.0012448301426635235,0.001503217126706554,-0.00651593798122292,0.009478419671535301,0.9897793770087427
2014-12-02,1,0.0003080518078631594,0.0004098456979118017,-0.00651593798122292,0.009478419671535301,0.9902688847451319
2014-12-04,1,0.0010394315817461074,0.0012476485357930905,-0.008862612544740127,0.0068856460767684384,0.990409509827838
2014-12-08,1,0.0005163060063575354,0.0006596489357466727,-0.00651593798122292,0.009478419671535301,0.9907471750664322
2014-12-10,1,0.001203827087761651,0.001427897514341667,-0.008140449384717599,0.007666266303048827,0.9907708478769371
2014-12-12,1,0.0003049710501128158,0.00042467156772723344,-0.008140449384717599,0.009475687087537205,0.9907682321529084
2014-12-16,-1,-0.00028234417533476474,-0.0002562473447451207,-0.003731717139728462,0.009475687087537205,0.9913976186497486
2014-12-18,1,0.0009158720811418511,0.0011037252446953203,-0.003731717139728462,0.009475687087537205,0.9909313446293244
2014-12-22,1,0.0009449465198393938,0.0010970858817880692,-0.003731717139728462,0.010357465187437291,0.9908454357692226
2014-12-24,1,0.0012780181086424571,0.001520236743056948,-0.004273220940893356,0.010357465187437291,0.99039754143468
2014-12-29,1,0.0013500990228043016,0.001594327547161801,-0.008537371413714318,0.010357465187437291,0.989576559088769
2014-12-31,1,0.0007223028909044069,0.0008600678938146277,-0.003150402379459189,0.010904316648557793,0.9891213879688332
2015-01-05,1,0.00035490857977661373,0.00044649678051120797,0.0004404561968155854,0.011132873772368261,0.9885606008896731
2015-01-07,1,0.0007353841409941543,0.0008592298588795243,-0.003150402379459189,0.010904316648557793,0.9883982812434033
2015-01-09,1,0.0011701845642564934,0.001389125814594396,-0.0016057398528042516,0.010904316648557793,0.9887197022390483
2015-01-13,1,0.0010600933908531407,0.0012782578078804126,0.0004404561968155854,0.010904316648557793,0.9895000887390154
2015-01-15,1,0.0009339877657847274,0.0011341568401543852,0.005582247939724623,0.01126629849366769,0.9885612454404715
2015-01-20,1,0.002505667141967153,0.002914785912593124,0.0037275917168492455,0.010904316648557793,0.9908234399489626
2015-01-22,1,0.0031221168793529397,0.0036324050724956805,0.0003968570152915002,0.010035573412339575,0.9916472871807845
2015-01-26,1,0.002741492557659088,0.003180234029663569,0.0003968570152915002,0.010035573412339575,0.9922844720685015
2015-01-28,1,0.002081942874083446,0.0024123413157524963,0.0003968570152915002,0.010035573412339575,0.992479487929993
2015-01-30,1,0.0029207552408345968,0.003370101421456961,0.0003939315018747997,0.008441554272227664,0.9934153951139911
2015-02-03,1,0.0033356968357694796,0.0038094889436544495,-0.0030830428010293893,0.007235695464876032,0.9927950770886504
2015-02-05,1,0.0032399888649162203,0.003703510392169208,-0.006266690801573157,0.0067229561935934845,0.9908961608146271
2015-02-09,1,0.003724210755029311,0.004269001014954558,-0.008414962749384884,0.0062503721045125155,0.9905118096501774
2015-02-11,1,0.0039664015532322305,0.004531847250963115,-0.01082272028589505,0.00570918175367788,0.989731488246333
2015-02-13,1,0.004244712100329619,0.004823495616738432,-0.014418284334556544,0.004382303757269827,0.9889444125213238
2015-02-18,1,0.004345768534690742,0.004928747523787201,-0.014418284334556544,0.0051765983372454825,0.9896206732389061
2015-02-20,1,0.004070815059513285,0.004592940956282723,-0.017655337809272795,0.004382303757269827,0.9884601471921984
2015-02-24,1,0.0035904460636045294,0.00400304767759793,-0.017655337809272795,0.0051765983372454825,0.9886311578656507
2015-02-26,1,0.0030100104060091885,0.0032929443422420692,-0.017655337809272795,0.0044911088292512846,0.9888391827463805
2015-03-02,1,0.003107066469216031,0.003391789153253191,-0.017655337809272795,0.004598227889879575,0.9869055564845592
2015-03-04,1,0.002027445604146097,0.002178324233909006,-0.019364094589286972,0.004598227889879575,0.9867118006559096
2015-03-06,-1,-0.00046317781911547537,-0.00023655380401549526,-0.013244958135303948,0.005653157946848283,0.9893750948805704
2015-03-10,-1,-0.0011844714848068248,-0.0008615314495349148,-0.010651186883843002,0.004598227889879575,0.9904269188381847
2015-03-12,-1,-0.0019005674357539537,-0.001474798709944172,-0.00943635133270903,0.004598227889879575,0.9906124359435078
2015-03-16,-1,-0.0018342475673559675,-0.0014548718671842722,-0.005840262847434113,0.004598227889879575,0.9913771498474517
2015-03-18,-1,-0.0012588639479032262,-0.0009683618670436427,-0.005840262847434113,0.003826546466276289,0.9917296179726663
2015-03-20,-1,-0.0016729270684233705,-0.0013622689519509487,-0.0073736721279956206,0.0036923782119092415,0.9921242980718369
2015-03-24,-1,-0.0017546868011943432,-0.0014132015703472926,-0.0073736721279956206,0.002015140759801719,0.9924369968325986
2015-03-26,-1,-0.0017988971935490846,-0.0014682854563940993,-0.00693191294948317,0.0027108449640528636,0.9925071275718508
2015-03-30,-1,-0.0011472177107601442,-0.0008963943041884868,-0.00693191294948317,0.0017552897292073787,0.9940491133648544
2015-04-01,-1,-0.002558312060200522,-0.002145947194426132,-0.006252724054222973,0.0017552897292073787,0.9954910400467911
2015-04-06,-1,-0.0022605261266231496,-0.0018812380684832938,-0.006767060243841124,0.0017552897292073787,0.9947433100420464
2015-04-08,-1,-0.0018308489659296834,-0.0015370426433895773,-0.00693191294948317,0.0017552897292073787,0.9941575289775213
2015-04-10,-1,-0.0018782932433977855,-0.001588770599597999,-0.00693191294948317,0.0038250295962758184,0.9929005906013602
2015-04-14,-1,-0.0020080168127237638,-0.001699180144223972,-0.007074236758380764,0.0038250295962758184,0.9926455034690582
2015-04-16,-1,-0.0009221559646455317,-0.0008083220673332834,-0.007074236758380764,0.0038250295962758184,0.9921942483822724
2015-04-20,-1,-0.0017091540491779803,-0.0014955531664269585,-0.006767060243841124,0.005166930708803324,0.9918173966731773
2015-04-22,-1,-0.0027488005999392606,-0.0023566249758110664,-0.006252724054222973,0.007144378835773048,0.9911197917998267
2015-04-24,-1,-0.002345115548956539,-0.002011500024721253,-0.00682339696670672,0.007144378835773048,0.9912285323174098
2015-04-28,-1,-0.003214656513097768,-0.0027484492941652816,-0.006349680497963918,0.007144378835773048,0.9908761239700985
2015-04-30,-1,-0.0028728666954553495,-0.0024816951852507253,-0.007444077982487833,0.007144378835773048,0.9905421173136707
2015-05-04,-1,-0.0028690035772916678,-0.002448359402906843,-0.008854826229699336,0.0038407949215119863,0.9915772593659372
2015-05-06,-1,-0.00261686181360852,-0.0022603822743811957,-0.008854826229699336,0.0032252119741930647,0.9914231527296626
2015-05-08,-1,-0.0024317345332024796,-0.0020487338641435684,-0.008854826229699336,0.0030849455060628648,0.9925812877516335
2015-05-12,-1,-0.003256321388556866,-0.0027480810920076613,-0.006847758511513062,0.003112561993941455,0.991981194223621
2015-05-14,-1,-0.002097921269994182,-0.0017760552478854916,-0.007292284097509335,0.003112561993941455,0.9925595375294879
2015-05-18,-1,-0.000964132959920827,-0.0008039257414532902,-0.007292284097509335,0.003112561993941455,0.9933781607738023
2015-05-20,-1,-0.0005545367944956199,-0.00044176900985940973,-0.007292284097509335,0.0032230975476893933,0.9935252063076289
2015-05-22,-1,-0.0007422758392808403,-0.0006092589580276778,-0.006467348865295285,0.0033525777770813314,0.9937698963796672
2015-05-27,-1,-0.0012765616105736494,-0.0010625354134174891,-0.006122196625327613,0.0034223583719252713,0.9942367885204076
2015-05-29,-1,-0.0021557970150223637,-0.0018130638684896528,-0.0046786685774890275,0.00554838929993297,0.9933439697097004
2015-06-02,-1,-0.0020920184164897994,-0.0017885292387854065,-0.0046786685774890275,0.006096261067716284,0.9920594422112519
2015-06-04,-1,-0.0024997079526149065,-0.0021546700177634674,-0.002975852234986533,0.006096261067716284,0.9929574444816935
2015-06-08,-1,-0.003025647830126128,-0.0026061754687395815,-0.002975852234986533,0.006096261067716284,0.9926100480994334
2015-06-10,-1,-0.0026017561310209304,-0.0022285129955566954,-0.004943414857157472,0.00554838929993297,0.9926155588655503
2015-06-12,-1,-0.0017905141671291632,-0.0015869368417270218,-0.00423634958965495,0.006443880614754149,0.9923671250098555
2015-06-16,-1,-0.0012626471058163158,-0.0011540247797313895,-0.004746163399920094,0.007168021169826188,0.9919293081981221
2015-06-18,-1,-0.0010137371269869628,-0.000926154045854249,-0.004746163399920094,0.007168021169826188,0.9923273103704016
2015-06-22,-1,-0.0012020682881346608,-0.0010738609212296926,-0.006304466811928916,0.007168021169826188,0.9923854459325158
2015-06-24,-1,-0.0005799311884807847,-0.0005580310953180422,-0.007298805253052464,0.007168021169826188,0.9916793335447376
2015-06-26,1,0.0007379849676508987,0.0009430886855578492,-0.011725553080070792,-0.0013391759353351728,0.9905839771535235
2015-06-30,1,0.0009124353090682098,0.0011314545629833852,-0.009230476080236269,-0.0007567754549832582,0.9915921796566979
2015-07-02,1,0.0010408599305573823,0.0013046893378387413,-0.009230476080236269,0.002569893890540817,0.9917332267971101
2015-07-07,1,0.0008945847235612162,0.0011641142709604322,-0.007298805253052464,0.0037073876398004365,0.9910451655858369
2015-07-09,1,0.0005786232755948635,0.0008603172597183918,-0.0056031437561077455,0.0071738266710022315,0.9918824162949741
2015-07-13,1,0.0012817058990353765,0.0016768960303926383,-0.0056031437561077455,0.003970426143796903,0.9911644668108589
2015-07-15,1,0.0015591922082831278,0.0020034503203517125,-0.0068434313229344445,0.002569893890540817,0.9897236516256306
2015-07-17,1,0.0015979943102092011,0.002054664545225222,-0.0068434313229344445,0.002569893890540817,0.9896122191623534
2015-07-21,1,0.0014674659314147685,0.0019128485729217346,-0.005782798593109589,0.0047096096589436184,0.9894186635035084
2015-07-23,1,0.001187769305193121,0.0016206565724568957,-0.008628425855702422,0.0047096096589436184,0.9880751114014008
2015-07-27,-1,-0.00033724028754824405,-0.00011140604900853452,-0.010981084171115669,0.0047096096589436184,0.9862920041793809
2015-07-29,-1,-0.0006573102644575422,-0.0006375887569720456,-0.01899069689826095,0.00505041947180339,0.9842633299517882
2015-07-31,-1,-0.0007156281617492385,-0.0007074578864067974,-0.01899069689826095,0.012768341355399664,0.981910876549951
2015-08-04,1,0.00041593531641170433,0.0005431348796631384,-0.02395112703955038,0.012182145577929508,0.9811084956063613
2015-08-06,1,0.00028785791885058235,0.00038341731022206304,-0.02395112703955038,0.01230055178767883,0.9804435294649929
2015-08-10,1,0.0008978548446150465,0.0010880362145138597,-0.02395112703955038,0.01230055178767883,0.9799121351878491
2015-08-12,-1,-0.00036345629327585804,-0.0003562124498965803,-0.019249423893784572,0.01230055178767883,0.9810482790344461
2015-08-14,-1,-0.00041698260715198915,-0.0004143437845273316,-0.019249423893784572,0.01230055178767883,0.9804176302039256
2015-08-18,-1,-0.0002861450539817476,-0.0002813550072191487,-0.019249423893784572,0.013123932663119035,0.9803006241723845
2015-08-20,-1,-0.0011785351256689074,-0.0011143823500246368,-0.017607213938384332,0.013123932663119035,0.9798537188634864
2015-08-24,-1,-0.0038218790567212365,-0.003390003550913648,-0.017384963884918676,0.013123932663119035,0.9802322741931531
2015-08-26,-1,-0.003255217008028136,-0.0029123004478821463,-0.017471206216759884,0.012855503703813265,0.979281738448221
2015-08-28,-1,-0.0015111472953004397,-0.001374973485088613,-0.02257805190130576,0.00535107967551032,0.9795045325856104
2015-09-01,-1,-0.0031247671656240627,-0.0027947929528953194,-0.017471206216759884,0.00535107967551032,0.9815417710247261
2015-09-03,-1,-0.002057257599760529,-0.001853402915820824,-0.02119438660426032,0.00270157516316964,0.980026921074587
2015-09-08,-1,-0.0018094803970326295,-0.0016528137468891342,-0.02119438660426032,0.00270157516316964,0.979685721973052
2015-09-10,-1,-0.0030168980991213314,-0.002685000107998925,-0.018832700859482653,0.012632027125905998,0.9777813784472857
2015-09-14,-1,-0.003810028427616903,-0.0033796972650458924,-0.026583579588090475,0.012632027125905998,0.9771689305870703
2015-09-16,-1,-0.0028943677881389193,-0.0025899728148204354,-0.026583579588090475,0.012632027125905998,0.9748738762431209
2015-09-18,-1,-0.005301055437972725,-0.004692416583586583,-0.017214767471792323,0.012632027125905998,0.9767551888731719
2015-09-22,-1,-0.007781899281686398,-0.0068890914813241125,-0.014002424334246906,0.015413632412237905,0.9778833260148552
2015-09-24,-1,-0.008357742825373417,-0.007421780594806563,-0.0103822174548731,0.018622266073776098,0.9796076136423036
2015-09-28,-1,-0.010276822435123283,-0.00911909702230863,-0.007360025825964772,0.018622266073776098,0.9791077347306204
2015-09-30,-1,-0.009034624903397782,-0.008079798716123552,-0.0103822174548731,0.018622266073776098,0.9787796356516417
2015-10-02,-1,-0.008637341219619704,-0.00771580151823945,-0.0103822174548731,0.014203356757880255,0.9804175909458032
2015-10-06,-1,-0.007208633758631875,-0.006488672793607118,-0.0103822174548731,0.018278319035165306,0.9787238390582006
2015-10-08,-1,-0.00441332608990283,-0.004065914484402283,-0.021463756169119608,0.014203356757880255,0.9777452014011657
2015-10-12,-1,-0.004659639424291422,-0.004327462767290255,-0.013808976027643239,0.014203356757880255,0.9785131764011585
2015-10-14,-1,-0.0015580334135976523,-0.0015390844983689778,-0.021463756169119608,0.009617434571169025,0.9805920900889483
2015-10-16,-1,-0.002598961651391388,-0.002493062604097066,-0.021463756169119608,0.01415528078236343,0.9800586946872265
2015-10-20,-1,-0.002585199024445186,-0.002461852684771692,-0.022227968459746637,0.013460212204872177,0.9798728964058305
2015-10-22,-1,-0.0021731568382113396,-0.002089176890564798,-0.022227968459746637,0.011721474085336223,0.9803041107782392
2015-10-26,-1,-0.002374195992608888,-0.002248267400264773,-0.025565902465096664,0.009163584953909397,0.9794475608076185
2015-10-28,-1,-0.003075449418217244,-0.0028537923932702735,-0.022227968459746637,0.012098663353093295,0.9803585076675689
2015-10-30,-1,-0.003288696322052429,-0.0030810781440638014,-0.015091890204908486,0.015286848585634644,0.9801362338011493
2015-11-03,1,0.0006003577904691321,0.0008787164854165645,-0.022692920673404567,0.008017061109385546,0.98205698711541
2015-11-05,-1,-0.0037858154490013176,-0.003531063893519859,-0.010455828554470617,0.010631989437910102,0.9864211992172357
2015-11-09,-1,-0.0029818768231878044,-0.002848100706177285,-0.016514503015797113,0.012098663353093295,0.9819900964699625
2015-11-11,-1,-0.003532602092870949,-0.003341597878942857,-0.016016210563808683,0.015286848585634644,0.9808854745161772
2015-11-13,-1,-0.0027410398140091745,-0.0026602176501730208,-0.023701130680739705,0.012098663353093295,0.9800674108806791
2015-11-17,-1,-0.0025048954354832433,-0.002490411476936215,-0.02292904111062536,0.0185585826773155,0.9795921229451421
2015-11-19,-1,-0.0013781119550843259,-0.0011782269396302366,-0.023701130680739705,0.0185585826773155,0.9783363484859556
2015-11-23,-1,-0.0026465977356483336,-0.0026092332446001625,-0.023701130680739705,0.0195108050269537,0.975504152131653
2015-11-25,-1,-0.00188365563536691,-0.0017519324414804285,-0.023701130680739705,0.02248608405267033,0.9739126827976925
2015-11-30,-1,-0.001668251924761172,-0.0015554874375719105,-0.025196284055635215,0.02248608405267033,0.9741467686380867
2015-12-02,-1,-0.002312793318760638,-0.0022386444269535117,-0.025196284055635215,0.02248608405267033,0.9742668641055493
2015-12-04,-1,-0.001544838913864105,-0.0013491023579002418,-0.025196284055635215,0.026950690970690833,0.9731831691303608
2015-12-08,-1,-0.002371832580164602,-0.002277760540427109,-0.026113718209595228,0.02248608405267033,0.9736549807248729
2015-12-10,-1,-0.0021163956668080667,-0.0019976417845345394,-0.0287102115657648,0.0024128358925567753,0.9729688548041892
2015-12-14,-1,-0.003512758723579596,-0.0034310188609938705,-0.0287102115657648,0.02248608405267033,0.9731604865701653
2015-12-16,-1,-0.0019080356880671525,-0.001854029394712727,-0.0287102115657648,0.019791386524659844,0.9722343935415171
2015-12-18,-1,-0.0036698303079533067,-0.00354883335085402,-0.0287102115657648,0.019791386524659844,0.9724702373435631
2015-12-22,-1,-0.0023586218695390427,-0.002292386784219015,-0.02792467673841022,0.01947907672482589,0.9738094609505046
2015-12-24,-1,-0.0005554387488048533,-0.00015969141813599545,-0.03206093821956858,0.01729287640224507,0.9719445201584203
2015-12-29,-1,-0.0009744322983925003,-0.0006070636324667985,-0.03206093821956858,0.019311219406208537,0.9719575599738886
2015-12-31,-1,-0.0018382846443938164,-0.0015372800204855952,-0.03206093821956858,0.02227552043878247,0.9715351754043471
2016-01-05,-1,-0.0011407004519380366,-0.0008239395496928485,-0.034874772222515574,0.02227552043878247,0.9655666650324056
2016-01-07,-1,-0.004333974772964228,-0.004245586594062641,-0.02666453420795268,0.02960878699233715,0.968145178105129
2016-01-11,-1,-0.00616142734728502,-0.0058986324676326505,-0.02666453420795268,0.02960878699233715,0.9679217249215987
2016-01-13,-1,-0.006148939326088961,-0.005805726731153471,-0.02666453420795268,0.03071458939160282,0.9667402363295052
2016-01-15,-1,-0.004817539119313612,-0.004525610917249724,-0.03251816774045184,0.027832747035761808,0.9650646425474024
2016-01-20,-1,-0.006367029184247175,-0.005944056572397942,-0.02164954624208635,0.03071458939160282,0.9625836864031208
2016-01-22,-1,-0.005055571676277865,-0.004906432792644151,-0.026661174885325385,0.03244966147493699,0.961638176457837
2016-01-26,-1,-0.007307697385158327,-0.006831929699379567,-0.021581099720105773,0.03244966147493699,0.9625929841243485
2016-01-28,-1,-0.00553582994150912,-0.005358240490002771,-0.021581099720105773,0.039223520895667864,0.9603143457656285
2016-02-01,-1,-0.003410940886136365,-0.003313607731659303,-0.021581099720105773,0.03244966147493699,0.9623387213746512
2016-02-03,-1,-0.002807733641660845,-0.0026612219463139943,-0.009364148974417986,0.03244966147493699,0.9673063335427544
2016-02-05,-1,-0.0017009206879295656,-0.0014329910967764998,-0.009364148974417986,0.033047002827161165,0.9665681807965295
2016-02-09,-1,-0.002022416399891847,-0.001737270876081831,-0.009364148974417986,0.03543299336581114,0.9659078012954317
2016-02-11,-1,-0.0010525221933776684,-0.0007594243704418669,-0.023127141104215588,0.03194288103052048,0.9676408595117986
2016-02-16,-1,-0.00468035155137437,-0.004371608063692247,-0.023127141104215588,0.03194288103052048,0.9686983203798214
2016-02-18,-1,-0.0016058871899226244,-0.0015901365760071133,-0.023127141104215588,0.027647470500111272,0.97152383762482
2016-02-22,-1,-0.003619888530075472,-0.0032681076615470785,-0.010313161243416316,0.026465566625079758,0.9748191593879696
2016-02-24,-1,-0.0030834134161503005,-0.0028176495931802777,-0.01994348972633083,0.026465566625079758,0.975077492835306
2016-02-26,-1,-0.00018169658833146115,-8.950325169797979e-05,-0.023127141104215588,0.02587408000073832,0.9765105306090281
2016-03-01,1,0.0006826123236482878,0.0009543846028659105,-0.023127141104215588,0.02587408000073832,0.9774836700628798
2016-03-03,1,0.0038237837037031633,0.004647869013398641,-0.026129099447479757,0.02566991065336744,0.977177622283315
2016-03-07,1,0.005839453791872386,0.006876621306706125,-0.028149799116126195,0.008927598721436456,0.9759142987133309
2016-03-09,1,0.007266170816094484,0.008666942644487552,-0.026129099447479757,0.002227574018401196,0.9768667271978012
2016-03-11,1,0.004976837660941164,0.00603062477643716,-0.025973775148121988,0.0061434104948774465,0.9804770442116396
2016-03-15,1,0.00492283340369921,0.0059713543495117675,-0.020781879796056706,0.011268999720403704,0.9807081043134362
2016-03-17,1,0.006857337613683859,0.008180989588638193,-0.025973775148121988,0.0061434104948774465,0.9783538041215494
2016-03-21,1,0.006803642544356125,0.008134073932462096,-0.025973775148121988,0.01748449974697111,0.9763408076471016
2016-03-23,1,0.004522474447351276,0.005518246685945949,-0.019183336455992808,0.01748449974697111,0.9798074372738704
2016-03-28,1,0.004455445028193375,0.005399147516714494,-0.011354682497171429,0.011707294878464333,0.981118182020755
2016-03-30,1,0.0065165779326622425,0.00795066560363478,-0.011354682497171429,0.011707294878464333,0.9808299315585728
2016-04-01,1,0.002780502864902748,0.0034551085407044484,-0.011354682497171429,0.011707294878464333,0.9821988133549613
2016-04-05,1,0.0008193700531416376,0.0012494679062892966,-0.00654398503954137,0.01593642625578142,0.9824060963766388
2016-04-07,-1,-0.0003481913063433694,-0.00012212535858379,-0.010727820030176999,0.01593642625578142,0.9808470581303526
2016-04-11,1,0.0002447410160749619,0.0005820359162566468,-0.015980368067569355,0.01593642625578142,0.9793830479601755
2016-04-13,1,0.002602164001528528,0.0032176632347405585,-0.015980368067569355,0.011707294878464333,0.9800311525418568
2016-04-15,1,0.0026992370122712094,0.003381453153534865,-0.021121989487920566,0.009818198649534536,0.980544431048562
2016-04-19,1,0.0049984959350279825,0.005888833826670582,-0.021121989487920566,0.009818198649534536,0.9811825317517701
2016-04-21,1,0.005570821547682101,0.006577039267999071,-0.023730109070446016,0.011036482757243914,0.978650840574306
2016-04-25,1,0.005264494898073979,0.006252898805942835,-0.023730109070446016,0.01457371686091704,0.9794606181341697
2016-04-27,1,0.00501318092143911,0.005896072044401332,-0.023730109070446016,0.01598784606954455,0.9783264826742458
2016-04-29,1,0.004518397946088398,0.005356393548085788,-0.023730109070446016,0.01598784606954455,0.9778690127373453
2016-05-03,1,0.0034058531110068946,0.0040357440666515506,-0.019325608657937674,0.01457371686091704,0.9793742097317107
2016-05-05,1,0.001610463740211357,0.0020102817329898616,-0.01710558241073277,0.01684503362845463,0.9799398659315836
2016-05-09,-1,-0.0007808584098809655,-0.0007745200958241545,-0.014402250473812947,0.021218245336867766,0.9776654493333486
2016-05-11,1,0.0021530069053803573,0.0026575099004193317,-0.017592084890291643,0.018183696131869837,0.9778254573428456
2016-05-13,-1,-0.0007826274618636006,-0.0007713667304649639,-0.01700099798842905,0.018183696131869837,0.9787076833464116
2016-05-17,1,0.001699189446603528,0.0020522112286722994,-0.017592084890291643,0.01684503362845463,0.9800982330345834
2016-05-19,1,0.0016758219860215492,0.002093401755703179,-0.01700099798842905,0.01758915219231725,0.9804555933876247
2016-05-23,1,0.0021127723312632882,0.0025282812626802845,-0.01700099798842905,0.01758915219231725,0.9811498206005821
2016-05-25,1,0.0014282517159499336,0.0016497331425020475,-0.01700099798842905,0.018391345705727327,0.9801514104989366
2016-05-27,1,0.000769423503658251,0.0009648795313385794,-0.018514752385824573,0.018391345705727327,0.9759152324297948
2016-06-01,-1,-0.0018785075604824074,-0.0015509025277835092,-0.01820099911891342,0.023220899133151507,0.9750248373120154
2016-06-03,-1,-0.0011409404138386034,-0.0007697429480007598,-0.01820099911891342,0.0221649906732391,0.9761098505236869
2016-06-07,1,0.0019411009032366646,0.0019476654821141048,-0.021016051955944574,0.01441306521742223,0.9773532044418912
2016-06-09,1,0.0011072746175380178,0.0011321501112022535,-0.016492207326874026,0.01607459180252857,0.9787349595011813
2016-06-13,-1,-0.0014109638334886402,-0.0010204066887002617,-0.010936635031123864,0.02017035110241086,0.9779633234272505
2016-06-15,-1,-0.0025966276525689435,-0.0020531745811228847,-0.009445250319342091,0.024337681190419905,0.9756913760612672
2016-06-17,-1,-0.0028717063269961007,-0.002211791420499617,-0.00875169340363647,0.0221649906732391,0.9758448432754112
2016-06-21,-1,-0.0025152107620042465,-0.001912195629394334,-0.009445250319342091,0.0221649906732391,0.975063590848627
2016-06-23,-1,-0.0005185944664821562,-0.00021110111099917198,-0.012257311134758128,0.020887971691855464,0.9769473875537915
2016-06-27,-1,-0.00525614588276785,-0.004408564182155376,-0.005458110582516345,0.0221649906732391,0.9793030145728183
2016-06-29,-1,-0.0030476017214425585,-0.002512208841113146,-0.011053929344371882,0.020887971691855464,0.9796253309652574
2016-07-01,-1,-0.0025365197374352566,-0.0019965137753921404,-0.01688167045531372,0.01984704102105301,0.9801503812792443
2016-07-06,-1,-0.0035498424706668875,-0.0029696756447907873,-0.01419737325604849,0.02133788869725981,0.9807674142645358
2016-07-08,-1,-0.004563048050406027,-0.003763197908370765,-0.01688167045531372,0.02394297674019616,0.9790562449979345
2016-07-12,-1,-0.0010911537868608472,-0.0008558430971867526,-0.01688167045531372,0.02394297674019616,0.9793512865631865
2016-07-14,1,0.0006839907264286694,0.0007554655007253019,-0.01688167045531372,0.018714627699256234,0.9814424384055205
2016-07-18,1,0.001871652459858159,0.00193905531361023,-0.020647493886903647,0.01519653001475019,0.9792718235750334
2016-07-20,1,0.0026060887657785893,0.002907684471957388,-0.017037348515744916,0.01519653001475019,0.9794159066663305
2016-07-22,1,0.0016164837481613568,0.0017964758698462012,-0.01419737325604849,0.01519653001475019,0.9807451526885064
2016-07-26,1,0.0038332424322881746,0.004405531904721253,-0.01419737325604849,0.014464437866210026,0.9804321532965244
2016-07-28,1,0.002931166213541129,0.0035160993086818587,-0.012922959896584771,0.014464437866210026,0.982092904046121
2016-08-01,1,0.0017254412587903222,0.0021480544368125184,-0.011939158236288874,0.015425272289175812,0.9819656826838135
2016-08-03,1,0.0016994436819530768,0.0020107604271600975,-0.01252530738507003,0.01726009683954104,0.9780731478753211
2016-08-05,1,0.0017526015630089514,0.0020652844459857845,-0.01252530738507003,0.011720338643419828,0.9791320938449197
2016-08-09,1,0.0036161017979939787,0.004272105194191422,-0.016586195235898247,0.011077638385479122,0.9794665818752485
2016-08-11,1,0.0035397547401986194,0.004172580692008901,-0.028388566442340057,0.011077638385479122,0.9774047426096024
2016-08-15,1,0.003004101844001742,0.00344769703187074,-0.02800660652807964,0.009406733119697,0.9794670512686346
2016-08-17,1,0.002162286833081349,0.0025018894885037663,-0.02800660652807964,0.009406733119697,0.9794678413278005
2016-08-19,1,0.0025057613470779016,0.0028922179376857067,-0.02800660652807964,0.009406733119697,0.9781429860316269
2016-08-23,1,0.0030283476206507346,0.003397765470797273,-0.02800660652807964,0.005705742280125684,0.9788978890263632
2016-08-25,1,0.0008384891266995959,0.0008803558012995857,-0.02803849682674363,0.008935119610170942,0.9791986004415728
2016-08-29,-1,-0.0005139544513277996,-0.0002658425860648583,-0.027520433843850937,0.005705742280125684,0.980192842233139
2016-08-31,1,0.0021666424893457513,0.0022398973710199884,-0.027520433843850937,0.005705742280125684,0.9826710111610303
2016-09-02,1,0.002666349258047764,0.002937071777523614,-0.025535610783640948,0.00871621438990381,0.9835129139433441
2016-09-07,1,0.0012131104593314694,0.001258364840000145,-0.018078470409899242,0.008935119610170942,0.9841668757143874
2016-09-09,1,0.0007272905719767271,0.0008786657849052103,-0.012098809125612594,0.008935119610170942,0.9860231343871546
2016-09-13,1,0.0003004159161753768,0.0004068207393019189,-0.010351391021835436,0.009104527857215402,0.9873608179471767
2016-09-15,-1,-0.0006342390875664816,-0.0005962241973849462,-0.012098809125612594,0.009104527857215402,0.9856987323719238
2016-09-19,-1,-0.001356760113058015,-0.0012543552741271532,-0.011604627354298928,0.009104527857215402,0.9862672620224611
2016-09-21,-1,-0.0015295392226966856,-0.0013760155598762577,-0.011604627354298928,0.011990980873311664,0.9848667361893938
2016-09-23,-1,-0.0026379638353401322,-0.0023263464219469435,-0.011604627354298928,0.017483417421626252,0.9843973096856197
2016-09-27,-1,-0.004894089217520775,-0.0042293394389745645,-0.010249448376722009,0.017483417421626252,0.9848683002714091
2016-09-29,-1,-0.0055078805264300885,-0.004691697026934305,-0.011604627354298928,0.011990980873311664,0.9840325912553841
2016-10-03,-1,-0.0032792838675292646,-0.0028100751276194562,-0.01165244851515552,0.009250013699370863,0.9852369729158695
2016-10-05,-1,-0.004099203889039727,-0.003447740813781043,-0.01165244851515552,0.011842789635809446,0.9839254400524362
2016-10-07,-1,-0.0036569139279966616,-0.0031577704313444565,-0.014214883266450309,0.015084213878209473,0.9826310384450698
2016-10-11,-1,-0.003540298945359378,-0.0030228177130954665,-0.014214883266450309,0.020561544363789534,0.9799498251337359
2016-10-13,-1,-0.005419787081767978,-0.004727061942597005,-0.007120021295424758,0.024621324795802736,0.9782022477070855
2016-10-17,-1,-0.00596253442962059,-0.005219961252609955,-0.007120021295424758,0.02669976564416896,0.9755736511956105
2016-10-19,-1,-0.004779433289822458,-0.0041199900162654695,-0.012861511899776315,0.02669976564416896,0.9771221251650992
2016-10-21,-1,-0.00441680109583587,-0.0037778808376043947,-0.01120132472626419,0.02669976564416896,0.9773741379794566
2016-10-25,-1,-0.002617797037794481,-0.002296208815299991,-0.014877112778966734,0.02899228080414613,0.9744217156716852
2016-10-27,-1,-0.0017465596924022167,-0.001667563895806309,-0.01120132472626419,0.02899228080414613,0.9763100987102705
2016-10-31,-1,-0.0032014166241610452,-0.002865816976228279,-0.010957089516796798,0.02899228080414613,0.9761803249438789
2016-11-02,-1,-0.0018116201051518203,-0.001597883839716158,-0.010957089516796798,0.02899228080414613,0.9754140408235513
2016-11-04,-1,-0.0025397689126743254,-0.002204845229596202,-0.009611997802423528,0.02899228080414613,0.9760650487448989
2016-11-08,1,0.0005001715062351701,0.0005666428251688864,-0.009611997802423528,0.028198818120917082,0.9781537278846709
2016-11-10,1,0.002969653153278253,0.003377247342045436,-0.009611997802423528,0.028198818120917082,0.9801510240281043
2016-11-14,1,0.003680136203237441,0.004251538332465489,-0.010957089516796798,0.025210513078293962,0.9798398322259295
2016-11-16,0,-0.0001466271114384071,2.573000419559023e-05,-0.005877332399999681,0.025210513078293962,0.9807674300839881
2016-11-18,1,0.0021713720674613273,0.002361968353844922,-0.009611997802423528,0.015263889407198142,0.9792120534459318
2016-11-22,1,0.001507115574180918,0.0016846075360249604,-0.00685973761986192,0.0160372014120919,0.9818145961276707
2016-11-25,1,0.0005742515073073103,0.0006231758691555144,-0.00685973761986192,0.020358325859980306,0.9806928947916387
2016-11-29,1,9.283359698038555e-05,0.0001865507593760505,-0.00685973761986192,0.022586754976895933,0.9783980098324536
2016-12-01,1,0.003424618110290447,0.003839595366127193,-0.00685973761986192,0.01548428490669545,0.981646047556348
2016-12-05,1,0.004493610737373444,0.005181070454308387,-0.005857240779366295,0.020358325859980306,0.9808628463509523
2016-12-07,1,0.006589366834471771,0.0076362473824220815,-0.005857240779366295,0.01548428490669545,0.981572288544025
2016-12-09,1,0.0077379024036557074,0.008910539216175522,-0.005857240779366295,0.012700918485112612,0.982503117769953
2016-12-13,1,0.004842415219312339,0.005567418342046315,-0.0033772100334959476,0.01548428490669545,0.9853997041531402
2016-12-15,1,0.005836675964921328,0.006778727562662689,-0.005268477242532847,0.01548428490669545,0.9846082541302317
2016-12-19,1,0.0022640370036493378,0.0026019770960148047,-0.0052016517945676615,0.01548428490669545,0.9874783509863208
2016-12-21,1,0.0028161457970701806,0.0031439666079624627,-0.0052016517945676615,0.011919705643678773,0.9870440926260772
2016-12-23,1,0.0036241532080020554,0.00411028593483601,-0.0052016517945676615,0.01274635629731025,0.9849900939865717
2016-12-28,1,0.0031625117051931667,0.003586231414212984,-0.00556369631647411,0.008796534702469624,0.985018210663799
2016-12-30,1,0.003922538534233184,0.00450157563699446,-0.007119624534100735,0.009702693880208675,0.9839770055653745
2017-01-04,1,0.005731015606510004,0.006550141220111262,-0.008304545073033418,0.008944259174448235,0.9845033406653144
2017-01-06,1,0.0056333366071459785,0.006467556877926052,-0.008304545073033418,0.0105911738499572,0.9848341160246428
2017-01-10,1,0.00491120065254205,0.005586303550735121,-0.008304545073033418,0.0105911738499572,0.9852842744311836
2017-01-12,1,0.0058051271066401,0.006615580645224404,-0.01152782878337469,0.0105911738499572,0.9841858914817029
2017-01-17,1,0.005602431268341864,0.006464940093942373,-0.008304545073033418,0.012767884999715658,0.9847411685113806
2017-01-19,1,0.0044616325381851285,0.005110129658850503,-0.008394453035934054,0.012767884999715658,0.9841212281973302
2017-01-23,1,0.005406169016214626,0.006137778890323119,-0.008394453035934054,0.012767884999715658,0.9851853064422533
2017-01-25,1,0.008046644781027689,0.009271206649104732,-0.013473745852448022,0.0105911738499572,0.9844805178790205
2017-01-27,1,0.006174843490217911,0.007119596961473679,-0.012068395798393314,0.0105911738499572,0.987320367101792
2017-01-31,1,0.005543664415344882,0.006334460821586074,-0.011272161740706789,0.00847051907951559,0.98738358066402
2017-02-02,1,0.004485803225672176,0.005014239895255187,-0.012068395798393314,0.006683131018731442,0.9866153176255481
2017-02-06,1,0.004588865254640351,0.005093119387917593,-0.01533324994238046,0.004425480136726232,0.9848015974279475
2017-02-08,1,0.004145490854044838,0.004538360189423585,-0.016258117334344426,0.004864440984938436,0.9839289396822346
2017-02-10,1,0.004103525823044823,0.004423148290195056,-0.016258117334344426,0.004502373232524157,0.9856462131786492
2017-02-14,1,0.0049164307399960794,0.005342877005878541,-0.017572588612964866,0.0020711991829005464,0.984664688166306
2017-02-16,1,0.003258363775414449,0.003407713252973924,-0.016258117334344426,0.004416699637878068,0.9866100202869008
2017-02-21,1,0.002827582094670756,0.002848120869456443,-0.017572588612964866,0.0030117183463333023,0.9861624422592914
2017-02-23,1,0.0007389012499154174,0.0009614829282190457,-0.016258117334344426,0.004432864680717732,0.9892570993913482
2017-02-27,1,0.0008061059491678179,0.0009724836020205204,-0.016258117334344426,0.004432864680717732,0.9893384719682285
2017-03-01,0,-8.244932635263324e-05,0.00018727734732449318,-0.016258117334344426,0.007087719958761464,0.989022520433036
2017-03-03,-1,-0.0017338063631247235,-0.0012210751930870705,-0.01042841200867605,0.007087719958761464,0.9900812072409043
2017-03-07,-1,-0.002940700228322094,-0.0023056113106307867,-0.00649929696450203,0.008659558183209527,0.9908013813539244
2017-03-09,-1,-0.004776618539978843,-0.003808890004374914,-0.005563263951299928,0.007075688628526958,0.991565837518593
2017-03-13,-1,-0.0054971107112213695,-0.004392580947003299,-0.00649929696450203,0.007075688628526958,0.9914222721579137
2017-03-15,-1,-0.004437979169559646,-0.0035375875028256913,-0.00862515783732359,0.006294721769772671,0.9923436218399029
2017-03-17,-1,-0.004473660009186495,-0.003587997751107452,-0.008792153924055445,0.004518538275363821,0.9918678039001498
2017-03-21,-1,-0.005180826792983973,-0.004228683547530204,-0.008792153924055445,0.004518538275363821,0.9925399172500214
2017-03-23,-1,-0.005346060240847358,-0.004322429292239782,-0.009851653811607844,0.003977627615841818,0.9923881876180088
2017-03-27,-1,-0.006363809338006204,-0.005190742203037691,-0.009851653811607844,0.009001489889372064,0.9905893418153185
2017-03-29,-1,-0.004326189256049982,-0.0034765511291102074,-0.009851653811607844,0.003977627615841818,0.9919527245911395
2017-03-31,-1,-0.005210256238854122,-0.00423462571658108,-0.01165984596325731,0.003977627615841818,0.9913764280022181
2017-04-04,-1,-0.003663072642870198,-0.002993558796101984,-0.016605857462161727,0.00160048503264368,0.9861778884081438
2017-04-06,-1,-0.002156368326089091,-0.0017942704173518724,-0.016605857462161727,0.00160048503264368,0.9852796036229277
2017-04-10,-1,-0.0026187082468306787,-0.002195536859337999,-0.016605857462161727,0.001780077575279923,0.9858823383214955
2017-04-12,-1,-0.004831653172795337,-0.004063333950166136,-0.013805963299705258,0.004272134590490968,0.9863965135290493
2017-04-17,-1,-0.004614495371977341,-0.003962788985652272,-0.013805963299705258,0.006696839705145265,0.9846202896051207
2017-04-19,-1,-0.005974390553697218,-0.005099829846020917,-0.0166362647438479,0.006696839705145265,0.9837128006150376
2017-04-21,-1,-0.006191133642858976,-0.0052995681854054715,-0.014575058334219715,0.006738557698821511,0.9825496478833593
2017-04-25,-1,-0.005298961264413222,-0.004485575826170632,-0.020021607902794267,0.004272134590490968,0.9833272706521647
2017-04-27,-1,-0.003909943446754629,-0.0033855382748576787,-0.020021607902794267,0.004272134590490968,0.9832488608286633
2017-05-01,-1,-0.004657357978799254,-0.004043772069168023,-0.015653116389622714,0.006561939865909863,0.9830258974509707
2017-05-03,-1,-0.007821500485880359,-0.0069211572976680055,-0.011058454526733454,0.007683698799968136,0.9871840299907914
2017-05-05,-1,-0.006950715309616103,-0.006232954305690262,-0.010959960651154163,0.007683698799968136,0.9873203424827126
2017-05-09,-1,-0.007965747152602839,-0.007019190294078928,-0.012922082511479586,0.007683698799968136,0.9873310888731269
2017-05-11,-1,-0.0069180657044671575,-0.006117829985589135,-0.012922082511479586,0.009981265224807166,0.985061184953408
2017-05-15,-1,-0.008813272235063254,-0.0076745352563890624,-0.010959960651154163,0.007683698799968136,0.9865388837628447
2017-05-17,-1,-0.00900983822222709,-0.007929079311572539,-0.012922082511479586,0.007683698799968136,0.9856145252356269
2017-05-19,-1,-0.006833238097377232,-0.006028953228742389,-0.012922082511479586,0.007683698799968136,0.9864010642946854
2017-05-23,-1,-0.007490296328349683,-0.006604268826876047,-0.014006865367912834,0.006721400083158101,0.986539189415301
2017-05-25,-1,-0.007665518409189234,-0.006786555975803441,-0.014006865367912834,0.01188606942527346,0.9835817723343961
2017-05-30,-1,-0.006175167969235524,-0.005586199260744465,-0.015552933454341654,0.011860119585360256,0.982912569370044
2017-06-01,-1,-0.006141091229899968,-0.005544595175528827,-0.015552933454341654,0.011860119585360256,0.9833809965466429
2017-06-05,-1,-0.006119940153906796,-0.005535857689790121,-0.015552933454341654,0.014366690775563065,0.9811690417633793
2017-06-07,-1,-0.005876986413985711,-0.005377593408355596,-0.018660170723606144,0.014366690775563065,0.9797056006886296
2017-06-09,-1,-0.0035944199010030306,-0.0033221994031877584,-0.018660170723606144,0.012743698582921213,0.9799392354818205
2017-06-13,-1,-0.003733569222772802,-0.0034281990598541137,-0.018660170723606144,0.012743698582921213,0.9805420244729132
2017-06-15,-1,-0.004706557583777775,-0.0043770269765424094,-0.00803448908356694,0.013164009793276636,0.9819642025205009
2017-06-19,-1,-0.0023917951488258813,-0.002330965897706769,-0.00803448908356694,0.011459225924598112,0.982924618361111
2017-06-21,-1,-0.005047205997669089,-0.004715915031538203,-0.004724571331597978,0.014053672493678435,0.9827087814210322
2017-06-23,-1,-0.0023770510832339742,-0.002372862831199406,-0.005453621284392463,0.010418306413279253,0.9857458574769269
2017-06-27,-1,-0.0028561819055191837,-0.0028127896058409508,-0.005453621284392463,0.009827141552747658,0.9861242114190183
2017-06-29,-1,-0.0021709710831803782,-0.00207687759004135,-0.005453621284392463,0.011868150431121311,0.9850474850584555
2017-07-03,1,0.00024766611270583307,0.0006961376477382583,-0.006250910499868005,0.01055461458212032,0.9852720648322426
2017-07-06,-1,-0.001257925680222083,-0.0009435555218542371,-0.005453621284392463,0.01055461458212032,0.9865910584047941
2017-07-10,1,0.002324001653146207,0.003206752480866838,-0.006250910499868005,0.010500714849712553,0.9874541163605662
2017-07-12,1,0.0015826891820549193,0.002324789656213491,-0.014642344994737488,0.010500714849712553,0.9864785289103319
2017-07-14,1,0.0024897795610371223,0.0033998582190305723,-0.021078712489801324,0.0048890488970823355,0.9846799220442917
2017-07-18,1,0.002115554609149696,0.00285467632782163,-0.021078712489801324,0.002649079639436151,0.9845730583208476
2017-07-20,1,0.002893092785154176,0.0037255141015846032,-0.02353624077811086,0.002649079639436151,0.9834247370058832
2017-07-24,1,0.0023901402741636915,0.003129972285386899,-0.02353624077811086,0.002649079639436151,0.9836714197503432
2017-07-26,1,0.001305154385227994,0.0018527227237919897,-0.02039124761482052,0.00590479019857621,0.9848905867288004
2017-07-28,1,0.0017481496115812917,0.002287477495060304,-0.02039124761482052,0.003366588629045218,0.985324348176057
2017-08-01,1,0.000113309470883163,0.0004361936026341718,-0.015938714935986007,0.003366588629045218,0.9873991988933053
2017-08-03,-1,-0.0006245929093247433,-0.0003809587801627506,-0.013507242896781374,0.005039306639859529,0.988377259207365
2017-08-07,-1,-0.0008960729394659158,-0.000667396165262627,-0.013507242896781374,0.004647785090914578,0.9884163199573622
2017-08-09,-1,-0.001788692822586746,-0.0016647067965142963,-0.012230329796276909,0.006898081663744636,0.9887271740523088
2017-08-11,-1,-0.0034576490493805475,-0.003345868208234065,-0.008198692242153851,0.00828331460433738,0.9886092289619715
2017-08-15,-1,-0.0030122311499495872,-0.0029946363013265897,-0.00803595660896839,0.009570134750569836,0.9879653458837458
2017-08-17,-1,-0.003129700011571965,-0.0030863792040278296,-0.0066500969578011555,0.010956026775537298,0.9884952507456578
2017-08-21,-1,-0.0024922895019380857,-0.0023719539219281827,-0.0066500969578011555,0.011774373654217182,0.9866375799085185
2017-08-23,-1,-0.0017063581442719339,-0.0014907862432156495,-0.0066500969578011555,0.011195819884308265,0.9873714136716236
2017-08-25,-1,-0.0009614043904548456,-0.000631580941413894,-0.0066500969578011555,0.012967446028031114,0.9870289051473063
2017-08-29,-1,-0.0013343723604402652,-0.0010375141293246697,-0.006117731329595496,0.012967446028031114,0.987306706829571
2017-08-31,-1,-0.0010253600083511838,-0.000691362206821821,-0.006604609022959823,0.013808431500901707,0.9870796951301923
2017-09-05,-1,-0.002217236270059641,-0.0020889806963721408,-0.004469485969892774,0.013808431500901707,0.9878996990353819
2017-09-07,-1,-0.0022556939331040806,-0.0021814462100705747,-0.0037175372945052786,0.012774081471486941,0.9889832384060301
2017-09-11,-1,-0.001253384870973952,-0.0010746242075415865,-0.003809530475809446,0.011195819884308265,0.9898277173853907
2017-09-13,-1,-0.0009867981033782071,-0.0007731417877080905,-0.0037139022498972607,0.009143959672722307,0.9903590222155897
2017-09-15,1,0.0010002580649017127,0.0015671037552493152,-0.0037139022498972607,0.007709178687721871,0.9905969326706178
2017-09-19,1,0.0014998429257779486,0.002134233937811228,-0.0037139022498972607,0.006473530974253711,0.9911238559400772
2017-09-21,1,0.0015496878804976005,0.0021511996886367773,-0.0037139022498972607,0.006473530974253711,0.9908284868508574
2017-09-25,0,-0.00010480960712161744,8.766234705027823e-06,-0.0037139022498972607,0.006473530974253711,0.9900629060153433
2017-09-27,1,0.0001358144304489921,0.00026607658118539746,-0.004124614471104232,0.007709178687721871,0.9888444446537322
2017-09-29,1,0.0005248040775380547,0.0007141258484874332,-0.0064098144556442175,0.006473530974253711,0.988454249246966
2017-10-03,1,0.001053773703899419,0.0013404940660613467,-0.0064098144556442175,0.006771878430789557,0.9850397846410077
2017-10-05,1,0.0006237884897364569,0.0008238636508878998,-0.008230863883459526,0.009810364036187291,0.9844149360620663
2017-10-09,-1,-0.0009843557632958537,-0.0009201685613964175,-0.005687788066751082,0.009810364036187291,0.9855584756316064
2017-10-11,1,0.00014300447096532985,0.00030962114900366764,-0.005687788066751082,0.007978021409647438,0.9857729465465302
2017-10-13,1,0.0011328363721102392,0.0013946315560184953,-0.006514998466707525,0.0074893927370480885,0.9863242283346698
2017-10-17,-1,-0.0003876024205831659,-0.00036244464277302606,-0.006514998466707525,0.013744574117460048,0.9868149201632748
2017-10-19,-1,-0.0002385055582401117,-0.00019019878694391125,-0.008230863883459526,0.013744574117460048,0.9856672991101514
2017-10-23,-1,-0.0004238286553030059,-0.00040646512365120316,-0.006514998466707525,0.013849374202769485,0.9860024384739648
