JNU-Tangyin/eata/results/Batch4_SP500/Batch4_SP500-CTSH.csv
Date,Action,Predicted_Q25,Predicted_Q75,Actual_Q25,Actual_Q75,RL_Reward
2010-12-14,0,0.0,3.1850056511903066e-06,-0.004626883323357272,0.009157165039593289,0.9910067765642812
2010-12-16,0,0.0,0.0,-0.004626883323357272,0.006124926868774315,0.9912167446828054
2010-12-20,0,0.0,0.0,-0.006033809308441156,0.00588958914065444,0.9917212690545132
2010-12-22,0,0.0,0.0,-0.007865482160031656,0.004085126345357606,0.9911218014429388
2010-12-27,0,0.0,0.0,-0.00871054661703133,0.00588958914065444,0.9898767621039557
2010-12-29,0,0.0,0.0,-0.00871054661703133,0.0039047186221442026,0.9904735133886015
2010-12-31,0,0.0,0.0,-0.009790597542616417,0.00588958914065444,0.9891160821861174
2011-01-04,0,0.0,0.0,-0.00871054661703133,0.007686809074097519,0.9891414374063907
2011-01-06,1,0.0009413813361030705,0.0009614835723802475,-0.009576084658583497,0.006802221017995622,0.9896596033094065
2011-01-10,1,0.0010801722838413754,0.0011033867827458582,-0.010057791035720251,0.008096139008752463,0.9883128449875261
2011-01-12,1,0.0009275225642533998,0.0009309887070008445,-0.01244266362277721,0.011868669752885237,0.986266593029877
2011-01-14,1,0.0021918421469441273,0.002257617019944708,-0.01244266362277721,0.012547936940468653,0.9863961480953364
2011-01-19,0,0.0,0.0,-0.010057791035720251,0.012547936940468653,0.9871634839399834
2011-01-21,0,0.0,0.0,-0.0036495446707410033,0.012547936940468653,0.9874573261106266
2011-01-25,0,0.0,0.0,-0.01116268962606805,0.01120610162940698,0.9864508472940522
2011-01-27,1,0.0012281901494170817,0.001244525983960868,-0.01116268962606805,0.014156633986862541,0.9853623701132515
2011-01-31,1,0.0013567500997792613,0.0013787127972909213,-0.01116268962606805,0.01219182510930067,0.985600742754614
2011-02-02,1,0.002433194391022712,0.002565608623894294,-0.01116268962606805,0.01219182510930067,0.9863455807706787
2011-02-04,1,0.002428249492232916,0.0026046947721390244,-0.007395778369410001,0.01219182510930067,0.9867003705561405
2011-02-08,1,0.0027938521646114923,0.0029887254847924035,-0.005720865411886822,0.01219182510930067,0.9871236165984255
2011-02-10,1,0.002101255221813773,0.002226133738769691,-0.005720865411886822,0.01120610162940698,0.9878281885235942
2011-02-14,1,0.00173802122448931,0.001741578570501833,-0.014364867153471746,0.008741726309864736,0.9865348211195442
2011-02-16,1,0.0021075495360800382,0.0022121428773180687,-0.015388848821012128,0.011742333978204941,0.9847178639491965
2011-02-18,1,0.0028450161373198227,0.0030817643212549444,-0.015388848821012128,0.015135396746224843,0.9839262767927737
2011-02-23,1,0.0004943595192579002,0.0005921963430297754,-0.008393963596000678,0.017283372998048732,0.9856965745682904
2011-02-25,1,0.0007498593012677932,0.0007553801621060104,-0.008393963596000678,0.017283372998048732,0.9853735995825267
2011-03-01,1,0.0007082490496886219,0.0008271862746008251,-0.006782257991325506,0.01760391252766546,0.9860556426024886
2011-03-03,1,0.001772285496218521,0.0017924748773333569,-0.006782257991325506,0.016771337001331984,0.9868825199950659
2011-03-07,1,0.0012059775451811134,0.0013127383234843902,-0.006017683899503495,0.016771337001331984,0.9870004811982783
2011-03-09,1,0.0026132081291814248,0.00266431460121286,-0.007010448721119524,0.013472038937031399,0.9876180706899201
2011-03-11,1,0.0018115951285765594,0.0018142275151586777,-0.006901978266759863,0.013472038937031399,0.9884154523105845
2011-03-15,1,9.076979368873299e-05,0.0003040562326748754,-0.006811332930468641,0.013472038937031399,0.9898893871121464
2011-03-17,1,0.0012480863481775057,0.0012707318150579103,-0.006012382883149248,0.009774416358905713,0.991184831247895
2011-03-21,1,0.001211862690111829,0.0012841742731979785,-0.006886075217697123,0.007177407704324816,0.9906427009664163
2011-03-23,1,0.0018915950135722913,0.0018973778079608842,-0.006886075217697123,0.009774416358905713,0.9890188976552644
2011-03-25,1,0.0030592274927467695,0.0031150018292061244,-0.0071459017688640675,0.007177407704324816,0.9901022739293722
2011-03-29,1,0.00343118223531412,0.0034783347208046673,-0.0071459017688640675,0.005582098549652185,0.9907821738442274
2011-03-31,1,0.00300311026907732,0.003058866781806046,-0.0071459017688640675,0.005582098549652185,0.9904081569560553
2011-04-04,1,0.0029266424932317273,0.002992570389890558,-0.007610162760568856,0.00440720143771592,0.987586732023747
2011-04-06,0,0.0,0.0,-0.007901120243051162,0.00440720143771592,0.9882187041794819
2011-04-08,0,0.0,0.0,-0.007901120243051162,0.005582098549652185,0.9883260536701473
2011-04-12,-1,-0.0013332507891613769,-0.0009259639831397228,-0.008624342487912781,0.0070699769385419425,0.9873139033139433
2011-04-14,1,0.00044076214120063927,0.0005497126434611145,-0.009572135494303115,0.009708460340083222,0.9858749313550467
2011-04-18,0,-1.3828624549149069e-05,0.00017167971089661566,-0.008669039105566689,0.009708460340083222,0.9859081208883815
2011-04-20,1,0.0024764768243356328,0.0026008878641871056,-0.008669039105566689,0.004581425821451053,0.9873499069281908
2011-04-25,0,0.0,0.0,-0.012214936518959937,0.004492423124645427,0.9870626899186911
2011-04-27,0,0.0,0.0,-0.012214936518959937,0.007207427741422555,0.986182183354386
2011-04-29,0,0.0,0.0,-0.012214936518959937,0.007207427741422555,0.9859628608423165
2011-05-03,0,0.0,0.0,-0.012214936518959937,0.009708460340083222,0.9872745794762353
2011-05-05,1,0.0001485079384951828,0.00034185668951688627,-0.01994779774582353,0.012933603049500995,0.9864030523477592
2011-05-09,1,0.00019961646301927224,0.00040865866126317855,-0.01994779774582353,0.012933603049500995,0.9867043755343122
2011-05-11,1,1.641318314087514e-05,0.00022483766153871864,-0.019179570511814743,0.011018153269863194,0.9869686149358515
2011-05-13,1,6.578663594588007e-05,0.0002274183084961845,-0.01938629822359304,0.007699506549515006,0.9867767019747992
2011-05-17,-1,-0.0008283155754708605,-0.0005628538465546897,-0.01938629822359304,0.007699506549515006,0.9864353606713316
2011-05-19,-1,-0.0009264564172994055,-0.0006589565790538028,-0.020784998133885256,0.011018153269863194,0.9838375062611429
2011-05-23,-1,-0.0015893027736051614,-0.001283673166986328,-0.01938629822359304,0.013255810937343111,0.9820281945462538
2011-05-25,-1,-0.0010882505199987698,-0.0008117623276988129,-0.01938629822359304,0.011018153269863194,0.9826273042159163
2011-05-27,-1,-0.0005769060312346558,-0.00038367432162884647,-0.01938629822359304,0.010410291805822973,0.9827298839953483
2011-06-01,-1,-0.000415608289951455,-0.0002657690689807062,-0.01473422206340494,0.010410291805822973,0.9837263807437392
2011-06-03,-1,-0.0008118103714606432,-0.0006124446803574405,-0.009341715247949104,0.010410291805822973,0.9841211755498074
2011-06-07,-1,-0.0007444147105092883,-0.0005432029854123276,-0.009341715247949104,0.010734125953614483,0.9836431408769722
2011-06-09,-1,-0.0009574449486911312,-0.0007299735190966178,-0.009341715247949104,0.012096895444856022,0.9832370418603671
2011-06-13,-1,-0.002584888848335693,-0.002158035722966606,-0.013979954640268594,0.012096895444856022,0.9831211980334069
2011-06-15,-1,-0.004561834476634921,-0.0038653979837772537,-0.013498662717593882,0.012096895444856022,0.9836156603598524
2011-06-17,-1,-0.0038037537716814887,-0.003208344934507267,-0.013498662717593882,0.012096895444856022,0.9849813548047529
2011-06-21,-1,-0.0010823592861660964,-0.0007967667209398835,-0.014531458543835057,0.012096895444856022,0.9865031155276849
2011-06-23,-1,-0.0012425654008429115,-0.0009475336152088678,-0.014531458543835057,0.012096895444856022,0.9864471083129266
2011-06-27,-1,-0.0006640835106882021,-0.0005135163836022844,-0.014531458543835057,0.012096895444856022,0.986926176771644
2011-06-29,-1,-0.0005621406941590183,-0.0004144047180445948,-0.016061226475742263,0.008499472798060594,0.985255749811282
2011-07-01,1,0.0008567494418403697,0.0009216743197506389,-0.016061226475742263,0.008499472798060594,0.985840696261291
2011-07-06,1,0.0007244789966754375,0.0007268985095089779,-0.016061226475742263,0.008561515421039926,0.9846584701894843
2011-07-08,1,0.0009897809435982757,0.0010422182581319975,-0.017006831625238028,0.006759163185591722,0.9831826485574744
2011-07-12,0,0.0,0.0,-0.015305279365564674,0.008561515421039926,0.9779969195442039
2011-07-14,0,0.0,0.0,-0.020041543418780193,0.012608964291509681,0.9743251870941192
2011-07-18,0,0.0,0.0,-0.014034973008595951,0.015299230857731376,0.9744116657490648
2011-07-20,-1,-5.8666635790045066e-05,-2.1827447512587933e-05,-0.013959954136866258,0.008561515421039926,0.9755091050201733
2011-07-22,0,0.0,0.0,-0.027100166159653466,0.01054413632346427,0.9707461437388988
2011-07-26,0,0.0,0.0,-0.027100166159653466,0.025804841436099853,0.9675262761134784
2011-07-28,0,0.0,0.0,-0.01912589335556918,0.025804841436099853,0.9685453607238358
2011-08-01,1,0.0007180577422652604,0.0007715247942267468,-0.01912589335556918,0.029090207340536196,0.9661910490653027
2011-08-03,-1,-0.0010129354371818616,-0.0008844758142716954,-0.01912589335556918,0.02683118487564133,0.9673236322269654
2011-08-05,0,0.0,0.0,-0.01912589335556918,0.02683118487564133,0.968621770497308
2011-08-09,0,0.0,0.0,-0.013653350263647399,0.02683118487564133,0.9719634677067089
2011-08-11,-1,-0.0065190147062847625,-0.0056953830974984,-0.019035982741415228,0.025804841436099853,0.974745778880785
2011-08-15,-1,-0.00520259384037091,-0.004575325031832436,-0.019035982741415228,0.015426156899038876,0.975052050454476
2011-08-17,-1,-0.005155483029609555,-0.004626411392727103,-0.013918790893203747,0.02683118487564133,0.9728786411485872
2011-08-19,-1,-0.007221404210922711,-0.006486911315378684,-0.01355910907786197,0.02683118487564133,0.9765060634392951
2011-08-23,-1,-0.0030893639279371363,-0.0028573274168414487,-0.018190063105608355,0.013405409472259069,0.9809260322588719
2011-08-25,-1,-0.003207244194546285,-0.002992911590558754,-0.018190063105608355,0.02065995740786414,0.9796222388875286
2011-08-29,-1,-0.0007278290927686199,-0.0006655428271722453,-0.018190063105608355,0.019879414909873678,0.9798481019220227
2011-08-31,-1,-0.0006445236015547224,-0.000604473518616389,-0.018753259184058943,0.019879414909873678,0.9794780053239882
2011-09-02,-1,-0.0022444696385370624,-0.002088081418285196,-0.02025701265275222,0.019879414909873678,0.9784084770702656
2011-09-07,1,0.0005168208120691217,0.0007392454381655518,-0.02025701265275222,0.019879414909873678,0.9803701007413579
2011-09-09,-1,-0.002741489539503133,-0.0024813045984244503,-0.018190063105608355,0.024343165522431695,0.9803779193887465
2011-09-13,-1,-0.00044248695658860533,-0.0002963334721148299,-0.018190063105608355,0.025520876477327623,0.9800007236689339
2011-09-15,1,0.0016688613555850707,0.0020863004555816975,-0.018190063105608355,0.025520876477327623,0.9795533116964731
2011-09-19,1,0.0010673934429370241,0.0014082229013288178,-0.01366934953824292,0.025520876477327623,0.9791595648453874
2011-09-21,1,0.0007146196025333552,0.0010500727843578367,-0.013402742820755213,0.025520876477327623,0.9792231548896171
2011-09-23,0,0.0,0.0,-0.012516680430791766,0.024343165522431695,0.9806236527445032
2011-09-27,1,0.0025607673545786917,0.003101105305917193,-0.014397610978064239,0.017016031717327164,0.9818975402560397
2011-09-29,0,0.0,0.0,-0.012516680430791766,0.019265218011374784,0.9786237761606472
2011-10-03,0,0.0,0.0,-0.011861742384033591,0.019265218011374784,0.9789741662507224
2011-10-05,0,0.0,0.0,-0.013658760234852366,0.017016031717327164,0.9789663934192857
2011-10-07,0,0.0,0.0,-0.013658760234852366,0.017016031717327164,0.9796994106416617
2011-10-11,0,0.0,0.0,-0.013658760234852366,0.01449081678679711,0.9807788044779537
2011-10-13,0,0.0,0.0,-0.014839245918318962,0.012786541765180123,0.9809164919094818
2011-10-17,0,0.0,0.0,-0.017223704271068757,0.012786541765180123,0.9804056522332905
2011-10-19,0,0.0,0.004668243900280527,-0.01704503131855072,0.014610134418544638,0.9810294111255485
2011-10-21,1,0.004348164873355279,0.005122136353443853,-0.01787985149605552,0.014610134418544638,0.9778506613954226
2011-10-25,0,0.0,0.0,-0.017900837843327935,0.012786541765180123,0.9791264102383598
2011-10-27,0,0.0,0.0,-0.019553409582180888,0.007470285048043234,0.9807016604421965
2011-10-31,0,0.0,0.0,-0.017900837843327935,0.00953789303688046,0.9813551411503282
2011-11-02,0,0.0,0.0,-0.01704503131855072,0.014048272167563595,0.9811634762426205
2011-11-04,0,0.0,0.0,-0.01704503131855072,0.015426152575975247,0.9806551382079037
2011-11-08,0,0.0,0.0,-0.01704503131855072,0.015426152575975247,0.9813697071976996
2011-11-10,0,0.0,0.0,-0.01704503131855072,0.0214799096917709,0.9809557300348003
2011-11-14,0,0.0,0.0,-0.017218446521467364,0.015426152575975247,0.981142677860141
2011-11-16,0,0.0,0.0,-0.019553409582180888,0.009782346288208857,0.9816984937015454
2011-11-18,0,0.0,0.0,-0.021083409883642594,0.009782346288208857,0.9822168102077012
2011-11-22,0,0.0,0.0,-0.0221833623259381,0.015426152575975247,0.9781072604255624
2011-11-25,0,0.0,0.0,-0.01100938528857682,0.015426152575975247,0.9800731370539705
2011-11-29,0,0.0,0.0,-0.017033064626842537,0.01187248192572939,0.9808008630955866
2011-12-01,0,0.0,0.0,-0.017033064626842537,0.010493371544053722,0.9820177651002374
2011-12-05,0,0.0,0.0,-0.017033064626842537,0.008370269378917697,0.9824615951944159
2011-12-07,0,0.0,0.0,-0.017033064626842537,0.010493371544053722,0.9809906724878882
2011-12-09,0,0.0,0.0,-0.013780859606960433,0.010493371544053722,0.9817052863791524
2011-12-13,0,0.0,0.0,-0.013780859606960433,0.010493371544053722,0.9822703152827303
2011-12-15,0,0.0,0.0,-0.01162571053464979,0.010493371544053722,0.9833308546288527
2011-12-19,0,0.0,0.0,-0.007083700563163707,0.011867677899761998,0.9833793209771151
2011-12-21,0,0.0,0.0,-0.0004450047503572127,0.010493371544053722,0.9884497554568721
2011-12-23,0,0.0,0.0,-0.0004450047503572127,0.008769209601852984,0.9884784957332103
2011-12-28,-1,-0.00034963119698859746,-0.0003313143988502577,0.0013821617241935049,0.008769209601852984,0.9889052440244058
2011-12-30,-1,-0.0014349087165967207,-0.001356256116973421,-0.00020390623516558732,0.008893036176843026,0.9885690629956552
2012-01-04,0,0.0,0.0,-0.004808360683157858,0.008893036176843026,0.9893992052008264
2012-01-06,0,0.0,0.0,-0.004808360683157858,0.008764446317976517,0.9898736904367422
2012-01-10,1,0.0007553162401540707,0.000901678415948183,-0.005611819354038164,0.008126578362289982,0.9914735750177879
2012-01-12,-1,-0.0009856019959428352,-0.000585371021515799,-0.005611819354038164,0.008126578362289982,0.9920849108051568
2012-01-17,-1,-0.00022508348526621106,-3.9401635503891696e-05,-0.004943768249884084,0.008172366231763505,0.9921664758272266
2012-01-19,-1,-0.0006178698010077905,-0.0003530865457777502,-0.004943768249884084,0.008172366231763505,0.9922894471645389
2012-01-23,1,0.000845183937068942,0.0008604195547853807,-0.0068401991321553075,0.008172366231763505,0.9917636081115037
2012-01-25,1,0.001164800250429367,0.001207211170166804,-0.007540626244403878,0.007662890487638358,0.9916896473980369
2012-01-27,0,-2.130120288616473e-05,0.00015997353638389454,-0.0068568834594603155,0.008648018852618837,0.9911944510816215
2012-01-31,1,0.001297355686985431,0.0014515338653129646,-0.0077894667150714796,0.007662890487638358,0.9908252127614936
2012-02-02,0,0.0,0.0,-0.0077894667150714796,0.006316308190572076,0.9919258959477042
2012-02-06,0,0.0,0.0,-0.0077894667150714796,0.0025414908321860124,0.9922926602142889
2012-02-08,0,0.0,0.0,-0.0068568834594603155,0.007662890487638358,0.9916840022221474
2012-02-10,0,0.0,0.0,-0.0063405394284829835,0.007662890487638358,0.9919745304949212
2012-02-14,0,0.0,0.0,-0.0063405394284829835,0.008115639001940352,0.9903263104838427
2012-02-16,0,0.0,0.0,-0.0063405394284829835,0.008878756859690076,0.9901703884095276
2012-02-21,0,0.0,0.0,-0.005696947188905382,0.008878756859690076,0.9903648986100857
2012-02-23,0,0.0,0.0,-0.005696947188905382,0.010612060304425961,0.9899848173645405
2012-02-27,0,0.0,0.0,-0.005696947188905382,0.010612060304425961,0.9903698051778742
2012-02-29,-1,-0.00035703014968086995,-0.0002547339575219089,-0.004551493595148238,0.010612060304425961,0.9903058195469906
2012-03-02,1,6.420862339036307e-05,0.00011565505368525751,-0.004551493595148238,0.010612060304425961,0.9901476615930103
2012-03-06,1,0.00025458033025446886,0.00028028967564140364,-0.004551493595148238,0.010612060304425961,0.9904441379670124
2012-03-08,0,0.0,0.0,-0.004551493595148238,0.009546266030263787,0.9914593351473533
2012-03-12,0,0.0,0.0,-0.007828721416965239,0.009546266030263787,0.9900535733778745
2012-03-14,1,0.0018784541829348737,0.002308844111517306,-0.007828721416965239,0.009546266030263787,0.9907945380637281
2012-03-16,1,0.0029667100388792124,0.0035630556113020037,-0.010283064391079849,0.0076429932690654685,0.9883879535768649
2012-03-20,0,0.0,0.0,-0.013375367916326583,0.009699372799022079,0.9879631301258303
2012-03-22,0,0.0,0.0,-0.013375367916326583,0.0076429932690654685,0.9883644935006775
2012-03-26,0,0.0,0.0,-0.013375367916326583,0.0076429932690654685,0.9886648291345916
2012-03-28,1,0.0011697590730979962,0.0013150730864598488,-0.011536638985578109,0.008548879111579241,0.9883079880215605
2012-03-30,1,0.0013370060993054124,0.0015215649139249067,-0.011536638985578109,0.008086135517675414,0.9879559352674696
2012-04-03,0,0.0,0.0,-0.011536638985578109,0.008086135517675414,0.9881571106655479
2012-04-05,0,0.0,0.0,-0.015642622529363368,0.007488745404430859,0.9866699335624027
2012-04-10,0,0.0,0.0,-0.01620773454203872,0.008086135517675414,0.9799580375971011
2012-04-12,0,0.0,0.0,-0.01620773454203872,0.007669480600100188,0.9806014914654222
2012-04-16,0,0.0,0.0,-0.012975659913161852,0.007669480600100188,0.9820045601285395
2012-04-18,-1,-0.00046926523981255655,-0.0004178975168741494,-0.011337379038419214,0.007669480600100188,0.9824994237298912
2012-04-20,0,0.0,0.0,-0.013981422748983575,0.007669480600100188,0.9822977834899017
2012-04-24,0,0.0,0.0,-0.013981422748983575,0.007669480600100188,0.9815313065872209
2012-04-26,1,0.0002677442730582287,0.0003023996066891121,-0.01616264312857034,0.006083131523327613,0.9814161593820181
2012-04-30,0,0.0,0.0,-0.01616264312857034,0.006083131523327613,0.9813115050408957
2012-05-02,0,0.0,0.0,-0.019228254293347742,0.006083131523327613,0.9795138155809828
2012-05-04,0,0.0,0.0,-0.01616264312857034,0.00986066423203492,0.9796511632206558
2012-05-08,0,0.0,0.0,-0.013981422748983575,0.00986066423203492,0.986106190354571
2012-05-10,0,0.0,0.0,-0.013981422748983575,0.009733734285912338,0.9856850615598389
2012-05-14,0,0.0,0.0,-0.013458463040366004,0.01152973523377876,0.9857377597068504
2012-05-16,0,0.0,0.0,-0.013088119956850946,0.008596646803749691,0.9869222840860971
2012-05-18,0,0.0,0.0,-0.01101673609477264,0.01152973523377876,0.9861915201219338
2012-05-22,-1,-0.0039682585543391,-0.0034069197303961576,-0.01101673609477264,0.008596646803749691,0.9869226386655314
2012-05-24,-1,-0.0046557625675315,-0.004056891551036245,-0.01101673609477264,0.008923219257925387,0.9856655869127202
2012-05-29,-1,-0.004528175074856344,-0.0038539998359278637,-0.013088119956850946,0.008298578304341667,0.9860046665614448
2012-05-31,-1,-0.005530970968978855,-0.004754842104899369,-0.013088119956850946,0.008923219257925387,0.9860002676177132
2012-06-04,0,0.0,0.0,-0.0108690550897873,0.008923219257925387,0.984238217088399
2012-06-06,0,0.0,0.0,-0.0108690550897873,0.008298578304341667,0.9853768779876534
2012-06-08,0,0.0,0.0,-0.010980985205067172,0.008298578304341667,0.9840848993172232
2012-06-12,0,0.0,0.0,-0.01177009775836822,0.007947027117495547,0.98393824610457
2012-06-14,0,0.0,0.0,-0.01753465136318033,0.00805588460222078,0.9816839181946376
2012-06-18,0,0.0,0.0,-0.01753465136318033,0.00805588460222078,0.9823804981944746
2012-06-20,0,0.0,0.0,-0.01753465136318033,0.009410564859377291,0.981561558195633
2012-06-22,0,0.0,0.0,-0.01753465136318033,0.008841298703080707,0.9818394124201156
2012-06-26,1,3.786611892158721e-06,4.141173171847854e-06,-0.016251799027630378,0.009006350522344095,0.9820018083190966
2012-06-28,-1,-0.0024536840358777238,-0.0021957730212380194,-0.014577530527166037,0.015863384402013674,0.9817192195393492
2012-07-02,-1,-0.0008251004842523765,-0.0008229474704926896,-0.016251799027630378,0.009897093623757453,0.9840571952346215
2012-07-05,1,0.00028989760479857397,0.0003788256726263272,-0.016251799027630378,0.009897093623757453,0.9841770354509154
2012-07-09,0,0.0,0.0,-0.014577530527166037,0.017953774231289136,0.9803218033343165
2012-07-11,0,0.0,0.0,-0.010686860616680496,0.017953774231289136,0.9808256792083085
2012-07-13,0,0.0,0.0,-0.009093355527480262,0.015863384402013674,0.9830608430362394
2012-07-17,0,0.0,0.0,-0.009492175717783463,0.010885763418470326,0.9834801652914952
2012-07-19,-1,-0.000987586949962275,-0.0009020332978641823,-0.009492175717783463,0.010885763418470326,0.9833620731510054
2012-07-23,-1,-0.0020401778598287497,-0.0018084901638718892,-0.008992437901877166,0.010885763418470326,0.9847828880088193
2012-07-25,-1,-0.0021039213603904405,-0.001879442600545982,-0.007329033422116343,0.010885763418470326,0.9851463301472474
2012-07-27,-1,-0.000968638816981921,-0.0008598668526999534,-0.007329033422116343,0.006595270343867359,0.9872582253757793
2012-07-31,-1,-0.0013294250534154263,-0.001235184816030889,-0.005900015761178181,0.006595270343867359,0.9883601282809485
2012-08-02,-1,-0.001338893758128545,-0.0012390204473710872,-0.005900015761178181,0.006595270343867359,0.9879045556574106
2012-08-06,1,0.0021505785747023276,0.002540757674041067,-0.005900015761178181,0.005373606516568991,0.9936227332372853
2012-08-08,1,0.002538752659050071,0.003009902896509577,-0.005522102255272335,0.005373606516568991,0.9924479138234319
2012-08-10,1,0.002583893044326473,0.003048260675025345,-0.00567560489151177,0.005373606516568991,0.9915880653144364
2012-08-14,1,0.002358050403871174,0.002802701743133476,-0.005501218653564265,0.006701150672543003,0.9916629909670437
2012-08-16,0,0.0,0.0,-0.00494712836071704,0.008714056416474084,0.9908080010848443
2012-08-20,0,0.0,0.0,-0.004851835308685177,0.008714056416474084,0.9898263965831405
2012-08-22,1,0.0014307707878841794,0.002091699782482544,-0.005113423521137168,0.008714056416474084,0.9902188279464337
2012-08-24,1,0.002013053089375745,0.0025563556633525835,-0.005113423521137168,0.008714056416474084,0.989960742451639
2012-08-28,1,0.002184549869535379,0.0027772144886567102,-0.005297805815396031,0.008714056416474084,0.989884300609697
2012-08-30,1,0.0016785640930560319,0.0021604016157130675,-0.005113423521137168,0.013773715011237066,0.9895499497829129
2012-09-04,0,0.0,0.0,-0.005113423521137168,0.014738050630609532,0.988658103598696
2012-09-06,0,0.0,0.0,-0.0029069390575868007,0.013773715011237066,0.9900304742451734
2012-09-10,0,0.0,0.0,-0.0029069390575868007,0.0127077385271924,0.9909173091109282
2012-09-12,0,0.0,0.0,-0.005571331825256896,0.007416818706921005,0.990549284023115
2012-09-14,0,0.0,0.0,-0.005571331825256896,0.005397087068170501,0.9920112872307248
2012-09-18,0,0.0,0.0,-0.004426481243474291,0.005934846065070276,0.9931121153229467
2012-09-20,0,0.0,0.0,-0.004750755684253519,0.005934846065070276,0.9928166023480046
2012-09-24,0,0.0,0.0,-0.006916571771587202,0.006529274912418254,0.992013366624393
2012-09-26,0,0.0,0.0,-0.007070456276219393,0.006529274912418254,0.9915755460028506
2012-09-28,1,0.0033115933080451188,0.0038430500811342137,-0.008666527391666257,0.004481303162892999,0.9908665114263405
2012-10-02,1,0.004188879678121269,0.004882762764018862,-0.008666527391666257,0.004481303162892999,0.9910476416983466
2012-10-04,0,0.0,0.0,-0.009065210068642294,0.0008302860010894398,0.9918525070257771
2012-10-08,0,0.0,0.0,-0.009065210068642294,0.004415901354133366,0.9908918225402257
2012-10-10,0,0.0,0.0,-0.009013706879925023,0.006529274912418254,0.9904956556696023
2012-10-12,0,0.0,0.0,-0.010119857457488822,0.004415901354133366,0.9904962642881308
2012-10-16,0,0.0,0.0,-0.0111759261657624,0.0015322994283831068,0.9897032601937372
2012-10-18,0,0.0,0.0,-0.0111759261657624,0.009097638609123505,0.9894626346938363
2012-10-22,0,0.0,0.0,-0.012740270071763626,0.006778075350248807,0.9898997425685231
2012-10-24,0,0.0,0.0,-0.010680632198366579,0.009097638609123505,0.9896646192583676
2012-10-26,0,0.0,0.0,-0.008067836089250742,0.009097638609123505,0.9905683149062228
2012-11-01,0,0.0,0.0,-0.008067836089250742,0.011188090549459986,0.9898837735131072
2012-11-05,0,0.0,0.0,-0.006957056766285666,0.011188090549459986,0.9904538685325904
2012-11-07,0,0.0,0.0,-0.006957056766285666,0.011188090549459986,0.9896797223383064
2012-11-09,-1,-0.0005346718770581782,-0.0002531127396156863,-0.004493725624460188,0.009732428213815533,0.9907691189809723
2012-11-13,-1,-0.0009330354328595926,-0.0006174100525298796,-0.0016560838314922197,0.011206698057517903,0.9901749067813523
2012-11-15,-1,-0.0017923791309922721,-0.0013182420719245493,-0.0011073279300674833,0.009739854060260407,0.9907470010494271
2012-11-19,-1,-0.0014885136447329672,-0.0010612954052262216,-0.0011073279300674833,0.010634339626289742,0.990588105797729
2012-11-21,-1,-0.0018994221773972729,-0.001451037060567002,-0.0011073279300674833,0.010634339626289742,0.9901327542337649
2012-11-26,-1,-0.0006368138860585817,-0.0003890110557571737,-0.0011073279300674833,0.006917167974940448,0.9914616294824389
2012-11-28,-1,-0.000547191441612274,-0.00033442232101128517,-0.0016553161219844581,0.006917167974940448,0.9917312162511916
2012-11-30,0,-0.00021517945724245692,9.98075358435472e-05,-0.0022196042322472154,0.006917167974940448,0.9915324966064192
2012-12-04,-1,-0.0007942993450627046,-0.00040833671327035167,-0.0022196042322472154,0.011456875484059135,0.9897569683821944
2012-12-06,1,0.0014911567504691055,0.0014956443691132824,-0.0024730571677305914,0.006917167974940448,0.9914287506136374
2012-12-10,1,0.0019997856770404008,0.0021175776716709444,-0.003333460124140106,0.006113069591709322,0.9910637366215711
2012-12-12,1,0.0026930622367697587,0.002920777711491296,-0.003333460124140106,0.00675654438729312,0.9895396915960816
2012-12-14,1,0.001683772062463603,0.0017501713383920386,-0.004060903971550257,0.00675654438729312,0.9895749194112758
2012-12-18,1,0.0021767991404811546,0.0022851599062944485,-0.004060903971550257,0.0062084512842203714,0.9900353387193295
2012-12-20,1,0.0028484715608224458,0.0031290966550715687,-0.004060903971550257,0.006956706554922145,0.9896565521558899
2012-12-24,1,0.0015858908674512364,0.0016161211900782844,-0.0065829213164759846,0.006956706554922145,0.9893944335283669
2012-12-27,1,0.0012231495464673297,0.0012517499727712673,-0.0065829213164759846,0.008725524740186848,0.989462995369477
2012-12-31,1,0.0026315943022807366,0.002795896017923985,-0.004179035546556211,0.006956706554922145,0.990691492615155
2013-01-03,1,0.0026595666008012186,0.0028259255966254946,-0.0027155384502006415,0.006956706554922145,0.9922888597356416
2013-01-07,1,0.0027118476916148347,0.0028996205378599895,-0.004179035546556211,0.007647222029506179,0.9914995876297984
2013-01-09,1,0.001749139022567059,0.001779693273282778,-0.004179035546556211,0.008725524740186848,0.9898277698391721
2013-01-11,1,0.0022410723148677436,0.0023833174392123785,-0.0068883721486248314,0.006638785276710741,0.9911180521651561
2013-01-15,1,0.0015854545887223476,0.0016070455474718965,-0.007725568203688393,0.006638785276710741,0.9909050200086407
2013-01-17,1,0.001808895218829609,0.001878490451801126,-0.007725568203688393,0.007695709372414738,0.990747543959468
2013-01-22,1,0.0014580896291787842,0.0014721434901529917,-0.007725568203688393,0.007695709372414738,0.990207685614833
2013-01-24,1,0.00044526871444460295,0.0005549099546342556,-0.00888719996639091,0.008870986768912525,0.9890290541841957
2013-01-28,1,0.0004250540727716121,0.0005627161559501473,-0.012667437027278324,0.007695709372414738,0.988687428507202
2013-01-30,1,0.0005952118909960336,0.0007054776283054229,-0.012667437027278324,0.009154410203484205,0.9876925569072516
2013-02-01,1,0.0015073058579985002,0.0015530592148538679,-0.012667437027278324,0.010406302538921858,0.9871087745696974
2013-02-05,1,0.0012595755259998457,0.0012758599094873022,-0.00800287276953467,0.015406636388337383,0.9870209103960353
2013-02-07,1,0.0020403390214208507,0.0022051766970557106,-0.005669926804323726,0.011888764530785904,0.9895832806606775
2013-02-11,1,0.001725844500298471,0.001941453408102589,-0.007323904831131371,0.011888764530785904,0.9896568703087262
2013-02-13,1,0.0007195906608686099,0.0007258881222634328,-0.007096984924940713,0.011888764530785904,0.9897797992614319
2013-02-15,1,0.0007516470525698664,0.0007547352158169974,-0.009181984548641888,0.011888764530785904,0.9895953912635786
2013-02-20,1,0.0007456956069651888,0.000751803669136348,-0.007195318721170116,0.00894764027085689,0.9906835037969395
2013-02-22,1,0.000646103172880211,0.0006802647745520991,-0.009181984548641888,0.007046027861008733,0.9908992903316937
2013-02-26,1,0.0006787476634746534,0.0007124706357870988,-0.0073736398847622595,0.007046027861008733,0.9912323788909657
2013-02-28,1,0.0012198694045636874,0.001355754320804389,-0.0073736398847622595,0.007046027861008733,0.9904178499741979
2013-03-04,1,0.0023516370234961835,0.0026421878515446168,-0.0073736398847622595,0.0023865353096475493,0.9906925897651087
2013-03-06,1,0.002882720646920988,0.0032324385636491385,-0.009181984548641888,0.00020529200567853732,0.9898692769985442
2013-03-08,1,0.0021949838723331217,0.002395739008553931,-0.009537470404697669,0.0017124370858887356,0.9895724813186149
2013-03-12,1,0.0015694984837580695,0.001700945050005976,-0.0074996327971520406,0.0023865353096475493,0.9896225131739489
2013-03-14,1,0.001298494440796957,0.0014273432478456411,-0.009930822902541558,0.003972597383067724,0.9879394380345176
2013-03-18,1,0.0007485174695466142,0.0007606270228454404,-0.012328687175639612,0.003972597383067724,0.9868279385482701
2013-03-20,1,0.0008070211454105669,0.0008456703027816558,-0.01692883922719714,0.0019475448384362701,0.9859315321332563
2013-03-22,-1,-0.0012332793648884917,-0.0010225517615788109,-0.016991475665179515,0.0019475448384362701,0.9858406438981068
2013-03-26,-1,-0.0020217962440991074,-0.0016798148857740404,-0.02375749924324995,-0.0013177993566642183,0.9832960863533342
2013-03-28,-1,-0.0008795065414155546,-0.0007018691946071775,-0.02375749924324995,-0.0013177993566642183,0.9836231416018602
2013-04-02,-1,-0.0019504990511276022,-0.0016136717041238334,-0.02375749924324995,0.010613589589624824,0.9821292804755546
2013-04-04,-1,-0.0025195067504055484,-0.0021449771543465405,-0.02375749924324995,0.012816070345400207,0.9817182105696626
2013-04-08,-1,-0.0028091336928285503,-0.0023648435624847733,-0.02375749924324995,0.013954708325813962,0.9805513304565324
2013-04-10,-1,-0.0019536594305966637,-0.0015763233444739415,-0.02375749924324995,0.013954708325813962,0.978642670338807
2013-04-12,-1,-0.0024972405689809678,-0.0020490852666891005,-0.02375749924324995,0.010804183020208675,0.978366314185885
2013-04-16,-1,-0.0040176498193315886,-0.0034257586816333384,-0.02375749924324995,0.010804183020208675,0.9787582379025254
2013-04-18,-1,-0.005401112596606292,-0.004630803896816233,-0.021571344431611246,0.013954708325813962,0.977696673106927
2013-04-22,-1,-0.007140391726307878,-0.0061827320661183485,-0.01925328619637145,0.01917036116109796,0.977640933009753
2013-04-24,-1,-0.009849045246843642,-0.008572400282368137,-0.014511472137656346,0.01917036116109796,0.9791295082884953
2013-04-26,-1,-0.009230931032715915,-0.008060626070059834,-0.015097678109707259,0.01917036116109796,0.9796185081665665
2013-04-30,-1,-0.007480947060839497,-0.006517707705916073,-0.015097678109707259,0.009700866251345398,0.9815695365032807
2013-05-02,-1,-0.006879419125420871,-0.006042576693204438,-0.014511472137656346,0.00838635794016195,0.9822638423885557
2013-05-06,-1,-0.006156942087110437,-0.005431799595408017,-0.012498992236239381,0.008156719297606944,0.9840340796005458
2013-05-08,-1,-0.004194058837488411,-0.0037210244788206115,-0.014578551652368777,0.008156719297606944,0.985526566020069
2013-05-10,-1,-0.006100855892223734,-0.005409958760572139,-0.014578551652368777,0.00838635794016195,0.9851473291137611
2013-05-14,-1,-0.007012517393532543,-0.006266719382579637,-0.008630854753045824,0.00838635794016195,0.9856300497545162
2013-05-16,-1,-0.0065027532354925395,-0.005810414348609672,-0.008630854753045824,0.008156719297606944,0.9877072515882861
2013-05-20,-1,-0.005801632668834227,-0.005178191874982056,-0.005646018946311545,0.008156719297606944,0.9890390484749028
2013-05-22,-1,-0.005154148173970886,-0.004604622446128722,-0.009121381678716522,0.00773851358586356,0.9897307922236117
2013-05-24,-1,-0.005414032420320285,-0.004859973233819079,-0.008303157707472869,0.00773851358586356,0.9899323107136352
2013-05-29,-1,-0.004622228717201842,-0.004175095895301873,-0.008303157707472869,0.00835216706173495,0.9887248201449284
2013-05-31,-1,-0.004212561030115355,-0.0038260674900557927,-0.010278897995837604,0.008001006062408271,0.9889146610190449
2013-06-04,-1,-0.00411476585762551,-0.0036923764663699407,-0.010278897995837604,0.011034666687860743,0.987733285788974
2013-06-06,-1,-0.001326682378679813,-0.0012344891190441028,-0.008303157707472869,0.008075522420401254,0.9885697559109959
2013-06-10,-1,-0.001958713216658185,-0.0017838844756521376,-0.007419406167680939,0.008075522420401254,0.9901538379786144
2013-06-12,-1,-0.001619660578897545,-0.0014918273054396062,-0.007419406167680939,0.013488823130234612,0.9873468957502993
2013-06-14,-1,-0.0016460335884350586,-0.0014950600408538152,-0.00686243480633053,0.013488823130234612,0.9874058822281893
2013-06-18,-1,-0.001261678880953965,-0.0011351864835910342,-0.00686243480633053,0.013488823130234612,0.9881423917050691
2013-06-20,-1,-0.0016726145790365988,-0.0015151771952255822,-0.0029396176295908255,0.016996843963347347,0.9879335701442596
2013-06-24,-1,-0.0016121937793344811,-0.0014723676305927248,0.00018597609737088351,0.016996843963347347,0.987852480290293
2013-06-26,-1,-0.0001762922332722392,-0.00011792669276558055,-0.003024962870581631,0.012197068635269193,0.9892437247738474
2013-06-28,-1,-0.0003921162793734715,-0.0003674552788303193,0.00018597609737088351,0.012197068635269193,0.9898363537961785
2013-07-02,1,0.0007678905348411768,0.0009846489147766423,-0.0019292512043324653,0.008821979752548639,0.9915862140899331
2013-07-05,1,0.0007939485635845424,0.0009678611644579921,-0.0019292512043324653,0.012197068635269193,0.9914571732217624
2013-07-09,1,0.0012451134732075026,0.0014719381087726557,-0.0019292512043324653,0.009161307606907823,0.9918975898652759
2013-07-11,1,0.004051442899153929,0.0046660970778111596,-0.002715778902155558,0.005773261094168458,0.9933087521219308
2013-07-15,1,0.0037887168141820626,0.004360389893954061,-0.0024283992527216053,0.004540233437131368,0.9939069912733238
2013-07-17,1,0.0038256760821220063,0.0043942515870708035,-0.002715778902155558,0.004540233437131368,0.9930279989719493
2013-07-19,1,0.004131696328762967,0.004728957783323742,-0.003968746827238114,0.004540233437131368,0.9924033756295928
2013-07-23,1,0.004037196614148465,0.004630321222521778,-0.0052362974474125775,0.0032838695182764634,0.9921612819649704
2013-07-25,1,0.0048017629941739665,0.005554558646746747,-0.003264277170620312,0.003615744889410607,0.9915747588969117
2013-07-29,1,0.004993273326598019,0.005808411916474857,-0.003264277170620312,0.004821515904822179,0.9913196304971885
2013-07-31,1,0.004761402767429948,0.005532499918499137,-0.0052362974474125775,0.008246783877267504,0.9900558025305679
2013-08-02,1,0.0049724358480166,0.005749575821689758,-0.007364596090982514,0.004821515904822179,0.9898136391142863
2013-08-06,1,0.0049309429149459825,0.005694334878533339,-0.007364596090982514,0.009752121018761167,0.9892642589699802
2013-08-08,1,0.004482715400083565,0.0051696088894691,-0.0052362974474125775,0.014263405693445443,0.9898893652794306
2013-08-12,1,0.004778782818599182,0.0055002417403110185,-0.0052362974474125775,0.014263405693445443,0.9894087648451538
2013-08-14,1,0.003840142790392448,0.004383269976078899,-0.0052362974474125775,0.014263405693445443,0.9894836969012712
2013-08-16,1,0.0036672694339236287,0.004175912901239907,-0.0025193448461066125,0.01497591204800956,0.9900189644792007
2013-08-20,1,0.0037396511401315722,0.004324867878461553,0.0032127003783721632,0.016236880317951397,0.9896627534495772
2013-08-22,1,0.004425603774643989,0.005081198977459537,-0.002350552495283198,0.01497591204800956,0.9897404088840279
2013-08-26,1,0.004411380253929622,0.0050221922742650325,0.00015611855610405193,0.01497591204800956,0.9902710497477808
2013-08-28,1,0.004838056713766699,0.005525548469359801,0.000733614065119753,0.012640644550811108,0.9919458116568806
2013-08-30,1,0.004609775376353823,0.005302166196707402,-0.0022267550671700954,0.012640644550811108,0.9917499475187425
2013-09-04,1,0.005808097039694209,0.006657109569844496,-0.0022267550671700954,0.01137513701182773,0.9923822290000448
2013-09-06,1,0.005626269000552224,0.006368942864220114,-0.002933087602624646,0.01137513701182773,0.9922141945777428
2013-09-10,1,0.005571946123299577,0.006261020503078967,-0.004838947393495741,0.008469041934810101,0.9905566825408597
2013-09-12,1,0.004303351705442473,0.004718244344257313,-0.003649352556085163,0.01175382139596678,0.9903159267944838
2013-09-16,1,0.0033019882576875896,0.0034841460857097098,-0.004838947393495741,0.008155113864970972,0.9882920943418817
2013-09-18,1,0.004070268742028511,0.00435053066711662,-0.007527710518644052,0.0057773313757580776,0.9870548531311805
2013-09-20,1,0.00405101921682865,0.004417574820853104,-0.007032566262508604,0.008155113864970972,0.9874358306963245
2013-09-24,1,0.003958591859831731,0.004284174380883559,-0.007032566262508604,0.01159888180705065,0.9870431672742805
2013-09-26,1,0.0040667261869721215,0.0044285160109151555,-0.007032566262508604,0.01159888180705065,0.9868004625587268
2013-09-30,1,0.005303198819809216,0.005913122005644341,-0.0061899646558677196,0.013857039815987921,0.9865507954065458
2013-10-02,1,0.004871383924899053,0.005207521390473133,-0.007527710518644052,0.011939109966602494,0.9856098579890493
2013-10-04,1,0.004408404071341772,0.004586047301481122,-0.007527710518644052,0.008002753382553546,0.9859032636670388
2013-10-08,1,0.0030707002471902856,0.0030967203506712306,-0.006317567243879331,0.011939109966602494,0.986026520423311
2013-10-10,1,0.0038670858431661508,0.0040673440116256,-0.007288463221115201,0.011261324198892371,0.9862396200651448
2013-10-14,1,0.005344785368765367,0.005753757156467184,-0.006515459117360071,0.008857239530796507,0.9890978583225255
2013-10-16,1,0.0035623688770939194,0.0036860660259405965,-0.003043123953325757,0.011261324198892371,0.9905175412747652
2013-10-18,1,0.003787128949445815,0.003940054643367347,-0.0025104069410770533,0.010428387447299622,0.9909763046305912
2013-10-22,1,0.003752906619990783,0.0038821186495961394,-0.005932296621282676,0.010027516967974836,0.9906913409580644
2013-10-24,1,0.0034721577189907133,0.0035487890469873924,-0.005207966882355285,0.010027516967974836,0.9905427997123742
2013-10-28,1,0.0044735868448198945,0.004703630319933356,-0.006198421130131854,0.008781247964473677,0.990984188824985
2013-10-30,1,0.0035927104011216123,0.003621023288875808,-0.005461539547099063,0.010027516967974836,0.991535192440246
2013-11-01,1,0.0033145117338144294,0.003332572392437547,-0.005349865924543971,0.010027516967974836,0.991342081458045
2013-11-05,1,0.0035371621097041355,0.003564090949621699,-0.005278477392962357,0.008781247964473677,0.9928504958665353
2013-11-07,1,0.00337471085492321,0.003408717073866225,-0.005008513661623543,0.008781247964473677,0.992930463741529
2013-11-11,1,0.0028262310069235696,0.0029628522240242707,-0.005278477392962357,0.008781247964473677,0.9922395633783978
2013-11-13,1,0.002884528365834593,0.0030448347749551345,-0.00539903912432908,0.005097532236474128,0.9920476827324114
2013-11-15,1,0.0036544161828489428,0.003674037133270677,-0.00539903912432908,0.004262285431290447,0.991983748909664
2013-11-19,1,0.0022102201749421963,0.002464586535320004,-0.005278477392962357,0.005539409110416199,0.9918970242074937
2013-11-21,1,0.0022556248974194473,0.0024181433405844766,-0.005278477392962357,0.005539409110416199,0.9919335986611703
2013-11-25,1,0.0016117883001859515,0.001839607638595593,-0.002964271340288088,0.005752115258777856,0.9925466149760839
2013-11-27,1,0.0023158859397992074,0.0024365249354412425,-0.0030659481509624715,0.005185068584579341,0.992861701694936
2013-12-02,1,0.0022856445771020075,0.002349942845498161,-0.0015698796675983034,0.008477016045149343,0.9928324456117371
2013-12-04,1,0.0019723097413152477,0.0019727907346546005,-0.0028146637807110915,0.008477016045149343,0.9916457299577985
2013-12-06,1,0.002757435036760212,0.0028589273398130386,-0.0033314706328162994,0.008477016045149343,0.9921519690236883
2013-12-10,1,0.002250191276160019,0.0023013620146875987,-0.00323777615831909,0.008503239209960186,0.9925042039993685
2013-12-12,1,0.0014996216218846968,0.0015682171735883028,-0.00323777615831909,0.009030154059314921,0.9917231755552717
2013-12-16,1,0.0017906708578633423,0.0018285517261784575,-0.00323777615831909,0.009453443079225993,0.9909543078745617
2013-12-18,1,0.0023744245201668475,0.002395788383096816,-0.0047478941067144766,0.009030154059314921,0.9913154861669851
2013-12-20,1,0.0025228756898389862,0.0025463746128652686,-0.0047478941067144766,0.009030154059314921,0.9908712911300501
2013-12-24,1,0.0026724510687325216,0.0027416745736136058,-0.007811988966819303,0.009030154059314921,0.9891679232767618
2013-12-27,1,0.0026533898828640175,0.002708167934200339,-0.010400240195251969,0.009324378281277287,0.988434991972097
2013-12-31,1,0.002653730056521369,0.0026673289286292374,-0.010431030295377546,0.009324378281277287,0.987168148835852
2014-01-03,1,0.0014016713656068418,0.0015102442909857845,-0.013314432020860583,0.009324378281277287,0.9870336785584554
2014-01-07,1,0.0010363505683215078,0.0011938230164516156,-0.015232742395945551,0.009324378281277287,0.9849482406038074
2014-01-09,1,0.0007633241179683724,0.0010585942986780117,-0.015232742395945551,0.01595412222627137,0.9836138867134301
2014-01-13,0,-0.0002639064349923828,0.00018288783662610397,-0.013314432020860583,0.016681410707820504,0.984002584714833
2014-01-15,1,0.0009893438812617426,0.0012344839903351864,-0.013314432020860583,0.01595412222627137,0.9841713377636074
2014-01-17,1,0.00032158842861286876,0.0006319369409179507,-0.013314432020860583,0.01595412222627137,0.9847203019007553
2014-01-22,1,0.00044758274732804013,0.0007445490862997325,-0.013314432020860583,0.014009163128489039,0.985349233090799
2014-01-24,-1,-0.001124086331366905,-0.0006096003767209817,-0.009657750434177362,0.01625863466711829,0.9851365123949654
2014-01-28,-1,-0.0009117487774008813,-0.00047585348165776016,-0.009382197212613403,0.01625863466711829,0.9858440639441848
2014-01-30,0,-3.8129738954649993e-05,0.0002597504019265106,-0.004344478527927872,0.014977302365176122,0.9873608657480151
2014-02-03,-1,-0.0009533136783266222,-0.0005783053053517173,-0.0013987893880461585,0.01625863466711829,0.9871541526259492
2014-02-05,-1,-0.0009838052741498902,-0.0005909653796206046,-0.0008416223358705567,0.014977302365176122,0.9892632299173866
2014-02-07,1,0.0006806885908694747,0.0008487267243078305,-0.0013987893880461585,0.013487322060434933,0.9911454732988839
2014-02-11,1,0.0012880608361448187,0.0013350445441526358,-0.004344478527927872,0.009601959256730902,0.9911768242013387
2014-02-13,1,0.00148458967779409,0.0015446598526511713,-0.00967285594366649,0.007108881023026176,0.9906183409305227
2014-02-18,1,0.0014523787044284054,0.001512309192391168,-0.00967285594366649,0.009681462772303995,0.9902943569590721
2014-02-20,1,0.0012084773698836254,0.0012809466916109114,-0.010868125156811612,0.009681462772303995,0.9891816957790658
2014-02-24,1,0.0019708223626683026,0.00197335013041719,-0.011671477959749009,0.003939641905255678,0.9893085849418015
2014-02-26,1,0.001719066382812935,0.0017223473733072648,-0.011671477959749009,0.006851608826984459,0.9890247626867704
2014-02-28,1,0.0019347649583714428,0.0019802397591681675,-0.01346810034564572,0.007392262016515125,0.985757810460526
2014-03-04,1,0.0015206567494169356,0.001577390488463393,-0.01346810034564572,0.011303422340895994,0.9857964369238589
2014-03-06,1,0.0020763159826998694,0.0021399374006386366,-0.014303453403955514,0.008284959876947684,0.9852187672471283
2014-03-10,1,0.0018385840189029997,0.0019510961972693194,-0.017893151539166874,0.008284959876947684,0.983389836247885
2014-03-12,1,0.00012093921751342245,0.0003011366686739874,-0.017893151539166874,0.011075793878238325,0.9840121171008356
2014-03-14,-1,-0.0008567948089837814,-0.0005777188189178752,-0.018360480317222802,0.011075793878238325,0.9828039941070783
2014-03-18,-1,-0.00019544013347607575,-6.331488863363572e-06,-0.018360480317222802,0.011075793878238325,0.9820227928089856
2014-03-20,-1,-0.0010572423524474362,-0.0007503571091686012,-0.015425909390984522,0.014162518934233299,0.9823106016102697
2014-03-24,-1,-0.0010522765706061877,-0.0007897792033714033,-0.012471382868865255,0.014162518934233299,0.9827368331012327
2014-03-26,-1,-0.0014809046210290191,-0.0011341802332141267,-0.012471382868865255,0.014162518934233299,0.9832089162812092
2014-03-28,-1,-0.0013621272865471147,-0.0010277284590371047,-0.011595969825220901,0.010599056772540947,0.98613277780532
2014-04-01,1,0.00024312542677375632,0.00036782672613318936,-0.011818729220676788,0.007775244974408256,0.9872618475269198
2014-04-03,-1,-0.0003093453849392652,-9.364645219391335e-05,-0.011595969825220901,0.010599056772540947,0.9869136115444135
2014-04-07,-1,-0.0017495534651593438,-0.0013834841013419777,-0.007339265171331714,0.010599056772540947,0.9892629115516027
2014-04-09,-1,-0.00034316572783317696,-0.0001808383883165219,-0.011518109381816258,0.009943313266223787,0.9871448992941861
2014-04-11,-1,-0.0019110739532632237,-0.0015927126135970471,-0.005862775499936533,0.014968155215944535,0.9879845681900602
2014-04-15,-1,-0.0008994007502339088,-0.000679124862598471,-0.006504624341692791,0.008963085235183816,0.9893167445246419
2014-04-17,-1,-0.0006677871376726363,-0.0004829023930424054,-0.008999603315335756,0.0039312532931532656,0.9889683275120608
2014-04-22,-1,-0.0014093486370498013,-0.0011156784432655947,-0.006504624341692791,0.007535121361216967,0.989084222032504
2014-04-24,-1,-0.0009171506784149032,-0.000712588872991643,-0.006504624341692791,0.005969223845157722,0.9890872114390143
2014-04-28,-1,-0.0019373141706013534,-0.0015935159990628969,-0.005845871756515324,0.010118083517037966,0.9883840652406628
2014-04-30,-1,-0.002512522184244954,-0.002099079428252654,-0.003735217174990604,0.010118083517037966,0.988554420471363
2014-05-02,-1,-0.0006983432660203146,-0.0005445681576812062,-0.005845871756515324,0.004659248707984418,0.990085465068344
2014-05-06,-1,-0.0012950882972673566,-0.0010381859328653916,-0.005845871756515324,0.004659248707984418,0.9898715348840832
2014-05-08,-1,-0.0009595523297468825,-0.0007100477010091895,-0.005469880148193287,0.005969223845157722,0.9917659753981055
2014-05-12,0,-5.212711154954446e-05,6.991647630857217e-05,-0.005482444002690382,0.004659248707984418,0.9912853366722165
2014-05-14,-1,-0.0001893803053323641,-0.00010034180102964457,-0.005482444002690382,0.004659248707984418,0.9911616276886345
2014-05-16,-1,-0.0007792195850784341,-0.000642460970080253,-0.0040231225508541215,0.007867540639151275,0.9915486374478968
2014-05-20,-1,-0.0005046157108172678,-0.0004054946876159448,-0.001045856607146254,0.00928581730555868,0.9910421872059401
2014-05-22,-1,-0.00018877371129149965,-0.00013137776980462885,-0.0016606071647902484,0.009469183157103659,0.9910281489239816
2014-05-27,1,0.001001041230247599,0.0011296771912195599,-0.0040231225508541215,0.009213959527475779,0.9920503678520998
2014-05-29,1,0.0005443113946850553,0.0005556381047563364,-0.005581320061996598,0.009469183157103659,0.9910817756858092
2014-06-02,1,0.0001654304670848131,0.00018678545200226816,-0.004255705049265746,0.009469183157103659,0.991222747005993
2014-06-04,1,0.0003698424256144917,0.00037828895327944557,-0.004255705049265746,0.00984088695614314,0.9904365067482923
2014-06-06,1,0.0009513001441723233,0.0010135897626106496,-0.004255705049265746,0.009213959527475779,0.991182019407689
2014-06-10,1,0.0006945556831173766,0.0007817213054767747,-0.002261988469633067,0.009213959527475779,0.9934295272655641
2014-06-12,-1,-0.00010087040844149368,-4.510691236838142e-05,-0.0029163536590556347,0.009213959527475779,0.9932652445061599
2014-06-16,1,0.0007828234816137107,0.0008615733627970252,-0.006218800617533448,0.008816149788491769,0.9933390666971058
2014-06-18,1,0.000906950739238771,0.0009290869922523843,-0.006318633300783042,0.003792366120433653,0.9935125051970163
2014-06-20,1,0.0009735766702591599,0.0009881210956785508,-0.006318633300783042,0.003792366120433653,0.9931030545759268
2014-06-24,1,0.0010032309636999266,0.0010592899806977796,-0.006258366361085019,0.005928241904888196,0.992397840702182
2014-06-26,1,0.0004034764217427637,0.0005015708292795693,-0.00306450033181611,0.005347437428384134,0.9930059734207414
2014-06-30,-1,-0.00024878396660738363,-0.00010144275544961317,-0.004113166275247291,0.005347437428384134,0.9930474370636161
2014-07-02,1,0.0009607369293536221,0.0011003175410840274,-0.006435814639410384,0.003924479897335794,0.9922442338999415
2014-07-07,1,0.0015078822846271754,0.0017353697136525863,-0.006435814639410384,0.004927295744677936,0.99177271375436
2014-07-09,1,0.0015719552362967017,0.0018433099270879143,-0.0075625571213703505,0.004927295744677936,0.9869218952794323
2014-07-11,1,0.0009601902829635873,0.0010266632337535846,-0.006619164404721371,0.005347437428384134,0.986914476189022
2014-07-15,1,0.0009771435396187177,0.0010656892252880702,-0.004113166275247291,0.005244552163760732,0.9875454350797833
2014-07-17,1,0.0009256427813324438,0.0010710651353024244,-0.0028829356634605435,0.006856346451089615,0.9879837976276724
2014-07-21,1,0.0012386736143013238,0.0014002088040410117,-0.0028829356634605435,0.006856346451089615,0.9882935644348607
2014-07-23,1,0.002269242643013602,0.0025837443594367362,-0.0037767371712254232,0.006856346451089615,0.9881222225269426
2014-07-25,1,0.0027253682054444407,0.0031126427179128738,-0.0037767371712254232,0.005801691929217825,0.9880022410686924
2014-07-29,1,0.0026936760206333014,0.0031277331011673043,-0.00313854003075866,0.005801691929217825,0.9881470014466114
2014-07-31,1,0.0013759453821172575,0.0016063355211479017,-0.001671589872023698,0.008526771596524561,0.9890587390636153
2014-08-04,1,0.0018172907085051767,0.0020668847964934057,-0.001671589872023698,0.0064201241485551605,0.9895749968586681
2014-08-06,1,0.002276140353438926,0.002517749651409747,-0.00033467968373248637,0.0064201241485551605,0.9946071122926731
2014-08-08,1,0.0026725477754767574,0.002998903191012859,-0.001671589872023698,0.004035365448655681,0.994571931162755
2014-08-12,1,0.0021272031616704316,0.002313853148005294,-0.00313854003075866,0.004035365448655681,0.9941503227660743
2014-08-14,1,0.0019610944377652776,0.0021055970432597394,-0.006590294311294518,0.0033287371434734614,0.9937941322689685
2014-08-18,1,0.0022075327264347673,0.0023779222104874983,-0.008117100901367223,0.0033287371434734614,0.9931568444267999
2014-08-20,1,0.00307938331827967,0.0033681163510055965,-0.008117100901367223,0.0033287371434734614,0.9933433744701207
2014-08-22,1,0.003159654676651887,0.0035666659331720467,-0.00900060597311872,0.0033287371434734614,0.9924794313823592
2014-08-26,1,0.003282378563113707,0.0036457936139310983,-0.00800541772555769,0.004035365448655681,0.9922454949093295
2014-08-28,1,0.0021052819560840375,0.0022133427594375793,-0.00800541772555769,0.004035365448655681,0.9916254095999426
2014-09-02,1,0.0026742011167703124,0.002914874541659922,-0.008590963684498822,0.004859644475182997,0.9908655732842506
2014-09-04,1,0.0016492686957566725,0.0016561048610862412,-0.009106356937545452,0.004859644475182997,0.9900185797563866
2014-09-08,1,0.0019387644795803268,0.002038526014137756,-0.008900339193073335,0.00949483366667402,0.9899633525400332
2014-09-10,1,0.001644796748715336,0.0017264119612094505,-0.008590963684498822,0.011159372265589461,0.9889756979263247
2014-09-12,1,0.0008750106448560885,0.0009104495300608045,-0.009214329160144424,0.011159372265589461,0.9879827235271129
2014-09-16,1,0.001155765119294916,0.0011578043470414855,-0.008900339193073335,0.012455618242036368,0.9877328790363623
2014-09-18,1,0.0007955258954111851,0.0008621952099983608,-0.008900339193073335,0.011779291346348284,0.9879596907606466
2014-09-22,0,-0.00020037702127548686,2.5519110045642626e-06,-0.009349112444391239,0.011779291346348284,0.9882743206301816
2014-09-24,1,0.0008917757003067542,0.0009127515316130989,-0.010689313313446074,0.011779291346348284,0.9871216554971091
2014-09-26,1,0.00028911085086890667,0.0003922058025890138,-0.009349112444391239,0.011457399465351821,0.9882231545936954
2014-09-30,1,0.00010417632800564753,0.000197471411061856,-0.009349112444391239,0.013349699841323451,0.9871407089816261
2014-10-02,-1,-0.00030023578771686693,-0.00018934353349194042,-0.006512674399471442,0.014833966257562958,0.9865450668817366
2014-10-06,-1,-0.00037536928044384183,-0.0002365180185435138,-0.006512674399471442,0.01682543721865179,0.986273848722608
2014-10-08,0,-0.00011456794316500865,4.099405589440405e-05,-0.006580678270836774,0.01682543721865179,0.9836582370650876
2014-10-10,-1,-0.001759033251696579,-0.0014362622775539566,-0.004820683270100893,0.018253653056085006,0.9838526888586443
2014-10-14,-1,-0.0006192497413414416,-0.000440231368553913,-0.00590566773870389,0.018253653056085006,0.9852722954788556
2014-10-16,-1,-0.0006349025322181368,-0.0004896184093282534,-0.0006990266860845873,0.018253653056085006,0.9854850782350576
2014-10-20,-1,-0.0011481215423901243,-0.0009463891462465052,-0.002483735549198612,0.018253653056085006,0.9858619937611931
2014-10-22,-1,-0.0011491789805565921,-0.000920929364317134,-0.00435568109087993,0.014303989255912048,0.9871256276469672
2014-10-24,-1,-0.0003033449613853267,-0.00017772637486515542,-0.004825526916045144,0.018253653056085006,0.9865448780502588
2014-10-28,1,0.0014699378241219666,0.001609656233046077,-0.005916163670923706,0.01400351801433982,0.9875427029209182
2014-10-30,1,0.001358590208156906,0.0014082660814296014,-0.005916163670923706,0.008050562985633147,0.9885524423551015
2014-11-03,1,0.0012330004558204156,0.0012429380001786057,-0.005916163670923706,0.006928932033601273,0.989034747981041
2014-11-05,1,0.0028022122105050996,0.0030462908266735292,-0.005916163670923706,0.0064154983910433925,0.9922097981333686
2014-11-07,1,0.0034356947721593386,0.003800523550975573,-0.007045597459363326,0.0037077880232140635,0.9915655042545363
2014-11-11,1,0.003039220012934885,0.003357377887868865,-0.007045597459363326,0.0037077880232140635,0.9910351859250208
2014-11-13,1,0.0028502855425050983,0.0031216130142657644,-0.008870938848118369,0.00437142264772854,0.9900429161507824
2014-11-17,1,0.0032197392943888936,0.0035413733432351426,-0.008870938848118369,0.0064154983910433925,0.9899062314928858
2014-11-19,1,0.0019790375755377033,0.0021156387540220136,-0.008870938848118369,0.006928932033601273,0.9884464680859049
2014-11-21,1,0.002504226256874667,0.002735172469934389,-0.007045597459363326,0.006928932033601273,0.989521256366838
2014-11-25,1,0.003069026839201354,0.0033892321459299615,-0.0047571750104996565,0.0064154983910433925,0.9900869502932729
2014-11-28,1,0.003148539345591554,0.003469225563638356,-0.0069799703481860115,0.002179275229773779,0.9897236779717788
2014-12-02,1,0.002656067225236974,0.002881886480436595,-0.009783117861028694,0.001131500821791863,0.9888525291396559
2014-12-04,1,0.0023250418601105305,0.002487907115596576,-0.008110161937647664,0.001131500821791863,0.989619122930925
2014-12-08,1,0.0009774313646408151,0.001020110318482544,-0.008110161937647664,0.002179275229773779,0.9884591650539678
2014-12-10,1,0.0004184870741379443,0.00051981682326041,-0.006634160385082931,0.006805391790720342,0.9885086746144474
2014-12-12,1,0.00023866137810415713,0.0003224008229087197,-0.004641905022798629,0.006805391790720342,0.9896132755937841
2014-12-16,1,0.0008639532593590695,0.0008643256178161769,-0.006634160385082931,0.004541088997568181,0.9894488410135625
2014-12-18,1,0.0018024935959671928,0.0019023286480461484,-0.006634160385082931,0.006144678203921156,0.9903328767877329
2014-12-22,1,0.0014960752872803075,0.0015013283042284403,-0.006634160385082931,0.006144678203921156,0.9900102432130455
2014-12-24,1,0.0015703213013749126,0.001604002871543072,-0.006634160385082931,0.006144678203921156,0.9899823305856488
2014-12-29,1,0.0021861516529057988,0.002317105771019414,-0.009533419177792369,0.006144678203921156,0.9886694089894497
2014-12-31,1,0.0011402104886579737,0.0011577830804569435,-0.007318044060932788,0.011700975682551875,0.9880781735647806
2015-01-05,1,0.0008414412870872713,0.000863602320824796,-0.006935545229197489,0.014979747888212052,0.9877295532702609
2015-01-07,1,0.0017131288655516585,0.0017747407484102952,-0.004548751795627489,0.014979747888212052,0.9879518915971992
2015-01-09,1,0.0026145403230465637,0.00280790623614195,-0.004548751795627489,0.01126729814702042,0.9886835423699895
2015-01-13,1,0.0027408015915634195,0.0029813247200238743,-0.004548751795627489,0.014979747888212052,0.9879969296345155
2015-01-15,1,0.0024389539213481005,0.002632637660897637,-0.0036390041631820212,0.016344618227168286,0.9875262475587403
2015-01-20,1,0.003271055938964025,0.0035509539958125747,-0.0036390041631820212,0.015284701849236849,0.9880454360329542
2015-01-22,1,0.0033623305284985663,0.0036369167203466144,-0.0024694357998283996,0.015348539581598718,0.9878932867344027
2015-01-26,1,0.0033170018239194296,0.003596105179108723,-0.0036390041631820212,0.015348539581598718,0.9875051464430823
2015-01-28,1,0.002209902036813837,0.002340185128480606,-0.0007054645237993765,0.015348539581598718,0.9890819127570948
2015-01-30,1,0.0016999409179146796,0.0017398476182611514,-0.0007054645237993765,0.01491020825790386,0.9904961244407854
2015-02-03,1,0.0019162773717334837,0.001972555249658805,-0.002536235008716105,0.01491020825790386,0.9903728834419613
2015-02-05,1,0.001753590362856741,0.0017563698375700155,-0.002536235008716105,0.010016793736757311,0.9921994386559327
2015-02-09,1,0.0015915836516138268,0.0016128268210374719,-0.002863233194047579,0.010016793736757311,0.9912724684317161
2015-02-11,1,0.0023326834771939912,0.0024080779398146083,-0.002863233194047579,0.0084475668406979,0.9917797066304955
2015-02-13,1,0.0025638240283397504,0.002626267092958163,-0.005610938953445029,0.0084475668406979,0.9918680117696366
2015-02-18,1,0.00299167991581044,0.0031344354493796312,-0.005610938953445029,0.0084475668406979,0.9915870994200807
2015-02-20,1,0.003676318715295506,0.0038633494108897726,-0.005610938953445029,0.0054939694295674515,0.9922421548683616
2015-02-24,1,0.0030055798788602523,0.0030872182635233803,-0.005610938953445029,0.0054939694295674515,0.9919497580597727
2015-02-26,1,0.0022563432940780562,0.002266957786455342,-0.008949869781276031,0.006963570264596328,0.9895145212279729
2015-03-02,1,0.0023672921134310254,0.002389434716118006,-0.008949869781276031,0.007287463326379052,0.9896918441392518
2015-03-04,1,0.001884899095670634,0.0019389095819091922,-0.009089459967441127,0.007287463326379052,0.9892768515899588
2015-03-06,1,0.00037957036368599373,0.0007061531258902632,-0.006956247651087342,0.008017109418804721,0.9895238716166137
2015-03-10,1,0.00018119881268262132,0.00048289610130130905,-0.006088568674085737,0.008302463958821692,0.9900644892762263
2015-03-12,1,0.0003052622038464877,0.000608257501246941,-0.006088568674085737,0.008302463958821692,0.9900749072717947
2015-03-16,0,-0.00011540561283085102,0.00028017989821000743,-0.006088568674085737,0.008302463958821692,0.9896839379049066
2015-03-18,1,0.0010294977091992708,0.0012753437049797594,-0.007543154700600475,0.007842973367704736,0.989982562190726
2015-03-20,1,0.0013259298624222434,0.0015122002847153602,-0.011559016206874557,0.007842973367704736,0.9886975580208354
2015-03-24,1,0.00127164010527696,0.0013948069184989604,-0.007543154700600475,0.007842973367704736,0.9892632953701573
2015-03-26,1,0.00157487504817292,0.0016113300193119923,-0.007543154700600475,0.007593559596160104,0.990319145147221
2015-03-30,1,0.0022651216359664437,0.0023042509606714338,-0.007543154700600475,0.007842973367704736,0.9898051992395152
2015-04-01,1,0.0020417014704730736,0.0021198530888020097,-0.007711494074123911,0.007842973367704736,0.9894601311895754
2015-04-06,1,0.002756475825867602,0.002958235749556732,-0.007711494074123911,0.008401072899458312,0.9867283407334921
2015-04-08,1,0.002388207682676391,0.002523835024409933,-0.012102999035818875,0.008347161746749807,0.9854836916514365
2015-04-10,1,0.002560659043395356,0.0027145572575482378,-0.012102999035818875,0.010532637550910228,0.984512518448566
2015-04-14,1,0.002068149888534668,0.0021457368332276315,-0.009195519444414182,0.008431096210686112,0.9851046182281846
2015-04-16,1,0.0014634904575971353,0.001496640545164925,-0.007290691196121917,0.010532637550910228,0.9843280805721737
2015-04-20,1,0.0010606339477988282,0.001124254944576279,-0.006572991731207836,0.011981630928952339,0.9850459501887597
2015-04-22,1,0.0009802173889183754,0.0010520869089023271,-0.006572991731207836,0.011981630928952339,0.985197374611215
2015-04-24,1,9.747851552454533e-05,0.00025124194303431354,-0.006296806851116967,0.011981630928952339,0.986434198869801
2015-04-28,1,0.0007325347223683702,0.0007990543462310324,-0.006572991731207836,0.011905669192304508,0.985727508608121
2015-04-30,-1,-0.0011045878306443291,-0.000784436143146558,-0.004937422339068393,0.011905669192304508,0.9872449637890669
2015-05-04,-1,-0.0017575856531591276,-0.0013201486360652828,-0.004937422339068393,0.010725707907035816,0.990092653571132
2015-05-06,-1,-0.0036316486078765723,-0.0029212556053697402,-0.004064630803912103,0.010725707907035816,0.99016874831877
2015-05-08,-1,-0.0027019727695803695,-0.0020691546112278523,-0.005004703483378239,0.003413410574941272,0.9918600740382861
2015-05-12,-1,-0.0031406627471400246,-0.00248468128587224,-0.0028263653837840522,0.0059863036905326945,0.9909163634497702
2015-05-14,-1,-0.0007352916092778248,-0.0004210224643488072,-0.00424865345233624,0.003413410574941272,0.992507070786812
2015-05-18,0,-2.0874363548855994e-05,0.00016272157953167092,-0.006408138813896843,0.0026197558682827544,0.9928693333826317
2015-05-20,1,2.3202432215417806e-05,0.00022228125701459803,-0.009979107794444275,0.0026197558682827544,0.991685226805758
2015-05-22,-1,-0.000541826115502415,-0.00026286892624416446,-0.010656999711926306,0.0049202436893768815,0.9907348538383146
2015-05-27,-1,-0.0013601519268497191,-0.0009321779561021783,-0.009979107794444275,0.0026197558682827544,0.9919450796216869
2015-05-29,-1,-0.0018581421862857658,-0.001361481525405058,-0.009979107794444275,0.0049202436893768815,0.9914014641076726
2015-06-02,-1,-0.001038510217495071,-0.0006563122528017466,-0.010656999711926306,0.0020225076038922164,0.9901400185146398
2015-06-04,-1,-0.0014253292929811876,-0.0010621620132333805,-0.010656999711926306,0.0042281823248502,0.9890815662739133
2015-06-08,-1,-0.003101735415659954,-0.002614082202749033,-0.009979107794444275,0.006950394719399397,0.9892952224981578
2015-06-10,-1,-0.0025748696119571746,-0.0021372451232888187,-0.010656999711926306,0.006201011467251919,0.989053835336607
2015-06-12,-1,-0.002639837701369532,-0.002256976409195511,-0.009979107794444275,0.00802171451109182,0.9888879419797423
2015-06-16,-1,-0.0030857653841252783,-0.0026740488550822845,-0.009613627866849068,0.00802171451109182,0.9884644426195947
2015-06-18,-1,-0.002721526181997388,-0.002354064677963965,-0.009433044932673287,0.006680048805369113,0.9892437199840204
2015-06-22,-1,-0.0035302894334122287,-0.003004606556387403,-0.0055537662840763205,0.006680048805369113,0.9891240790713312
2015-06-24,-1,-0.00377717030177046,-0.00321798174906069,-0.0035920124472785774,0.00802171451109182,0.9884035977175241
2015-06-26,-1,-0.002822211492551307,-0.0024140198765927943,-0.009761481111672105,0.006680048805369113,0.98875513582266
2015-06-30,-1,-0.004274245388713998,-0.0037240700442309014,-0.009433044932673287,0.00802171451109182,0.9887542964567384
2015-07-02,-1,-0.00494918696816494,-0.004313356005793346,-0.0035920124472785774,0.00802171451109182,0.9894780481276588
2015-07-07,-1,-0.004621753260381757,-0.004074739059468422,-0.0021094312069511127,0.00802171451109182,0.989715655591915
2015-07-09,-1,-0.004337301585296117,-0.003864255801124505,-0.0021094312069511127,0.009090043422369822,0.9878749267533022
2015-07-13,-1,-0.003281882851395669,-0.002966565651037498,-0.0021094312069511127,0.010707051153181574,0.9880532460698302
2015-07-15,-1,-0.001969023967006071,-0.0018777096210202634,-0.004039088023010047,0.010707051153181574,0.9887438948607243
2015-07-17,-1,-0.002266124266220643,-0.0021260775771941728,-0.004039088023010047,0.010707051153181574,0.9885128065544544
2015-07-21,-1,-0.0013342595069081482,-0.001320053200486484,-0.004039088023010047,0.008596045476494953,0.9890061317709361
2015-07-23,-1,-0.000722145224550071,-0.0006456732280607721,-0.009882828517727437,0.007372098854031902,0.9883626308105391
2015-07-27,-1,-0.002657390091358904,-0.002521575174332451,-0.010066050396403842,0.007372098854031902,0.9849445789479935
2015-07-29,1,0.0003705471882667242,0.0004704360721333968,-0.011485149834436752,0.007372098854031902,0.9830052178668047
2015-07-31,1,0.0005320909949875924,0.000623581878524574,-0.011485149834436752,0.007372098854031902,0.982333630688178
2015-08-04,1,0.001062989593057017,0.001265738147838509,-0.012732560673047932,0.007372098854031902,0.9808012561398577
2015-08-06,1,0.001019913235148335,0.0012248114596442683,-0.012732560673047932,0.007372098854031902,0.9829144242922465
2015-08-10,1,0.0023050585429326125,0.0027527598969025674,-0.015069792519054787,0.007011082095270277,0.9816620186480223
2015-08-12,1,0.0018022207529836739,0.0021911902816092437,-0.016762173756600773,0.007371483611167224,0.9814383833876118
2015-08-14,1,0.0012840948386194395,0.0015654106923288754,-0.016762173756600773,0.007371483611167224,0.9816532050453367
2015-08-18,1,0.0016407337343751324,0.001962702055895606,-0.016762173756600773,0.01172137028165784,0.9809294726827213
2015-08-20,1,0.0006800519450175656,0.0008998573732969089,-0.01656129611458045,0.01172137028165784,0.981141757738982
2015-08-24,-1,-0.00028428506715036546,-0.00024082726651714412,-0.014475653795218413,0.014159009683918105,0.984032547566476
2015-08-26,1,0.0013269801716300057,0.0016015439102518346,-0.015577173612601124,0.01172137028165784,0.9862695537725731
2015-08-28,1,0.0017655602706647881,0.0021013746768431775,-0.01656129611458045,0.008814398495025019,0.9865179467693295
2015-09-01,1,0.0005097458117364487,0.0006880658700217867,-0.015577173612601124,0.01172137028165784,0.9863996718074747
2015-09-03,1,0.0012929900220133403,0.0015793152789058506,-0.015577173612601124,0.010684750453107395,0.9872580337648432
2015-09-08,1,0.0013613016389234364,0.0016422964014655098,-0.012426214818198401,0.010684750453107395,0.9877286216240171
2015-09-10,1,0.0008642490771491113,0.0010457939332216934,-0.011349231756612435,0.01172137028165784,0.9878790726444235
2015-09-14,1,0.0005606313159610878,0.000705588701448593,-0.011271640229612497,0.01172137028165784,0.98750156778894
2015-09-16,1,0.0010384357492193236,0.001194563599783856,-0.012426214818198401,0.009380875459935645,0.9875268458219882
2015-09-18,1,0.000251548840824776,0.00033157114809951183,-0.004298449908153227,0.009380875459935645,0.9887857918622421
2015-09-22,-1,-0.0003461906081450528,-0.0002878783558539356,-0.0015401264837172292,0.0088036791185239,0.9899231118149835
2015-09-24,-1,-0.0007919356083708197,-0.0006760278084944053,-0.0015401264837172292,0.009380875459935645,0.9882037465809738
2015-09-28,-1,-0.002102167506484964,-0.0017754433099559266,-0.0015401264837172292,0.009380875459935645,0.9883190646728791
2015-09-30,1,0.0003072931036503546,0.0003310987539246554,-0.002191352438501074,0.00919053546964753,0.9899301839922862
2015-10-02,1,0.0003016624398247646,0.0003135094754757792,-0.00402588631403532,0.006569116904819535,0.9892440064407951
2015-10-06,1,0.0012576307172376408,0.0014285447794711347,-0.004558670348170668,0.005666566885793848,0.9904107259145697
2015-10-08,1,0.002222885664428428,0.0025391059548256767,-0.006935392820010167,0.004833190725138032,0.9900359988837921
2015-10-12,1,0.0020003809629090628,0.0022894081293337682,-0.006935392820010167,0.004833190725138032,0.9889306855107658
2015-10-14,1,0.0012303183972733147,0.0014094616610931358,-0.004558670348170668,0.004833190725138032,0.9899216309534433
2015-10-16,1,0.0013013274106224819,0.0014915886825083231,-0.0112563990702933,0.004833190725138032,0.9884588502656122
2015-10-20,1,0.001421007611986327,0.0016239779767721542,-0.011770553966283194,0.004833190725138032,0.987046982659552
2015-10-22,1,0.003356590402211773,0.0038407309893120243,-0.011770553966283194,0.004833190725138032,0.9882541781805978
2015-10-26,1,0.002713375388111491,0.003073129689993272,-0.012877303615877536,0.0024986290943816566,0.9879823240870549
2015-10-28,1,0.003115083167080256,0.0034968270678442954,-0.012877303615877536,0.0024986290943816566,0.9886563483229194
2015-10-30,1,0.0024647675242090027,0.0027988738019072306,-0.012033109074928936,0.0041992568449205165,0.9900947257396768
2015-11-03,1,0.002033294352647882,0.0022640279239425033,-0.01415894315575482,0.004334169902218032,0.9893353735521468
2015-11-05,1,0.0014440386023388922,0.0015808559554928935,-0.01415894315575482,0.004347866049503095,0.987895625206881
2015-11-09,1,0.0018770410645072442,0.0020822700192461496,-0.014060667217925557,0.0023322888200749898,0.9889537830316284
2015-11-11,1,0.001702660447165456,0.0018788363590936615,-0.01588365929163263,0.0015054581284334248,0.9878011586968
2015-11-13,1,0.0005805989202807229,0.0005950011773043208,-0.01588365929163263,0.004347866049503095,0.9869232592269714
2015-11-17,1,5.428865203135678e-05,8.468458473187894e-05,-0.014060667217925557,0.010337865010302831,0.9862637814916903
2015-11-19,-1,-0.0001756303151195925,-5.743535939959249e-05,-0.019798319650617954,0.006369640771753421,0.9843962590024317
2015-11-23,0,-9.731456736499232e-05,3.63375411037426e-05,-0.019798319650617954,0.010337865010302831,0.9841173181891171
2015-11-25,-1,-0.00036591018724692456,-0.00019659750660780856,-0.019798319650617954,0.010337865010302831,0.9839137300453741
2015-11-30,-1,-0.000902963101948273,-0.0006311194014567318,-0.019798319650617954,0.01315033800146491,0.983266247477822
2015-12-02,-1,-0.0010859403855568509,-0.0008102219986267053,-0.018503981079427398,0.01315033800146491,0.9835538614362094
2015-12-04,-1,-0.000636974422214246,-0.0004316117437278299,-0.018503981079427398,0.007657094801059715,0.9848388071311784
2015-12-08,-1,-0.001557512062859807,-0.001232586345536801,-0.019356922089744568,0.007657094801059715,0.9844499311910855
2015-12-10,-1,-0.0022692979539954217,-0.0018765321049837988,-0.016349879936275034,0.007979739418968648,0.9847638603140737
2015-12-14,-1,-0.0018700085392838223,-0.0015477943199601928,-0.016349879936275034,0.007979739418968648,0.9830296237420376
2015-12-16,-1,-0.000820365597357039,-0.0005839886328178327,-0.019130317100113373,0.006133607555480009,0.9819408837904893
2015-12-18,-1,-0.0021654335992602417,-0.0018181116861024239,-0.015668948208466444,0.008579876264725794,0.9831566475801096
2015-12-22,-1,-0.0013098934381248093,-0.0010713308476052426,-0.015668948208466444,0.00860251907802563,0.9828875291238175
2015-12-24,-1,-0.0010501588030375703,-0.0008467676229220385,-0.015668948208466444,0.015466809313836545,0.9822158678661751
2015-12-29,-1,-0.0004841527101763178,-0.00036742697680765154,-0.015668948208466444,0.009267622379961118,0.9820449712934173
2015-12-31,-1,-0.0009758782641558337,-0.0008244382210413015,-0.015493720229569553,0.017795065126640405,0.9808251877373976
2016-01-05,-1,-0.001630356933444458,-0.001381369694170825,-0.015493720229569553,0.017795065126640405,0.9801721457445678
2016-01-07,-1,-0.002202829984538487,-0.001875483801648964,-0.01618123005565274,0.017795065126640405,0.9796789392736485
2016-01-11,-1,-0.0019847036751487854,-0.0017122705251073692,-0.020299951980282685,0.017795065126640405,0.9756911318122385
2016-01-13,-1,-0.0014115461771045403,-0.001200625409856119,-0.019745039653307664,0.017287048650094696,0.9781285849088911
2016-01-15,-1,-0.0011770917147992232,-0.0009930399756933233,-0.018276603771223695,0.019426377438307177,0.9785755709116182
2016-01-20,-1,-0.0004617848192957361,-0.0003740991611474296,-0.018276603771223695,0.019479282194552684,0.9781813379721025
2016-01-22,1,0.0002145291044565642,0.00022628576414499707,-0.018276603771223695,0.017287048650094696,0.9787527044273551
2016-01-26,-1,-8.130073234485888e-05,-6.823744312345792e-06,-0.018276603771223695,0.014523859323309376,0.978809464596
2016-01-28,-1,-0.00013815947148010493,-6.188190102012181e-05,-0.018276603771223695,0.01874458059575315,0.9787315544206899
2016-02-01,1,0.00025238820624968984,0.00026372602494886057,-0.018276603771223695,0.01874458059575315,0.9798614803935896
2016-02-03,1,2.4410389702494794e-05,6.930466709072114e-05,-0.01605087097031504,0.01874458059575315,0.9815777623081252
2016-02-05,-1,-0.0011227689357776235,-0.0009256530351135121,-0.011153181019973056,0.01874458059575315,0.9828681961934193
2016-02-09,-1,-0.0028058478021100045,-0.002448988121540757,-0.009478426577735464,0.01874458059575315,0.9867117133088059
2016-02-11,-1,-0.0032488025370813406,-0.002811097930328194,-0.009478426577735464,0.01930550182854436,0.986748830812463
2016-02-16,-1,-0.001934728759119151,-0.0016571810066988387,-0.009478426577735464,0.014465932534639934,0.9887967780755402
2016-02-18,-1,-0.0019186662121278481,-0.0016316670496401612,-0.0048967909819201995,0.0135854162766769,0.9898559548773518
2016-02-22,-1,-0.0018694313320679074,-0.001564522951858984,-0.0048967909819201995,0.010431711579344468,0.9897791017527721
2016-02-24,-1,-0.0008418796694798074,-0.0007188741655586491,-0.0048967909819201995,0.010431711579344468,0.9902519361515406
2016-02-26,-1,-0.0006794322744697386,-0.0005922405540836353,-0.004567871182003875,0.010431711579344468,0.9901611698280661
2016-03-01,1,2.971421062164589e-05,5.091927156643655e-05,-0.004567871182003875,0.013893409187988282,0.9894080146071863
2016-03-03,1,0.0002811318254375421,0.0003651942470540565,-0.0025045869979916932,0.013893409187988282,0.9895217861922477
2016-03-07,-1,-0.00014111672061399623,-0.00011843389093965469,-0.004639425154828037,0.013893409187988282,0.988567283219226
2016-03-09,-1,-0.0007651756694540531,-0.0006889376332636524,-0.004639425154828037,0.013893409187988282,0.9879497806392079
2016-03-11,0,-4.663586466777986e-06,1.2903852142034536e-05,-0.0030078981654241598,0.01000798505026337,0.9896957990347625
2016-03-15,1,0.00017318782614034713,0.00022842037048158027,-0.004459026247437619,0.01000798505026337,0.9895774142252305
2016-03-17,1,0.0012054887287140392,0.0014849846080410916,-0.005770782115305715,0.007237422943122267,0.9903697092945146
2016-03-21,1,0.0010641502770286143,0.0013157641953332555,-0.008696619107633512,0.006333031990949644,0.9901989785977978
2016-03-23,1,0.0013426052315013356,0.0016735830646525736,-0.005770782115305715,0.006333031990949644,0.9907378016213423
2016-03-28,1,0.0011978542619191486,0.001465665781116663,-0.005770782115305715,0.00628204260433783,0.9913610061925301
2016-03-30,1,0.002040418616020434,0.0024216687137341257,-0.005770782115305715,0.005423300988575823,0.9926545517977082
2016-04-01,1,0.0022707332551673135,0.0026836204379633204,-0.008931127796403544,0.004297707107296252,0.9908586595920137
2016-04-05,1,0.0016534169915772023,0.0020087266507457925,-0.008696619107633512,0.004297707107296252,0.9919362506864299
2016-04-07,1,0.001266080767711808,0.001567704829339486,-0.005770782115305715,0.0031278445766033023,0.9933941467336013
2016-04-11,1,0.0009679291619154745,0.0011834024000903448,-0.005770782115305715,0.004634516430171285,0.9911417411074125
2016-04-13,1,0.002005487609216294,0.0022485647979216036,-0.005797837005995522,0.004634516430171285,0.9908364658382464
2016-04-15,1,0.0017193931157494257,0.0019399682122064469,-0.005048510481601808,0.004634516430171285,0.9912553392721546
2016-04-19,1,0.0015885807452309234,0.0017678656973532732,-0.003014151883240506,0.004967993670443932,0.9914459304399085
2016-04-21,1,0.0015509361249675274,0.001727480869613009,-0.003014151883240506,0.006247278507781991,0.9913711317961742
2016-04-25,1,0.0016052002432789122,0.0017883541629697586,-0.004654322737983689,0.006367538692899248,0.990196741419682
2016-04-27,1,0.0015388900596290738,0.0016980307067888149,-0.006287297923035893,0.006498136555528878,0.9894126173977625
2016-04-29,1,0.0011009851820743388,0.0011712013111486019,-0.0032947211119264876,0.006498136555528878,0.9909559550928686
2016-05-03,1,0.0003605791374130329,0.00040947240066547527,-0.004957155545987309,0.006498136555528878,0.990517155178483
2016-05-05,1,3.5362302557895395e-05,0.00015579445204292334,-0.005141978088271885,0.006498136555528878,0.9895183580353525
2016-05-09,1,0.0020580113132601633,0.0021962166645439507,-0.005141978088271885,0.00619778931884722,0.9918112055183743
2016-05-11,1,0.0023427229547249894,0.0025804724113159825,-0.005141978088271885,0.00619778931884722,0.9918929392342434
2016-05-13,1,0.0015855262433211769,0.0016483267436944783,-0.00662946157209837,0.00619778931884722,0.9910362667778491
2016-05-17,1,0.0017391782134013763,0.0018475703570678666,-0.010619240064543636,0.00619778931884722,0.990310253573392
2016-05-19,1,0.001824340447677212,0.001943443302439879,-0.010619240064543636,0.004443411068943143,0.9903648462033725
2016-05-23,1,0.0016843743219858006,0.0018049772174634228,-0.00662946157209837,0.00524461904592978,0.9905552483329435
2016-05-25,1,0.0014666325813659366,0.0015068729299135704,-0.00662946157209837,0.00524461904592978,0.9909826460416191
2016-05-27,1,0.0011864732619460696,0.0011970923017064156,-0.012855564809049876,0.00524461904592978,0.9854763818529602
2016-06-01,1,0.0005987516513773154,0.0006787346223337914,-0.010619240064543636,0.009212454978169147,0.9852720132615865
2016-06-03,0,-0.00013209746744932823,5.3440320183640536e-05,-0.005293672824229922,0.009212454978169147,0.9861636156437784
2016-06-07,1,0.0006764562648087393,0.000729854767480753,-0.010619240064543636,0.009212454978169147,0.9856689110650735
2016-06-09,1,0.0009684335247496813,0.0010049776506533916,-0.005689004022524265,0.009212454978169147,0.9860004441527858
2016-06-13,1,0.0005209217473324885,0.0006082364724788074,-0.0016965725218790794,0.009212454978169147,0.9862528254627865
2016-06-15,1,0.0004577648906325949,0.0005349134954290951,-0.000866343865834441,0.008945963529220044,0.9870156891055973
2016-06-17,1,0.0009333458345293683,0.0009396229307239882,-0.000866343865834441,0.008945963529220044,0.9861925170271636
2016-06-21,1,0.001347291603117948,0.0013661136639558842,-0.002363342360316453,0.008945963529220044,0.986740524856984
2016-06-23,1,0.0020152323635931977,0.0021391375255668935,-0.0057555927664789935,0.00797110273815481,0.9871003583389137
2016-06-27,-1,-0.0008074613517773247,-0.0005854685309404757,-0.000866343865834441,0.00797110273815481,0.992225776201744
2016-06-29,-1,-0.0004075445093632555,-0.00016703134143008602,-0.005555088242541321,0.004496730276062533,0.9932823299190294
2016-07-01,-1,-0.002152126275820401,-0.0016152266975770974,-0.0062131562058548645,0.006843591040436572,0.9920513591530443
2016-07-06,-1,-0.002208548095041411,-0.0016424197116819376,-0.0062131562058548645,0.005812801336458495,0.992303581351818
2016-07-08,-1,-0.0007546581606997306,-0.00044611638526951603,-0.0062131562058548645,0.00797110273815481,0.9921983138855444
2016-07-12,-1,-0.0005980901661967408,-0.0003234248221139251,-0.006927784106216037,0.005812801336458495,0.9910662275728025
2016-07-14,0,-0.00020802115727968674,6.426283415822409e-08,-0.006927784106216037,0.00415313370806984,0.9912849551766295
2016-07-18,-1,-0.00035114624872107085,-0.00014095053948712537,-0.0064612698376319885,0.006554924269555125,0.991455071713502
2016-07-20,1,0.00018439710768556315,0.0003252212893044798,-0.006927784106216037,0.004121778653721116,0.9917509743801769
2016-07-22,1,0.00029219720135097925,0.00038709099500389035,-0.0064612698376319885,0.004121778653721116,0.991872516337509
2016-07-26,1,8.240884691550904e-05,0.0002119287208382796,-0.0064612698376319885,0.007950736667930496,0.9912811531555064
2016-07-28,-1,-0.000648791005851013,-0.0004056643549054078,-0.007245855509988774,0.007950736667930496,0.9915931973553479
2016-08-01,-1,-0.0006322872642768064,-0.0003618495940577351,-0.006187350278398636,0.0056834741032472874,0.9924783944051087
2016-08-03,-1,-0.0005149752364535989,-0.00028653071656862053,-0.006152723162232855,0.0056834741032472874,0.9927576062871731
2016-08-05,1,0.001038270320427634,0.0010655834427859402,-0.006152723162232855,0.003937120611155836,0.9928968791702171
2016-08-09,-1,-0.0004533115344553143,-0.00026978624968654243,-0.00488883388154382,0.0051581291014162365,0.9944326018279179
2016-08-11,-1,-0.00045780544694309287,-0.000301676167713501,-0.006152723162232855,0.0051581291014162365,0.9920171231926871
2016-08-15,-1,-0.0003240290933453026,-0.00017347354679109715,-0.00815069035121232,0.0051581291014162365,0.9907589979447241
2016-08-17,-1,-0.0005185344545134778,-0.00036954186717769703,-0.00815069035121232,0.0051581291014162365,0.9905437668037974
2016-08-19,1,0.00026694855203073843,0.0002763115635980554,-0.009795359464692448,0.0051581291014162365,0.9899815533688534
2016-08-23,1,0.0010029986288382126,0.0011290767262081085,-0.009795359464692448,0.0032437089474853915,0.989919941161269
2016-08-25,1,3.131059778675748e-05,8.444251650934991e-05,-0.009691478116195104,0.0051581291014162365,0.9896989518091965
2016-08-29,-1,-0.00017043126940659525,-6.425319568496851e-05,-0.009691478116195104,0.004747727298035263,0.9895208951284733
2016-08-31,-1,-0.0004723396379220787,-0.0003265437596668015,-0.008807919353113858,0.006107198907368642,0.9893811730655944
2016-09-02,-1,-0.0008983807022458954,-0.0008280178460367432,-0.014953250704446638,0.006107198907368642,0.9825149118560386
2016-09-07,-1,-0.0016325600314994481,-0.0015836578906838301,-0.014953250704446638,0.00906855949320857,0.9818337869954472
2016-09-09,-1,-0.0018964636199215786,-0.001617583825020225,-0.008807919353113858,0.00906855949320857,0.9832915512222697
2016-09-13,-1,-0.002375303435416579,-0.002068747731870608,-0.007978520203452874,0.006819572205102485,0.984808976643273
2016-09-15,-1,-0.0009668263961450533,-0.0006876553413900545,-0.00634761175537753,0.00906855949320857,0.9845771795375673
2016-09-19,-1,-0.002022833340256461,-0.001681897802773137,-0.00634761175537753,0.00906855949320857,0.9841124137066591
2016-09-21,-1,-0.002341631634204991,-0.0019207353115447677,-0.00512158207015906,0.006819572205102485,0.9843845734806395
2016-09-23,-1,-0.002156615276916432,-0.0017326575116636323,-0.006461032806512856,0.004985185063946544,0.985046476494522
2016-09-27,-1,-0.002238684112219433,-0.0018077784549828868,-0.006461032806512856,0.006819572205102485,0.9843907624851673
2016-09-29,-1,-0.0005289737977599474,-0.0004301967100413215,-0.006461032806512856,0.0066809751958148665,0.9844312155976445
2016-10-03,1,0.001011436588756205,0.0011026413817455277,-0.006151107012522642,0.005469956455611809,0.9918973397226829
2016-10-05,1,0.0011407005784420698,0.0012577494895315824,-0.005113701814019373,0.004722183089716501,0.9928074040979676
2016-10-07,1,0.0006774842287419132,0.0007353656242126993,-0.004391455830449613,0.0048170805664031705,0.9932365297751612
2016-10-11,1,0.0003227595099084499,0.00035714905193612073,-0.0023771992955311733,0.006028693141582608,0.991144232882498
2016-10-13,1,0.0012198100674168165,0.00133814031415607,-0.004391455830449613,0.006028693141582608,0.9903420863097017
2016-10-17,1,0.00039387128724458804,0.0004198333108038999,-0.0004368939446014108,0.006028693141582608,0.9910585236958296
2016-10-19,1,0.0005522201230530957,0.0006001318705963579,-0.0004368939446014108,0.008357185253727263,0.9901673469120529
2016-10-21,1,0.00016699660439968133,0.0001961507744951158,0.0019177998581977741,0.01006128774078779,0.9890513652902476
2016-10-25,1,0.00031431286902767,0.0003476243110086529,-0.0023771992955311733,0.008357185253727263,0.9878597587378073
2016-10-27,1,0.0008092052217053276,0.0008597414541283998,-0.005314008131465935,0.01001684146277078,0.9860535262059501
2016-10-31,1,0.00011020626147582378,0.000164626783181517,-0.009935072444360815,0.016062920762242538,0.981895992146205
2016-11-02,-1,-9.616858201702476e-05,-9.410952979643046e-05,-0.015313968043697135,0.016062920762242538,0.9807003620463938
2016-11-04,1,0.00029756625686005555,0.0003345791562488382,-0.015313968043697135,0.016062920762242538,0.9806491470349006
2016-11-08,1,0.0015515394652022706,0.0017598403498151958,-0.015313968043697135,0.016062920762242538,0.9812850515664748
2016-11-10,1,0.0018205183227950677,0.0021123500311440546,-0.014846920914362764,0.0150182009550814,0.9824465205428317
2016-11-14,1,0.002363309561119984,0.0027699563203437798,-0.014846920914362764,0.015479621031686009,0.9819245959577686
2016-11-16,1,0.0019728999488334113,0.0021710222525424356,-0.014846920914362764,0.013852397167929308,0.9822025090898916
2016-11-18,1,0.002153526801526663,0.00243061872757692,-0.011486858684063813,0.01082056980774344,0.9829802689038529
2016-11-22,1,0.0010873496000932976,0.0012123935847412632,-0.009601978336817044,0.01082056980774344,0.9848725233791406
2016-11-25,1,0.001367688900341619,0.001538704239965664,-0.007007190836764165,0.008588830868406045,0.9872334351487959
2016-11-29,1,0.0007598281330203236,0.000875338358943075,-0.006705653229123185,0.007773492985261029,0.9913400939347378
2016-12-01,1,5.1835667890908765e-05,7.779918350574267e-05,-0.005040811489396662,0.007773492985261029,0.9925332311225576
2016-12-05,1,0.0007752689058049849,0.0009101619343737694,-0.005040811489396662,0.008309859761365689,0.9923073907112439
2016-12-07,1,0.0021431706304910567,0.002438614684876727,-0.005040811489396662,0.007773492985261029,0.9932335438964788
2016-12-09,1,0.0012720736891144806,0.0014903570456988578,-0.004200103057574168,0.007773492985261029,0.9934446325827249
2016-12-13,1,0.0016756419662959363,0.0019293818595919562,-0.004200103057574168,0.006543650634159199,0.9937192532716785
2016-12-15,1,0.0016940016429625995,0.0019472801099823006,-0.004200103057574168,0.003809777506662967,0.9938822804331301
2016-12-19,1,0.0013283649290768663,0.0015108879416698305,-0.004200103057574168,0.003809777506662967,0.9935225918283046
2016-12-21,1,0.0012992323872771656,0.0015083393176892725,-0.00507118533812182,0.0041920897260604145,0.9932768553740162
2016-12-23,1,0.0012727192905341096,0.001460116300172638,-0.00507118533812182,0.008061391333065547,0.9923168710255075
2016-12-28,1,0.001770021691177832,0.002111731704448193,-0.00507118533812182,0.008061391333065547,0.9914519524510933
2016-12-30,1,0.0006785269588912426,0.0007786248441527234,-0.012065467431401248,0.008061391333065547,0.9884435420133134
2017-01-04,1,0.001640447092095338,0.00185246888993558,-0.012953624921379869,0.0041920897260604145,0.988314456987147
2017-01-06,1,0.0022914639637260526,0.002615274814698568,-0.012953624921379869,0.0052585543370695514,0.9881842932342093
2017-01-10,1,0.0011437346315166757,0.0012856344398539826,-0.012065467431401248,0.009321497046550054,0.9863601922367774
2017-01-12,1,0.0010980381433165895,0.0012464268889948987,-0.012065467431401248,0.014306042774697917,0.9848485599846483
2017-01-17,1,0.0010053372747914622,0.0011806080732898782,-0.012065467431401248,0.014306042774697917,0.9848868578957745
2017-01-19,1,0.0007590578987967411,0.0008737283899847798,-0.010748927798512027,0.014034714276626068,0.9854490859433109
2017-01-23,1,0.000737715480004301,0.0008620756328078564,-0.006229487736148514,0.014034714276626068,0.9855363435597044
2017-01-25,1,0.0015097694577696995,0.0017212013665368776,-0.006229487736148514,0.0118963700012529,0.9863299628366531
2017-01-27,1,0.0006925609191159501,0.0008271370998936011,-0.0032109977247717055,0.0118963700012529,0.9872862988721915
2017-01-31,-1,-0.0006600478971739399,-0.0006168458893072958,-0.0024727439461943237,0.014034714276626068,0.9889517623421455
2017-02-02,-1,-0.0026405378163602356,-0.0022816800262746876,-0.0015982804436961032,0.014034714276626068,0.988769885275374
2017-02-06,-1,-0.0017190136372347274,-0.0014748634808161743,-0.004829151296794817,0.0118963700012529,0.988843681814486
2017-02-08,1,0.000702034142909846,0.0007290432907218788,-0.004944065210232015,0.006139984513102199,0.991964468519303
2017-02-10,0,-0.00011061112756795022,4.505310300383883e-06,-0.004829151296794817,0.007276977479139634,0.9925244669105958
2017-02-14,0,-8.141099978353766e-05,2.601216748333759e-05,-0.0030121284702020277,0.007276977479139634,0.9928102346586819
2017-02-16,1,0.0007156014491497499,0.000730944311783229,-0.004915499951478778,0.006139984513102199,0.9926941322437778
2017-02-21,1,0.0010711582391674114,0.0011226747463919478,-0.005415120695710163,0.006139984513102199,0.9927000068020672
2017-02-23,1,0.001075949588641763,0.0011142985985374747,-0.006445791439871571,0.006230875288260413,0.9916681916132806
2017-02-27,1,0.0018229008479158804,0.0019816628330900227,-0.006445791439871571,0.004141213550508442,0.9916435320110359
2017-03-01,1,0.0021855809093188345,0.0023929283215379203,-0.006445791439871571,0.0037534085008922077,0.9923785363042619
2017-03-03,1,0.0013912299367073782,0.0014515220904183224,-0.006445791439871571,0.004950106416413347,0.9927470891595018
2017-03-07,0,-8.276156498498283e-05,5.5235441977756364e-05,-0.003299709459919256,0.004950106416413347,0.9931835080521114
2017-03-09,1,0.0007453809828930697,0.0007718914598744482,-0.002431131531371104,0.004950106416413347,0.9935306752399593
2017-03-13,1,0.0008279084717241552,0.0008584594417433335,-0.002431131531371104,0.004791880512101958,0.9941834598684834
2017-03-15,1,0.0007421645321290878,0.0007720032625000556,-0.002866736586284186,0.004791880512101958,0.9939984661774708
2017-03-17,0,-0.0001390964140835517,1.8401652435592452e-05,-0.002866736586284186,0.0051462017999385394,0.9942656525961652
2017-03-21,1,4.584281405936862e-05,0.00015454026563697064,-0.002866736586284186,0.004791880512101958,0.9942037014952123
2017-03-23,1,0.0005030062215885142,0.0005342010281834241,-0.00275202801015487,0.003212771057303201,0.9953517162572575
2017-03-27,1,0.00040903960933746155,0.00044977714509803694,-0.00275202801015487,0.004791880512101958,0.9945256999810214
2017-03-29,1,0.0005719446006564401,0.0005947403345630596,-0.00275202801015487,0.004791880512101958,0.99434947206203
2017-03-31,1,0.0010127575425876465,0.0010798433833425836,-0.00275202801015487,0.005137148851426191,0.9942933179840873
2017-04-04,1,0.0011701411055683088,0.001284754191588158,-0.0017888611253610443,0.005137148851426191,0.9955039148064208
2017-04-06,1,0.0008560037314268038,0.001032391337279549,0.0004863576640626137,0.005688082185737382,0.9935364775728345
2017-04-10,1,0.0014509954329309433,0.0017304361024428326,-0.0015724699266862184,0.005688082185737382,0.9934792928808063
2017-04-12,1,0.0017676591836848997,0.0021540022227398785,0.0004400900559256691,0.005688082185737382,0.9936661558471996
2017-04-17,1,0.0016985138385725645,0.0020783491226057287,0.001197917705104936,0.004930363361326702,0.9941749977358763
2017-04-19,1,0.0002793745042310083,0.00043730891946282074,0.001197917705104936,0.006407926134694224,0.993044650105332
2017-04-21,1,0.00013226956991412616,0.00031558110974326124,0.0018825117941507145,0.008265897939372165,0.9925040536646202
2017-04-25,-1,-0.0003971293805883211,-0.00036504010012357416,0.0018825117941507145,0.0066294736375608464,0.9926563658660627
2017-04-27,-1,-0.0005321965033516793,-0.0004557325688772856,0.0018825117941507145,0.007469161278232771,0.9924503556044384
2017-05-01,1,4.3412924157405086e-05,9.5602429165937e-05,0.0005314984740134297,0.0064318729108404716,0.9930734754288433
2017-05-03,1,0.001071603643138538,0.0013593703127238069,0.0008283496075729016,0.007198203632886325,0.9932365251448368
2017-05-05,1,0.002037764783809632,0.00239113112120606,0.000553950429667235,0.006531057908004664,0.9955813205148945
2017-05-09,1,0.0022693109796046097,0.002688305283119703,-0.0015642689105422026,0.006193189465074124,0.995874899010486
2017-05-11,1,0.002332844507347603,0.0027645913107279684,-0.0015642689105422026,0.006193189465074124,0.9955163305916358
2017-05-15,1,0.002345708773222662,0.002771508430639249,-0.0015642689105422026,0.006193189465074124,0.9954170673257139
2017-05-17,1,0.002176662630155599,0.0025617055909898786,-0.0013444332813478202,0.005937145282378572,0.9962069932233304
2017-05-19,1,0.002637672602603715,0.0030903868500117703,-0.0013444332813478202,0.005708237354265983,0.9960949542645519
2017-05-23,1,0.002646234634933092,0.0030843561045758045,-0.0014914432551622506,0.0059783577168362,0.9956692185587885
2017-05-25,1,0.003010659356025614,0.003492335853181587,-0.002001681439790926,0.0032277362371698876,0.9950731078406697
2017-05-30,1,0.003292784780655371,0.0038710155368812367,-0.002001681439790926,0.0032277362371698876,0.9946084801840128
2017-06-01,1,0.0039033616045089834,0.004583974037404872,-0.003334027546436713,0.0023370563721196603,0.9934241501887067
2017-06-05,1,0.003310028579172189,0.0038524500550118825,-0.003334027546436713,0.00388795475692398,0.9940752591540717
2017-06-07,1,0.003085869293684645,0.003612646567262636,-0.0035402756239629844,0.00388795475692398,0.9942972552733661
2017-06-09,1,0.0025109380368746586,0.002937833674812331,-0.0013848974452618688,0.0045832444409318815,0.9947789630437655
2017-06-13,1,0.0026454631864848742,0.0030873653080761383,-0.0013848974452618688,0.00546307770184723,0.9946320678954871
2017-06-15,1,0.0024606266898991175,0.002861748360791709,-0.002290600948872865,0.0075966097424482355,0.9940095607001671
2017-06-19,1,0.003238932247597354,0.003794687918821137,-0.002290600948872865,0.00546307770184723,0.9943225994552983
2017-06-21,1,0.0029334667403801535,0.0033818753539970833,-0.001932634625955767,0.006842870577534452,0.9943048572598522
2017-06-23,1,0.0017059927110291534,0.0017712255162478253,-0.0005772845739024211,0.006842870577534452,0.9944521012945121
2017-06-27,1,0.00032846529140444317,0.0004842705647031834,3.5762774165095854e-05,0.006842870577534452,0.9949284281211535
2017-06-29,1,0.0005626578647109616,0.0006667669781631758,-0.0005772845739024211,0.005238898987228695,0.9954199036319272
2017-07-03,1,0.0009737791102253045,0.0009804835671860356,-0.0005772845739024211,0.005238898987228695,0.9956186689837183
2017-07-06,1,0.0002401573257642374,0.00024809145647699594,-0.0005772845739024211,0.006924073598592631,0.9943997751320433
2017-07-10,1,0.0009357498558149381,0.0009796683679210519,-0.001932634625955767,0.006924073598592631,0.9931536828720924
2017-07-12,1,0.0012606001271818418,0.001368737645345228,-0.001932634625955767,0.010016753526074227,0.9927530248572786
2017-07-14,1,0.0017118010926971336,0.0019001383622382628,-0.0022664121916153262,0.008906449976953508,0.9924212481451278
2017-07-18,1,0.0016061687332115844,0.0017887922405956933,-0.0029524949335786375,0.010016753526074227,0.9916645766634604
2017-07-20,1,0.002062959841779545,0.0023120564908007206,-0.004967524138237338,0.008906449976953508,0.9908579724593198
2017-07-24,1,0.0022172511663705466,0.002509073025392721,-0.00626527661638244,0.008906449976953508,0.9902365700613771
2017-07-26,1,0.0019767159230476604,0.002218948544381002,-0.00626527661638244,0.009275471625743098,0.9898753903658319
2017-07-28,1,0.0007212949346925175,0.0007260873164504484,-0.005371906289381615,0.009275471625743098,0.9902328184704825
2017-08-01,1,0.0006631713907766878,0.0006702556468501957,-0.005371906289381615,0.009275471625743098,0.9900302846790773
2017-08-03,1,0.0011342710644175389,0.0012363579367034954,-0.004459825486955075,0.009275471625743098,0.9909899913012666
2017-08-07,1,0.00015218210312524505,0.00018992932766814688,-0.004178509517386596,0.008693189416137635,0.9927662576065278
2017-08-09,1,0.0006970606381245687,0.0007188860102761765,-0.004178509517386596,0.005873624261497153,0.9931041190342043
2017-08-11,1,0.0001998470139277785,0.000280576077272452,-0.004178509517386596,0.005873624261497153,0.9933234294556574
2017-08-15,1,0.0005519873896356011,0.0005903903631282165,-0.004443434862994908,0.005873624261497153,0.9934121922208368
2017-08-17,-1,-0.00041999429040239986,-0.0002627020779983866,-0.004443434862994908,0.005873624261497153,0.9944985204802023
2017-08-21,-1,-0.0008415678125125516,-0.0006431534413711251,-0.003165793272559126,0.006516043821419163,0.99449275612369
2017-08-23,-1,-0.0006109026998085531,-0.00044440569180438373,-0.004178509517386596,0.005742909127289446,0.9946988302039892
2017-08-25,-1,-0.0012676987482639502,-0.0009753476917950468,-0.004443434862994908,0.005742909127289446,0.9943037563825423
2017-08-29,-1,-0.0014280163074810687,-0.0011073000267964237,-0.004190875731860713,0.005742909127289446,0.9943314952074258
2017-08-31,-1,-0.0006577635249540313,-0.0004465776913368003,-0.004190875731860713,0.005532775767737694,0.9948951309344627
2017-09-05,-1,-0.001230912028028917,-0.0009331383371857215,-0.002050695474921273,0.005532775767737694,0.9948724048672171
2017-09-07,-1,-0.00099474478271451,-0.0007159800244022197,-0.002050695474921273,0.004423069495084026,0.995124694623587
2017-09-11,-1,-0.0011683639196637492,-0.000841780927972781,-0.001438697327571984,0.004423069495084026,0.9955557954128791
2017-09-13,-1,-0.0015010955347201165,-0.0011283893624986037,-0.001438697327571984,0.004224917074108658,0.9957660040964431
2017-09-15,-1,-0.0013725943172355046,-0.0010284699213788846,-0.0010425038583679208,0.004950337986078341,0.9955674332701914
2017-09-19,-1,-0.0010398605993028054,-0.0007510029351087654,-0.0021985224235732408,0.004224917074108658,0.9961088856301373
2017-09-21,-1,-0.0013659815288860218,-0.0010509386699086415,-0.001438697327571984,0.0045352960947261205,0.9960677539814252
2017-09-25,-1,-0.001435490688064722,-0.0011122003664598352,-0.001438697327571984,0.004950337986078341,0.9958120987279568
2017-09-27,-1,-0.00048647718870003837,-0.0003559789083483352,-0.0021985224235732408,0.004950337986078341,0.9957977776805086
2017-09-29,0,-6.776532342446956e-05,1.9871325527755115e-06,-0.0021985224235732408,0.005228534126028969,0.9955240416435472
2017-10-03,-1,-0.00018576609615522367,-9.70579809036017e-05,-0.0021985224235732408,0.005228534126028969,0.995441711112327
2017-10-05,1,0.0011340244051844678,0.001164420646694053,-0.002728182058147657,0.005228534126028969,0.9941825150852459
2017-10-09,1,0.0007358402035671472,0.0007783992224901905,-0.002728182058147657,0.005228534126028969,0.994217436196995
2017-10-11,1,0.0009116186146342194,0.0009119929348785474,-0.002728182058147657,0.005011644655652115,0.9943741945722124
2017-10-13,1,0.0012534463943710164,0.001310192772403878,-0.0030217295338906365,0.004449101729985352,0.9943296144798589
2017-10-17,1,0.001204113820693242,0.0012768830365270318,-0.002208031008399736,0.004721993787190352,0.9943830578671489
2017-10-19,1,0.0011893351619538324,0.0012426245008526427,-0.004049605386203797,0.005840948823463372,0.9931695192491197
2017-10-23,1,0.0016927225268734427,0.0018172898790706088,-0.00589716131367392,0.004708095912575202,0.9914441868216397
2017-10-25,1,0.0011090836597844704,0.0011769972570789128,-0.004191576737644998,0.004708095912575202,0.9916095943333503
2017-10-27,1,0.0014836209994211697,0.0015698327464607033,-0.004191576737644998,0.004620615914868895,0.9918992475463638
2017-10-31,1,0.001295802289703638,0.0013335483385916364,-0.007044014618918708,0.00574716460894621,0.991095386575004
2017-11-02,1,0.0009086251208901534,0.0009244881293026685,-0.007044014618918708,0.004620615914868895,0.9923139819395422
2017-11-06,1,0.0009703575777468497,0.0009867158686015412,-0.010756694095382779,0.00411180592099673,0.9919114161458547
2017-11-08,1,0.0010005336891784258,0.001008757379683784,-0.010756694095382779,0.004620615914868895,0.991542893631328
2017-11-10,1,0.0009275479433878437,0.0009391696947390804,-0.010756694095382779,0.004404592727693731,0.9917190790180512
2017-11-14,1,0.0009672389282183865,0.0009695096714425731,-0.010756694095382779,0.0025012475886038842,0.9917417911257684
2017-11-16,1,0.0007619514581047767,0.0008161274798883879,-0.005336513942741648,0.0031393992925593827,0.992685113142077
2017-11-20,-1,-0.0012784554369504116,-0.0009702375100112674,-0.0030901103790258342,0.0031393992925593827,0.9947880496362704
