JNU-Tangyin/eata/results/Batch4_SP500/Batch4_SP500-UNM.csv
Date,Action,Predicted_Q25,Predicted_Q75,Actual_Q25,Actual_Q75,RL_Reward
2010-12-14,0,0.0,0.0019216738310629136,-0.004112622758919242,0.007814142316550319,0.9943930646309279
2010-12-16,1,0.0019842471011685464,0.002279734016768546,-0.003492181203489009,0.007828795043482783,0.9931302883303385
2010-12-20,1,0.0019662955757172034,0.0022445887316367473,-0.0041591139464655464,0.007828795043482783,0.992758493184929
2010-12-22,1,0.0026498595459724626,0.003046579990100896,-0.0041591139464655464,0.006216193099240274,0.9931488232295894
2010-12-27,1,0.0016130230168917617,0.0018032973906066388,-0.003492181203489009,0.007828795043482783,0.9935913694948777
2010-12-29,1,0.0015027374756266198,0.0016655394109953469,-0.002011075557940357,0.008482157332246856,0.9937846262256538
2010-12-31,1,0.0016016763305711792,0.0018003321708216437,-0.002011075557940357,0.008482157332246856,0.9925961079304156
2011-01-04,1,0.003073230653502571,0.0033254247371803563,-0.0035077957160101012,0.008482157332246856,0.9915192293099395
2011-01-06,1,0.0032916673614112957,0.003558258047352745,-0.0035077957160101012,0.008482157332246856,0.9911892678711859
2011-01-10,1,0.003079002615814515,0.0033467859063459624,0.0002014051399223024,0.008676885518096292,0.9913042898562356
2011-01-12,1,0.002447733268738991,0.0025253479564518607,-0.0008631489095707295,0.008676885518096292,0.9911396765910394
2011-01-14,0,0.0,0.0,-0.0008631489095707295,0.009470061998771706,0.9906504730334534
2011-01-19,0,0.0,0.0,-9.75255741376317e-05,0.0117864532142662,0.9907406195449313
2011-01-21,1,0.0003656373797151465,0.0005480889458343133,-9.75255741376317e-05,0.009577058248945308,0.991491719325569
2011-01-25,1,0.001346469427983468,0.0013494110780876973,-0.002935353264980389,0.009520346756710192,0.9905147642688383
2011-01-27,1,0.0019505245975284201,0.002151720705673742,-0.002935353264980389,0.012225834327814282,0.9902570095763928
2011-01-31,1,0.0007178488479070471,0.0007299803952707474,-0.0031973122811484868,0.012225834327814282,0.9905302569059155
2011-02-02,1,0.0010940221920578861,0.0011582416179122359,-0.0031973122811484868,0.012225834327814282,0.9907477355273631
2011-02-04,1,0.0018140991050832696,0.0019923108218855125,-0.005535241119173479,0.006762468504604025,0.9910373827679128
2011-02-08,1,0.002185722433403667,0.002404030351463851,-0.005535241119173479,0.006762468504604025,0.9905549212072485
2011-02-10,1,0.0023211619197515887,0.0025877964870626405,-0.0074380151550839,0.010800386374247944,0.9895120085010913
2011-02-14,1,0.002168886529220887,0.0023808113823475135,-0.00972816154432161,0.006326783307757669,0.9889888169342937
2011-02-16,1,0.0024699639508827015,0.0027289920682451604,-0.01517780626688529,0.005517083701696939,0.9883224141922761
2011-02-18,1,0.0024475184355311915,0.0026951861007794716,-0.01517780626688529,0.009371822033972648,0.9871485890231713
2011-02-23,1,0.001421003992158115,0.0015139093217738375,-0.010532233254178045,0.009371822033972648,0.987981962703046
2011-02-25,1,0.0013771675946430252,0.0014069152797915666,-0.010532233254178045,0.009096352765592557,0.9883381610329506
2011-03-01,1,0.0014706248030537349,0.0015739069468381473,-0.008338776713692535,0.009096352765592557,0.989234706488206
2011-03-03,1,0.001315483688101225,0.0013891901684828312,-0.008338776713692535,0.009096352765592557,0.990177941210009
2011-03-07,0,0.0,0.0,-0.007502049151794723,0.009538293372261312,0.9899766171913464
2011-03-09,-1,-0.0001426747141512365,-0.0001246096796729339,-0.007502049151794723,0.009501038382925042,0.990595017808625
2011-03-11,1,0.0010502373820927334,0.0011161611202943234,-0.007502049151794723,0.009096352765592557,0.9912090553265471
2011-03-15,1,0.00021664104922925918,0.00028623945775217957,-0.004562471207953084,0.009096352765592557,0.9920384260235656
2011-03-17,0,0.0,0.0,-0.005192336365144873,0.009096352765592557,0.9922684921166618
2011-03-21,0,0.0,0.0,-0.007482025857254434,0.0031444446787378816,0.9929649469795893
2011-03-23,1,0.0009317130963455171,0.0009337731731577845,-0.005141165197956878,0.004909249772408679,0.993085305030558
2011-03-25,1,0.000878694708589071,0.0009201829784698109,-0.007134287215563372,0.004890934275712404,0.9928182620665064
2011-03-29,1,0.0005084093930113468,0.0006309884612071153,-0.007134287215563372,0.006960842978942382,0.9922172676400187
2011-03-31,1,0.0010608362751199367,0.001068835022618237,-0.005141165197956878,0.006960842978942382,0.9927456010786889
2011-04-04,0,-7.831858315776596e-05,0.00016587617121143188,-0.007134287215563372,0.006651170817041926,0.9929775830394686
2011-04-06,1,0.00037712055025536595,0.0005373708888075679,-0.007993597700713607,0.006651170817041926,0.9918831213187564
2011-04-08,0,0.0,0.0,-0.007134287215563372,0.006960842978942382,0.9919048733317798
2011-04-12,0,0.0,0.0,-0.007568572005103183,0.00790832969607656,0.9914051493032608
2011-04-14,0,0.0,0.0,-0.007568572005103183,0.00861298084700832,0.991013399908603
2011-04-18,0,0.0,0.0,-0.004725338885187009,0.00861298084700832,0.9914803657354883
2011-04-20,0,0.0,0.0,-0.004725338885187009,0.00946338729465775,0.9907718432805064
2011-04-25,0,0.0,0.0,-0.006895462120684626,0.00946338729465775,0.9901579080317161
2011-04-27,0,0.0,0.0,-0.007810275849032062,0.00861298084700832,0.9903792298044651
2011-04-29,0,0.0,0.0,-0.007810275849032062,0.007326928826555757,0.9907325995471319
2011-05-03,0,0.0,0.0,-0.008781858279823179,0.008149021062459499,0.9893300854810609
2011-05-05,0,0.0,0.0,-0.008467052123047351,0.007223849580317448,0.9902151649251101
2011-05-09,0,0.0,0.0,-0.009959517494999202,0.005454603118513815,0.9903876453993106
2011-05-11,0,0.0,0.0,-0.009959517494999202,0.005454603118513815,0.9905095707741871
2011-05-13,0,0.0,0.0,-0.009959517494999202,0.005027643088333825,0.9908994635448136
2011-05-17,-1,-0.0011042830855128275,-0.0009165295763296497,-0.01166062048533723,0.00566893874447623,0.9885339235663331
2011-05-19,-1,-0.000602986758531688,-0.00046940465993594945,-0.01166062048533723,0.006028463114728893,0.9886625257257321
2011-05-23,-1,-0.002082911863805219,-0.001759809637757508,-0.009959517494999202,0.007223849580317448,0.9888099936380257
2011-05-25,-1,-0.0022411096065843754,-0.001901214131145829,-0.009959517494999202,0.007223849580317448,0.9884392917682366
2011-05-27,-1,-0.0015084590237430585,-0.0012423288161032427,-0.010406094136637466,0.006599565054277521,0.988262430339166
2011-06-01,-1,-0.0023665493125373605,-0.002015594588152776,-0.009646277431024555,0.01024050549488894,0.9889123554762849
2011-06-03,-1,-0.002844619365573079,-0.0024221406160842424,-0.00808344819765846,0.010897409036562524,0.9880117492435053
2011-06-07,-1,-0.002892935757487128,-0.0024783015956359985,-0.006099712674557889,0.010897409036562524,0.9877383716065496
2011-06-09,-1,-0.002573576505380408,-0.0022041811073547123,-0.008232307078204548,0.011292024639647257,0.987375227282559
2011-06-13,-1,-0.003149991295416654,-0.0026815084288986215,-0.008232307078204548,0.011292024639647257,0.9871148116558405
2011-06-15,-1,-0.003713752449674662,-0.003207300851958342,-0.008232307078204548,0.010897409036562524,0.9887283536520461
2011-06-17,-1,-0.002594487238834553,-0.002235129879074508,-0.010285983993299351,0.010348399420328405,0.9893730007180281
2011-06-21,-1,-0.0021702106262853943,-0.0018634855999120035,-0.010285983993299351,0.010348399420328405,0.989202033998379
2011-06-23,-1,-0.0024580745427989644,-0.0021047313832964786,-0.010183897535082935,0.011051776816886372,0.988771124428273
2011-06-27,-1,-0.0025932241323025755,-0.002213136873032909,-0.009952809058819515,0.011051776816886372,0.9889483715181268
2011-06-29,-1,-0.0019167545115142143,-0.00170582885886997,-0.010559114380559696,0.009979651752277868,0.9883604420885534
2011-07-01,-1,-0.0005185650008015864,-0.0005172656308284562,-0.010559114380559696,0.008078407549700697,0.9890613152766904
2011-07-06,-1,-0.00023080345868563276,-0.00019924071463874423,-0.011089103970741854,0.008397733871248227,0.9868325200120123
2011-07-08,-1,-0.00025213725057412985,-0.00021895515950113713,-0.014509789794336746,0.003433267156612399,0.9848623397801818
2011-07-12,1,0.0004454334056100097,0.0005468439044637714,-0.014509789794336746,0.008397733871248227,0.9761031503718133
2011-07-14,1,0.0006742824472366382,0.0008070900949586911,-0.019837498400597477,0.010073364384166447,0.971346376550914
2011-07-18,-1,-0.0008927516245556913,-0.0007920333407195304,-0.016704769392755458,0.017507119760386814,0.9703873903227025
2011-07-20,1,0.00038037700283561656,0.000482497095755556,-0.017418982199368195,0.01068587167543436,0.9702060557214581
2011-07-22,1,0.00021197341407383418,0.00024327185098290338,-0.026975789467900097,0.0035788971113941623,0.9687865523995297
2011-07-26,-1,-0.00041419831465006323,-0.00038164600467045486,-0.026975789467900097,0.014115932987957158,0.967238488830672
2011-07-28,-1,-0.0010735791628053788,-0.0009342378386202852,-0.026288662015976613,0.020405293965360692,0.9671386652348494
2011-08-01,-1,-0.0008205043636014325,-0.0007616762360626685,-0.026288662015976613,0.034029436070770545,0.9655102736507418
2011-08-03,-1,-0.0001422976407488893,-0.00011920702331064569,-0.017696117434696745,0.02136984315184949,0.9677962121226917
2011-08-05,-1,-0.0025976666315188856,-0.002298298668226919,-0.017696117434696745,0.02136984315184949,0.9687109936479261
2011-08-09,1,0.00015577327505492854,0.00017845751583793154,-0.014471329926919584,0.02136984315184949,0.9755510212711674
2011-08-11,1,0.0007698290869688726,0.0009269888257847293,-0.01484280871922828,0.00902422077754222,0.9794929365944849
2011-08-15,1,0.0020129531479507416,0.002308811899380341,-0.01484280871922828,0.008769728575748521,0.9812696293245481
2011-08-17,1,0.001618928135868254,0.0018781877471467452,-0.014759337973872959,0.01220221744319994,0.9804045534754038
2011-08-19,0,-4.3399259059657226e-05,9.279878328387158e-06,-0.014759337973872959,0.01220221744319994,0.9815678536051912
2011-08-23,1,0.001676583920824841,0.0019394882875396519,-0.01721008677624776,0.008769728575748521,0.9809968503156873
2011-08-25,-1,-0.00031937586635517537,-0.0003140761298635631,-0.014759337973872959,0.006994899551535361,0.9826267640265847
2011-08-29,1,0.0023507584969864465,0.0027387556204732624,-0.014759337973872959,0.0062031119759681334,0.9822610486684965
2011-08-31,1,0.0015646645602330825,0.001799012564067099,-0.01721008677624776,0.008769728575748521,0.9794888075600817
2011-09-02,0,-2.285487749288564e-05,1.8273707248366716e-05,-0.023359898203719937,0.008769728575748521,0.9785367046357768
2011-09-07,1,0.0013259666980046203,0.0015174442308367995,-0.023359898203719937,0.015961399285320907,0.9770890534619714
2011-09-09,-1,-0.00033088963997561223,-0.00028119575926732656,-0.020133859519414987,0.03172302421757957,0.9765238955754318
2011-09-13,1,0.00047708202827733526,0.000533301453686392,-0.020133859519414987,0.03363459092170434,0.9755086982178348
2011-09-15,1,0.0012657050100870996,0.0014301495523462698,-0.020133859519414987,0.03363459092170434,0.9751577297149336
2011-09-19,1,0.0004471667995881065,0.0005353931953301814,-0.020133859519414987,0.03363459092170434,0.9735035179028761
2011-09-21,-1,-0.0025521488349288532,-0.0023027749930282964,-0.020133859519414987,0.03490330688398644,0.9726096890376078
2011-09-23,-1,-0.002268567058108433,-0.0020315872192038552,-0.020133859519414987,0.03490330688398644,0.9706001228254859
2011-09-27,-1,-0.001183439374873371,-0.001064028126189711,-0.029328277226744054,0.03363459092170434,0.9710420843605017
2011-09-29,-1,-0.0005512317468992073,-0.000534137511384317,-0.020133859519414987,0.03025922735646747,0.9721130927571733
2011-10-03,-1,-0.0036210893419322556,-0.003241067028424763,-0.01673084184080251,0.03025922735646747,0.9732028965855642
2011-10-05,1,0.000333313531316939,0.00040992257200747563,-0.02326456094255478,0.027336427009241392,0.9743698799182614
2011-10-07,1,0.0005905992655316789,0.0007134229210264379,-0.02326456094255478,0.026108713020930083,0.976291849785984
2011-10-11,1,0.0021423187774144625,0.002509563792561271,-0.02326456094255478,0.02267577452990943,0.9770354507100234
2011-10-13,1,0.0018146781084424067,0.0020764984991094794,-0.032439005852340656,0.021451597311197865,0.9770192552978353
2011-10-17,1,0.0012807880290263574,0.00146235016426361,-0.02326456094255478,0.021451597311197865,0.9784974236547903
2011-10-19,1,0.0016304192864988118,0.0018692276518879262,-0.020852148777477163,0.020682056691273744,0.9805547226960399
2011-10-21,1,0.0018054886089541905,0.002005033097356274,-0.020852148777477163,0.011422166197631936,0.9812493251402292
2011-10-25,1,0.0007212251658807083,0.0007772453412759127,-0.019555312054053142,0.011422166197631936,0.9821109916654239
2011-10-27,1,0.0019293313017517014,0.002129891500335588,-0.020852148777477163,0.006563081950020403,0.9824908356185116
2011-10-31,1,0.0007108398877178877,0.0007622172677497975,-0.020197274710845398,0.007822030663996176,0.9830794915235935
2011-11-02,-1,-0.00019611183050523428,-0.00012053385959732616,-0.01511803526707821,0.011422166197631936,0.9835724171134007
2011-11-04,-1,-0.0009904576193775004,-0.0007783348984408291,-0.01511803526707821,0.012234729344766517,0.9832153829585316
2011-11-08,1,0.00028262568143621404,0.00029760687474312603,-0.01511803526707821,0.011782043419740712,0.9833373678120406
2011-11-10,-1,-0.0003502332254393716,-0.00027488374270328333,-0.01511803526707821,0.011782043419740712,0.9831559023732338
2011-11-14,-1,-0.0013254952567426093,-0.0011209256387694523,-0.019870118520621545,0.010972150485262067,0.9829066873516843
2011-11-16,-1,-0.0015896257402243325,-0.001347312393436031,-0.018202607709156375,0.01074167368910417,0.9835920121773091
2011-11-18,0,0.0,0.0,-0.019870118520621545,0.0063768237088886156,0.9828528113207396
2011-11-22,0,0.0,0.0,-0.016029270752308148,0.011782043419740712,0.9816454661265566
2011-11-25,0,0.0,0.0,-0.012695854491946662,0.011782043419740712,0.9821707558188085
2011-11-29,1,0.0003578222207832322,0.0005357417147571452,-0.012695854491946662,0.011210613098507289,0.9830500000727748
2011-12-01,1,0.0008700878248818723,0.0011005749736906368,-0.011887464081762875,0.011128051584920423,0.9855456945019203
2011-12-05,1,0.001094206944478464,0.0013595220413138518,-0.011887464081762875,0.011128051584920423,0.9853430652338285
2011-12-07,0,0.0,0.0,-0.01247522576339329,0.010899246186637235,0.9851983555984224
2011-12-09,1,0.0003241902367263488,0.0005023398728507531,-0.01247522576339329,0.011128051584920423,0.9850330586751914
2011-12-13,-1,-0.0006341580243102842,-0.0005630552295277872,-0.0075458175963062125,0.013729537510109791,0.9858697558268577
2011-12-15,-1,-0.0007766969594909296,-0.0007480614055318691,-0.004702050979283181,0.013729537510109791,0.986464570457192
2011-12-19,-1,-0.0018423080694605987,-0.0017154867727838265,-0.00407918422199229,0.013729537510109791,0.9870343076367255
2011-12-21,-1,-0.0005360260575727736,-0.0005249227491592306,-0.00407918422199229,0.011128051584920423,0.9890903599294327
2011-12-23,1,0.00017233023890249712,0.000291766550485383,-0.00407918422199229,0.010990053903747566,0.9897014527884124
2011-12-28,-1,-0.001321658118487259,-0.0011592584678774965,-0.003902130882871654,0.010990053903747566,0.9888674409046486
2011-12-30,-1,-0.001168129520189463,-0.001023097636695203,-0.003902130882871654,0.010372391556053087,0.9895419650566785
2012-01-04,-1,-0.00010737123642525853,-0.00010245264799015116,-0.003902130882871654,0.010372391556053087,0.9904214541273296
2012-01-06,1,0.00010488898227440353,0.0001781464314516751,-0.003902130882871654,0.011193586910829934,0.9897465364831425
2012-01-10,1,0.0004424699689303067,0.0005430219338576789,-0.003902130882871654,0.010873484005566484,0.9901119081352793
2012-01-12,0,0.0,0.0,-0.004113598958600894,0.010372391556053087,0.9898033872257523
2012-01-17,0,0.0,0.0,-0.003985270688074129,0.010372391556053087,0.9899380619585914
2012-01-19,1,0.001145426169955799,0.0013092068702880585,-0.003985270688074129,0.008000146286908958,0.9902230264957208
2012-01-23,1,0.0020778705130896848,0.0024305798357621695,-0.003985270688074129,0.010590049227533592,0.9899425180891871
2012-01-25,1,0.0022758690567997062,0.0026586252010036967,-0.003339138758882854,0.007917967878761822,0.9902033287359382
2012-01-27,1,0.0012168268378470993,0.0013830421616545443,-0.0027494435865230184,0.007917967878761822,0.9910737257580675
2012-01-31,0,0.0,0.0,-0.0027494435865230184,0.007917967878761822,0.9907842801289595
2012-02-02,0,0.0,0.0,-0.0027494435865230184,0.0067569960841172266,0.9910886234907337
2012-02-06,0,0.0,0.0,-0.0027494435865230184,0.0067569960841172266,0.9912931408438471
2012-02-08,0,0.0,0.0,-0.0026029602120378453,0.007463012028973247,0.9926855765059798
2012-02-10,0,0.0,0.0,-0.0019199967568250152,0.009143003270020732,0.9932185548252482
2012-02-14,0,0.0,0.0,-0.002180929701170618,0.010754471232829601,0.9924060654682718
2012-02-16,0,0.0,0.0,-0.0025393556775974474,0.011527686113568015,0.9916829968537878
2012-02-21,1,0.0005321592779674215,0.0005330466234188069,-0.002685760867788294,0.009389603683463876,0.9921215778766372
2012-02-23,1,0.00018368405352817865,0.0002467504304622069,-0.006039878601855759,0.009389603683463876,0.9913996493571668
2012-02-27,-1,-0.00028727021056759527,-0.0001474968831044232,-0.006039878601855759,0.011527686113568015,0.9905159406068852
2012-02-29,-1,-0.00017611098179160802,-6.485841664017532e-05,-0.0032308123123706545,0.011527686113568015,0.9903927365810832
2012-03-02,0,0.0,0.0,-0.006039878601855759,0.011527686113568015,0.9901799407397034
2012-03-06,0,0.0,0.0,-0.005536296102499293,0.00992876858023476,0.9912741918922613
2012-03-08,0,0.0,0.0,-0.006606089374696345,0.005812323136460462,0.9916069929889639
2012-03-12,0,0.0,0.0,-0.00974833731938953,0.004562580488474027,0.9901748615001432
2012-03-14,0,0.0,0.0,-0.00974833731938953,0.0056279148071982765,0.9900006136796405
2012-03-16,0,0.0,0.0,-0.009820962617793005,0.0056279148071982765,0.9899552732714271
2012-03-20,0,0.0,0.0,-0.010516589699880308,0.008853708961473444,0.989459456437193
2012-03-22,0,0.0,0.0,-0.009749342250040928,0.008853708961473444,0.9899524199262205
2012-03-26,0,0.0,0.0,-0.009829471109273853,0.008853708961473444,0.9898372580819729
2012-03-28,0,0.0,0.0,-0.009829471109273853,0.009402710889417003,0.9894160313271222
2012-03-30,0,0.0,0.0,-0.009829471109273853,0.009402710889417003,0.9893353120621686
2012-04-03,0,0.0,0.0,-0.010533070798460269,0.009402710889417003,0.9880619199570894
2012-04-05,0,0.0,0.0,-0.01776673988318455,0.009402710889417003,0.9868938988243976
2012-04-10,-1,-0.0011739538589905217,-0.0010547723117584548,-0.010533070798460269,0.009402710889417003,0.9888380098283627
2012-04-12,-1,-0.0009031114069119013,-0.0008245582040945045,-0.010533070798460269,0.0025355370619112704,0.989912540630362
2012-04-16,1,0.00029535574005751697,0.0003054005052474195,-0.010533070798460269,0.0006593171991410287,0.9900154524378391
2012-04-18,1,3.095451370282098e-05,8.876255748439753e-05,-0.013767787717338996,-0.00020244551779040305,0.9894916534325914
2012-04-20,-1,-0.0005715263779081018,-0.0004061465386471904,-0.016247319238462284,-0.0007940308848650979,0.9887664562828484
2012-04-24,-1,-0.00019759657266813456,-0.00010020621895028188,-0.016247319238462284,-0.00020244551779040305,0.9888622142979951
2012-04-26,1,0.000644703715526192,0.0006822358752893729,-0.016247319238462284,-0.00020244551779040305,0.9891334301859367
2012-04-30,0,0.0,0.0,-0.016247319238462284,-0.00020244551779040305,0.9896415379640028
2012-05-02,-1,-0.00092006313768717,-0.0007504666949372422,-0.016247319238462284,0.0005878605793847792,0.9905800900871591
2012-05-04,0,0.0,0.0,-0.013767787717338996,0.0005878605793847792,0.9897851599729927
2012-05-08,0,0.0,0.0,-0.013767787717338996,0.00349497133164943,0.9879819191401387
2012-05-10,-1,-0.003580216424282022,-0.0030439965479582437,-0.013767787717338996,0.00349497133164943,0.9890264976099425
2012-05-14,-1,-0.004551790462323593,-0.0038329226725445924,-0.013635119611416259,0.00349497133164943,0.9891332734432555
2012-05-16,0,0.0,0.0,-0.013315858067438827,0.00349497133164943,0.9891851703693458
2012-05-18,0,0.0,0.0,-0.012848798160499969,0.005090692888817116,0.9890127535423066
2012-05-22,0,0.0,0.0,-0.012848798160499969,0.005551542095577469,0.988459434365684
2012-05-24,0,0.0,0.0,-0.013315858067438827,0.005551542095577469,0.9870647522063088
2012-05-29,-1,-0.0033555147006991814,-0.0028956146777505774,-0.014592302436235209,0.005754252904606694,0.9855880354660752
2012-05-31,-1,-0.0038819934197468807,-0.0033383510143219983,-0.013315858067438827,0.005806606936653981,0.9860611810339351
2012-06-04,-1,-0.0044316762248478225,-0.003829244446388839,-0.006224630416739267,0.01154660441699166,0.9860977411452437
2012-06-06,-1,-0.0027968132009328133,-0.0024015457998080654,-0.008949129600493228,0.010574728730632747,0.9880037606347741
2012-06-08,-1,-0.003228741818071385,-0.0028073135805648363,-0.012081491220088118,0.010574728730632747,0.9875746595402248
2012-06-12,-1,-0.0034327699845487034,-0.0030160039584278897,-0.00870497953448943,0.011406647863019424,0.9872680076531257
2012-06-14,-1,-0.003540846897051862,-0.003144072589519083,-0.00870497953448943,0.011749418532715012,0.9857694589968011
2012-06-18,-1,-0.0030743313799288297,-0.0027538652921736575,-0.011967601259168984,0.011406647863019424,0.9865363967343029
2012-06-20,-1,-0.0025760650873464883,-0.0022840848301732605,-0.011967601259168984,0.011406647863019424,0.9866765106069089
2012-06-22,-1,-0.0033068310484884534,-0.0029408036352962805,-0.011967601259168984,0.011406647863019424,0.987198771500856
2012-06-26,-1,-0.003547150463006767,-0.00317662757510335,-0.011967601259168984,0.010642333435873865,0.9881886209996108
2012-06-28,-1,-0.0026660310789633737,-0.002419879277024286,-0.011967601259168984,0.011749418532715012,0.9873827091433818
2012-07-02,-1,-0.0023721160136719473,-0.0021374643826552607,-0.011967601259168984,0.009115930575704485,0.988385416856562
2012-07-05,-1,-0.0025434595430609643,-0.0022568555391693145,-0.012657735929838803,0.006210920450986575,0.9883052646969026
2012-07-09,-1,-0.002587514367366444,-0.002267649480645747,-0.012657735929838803,0.00943830675666079,0.9871657523896318
2012-07-11,-1,-0.002180996727504652,-0.0019362225152347945,-0.012657735929838803,0.009304941815267184,0.9873225816504876
2012-07-13,-1,-0.001256702836045221,-0.0011498607221763603,-0.01169235414761983,0.009304941815267184,0.9882675797349283
2012-07-17,-1,-0.002044276630579942,-0.0018447324917913181,-0.006980661742358465,0.009304941815267184,0.9892399421339026
2012-07-19,-1,-0.0012547441348786633,-0.0011517481515480295,-0.006980661742358465,0.009107942935025964,0.9900360883865509
2012-07-23,-1,-0.0021223078294130837,-0.0018991487039531254,-0.0034035281288939167,0.010293334489154439,0.9902350074587115
2012-07-25,-1,-0.002251593228481801,-0.002038628811654914,-0.0034035281288939167,0.010293334489154439,0.990937828803285
2012-07-27,-1,-0.0016090664608734554,-0.0014844474841384887,-0.005717586548621349,0.006604275036712412,0.992086232156455
2012-07-31,-1,-0.001111490951285941,-0.0010839192438331035,-0.005327560531871672,0.006604275036712412,0.9922131701252994
2012-08-02,-1,-0.0015254630351287657,-0.001474865801700562,-0.004048626404547165,0.010293334489154439,0.9923544450374797
2012-08-06,-1,-0.0004019460058559725,-0.0002839382347494419,-0.0028718985710455207,0.010293334489154439,0.9936949733728956
2012-08-08,1,0.00025807911144889214,0.0004771440205716561,-0.004029296855126159,0.010293334489154439,0.9928189156930769
2012-08-10,1,0.0009148467798069865,0.0012266037475531602,-0.005147554240176032,0.00972204674887587,0.9925601207477384
2012-08-14,1,0.0006440114495235752,0.0008870871709008415,-0.005147554240176032,0.010293334489154439,0.9920871668161668
2012-08-16,1,0.0015292976980658662,0.0019367754241545276,-0.005147554240176032,0.011008347236256821,0.9905491530394277
2012-08-20,1,0.0017537364996802274,0.0022286997366241642,-0.005327560531871672,0.011008347236256821,0.9901084986843423
2012-08-22,1,0.0010919365388515124,0.0014901605487473433,-0.005327560531871672,0.011008347236256821,0.9902301276731612
2012-08-24,1,0.0012902890828792185,0.001699904898208474,-0.005899167808478854,0.011008347236256821,0.9898909255700714
2012-08-28,1,0.0011455679761807112,0.001518746473094046,-0.008097358830064554,0.011008347236256821,0.9889442041853332
2012-08-30,1,0.0009344678334998623,0.0012143484064236956,-0.008648399613072372,0.009781612449781768,0.9888360394155875
2012-09-04,1,0.0018784872626187343,0.0023308187549948628,-0.008648399613072372,0.009781612449781768,0.9886537914625647
2012-09-06,1,0.0024846104777974084,0.0030187077531685317,-0.008648399613072372,0.009781612449781768,0.9889931430573462
2012-09-10,1,0.0024685308605626776,0.003008845666471485,-0.008296450828673498,0.009644566276909282,0.9893149576683102
2012-09-12,1,0.0026423319527144585,0.0031881182907150256,-0.00963627663105588,0.006489605091510169,0.9889040034801093
2012-09-14,1,0.0038394768632181698,0.0045774485982916,-0.00963627663105588,0.0033080872801297396,0.9886698969129054
2012-09-18,1,0.003497312550873008,0.0042051947817994244,-0.008242938379277946,0.006489605091510169,0.989524042676938
2012-09-20,1,0.0033052219182893383,0.003982662570810652,-0.006499475155440712,0.01052497168403468,0.9898959201338312
2012-09-24,1,0.0026727700558815968,0.00328709501959287,-0.006762370966120396,0.01052497168403468,0.989791418125627
2012-09-26,1,0.0014453930458115135,0.0018050279473126928,-0.00587469661418235,0.01052497168403468,0.9906220206433177
2012-09-28,1,0.0014583372544387078,0.001828021502297245,-0.005112720768999961,0.008591776450592075,0.9911630692074116
2012-10-02,1,0.0019194735791270706,0.0023392433167265837,-0.00587469661418235,0.008038380629472801,0.9909274875855894
2012-10-04,1,0.0022404406720492815,0.0026732862532552314,-0.00587469661418235,0.006444699098409797,0.9915909295627855
2012-10-08,1,0.0014974841755537186,0.001732321372073897,-0.006087206840800369,0.008038380629472801,0.9892511072529961
2012-10-10,1,0.0006466078906181708,0.0007255306566071821,-0.006087206840800369,0.008038380629472801,0.9886570341141038
2012-10-12,1,0.0011849827984066626,0.0013673902634416231,-0.006026300530770562,0.006444699098409797,0.9894371472159801
2012-10-16,1,0.0022494442585265628,0.0025702519407246275,-0.006673274660770849,0.006444699098409797,0.9896412962442224
2012-10-18,1,0.003032929498326409,0.003454799675468548,-0.006673274660770849,0.006561144090474355,0.9897022270504235
2012-10-22,1,0.0027700138503707348,0.0030960930441711627,-0.006026300530770562,0.006561144090474355,0.9906015993248566
2012-10-24,1,0.0016350132367841763,0.0017389291552316307,-0.005877385731468139,0.007514642358768345,0.9901932172456883
2012-10-26,1,0.00218284413827687,0.002443056789318605,-0.006673274660770849,0.008037879033865478,0.989990338671243
2012-11-01,0,0.0,0.0,-0.005877385731468139,0.0074132637526371555,0.9902292714508891
2012-11-05,0,0.0,0.0,-0.005877385731468139,0.0074132637526371555,0.9905619660680697
2012-11-07,1,0.0003763633828454814,0.00040778127762875063,-0.002133452963533353,0.0074132637526371555,0.9928162893097693
2012-11-09,-1,-0.00010707806643285881,-5.629918631343061e-05,-0.000608721009097908,0.0080094914576534,0.9933334196862871
2012-11-13,1,2.327529656186229e-05,4.111293027903748e-05,-0.00012231199389125893,0.008256852123622814,0.9931653697466257
2012-11-15,-1,-0.0007464293675995297,-0.0006216958301886327,-0.000608721009097908,0.0080094914576534,0.993316501671733
2012-11-19,-1,-0.0005541561926026982,-0.00039849389023696063,-0.000608721009097908,0.0080094914576534,0.9935320670443086
2012-11-21,0,0.0,0.0,-0.0010849030900349184,0.008317274865848365,0.9928110965169796
2012-11-26,0,0.0,0.0,-0.002748884710533855,0.0080094914576534,0.9931756064626002
2012-11-28,0,0.0,0.0,-0.0028825384221334515,0.007097900708187753,0.9936951794559936
2012-11-30,0,0.0,0.0,-0.003478017778754485,0.008317274865848365,0.9928358926974913
2012-12-04,0,0.0,0.0,-0.003478017778754485,0.009396746047944465,0.9910327439724362
2012-12-06,0,0.0,0.0,-0.005304622090881365,0.009396746047944465,0.9908676089221621
2012-12-10,0,0.0,0.0,-0.00594881905566988,0.009396746047944465,0.9908999481925779
2012-12-12,1,0.0014133808700856547,0.0015552998232457654,-0.00594881905566988,0.009411639890994274,0.9907601720396684
2012-12-14,1,0.0006387071895024571,0.0006481354017032753,-0.003537112611421857,0.009411639890994274,0.9912283883519567
2012-12-18,1,0.0009717862912025279,0.000974633472205622,-0.004071959999441622,0.009411639890994274,0.9911529300130728
2012-12-20,1,0.0011274960625554278,0.001184107910189414,-0.003067130414941237,0.011598757201070896,0.991464740918706
2012-12-24,1,0.00028732950571792296,0.0003465215256302209,-0.0028825384221334515,0.012799080125134324,0.9915758494675407
2012-12-27,0,0.0,0.0,-0.0019122082643955461,0.012799080125134324,0.9911836618946903
2012-12-31,0,0.0,0.0,-0.0019122082643955461,0.011485547611189292,0.9911533076778614
2013-01-03,0,0.0,0.0,-0.0019122082643955461,0.011463504417123533,0.9923332120911947
2013-01-07,0,0.0,0.0,-0.0019122082643955461,0.012619740953055444,0.9910221314529863
2013-01-09,0,0.0,0.0,-0.0019122082643955461,0.013344196628583785,0.9904985413521495
2013-01-11,1,0.002122932370479011,0.002362168341340661,-0.0019122082643955461,0.013344196628583785,0.9908677331552806
2013-01-15,1,0.0019300389280363403,0.0021350969942193145,-0.001548457455921021,0.013759449099944884,0.9903762273873995
2013-01-17,1,0.001953621155003069,0.0021255619998485475,-0.001566706915236122,0.012824288025706421,0.9910796371576547
2013-01-22,1,0.002169432916133948,0.0023536157097546143,-0.004151691831120401,0.012824288025706421,0.9901659217626593
2013-01-24,1,0.001981870775168149,0.0021189155720219765,-0.006596286460673154,0.012758158443509145,0.9896270401593837
2013-01-28,1,0.002054093233789349,0.0022157661684915945,-0.010116323490394383,0.012758158443509145,0.9890538407646277
2013-01-30,1,0.0019362423867162167,0.0020977861418790796,-0.005166137887976171,0.013404718387047895,0.9888384401721197
2013-02-01,1,0.0026560480360035715,0.002957369378878762,-0.005166137887976171,0.01425498276988601,0.9883583764615976
2013-02-05,1,0.0027586879245126926,0.003056764118098598,-0.0009187439100553516,0.01548548111817416,0.9891446885621512
2013-02-07,1,0.0029946218656476567,0.003314957148144762,0.0018442459082093614,0.014903134389094127,0.9898454979042447
2013-02-11,1,0.004363070885915314,0.004949193385018563,-0.0007388245715546745,0.014903134389094127,0.9896281933441073
2013-02-13,1,0.004010875128135545,0.0044803765970384294,0.0011054213366546869,0.016156517360757537,0.9891532822071943
2013-02-15,1,0.003611951679999157,0.00399445852960012,-0.002896319858565383,0.016156517360757537,0.9883323320019508
2013-02-20,1,0.002924130560383361,0.0031880720019242096,0.0011788117793154846,0.016156517360757537,0.9898131388300397
2013-02-22,1,0.002317562828065985,0.0024567162897481684,0.0011788117793154846,0.016156517360757537,0.9897554630017589
2013-02-26,1,0.0015193060119690451,0.0015308248641051287,0.0028645046467830264,0.016767145880020422,0.9896169565585573
2013-02-28,1,0.002463863586982553,0.0026290570929781727,0.002014572992865008,0.016156517360757537,0.9911540229633098
2013-03-04,1,0.0036202489993974775,0.003969050358522931,-0.0025908147408081833,0.014903134389094127,0.991956846673744
2013-03-06,1,0.004002285186199169,0.004384925342794733,-0.0036903116937571532,0.008867468692316752,0.9910002722658054
2013-03-08,1,0.004067508587635926,0.004414237331277915,-0.006191432193380744,0.007258681806445103,0.9898909227684205
2013-03-12,1,0.00456968253454099,0.004987955264694155,-0.006191432193380744,0.007953938218956447,0.9897098266284269
2013-03-14,1,0.005804207290909177,0.006434346749009908,-0.006191432193380744,0.006618253063222794,0.9899410363770994
2013-03-18,1,0.005243876227201411,0.005828883836528577,-0.006191432193380744,0.007258681806445103,0.9888761987155416
2013-03-20,1,0.004918846377167004,0.005455119085258806,-0.01046507616342865,0.007258681806445103,0.9868407098631862
2013-03-22,1,0.004208317804440619,0.004606417776431997,-0.00789199039109795,0.007883970377866147,0.9870970272139706
2013-03-26,1,0.004641682226767529,0.005088945780579916,-0.00789199039109795,0.009386497683249838,0.9865686279244179
2013-03-28,1,0.004610948162740685,0.005052512451222251,-0.01091929916749262,0.009843979305129183,0.9857863323831436
2013-04-02,1,0.004110466788813471,0.004482878180106666,-0.01091929916749262,0.011532125996277058,0.9859936664495991
2013-04-04,1,0.002459062273902057,0.00255644858168677,-0.01091929916749262,0.01293055079908317,0.9859084509137198
2013-04-08,1,0.0016382131924892588,0.0016661553571628643,-0.005035001368365504,0.01293055079908317,0.9869155311758245
2013-04-10,1,0.0019906873729037015,0.002014036479797896,-0.005035001368365504,0.01293055079908317,0.9877351747101781
2013-04-12,1,0.0017114023714332148,0.0017770972109687829,-0.0057782299197130715,0.01293055079908317,0.9874903936104305
2013-04-16,1,0.0010721569872468334,0.0011957767111728666,-0.003518097177878012,0.01293055079908317,0.988997418405481
2013-04-18,0,-0.00023707428587164644,3.710271809955433e-05,0.0005197661460680915,0.01293055079908317,0.9885742722280491
2013-04-22,1,0.0007330391732630935,0.0008674554138525668,-0.003518097177878012,0.01148344418824718,0.9890323624426005
2013-04-24,1,0.0011711430942620545,0.0012568999778183945,-0.00787506327501848,0.010169204712471448,0.9895264845185288
2013-04-26,1,0.0007356094438310374,0.0008859600702501107,-0.00787506327501848,0.009671678182021713,0.9897972962594545
2013-04-30,1,0.0013237983499085409,0.0013964002547687273,-0.00787506327501848,0.010137819782957084,0.989082926266912
2013-05-02,1,0.001114898306276556,0.0012057994912537842,-0.00787506327501848,0.010449669967868766,0.9892489969117225
2013-05-06,1,0.0013237194769372778,0.001376520842674903,-0.010538735951791896,0.010449669967868766,0.9890291091123322
2013-05-08,1,0.0015279271789926754,0.0015654467037593007,-0.011989450552853212,0.010449669967868766,0.9876660124949197
2013-05-10,1,0.0009423192377635043,0.00107908929483267,-0.011989450552853212,0.015008185310637174,0.986659017298023
2013-05-14,1,0.0017210740278864678,0.0017354411005360251,-0.013281168251547031,0.01132858554780592,0.9862202166237701
2013-05-16,1,0.0006415562027130245,0.0008065634298188267,-0.013281168251547031,0.014586147980341468,0.9864999554331305
2013-05-20,0,-7.004056935836606e-05,0.00021602096842611755,-0.013281168251547031,0.0185083437134925,0.986007664093937
2013-05-22,-1,-0.0010089644944979287,-0.0006047664409742995,-0.012763985078955925,0.02009467280534667,0.9854951609247373
2013-05-24,-1,-0.001381236820186332,-0.0009452425721671262,-0.01278490051285206,0.02009467280534667,0.9843845767665076
2013-05-29,1,0.00027074955648833396,0.0004745675204121388,-0.01278490051285206,0.017983487637433113,0.985054580765751
2013-05-31,-1,-0.00031853252625238147,-3.935266293326328e-05,-0.012989108028452333,0.017744326440874238,0.985129469772155
2013-06-04,-1,-0.0007694445766686627,-0.0004264070450976029,-0.012989108028452333,0.017744326440874238,0.9848961855493616
2013-06-06,0,-0.00020238838869460316,4.407641278522255e-05,-0.008453126863750911,0.017744326440874238,0.9855604131821842
2013-06-10,-1,-0.0004411213420258686,-0.00015249499557228388,-0.008453126863750911,0.017744326440874238,0.9854099309352434
2013-06-12,-1,-0.0009265119400652651,-0.000597543122507047,-0.00333083928287965,0.017744326440874238,0.9860468834973111
2013-06-14,-1,-0.0011600488343180202,-0.0008230844361534296,-0.0030944094607343203,0.017744326440874238,0.9871909481121721
2013-06-18,0,-0.00017878759307667438,4.433394425459869e-05,-0.004916142866344063,0.013796215293091028,0.9887493077920423
2013-06-20,1,0.0002362742606997415,0.00041959336369726795,-0.004916142866344063,0.013796215293091028,0.9890909477404833
2013-06-24,-1,-0.0010207792061952996,-0.0006724900731213439,-0.003587842699621353,0.013796215293091028,0.9901003723405701
2013-06-26,0,-8.762234493276528e-05,0.00013964087473383117,-0.004916142866344063,0.010063026100340993,0.9912466609810634
2013-06-28,0,-0.00023301212941089573,1.15070109075533e-05,-0.004750205747308414,0.008456095906080156,0.9926121309232266
2013-07-02,1,0.00021728374642329717,0.0004082585969214401,-0.004750205747308414,0.008222959820930086,0.9928963443752697
2013-07-05,1,0.0012113198161233492,0.001258246560101841,-0.004750205747308414,0.008222959820930086,0.9918270752739572
2013-07-09,1,0.0020002702220185296,0.0020594110898115225,-0.005517687271968769,0.0026270691366712205,0.9902766397390543
2013-07-11,1,0.0017621454231868856,0.0017648300712388928,-0.005874407080700283,0.004390189667351589,0.989650992603006
2013-07-15,1,0.0013394121790735608,0.001406986304065108,-0.007939229017913342,0.0014608326030544636,0.98870972831607
2013-07-17,1,0.0009597414102295855,0.0010738866130142943,-0.007939229017913342,0.005027994561877138,0.9885728364338071
2013-07-19,1,0.0005624927478330849,0.0007614287805416957,-0.008625613662848555,0.004828004883778651,0.9889564674537256
2013-07-23,1,0.0011211505382711711,0.0012107688750596422,-0.008625613662848555,0.004061293188739983,0.9886022550159441
2013-07-25,1,0.0014435354434251656,0.0014499525470352164,-0.008625613662848555,0.0051854459040624225,0.9875146756922815
2013-07-29,1,0.0013971228434422566,0.0014346249703308998,-0.008625613662848555,0.0051854459040624225,0.9873682282854626
2013-07-31,1,0.0017781044044036906,0.001882925956900865,-0.011894267804719257,0.0051854459040624225,0.9859499176566621
2013-08-02,1,0.0023266997530984332,0.0025258032366185647,-0.00957761418322168,0.0051854459040624225,0.987518678948389
2013-08-06,1,0.0013517648270655112,0.0014742339295052873,-0.007509550124258012,0.007732829809680429,0.9890736246191536
2013-08-08,1,0.0011089739502466622,0.0011658740095920523,-0.007432061655545177,0.007732829809680429,0.9895057152391454
2013-08-12,1,0.00013654733254549767,0.0001938081270003533,-0.005605522242926398,0.009965293011429417,0.9898942497050649
2013-08-14,1,0.0002250953084480823,0.0002794040827430722,-0.006661310476963054,0.01002734509825686,0.9893940176275802
2013-08-16,1,0.0003836824776820546,0.00038824889538305367,-0.00556458461282835,0.01011793459320939,0.9899650404992889
2013-08-20,1,0.00030634031856834775,0.0003147405624757553,-0.004185434810094811,0.01011793459320939,0.9900997256614513
2013-08-22,1,0.0010059552253873683,0.00106454858807491,-0.005809126088064667,0.009267297490177967,0.9898867853198098
2013-08-26,-1,-0.0003434735179654447,-0.00018044075017232966,-0.005793503129287902,0.009267297490177967,0.9899028082996875
2013-08-28,-1,-0.0010947517798932252,-0.0008230463861222876,-0.004180227157169222,0.009643084691194757,0.9907790788983949
2013-08-30,-1,-0.0004875666222512939,-0.00034530059981618803,-0.00541439954929536,0.009643084691194757,0.9908986084029199
2013-09-04,1,0.0004480142425491956,0.000493577652567762,-0.006294750915567555,0.009643084691194757,0.9911680188638327
2013-09-06,-1,-0.0004427660756822229,-0.00025145172463529727,-0.0067906324741435825,0.010973527711402167,0.9902661455733076
2013-09-10,-1,-0.0009568985698183856,-0.000646212792059831,-0.011159266049287188,0.006048661135689035,0.9901681778446555
2013-09-12,-1,-0.0005412457042286045,-0.0003139774945420484,-0.009810815090118342,0.006048661135689035,0.9897144506246285
2013-09-16,1,0.00010551660367269213,0.00021408380772260224,-0.009810815090118342,0.011077025627129767,0.9885479879031338
2013-09-18,0,-0.0001252508761059871,2.4462357435811415e-05,-0.009810815090118342,0.013175852490233423,0.987516464499431
2013-09-20,-1,-0.0006816415156468386,-0.0005111441236223017,-0.009179336434544872,0.013175852490233423,0.9889297197623828
2013-09-24,-1,-0.0006172458749980717,-0.0004372520750235471,-0.009179336434544872,0.013175852490233423,0.989056857457987
2013-09-26,-1,-0.00038547954541767244,-0.000223926656187102,-0.009810815090118342,0.013175852490233423,0.9887903451605448
2013-09-30,-1,-0.0005148364808890335,-0.00035882861950101543,-0.009179336434544872,0.013175852490233423,0.9893835161200106
2013-10-02,-1,-0.0003630868117519341,-0.0002158890498923609,-0.006341953495486345,0.014363997139974754,0.989784275788419
2013-10-04,1,0.00016917757804891902,0.00021723162652787135,-0.0058876793067319825,0.006936490755399386,0.9907864596706372
2013-10-08,-1,-0.0012400592547040109,-0.0009907077824624876,-0.0033751985873283065,0.014363997139974754,0.9904686572155227
2013-10-10,-1,-0.0005828805737164024,-0.00041306277037614017,-0.005126353504385705,0.00951729254407399,0.9914447543952629
2013-10-14,0,-0.0001182285983081443,2.6977513780990106e-05,-0.005659314611897019,0.005353187363469285,0.990886707301923
2013-10-16,1,3.126583028166915e-05,0.0001825134958955601,-0.006135595224548913,0.002321340543386308,0.9919684132090024
2013-10-18,1,0.0008772659762634936,0.0008829601154126895,-0.006135595224548913,0.005353187363469285,0.9912229254017721
2013-10-22,1,0.00011060268179593612,0.0002005886047113817,-0.006135595224548913,0.005353187363469285,0.9914736120896899
2013-10-24,-1,-0.00033934384519793045,-0.0001837755327709263,-0.0037690839812622346,0.009151726569991844,0.9917384838654092
2013-10-28,-1,-0.0003778183272505797,-0.0002236846653259631,-0.0037690839812622346,0.009666772476150243,0.991423756742454
2013-10-30,1,3.411817455662732e-05,0.0001300896423770418,-0.0043944349799257005,0.008105671120863356,0.9919590457116235
2013-11-01,-1,-0.0007352567066678412,-0.0005149052751696547,-0.0038413781368587955,0.008105671120863356,0.9922264734579266
2013-11-05,1,0.00011822170490961181,0.0002595470579631652,-0.004161113318286591,0.004187091115893212,0.9926481897864329
2013-11-07,0,-5.337943258923049e-05,5.450546483291125e-05,-0.0038413781368587955,0.009666772476150243,0.9914472817586191
2013-11-11,1,0.0012562456211260098,0.0013172021683923011,-0.0032106203927949432,0.004187091115893212,0.9932044289557891
2013-11-13,1,0.0007161285626012309,0.00077009624823751,-0.0038413781368587955,0.004187091115893212,0.9929110536837716
2013-11-15,1,0.001328334490144555,0.0014041457769079244,-0.0038413781368587955,0.004508296524754405,0.9929300821588284
2013-11-19,1,0.0013146775165902868,0.0013770595308909362,-0.0038413781368587955,0.0070210275690471904,0.9922457607820163
2013-11-21,1,0.0019124015704925707,0.0020789415788938035,-0.004161113318286591,0.004508296524754405,0.9922912013642335
2013-11-25,1,0.002145392581857161,0.0023919574519661833,-0.004161113318286591,0.004508296524754405,0.9922747336289977
2013-11-27,1,0.0025305417574373957,0.0028687069310559263,-0.004161113318286591,0.007017305798005786,0.9922345269916986
2013-12-02,1,0.0022316402704346617,0.002522391017623437,-0.0040472986889255325,0.007017305798005786,0.9923878397412893
2013-12-04,1,0.002572687719985662,0.0029066642207065787,-0.004237115691163473,0.004508296524754405,0.9921603893260613
2013-12-06,1,0.002750736260636437,0.0030920242786955463,-0.002904196875082673,0.004508296524754405,0.9939162670128362
2013-12-10,1,0.0027433366025301146,0.003097731675132587,-0.002904196875082673,0.00654271865419497,0.9937449256071491
2013-12-12,1,0.00230572868352203,0.0026150841227107835,-0.002904196875082673,0.00654271865419497,0.9928884118308768
2013-12-16,1,0.002422940519012888,0.0027350393469434474,-0.002904196875082673,0.0074518480541106834,0.9922415477340643
2013-12-18,1,0.002838041845492182,0.0031928606690066873,-0.0060488653665613686,0.006797407881841873,0.9923240663725408
2013-12-20,1,0.0025680048599193693,0.002897417465100177,-0.00428929989466685,0.006797407881841873,0.9926122294111289
2013-12-24,1,0.0034677951366002147,0.003964637349776929,-0.006981079491026863,0.006456734575370646,0.989418241324771
2013-12-27,1,0.002471105674923181,0.0027440263487916268,-0.006981079491026863,0.005560353732870339,0.9898999223840018
2013-12-31,1,0.0020713256731173676,0.0022868064709886363,-0.010830452367277824,0.006456734575370646,0.9884060435445258
2014-01-03,1,0.0009081641980299214,0.0009182462426916588,-0.014274383426875491,0.006456734575370646,0.9867507745148184
2014-01-07,1,0.0011187281425285075,0.0011435568616596065,-0.014274383426875491,0.007675160289276997,0.9854442525472982
2014-01-09,1,0.001399731302450342,0.0014397879682573962,-0.014274383426875491,0.011285495667286802,0.984440373976337
2014-01-13,1,0.0001732937654631637,0.00029058696870035383,-0.008116631500547646,0.011285495667286802,0.9857433796718222
2014-01-15,1,0.0012751084482947083,0.0013314352952971962,-0.008116631500547646,0.010583752371414889,0.9857492231599043
2014-01-17,1,0.0005335302093962404,0.0005924683811787504,-0.006902550183885743,0.011067786505592474,0.9860432124388355
2014-01-22,1,8.307086113112233e-06,0.00015806201226822647,-0.012192675357958389,0.011067786505592474,0.9855064516871448
2014-01-24,-1,-0.0020787797957602574,-0.0016826965125588157,-0.002706774048459547,0.01128911546083193,0.9875134446286709
2014-01-28,-1,-0.0014154509854651795,-0.0011408247931880503,-0.002706774048459547,0.01128911546083193,0.987779726479916
2014-01-30,-1,-0.001164741155747971,-0.0009093061143290362,-0.0014157591963475241,0.011143992091226664,0.9885887967375647
2014-02-03,-1,-0.0027525786342957595,-0.0023373900737355116,-0.0007418297448441149,0.012411673887156307,0.9894266269700199
2014-02-05,-1,-0.0016182602581834911,-0.0013312683993867516,-0.0007418297448441149,0.010544774795310581,0.9914543448594243
2014-02-07,-1,-0.0006008249967803098,-0.00044180230245078277,-0.0007418297448441149,0.010210930263167148,0.9932019996334908
2014-02-11,-1,-0.0005113211205502997,-0.0003605573655874217,-0.0007418297448441149,0.010210930263167148,0.9931266345775752
2014-02-13,-1,-0.0008518579038160847,-0.0006156828962883561,-0.0016037689348524214,0.008256253640615293,0.9929109971609705
2014-02-18,-1,-0.0005045922441722103,-0.0003201680269899677,-0.0016037689348524214,0.007375598274067535,0.9930267933032265
2014-02-20,-1,-0.0006224630684982937,-0.0004413751731968148,-0.0007418297448441149,0.007633066938802218,0.9931532044429531
2014-02-24,-1,-0.0004965009586448692,-0.0003138851766750824,0.00012910594062752077,0.007375598274067535,0.993576945605188
2014-02-26,-1,-0.0005124606241920917,-0.0003245237337391817,-0.003935485025295893,0.007375598274067535,0.9929403146722718
2014-02-28,1,0.0002585560444092227,0.00034883449461564246,-0.0071590822002151845,0.005281763065815579,0.9932073418851004
2014-03-04,1,6.781977941497212e-05,0.00023651413892051822,-0.0071590822002151845,0.005281763065815579,0.992918071826631
2014-03-06,1,0.000495782283739408,0.0005965759616131938,-0.0071590822002151845,0.0038315873640613223,0.993300420103449
2014-03-10,1,0.0012485592919705924,0.0012864587173793227,-0.011297779229318898,0.0030336186746564723,0.9916970201997618
2014-03-12,1,0.0011697286287885667,0.0012243587039370966,-0.008429705600815254,0.0038315873640613223,0.9918941054751177
2014-03-14,1,0.0003889871886662077,0.0004345577164479563,-0.012467859140601566,0.0038315873640613223,0.990969320085629
2014-03-18,1,0.0004951417760490468,0.0005421464875237087,-0.012467859140601566,0.0030336186746564723,0.991213419547846
2014-03-20,1,0.0004237473682070569,0.0005029966425525886,-0.012467859140601566,0.0030336186746564723,0.9906606094176268
2014-03-24,1,0.0004199240474410947,0.0004993704640016178,-0.012467859140601566,0.003528639359194055,0.9898395061280587
2014-03-26,-1,-0.00012870749381453423,-1.1272963040731467e-06,-0.014324685791457273,0.003528639359194055,0.9900391092441619
2014-03-28,-1,-0.0009470790871221482,-0.0007072147650098761,-0.014324685791457273,0.003528639359194055,0.9895713597006798
2014-04-01,1,0.0006513160141651513,0.0006557520677989761,-0.014324685791457273,0.005579502254353976,0.9895064828951385
2014-04-03,1,8.909655804104462e-05,0.00019646385154598652,-0.014324685791457273,0.008058449074788379,0.9891413595562929
2014-04-07,-1,-0.0006911737743715246,-0.0005468086021946724,-0.012011192967504122,0.008058449074788379,0.9902826471615391
2014-04-09,-1,-0.0004158868385106848,-0.0002958103741748695,-0.012011192967504122,0.01080673094594337,0.9894815523777909
2014-04-11,-1,-0.0015086558193626396,-0.001285974594498395,-0.00814407977502844,0.011510798407972046,0.9889229510827343
2014-04-15,-1,-0.0013582349432088572,-0.0011478522211235253,-0.012011192967504122,0.011510798407972046,0.9882901763117277
2014-04-17,-1,-0.0004738159102821429,-0.00038704022269051843,-0.014096707694029481,0.01080673094594337,0.9881579264692183
2014-04-22,-1,-0.00017894288066116855,-0.00013883848633066664,-0.014096707694029481,0.008867975087502748,0.9885594961341896
2014-04-24,-1,-0.0008583596552862894,-0.000729161523339898,-0.012011192967504122,0.010643220946167266,0.9887236885555161
2014-04-28,-1,-0.0021480400270695353,-0.0018596825477976181,-0.00421898895928529,0.011034837409971531,0.9889344539796907
2014-04-30,-1,-0.0010081455271418276,-0.0008730605853036239,-0.00505904793822666,0.008866356309577437,0.9900468962743609
2014-05-02,-1,-0.00033709211917010563,-0.00030101095830457956,-0.00505904793822666,0.011029981076195598,0.989860264582672
2014-05-06,-1,-0.0008798058846965999,-0.0007805166591685603,-0.0017847495648475441,0.012209696528691994,0.9892614644265064
2014-05-08,-1,-0.00019460547158589513,-0.00014917031301876817,-0.003016206054819157,0.008866356309577437,0.9904650440123514
2014-05-12,1,0.000222999472968072,0.00024688054990622114,-0.0013290029319612349,0.008333033660587928,0.9922543660768629
2014-05-14,-1,-0.0003605260714121775,-0.00033847647358314995,-0.0013290029319612349,0.008333033660587928,0.9921806733760826
2014-05-16,-1,-0.0012573189496168729,-0.0011199509028538392,-0.0005863782938666881,0.008333033660587928,0.9927989822542375
2014-05-20,-1,-0.0006223300283099027,-0.0005850269888604048,-0.0017152130965119204,0.009041634221273428,0.9921643392145808
2014-05-22,-1,-5.674773641408702e-05,-9.99415006140933e-06,-0.0030502869429714467,0.007660526583825589,0.9923569145046228
2014-05-27,1,0.0005577059503193266,0.0006871702441436963,-0.0054223498594805405,0.006210040799714035,0.9926658360291826
2014-05-29,1,0.00011251900974348274,0.00014207716478981464,-0.0049722562940388345,0.006210040799714035,0.992717403287806
2014-06-02,1,0.000767473885650037,0.0008940037212085578,-0.0054223498594805405,0.005733500437258331,0.9930796466053503
2014-06-04,1,0.001772370766392996,0.002062686026534671,-0.006015898761972182,0.004651399546306032,0.9929892222158001
2014-06-06,1,0.001286306457320821,0.0014487101065733276,-0.00704374251888446,0.005069777620004328,0.9923323613638118
2014-06-10,1,0.0020430804479268545,0.0023498497113093432,-0.0070647570511805265,0.004302272948197964,0.9917837548126593
2014-06-12,1,0.0010690931866379314,0.0012224845412978982,-0.00704374251888446,0.004302272948197964,0.9929349852992854
2014-06-16,1,0.000959924870544175,0.0010945877880980752,-0.00704374251888446,0.0047304052311762405,0.9927730153868741
2014-06-18,1,0.0002738597907318856,0.00034332233214035224,-0.007116933969717151,0.004376081010965532,0.9932005488969798
2014-06-20,1,0.0003562199010845515,0.0004112399041186524,-0.007116933969717151,0.004376081010965532,0.9930799047283119
2014-06-24,1,4.098621911005954e-05,0.0001227980266278352,-0.007116933969717151,0.004759166214859577,0.9932865610541963
2014-06-26,-1,-0.0014368833972878301,-0.0010709885086990732,-0.007116933969717151,0.004759166214859577,0.9934925971641988
2014-06-30,-1,-0.0010521938380844498,-0.000793402132288808,-0.007116933969717151,0.004759166214859577,0.9931464310983876
2014-07-02,-1,-0.0002255119167653822,-0.00012383032205252865,-0.007067291352648249,0.004590172337081171,0.9936477134774258
2014-07-07,1,0.00018119139818778708,0.00022469940402912474,-0.007273631768678064,0.004590172337081171,0.9933083845858873
2014-07-09,1,7.316895658767214e-05,0.00011537528645379662,-0.005248336860623968,0.004759166214859577,0.9935758737278506
2014-07-11,1,4.320250500402617e-05,7.152572895497901e-05,-0.005248336860623968,0.005321685794440337,0.9931856030736528
2014-07-15,1,0.00015370456149732493,0.00018708333875668617,-0.005248336860623968,0.005780090643465841,0.9930087736768665
2014-07-17,-1,-0.00037128019952363056,-0.0002925164015342243,-0.0036310530424034297,0.006091975144170972,0.9932432151888586
2014-07-21,-1,-0.00012147567871478385,-7.58873038483876e-05,-0.003780466133935338,0.006091975144170972,0.9930413676135372
2014-07-23,1,0.0006664894994298158,0.0007648703732712483,-0.003780466133935338,0.006091975144170972,0.9933626851317208
2014-07-25,1,0.000973672842735023,0.0011482556979098995,-0.003780466133935338,0.006091975144170972,0.9935222528510468
2014-07-29,1,0.0007552710333891927,0.0009181193044292844,-0.003487369186279379,0.007734293568175779,0.9932903224029379
2014-07-31,1,0.0006884728661411112,0.0008637263798408541,-0.0034317060082320527,0.008687866304067399,0.9927568701131436
2014-08-04,1,0.0005237394622990368,0.000658719109540159,-0.002770427017472283,0.008687866304067399,0.993361349064198
2014-08-06,1,0.00025553585860600854,0.00031046057085148233,-0.0038635260057098995,0.008687866304067399,0.9925402235331856
2014-08-08,1,0.0003027981306125857,0.00038773407655821434,-0.0038635260057098995,0.008687866304067399,0.9928855647854151
2014-08-12,1,0.0009423360505062512,0.0011314582571352464,-0.0038635260057098995,0.008282660835121516,0.9933107420911141
2014-08-14,1,0.0014367329562453108,0.0016967830132231041,-0.0038635260057098995,0.0058992159176786,0.9936373087231054
2014-08-18,1,0.0011488806009348506,0.0013313208475174703,-0.003357810877247038,0.005535731054412775,0.9940791593940674
2014-08-20,1,0.0008185309699079769,0.0009241701569212568,-0.002753343812881723,0.006508770488729675,0.9938120341837714
2014-08-22,1,0.0012456726291943609,0.0014651827522611958,-0.005278523584966721,0.006508770488729675,0.9927188961396197
2014-08-26,1,0.001889166495707777,0.0021920612059593402,-0.006272191503504562,0.005535731054412775,0.9923933049256886
2014-08-28,1,0.0014308818345861627,0.0015945151120013246,-0.00895532806394376,0.0054449196368960735,0.9923313365431992
2014-09-02,1,0.002116517006459494,0.0023908970085779737,-0.009895352897160703,0.00426772419100876,0.9920819029793424
2014-09-04,1,0.0006255315233767598,0.0006272059675498624,-0.009895352897160703,0.00426772419100876,0.9927789148583209
2014-09-08,1,0.0003729354667511444,0.0003956294366368269,-0.009395726532735165,0.0054449196368960735,0.9926533800636399
2014-09-10,1,0.0008004632647551056,0.0008636478658004171,-0.012284554729887208,0.005872851372913747,0.9914158746593718
2014-09-12,1,0.0009027733649690588,0.0009850722107813152,-0.013641207503327351,0.005872851372913747,0.9906384443388091
2014-09-16,1,0.0006589125107417466,0.0006773740631892944,-0.013641207503327351,0.0023604439872591644,0.99057710753909
2014-09-18,1,0.0002521713396104451,0.00034548494547543103,-0.015634176617836136,0.0023604439872591644,0.989557972526641
2014-09-22,-1,-0.00022851622370791288,-0.00011692899815625392,-0.013641207503327351,0.005909765281654227,0.9898186104353051
2014-09-24,-1,-0.0003706469684092872,-0.00026120900882026455,-0.011668765894681634,0.00621622741755441,0.9891543858595014
2014-09-26,-1,-0.0011512397430243216,-0.0009229110521071905,-0.011172629240856732,0.00811546755505119,0.9895127197323332
2014-09-30,-1,-0.0010366342557537281,-0.0008682517269273629,-0.010794254620104913,0.009108764706851414,0.9889174235690982
2014-10-02,-1,-0.0016230014900896947,-0.0013961587738477253,-0.010794254620104913,0.009108764706851414,0.988177372837933
2014-10-06,-1,-0.001635694942946088,-0.0013735742491415709,-0.010794254620104913,0.008459909304646965,0.9883433007580282
2014-10-08,-1,-0.0022820171595581288,-0.0019099761696582639,-0.006717449419111148,0.008459909304646965,0.9886555109809163
2014-10-10,-1,-0.002705972668633438,-0.0022973960119218495,-0.00418514839997013,0.008459909304646965,0.9875331112156581
2014-10-14,-1,-0.002842752775588966,-0.0024346993633521993,-0.0005056319964588677,0.010255654120232702,0.9867361539886269
2014-10-16,-1,-0.003114241372235392,-0.0027032331422573233,0.0011110941569010416,0.011664332720907906,0.9871368445276525
2014-10-20,-1,-0.0024986434969515546,-0.0021538111329292625,-0.0037098728195528656,0.010175495741049211,0.9876841480312714
2014-10-22,-1,-0.0016515498281197952,-0.001433828185508204,-0.002401871956784911,0.008926803615433016,0.9894466941202036
2014-10-24,-1,-0.0006092315664849192,-0.0005501199020091557,-0.003910110865737673,0.008926803615433016,0.9902998557877818
2014-10-28,1,9.99884759942969e-05,0.0001330981400129716,-0.004562983285131786,0.008168476573334908,0.9908558417447105
2014-10-30,-1,-0.0006757439125833857,-0.0006353069032039182,-0.005316044170272941,0.008168476573334908,0.9914216042283713
2014-11-03,-1,-0.0008004179891353685,-0.0007108819434779603,-0.006833912877667079,0.008428187437354174,0.9909767421467461
2014-11-05,-1,-0.00026477493682106295,-0.00023575557758698267,-0.00738760687715447,0.006717528449053767,0.9913109681646339
2014-11-07,-1,-0.0005648545078842053,-0.0005277116101773883,-0.006386545785434586,0.008428187437354174,0.9915786246693395
2014-11-11,1,0.00016607345587899274,0.00022667393505144864,-0.00738760687715447,0.004798709784890403,0.9915363938368815
2014-11-13,1,0.00047567203341564027,0.0005551860779657546,-0.008740257945565223,0.002890332986949149,0.9895375289880801
2014-11-17,-1,-0.0003862535640098312,-0.00035529702044355464,-0.006386545785434586,0.0076184951573259815,0.9901834143992083
2014-11-19,-1,-0.0005680934957226355,-0.0005052634266872252,-0.006386545785434586,0.01106932514115177,0.9881430049786201
2014-11-21,-1,-0.0005847885247683937,-0.000527147919769854,-0.006386545785434586,0.012468814283452753,0.986967021153963
2014-11-25,-1,-0.00024096788818002234,-0.00024021198217402662,-0.006386545785434586,0.012468814283452753,0.9868351792708968
2014-11-28,-1,-0.0010024327611104838,-0.0009026992442951818,-0.0038247384846350633,0.012468814283452753,0.9873796987433862
2014-12-02,-1,-0.0010211473365638747,-0.000910406911969428,-0.0038247384846350633,0.012468814283452753,0.9873231725771087
2014-12-04,-1,-0.001163685515053476,-0.0010541982948198865,-0.003776496300316583,0.012468814283452753,0.9860866384282339
2014-12-08,-1,-0.0005595806581754799,-0.0004907147060403026,-0.007652962853896288,0.011447878316875722,0.9860829105796388
2014-12-10,-1,-0.0011786413753405956,-0.0010480952947855865,-0.007652962853896288,0.012468814283452753,0.9851284161219113
2014-12-12,-1,-0.001998102962383862,-0.0017909994186254105,-0.011088923028000765,0.011447878316875722,0.9868275437299494
2014-12-16,-1,-0.0012341199102307533,-0.0011184991527529444,-0.013065051239507594,0.009845931938093114,0.9866504221163054
2014-12-18,1,0.00022225113273087357,0.0002645189183289772,-0.013065051239507594,0.004687360242417572,0.9877302494583465
2014-12-22,1,0.0008071413906220071,0.0009100520278403264,-0.013065051239507594,0.006403108801133227,0.9875973049222007
2014-12-24,1,0.00101409435096315,0.0011406570099982024,-0.013913733090980457,0.005085622018887656,0.987423798369673
2014-12-29,1,0.0011618543806862108,0.0013128592870905206,-0.017342537812815563,0.005085622018887656,0.98553719154479
2014-12-31,1,0.0005000936531181623,0.0005520049768221794,-0.014456311087644473,0.006403108801133227,0.9855300120678477
2015-01-05,-1,-0.00046718309958318873,-0.00042305535679649527,-0.013088111078553122,0.01236855956941191,0.9846226495218757
2015-01-07,-1,-0.0005775537293182789,-0.0005445203818706932,-0.013088111078553122,0.013350216284131591,0.9846524717298246
2015-01-09,-1,-0.0007162952558457627,-0.0006718797938303647,-0.012058569894858918,0.013350216284131591,0.9853750998515487
2015-01-13,-1,-0.0014702384673116195,-0.0013383350563253335,-0.012058569894858918,0.014060922006919888,0.9854558790464132
2015-01-15,-1,-0.002462903614324343,-0.002215087347458136,-0.009084792380233485,0.01494869399314341,0.9853020539672016
2015-01-20,-1,-0.0017390918976950172,-0.0016137038727919366,-0.012055977006917077,0.01494869399314341,0.9853998755588398
2015-01-22,-1,-0.0002627606555022856,-0.00018381971641470813,-0.012055977006917077,0.014002689956351753,0.9870675292283324
2015-01-26,0,-9.70902200898007e-05,4.273174081655085e-05,-0.011991861069023847,0.01494869399314341,0.9866180835151592
2015-01-28,-1,-0.0017024134718550972,-0.0016024128080739735,-0.0071706492664594945,0.01494869399314341,0.9875615494392478
2015-01-30,-1,-0.0017198643044809437,-0.0016076230281436182,-0.006127531702757063,0.01494869399314341,0.988208134480435
2015-02-03,1,0.0004413748305325924,0.0006124254297031901,-0.006623644876887754,0.01013108417761166,0.9907406835015936
2015-02-05,1,0.0005668369319250128,0.0007629034617847988,-0.0060339377303964565,0.009759533199563896,0.9915779499840055
2015-02-09,1,0.001207902106450651,0.0014970424758920155,-0.0071706492664594945,0.007305334139652524,0.990950045429424
2015-02-11,1,0.0019893133789053406,0.0024031117791546795,-0.0071706492664594945,0.007305334139652524,0.9907354959317155
2015-02-13,1,0.0022736975347618345,0.0026776817286243452,-0.0071706492664594945,0.006354426094531178,0.9902311270648088
2015-02-18,1,0.001327744318416732,0.0015888094961324917,-0.0063367933565959735,0.006354426094531178,0.9913963177601901
2015-02-20,1,0.0012527719473039087,0.0014836776750180671,-0.006889867349377675,0.009759533199563896,0.990270067493167
2015-02-24,1,0.001153118458525912,0.001348645252003702,-0.006889867349377675,0.006354426094531178,0.9905888031908672
2015-02-26,1,0.0004024436378442165,0.00046289566617703287,-0.0063367933565959735,0.006354426094531178,0.991224545051087
2015-03-02,1,0.0007622396202806104,0.0008849500613271274,-0.0063367933565959735,0.00717476904426083,0.9907892971831479
2015-03-04,1,0.0002854355657236123,0.0003327241353957215,-0.006839151974291307,0.00717476904426083,0.9908103009283149
2015-03-06,1,0.0004129637408256106,0.00044156754292481266,-0.006839151974291307,0.006291566006237986,0.990847969396004
2015-03-10,-1,-0.001027601170783703,-0.0008672369850413088,-0.005166291176156605,0.006291566006237986,0.9921952030597317
2015-03-12,-1,-0.0007163269302565232,-0.0005589038973957387,-0.005166291176156605,0.004392237039709956,0.9923551062258523
2015-03-16,1,0.00016125391606838742,0.00018005780712069524,-0.004997716153564014,0.002773235785595937,0.9931129404718024
2015-03-18,1,0.0002621252907321179,0.0002802717029070518,-0.004997716153564014,0.004392237039709956,0.9925613537975734
2015-03-20,1,0.0007493187795487252,0.0008618956525065951,-0.004997716153564014,0.002773235785595937,0.9931354717650107
2015-03-24,1,0.0004994788143067638,0.0006167723305794159,-0.004997716153564014,0.004392237039709956,0.9932062329036359
2015-03-26,-1,-6.355992871822086e-05,-4.681683128978279e-05,-0.004997716153564014,0.004392237039709956,0.993301897762448
2015-03-30,1,0.00038320083881154376,0.0004402671032732443,-0.005987981990564173,0.004392237039709956,0.9933472313882074
2015-04-01,1,0.0004316840431754256,0.0005290195981917857,-0.004295210393947053,0.008164844779169317,0.9935254793378696
2015-04-06,1,0.00021588336339087083,0.0002426711165298265,-0.004253757441327207,0.008760731712949658,0.9931897690295752
2015-04-08,1,0.000362102784686081,0.00045188123667008853,-0.002897222057163613,0.008760731712949658,0.9936125748513851
2015-04-10,1,0.0012580497817042337,0.0015014429595176407,-0.002897222057163613,0.006169151303119808,0.9944576908938768
2015-04-14,1,0.0006091371909748416,0.0007074880245875483,-0.002897222057163613,0.006326573851342017,0.9941239148809474
2015-04-16,1,0.0008458229574859883,0.0009726041121348133,-0.00258937694422745,0.005614494895787615,0.9945706694293547
2015-04-20,1,0.0003071184204566503,0.00035556154221612606,-0.00258937694422745,0.006326573851342017,0.9940555866030466
2015-04-22,1,0.0005264472073042705,0.0006113044190228249,-0.0012900210782225857,0.005614494895787615,0.9949660442793825
2015-04-24,1,0.00017823013378141274,0.0001786443843946364,-0.0012900210782225857,0.005614494895787615,0.9948593051370807
2015-04-28,1,0.0002970258845558519,0.0003159018132663355,-0.0012900210782225857,0.005614494895787615,0.994299686756846
2015-04-30,1,0.00042369058201490963,0.00043539219255052684,-0.00258937694422745,0.005296761645779342,0.9943850412746859
2015-05-04,1,0.0014725024718636038,0.0016760466547766201,-0.00258937694422745,0.004108589097487262,0.9941182452024656
2015-05-06,1,0.0008728077217353381,0.0009510327395548823,-0.002629493861818496,0.005349235828520078,0.9936513345430673
2015-05-08,1,0.000263603505667112,0.00032372625491801073,-0.0055192732104824005,0.006918516185193408,0.9930155071662209
2015-05-12,1,0.0005118025790328766,0.0005144428770141628,-0.001820721702148307,0.010932379771010902,0.9925199823418709
2015-05-14,1,0.001581993608232292,0.001820275362748812,-0.001820721702148307,0.010932379771010902,0.9926515503439309
2015-05-18,1,0.00209832377403256,0.0024507504634419188,-0.001820721702148307,0.0068881402194928346,0.9931477983057838
2015-05-20,1,0.0022001225961508237,0.0025816088698838403,-0.005428858948885637,0.0068881402194928346,0.9928201080797234
2015-05-22,1,0.002252509720292795,0.0026499256658806722,-0.0061816787622592595,0.009978753006364478,0.9923272729574731
2015-05-27,1,0.002225089373147767,0.0025858820963636253,-0.0061816787622592595,0.007544358904280363,0.992975874991655
2015-05-29,1,0.0013312003952695396,0.001502599580236685,-0.0061816787622592595,0.009978753006364478,0.9923562082394609
2015-06-02,1,0.0015263664768214744,0.0016992845186069067,-0.007587534223788142,0.007544358904280363,0.9915012656383039
2015-06-04,1,0.0014701345640671765,0.0016219690209243027,-0.0061816787622592595,0.007458924047558114,0.991939147360451
2015-06-08,1,0.0011512287496749513,0.0012186489800637191,-0.0061816787622592595,0.005992328984935978,0.9921637516036499
2015-06-10,1,0.0012128553444266503,0.0012406859336201858,-0.007587534223788142,0.005992328984935978,0.9911427923404182
2015-06-12,1,0.0012151902950741987,0.0012482687937251647,-0.007587534223788142,0.009595928635404505,0.9902545511026688
2015-06-16,1,0.0014799623615919565,0.0015993395382450152,-0.006185280342941486,0.009595928635404505,0.9907517088377369
2015-06-18,1,0.0011861784641433754,0.0012503086361975912,-0.005992413291897067,0.009595928635404505,0.990606808181363
2015-06-22,1,0.0005565072393884186,0.0006290512930255927,-0.005871086660383554,0.007948472188087342,0.9911518139147251
2015-06-24,1,0.0003142341982081022,0.00042352898233736065,-0.0036602368606424222,0.007948472188087342,0.9917997910158632
2015-06-26,1,0.0009686745952504976,0.001031866706432225,-0.0036602368606424222,0.007948472188087342,0.9900048860741774
2015-06-30,1,0.00022696520711543264,0.0002549567177508224,-0.0027871876654583638,0.009642634724866461,0.9907451336009073
2015-07-02,1,0.0005815265717466614,0.0006119224527874679,-0.005871086660383554,0.008080613134271547,0.9891169822769289
2015-07-07,1,0.000688587091720408,0.000755124795338779,-0.005473465132017966,0.008080613134271547,0.9891453010085152
2015-07-09,1,0.0005871648017251821,0.0006683714580753973,-0.005315179436732208,0.004964636902002127,0.9907715320827891
2015-07-13,1,0.0007505537312200443,0.0008196512563369202,-0.006010169013783695,0.0016561258246882361,0.9898708806476763
2015-07-15,1,0.0007818047288412205,0.000858173041998784,-0.006352013675799872,0.00020674335035572304,0.9891779228018969
2015-07-17,1,0.0007595362010999578,0.0008349380092871358,-0.006010169013783695,0.0015922045780833523,0.989286397265189
2015-07-21,1,0.0005284864274025022,0.0005552409878372966,-0.006010169013783695,0.0018011808949668219,0.9894867918103356
2015-07-23,1,0.0005225573352069942,0.0005538548548658682,-0.009193679685802935,0.0018011808949668219,0.9875248321524281
2015-07-27,1,0.0009578625861702018,0.0010162369953239667,-0.016000687213747082,0.00089878340959289,0.985999693000484
2015-07-29,1,0.0010995983410332058,0.0012075891468603106,-0.016000687213747082,0.00089878340959289,0.9852445751973578
2015-07-31,-1,-0.000279558123716673,-0.000175434195990288,-0.008894082733437975,0.0018011808949668219,0.9861718956610303
2015-08-04,-1,-0.00021082876093226252,-0.00013570961050043346,-0.016000687213747082,0.0018011808949668219,0.9846578656538573
2015-08-06,-1,-0.00022454760854036075,-0.0001658979182900486,-0.016000687213747082,0.0068796244342037545,0.984135551654171
2015-08-10,1,0.00019518099551518647,0.0002072050111570495,-0.018887263651411572,0.0068796244342037545,0.9836390132324071
2015-08-12,-1,-6.37492241283722e-05,-2.4580455611221627e-05,-0.018887263651411572,0.0068796244342037545,0.9836391362014318
2015-08-14,0,-5.304464871249925e-05,2.3126089851201724e-06,-0.018887263651411572,0.003746647544609151,0.9838245561393595
2015-08-18,-1,-7.591544367851563e-05,-1.570199755315826e-05,-0.018887263651411572,0.0074491740716575525,0.9831071520906925
2015-08-20,-1,-0.0008924019063994983,-0.0007393555497996341,-0.018061190921988546,0.0074491740716575525,0.9833896855638671
2015-08-24,-1,-0.002557994762030942,-0.0022052073625581595,-0.014212052514326735,0.008547788966973247,0.9861383329210505
2015-08-26,-1,-0.0018649019866347767,-0.0015982916898050726,-0.014212052514326735,0.006173008743240954,0.9877376286302179
2015-08-28,-1,-0.0014542176894650335,-0.001231014625134883,-0.01520561605575619,0.006173008743240954,0.9875211227780775
2015-09-01,-1,-0.001963601634934266,-0.0016963663090356974,-0.014212052514326735,0.009088316630769262,0.9877377667331787
2015-09-03,-1,-0.001613853363515758,-0.0013854725250800524,-0.014263655978904673,0.008565925547965012,0.9876613086278002
2015-09-08,-1,-0.0013252929040272947,-0.0011391395845855854,-0.014141518616210548,0.008565925547965012,0.9886487094339257
2015-09-10,-1,-0.0016554565676578361,-0.0014190681860151637,-0.011079153972856776,0.011013600631161864,0.9885069114448146
2015-09-14,-1,-0.001761866020615653,-0.0015173027652530624,-0.0071531705724090806,0.011013600631161864,0.9885439409229787
2015-09-16,-1,-0.0014848616363644235,-0.0012727488589822688,-0.011541506980439632,0.008565925547965012,0.9886279845365552
2015-09-18,-1,-0.0021376065427988174,-0.0018528193046461765,-0.006189292553494628,0.011013600631161864,0.9892472430641991
2015-09-22,-1,-0.0020899169290157504,-0.001821000293785687,-0.005739473106368114,0.013136883560511299,0.98924211278504
2015-09-24,-1,-0.0018864854520050708,-0.0016573066334693862,-0.008836322342385773,0.013136883560511299,0.9884509652596354
2015-09-28,-1,-0.0019816919288183996,-0.0017383214271813009,-0.0065896707517144664,0.011491133619311967,0.989741639435721
2015-09-30,-1,-0.0014821406743961833,-0.001299572729865987,-0.008836322342385773,0.011491133619311967,0.9888921950795112
2015-10-02,-1,-0.0017269211585515887,-0.0015134331436139487,-0.0065896707517144664,0.013136883560511299,0.989176653859319
2015-10-06,-1,-0.0011977556683913648,-0.0010554906042613567,-0.008836322342385773,0.013136883560511299,0.9892809059694865
2015-10-08,-1,-0.0007828765301541975,-0.0006934553730273858,-0.009360960616558982,0.011491133619311967,0.989709948357661
2015-10-12,-1,-0.0007624984323382621,-0.000675198904849694,-0.009360960616558982,0.01335428828826618,0.9876954504970795
2015-10-14,-1,-0.0011806590523968721,-0.001045088155195688,-0.0065896707517144664,0.01478912758218197,0.9874690730406728
2015-10-16,-1,-0.0006562668658949783,-0.0005904519399283978,-0.008644407021911774,0.01335428828826618,0.9875611941253738
2015-10-20,-1,-0.0006377477184699625,-0.000568326546887055,-0.00676455017643887,0.014949025767451465,0.9874600167523351
2015-10-22,-1,-0.00037206778997456825,-0.0003507570430284931,-0.00440014343826478,0.014949025767451465,0.9879504074549671
2015-10-26,-1,-0.0002258991671456458,-0.00022403414605412172,-0.0051992522706705915,0.014949025767451465,0.9876128910391789
2015-10-28,1,0.00029630878704415886,0.00037521445334472777,-0.0032646601442988445,0.012719689710645533,0.9896955982208967
2015-10-30,1,0.0008152274965955871,0.0009893647380500512,-0.004332524211687207,0.008617304627258134,0.9896982012250906
2015-11-03,1,0.0010058706539023674,0.0012101408655403544,-0.004332524211687207,0.008616468050479813,0.9899252696448939
2015-11-05,1,0.0008081617075686353,0.000985742700252926,-0.004332524211687207,0.0122691233596428,0.9889374089157945
2015-11-09,1,0.0015897036647441777,0.001869390117283461,-0.009360880741085351,0.008616468050479813,0.9897024920366211
2015-11-11,1,0.0019867032230273937,0.002324530031215884,-0.010869612401912842,0.006555190421452379,0.9896727649296749
2015-11-13,1,0.0015757708329829053,0.0018556853607376424,-0.013974305133773684,0.006555190421452379,0.9882593710915984
2015-11-17,1,0.0019413183306402721,0.0022705337405561693,-0.013974305133773684,0.006555190421452379,0.988317505351831
2015-11-19,1,0.0018264397169992209,0.0021096864779169533,-0.016779972864915796,0.0011415901286076042,0.9861164533448568
2015-11-23,1,0.001954856859750187,0.002263615259858008,-0.016779972864915796,0.005774078685669101,0.9864589889360946
2015-11-25,1,0.0018689334242860218,0.0021634037522444654,-0.016779972864915796,0.007725833120396443,0.9858115980092116
2015-11-30,1,0.0017186676957029617,0.0019735968186913866,-0.016779972864915796,0.009528541380998588,0.9859880751386327
2015-12-02,1,0.002009682406465452,0.0023322585929862727,-0.016779972864915796,0.006374981439203149,0.986175489578755
2015-12-04,1,0.002060482110129742,0.002393522819268163,-0.016500280489591172,0.002075496855113023,0.9865799484982681
2015-12-08,1,0.0015332515302133875,0.00180006690898141,-0.019903442195360877,0.002075496855113023,0.9855456355504625
2015-12-10,1,0.0011043225618301913,0.0013110125852658935,-0.019903442195360877,0.002075496855113023,0.9857130582576811
2015-12-14,0,-8.518965338621975e-06,4.86133894085931e-05,-0.017709892672996247,0.002075496855113023,0.9871398430429674
2015-12-16,1,0.0006565211924068251,0.0008366128985404429,-0.0234615231873953,0.002075496855113023,0.9857739639252561
2015-12-18,-1,-0.0002548739980824222,-0.0001771609170241219,-0.01899518857571835,0.002075496855113023,0.986852460774919
2015-12-22,-1,-0.0003025399900457986,-0.0002872019742317488,-0.01899518857571835,0.0024672627758000392,0.9866220337408494
2015-12-24,1,0.0001495161836697814,0.00021640417813341715,-0.024227629166909893,0.0015692402120327117,0.9856579813230446
2015-12-29,1,0.0002595803963303534,0.0003312112408109069,-0.024227629166909893,0.0005535770706064081,0.9849566588381047
2015-12-31,1,0.00034193289205052186,0.0004625740487234848,-0.024227629166909893,0.007995417800716994,0.9847549549228409
2016-01-05,-1,-0.0002497325094740196,-0.00023008760414576276,-0.027321573042795137,0.007995417800716994,0.9831895752940225
2016-01-07,-1,-0.001327662820082886,-0.0012423319318410433,-0.021652192766474884,0.01075767968287586,0.9845699207111933
2016-01-11,-1,-0.0018393390720044468,-0.0017097043555149446,-0.02423179131414343,0.01075767968287586,0.9829290354727913
2016-01-13,-1,-0.0033051402251521346,-0.002950574370651664,-0.02423179131414343,0.01075767968287586,0.980816416063498
2016-01-15,-1,-0.005636972073965527,-0.004899026157637432,-0.021652192766474884,0.013051830989663548,0.9776771885030786
2016-01-20,-1,-0.006047384471783585,-0.005308930319147601,-0.015028241764784718,0.01710199894446181,0.976750252492011
2016-01-22,-1,-0.004877996625785418,-0.0043124489069294785,-0.015028241764784718,0.018944028798356327,0.9769947156751929
2016-01-26,-1,-0.005924006911298647,-0.005185375041300368,-0.00806427166592112,0.018944028798356327,0.9784499832918756
2016-01-28,-1,-0.00505269416195652,-0.004446843260444893,-0.00806427166592112,0.020330716355130674,0.9775780040624896
2016-02-01,-1,-0.004539681043851713,-0.004010227373664498,-0.013115350012467272,0.022786265838927115,0.9751219973322476
2016-02-03,-1,-0.006540750195585825,-0.0057650210119558065,-0.005149620292112069,0.022786265838927115,0.9750129936407872
2016-02-05,-1,-0.005597895169569199,-0.004921830094904231,-0.005149620292112069,0.020330716355130674,0.976040004714487
2016-02-09,-1,-0.006806899487959741,-0.006020718533335675,-0.005149620292112069,0.020330716355130674,0.9761383663824271
2016-02-11,-1,-0.009904605587515162,-0.00870041092794703,-0.0007181321598767682,0.02436666995191317,0.9748323843654374
2016-02-16,-1,-0.006518398794616621,-0.005705416242589984,-0.0033357947623787187,0.018940395268919958,0.981681416686646
2016-02-18,-1,-0.005414799559595167,-0.004734857829582838,-0.0007181321598767682,0.01620933366551502,0.982793016192691
2016-02-22,-1,-0.004708168607692387,-0.004107031957307751,-0.0021079106800688035,0.013135643601422374,0.9840263878871883
2016-02-24,-1,-0.0044081109004763955,-0.0038853157849835273,-0.0032461976572253576,0.013135643601422374,0.9836561866146476
2016-02-26,-1,-0.0030676264644057417,-0.002698371084677083,-0.008855642906128862,0.011773928788611523,0.984603556753006
2016-03-01,-1,-0.0011323075764542814,-0.0010239117637916126,-0.00665946569136491,0.010607915869879322,0.9878032352107897
2016-03-03,1,4.4475224116206317e-05,0.00010929481875908575,-0.008525480073351386,0.00928593644390207,0.9880923832454477
2016-03-07,1,0.0005883743085166985,0.0007257977080927962,-0.012155053481783154,0.008414931860150599,0.9878275006925624
2016-03-09,-1,-0.0005790533148308082,-0.0005317912142768054,-0.012155053481783154,0.008414931860150599,0.9881022218227897
2016-03-11,1,0.0008648044500147482,0.001037998829893065,-0.012155053481783154,0.009414923283056166,0.9886700353623081
2016-03-15,1,0.0008219294034182176,0.0009986911111138377,-0.008696012995010681,0.0126720270802754,0.9876196076145854
2016-03-17,1,0.0014044459872878745,0.0016600698027984164,-0.008696012995010681,0.012463763796586619,0.9882560683393922
2016-03-21,1,0.001638350683639252,0.0019313299255849037,-0.008696012995010681,0.013028147939470273,0.9876650863311383
2016-03-23,1,0.001346248986383461,0.001642333572322127,-0.0067163099985846735,0.013675750217652712,0.9878224024534559
2016-03-28,1,0.0013352374172653997,0.0016593879642926536,-0.0067163099985846735,0.013028147939470273,0.9888285815473716
2016-03-30,1,0.0015803362444685768,0.001952187494887281,-0.004803889071577403,0.013028147939470273,0.9889952775940098
2016-04-01,1,0.0015471858412134248,0.0018974018088423693,-0.003909544083419092,0.012360054308328856,0.9897650915911514
2016-04-05,1,0.0017092284550804155,0.002164566909999088,-0.0037387252882525846,0.012360054308328856,0.9900981782559194
2016-04-07,1,0.0016511629077848138,0.002132507961617746,-0.0037387252882525846,0.012360054308328856,0.990982850567101
2016-04-11,1,0.0022060424448738705,0.002730012902490285,-0.003909544083419092,0.012102596641049342,0.9916023828108975
2016-04-13,1,0.003844009832796926,0.00461729960642915,-0.004319368037000535,0.010160487401423663,0.9925938016171323
2016-04-15,1,0.003944028678133737,0.00474243765575908,-0.005184886731949977,0.010160487401423663,0.992413926700938
2016-04-19,1,0.004771660871966468,0.005687293912286839,-0.005184886731949977,0.008553762730094122,0.9925334070966071
2016-04-21,1,0.00521847064932433,0.00619110813043818,-0.005223585958026466,0.008553762730094122,0.9918882321012099
2016-04-25,1,0.005268861875401319,0.00625001336699005,-0.005063350416890324,0.008736919534472264,0.992145303504254
2016-04-27,1,0.0058178947886929335,0.0068780005701980255,-0.005063350416890324,0.010320994799269324,0.9914209073643935
2016-04-29,1,0.00603042367204786,0.007127949076983867,-0.005063350416890324,0.01086045262168779,0.9910668767538696
2016-05-03,1,0.005118683988645161,0.006046153283289755,-0.00471598842798772,0.01086045262168779,0.9918547925963274
2016-05-05,1,0.004712923257012161,0.005555336194752436,-0.00471598842798772,0.01086045262168779,0.9906745709301122
2016-05-09,1,0.0039543794789014715,0.004605166766428954,-0.004436992834003188,0.012361138014007088,0.9905107372288828
2016-05-11,1,0.0044520309711774085,0.0051953191579065874,-0.004436992834003188,0.01086045262168779,0.989994008633062
2016-05-13,1,0.0034938773444231673,0.004018815056420384,-0.004728888170013216,0.01086045262168779,0.9884741698202293
2016-05-17,1,0.00427061753677244,0.004926745799341008,-0.006849003865429907,0.010320994799269324,0.9876929784983141
2016-05-19,1,0.0052669168032654454,0.006093838301747959,-0.00647584239247631,0.005454267687386232,0.9882795586095098
2016-05-23,1,0.005529142266785738,0.006402520659354387,-0.00647584239247631,0.007898031449070897,0.9884541079626857
2016-05-25,1,0.006160824406182992,0.007091506631069841,-0.00647584239247631,0.00464661323732009,0.98780611097445
2016-05-27,1,0.005382379102379691,0.006160456593602714,-0.014926982680871734,0.003143586081918048,0.9806058295261209
2016-06-01,1,0.004294319680013851,0.0048365379527065796,-0.014926982680871734,0.008456433844891179,0.9804428623031144
2016-06-03,1,0.0031593853620653254,0.0035167910274429117,-0.012126827148157259,0.013472567505376296,0.9813591415981482
2016-06-07,1,0.0031106719030077204,0.003405637419542308,-0.014926982680871734,0.008456433844891179,0.9799033813088421
2016-06-09,1,0.0020675478648943253,0.002167097887905254,-0.012126827148157259,0.013472567505376296,0.9799294431992192
2016-06-13,1,0.00016937100375901185,0.00035970729939764764,-0.00405538550544495,0.0167885830948932,0.9808045125152034
2016-06-15,0,-8.464526450254069e-05,0.00010784201387882065,-0.0038460976293629603,0.02091450576886418,0.9800040223285926
2016-06-17,-1,-0.0004710588159500807,-0.00022026114665901558,-0.004269283699214789,0.02091450576886418,0.9794656592932273
2016-06-21,1,0.0002015662761550122,0.0003547016253420168,-0.005830681019255689,0.02091450576886418,0.9799033777636073
2016-06-23,1,0.0010444757575810094,0.0010964693709453804,-0.005830681019255689,0.0167885830948932,0.9810029610558175
2016-06-27,-1,-0.004759731447081299,-0.0039448323025548255,-0.0038460976293629603,0.0167885830948932,0.9871054575092442
2016-06-29,-1,-0.0031996266904619373,-0.0026085407257084,-0.004269283699214789,0.012939541391036181,0.9874754812507135
2016-07-01,-1,-0.0035735023903716314,-0.00287908915104072,-0.005830681019255689,0.007519608131592978,0.9881195479652214
2016-07-06,-1,-0.006127821285920166,-0.005011394104484729,-0.004798903651941702,0.013286672806102282,0.9882190227119666
2016-07-08,-1,-0.003838270266782132,-0.0031375016114139516,-0.005732437343736632,0.013286672806102282,0.9876641756504878
2016-07-12,-1,-0.002856110659295437,-0.0023020679490390753,-0.005732437343736632,0.007519608131592978,0.9887784319558206
2016-07-14,-1,-0.002056349743637451,-0.001619891297861929,-0.009145205648240617,0.0053606390334650705,0.9892945003127159
2016-07-18,-1,-0.0025624100564850113,-0.002053030491434086,-0.008913581488539577,0.007519608131592978,0.988456749303922
2016-07-20,-1,-0.0021427405392617765,-0.0017310309276185722,-0.006014736737635729,0.007519608131592978,0.9889096911844546
2016-07-22,-1,-0.0014401318818227844,-0.0011648350247531669,-0.006014736737635729,0.011338835272243697,0.9885680630465812
2016-07-26,-1,-0.0009307262490306078,-0.0007431213506669252,-0.006014736737635729,0.007184070997699146,0.9889440684827722
2016-07-28,-1,-9.079439443995035e-05,-1.890625601953661e-05,-0.005607128365240525,0.00695034187679335,0.990296076601191
2016-08-01,-1,-0.0009632635145415824,-0.0007544250867203829,-0.0035280129479849814,0.011208017223738967,0.9903142142889869
2016-08-03,-1,-0.00011119858257486553,-3.961033890218058e-05,-0.002776232085705103,0.011208017223738967,0.9908844395799632
2016-08-05,1,0.00023160403406545152,0.0002701869619310764,-0.002776232085705103,0.006392840312473747,0.992941178232793
2016-08-09,1,0.0005334626446956757,0.0005529128418575096,-0.004424522381602433,0.005852259817211896,0.9925654990696899
2016-08-11,1,0.00020514718701304847,0.00022107594310645564,-0.002776232085705103,0.005867789863569005,0.9932725038924469
2016-08-15,1,6.443884814867976e-05,0.00012361585332120004,-0.002776232085705103,0.004765453294126399,0.994149726980058
2016-08-17,-1,-0.00019997284897465054,-9.351966054854026e-05,-0.0032428257655154483,0.0073435059510915425,0.9932478064724203
2016-08-19,1,1.4783376621401421e-05,9.62800092750116e-05,-0.004032589218741192,0.006823728729526322,0.9926768868577917
2016-08-23,0,-7.60437822582434e-05,1.4964354673093698e-05,-0.004032589218741192,0.008313083938552254,0.9924413352620841
2016-08-25,-1,-0.00036425565010354854,-0.0002117565360827219,-0.004032589218741192,0.006737621117990913,0.9927765134778396
2016-08-29,-1,-0.0003577621231704907,-0.00017831763029551944,-0.006699042211574116,0.006737621117990913,0.9921516324517669
2016-08-31,1,0.00025177878379987247,0.00033414222944974745,-0.009162797733722817,0.006737621117990913,0.991568151870379
2016-09-02,1,0.0006509027458524338,0.0006703423441253044,-0.006719163101461873,0.008313083938552254,0.9910075293920957
2016-09-07,1,0.0002755367863336716,0.00030722681559204536,-0.005927284689336352,0.01093894621855644,0.9898618795338898
2016-09-09,1,0.0006880709112245865,0.0007378453887510993,-0.006169138024535345,0.01093894621855644,0.9896146205753172
2016-09-13,1,0.0008048359768215234,0.0008881543321328587,-0.006169138024535345,0.01093894621855644,0.9898928866623764
2016-09-15,1,0.0010393513204001552,0.0011525129251249836,-0.008645886859930231,0.009082807323644337,0.9894830639315344
2016-09-19,1,0.0009364270983926592,0.001055701126312323,-0.006169138024535345,0.00931166628531134,0.9903967280580221
2016-09-21,1,0.001070547598160011,0.001208619708200177,-0.006169138024535345,0.00931166628531134,0.9908139681880415
2016-09-23,1,0.000524453574904421,0.0005666406962427662,-0.006169138024535345,0.00931166628531134,0.9904657270387053
2016-09-27,1,0.0003429099207803631,0.0003536848505066784,-0.006169138024535345,0.0069270981544227155,0.9907975189001695
2016-09-29,1,0.00021959495523400218,0.0002251748282937043,-0.0048229615278803095,0.0069270981544227155,0.9907869814835693
2016-10-03,1,0.000545790043988686,0.0005942359535402014,-0.005044693973191548,0.006259510896660481,0.9904020580752335
2016-10-05,1,0.0012181069410089767,0.001346165645351123,-0.005044693973191548,0.006105044243861386,0.9919423220632132
2016-10-07,1,0.0013516143377438426,0.0015209977293450384,-0.006628287994455618,0.006259510896660481,0.9908349796317267
2016-10-11,1,0.001708550764940974,0.0019534563031017495,-0.006628287994455618,0.00654514438085375,0.9901582516515794
2016-10-13,1,0.0014857791577450518,0.0017104110360552558,-0.0043898264831765755,0.010787029995056124,0.9871507234571582
2016-10-17,1,0.0020358752172375673,0.0023735153050856834,-0.0043898264831765755,0.01729906653990486,0.9860387678715684
2016-10-19,1,0.00219110067556614,0.0025598988660575552,-0.006628287994455618,0.01967875939782015,0.9842385387242014
2016-10-21,1,0.0018208446129118522,0.002138024621432771,-0.00153577520470217,0.01994349646915524,0.9840135788319446
2016-10-25,1,0.001101811574078244,0.0012873986215619837,0.00023505922962144976,0.01994349646915524,0.9848607031116181
2016-10-27,1,0.0018667926607918786,0.0021806730198838135,3.50288939391643e-05,0.01967875939782015,0.9854760087630344
2016-10-31,1,0.001153490817843429,0.0013451467128173294,-0.0009580542813965298,0.01967875939782015,0.9858907490642257
2016-11-02,1,0.0008327017398007345,0.0009333920760165048,-0.00035804072922082035,0.01967875939782015,0.9850987811213797
2016-11-04,1,0.0007131709394214707,0.0007783837137766821,-0.00035804072922082035,0.01914255382815097,0.9861786164394862
2016-11-08,1,0.0010471200181972192,0.001151387404480425,-0.0008842188363894267,0.017120331350015134,0.9865257501145731
2016-11-10,1,0.003044752269180366,0.003433058843581134,-0.0024742387356488935,0.014067524955312844,0.9898085859520069
2016-11-14,1,0.00441986195486112,0.0050275153256091505,-0.004106081004719379,0.011188763519432147,0.9904464677789735
2016-11-16,1,0.0024029477709531207,0.0025129174062049576,-0.0024742387356488935,0.011188763519432147,0.9914072417668633
2016-11-18,1,0.0033018527972055864,0.0035710966992423612,-0.004106081004719379,0.007605284678996991,0.9913963421000044
2016-11-22,1,0.0033204158705242835,0.0036062636417681466,-0.004106081004719379,0.011188763519432147,0.9909876839566535
2016-11-25,1,0.002708857727924093,0.0028667877370374224,-0.003095154250402149,0.008465352020809495,0.9911820827614993
2016-11-29,1,0.0022990595694014617,0.0024156631305857065,-0.0026693318404802917,0.008465352020809495,0.9916066933425229
2016-12-01,1,0.0030060488244248785,0.0032415646338892403,-0.00405131256807194,0.00494651334703321,0.992191295201161
2016-12-05,1,0.003117380797911154,0.0033846359996224634,-0.0020301601801778904,0.009417630727607844,0.9919649396009176
2016-12-07,1,0.0030640800484777334,0.0033037328530522822,-0.00405131256807194,0.008337073958413177,0.991696275401475
2016-12-09,1,0.0028075616213922494,0.0030004380421449926,-0.00405131256807194,0.0070149070817222235,0.9922858255878483
2016-12-13,1,0.002625031651186696,0.002791292735784378,-0.0038975044576734148,0.005859566034617782,0.9924168361565735
2016-12-15,1,0.0029300594806891513,0.0031430287090711212,-0.006575298196207762,0.0048373375275870475,0.9922042522400034
2016-12-19,1,0.0025853077986782093,0.0027876641820187564,-0.0038975044576734148,0.005859566034617782,0.9928043573107458
2016-12-21,1,0.0025829792006767335,0.002756806421339671,-0.004503635751142302,0.005859566034617782,0.9926298223853864
2016-12-23,1,0.0024989629277461837,0.0026770544211103184,-0.004503635751142302,0.009220927824683525,0.9920050919372508
2016-12-28,1,0.00222374587219533,0.00238569324805987,-0.004464207914461579,0.009220927824683525,0.9923082807089677
2016-12-30,1,0.0021059029875474225,0.0022511144427720805,-0.0052353115973428725,0.009220927824683525,0.9918072801307685
2017-01-04,1,0.0021927075398857966,0.002324441366345754,-0.0052353115973428725,0.007899447920668408,0.9924143127500746
2017-01-06,1,0.002048243388416429,0.0021700091125062024,-0.004586294382930157,0.007899447920668408,0.9924027820993734
2017-01-10,1,0.0017430135634941058,0.001816062451642975,-0.004456547594663527,0.007899447920668408,0.9927427960397041
2017-01-12,1,0.0016737390036139837,0.0017457835858958356,-0.004261011455217581,0.010062994158279756,0.992590700496877
2017-01-17,1,0.0011857036749096535,0.0011869137168161027,-0.002066565353996982,0.012913472352370503,0.9926507447310059
2017-01-19,1,0.0013004841642664127,0.0013152983819851298,-0.0016655935827657883,0.012910218777879814,0.992717448113498
2017-01-23,1,0.0014545714891218984,0.001503828889469918,-0.0017062890722553143,0.010062994158279756,0.9929443871065927
2017-01-25,1,0.0019278145241044564,0.0020535769852621467,-0.004456547594663527,0.007149423658569595,0.993528004600921
2017-01-27,1,0.0016478635943439194,0.0017269279635816525,-0.003716565513458515,0.007149423658569595,0.9934550378992052
2017-01-31,1,0.001138788589913782,0.0011444175768987126,-0.0006779689156848391,0.008816784468733796,0.9930655972235399
2017-02-02,1,0.0012715744885037107,0.001281058052967648,-0.0014841116021794328,0.009681205603925918,0.991825957251039
2017-02-06,1,0.0015539482164078947,0.0015950623805720387,-0.003538223794899686,0.007437564036966968,0.9923562156088368
2017-02-08,1,0.0014377019934137345,0.0014719051060458287,-0.003329088890973146,0.007437564036966968,0.9926549722501918
2017-02-10,1,0.0013850608509806339,0.0013917094783618513,-0.003538223794899686,0.006709961203710635,0.9928872373926351
2017-02-14,1,0.0017091181438619544,0.0017595856354508592,-0.0039917203033207295,0.002574019562121542,0.9932427427585567
2017-02-16,1,0.0015674127813155503,0.0015776189126345697,-0.005005333557603922,0.0017023568904557134,0.993282893879944
2017-02-21,1,0.0010287428741281091,0.0010893342493256074,-0.005005333557603922,0.0017023568904557134,0.992195731944154
2017-02-23,1,0.0009151744973916423,0.0010292858039416244,-0.0039917203033207295,0.0017023568904557134,0.9924548961627784
2017-02-27,1,0.0009337290774238993,0.001046995015445759,-0.005821857132143828,0.0010768556114455939,0.9921563774258176
2017-03-01,1,0.00168255259260683,0.0016996099640793822,-0.005821857132143828,0.0010768556114455939,0.9918813947191991
2017-03-03,1,0.001065720311039723,0.0011342797366593873,-0.005152411644457556,0.001297626369032336,0.9931043764907792
2017-03-07,1,0.0007962904642805469,0.0008954205807194523,-0.005821857132143828,0.001297626369032336,0.9931143248896428
2017-03-09,1,0.000408034667965765,0.0005876554224275381,-0.006104437827631542,0.0018998115825186635,0.9923734445144738
2017-03-13,1,0.00018068090346689723,0.00037999660841642224,-0.006104437827631542,0.0018998115825186635,0.9924889285394161
2017-03-15,0,-0.00018189372823596787,6.212376371080713e-05,-0.0066040283216432785,0.0018998115825186635,0.9918460211403355
2017-03-17,-1,-0.0009221344897294471,-0.0005548759489855254,-0.0066040283216432785,0.002485343978193134,0.9912721642901089
2017-03-21,-1,-0.002367089454257023,-0.0018123835148048661,-0.0066040283216432785,0.0026985833272300495,0.9929656233870653
2017-03-23,-1,-0.002245057483256939,-0.001714902997730423,-0.0066040283216432785,0.003831288479409308,0.9922893212456007
2017-03-27,-1,-0.003044416415799778,-0.002399665672019114,-0.005479708358366845,0.01139731977859908,0.9907828721473961
2017-03-29,-1,-0.002744277654182445,-0.002142585479523918,-0.005479708358366845,0.008430011719146549,0.9916325938227855
2017-03-31,-1,-0.002441522491640864,-0.0018741461204387088,-0.00689755669732442,0.006510438048978542,0.9918660547767014
2017-04-04,-1,-0.0026111812807551853,-0.002037168374056879,-0.006192557883539494,0.006510438048978542,0.9918057251101973
2017-04-06,-1,-0.0013030265177748743,-0.0009941467701020325,-0.004652274248131894,0.003929171197041019,0.992211741031585
2017-04-10,-1,-0.0010242204682328778,-0.0007869875555692368,-0.005911712409886264,0.004409076383949225,0.9917281771530123
2017-04-12,-1,-0.0016256561272341339,-0.0013195732138184901,-0.004652274248131894,0.004409076383949225,0.992625712741972
2017-04-17,-1,-0.0010801221598567316,-0.0008703241783881894,-0.004652274248131894,0.004409076383949225,0.9931058089770063
2017-04-19,-1,-0.001366652647269588,-0.0011227539395410359,-0.004652274248131894,0.005721619726985084,0.9917850488594233
2017-04-21,-1,-0.0012045418087827833,-0.0009757302254002952,-0.004024441274592898,0.005721619726985084,0.9920798400361133
2017-04-25,-1,-0.0006904754635096755,-0.00048956190382835,-0.004024441274592898,0.005214943622295669,0.9933631867998045
2017-04-27,-1,-0.0005678304035979206,-0.0004081645884254135,-0.004606592189683965,0.005214943622295669,0.9932511394843624
2017-05-01,-1,-0.000877876172963539,-0.0006721775177978465,-0.004606592189683965,0.004168639027904747,0.9937457886955133
2017-05-03,-1,-0.0007655976210905332,-0.0005909973562284213,-0.004606592189683965,0.005214943622295669,0.9933006379969294
2017-05-05,-1,-0.0007322811398959076,-0.0005646838458776466,-0.007760156787094243,0.005214943622295669,0.9927364972150181
2017-05-09,-1,-0.0009216825440382527,-0.0007288492272539799,-0.007865294287567187,0.005808914658670048,0.9919290396996338
2017-05-11,-1,-0.0007821989226274332,-0.0006291800110670048,-0.007865294287567187,0.007830003481965117,0.9893705061519091
2017-05-15,-1,-0.0010489543773155889,-0.0008398673578970191,-0.007014875119141089,0.007556084142957428,0.9895779147216178
2017-05-17,-1,-0.001624785795918817,-0.0013752637590647844,-0.004168946005731936,0.007556084142957428,0.9912069959571287
2017-05-19,-1,-0.0013268399851453748,-0.001106950285971131,-0.004168946005731936,0.00759275706802516,0.9912642829149239
2017-05-23,-1,-0.0014010248406107902,-0.0011564426183894177,-0.007865294287567187,0.007031645907853412,0.9897934855623329
2017-05-25,-1,-0.001707780447535816,-0.0014220099221184837,-0.008627223354241879,0.007031645907853412,0.9894602990197606
2017-05-30,-1,-0.0016223088569624088,-0.0013771995866355543,-0.008627223354241879,0.007031645907853412,0.9891358891527423
2017-06-01,-1,-0.001323612319037172,-0.0011081398337543557,-0.008627223354241879,0.007031645907853412,0.9887762635870844
2017-06-05,-1,-0.002076874258521197,-0.001762282686214702,-0.0022772515832997133,0.0077130226925694306,0.9883953994586867
2017-06-07,-1,-0.0026577021021901735,-0.0022735448899725034,-0.0015894041667999534,0.0077130226925694306,0.989191831116111
2017-06-09,-1,-0.0011889768089833508,-0.0009470713439389777,-0.0015894041667999534,0.0060435370747555645,0.9921447140872784
2017-06-13,-1,-0.0005040612827489192,-0.0003596419685283596,-0.002850137548121963,0.0048096684104830725,0.9929163351529152
2017-06-15,-1,-0.00031117667391978703,-0.0002024882741063012,-0.0041567892563845145,0.0054091668368825944,0.9918827735872316
2017-06-19,1,0.0006157518422372234,0.0006637806642144676,-0.0041567892563845145,0.0045055303045701,0.9923530130258267
2017-06-21,-1,-0.0009362797231562383,-0.0007946802803609357,-0.003141229174521744,0.004927829956360376,0.9934121996819203
2017-06-23,-1,-0.001744748014012725,-0.0014892251696547567,-0.0014253108737121234,0.006205587016437972,0.9932623655297945
2017-06-27,-1,-0.0011645580878706131,-0.0009940876756127726,-0.0026377659443738277,0.008166377500713612,0.9931626475644513
2017-06-29,1,9.745394407956268e-05,0.00011707018726803131,-0.0026377659443738277,0.008166377500713612,0.9929315180902324
2017-07-03,1,0.0005081115576889166,0.00057501495481503,-0.0026377659443738277,0.006852755580888515,0.9932667302141922
2017-07-06,1,0.000780341224217243,0.0009077530741227093,-0.002073631619447894,0.006852755580888515,0.9935128380725233
2017-07-10,1,0.0014244153995706527,0.0016844724867288627,-0.003141229174521744,0.008166377500713612,0.9930711932401154
2017-07-12,1,0.001510092523388051,0.0018076555502835306,-0.002073631619447894,0.008166377500713612,0.9933545881407516
2017-07-14,1,0.0015170241636961184,0.0017941883141149944,-0.003180898915989509,0.006852755580888515,0.9934199057020917
2017-07-18,1,0.0015802169300406174,0.0018709955261407584,-0.0023256729646637946,0.006852755580888515,0.9935284585792671
2017-07-20,1,0.001735013221760498,0.0020545978641863813,-0.004154198282856774,0.004922223839749734,0.9923948703683154
2017-07-24,1,0.0025521986705382073,0.003031522249255647,-0.0058135015228622175,0.004096964397540386,0.9916581588932114
2017-07-26,1,0.0022828582000633197,0.00269064610340257,-0.004783234582911796,0.004096964397540386,0.9921697110813886
2017-07-28,1,0.003329984087130168,0.003861846260067976,-0.004783234582911796,0.0038454002846720764,0.9929419431740117
2017-08-01,1,0.003736014971787497,0.0043256843093276275,-0.006086347789942979,0.0032929372750516665,0.9917868825851401
2017-08-03,1,0.0034607819701368836,0.003998911508583899,-0.006086347789942979,0.0036381697548097834,0.9923257370466483
2017-08-07,1,0.0035442735116947926,0.00407455109679155,-0.008079437467521548,0.0036381697548097834,0.9916162674710358
2017-08-09,1,0.003360310062091083,0.003844789282490435,-0.011519508394621484,0.003997745776614379,0.990358042799182
2017-08-11,1,0.0017835437885042236,0.0019767441783044397,-0.008079437467521548,0.005621857428464355,0.9903206194234302
2017-08-15,1,0.001952176563125152,0.0021705748212615525,-0.008079437467521548,0.00883250165313829,0.9899441487062051
2017-08-17,1,0.0003320620669682737,0.0003560558102643751,-0.006086347789942979,0.00883250165313829,0.9909336277233439
2017-08-21,-1,-6.422514279901993e-05,-1.7272135528140936e-05,-0.0023690300819160944,0.009433590100031843,0.9908694306162555
2017-08-23,1,0.0007006764867314548,0.0007837923890566075,-0.0023690300819160944,0.00883250165313829,0.9910511405307408
2017-08-25,1,0.0009206955607115397,0.0010134901410081972,-0.0023690300819160944,0.008573989108482609,0.9913924612858039
2017-08-29,1,0.0004636372467926073,0.0004961231619652832,0.0015049497029908658,0.009087901223120408,0.9910111451709728
2017-08-31,1,0.00049004922038899,0.00051402885473237,0.0002781379050822341,0.009087901223120408,0.9909613922480408
2017-09-05,-1,-0.0004901412365809465,-0.0003563714282994491,0.0002781379050822341,0.009590816538633536,0.9914713502362459
2017-09-07,-1,-0.001310306391724103,-0.0010890164844642959,0.0015449303056230884,0.010437374707445417,0.9918239184680684
2017-09-11,-1,-0.00033427531170762036,-0.0002038683227268846,0.0002781379050822341,0.008741627546986985,0.9936230961094966
2017-09-13,1,0.0001716052270529532,0.00022750457071812996,0.00019968183545946328,0.007905572659840194,0.9940696563675475
2017-09-15,1,0.0008397719092514906,0.0009371320635844375,-0.0009643010263999982,0.007415350390921038,0.9948889691987071
2017-09-19,1,0.0012841643901651374,0.0014246324458607206,-0.002116248110942091,0.007415350390921038,0.9949372170425262
2017-09-21,1,0.001692541669557532,0.001872061478062013,-0.002116248110942091,0.0047884767898025765,0.9955434181554488
2017-09-25,1,0.001820349516880205,0.0020089389401833444,-0.002116248110942091,0.003887600381762796,0.9956136245896933
