JNU-Tangyin/eata/results/Batch4_SP500/Batch4_SP500-BWA.csv
Date,Action,Predicted_Q25,Predicted_Q75,Actual_Q25,Actual_Q75,RL_Reward
2010-12-14,0,0.0,0.0,-0.00882505398375279,0.011914482825938195,0.9880651532415258
2010-12-16,0,0.0,0.0,-0.009979175505823386,0.011914482825938195,0.9880304184743506
2010-12-20,0,0.0,0.0,-0.01131201530425795,0.01237858426607081,0.9869945680406627
2010-12-22,0,0.0,0.0,-0.012506429594707715,0.01237858426607081,0.9863657689232362
2010-12-27,0,0.0,0.0,-0.012329546719750256,0.01393102332543534,0.9862829820098006
2010-12-29,0,0.0,0.0,-0.012329546719750256,0.01393102332543534,0.9858464580214151
2010-12-31,1,0.003134905435230444,0.003336871797514439,-0.012661837886033585,0.01393102332543534,0.983606543036297
2011-01-04,1,0.0070917086131214325,0.007484347469263594,-0.014594360573366726,0.01049624042481381,0.9818385004467073
2011-01-06,1,0.004288169064758786,0.004476439596548994,-0.014594360573366726,0.014320175420548927,0.9828037950301045
2011-01-10,1,0.004515248183038178,0.004769805566492823,-0.012661837886033585,0.015848150580744225,0.9821902138458476
2011-01-12,1,0.0026490402537647866,0.0027182871610104994,-0.012661837886033585,0.020022840574257027,0.9825553276404236
2011-01-14,1,0.001554378798865778,0.0018459615665244072,-0.012329546719750256,0.021222839418095153,0.9808986323414446
2011-01-19,1,0.0002358495730669743,0.0007353237527393784,-0.008329053334733376,0.021222839418095153,0.9818425430664824
2011-01-21,-1,-0.0012536895610665878,-0.0005683181487454306,-0.003453463003775548,0.021222839418095153,0.9825721763122109
2011-01-25,0,-9.769753276764803e-05,0.0003564070567908808,-0.004457937621299268,0.021222839418095153,0.9814181972841386
2011-01-27,1,0.0021059147884427655,0.00222399815074544,-0.007255382495510787,0.020493914552261634,0.9815282919512806
2011-01-31,-1,-0.0011516432956016518,-0.0005509847976711347,-0.007255382495510787,0.020493914552261634,0.9823002617683352
2011-02-02,0,0.0,0.0,-0.004457937621299268,0.021422021113089242,0.9822077378349703
2011-02-04,-1,-0.0017757056547291479,-0.0010998352121063604,-0.007255382495510787,0.021422021113089242,0.9816843115219648
2011-02-08,1,0.0006066500986571784,0.0010112364859102844,-0.007255382495510787,0.017174754831236434,0.984596074616016
2011-02-10,0,0.0,0.0,-0.014011340803130688,0.011799856907832171,0.9837518477491649
2011-02-14,0,0.0,0.0,-0.0143143391645053,0.0069275283061355115,0.9871983460716542
2011-02-16,1,0.004221697507495521,0.004261140129837918,-0.015330365254583775,0.0069275283061355115,0.9857251524809
2011-02-18,1,0.004231780178790068,0.004368651397765366,-0.015330365254583775,0.010928425397048146,0.9849677888656023
2011-02-23,1,0.0023375058492305393,0.0024335246705737704,-0.011865288462357966,0.012929556573161563,0.9854578288902823
2011-02-25,1,0.0020731709916080444,0.0022340050657167388,-0.011865288462357966,0.015997902024005535,0.985282272975799
2011-03-01,1,0.0010755225932969873,0.00137011813655343,-0.011653501231682618,0.016661126509695142,0.985189205221776
2011-03-03,1,0.0018524077364562314,0.0020418782351183567,-0.011653501231682618,0.015997902024005535,0.9853645575054003
2011-03-07,1,0.0004990700646986929,0.0008508119563627185,-0.011223614737623861,0.016497227657612412,0.985488477591537
2011-03-09,1,0.0011408321636305987,0.0014174514314851355,-0.012245952860410398,0.016497227657612412,0.9841269719894523
2011-03-11,-1,-0.0005236318607785841,-4.5821139695643434e-05,-0.012245952860410398,0.016497227657612412,0.9842585017381346
2011-03-15,-1,-0.0011760410916534212,-0.0006089790454949714,-0.016302904238086318,0.016497227657612412,0.9826900705302359
2011-03-17,-1,-0.001984981443046102,-0.0013064698844155516,-0.016302904238086318,0.016497227657612412,0.9831372696700466
2011-03-21,-1,-0.0010726655778207552,-0.0004848893332677767,-0.017112251902500427,0.014401866485494616,0.9837701257479203
2011-03-23,-1,-0.001392232975707301,-0.0008273097494189408,-0.014333802050098371,0.014507828023132009,0.9837675984954349
2011-03-25,0,-0.00026899957834898005,0.00016661385437770912,-0.014333802050098371,0.011475332311030605,0.9837255512774267
2011-03-29,1,1.1920028793186484e-06,0.00039513606257925464,-0.014333802050098371,0.01241961509178007,0.9838423623914716
2011-03-31,1,0.001399983612821694,0.0015487171884364169,-0.017112251902500427,0.011035626250290247,0.9830948132924978
2011-04-04,1,0.001265293558126168,0.00149076983038184,-0.02323455768828555,0.009242820858879647,0.98254829617217
2011-04-06,-1,-0.0004936451940403743,-8.776421886421163e-05,-0.014333802050098371,0.009242820858879647,0.9848623164855488
2011-04-08,-1,-0.0024178318165944323,-0.0017433352538448689,-0.012752196561129496,0.011035626250290247,0.9845860168154486
2011-04-12,-1,-0.004123113138583637,-0.0032637007691358865,-0.008003891146460653,0.011035626250290247,0.9855376280228423
2011-04-14,-1,-0.004139850195932802,-0.003317880850357001,-0.010941640142992915,0.011035626250290247,0.9845239331287172
2011-04-18,0,0.0,0.0,-0.010941640142992915,0.011035626250290247,0.9834771956853108
2011-04-20,0,0.0,0.0,-0.010941640142992915,0.00911933208481628,0.9857174527595369
2011-04-25,-1,-0.002573893835169654,-0.0019279686203669416,-0.016400845984577292,0.008514535531254943,0.9861793361965074
2011-04-27,1,0.0005480973952877772,0.0007165470616378585,-0.02461352047503603,0.005083994101367131,0.9830464205252221
2011-04-29,1,8.434111619169433e-05,0.00028871590612742357,-0.016400845984577292,0.005083994101367131,0.9835423693679399
2011-05-03,-1,-0.0011996777142222988,-0.000878821321900808,-0.0170947408552071,0.008483082034541926,0.9826944150879291
2011-05-05,0,0.0,0.0,-0.0170947408552071,0.008483082034541926,0.9825413899699781
2011-05-09,0,0.0,0.0,-0.0170947408552071,0.003319803287514641,0.9835341754504128
2011-05-11,0,0.0,0.0,-0.0170947408552071,0.003319803287514641,0.9824344531958717
2011-05-13,0,0.0,0.0,-0.011746870420453033,0.003319803287514641,0.9831672061554072
2011-05-17,0,0.0,0.0,-0.010968774321852864,0.005131075217807446,0.9819976330252466
2011-05-19,0,0.0,0.0,-0.010968774321852864,0.012998367841870275,0.9807012330484133
2011-05-23,0,0.0,0.0,-0.008317090943254087,0.026979342931491204,0.9800280643627863
2011-05-25,0,0.0,0.0,-0.00768375586400687,0.023937881144838847,0.9830757550982824
2011-05-27,0,0.0,0.0,-0.00768375586400687,0.02287932159737159,0.9830165754885194
2011-06-01,0,0.0,0.0,-0.0073964143443757,0.02287932159737159,0.9845227542428107
2011-06-03,-1,-0.0016503578125249396,-0.001266896287264895,-0.006821432631898735,0.02287932159737159,0.9844146445115233
2011-06-07,-1,-0.0052653028664947825,-0.004507846972933216,-0.003709620187827419,0.02287932159737159,0.9835749621119495
2011-06-09,-1,-0.003097665933503276,-0.002637014382804727,-0.003709620187827419,0.017657117601210828,0.985512193780449
2011-06-13,-1,-0.0041046425141853995,-0.0035158843594636363,-0.00327914107024808,0.017657117601210828,0.9853939087205206
2011-06-15,-1,-0.003535007401096992,-0.0029673664905305853,-0.003709620187827419,0.013956674179047317,0.9882842993649698
2011-06-17,-1,-0.0024632841847044376,-0.002024005396969602,-0.007017175707060265,0.010255940959391443,0.9891485845964008
2011-06-21,1,0.00022523304874681833,0.0002908733411973696,-0.007017175707060265,0.007721513569846188,0.9912116793767861
2011-06-23,0,0.0,0.0,-0.007017175707060265,0.006196145609960906,0.991899720071162
2011-06-27,0,0.0,0.0,-0.008952144399075119,0.0045210676414844785,0.9919798391825997
2011-06-29,0,0.0,0.0,-0.011151282636239495,0.0007340066909933259,0.9863560506110811
2011-07-01,0,0.0,0.0,-0.011151282636239495,0.001760074697792414,0.9866403044019804
2011-07-06,0,0.0,0.0,-0.01555266067304506,0.002207788323215773,0.9843942544031407
2011-07-08,1,0.0029482935672921415,0.003495316403505821,-0.018031965536207693,0.0016587063856069216,0.9788312367704366
2011-07-12,1,0.003203848235834194,0.0037039665978988705,-0.02076629184977877,0.002207788323215773,0.9724858042079774
2011-07-14,1,0.0025184994818992896,0.002921440973441889,-0.02856801841961001,0.002902869451596693,0.9696587564845127
2011-07-18,0,0.0,0.0,-0.02856801841961001,0.015694790649498414,0.9689034989729863
2011-07-20,0,0.0,0.0,-0.02856801841961001,0.008867475555856808,0.9680026841957393
2011-07-22,0,0.0,0.0,-0.03971638186648765,0.007694546980383482,0.9644938295892976
2011-07-26,0,0.0,0.0,-0.03971638186648765,0.025198147828270217,0.9631897568087957
2011-07-28,1,0.001804070724329466,0.002044746041243439,-0.03971638186648765,0.0248069526465879,0.9671536641801011
2011-08-01,1,0.0022158090801753373,0.002545398858531392,-0.03971638186648765,0.0298914813413824,0.9649115679757708
2011-08-03,1,0.0005126829169056121,0.0005614198678351999,-0.029885143289808853,0.0298914813413824,0.9665575888852721
2011-08-05,-1,-0.0031507847842058966,-0.0027439954714892694,-0.026844495122418193,0.0298914813413824,0.9693578091920093
2011-08-09,-1,-0.0036383275939136255,-0.0031797050979994234,-0.018605921851921475,0.0298914813413824,0.9745440051246975
2011-08-11,0,0.0,0.0,-0.023942417997827963,0.0248069526465879,0.9761196771827026
2011-08-15,-1,-0.0009279801227349801,-0.0008083748605519756,-0.023942417997827963,0.014005423148196909,0.9784863066742049
2011-08-17,-1,-0.0012255890838439565,-0.0011334783615398378,-0.019879050637332533,0.02277472265413373,0.9775767899729269
2011-08-19,-1,-0.0035860053750762714,-0.0032368347018921326,-0.005060359048911916,0.02277472265413373,0.9809114047590166
2011-08-23,0,0.0,0.0,-0.010593162873474685,0.01903942231370347,0.9798591096780402
2011-08-25,0,0.0,0.0,-0.013220747445717551,0.014005423148196909,0.9794863100043132
2011-08-29,0,0.0,0.0,-0.016207413911745433,0.0063465319085644475,0.9790364613313839
2011-08-31,0,0.0,0.0,-0.028622363974996415,0.008617894413093857,0.9769434895112766
2011-09-02,0,0.0,0.0,-0.028622363974996415,0.008617894413093857,0.9749747412794584
2011-09-07,0,0.0,0.0,-0.028622363974996415,0.017401433288448138,0.9729161198779647
2011-09-09,1,0.6442919078526925,0.6694031012160884,-0.013369993864848257,0.02277472265413373,0.6034171575791972
2011-09-13,0,0.0,0.0,-0.013369993864848257,0.026065402466964892,0.9698045280146234
2011-09-15,0,0.0,0.0,-0.013369993864848257,0.018561777464663785,0.9710760634536237
2011-09-19,0,0.0,0.0,-0.018306824332867618,0.020494599219648878,0.9692505481398659
2011-09-21,0,0.0,0.0,-0.01775840770245881,0.02681205943120826,0.9709482278528462
2011-09-23,0,0.0,0.0,-0.013369993864848257,0.0313021562582404,0.9715087949852709
2011-09-27,0,0.0,0.0,-0.017611799014810567,0.028933127407832097,0.9719509410420846
2011-09-29,0,0.0,0.0,-0.011546876467355792,0.0335152091734346,0.9718391086267604
2011-10-03,0,0.0,0.0,-0.00476059186748016,0.0335152091734346,0.975740147568383
2011-10-05,0,0.0,0.0,-0.006493149173691414,0.028933127407832097,0.9778906430170051
2011-10-07,0,0.0,0.0,-0.006493149173691414,0.02095572711016858,0.9796024512154431
2011-10-11,0,0.0,0.0,-0.0168868461765435,0.015925895238683582,0.9803662060491327
2011-10-13,0,0.0,0.0,-0.02135743224747324,0.02072299456563007,0.9766677605816007
2011-10-17,0,0.0,0.0,-0.0168868461765435,0.018106401358344668,0.9781721134334023
2011-10-19,0,0.0,0.0,-0.0168868461765435,0.009349102064849296,0.9792170045780744
2011-10-21,1,0.002911905241029671,0.003258508520305968,-0.0174160412886395,0.004146089138358625,0.979430733704544
2011-10-25,1,0.0029334364539829773,0.0032619602412532044,-0.01728088817901571,0.004146089138358625,0.9804940600890746
2011-10-27,1,0.003949353979579051,0.004382559478200554,-0.018356723753894345,0.0023334808924703864,0.9811374017503888
2011-10-31,1,0.004034555898866827,0.004513043440773223,-0.018356723753894345,0.004146089138358625,0.9793998369139728
2011-11-02,1,0.002467636734946615,0.002646799319088521,-0.01650972572320388,0.010718948934414383,0.9786225781227887
2011-11-04,1,0.0032980719081077913,0.0036332570077393434,-0.01650972572320388,0.011316877554066256,0.9770961737400186
2011-11-08,1,0.0018578416860378793,0.0020391127766428113,-0.01532223489784132,0.011316877554066256,0.9804078869785938
2011-11-10,1,0.0014881583865705202,0.0017138777249075896,-0.01532223489784132,0.0102151178849199,0.9834512264426983
2011-11-14,1,0.0014748365591216058,0.0017155192443124195,-0.01650972572320388,0.0102151178849199,0.9801766941395761
2011-11-16,1,0.0010994468889428371,0.001340956303539149,-0.01650972572320388,0.01393871032566538,0.979280611341053
2011-11-18,1,0.0006810011700332903,0.0009049913542945818,-0.015893192543587627,0.01393871032566538,0.980029814286392
2011-11-22,1,0.0006474146088096719,0.0008866277983767138,-0.015116723837969234,0.016841144036254793,0.9799392851325724
2011-11-25,-1,-0.00018369101394303047,-5.6967371109811716e-05,-0.01067394966251358,0.016841144036254793,0.9803340737610856
2011-11-29,1,0.0002610254368079492,0.00044578525113442313,-0.011298429101811459,0.014579898763384154,0.9812456490026034
2011-12-01,1,0.002165356718840375,0.0025760990296320803,-0.011298429101811459,0.013218258089929808,0.9846287018229812
2011-12-05,1,0.002844953302158491,0.0033013678787644257,-0.011298429101811459,0.013218258089929808,0.9850469892511432
2011-12-07,1,0.002455349125674887,0.0028131355529771333,-0.014951735070822505,0.013218258089929808,0.9844885126100957
2011-12-09,1,0.0023356623408686116,0.0026976498065088604,-0.012459584708770222,0.013791757139141315,0.9808792611909082
2011-12-13,1,0.00013082825132961276,0.00029774372068779476,-0.009401184750460988,0.014579898763384154,0.9834591904936683
2011-12-15,0,0.0,0.0,-0.005191057731358772,0.013791757139141315,0.9854347420437062
2011-12-19,0,0.0,0.0,-0.0024390525867865457,0.014872713162310263,0.9849192302622505
2011-12-21,1,0.0015105710632600578,0.0019229541980173464,-0.004132081102225672,0.010202388876224093,0.9865971084489685
2011-12-23,0,0.0,0.0,-0.004132081102225672,0.009523668352879273,0.9862454919095036
2011-12-28,0,0.0,0.0,-0.004132081102225672,0.009523668352879273,0.986529748849058
2011-12-30,0,0.0,0.0,-0.006276085825675041,0.009523668352879273,0.9860381989237699
2012-01-04,0,0.0,0.0,-0.006276085825675041,0.008181002234946133,0.986961563865438
2012-01-06,-1,-0.0011101598408841528,-0.0009352410995357692,-0.004132081102225672,0.011062662223637238,0.985143049300757
2012-01-10,1,0.0020355935331279173,0.0025739884881577813,-0.006276085825675041,0.008181002234946133,0.9897988660580868
2012-01-12,1,0.0010208695429901901,0.0012898378917169202,-0.006276085825675041,0.007136406039493932,0.9900854276268476
2012-01-17,1,0.0015306332187255932,0.0019646876738134275,-0.006276085825675041,0.008181002234946133,0.9892904535530497
2012-01-19,1,0.0023394894227217627,0.0028867284329043828,-0.006276085825675041,0.011062662223637238,0.9891463717805997
2012-01-23,1,0.003061693329721929,0.003792811753153677,-0.008598411888001038,0.011062662223637238,0.9885684615646319
2012-01-25,1,0.0037607696251778203,0.004594989709154574,-0.008598411888001038,0.008200634107074972,0.9887996173237475
2012-01-27,1,0.0024137057769580165,0.0029542053761968303,-0.005773478589908656,0.012024577632596591,0.9891783501582581
2012-01-31,1,0.002880716973162145,0.003507442588587787,-0.004941844433938681,0.012024577632596591,0.9894215553149227
2012-02-02,1,0.0022742078684217385,0.0027120962847472533,-0.004941844433938681,0.015124365140629167,0.9885428292799759
2012-02-06,1,0.003306535391639356,0.003894879689198447,-0.009180114923690696,0.014640729230046733,0.9874740186426129
2012-02-08,1,0.0030744407034178213,0.0036898168529385504,-0.004941844433938681,0.015124365140629167,0.9877664581930925
2012-02-10,1,0.003438373622785002,0.004104977478949237,-0.005919886610690946,0.016348751813708533,0.9869712831296313
2012-02-14,1,0.0024118527670214233,0.0026354774389328373,-0.005919886610690946,0.016348751813708533,0.9859773579468373
2012-02-16,1,0.001671775716878877,0.0017421102975719424,-0.008854356555121207,0.015031457360360798,0.9860718706663528
2012-02-21,1,0.001169927286234719,0.001199069152080413,-0.009871248147234831,0.015031457360360798,0.9855863455961934
2012-02-23,1,0.0012579648370527397,0.0012901692506145698,-0.010954944912575593,0.015031457360360798,0.9847318790525157
2012-02-27,-1,-0.0004055286362920855,-3.0691029260215136e-05,-0.010954944912575593,0.015031457360360798,0.9845957845410482
2012-02-29,1,0.002241104611037278,0.0024399380302427467,-0.013796531896032468,0.015031457360360798,0.9840947110242633
2012-03-02,1,0.003158592908229004,0.003562073112956348,-0.013796531896032468,0.01274000882395226,0.9852842524734451
2012-03-06,1,0.0017773982641800749,0.0020823662265912384,-0.009871248147234831,0.013440472410079713,0.9878802240147364
2012-03-08,1,0.0027032527451646086,0.0031756229160253228,-0.01034321869541771,0.012579152197764374,0.988892371424304
2012-03-12,0,0.0,0.0,-0.013796531896032468,0.009064616101244271,0.9869785583050961
2012-03-14,0,0.0,0.0,-0.013796531896032468,0.009064616101244271,0.9866100554952352
2012-03-16,0,0.0,0.0,-0.014276100102110426,0.01042133716446908,0.9859924709277929
2012-03-20,0,0.0,0.0,-0.01154390334789747,0.01207550096944383,0.9865886510966625
2012-03-22,0,0.0,0.0,-0.01381575942119563,0.010331282709043061,0.985945451171276
2012-03-26,0,0.0,0.0,-0.01381575942119563,0.008423173710826667,0.9864904374602698
2012-03-28,0,0.0,0.0,-0.01381575942119563,0.010331282709043061,0.9847474618807391
2012-03-30,0,0.0,0.0,-0.01381575942119563,0.010331282709043061,0.9843897691972914
2012-04-03,1,0.002255604957899787,0.0026184040822467072,-0.01381575942119563,0.01281625805877098,0.9835546765951649
2012-04-05,1,0.0022436252383589293,0.0024136913217166433,-0.02308841462929237,0.01281625805877098,0.9816366003482402
2012-04-10,1,0.00040099644138368414,0.00048688674699242957,-0.015890122943634524,0.01281625805877098,0.9835672956516427
2012-04-12,1,0.0013429783355767885,0.001362026742450878,-0.015890122943634524,0.010092015668687806,0.9853677191780725
2012-04-16,1,0.00024967619389342714,0.0004364650590157898,-0.014524548939226785,0.005571180292239446,0.9863233388384808
2012-04-18,1,0.0002553260525836906,0.000464773601107347,-0.01595104593517289,0.001936548804767827,0.9861775201260004
2012-04-20,-1,-0.0017876589952075378,-0.0012807285330706493,-0.01595104593517289,0.001936548804767827,0.9875243905090495
2012-04-24,-1,-0.002224263008864475,-0.001665758819492402,-0.01595104593517289,0.005571180292239446,0.9858557985741541
2012-04-26,-1,-0.0007140332183396738,-0.00043373434880766924,-0.015175077237671456,0.004515422630358011,0.9877953846588935
2012-04-30,0,0.0,0.0,-0.01595104593517289,0.00786110536695248,0.9859611513588755
2012-05-02,0,0.0,0.0,-0.01696456891069466,0.001936548804767827,0.9846920901120916
2012-05-04,-1,-0.0012556851217710384,-0.0009656398624582547,-0.01696456891069466,0.001936548804767827,0.9825120734248761
2012-05-08,-1,-0.0032644927024377815,-0.0025885927255765453,-0.01696456891069466,0.004515422630358011,0.9820732104690886
2012-05-10,-1,-0.004048597386044502,-0.0032510753247890914,-0.01696456891069466,0.008337712420030507,0.981640216366966
2012-05-14,0,0.0,0.0,-0.0193700087181976,0.008337712420030507,0.9800407313305355
2012-05-16,0,0.0,0.0,-0.021639372379046493,0.008337712420030507,0.9787787922811855
2012-05-18,0,0.0,0.0,-0.021639372379046493,0.013830464737617716,0.9779184135207158
2012-05-22,0,0.0,0.0,-0.021639372379046493,0.013830464737617716,0.977569962271804
2012-05-24,0,0.0,0.0,-0.023270133846260813,0.013830464737617716,0.9768222645987468
2012-05-29,0,0.0,0.0,-0.023270133846260813,0.01186232534016915,0.9779524205974216
2012-05-31,0,0.0,0.0,-0.021639372379046493,0.01186232534016915,0.9805522245731855
2012-06-04,0,0.0,0.0,-0.0124509009802997,0.013830464737617716,0.9842615476631509
2012-06-06,-1,-0.008084620541581527,-0.0072007943322584585,-0.0124509009802997,0.01313453385281109,0.9828584529157912
2012-06-08,-1,-0.006992901951319881,-0.006224310040292137,-0.021413139501993708,0.012062052628071349,0.9829648522245397
2012-06-12,-1,-0.007262332376182557,-0.0065155502390851225,-0.016836008470322916,0.012062052628071349,0.984536979298817
2012-06-14,-1,-0.008816011020201724,-0.007880373605961796,-0.009713989531385872,0.014247852042217396,0.9837971761612978
2012-06-18,-1,-0.006831686939804583,-0.006172537242114826,-0.011650647874958075,0.008626991492505086,0.9859525790587507
2012-06-20,-1,-0.006436838531607871,-0.005788684678605247,-0.011650647874958075,0.009196447324179024,0.9868604557002318
2012-06-22,-1,-0.007622931777081631,-0.006844418375463075,-0.015974701734729143,0.009196447324179024,0.9871366252089873
2012-06-26,-1,-0.007526372731809216,-0.006777972314657988,-0.015974701734729143,0.01273578999608073,0.9851963867037955
2012-06-28,-1,-0.006446699722564279,-0.005879271653680716,-0.015974701734729143,0.014329030676929092,0.9816923126581469
2012-07-02,-1,-0.00391606071163463,-0.0034318772284833263,-0.015974701734729143,0.013760775261421583,0.9830752465074313
2012-07-05,-1,-0.0032265279962827385,-0.0028408082269991363,-0.01817394395971704,0.009196447324179024,0.9827339171392202
2012-07-09,-1,-0.003783265099776503,-0.0033969847429721157,-0.01744788929166212,0.01635550543772582,0.9811057732030892
2012-07-11,-1,-0.003400663809309405,-0.0030877143409625074,-0.01744788929166212,0.02448802741614922,0.9794546811015488
2012-07-13,-1,-0.0028860804188733844,-0.002595896218572107,-0.01744788929166212,0.020927113502571915,0.9792359121188836
2012-07-17,-1,-0.002646870416402018,-0.002407333947774117,-0.017692991096366364,0.020927113502571915,0.9791949806700312
2012-07-19,-1,-0.0015041653055783066,-0.0014388570966731998,-0.017692991096366364,0.020927113502571915,0.9796519609160785
2012-07-23,-1,-0.0026122975621804215,-0.0024137602897927515,-0.010195689363862984,0.020927113502571915,0.980670881838408
2012-07-25,-1,-0.001845566475724383,-0.0017956905787531534,-0.008531017479328154,0.015168534133200053,0.9834467148777252
2012-07-27,-1,-0.00041437170244944623,-0.0004072137806009025,-0.010181552771728015,0.008951410554866956,0.9867679291921362
2012-07-31,0,-2.9504590419929873e-05,7.21521981352522e-05,-0.010181552771728015,0.008951410554866956,0.9864884211340768
2012-08-02,-1,-0.0014092539179289716,-0.0013534221940240297,-0.009089486859157014,0.009963042787244329,0.9872269608158654
2012-08-06,1,0.0010892316494926224,0.001434479391547027,-0.010181552771728015,0.008951410554866956,0.9884835909371232
2012-08-08,1,0.0012129524588072173,0.0015455048701047518,-0.009419491481443448,0.008951410554866956,0.9882996651145215
2012-08-10,1,0.0018764528744274712,0.0022809799212390614,-0.010667938658215567,0.0073795779366621645,0.987026709372305
2012-08-14,1,0.0013805078635023504,0.0017188117850249823,-0.009251615487986198,0.00983002801155277,0.986956018000945
2012-08-16,1,0.002432547095993811,0.002948677939689745,-0.009251615487986198,0.018826948202101384,0.9849318274636442
2012-08-20,1,0.0017416046797632347,0.002129603204579602,-0.009251615487986198,0.018826948202101384,0.9840380640429413
2012-08-22,1,0.0017560340058451387,0.002152287186742344,-0.010667938658215567,0.018826948202101384,0.9831368394999653
2012-08-24,1,0.001485454764709145,0.001887712626006843,-0.013264244893376919,0.018826948202101384,0.9829475761335859
2012-08-28,1,0.0013354068068670785,0.0017322349716510496,-0.02158340456772609,0.018826948202101384,0.9808421566113177
2012-08-30,1,0.00022223331583603198,0.00038177952248822446,-0.014755949077343275,0.018826948202101384,0.9819070243958257
2012-09-04,1,0.0013504041391410894,0.0017607899749681097,-0.010988426396582648,0.024946836479510712,0.9822712405261679
2012-09-06,1,0.00274659034615522,0.00334132310312933,-0.010988426396582648,0.024946836479510712,0.9826888562148304
2012-09-10,1,0.0034578423758582057,0.004175745670090168,-0.013105405006505363,0.01231008951547374,0.984054877287234
2012-09-12,1,0.003737130091395687,0.004424012199551859,-0.024957872825198284,0.007398263140319359,0.9808889775672673
2012-09-14,1,0.005333158991684985,0.006217026447256305,-0.024957872825198284,0.0056940034744001914,0.9818616020301288
2012-09-18,1,0.005090734966960399,0.0059561175564696684,-0.017468229482325983,0.005717595957103208,0.9839955056718998
2012-09-20,1,0.004344858208195463,0.005079514373647395,-0.013105405006505363,0.005660848676403474,0.9850498506192875
2012-09-24,1,0.004406071567093737,0.005233874642095809,-0.013105405006505363,0.005660848676403474,0.9853431541340858
2012-09-26,1,0.0020657295476138454,0.0024788622696219004,-0.011509070524009277,0.005660848676403474,0.9869796505876728
2012-09-28,1,0.002374465016011567,0.0028305530120424655,-0.014784496519762031,0.006108578474246503,0.9861508701713013
2012-10-02,1,0.0031181328219283067,0.0036648465529620896,-0.014784496519762031,0.006108578474246503,0.985390099763555
2012-10-04,1,0.003980797627628923,0.004630447350021815,-0.014784496519762031,0.006108578474246503,0.9861159189975395
2012-10-08,1,0.003145609658608969,0.0036558783210213913,-0.015203965491494302,0.006841470174444614,0.9847354485058327
2012-10-10,1,0.00016703024466504414,0.00023982546053155263,-0.009171257567933827,0.010706168978074637,0.9862058145224608
2012-10-12,1,0.000888402316273716,0.001150088557049784,-0.012213340991632547,0.010706168978074637,0.9855866966222091
2012-10-16,1,0.0014316006567570015,0.0017689291798801562,-0.012361747562976925,0.010706168978074637,0.9848697815147235
2012-10-18,1,0.0014327120866616458,0.0017792369336404044,-0.012361747562976925,0.012494773156105192,0.9837617923073585
2012-10-22,1,0.00010577375682933686,0.0001715473237417177,-0.011436488087158898,0.012494773156105192,0.9845352953754744
2012-10-24,-1,-0.003049016355060559,-0.002579591750459587,-0.0088192385153078,0.014612749541373569,0.9842402189654292
2012-10-26,0,0.0,0.0,-0.007489008901433284,0.014612749541373569,0.9851818472064946
2012-11-01,0,0.0,0.0,-0.007489008901433284,0.012494773156105192,0.9866431864737831
2012-11-05,-1,-0.0005473692179058783,-0.00042885501800555247,-0.006310098483153634,0.00907626022986456,0.9874185208288938
2012-11-07,-1,-0.002608593157809702,-0.0021786128908365065,-0.0036196410555116927,0.0057678022993465205,0.9896521251305137
2012-11-09,-1,-0.0023742482239419663,-0.0020451172360477074,-0.0026401599871358965,0.0057678022993465205,0.9917512601244906
2012-11-13,-1,-0.002665833440901411,-0.0023415035930843303,-0.0013088575526479576,0.0057678022993465205,0.9918888661796448
2012-11-15,-1,-0.0032688652880191217,-0.002820252816430591,-0.0013088575526479576,0.004590080911637542,0.9921481970159796
2012-11-19,-1,-0.0028633780116035998,-0.0024337598631924574,-0.0007888040886563751,0.004590080911637542,0.9928976375005676
2012-11-21,-1,-0.002655430168489788,-0.0022592055012614696,-0.0007888040886563751,0.007318276049694584,0.9924283930437418
2012-11-26,-1,-0.0018388935761761037,-0.001567731524589913,-0.0006397873078025774,0.005436666223163489,0.9940285359752762
2012-11-28,0,0.0,0.0,-0.0006397873078025774,0.0077578333580959535,0.9940968661900651
2012-11-30,0,0.0,0.0,-0.0006750808687566607,0.0077578333580959535,0.9936116395749525
2012-12-04,0,0.0,0.0,-0.0010736533019697508,0.00974559132977551,0.9917892841055762
2012-12-06,0,0.0,0.0,-0.0022243273826079257,0.00974559132977551,0.9913479240293366
2012-12-10,0,0.0,0.0,-0.004539213859040063,0.0077578333580959535,0.9914311984006872
2012-12-12,0,-0.00019159043729673783,0.00013287847728377935,-0.004539213859040063,0.0077578333580959535,0.9913780245121975
2012-12-14,-1,-0.001411664990796605,-0.0009127636681951182,-0.0024624837029573188,0.010402867451785721,0.990193341958088
2012-12-18,-1,-0.0012913459134459135,-0.0007835447509270616,-0.0024624837029573188,0.010402867451785721,0.9894242228652902
2012-12-20,1,0.000925258850412519,0.0010226496276319148,-0.004266338935813994,0.009332000365443618,0.9901119617374194
2012-12-24,1,0.0010342464713204306,0.0011292661812498917,-0.00507424258882698,0.016036504993423097,0.9890678639448479
2012-12-27,1,0.0007777666265018249,0.0009222355011638448,-0.005758688305968972,0.01214055927655603,0.9889673561176285
2012-12-31,1,0.0025669615196681956,0.002752894154776977,-0.006285094027119823,0.006949903308561251,0.9891445962600103
2013-01-03,1,0.0037208389252479527,0.004086822369841185,-0.008453358591082732,0.004825567255292137,0.9900224078875114
2013-01-07,1,0.0036765688272559923,0.0041092171377171,-0.009868807546775946,0.006949903308561251,0.9896297793342613
2013-01-09,1,0.0026794546450158233,0.0029477858745483717,-0.009708129990339926,0.006949903308561251,0.9898007985792802
2013-01-11,1,0.00248528475578745,0.0027583656730657477,-0.006672872848825853,0.010653654478057965,0.9896756450242873
2013-01-15,1,0.0033222042212824564,0.0036699696449871743,-0.006672872848825853,0.007287211312536404,0.9901249271822746
2013-01-17,1,0.0040041859073122795,0.004425368062078695,-0.006672872848825853,0.007287211312536404,0.9905142909767825
2013-01-22,1,0.0034071588333548066,0.0037092031441301474,-0.009708129990339926,0.009282086883504473,0.9901328021162812
2013-01-24,1,0.003716170211053906,0.0040380808045977,-0.010812178568433082,0.007070982212147021,0.9901012452921426
2013-01-28,1,0.0030983844736383413,0.003298529944846606,-0.010812178568433082,0.006728114798472925,0.989913391817347
2013-01-30,1,0.002500977338691735,0.002612635487896567,-0.010812178568433082,0.008037255542092805,0.9897199992085978
2013-02-01,0,0.0,0.0,-0.00680472845522305,0.008918755806815115,0.9902346393218734
2013-02-05,0,0.0,0.0,-0.005632438631184622,0.009712973710425456,0.9900038816231674
2013-02-07,0,0.0,0.0,-0.003785694309388846,0.01196805423006828,0.989105390795395
2013-02-11,0,0.0,0.0,-0.003785694309388846,0.009712973710425456,0.9900104558916762
2013-02-13,0,0.0,0.0,-0.0031918409557223273,0.010496068805343614,0.989892202089994
2013-02-15,0,0.0,0.0,-0.005632438631184622,0.009326889481421142,0.9897152224670943
2013-02-20,1,0.003653651880920784,0.004140504376216984,-0.005632438631184622,0.009179787505121169,0.9901886965319407
2013-02-22,1,0.0025147388530440415,0.002755796228120415,-0.006186200291320483,0.009179787505121169,0.9897066771323231
2013-02-26,1,0.001375520017657006,0.0014327632205485218,-0.005632438631184622,0.010496068805343614,0.9900764834590238
2013-02-28,1,0.002799267049243462,0.003095456557840356,-0.005674235995238218,0.009179787505121169,0.9907759600369827
2013-03-04,1,0.002377669888911535,0.0026960949320907848,-0.007732333945962411,0.006855018165781497,0.9899949133704663
2013-03-06,1,0.002812216403797752,0.003175682346809768,-0.008604583621279718,0.004563765663546197,0.9900976955099811
2013-03-08,1,0.0028686347252817714,0.003034069427593462,-0.009505611441339252,-0.0015133714315484462,0.989962352895552
2013-03-12,1,0.002607111448094207,0.0027927172960197037,-0.009505611441339252,0.0009436121016683453,0.9890289059750853
2013-03-14,1,0.002950781460591587,0.0031784939266886574,-0.009505611441339252,0.0009436121016683453,0.9886261382767745
2013-03-18,0,0.0,0.0,-0.009505611441339252,0.005513383018206905,0.9873734728334067
2013-03-20,0,0.0,0.0,-0.011022665822128375,0.0009436121016683453,0.9858734303083473
2013-03-22,0,0.0,0.0,-0.010527800417854949,0.006346037261108271,0.9858231486821349
2013-03-26,0,0.0,0.0,-0.010527800417854949,0.008563827669565505,0.9853406969745299
2013-03-28,0,0.0,0.0,-0.010527800417854949,0.01299368793856414,0.984117860630914
2013-04-02,0,0.0,0.0,-0.010527800417854949,0.018198230088313855,0.9839954940155778
2013-04-04,1,1.2860231801457669,1.3041246657137113,-0.009157271209723476,0.018198230088313855,0.43622560924907366
2013-04-08,0,0.0,0.0,-0.007233163210651123,0.02140734437503065,0.9843571267664717
2013-04-10,0,0.0,0.0,-0.007233163210651123,0.01903579847628093,0.9841752091054939
2013-04-12,0,0.0,0.0,-0.004864598501346955,0.01903579847628093,0.9845279788805712
2013-04-16,0,0.0,0.0,-0.0037717970035358694,0.017652500057135236,0.9869792467884088
2013-04-18,0,0.0,0.0,-0.0007230959424354521,0.017652500057135236,0.9884420462523956
2013-04-22,-1,-0.0004937499195071016,-0.00018783251266747594,-0.0037717970035358694,0.017652500057135236,0.9881977357036779
2013-04-24,1,0.0005600442636400477,0.0007157580775222944,-0.006504147314254535,0.016363517502826098,0.9887455585329358
2013-04-26,1,0.0015727991804518654,0.0015786843436189795,-0.006566653441592309,0.015823264924249097,0.9898147555222274
2013-04-30,1,0.0017630192358528325,0.0017743466520453747,-0.006347735495069392,0.010617870626840022,0.9908466332060165
2013-05-02,1,0.0011263854001126283,0.0012081999455105488,-0.006347735495069392,0.010617870626840022,0.9901411423067497
2013-05-06,1,0.001705230931020955,0.0017236370877678582,-0.006472911627438457,0.006996382527387785,0.9904526762486834
2013-05-08,1,0.0024549431550519416,0.0025421672691709474,-0.006933218072821507,0.005717364858434877,0.9907000084307651
2013-05-10,1,0.0008386270893071318,0.0009433525255666572,-0.006933218072821507,0.009008644511318352,0.989581132097713
2013-05-14,1,0.0014863209631812146,0.0014868455437779316,-0.006933218072821507,0.006996382527387785,0.9899672998006227
2013-05-16,1,0.0013177544596868294,0.0013218099021280946,-0.007530771514614237,0.009008644511318352,0.9886240355884753
2013-05-20,1,0.0017983764167374167,0.0018587198349079353,-0.007530771514614237,0.009008644511318352,0.9889864654203256
2013-05-22,1,0.0013109815526272733,0.0013417801993227524,-0.007705569080649316,0.009008644511318352,0.9882597583972532
2013-05-24,1,0.0011829453892617317,0.0012342486249969508,-0.011022145169022866,0.009008644511318352,0.9879402926009465
2013-05-29,0,0.0,0.0,-0.011022145169022866,0.014318147033110882,0.9869891083514357
2013-05-31,0,0.0,0.0,-0.007705569080649316,0.015621297685020796,0.9867955048046014
2013-06-04,0,0.0,0.0,-0.011022145169022866,0.015621297685020796,0.9864371270598574
2013-06-06,0,0.0,0.0,-0.007035424009146778,0.0188147328186442,0.9861244195343299
2013-06-10,1,0.0025669628567158067,0.002753025040526192,-0.007035424009146778,0.015173122389982583,0.9879785542881737
2013-06-12,1,0.0024728040277851877,0.0026881056264178305,-0.007035424009146778,0.018224190665211436,0.9876556979606546
2013-06-14,1,0.00272695465208241,0.002961281647849026,-0.005557236260041195,0.015173122389982583,0.9892307722450171
2013-06-18,1,0.0035984060865501106,0.003967008742976922,-0.007035424009146778,0.015173122389982583,0.9880980728730945
2013-06-20,1,0.0022663623398506676,0.0024433990862182528,-0.003801497150942351,0.01680035300555365,0.9896595393883473
2013-06-24,1,0.0016722217892144189,0.0017425649775715843,-0.0013008876614014724,0.01680035300555365,0.9901478690198318
2013-06-26,1,0.0022466959163892014,0.0023839246542271997,-0.0013008876614014724,0.012791334262105011,0.9910128823773464
2013-06-28,0,0.0,0.0,-0.0018627830732691152,0.010926652381623025,0.9906768236287616
2013-07-02,0,0.0,0.0,0.00035781364243642314,0.010926652381623025,0.9904593144873437
2013-07-05,0,0.0,0.0,0.00035781364243642314,0.010926652381623025,0.9895029833335977
2013-07-09,0,0.0,0.0,-0.005808379636447965,0.010926652381623025,0.9889458528739258
2013-07-11,0,0.0,0.0,-0.006982663282161829,0.010926652381623025,0.9882463412827147
2013-07-15,0,0.0,0.0,-0.007036972744027511,0.012791334262105011,0.9875101446073569
2013-07-17,0,0.0,0.0,-0.007036972744027511,0.012791334262105011,0.9878019681373024
2013-07-19,0,0.0,0.0,-0.008138753156795943,0.010926652381623025,0.9876410638080424
2013-07-23,0,0.0,0.0,-0.008138753156795943,0.011980700771491482,0.9869317821629308
2013-07-25,0,0.0,0.0,-0.008138753156795943,0.014520662165576738,0.9860738204926889
2013-07-29,0,0.0,0.0,-0.008219156218294209,0.014520662165576738,0.986426430810854
2013-07-31,1,0.0035590352107216657,0.004136113429596128,-0.010423902024084502,0.019215036663257936,0.9841204069883903
2013-08-02,0,0.0,0.0,-0.010502604731467033,0.014520662165576738,0.9860425027151815
2013-08-06,1,0.003408661622370885,0.0038084701380009713,-0.009010992233115212,0.019215036663257936,0.9850943281929805
2013-08-08,1,0.003463317967176016,0.0038402828628121754,-0.009010992233115212,0.014520662165576738,0.985731410329072
2013-08-12,0,0.0,0.0,-0.009010992233115212,0.012194178589677867,0.9867847850416918
2013-08-14,0,0.0,0.0,-0.008880682809527826,0.01066527939641515,0.987946190542874
2013-08-16,1,0.0035005734248394985,0.003742328004471266,-0.00754555431031831,0.012194178589677867,0.9880816468992615
2013-08-20,1,0.003485746534550815,0.0037093970249117546,-0.0072045339797136895,0.01066527939641515,0.9887544790040138
2013-08-22,1,0.0036109708172256433,0.003785103688884588,-0.004436831033712747,0.008514513723763308,0.9899403796644327
2013-08-26,1,0.002598123660291644,0.002604857550073095,-0.0025746969778190376,0.01045868033116499,0.9904173177440727
2013-08-28,1,0.002041698958006434,0.0021737671408637903,-0.001924088666800917,0.008514513723763308,0.9925652365895674
2013-08-30,1,0.0020601152632910512,0.002148591547724868,-0.001924088666800917,0.007430026116222671,0.9932607115528531
2013-09-04,1,0.002822081596592032,0.002839809693634648,-0.001924088666800917,0.007342303984479756,0.9940709827562684
2013-09-06,1,0.002285960775569084,0.0023579146874972163,-0.0014665879076890228,0.007670907439245447,0.9942528831214056
2013-09-10,1,0.00170335241518248,0.0019056154072200062,-0.003495430253294649,0.007046036093195061,0.9923771748156731
2013-09-12,1,0.001165119196323656,0.0014017647261717987,-0.0031626087255933874,0.007670907439245447,0.9913198455537044
2013-09-16,1,0.0010422942156774735,0.001143511618569242,-0.0031626087255933874,0.007046036093195061,0.9915897154622266
2013-09-18,1,0.0016374183859686018,0.00163916325856675,-0.003790880304612783,0.008454194268068904,0.9901027497530002
2013-09-20,1,0.0011616876604958115,0.0012203175370547703,-0.003790880304612783,0.009932866569279383,0.9898871872789092
2013-09-24,1,0.0013678987672858058,0.0014186253763343462,-0.003790880304612783,0.008777718183962753,0.9900317287480424
2013-09-26,1,0.0013452961764614923,0.0013802571840749248,-0.004792983822085296,0.008777718183962753,0.9895568030943865
2013-09-30,1,0.0017147726226581072,0.0017844860189880907,-0.004009759110828362,0.008777718183962753,0.9895928841708201
2013-10-02,1,0.0017404232150970518,0.0018031402091801681,-0.008165158879025003,0.008777718183962753,0.9872312592780877
2013-10-04,1,0.002247519574286322,0.0023818476488434753,-0.008165158879025003,0.008777718183962753,0.9868306093429584
2013-10-08,1,0.00022993722342340227,0.0003636892267144244,-0.004000238938591972,0.008777718183962753,0.9894533734156091
2013-10-10,1,0.0016675149011412844,0.0017363700456309715,-0.005346653485687419,0.008777718183962753,0.9893174484329075
2013-10-14,1,0.001457366397235261,0.0014654139085895027,-0.005346653485687419,0.008368432435542333,0.9897781109194438
2013-10-16,1,0.0014102040887308581,0.0014449859446713882,-0.005171248504875112,0.0061142047043196415,0.9908956016629732
2013-10-18,1,0.001789925809993592,0.0018060982673261013,-0.005171248504875112,0.008368432435542333,0.9899110244395753
2013-10-22,1,0.0013643607105813234,0.0014485749950903326,-0.006606606403999733,0.005515148963551596,0.9892656130032211
2013-10-24,1,0.0010956827643960416,0.001226201920038761,-0.005171248504875112,0.006204434386685315,0.9883043634392459
2013-10-28,1,0.0004418476579416624,0.0006600541371009495,-0.005171248504875112,0.006204434386685315,0.9884674550013208
2013-10-30,-1,-0.0005728461817489862,-0.00029615352997141653,-0.004070863341851093,0.010507444774396652,0.9904379096259065
2013-11-01,-1,-0.0003655208105564111,-8.44805645196752e-05,-0.004070863341851093,0.006015088567067383,0.9911043849601073
2013-11-05,0,-0.00011758029455290208,0.00011700811383295829,-0.0051305994250282734,0.006015088567067383,0.990510207161213
2013-11-07,-1,-0.0005310639804749944,-0.0002851662719536109,-0.004070863341851093,0.010686790159396836,0.9911346504566992
2013-11-11,-1,-0.0016319418761239046,-0.0011776677281026614,-0.004070863341851093,0.010686790159396836,0.9902582312607017
2013-11-13,-1,-0.0021932802224990423,-0.0016283866421143414,-0.004070863341851093,0.010686790159396836,0.989206469378576
2013-11-15,-1,-0.00044978430412907484,-0.00013801722473474084,-0.004070863341851093,0.009807107206074282,0.9899499611652058
2013-11-19,-1,-0.00123941668014092,-0.0008563828770390078,-0.0014256387706174708,0.010686790159396836,0.9895651223043809
2013-11-21,0,-9.830815577937775e-05,0.00017950442473218772,-0.0029020101222142682,0.009807107206074282,0.990378310687163
2013-11-25,-1,-0.0002910908540958155,-1.2143930162857052e-05,-0.0014256387706174708,0.010686790159396836,0.9897475760469658
2013-11-27,0,-0.00011002112229027759,0.00015119184732654742,-0.001988354865411089,0.010175798410692397,0.9902059284938156
2013-12-02,0,-0.00011875685686767526,0.00010766263330989998,-0.001117732056921797,0.010175798410692397,0.9907511209810589
2013-12-04,-1,-0.0009283669778845105,-0.0005974524810898426,-0.0008976287670074206,0.010175798410692397,0.9903941019473275
2013-12-06,0,-1.5124385727207377e-06,0.00022245159268835112,-0.0008976287670074206,0.00877317536921818,0.9906626170287289
2013-12-10,1,0.0010112035457382738,0.0010825607666996645,-0.0011259821907852318,0.008029006645796278,0.9914899904375251
2013-12-12,1,8.259886110718038e-05,0.0002633809145743784,-0.0011259821907852318,0.008116008719066509,0.9915012296953705
2013-12-16,1,0.0013003982900525774,0.0013078629755139297,-0.0017779101349191238,0.008116008719066509,0.9908685684329415
2013-12-18,1,0.0020065784024684234,0.002086196710979883,-0.00495328720785397,0.007905906790629568,0.9898616975465225
2013-12-20,1,0.0015289057050308498,0.0015827862721139872,-0.0017779101349191238,0.008846220512149911,0.9907830142135362
2013-12-24,1,0.002277228931089801,0.002463746195194413,-0.01516860813956758,0.0060297524311505955,0.9885312028988226
2013-12-27,1,0.001738001094580572,0.0018163450957108301,-0.01516860813956758,0.006469161823906081,0.9885188677256608
2013-12-31,1,0.0017567199920612065,0.0018472792742357743,-0.01516860813956758,0.006469161823906081,0.9883903386919479
2014-01-03,1,0.001249056617852106,0.0013002115857821985,-0.0157211453512458,0.006469161823906081,0.9866833292305109
2014-01-07,1,0.002194313280656854,0.0023740199757285377,-0.0157211453512458,0.006469161823906081,0.9869109571686905
2014-01-09,1,0.0015398679424549263,0.001574679268691529,-0.0157211453512458,0.009447738800337547,0.985924651558375
2014-01-13,1,0.0010115082158464002,0.001034035601357186,-0.010803348852975576,0.01212602949280613,0.9865626171722082
2014-01-15,1,0.0016688304854721135,0.0017731690529164024,-0.0030920751522702655,0.014134799815530391,0.9866070816461536
2014-01-17,1,0.0009968625373893269,0.001017659571776469,-0.0006503773136472542,0.014134799815530391,0.9873280988571065
2014-01-22,1,0.001481333116801912,0.0015016117877690856,-0.0006503773136472542,0.017091301684152984,0.9863611221383866
2014-01-24,-1,-0.0010687899529290793,-0.0007732147990517347,0.0016704350889928524,0.017091301684152984,0.9873491669502132
2014-01-28,-1,-0.00016224902726411647,-3.3757892289045096e-05,-0.0003705753556078974,0.017091301684152984,0.9878428132982517
2014-01-30,-1,-0.0006428394588294305,-0.0004121139447310566,0.0006866693895700139,0.017091301684152984,0.9874357576636332
2014-02-03,-1,-0.002458546453255037,-0.00204869533009802,0.0019611459549621966,0.018336632762205554,0.9873444682051916
2014-02-05,-1,-0.0017835349447368981,-0.0014300468295258047,0.0006866693895700139,0.018336632762205554,0.9882741672325278
2014-02-07,-1,-0.0004574916556252998,-0.0002939734218527249,-0.0007127713674894106,0.015237331857671604,0.9897163754448239
2014-02-11,1,0.0002891400199352016,0.0003495066996762157,-0.002903733625700731,0.015086480072678213,0.9901688122896545
2014-02-13,1,0.0017450202328536265,0.0018495004798847162,-0.005213176804381342,0.009469009915744987,0.9916371838374002
2014-02-18,1,0.0023062440420842825,0.002516013560079414,-0.005213176804381342,0.009469009915744987,0.9919758739446499
2014-02-20,1,0.0036003904374172758,0.003964542913606366,-0.007177813151343056,0.007448719479229139,0.9923268920722644
2014-02-24,1,0.0036741672582538513,0.004031360215358215,-0.009537366558555312,0.006652996081970274,0.9910710385481992
2014-02-26,1,0.0034404877445404374,0.003778049746666738,-0.0106567696995869,0.006652996081970274,0.9909146460137027
2014-02-28,1,0.0038661913361760806,0.004275663229597064,-0.0106567696995869,0.006406015481460119,0.9905378746933619
2014-03-04,1,0.0029526283011034526,0.0031140198520638825,-0.009616406106657451,0.006652996081970274,0.9899445755486334
2014-03-06,1,0.003371421402126165,0.003654639306021392,-0.009271537334382513,0.00741385403856039,0.9900567808264911
2014-03-10,1,0.0033401698881761893,0.003638070968027681,-0.011405234303446119,0.00741385403856039,0.9880474431696739
2014-03-12,1,0.003346437373387609,0.0036582117198027055,-0.011405234303446119,0.009602692110106214,0.9874043955167431
2014-03-14,1,0.003249119641843517,0.0035728590951848273,-0.014587003960530974,0.009602692110106214,0.9857028711327592
2014-03-18,1,0.0038061782698133335,0.0042188611145072274,-0.014587003960530974,0.011359815413854325,0.985144405544559
2014-03-20,1,0.0038643727847228323,0.004285411276415736,-0.014587003960530974,0.011801429388973047,0.9856394428722014
2014-03-24,1,0.002398200389426332,0.002597942876390617,-0.008619818979049874,0.011801429388973047,0.9866862196161832
2014-03-26,1,0.0006855274867560617,0.0008065622755461168,-0.006423864548471037,0.011801429388973047,0.9867494782805878
2014-03-28,1,0.0009060276837279209,0.0009667287502472375,-0.009068229078588197,0.011801429388973047,0.9854887660610725
2014-04-01,1,0.002861398285210144,0.0030500087021703122,-0.009068229078588197,0.008872938079969021,0.9872428343401876
2014-04-03,1,0.0019838387896359503,0.0020053027477730393,-0.01773098109311032,0.008872938079969021,0.9864179783332613
2014-04-07,0,-9.26922740998316e-05,0.00013962787440015907,-0.0052985312338246085,0.008872938079969021,0.9882715821975528
2014-04-09,1,0.0010626738915079108,0.001164433290901187,-0.0052985312338246085,0.00856197467669283,0.9893209849361753
2014-04-11,-1,-0.00034205911444954633,-0.0001361833754799424,-0.004165205332385942,0.008872938079969021,0.9895264823233464
2014-04-15,1,0.0001829232714285618,0.0003801923851920021,-0.0052985312338246085,0.005223869906372332,0.9902318626497706
2014-04-17,1,0.0018537953348304772,0.0019379641347789926,-0.006228362791662792,0.004100944661978145,0.9893615805975008
2014-04-22,1,0.0018470838218976246,0.001903571469096292,-0.00845833778952203,0.0022069556450099235,0.989117118014491
2014-04-24,1,0.002062558381730211,0.0021603642570406003,-0.00845833778952203,0.005537146003271479,0.9879862010362431
2014-04-28,1,0.00041326037719810515,0.0005415249248173994,-0.006228362791662792,0.00998625141599174,0.9895733732221996
2014-04-30,1,0.0004185440497302831,0.0005792063553530114,-0.006228362791662792,0.00564477372671177,0.9901891791212842
2014-05-02,-1,-0.00026670634981283106,-6.840274444755727e-05,-0.004718661505894519,0.007406263492710136,0.9910509268473487
2014-05-06,-1,-0.00034993986821213864,-0.00017342354793256761,-0.0039719154230759115,0.00933323291327723,0.9905353083737247
2014-05-08,-1,-0.0011720548160821641,-0.0008588450495833125,-0.0005078228463248178,0.01133208208767425,0.9890926663079872
2014-05-12,1,0.00034371856989598627,0.00043719811078479326,-0.0003479349594995752,0.00998625141599174,0.9916172649879026
2014-05-14,1,8.526417203828137e-05,0.00016409076883361446,0.0006345912922566117,0.00998625141599174,0.9908970751221611
2014-05-16,-1,-0.0007335876675183856,-0.0005152112703845123,0.000673512988954564,0.009713041142535815,0.9915143040701513
2014-05-20,-1,-0.000888132701267873,-0.0006733236203979295,0.0002681520475127821,0.009713041142535815,0.9920349607053054
2014-05-22,1,0.00011854212895806728,0.0002189142221232025,-0.00015511074708818905,0.008116657597050167,0.9934927764896925
2014-05-27,1,0.0007466263135084815,0.0007763409277395443,-0.001267005404850262,0.006943684048494443,0.9938131762777384
2014-05-29,1,0.0005344208138902127,0.0006263882789394014,-0.001267005404850262,0.008471824396161886,0.9931502635525945
2014-06-02,1,0.0013874298711216905,0.0014526778244108114,-0.002033395316420687,0.008471824396161886,0.9930925411946299
2014-06-04,1,0.0017787996303706612,0.0018812065546414025,-0.002033395316420687,0.008680469609000454,0.9928733569771431
2014-06-06,1,0.00221296852100181,0.002334977089369832,-0.002895392877125498,0.0064335479644338145,0.9934969368083318
2014-06-10,1,0.002189386547104607,0.002331775317320853,-0.002560987710924132,0.008182248694289199,0.993082473228581
2014-06-12,1,0.0008963051857002233,0.0009411593850121664,-0.002560987710924132,0.008182248694289199,0.993501076886935
2014-06-16,1,0.0015902583474649923,0.0016689885518609885,-0.004229181894006883,0.0064335479644338145,0.9931556565063241
2014-06-18,1,8.046906037656985e-05,0.00030624659213046785,-0.00493753645704284,0.0064335479644338145,0.9927042553212113
2014-06-20,-1,-0.00033138119086675356,-6.275016244369877e-05,-0.004628435587243739,0.008182248694289199,0.9921488457220891
2014-06-24,-1,-0.0010287095106774054,-0.0006774629033910704,-0.004229181894006883,0.009239838396238341,0.992079854110472
2014-06-26,-1,-0.0014901424912950648,-0.0009761471242607646,-0.004229181894006883,0.0064335479644338145,0.9929403056821847
2014-06-30,-1,-0.0012859110318616058,-0.0008339749516398454,-0.005329351342998596,0.0064335479644338145,0.9923814291164914
2014-07-02,0,-0.00010249194280976463,0.00017245107449482514,-0.006037908891291324,0.0020986842038460143,0.9914993203326333
2014-07-07,1,3.815033349369602e-06,0.0002388794991149924,-0.009696530687409092,0.0020986842038460143,0.9899966486305897
2014-07-09,1,0.0012540987837549335,0.001261855513962224,-0.011283201273773517,0.000797179974531689,0.9891124217004832
2014-07-11,1,0.0006439964125902946,0.0007034285248637417,-0.00999186900708071,0.0020986842038460143,0.9894003185807513
2014-07-15,1,0.0009066096734608776,0.0009579462371483898,-0.00999186900708071,0.0020986842038460143,0.9896980468604267
2014-07-17,1,0.0003853260149941329,0.0003860945288115953,-0.006511411858722316,0.005514218244410801,0.9902727266548137
2014-07-21,1,0.0005440625792473002,0.0005488291503629452,-0.006471041316443455,0.00420476499993467,0.9908770150778794
2014-07-23,1,0.000984749328687369,0.0010660314158539564,-0.006471041316443455,0.005085573249248363,0.9907359883436865
2014-07-25,1,0.0013742963868595994,0.001522811734752214,-0.00999186900708071,0.005019459821424883,0.989563220443148
2014-07-29,1,0.0004909229432723179,0.0005113842730390251,-0.009574332198053735,0.005019459821424883,0.9902050036305899
2014-07-31,-1,-0.0008250376042905288,-0.0006818517105712278,-0.008104109737138378,0.005019459821424883,0.9919576245476135
2014-08-04,-1,-0.0009544675137150072,-0.0007930885221152327,-0.005037547249042158,0.005019459821424883,0.9932377692780681
2014-08-06,-1,-0.0019400478429250048,-0.001655266266252127,-0.001696653828674104,0.005227947054544024,0.9933895987588335
2014-08-08,-1,-0.0007478013896372959,-0.0006313273121317351,-0.003224382950105451,0.004252222935033224,0.9941905572258586
2014-08-12,-1,-0.0008779616222705968,-0.0007562192205154746,-0.007681823356603678,0.004252222935033224,0.993418661508067
2014-08-14,-1,-0.00104157185945471,-0.0008491814683164731,-0.008186756529448584,0.003951224906791592,0.9932964735783836
2014-08-18,-1,-0.0014111590874141327,-0.0011524758399632973,-0.00970138386025142,0.003137889749347242,0.992314783600869
2014-08-20,-1,-0.00061350030601372,-0.0004448683318589219,-0.0098090843593775,0.002542943065150855,0.9923987660822524
2014-08-22,-1,-0.00042527206424870085,-0.0003737935881276876,-0.0098090843593775,0.002542943065150855,0.9922182078915023
2014-08-26,-1,-0.0007490686044830798,-0.0006556621160763965,-0.0098090843593775,0.0027883323083135736,0.9919726623502223
2014-08-28,-1,-0.001574077146461239,-0.0013041766335146416,-0.0098090843593775,0.002633852093846433,0.9919350405410148
2014-09-02,-1,-0.00046220254403757523,-0.0003792780630943414,-0.012560671468762706,0.00031903745735850896,0.9890183278893349
2014-09-04,-1,-0.0014770983398480998,-0.0011824677660959378,-0.012560671468762706,0.0005551125747125279,0.9884351811796527
2014-09-08,-1,-0.0011688282146674173,-0.0009626300610337707,-0.012560671468762706,0.0010642214854373264,0.9885244870480284
2014-09-10,-1,-0.0013841529765988097,-0.0011987458989903316,-0.016243309658462567,0.005456523382954239,0.9871353778482549
2014-09-12,-1,-0.001816660446962386,-0.0016044468177827424,-0.018597772593340913,0.008681631054335361,0.9857249676492813
2014-09-16,-1,-0.002747951834227884,-0.0024407724125212844,-0.019448720345929964,0.009170877819671054,0.9835557610747363
2014-09-18,-1,-0.00342967655654195,-0.002977279686880929,-0.019448720345929964,0.010025541087834244,0.9823842597266088
2014-09-22,-1,-0.0041429751159436975,-0.003638845145212661,-0.014113789180232211,0.010025541087834244,0.9824953443113359
2014-09-24,-1,-0.004443837700336396,-0.0038567459743692515,-0.01668936892143464,0.013170812966334464,0.9811233165457983
2014-09-26,-1,-0.005096902286801346,-0.00441802270935613,-0.01668936892143464,0.013996132074777703,0.9805045492372311
2014-09-30,-1,-0.0074458766538056855,-0.006486994592667227,-0.008509324210033331,0.015337799181005873,0.9799932794276954
2014-10-02,-1,-0.00559964158686117,-0.004914708547748491,-0.014141355154550781,0.015337799181005873,0.9804975833021873
2014-10-06,-1,-0.004987349388210513,-0.0043497314280177305,-0.014141355154550781,0.022077054628825563,0.9782929525037791
2014-10-08,-1,-0.004541500075685416,-0.003962688410063091,-0.014141355154550781,0.030042757392476204,0.9780860885978556
2014-10-10,-1,-0.005790114436684193,-0.005048162357168566,-0.014120838448068688,0.030042757392476204,0.9780273012861848
2014-10-14,-1,-0.004462106696416843,-0.003922044838378696,-0.014553190190741357,0.025935668372678335,0.9804461520618383
2014-10-16,-1,-0.002181427202754582,-0.0019347684340983813,-0.014553190190741357,0.017005032766806663,0.9821787321865317
2014-10-20,-1,-0.0029820391540927613,-0.002661580837310917,-0.014553190190741357,0.017005032766806663,0.9821821327662419
2014-10-22,-1,-0.002101445924637962,-0.0019068793668347477,-0.014553190190741357,0.01644079955560477,0.9831311991014235
2014-10-24,-1,-0.0011631679789298834,-0.001110249199910871,-0.014553190190741357,0.016410282181048053,0.982796621366866
2014-10-28,1,8.501245573182996e-05,0.00022924758325546885,-0.014085673255993351,0.011330121073240426,0.9844660977829137
2014-10-30,-1,-0.0012248463393264347,-0.001196225004077858,-0.008469409510994667,0.011330121073240426,0.9863597974420423
2014-11-03,-1,-0.0005274495518092857,-0.000508988019240949,-0.008469409510994667,0.00960515031496305,0.9881122815806628
2014-11-05,1,0.0001476321937151267,0.00028219540636183546,-0.00819991115937673,0.00960515031496305,0.9887970656835677
2014-11-07,1,8.282390226769333e-05,0.00021194965723226185,-0.010301439286045638,0.008016325694755029,0.9892234664466664
2014-11-11,-1,-0.0011239012185971012,-0.0010862678612563875,-0.007548610945771415,0.008016325694755029,0.9889810880311241
2014-11-13,-1,-0.0013779750912248272,-0.0012926245114039487,-0.010280112859544182,0.008016325694755029,0.9887283011498627
2014-11-17,0,-3.619765628273407e-05,0.00010822418138426706,-0.012191360647357215,0.005339584665413512,0.9879460390229162
2014-11-19,1,0.00036222156055372684,0.0005472225173925496,-0.012191360647357215,0.008016325694755029,0.9869529112640433
2014-11-21,1,0.0011483999029383183,0.0014811245952521578,-0.012191360647357215,0.005339584665413512,0.9865262537387472
2014-11-25,1,0.0007396594958908538,0.0010209094744112815,-0.012191360647357215,0.011080967577854636,0.9856617896229899
2014-11-28,1,0.0008316944061834013,0.0011585756190179756,-0.012191360647357215,0.013217618383223988,0.9857853751324149
2014-12-02,1,0.0011266795679563903,0.0014626109058773781,-0.012383565720532966,0.013217618383223988,0.9849140002659545
2014-12-04,1,0.00127446983994229,0.0016081830638266434,-0.013531032202630187,0.003151415805283259,0.9849808880647973
2014-12-08,1,9.47662511757507e-05,0.00024515248373312485,-0.0123195864410286,0.013217618383223988,0.9856835832718448
2014-12-10,-1,-0.0009529063024597148,-0.0009157827357826091,-0.0123195864410286,0.018175855923104615,0.9857917654734921
2014-12-12,-1,-0.0009978017472260612,-0.0009390847330562864,-0.013739965750097487,0.018175855923104615,0.9845725898104538
2014-12-16,-1,-0.0014546037149409871,-0.0014265820880755566,-0.013739965750097487,0.018175855923104615,0.9843982757455572
2014-12-18,0,-0.00011039331658379084,5.819889561985961e-05,-0.013739965750097487,0.012069376830436473,0.9843932317142947
2014-12-22,1,2.096825812593887e-05,0.00016093172690196398,-0.013739965750097487,0.015060573424013176,0.9833622225444624
2014-12-24,1,0.0005007386136633088,0.0007058768302892829,-0.013739965750097487,0.011413696515001832,0.9849794513489181
2014-12-29,1,0.0006627717470020053,0.0008404924139552663,-0.01800218963038589,0.008654733365680992,0.9840255697957003
2014-12-31,1,0.0002644105428705149,0.0004423873523992535,-0.01592275587460399,0.015060573424013176,0.9833691851602584
2015-01-05,-1,-0.0006559618980879117,-0.0006151001654483208,-0.012722433332099978,0.024087314893051246,0.9820908777424562
2015-01-07,1,0.0003457549157055372,0.0005525150162892075,-0.012722433332099978,0.019241083414710997,0.9828108484211059
2015-01-09,0,-0.00011718160211687015,2.6608263380822428e-05,-0.012722433332099978,0.017830088436707234,0.9832241817919805
2015-01-13,-1,-0.000474574811881448,-0.00032253515245224076,-0.0008581690123259472,0.018312497977485097,0.9840684940348668
2015-01-15,-1,-0.0015806088833920382,-0.001536602242701733,-0.0008581690123259472,0.026164224488328815,0.9811771887263547
2015-01-20,1,0.0002767540938407993,0.00046267636411280206,-0.0047620642502223705,0.018312497977485097,0.9838020853365845
2015-01-22,1,0.0015930949214127356,0.001968202556177268,-0.0047620642502223705,0.015307090913238036,0.985631541043757
2015-01-26,1,0.0014383364743352585,0.001818063419739987,-0.0030334663497120734,0.015307090913238036,0.9856691335982976
2015-01-28,1,0.0007680899176603041,0.0010687575019757618,-0.002931179523227475,0.015307090913238036,0.9861412757486676
2015-01-30,1,0.0011826701020615474,0.001529728005886089,-0.0017500518592194147,0.015307090913238036,0.9868655689259499
2015-02-03,1,0.0026401733399332556,0.003145280971315776,-0.002931179523227475,0.01177742909021831,0.9888082528729029
2015-02-05,1,0.003008363658687771,0.003532915938440048,-0.003986437577589156,0.007790789153482916,0.9880707068376718
2015-02-09,1,0.0017488516288333448,0.0020547991639042226,-0.003986437577589156,0.007790789153482916,0.9885330165192239
2015-02-11,1,0.0023201378243022834,0.0027024620615805992,-0.006396101207739243,0.007790789153482916,0.9872042743438858
2015-02-13,1,0.002916483293990322,0.003325729286656002,-0.006396101207739243,0.007790789153482916,0.9886413748274016
2015-02-18,1,0.00296345043337618,0.0033878188497531722,-0.012523086740190238,0.01177742909021831,0.9875151500903345
2015-02-20,1,0.003281410021512826,0.0037178035555722445,-0.012523086740190238,0.006979546100008963,0.9871736912846825
2015-02-24,1,0.0018133867022826846,0.0019523147027329017,-0.012523086740190238,0.006979546100008963,0.9874885108139642
2015-02-26,1,0.002249970109666511,0.002481163076262712,-0.01285274302498543,0.002473522813037552,0.9871732501725983
2015-03-02,1,0.0028935147744212136,0.0031954421437085934,-0.01285274302498543,0.004628025226684672,0.9868632777109199
2015-03-04,1,0.0021250995301885017,0.002325232898828566,-0.01267131910534755,0.004628025226684672,0.9869800632178779
2015-03-06,1,0.0008634511825146667,0.0008873087494937054,-0.010726114735817702,0.016314645316381417,0.9870699940848374
2015-03-10,1,0.0003796939024207619,0.0004406375804995288,-0.010726114735817702,0.016314645316381417,0.986840006317147
2015-03-12,1,0.0015786497948261907,0.0017521415926116056,-0.00933364767733887,0.011183698617018262,0.9883925294791122
2015-03-16,1,0.0012146335163050383,0.001300133567458065,-0.00933364767733887,0.006368115356402174,0.9898146224892581
2015-03-18,1,0.0018373133270851237,0.0020328866234919085,-0.00895647032415138,0.004628025226684672,0.9913223395528619
2015-03-20,1,0.0014603452048664064,0.0016248270296787325,-0.007091708062558622,0.005068219845481218,0.9915666444638098
2015-03-24,1,0.0015161033169611476,0.0017219527955612197,-0.006456775647040056,0.005068219845481218,0.991833518918951
2015-03-26,1,0.0005372202225198994,0.000557169966965641,-0.005301267455564163,0.005068219845481218,0.9922679065982746
2015-03-30,1,0.002365729024199164,0.002666675280356352,-0.005301267455564163,0.004248132936238418,0.9931875094787788
2015-04-01,1,0.0018942357932616037,0.002141822490434424,-0.003682716024517575,0.004248132936238418,0.9926116514716212
2015-04-06,1,0.002629980240202205,0.0029792048985118826,-0.003682716024517575,0.0037445987616568123,0.9929243242918673
2015-04-08,1,0.0016428698108074092,0.0017935406132897206,-0.0029115819458306715,0.002678031790090301,0.9943913382076552
2015-04-10,1,0.0013362259240622622,0.0014362698883446706,-0.0026577942144793286,0.0037445987616568123,0.9942057083150952
2015-04-14,1,0.0011409517552396344,0.001239730931394946,-0.0026577942144793286,0.00386032376881926,0.9943565184358807
2015-04-16,1,0.0015039986905508096,0.0016782748478694196,-0.0026577942144793286,0.005734711172361483,0.9940876831301284
2015-04-20,1,0.001762444551940906,0.0019959635982216726,-0.0024954410233528285,0.005195481190194762,0.994318998456941
2015-04-22,1,0.0014036832703617163,0.0015582038452665197,-0.002779631391905213,0.005195481190194762,0.9937507408131713
2015-04-24,1,0.0011009467962403692,0.001195681948960501,-0.002779631391905213,0.005734711172361483,0.9930662825812656
2015-04-28,1,0.0013486629493801175,0.001497159387817405,-0.004287214303573798,0.005734711172361483,0.9927130452867785
2015-04-30,1,0.0008619561776510038,0.0009639389992302085,-0.004543032458460664,0.005734711172361483,0.9936820552610173
2015-05-04,1,0.0007260944636537145,0.0007547108786966713,-0.004543032458460664,0.005734711172361483,0.9938900502851773
2015-05-06,-1,-0.00017287438487744523,-2.989808413255264e-05,-0.006886181216383628,0.006223388199247828,0.9927952291306797
2015-05-08,-1,-0.00022259058895630554,-5.1901890466740305e-05,-0.007424531751154432,0.005734711172361483,0.9929594049705402
2015-05-12,-1,-0.0008985561484298359,-0.0006104003645258004,-0.006886181216383628,0.006223388199247828,0.9927332883166001
2015-05-14,1,4.523773016462272e-05,0.0001602094326422538,-0.006886181216383628,0.005639277741367437,0.9928288515804754
2015-05-18,1,0.0001948133474347921,0.00026969465857185613,-0.007342863521885373,0.005639277741367437,0.9925334787947941
2015-05-20,0,-4.8569754170382925e-05,3.937715063780442e-05,-0.006886181216383628,0.006411989478186279,0.9927205439057879
2015-05-22,1,0.00023951071999410342,0.0002754259200682525,-0.0069179030889202015,0.006411989478186279,0.9928983817179913
2015-05-27,-1,-0.00038993594977400245,-0.0002420769790688146,-0.0069179030889202015,0.00576090024264479,0.9929987049162111
2015-05-29,-1,-0.0011737893468764101,-0.0008985914634869878,-0.006301765645952349,0.00576090024264479,0.9932739500885849
2015-06-02,-1,-0.0004555687412939616,-0.0002918703689828706,-0.008039915135763416,0.0030361303140149947,0.991922423007918
2015-06-04,-1,-0.0011102016913368128,-0.0008534415397874829,-0.007519697368764152,0.0042918187051230045,0.9925129701299151
2015-06-08,-1,-0.0017838405618377184,-0.0014264061020839334,-0.00779491044795624,0.0042918187051230045,0.9922656663003699
2015-06-10,-1,-0.0017995385168807954,-0.0013984273902939912,-0.009346689891401359,0.0027499431705103154,0.9905535877474321
2015-06-12,-1,-0.0013696372809912714,-0.0010789511745363687,-0.009346689891401359,0.005505063146197038,0.9891525494898553
2015-06-16,-1,-0.0009074265070651941,-0.0007219572060301268,-0.010947581634171987,0.005505063146197038,0.9887537733443245
2015-06-18,-1,-0.0009250132672578244,-0.0007169858301073842,-0.011864741080862192,0.004646501715683,0.987186836640798
2015-06-22,-1,-0.0014118000875045313,-0.0011186096639715713,-0.011864741080862192,0.004253254786505416,0.9877082422507794
2015-06-24,-1,-0.001676339725532357,-0.001363476552761127,-0.013484225637110171,0.004253254786505416,0.9876468066074988
2015-06-26,-1,-0.0010633531173809907,-0.0008781336701030158,-0.014441304537732392,0.004253254786505416,0.9865836644983954
2015-06-30,-1,-0.001707317419339085,-0.0014699693659430725,-0.013484225637110171,0.006953870763854696,0.9867141362113017
2015-07-02,-1,-0.0008084762804487641,-0.0006815126292383255,-0.014441304537732392,0.005389371390344275,0.9848788162381616
2015-07-07,-1,-0.0005790428414585774,-0.0004896520735572147,-0.014426549550848062,0.005389371390344275,0.9844221316713713
2015-07-09,-1,-0.0013294422738319026,-0.0011745275227149805,-0.01411357997009657,0.005389371390344275,0.9867728326769897
2015-07-13,-1,-0.0006554166243154114,-0.0005794289623620174,-0.01411357997009657,0.004080411736469675,0.9872007867366805
2015-07-15,-1,-0.001077390791676363,-0.0009765698421296824,-0.014426549550848062,0.004146031829933709,0.9861017161187313
2015-07-17,-1,-0.001288518880462448,-0.0011404980966900399,-0.01411357997009657,0.003797047526058681,0.9879874682030815
2015-07-21,-1,-0.0014044618108589276,-0.0012523431154465568,-0.01411357997009657,0.004820491862897687,0.9874791578961482
2015-07-23,-1,-0.0012172568844525575,-0.0011224796278754721,-0.0141997851434912,0.004820491862897687,0.9864682425816386
2015-07-27,-1,-0.0022097419156898793,-0.0019814987490407695,-0.015819404475785576,0.004820491862897687,0.9858407304855251
2015-07-29,-1,-0.0009050384629898381,-0.0008103768461199295,-0.015819404475785576,0.003797047526058681,0.9863166524531073
2015-07-31,-1,-0.001941241489234866,-0.0017065812186983984,-0.0141997851434912,0.003797047526058681,0.9885649601443671
2015-08-04,-1,-0.0020006853053100445,-0.0017960017570966018,-0.016146119075987248,0.003797047526058681,0.9877575983891054
2015-08-06,-1,-0.0019223414607378825,-0.0017241981660544112,-0.016146119075987248,0.004820491862897687,0.9876161042745157
2015-08-10,-1,-0.001172560352689043,-0.0010932248272477415,-0.016146119075987248,0.004820491862897687,0.9864356006631221
2015-08-12,-1,-0.0014359810915381384,-0.001280567886773466,-0.014278602699492618,0.004647047249455081,0.9881442959905976
2015-08-14,-1,-0.002489639591324426,-0.002209567416307178,-0.014278602699492618,0.004647047249455081,0.9880582320891249
2015-08-18,-1,-0.002108540616846939,-0.0018763625593612486,-0.014278602699492618,0.005043750648996746,0.9871311502270005
2015-08-20,-1,-0.0022182762675967294,-0.0020122511417040136,-0.013553918487858245,0.005043750648996746,0.9872046464674178
2015-08-24,-1,-0.002632805434376318,-0.002368408513858051,-0.010241107864984817,0.005043750648996746,0.9852458902987719
2015-08-26,-1,-0.0022119696594945695,-0.0020465456760544636,-0.010687410884495095,0.0024343131955956955,0.9861015148642968
2015-08-28,-1,-0.002414408041884943,-0.002211208072762711,-0.010687410884495095,0.003173812292730315,0.9850304589281627
2015-09-01,-1,-0.003553100473491887,-0.0032128717866430887,-0.008264872235227975,0.011713673575342852,0.9844491082796006
2015-09-03,-1,-0.0032358635075615157,-0.0029292690386407546,-0.008264872235227975,0.012933047801401754,0.9842645368386751
2015-09-08,-1,-0.002639947470029801,-0.0024206877520363654,-0.006071779308322405,0.012933047801401754,0.9845983875965623
2015-09-10,-1,-0.002673853171851436,-0.002456801431475841,-0.005844151622087273,0.017041813396381875,0.9830583272861476
2015-09-14,-1,-0.0027775192907859673,-0.0025592492757918655,-0.005801366070899666,0.017041813396381875,0.9829373219851593
2015-09-16,-1,-0.0015862225104053948,-0.0015120232463127666,-0.007787828365024393,0.012933047801401754,0.9835625466788208
2015-09-18,-1,-0.002620888004491677,-0.002433640940335641,-0.007787828365024393,0.014656566245404326,0.9840331583329964
2015-09-22,-1,-0.003990764831176024,-0.0036613706223037447,-0.005311266425505095,0.014656566245404326,0.9861035533266296
2015-09-24,-1,-0.0032128700745336406,-0.002981114875220205,-0.005937644471378363,0.014656566245404326,0.9860615934449299
2015-09-28,-1,-0.003305352627940682,-0.003056015630332079,-0.005937644471378363,0.01674059137268744,0.9846671203222819
2015-09-30,-1,-0.002092102073575115,-0.0019988574538296272,-0.007966898104037324,0.016329390698970436,0.9842898783066769
2015-10-02,-1,-0.0014989478641413995,-0.001469387262381984,-0.010089102710096115,0.02206028675708021,0.9796192318378424
2015-10-06,-1,-0.0010277114012006141,-0.0009119755987128869,-0.010089102710096115,0.016329390698970436,0.9811491683640083
2015-10-08,0,-0.0001259890035042833,0.00011522859579732455,-0.010089102710096115,0.009238656469370289,0.9822729717024516
2015-10-12,-1,-0.0002990908870105054,-9.149445529582601e-05,-0.014430368582907355,0.014064064994938565,0.9815688800250593
2015-10-14,-1,-0.0005037393312864681,-0.0003081654338903063,-0.013949997011759318,0.014064064994938565,0.9822500429897878
2015-10-16,-1,-0.0003435434565676016,-0.00011730597974709818,-0.014521624884214131,0.009086845016294703,0.9814866447445896
2015-10-20,-1,-0.00041596304413922633,-0.00019977875492638417,-0.014430368582907355,0.014760766905151813,0.9818501256058747
2015-10-22,-1,-0.0004970442143646942,-0.0002543425826880177,-0.013949997011759318,0.01841949642961018,0.9801576916473111
2015-10-26,1,0.001126439339318757,0.0015666555014820964,-0.013949997011759318,0.014760766905151813,0.9813339330600823
2015-10-28,1,0.0019418389149500354,0.0024782401003850566,-0.008879262087593163,0.004957316596427807,0.9838320850086988
2015-10-30,1,0.001904787874459203,0.0024856280090821397,-0.006208643590461141,0.0010157776880765248,0.9889641777780837
2015-11-03,1,0.0006696459803971952,0.0010745324344957606,-0.008879262087593163,0.004957316596427807,0.9881570538340296
2015-11-05,1,0.0005181903665798418,0.0009082517623704687,-0.013090607272133188,0.01470919346934892,0.987016265372271
2015-11-09,1,0.0012132321413227557,0.0017256549244585896,-0.013090607272133188,0.0057542565239137485,0.9857904109105249
2015-11-11,1,0.0005222437493561732,0.0009474653956379384,-0.01256747913274654,0.0057542565239137485,0.9867623913278036
2015-11-13,0,-0.00027353300676647525,3.2596380832069626e-05,-0.007516099189175864,0.007100245534734087,0.9871450735569886
2015-11-17,1,0.0005058214663531109,0.000926588066470093,-0.007516099189175864,0.01778017824594052,0.9853798908629968
2015-11-19,1,0.0010815987023926063,0.001518570259413062,-0.01256747913274654,0.007100245534734087,0.986232407838888
2015-11-23,1,0.0018181240641619643,0.0023854670626118177,-0.01256747913274654,0.014195624035178985,0.985807974169054
2015-11-25,1,0.0018856876478357504,0.0024632067514035673,-0.01256747913274654,0.017479604144589662,0.9843596493750608
2015-11-30,1,0.001169672367930573,0.0015604862842218423,-0.01256747913274654,0.017479604144589662,0.9840426409451882
2015-12-02,1,0.001751488790080523,0.00229162983809497,-0.01256747913274654,0.015889928413309704,0.9844996208275109
2015-12-04,1,0.0022973329235002355,0.0028655727525301027,-0.015806434370296676,0.013665732124752332,0.9841126667978506
2015-12-08,1,0.0006423558589561294,0.0009867981401145097,-0.017738369376428878,0.013665732124752332,0.9821996311332213
2015-12-10,1,0.0006222634880795607,0.0009547255582651431,-0.023234263487709537,0.013665732124752332,0.9806851483478091
2015-12-14,1,4.4295796380985865e-05,0.0002780422255942793,-0.023234263487709537,0.014113818599635583,0.977229388259202
2015-12-16,1,0.0015976073208193622,0.002012945910483538,-0.029078642909307083,0.009249515533454596,0.9751901872401862
2015-12-18,1,0.0012460126025273324,0.001699126565881349,-0.029078642909307083,0.009249515533454596,0.9753611439228227
2015-12-22,1,0.0015611547950499136,0.0019834936595176282,-0.029544022258553126,-0.0023879249269268435,0.9747049323255227
2015-12-24,1,0.001921401266020072,0.002343491321539013,-0.029544022258553126,-0.0027496861578715187,0.9739257553457281
2015-12-29,1,0.002286248793583176,0.0027371610130020544,-0.029544022258553126,-0.004529990253988253,0.9733141671680922
2015-12-31,1,0.0018994718700623082,0.002328487031110995,-0.029544022258553126,0.008029596490841128,0.9727079586469698
2016-01-05,1,0.0007664171387487886,0.0010151195041796365,-0.0305818907586609,0.008029596490841128,0.9728155992954447
2016-01-07,-1,-0.0023286025210618537,-0.002156834875753213,-0.029281088248916485,0.009717099326757073,0.9756872488131693
2016-01-11,-1,-0.002339147184977234,-0.0021986219357137795,-0.02902727899669645,0.013859850239419939,0.9758289046072265
2016-01-13,-1,-0.005112128053262379,-0.004588751836089665,-0.02486143826638554,0.015078463365289316,0.9805127616050593
2016-01-15,-1,-0.008289244415043934,-0.007365479594819362,-0.015180405658014288,0.02018299804036209,0.980025451063082
2016-01-20,-1,-0.008566615555586826,-0.007637791751727018,-0.015180405658014288,0.0218433918799125,0.9776548008761179
2016-01-22,-1,-0.009771227214539324,-0.008719794248659242,-0.011377869233003634,0.0218433918799125,0.9773267148889729
2016-01-26,-1,-0.010786466492902535,-0.00955320514049445,-0.011377869233003634,0.0218433918799125,0.9777839031682314
2016-01-28,-1,-0.010550924647465107,-0.009378111196458311,-0.009913568782746436,0.0218433918799125,0.9771731049618473
2016-02-01,-1,-0.007886700145272416,-0.007074974526401165,-0.010536479139352498,0.0218433918799125,0.9781209361023615
2016-02-03,-1,-0.008991300064488159,-0.00805117447524911,-0.009667709347455145,0.0218433918799125,0.9771683897605157
2016-02-05,-1,-0.008115885133558053,-0.007265368630147556,-0.0065580355628561595,0.02018299804036209,0.978742998260794
2016-02-09,-1,-0.006346612667272647,-0.005778028254661655,-0.0065580355628561595,0.02045127903035909,0.9786774888493914
2016-02-11,-1,-0.0058887880614944925,-0.005310194496093993,-0.010536479139352498,0.02045127903035909,0.9779306638577226
2016-02-16,-1,-0.00518724319377876,-0.004575234468739104,-0.010536479139352498,0.016926392806003436,0.9817865732001552
2016-02-18,-1,-0.005134291814865469,-0.004531547128061175,-0.008655860536649814,0.016926392806003436,0.9818201286173146
2016-02-22,-1,-0.004440994610214271,-0.003945038107985902,-0.005572675301932124,0.01489158295760524,0.9826849054439113
2016-02-24,-1,-0.0035174342209775052,-0.0032037145741723003,-0.006581921344579572,0.01489158295760524,0.983454583451435
2016-02-26,-1,-0.002548349280478792,-0.0023875485124867325,-0.006581921344579572,0.01489158295760524,0.9840804572171558
2016-03-01,-1,-0.000612785497105404,-0.0004944625958051138,-0.0050770079045395385,0.01343046974035096,0.9861099859571046
2016-03-03,1,0.0006089533636830724,0.0009520165425727744,-0.006581921344579572,0.013103992406421497,0.9862263013366275
2016-03-07,1,0.001154190867225166,0.0015786330864264366,-0.009539718554276322,0.012766499292946404,0.9837010863185707
2016-03-09,1,0.0005835072549812465,0.0008901480204428145,-0.012015630842207508,0.010343533072147889,0.9844060889202555
2016-03-11,1,0.0016142788737789683,0.00206841633637799,-0.008894227632734389,0.010343533072147889,0.9860018886105125
2016-03-15,1,0.0011789144393094975,0.0015648771677473558,-0.007407225440556634,0.012766499292946404,0.9839074925063842
2016-03-17,1,0.0027245115494672458,0.0032803971933353473,-0.007407225440556634,0.008656482363349715,0.9861971842203175
2016-03-21,1,0.0038257203388507334,0.004645219544931368,-0.007407225440556634,0.009428077001322786,0.985823301363485
2016-03-23,1,0.0033978327620978396,0.004210269026169283,-0.0012916348694545366,0.009428077001322786,0.9872359781511182
2016-03-28,1,0.0029808209291639094,0.0036439251546330448,-0.002264658148415528,0.009428077001322786,0.9868078647614326
2016-03-30,1,0.0032747910176166833,0.003940733990727831,-0.004968352955954743,0.00928701265591569,0.9839961981771715
2016-04-01,1,0.0029715514436576525,0.003576427778570336,-0.012162739253946307,0.007506407560020234,0.981798394320323
2016-04-05,1,0.0014159982427377755,0.0018297692565205199,-0.007644864197053184,0.007506407560020234,0.9848646857644522
2016-04-07,1,0.00010877870240594766,0.0003065892547200053,-0.008437463530333917,0.007506407560020234,0.9835311413257727
2016-04-11,1,0.00033655706851103996,0.0005055343085397836,-0.008437463530333917,0.004408049408043148,0.9843173978369887
2016-04-13,1,0.0025641525851534687,0.003064083262583552,-0.008892180167019578,0.003923342624972143,0.9857643141397496
2016-04-15,1,0.0033986582407212586,0.00408622497687782,-0.014759406558201042,0.002198609352382344,0.9838478099035858
2016-04-19,1,0.004674003660878481,0.005558366032790497,-0.014759406558201042,0.002148928101794125,0.9836981720312648
2016-04-21,1,0.00458259657648577,0.005454417905043021,-0.01733977958911139,0.0014885421630637615,0.9820510619558511
2016-04-25,1,0.004560510086168518,0.005424448906370863,-0.01733977958911139,0.0024730588826202453,0.9814218464462571
2016-04-27,1,0.004695063713847998,0.005576039761618583,-0.014759406558201042,0.005056571152192199,0.9835462303630748
2016-04-29,1,0.003189126959309193,0.003913076691315945,-0.010241437289605516,0.008577283164520036,0.9872275926500153
2016-05-03,1,0.002705005193056256,0.0032741910749883706,-0.01227821462770524,0.01206468918306687,0.9865422638182204
2016-05-05,1,0.0009177309810856602,0.0012508606201965034,-0.010241437289605516,0.01301039116944855,0.9873757186484425
2016-05-09,1,0.0007073857823151834,0.000976011088014511,-0.010241437289605516,0.01449652194317244,0.9859903439039939
2016-05-11,1,0.0018294462097486583,0.00235287687995672,-0.010241437289605516,0.01449652194317244,0.9866016848723018
2016-05-13,1,0.0005680159554962873,0.0008668299436487268,-0.01227821462770524,0.01449652194317244,0.9852965984147674
2016-05-17,1,0.0017706122834277123,0.002291373102641309,-0.015379389069955743,0.014519876301551616,0.9844069362923242
2016-05-19,1,0.0013353050193682277,0.0018531483598674334,-0.01227821462770524,0.016217153462039217,0.9851097856287024
2016-05-23,1,0.001955699054418345,0.002590142716012836,-0.015379389069955743,0.01662645113458413,0.9828423423004933
2016-05-25,1,0.0029088749142281234,0.0036401206146926294,-0.015379389069955743,0.014645402521708772,0.9833832919213898
2016-05-27,1,0.002488506797918075,0.0031088639731191125,-0.022456463345510966,0.014645402521708772,0.974916760185018
2016-06-01,1,0.0012333383022415346,0.0015323927929781183,-0.022456463345510966,0.01764827774952406,0.9736116993111644
2016-06-03,1,0.00100962591866636,0.001249368608975364,-0.020499186080516808,0.01764827774952406,0.9742812317349658
2016-06-07,1,0.0009500617752177826,0.0010542756519678002,-0.027489214621486652,0.016618939087807004,0.972696569563003
2016-06-09,-1,-0.0007974868149763287,-0.0005519742403095663,-0.027489214621486652,0.025872464729460753,0.9698455227448718
2016-06-13,-1,-0.0034201658137639934,-0.002825485569942044,-0.009077823723811943,0.025872464729460753,0.9703793902315404
2016-06-15,-1,-0.004474310620235148,-0.00368180487904264,-0.005567512716620401,0.025872464729460753,0.9708094329381363
2016-06-17,-1,-0.003923825400527643,-0.003169375646526933,-0.005567512716620401,0.025872464729460753,0.9713216609197417
2016-06-21,-1,-0.004480407056082785,-0.003641640040946256,-0.005567512716620401,0.01889390716146519,0.97375764738825
2016-06-23,-1,-0.0032808632030042846,-0.002664066582249971,-0.0054223669108148615,0.025872464729460753,0.973509939854869
2016-06-27,-1,-0.01040136428517309,-0.00887919513843084,0.0068537162589738885,0.025872464729460753,0.975798522766728
2016-06-29,-1,-0.007514394699389906,-0.006371537312697144,0.0028521455987399573,0.015906157458287534,0.9786100530403805
2016-07-01,-1,-0.006212174098903699,-0.005256687264756,-0.0029376955218824536,0.015906157458287534,0.9800833835247202
2016-07-06,-1,-0.0076148136517617225,-0.0065197449712993075,-0.0029376955218824536,0.018649949369505706,0.9800106161337984
2016-07-08,-1,-0.004134643451843754,-0.0035492624432800894,-0.004336100896207215,0.015307810861151263,0.9841369091668749
2016-07-12,-1,-0.003532126869510537,-0.003019812024226766,-0.004336100896207215,0.013929042489673537,0.9848987486183937
2016-07-14,-1,-0.0032020100989541955,-0.002742581068534605,-0.0025758305491387183,0.013929042489673537,0.9851060822837991
2016-07-18,-1,-0.0025288529969074345,-0.002138796615999788,-0.004336100896207215,0.01538241808144308,0.9856240397555627
2016-07-20,-1,-0.002195958334997014,-0.0018632106734436816,-0.004336100896207215,0.01538241808144308,0.9865125900939598
2016-07-22,-1,-0.000743223579248985,-0.0006411574021856921,-0.0025758305491387183,0.010075284374756067,0.9880414086953716
2016-07-26,1,0.000580413153262479,0.0006781999090462779,-0.0025758305491387183,0.008432459356706454,0.9893303184199718
2016-07-28,-1,-0.0005001823795212426,-0.0004823204484122081,-0.004377725668398965,0.008432459356706454,0.9909749491058224
2016-08-01,-1,-0.00016233878316360828,-0.00015531696247735808,-0.004377725668398965,0.008432459356706454,0.9914963159444617
2016-08-03,1,0.0002479949426759883,0.0003616901952006006,-0.0036586225785444288,0.008432459356706454,0.9934233682474509
2016-08-05,1,0.0003977299556720951,0.0005081058063774937,-0.0019816323351692844,0.008432459356706454,0.9936917653646314
2016-08-09,1,0.0017719116746306343,0.002174092249667063,-0.0019816323351692844,0.009879737878130805,0.9932280778019708
2016-08-11,1,0.0020365649842011358,0.0024762996859348284,-0.005809278053244039,0.009879737878130805,0.9907313187962524
2016-08-15,1,0.0018952198982037267,0.0022611318538837202,-0.006679213145768088,0.009879737878130805,0.9894057596828562
2016-08-17,1,0.0018616859026076992,0.0022495762451263364,-0.00428319547351853,0.009879737878130805,0.9898574849841891
2016-08-19,1,0.002529515083525486,0.0030477309750706993,-0.006792371732010516,0.009879737878130805,0.9892567365554694
2016-08-23,1,0.0026825960852052463,0.0032138181720201674,-0.007984089191920611,0.009879737878130805,0.9885896516830321
2016-08-25,1,0.0010366814639445167,0.0012290488995052758,-0.006212714535733592,0.011005990946042633,0.9881819668995827
2016-08-29,1,0.0007082430895439419,0.0007968784110630755,-0.007984089191920611,0.010484585934122645,0.9878621396328785
2016-08-31,1,0.001351176179450242,0.0015640074836381296,-0.00887504283977658,0.00972874690827381,0.9872302106038465
2016-09-02,1,0.0028342325621864934,0.0033469305221530184,-0.00887504283977658,0.00972874690827381,0.9866454613871889
2016-09-07,1,0.0038400575621228912,0.004504447994787605,-0.00887504283977658,0.006041631077780654,0.9854467063859546
2016-09-09,1,0.002696999167892405,0.0032632964233104576,-0.00887504283977658,0.006041631077780654,0.9875585159364753
2016-09-13,1,0.003309323505997149,0.0039575043360332894,-0.00887504283977658,0.006041631077780654,0.9883946609008117
2016-09-15,1,0.00356202902100727,0.004242288449816127,-0.009658518236446026,0.005976290322228116,0.9866404033151639
2016-09-19,1,0.003237755571690726,0.0038829194242918346,-0.011215651598785365,0.005976290322228116,0.9869634901829782
2016-09-21,1,0.0019670050482435103,0.002333443775975401,-0.01424093528565001,0.009395565099426077,0.9855973634462096
2016-09-23,1,0.0026857557442722378,0.003141750937481424,-0.01424093528565001,0.005976290322228116,0.9865272162814658
2016-09-27,1,0.0013374510185256117,0.001519185342217708,-0.014672735615902256,0.009395565099426077,0.9860665239204264
2016-09-29,1,0.0011361691409533556,0.00128994712847331,-0.014672735615902256,0.0117631993789565,0.9866192132855486
2016-10-03,1,0.0018440485196332891,0.0020962959478433,-0.014672735615902256,0.007292364785625987,0.9874950345164146
2016-10-05,1,0.0022963083437254144,0.0025554894312720807,-0.014772149562158079,0.0054944031219689654,0.9876962032267779
2016-10-07,1,0.0019799262016403254,0.0022218650494317533,-0.014772149562158079,0.0054944031219689654,0.9878929857037361
2016-10-11,1,0.0012075014625293665,0.0012864552815584568,-0.014672735615902256,0.0054944031219689654,0.9875517186338046
2016-10-13,1,0.00037042669115523274,0.00039132393226682695,-0.014672735615902256,0.007567756285955263,0.9854366394223094
2016-10-17,1,0.0005769130421383387,0.0006380984372935469,-0.014800840494251042,0.007567756285955263,0.9849605024260328
2016-10-19,1,0.0012551796655094682,0.0014015122127891474,-0.014510028146890569,0.006173757754662026,0.9872376934023401
2016-10-21,1,0.0010611807732435927,0.0011800682397675771,-0.014510028146890569,0.00950685226034001,0.9860117631139035
2016-10-25,1,0.0011321223844759174,0.001261999686900316,-0.010874356361734507,0.00950685226034001,0.9865633917296315
2016-10-27,1,0.0020344568443013866,0.002337266836471224,-0.012411452111979358,0.008265659671098123,0.9862480932906121
2016-10-31,1,0.0020694227006665,0.0023668193185010958,-0.014656800082965434,0.008265659671098123,0.9846842614164647
2016-11-02,1,0.0003658071034977236,0.0003841083200522444,-0.010191526632770127,0.016540816911510815,0.983125575759918
2016-11-04,-1,-0.0002755710028025818,-0.00017689397966911738,-0.010191526632770127,0.027623875858655264,0.9811234023615605
2016-11-08,1,0.0011786992193311512,0.0013010065244208253,-0.010191526632770127,0.0334067348020898,0.9780506183836806
2016-11-10,1,0.0011238950801844925,0.0012277101017702783,-0.008515661556019537,0.027623875858655264,0.9812725547582932
2016-11-14,1,0.00035997755803764586,0.0003756748979231937,-0.008515661556019537,0.027623875858655264,0.9811524229035526
2016-11-16,-1,-0.0028721203121304445,-0.0022361305742671263,-0.010191526632770127,0.027623875858655264,0.9793320789009049
2016-11-18,-1,-0.0009020829373297153,-0.0005830459359714826,-0.010191526632770127,0.01836013068445031,0.9806989382885631
2016-11-22,-1,-0.0004727765610700425,-0.0002359343020742361,-0.009028026806101153,0.01824540939389628,0.9809401966314537
2016-11-25,-1,-0.0016683767439306695,-0.0012206036220505751,-0.010634823223898832,0.01824540939389628,0.9804453547983207
2016-11-29,-1,-0.0017048014436731444,-0.0013468511787400393,-0.010560813849480695,0.01824540939389628,0.9805043742430005
2016-12-01,1,0.000566351624537526,0.0006353231855114223,-0.010560813849480695,0.007650103092744288,0.984152204184221
2016-12-05,1,0.0010655188284572428,0.0010745431239621772,-0.002956952693289402,0.010309611313338974,0.9855584136440086
2016-12-07,1,0.004065089741505052,0.004478044091530282,-0.002956952693289402,0.007345428871886735,0.9906581385766492
2016-12-09,1,0.003789621246090455,0.004163024552458868,-0.007116754243827491,0.007345428871886735,0.9901381828185879
2016-12-13,1,0.003245681766379107,0.003574119838962772,-0.004133313747263995,0.007345428871886735,0.9905362669250729
2016-12-15,1,0.0026487343091199465,0.0029382431259697053,-0.004133313747263995,0.00783744199573247,0.9915206927613618
2016-12-19,1,0.002374687388112692,0.0025469641415628123,-0.004133313747263995,0.00783744199573247,0.9914950915797253
2016-12-21,1,0.0028462756521668207,0.003103321066555461,-0.00736737341801365,0.004989072126303798,0.9913292525911483
2016-12-23,1,0.0019356251247228471,0.002058243198325896,-0.004133313747263995,0.00839881237764471,0.9908558232810946
2016-12-28,1,0.0016668934197357345,0.001771315041021805,-0.00736737341801365,0.00783744199573247,0.9910541847964398
2016-12-30,1,0.0018121162575999582,0.0019496008227190235,-0.00736737341801365,0.00783744199573247,0.990950938561867
2017-01-04,1,0.0028137369644346934,0.0030889459114174485,-0.009103275910674873,0.005337917013874157,0.9913048937489616
2017-01-06,1,0.002817568407091686,0.0031021078346909065,-0.009103275910674873,0.0041948651065769815,0.9915706010782128
2017-01-10,1,0.002265864982116286,0.002455449249800121,-0.009884905940999236,0.005337917013874157,0.9913239542292339
2017-01-12,1,0.001810240052014414,0.001946844295421666,-0.009103275910674873,0.006930580997998208,0.9912917134565881
2017-01-17,1,0.0015698755700105805,0.0016766854473485465,-0.005317628850513517,0.005337917013874157,0.9919661110691976
2017-01-19,1,0.0012279588551906537,0.0012537097640776828,-0.009103275910674873,0.007237004763838706,0.9909401139323588
2017-01-23,1,0.0009629924508323136,0.0009673106541938247,-0.005389278949871391,0.009203057352925302,0.9900372859745735
2017-01-25,1,0.00218879450046307,0.0023579039783276365,-0.007590239867297258,0.006088460561970968,0.9918622680709612
2017-01-27,1,0.0017104125993622154,0.0018445065493275388,-0.004813283502720978,0.007237004763838706,0.9908685977748147
2017-01-31,1,0.0023873917135101026,0.0026523514682897254,-0.006347238341035752,0.009203057352925302,0.9901262305054693
2017-02-02,1,0.0011115927560493466,0.0011131813868738246,-0.004660577409492508,0.009203057352925302,0.9903873470524717
2017-02-06,1,0.0013658304016936616,0.0014276131116248848,-0.006347238341035752,0.009203057352925302,0.9890490007079075
2017-02-08,1,0.0013330787916769336,0.0013987574929783203,-0.006347238341035752,0.006967360157427761,0.9893203539264828
2017-02-10,1,0.0017413173361637197,0.0018292913219965707,-0.006347238341035752,0.006967360157427761,0.9895104110170702
2017-02-14,1,0.0012333357153660935,0.0012398263813068744,-0.006347238341035752,0.01215011385892984,0.9883351242306705
2017-02-16,1,0.0014199876945780949,0.0014757504583465559,-0.006873001921637093,0.01195709109106075,0.9880311919925272
2017-02-21,1,0.0018515186776935442,0.001929380705850093,-0.007525807694346314,0.006903019234804731,0.9869846681128334
2017-02-23,1,0.001503882089312931,0.001510833658121175,-0.007384565195836561,0.011134336995785057,0.986407607188568
2017-02-27,1,0.0018637721745078317,0.0019576678202322187,-0.006588359384001014,0.006903019234804731,0.9883718597716599
2017-03-01,1,0.0025425532534751,0.0027806533364342933,-0.006588359384001014,0.006903019234804731,0.9889230300467691
2017-03-03,1,0.002088238423979665,0.002223646560552169,-0.006588359384001014,0.006903019234804731,0.9889187334589563
2017-03-07,1,0.001033298183446446,0.001060441685649078,-0.007384565195836561,0.006903019234804731,0.9867784019319276
2017-03-09,1,0.00013255731215320828,0.0003221724572539409,-0.008414855262422612,0.006556154879739824,0.9867199974560497
2017-03-13,1,0.0006292988304612969,0.0007888284033404161,-0.008414855262422612,0.0023518032434728855,0.9877188571828391
2017-03-15,1,0.001989485841881677,0.0020375667484848897,-0.008414855262422612,0.0023518032434728855,0.9879260001362831
2017-03-17,1,0.0006233210036820137,0.000760974432332046,-0.008177293557623116,0.004878275258436662,0.9882116664744293
2017-03-21,-1,-0.001106591800587666,-0.0007655871587167144,-0.005359586617485209,0.007156433745844486,0.9893301119981153
2017-03-23,-1,-0.0006175602025688971,-0.0003506842391840943,-0.007027708026040477,0.007156433745844486,0.989166257139634
2017-03-27,-1,-0.0005712545754363434,-0.00032394687104294934,-0.007027708026040477,0.010068445370976167,0.9876568267804196
2017-03-29,-1,-0.0008583265665359086,-0.0005184446469785115,-0.007027708026040477,0.010068445370976167,0.9869717155831431
2017-03-31,-1,-0.0015677937489094263,-0.0011087084236862717,-0.007027708026040477,0.011527544706438735,0.9861751449135521
2017-04-04,-1,-0.003839531032967266,-0.003158705524896693,-0.0018357119856274896,0.011527544706438735,0.9864211706242807
2017-04-06,-1,-0.005086855401843005,-0.004230603883144595,0.0023927277746077728,0.011527544706438735,0.9849357419547407
2017-04-10,-1,-0.005845031978903677,-0.0048448151947420885,0.0029113858040603095,0.011527544706438735,0.9843218714519061
2017-04-12,-1,-0.0051916278657331075,-0.004278503293023275,0.001410618829815839,0.011527544706438735,0.98534869173283
2017-04-17,-1,-0.004273577510846189,-0.003532995723796629,0.001410618829815839,0.010095915291987981,0.9867903679995578
2017-04-19,-1,-0.0034437691557484876,-0.00279954121950021,-0.0032324873173780622,0.00965067412593785,0.9858693032016049
2017-04-21,-1,-0.003878733734194008,-0.0031684169652296916,0.0014826450342757627,0.009073024959567823,0.9860253258373815
2017-04-25,-1,-0.0036296853655129794,-0.002867627064636039,-0.0032324873173780622,0.008257500723479038,0.9863733108921788
2017-04-27,-1,-0.0009264892819175193,-0.0006045435515060753,-0.00506644740202869,0.007239331580240713,0.9878427636862165
2017-05-01,1,9.708739122544076e-06,0.00019592808843633806,-0.00506644740202869,0.008257500723479038,0.9866813345375605
2017-05-03,1,0.0006675055084646299,0.0007863232039657562,-0.0032324873173780622,0.009082181599905096,0.9867267643784233
2017-05-05,1,0.0014429642759409902,0.0016795527930411817,-0.0032324873173780622,0.0079094284123836,0.9876219319387608
2017-05-09,1,0.0010584487513429807,0.0011856021466262639,-0.005254341854336057,0.0079094284123836,0.987203812034765
2017-05-11,1,0.00026899687155927817,0.0003145933728009461,-0.0056156728152603995,0.009785428851689267,0.9856148418168187
2017-05-15,1,0.000601686795004181,0.000609100865912174,-0.0056156728152603995,0.012831133423164222,0.9852644573773204
2017-05-17,-1,-0.0010342644447006457,-0.0008871770195849962,-0.0056156728152603995,0.012831133423164222,0.9868534445053991
2017-05-19,-1,-0.001100540493693534,-0.0009025080085988286,-0.009924932685862885,0.012831133423164222,0.9845097994122058
2017-05-23,-1,-0.0009406394278646548,-0.0007408271267917471,-0.010230611348881148,0.009343815320099343,0.9852898330099107
2017-05-25,-1,-0.0013592994796783474,-0.0011136455867096326,-0.0056156728152603995,0.009363608291221555,0.9856372046837347
2017-05-30,1,0.0010250897538673274,0.0011329863022082325,-0.010230611348881148,0.008301307065811078,0.9862538492173617
2017-06-01,1,0.003054040881658194,0.0034490237636916484,-0.010230611348881148,0.007597847013969645,0.9883045558991459
2017-06-05,1,0.00282918467551022,0.0031728531839868906,-0.010230611348881148,0.009363608291221555,0.9867400608390351
2017-06-07,1,0.0017996186262122186,0.001958455892129145,-0.006755791337458265,0.009363608291221555,0.9871496394358023
2017-06-09,1,0.0009867694259143203,0.0010232858196156328,-0.0041495998546794265,0.016346899338590827,0.9867503311605369
2017-06-13,1,0.0017378280111433049,0.0018701846971251137,-0.0041495998546794265,0.011612854619464366,0.9875426339019766
2017-06-15,1,0.0009379715657066139,0.0009411469383871423,-0.0010358163173471633,0.013828037523273124,0.9874921554371728
2017-06-19,1,8.148659218414144e-05,8.911245207403338e-05,-0.000702998146234714,0.013828037523273124,0.9901128102344374
2017-06-21,-1,-0.0008077432161022011,-0.0006510033841971195,-0.000702998146234714,0.013828037523273124,0.989826070752138
2017-06-23,-1,-0.0003897991227711156,-0.00030262181509502716,-0.001690612353372472,0.013828037523273124,0.9889417431871604
2017-06-27,-1,-0.0007793798540234557,-0.0006281626319289471,-0.000702998146234714,0.014541291484083948,0.9892871690261174
2017-06-29,-1,-0.0005567371898833409,-0.00043619557461499784,-0.0012333221976541999,0.020131935287628112,0.9882714954904166
2017-07-03,1,0.0011620927793399188,0.0012425911778475127,-0.003760092218427945,0.01248918609262192,0.9894720021011209
2017-07-06,1,0.001524969947258073,0.001714567180323488,-0.003831014314424123,0.01248918609262192,0.9891898776280083
2017-07-10,1,0.003131004718833981,0.003524646828429016,-0.0040051087312660055,0.01057172104320243,0.9899287944834944
2017-07-12,1,0.0034587736407317737,0.0038859953034941753,-0.00480184331245988,0.010665746641407224,0.9892924303942018
2017-07-14,1,0.004495530087029011,0.005123098398834909,-0.006729806258013159,0.007763627570485375,0.987157475783283
2017-07-18,1,0.004231946698753927,0.00481484194683433,-0.006729806258013159,0.010435559180971207,0.9873150712741287
2017-07-20,1,0.004181360560781934,0.004740806084187526,-0.006729806258013159,0.007763627570485375,0.987271354417941
2017-07-24,1,0.003152416198069376,0.003611843327455849,-0.005900989145982525,0.007763627570485375,0.9890549244260958
2017-07-26,1,0.003959377259670458,0.004519946767043833,-0.005900989145982525,0.006956270832165061,0.9894751503549507
2017-07-28,1,0.004068515409708214,0.004569601518870711,-0.0065523245323613356,0.006473006264353405,0.9897319430234057
2017-08-01,1,0.002965836750112755,0.0033094275179809136,-0.005900989145982525,0.006473006264353405,0.9914934991033233
2017-08-03,1,0.003486246003152617,0.003946883498341241,-0.005522052782789775,0.007520809715729899,0.9900881541227166
2017-08-07,1,0.004478112889729964,0.005137424366567504,-0.0065523245323613356,0.006473006264353405,0.9899048648043649
2017-08-09,1,0.003876211355357495,0.004393260196640634,-0.006370436219810342,0.006473006264353405,0.9901409682546457
2017-08-11,1,0.001348133396809354,0.0014256376060829898,-0.0051855158047367155,0.007520809715729899,0.9916967236110882
2017-08-15,1,0.0018840391225747695,0.0020464370366300986,-0.0051855158047367155,0.007520809715729899,0.9918739939031975
2017-08-17,1,0.0012242412536047167,0.001290220094287804,-0.004437187880023485,0.01004430969899362,0.9915270093936812
2017-08-21,1,0.001480893607355029,0.0016218882630887907,-0.0022912442680885397,0.01004430969899362,0.9917899846664997
2017-08-23,1,0.001456947698412051,0.0015845667375714318,0.001012818775030573,0.01004430969899362,0.9919983566716385
2017-08-25,-1,-0.0009936058552447496,-0.000664390962690883,0.002462619272863606,0.01031555758336471,0.9904269650388886
2017-08-29,-1,-0.0015108266223263134,-0.0010788102809390055,0.002426294467418206,0.01031555758336471,0.9898074362885855
2017-08-31,1,8.377306462132813e-05,0.000336869593634536,0.001012818775030573,0.01031555758336471,0.9917859518909398
2017-09-05,0,-0.00012455027626556616,0.00013436705410629565,0.0012267107312537503,0.011085843295286819,0.992056875438682
2017-09-07,0,-0.0001866200295106336,8.06646606975644e-05,0.0012267107312537503,0.011963598413234551,0.9919108340055929
2017-09-11,1,0.0009601209937203667,0.0010511926326405327,-0.0009852921877976104,0.011085843295286819,0.99293601643196
2017-09-13,1,0.0012515167474742477,0.001326019368323046,-0.0009852921877976104,0.01031555758336471,0.9934815256294545
2017-09-15,1,0.0026358248712554646,0.0028035640922134866,-0.002062468273967953,0.007754998310322423,0.9934303907957642
2017-09-19,1,0.0033322144429214708,0.0036579789375549994,-0.002998621133949936,0.008355032484688975,0.9927851804367668
2017-09-21,1,0.0038124123628691378,0.004227629443103816,-0.003439147153910486,0.008298036456184316,0.992351138004547
2017-09-25,1,0.0033007270943789745,0.0035515092055784,-0.003439147153910486,0.00697615423686,0.9926155808550063
2017-09-27,1,0.0033398045684201183,0.00362615762091568,-0.003439147153910486,0.008307801997099682,0.9917317292751958
2017-09-29,1,0.0037792107944492194,0.004122346747081581,-0.0043597091560857865,0.008307801997099682,0.9906180534295291
2017-10-03,1,0.0038655464500054605,0.00420760223273783,-0.0067262536512066005,0.006502367368912887,0.9904656717719829
2017-10-05,1,0.00387832673768366,0.00422142718068943,-0.0043597091560857865,0.004667866766151584,0.9911863733509751
2017-10-09,1,0.002560096801116858,0.0026172128297723457,-0.006294929704291257,0.004667866766151584,0.99131641991228
2017-10-11,1,0.0024944006578041774,0.002556763324871034,-0.006294929704291257,0.004667866766151584,0.9909012051777676
2017-10-13,1,0.0018468157010739158,0.0018561126724559614,-0.004976916465897431,0.004421047384301015,0.9919447621241695
2017-10-17,1,0.001987356371318954,0.0020049247852821023,-0.004976916465897431,0.0031101755126493897,0.992851909475443
2017-10-19,1,0.002549569450464126,0.002690735943619736,-0.004976916465897431,0.0031101755126493897,0.9926177162406304
2017-10-23,1,0.003360857438848014,0.0037061237610775738,-0.004976916465897431,0.004421047384301015,0.9920714505710574
2017-10-25,1,0.0028383632132579165,0.0031018681132453626,-0.004145574095988842,0.004851452261114395,0.9936578755905305
2017-10-27,1,0.0032352860705636174,0.0035144642995118477,-0.002443154238394889,0.003985901589842194,0.9954512546863215
2017-10-31,1,0.0025483118725880315,0.0026956020067087226,-0.0017737641230842398,0.004851452261114395,0.9949860312225742
2017-11-02,1,0.0028483831864288558,0.0030733101811116098,-0.002443154238394889,0.0060395271264572165,0.9938302280633887
2017-11-06,1,0.002198307566747571,0.0023022215176057405,-0.002443154238394889,0.0060395271264572165,0.9935577488737516
2017-11-08,1,0.0006405033787698039,0.0008157333602822138,-0.0017737641230842398,0.0071978972306605445,0.9924433203408194
2017-11-10,1,9.563099533834829e-05,0.00035977546468010234,-0.002371277399971352,0.0071978972306605445,0.992314681243664
2017-11-14,0,-9.765477896238556e-05,0.00019013551688271135,-0.004662612519045949,0.0071978972306605445,0.991224360482006
2017-11-16,-1,-0.0004513978889483601,-0.00010470400074977335,-0.00579840646800054,0.006271468315598383,0.9911958407489551
2017-11-20,-1,-0.0004468639054433575,-0.00010169120857706935,-0.00579840646800054,0.00692282944602739,0.9910035666472548
