JNU-Tangyin/eata/results/Batch4_SP500/Batch4_SP500-TROW.csv
Date,Action,Predicted_Q25,Predicted_Q75,Actual_Q25,Actual_Q75,RL_Reward
2010-12-14,0,0.0,0.0,-0.002307487091703382,0.008984059127787568,0.9909846984931192
2010-12-16,0,0.0,0.0,-0.0013517923890163598,0.013858214252592354,0.9902926124163799
2010-12-20,0,0.0,0.0,-0.005880468134961892,0.013858214252592354,0.9894099705958198
2010-12-22,0,0.0,0.0,-0.006255559872928232,0.007923249007769417,0.9901997896095269
2010-12-27,1,0.004455205517771372,0.004959347948494228,-0.005532200135387553,0.007923249007769417,0.9915099345540076
2010-12-29,0,0.0,0.0,0.001160522680244306,0.009983106163931811,0.9904675343537226
2010-12-31,0,0.0,0.0,-0.0014768229683384732,0.009983106163931811,0.9892993805628295
2011-01-04,0,0.0,0.0,-0.0014768229683384732,0.009983106163931811,0.9898958050135404
2011-01-06,0,0.0,0.0,-0.005933753318237304,0.007923249007769417,0.9902424201760921
2011-01-10,0,0.0,0.0,-0.0019305538424960467,0.009983106163931811,0.9898516127345589
2011-01-12,0,0.0,0.0,-0.002815143562190123,0.009983106163931811,0.9904936711610974
2011-01-14,1,0.009077796979752405,0.01000607561910873,-0.002815143562190123,0.009983106163931811,0.9897071166553629
2011-01-19,0,0.0,0.0,-0.0018071508520392987,0.01203586130602838,0.9908299150837605
2011-01-21,0,0.0,0.0,-0.0018071508520392987,0.01203586130602838,0.9909347826145446
2011-01-25,0,0.0,0.0,-0.0032056113840361203,0.01203586130602838,0.9879745311166618
2011-01-27,1,0.0019315334075907296,0.001967582599266291,-0.0032056113840361203,0.012618175474178739,0.9882412746362862
2011-01-31,0,0.0,0.0,-0.0032056113840361203,0.012618175474178739,0.9885901932545887
2011-02-02,1,0.0008362571985415993,0.0010206797396897036,-0.002131797775626461,0.012618175474178739,0.9885234301033452
2011-02-04,1,0.000802555777051146,0.0009640269280439131,-0.004699013545468619,0.012618175474178739,0.9876143084823967
2011-02-08,1,0.0009684926222177186,0.0011283432215133675,-0.012243552947375436,0.012618175474178739,0.9865174431665015
2011-02-10,1,0.0015791496563819687,0.0016345306643520722,-0.013052871522612714,0.011303258362537209,0.9852374993195256
2011-02-14,1,0.0012661299950204393,0.0014174132962702993,-0.017037338439060887,0.006697988336127242,0.9838443461194886
2011-02-16,1,0.0017258155889200292,0.0017927534370984475,-0.018779422892060305,0.006697988336127242,0.9828794738384208
2011-02-18,1,0.0015541500706065677,0.001660015091605778,-0.018779422892060305,0.0070529085354424925,0.9824258779683575
2011-02-23,-1,-0.0009023241855976687,-0.0005012073924705073,-0.013855862881629103,0.011778339299547623,0.9851111237798915
2011-02-25,0,0.0,0.0,-0.013855862881629103,0.011587846863172041,0.9845513622629021
2011-03-01,0,0.0,0.0,-0.013052871522612714,0.011587846863172041,0.984798637881824
2011-03-03,0,0.0,0.0,-0.013052871522612714,0.011587846863172041,0.9855521162387727
2011-03-07,0,0.0,0.0,-0.010947874611058424,0.012617396743672097,0.9852766101000685
2011-03-09,0,0.0,0.0,-0.009928491862968073,0.011587846863172041,0.9866854190783382
2011-03-11,-1,-0.0012605609388537224,-0.0010515648243976338,-0.008866332151781524,0.011587846863172041,0.9883212165364654
2011-03-15,-1,-0.003939523020512566,-0.003201591389132341,-0.008215351547957366,0.011587846863172041,0.9887483741391351
2011-03-17,-1,-0.003268477790523943,-0.002655294829720235,-0.007840513385835978,0.011509419635050908,0.9899671520193624
2011-03-21,-1,-0.0025993658509220227,-0.0020535325461038616,-0.008215351547957366,0.009499228355491461,0.9904551680152944
2011-03-23,0,0.0,0.0,-0.007840513385835978,0.00855673664092674,0.9913303447015205
2011-03-25,0,0.0,0.0,-0.008866332151781524,0.007175314538175338,0.9900506813616863
2011-03-29,0,0.0,0.0,-0.008215351547957366,0.007175314538175338,0.9898397099439606
2011-03-31,1,0.00023976111077050793,0.00025349240003821926,-0.008215351547957366,0.006310337455124264,0.9902377899057534
2011-04-04,0,0.0,0.0,-0.008977034533516988,0.005765743933672712,0.9907940725439821
2011-04-06,0,0.0,0.0,-0.008977034533516988,0.005156317828679976,0.9908326429095831
2011-04-08,0,0.0,0.0,-0.008977034533516988,0.005156317828679976,0.9907575840971032
2011-04-12,0,0.0,0.0,-0.008818060226969545,0.005765743933672712,0.9903541420861018
2011-04-14,0,0.0,0.0,-0.012118257324569701,0.005765743933672712,0.990056777133068
2011-04-18,0,0.0,0.0,-0.007298426942297799,0.00516646457326843,0.991020805007155
2011-04-20,-1,-0.0008682003926828079,-0.000544429552829471,-0.007298426942297799,0.006397931816062496,0.9905602133597016
2011-04-25,-1,-0.0024841174492247816,-0.001970595189771489,-0.0074004477537388215,0.006397931816062496,0.9916843656012612
2011-04-27,0,0.0,0.0,-0.0074004477537388215,0.0047646728266940545,0.9921634028139616
2011-04-29,0,0.0,0.0,-0.006958241391723435,0.00504572493718486,0.9924342883085345
2011-05-03,0,0.0,0.0,-0.006809459574416484,0.005641302344742236,0.989791732635015
2011-05-05,-1,-0.0021240823856416196,-0.001799012673385605,-0.0125349340789929,0.006692122730917375,0.9888417689328509
2011-05-09,-1,-0.0021158475261655076,-0.001786016875948043,-0.01354453336210116,0.0071856200324166225,0.9880389149023582
2011-05-11,-1,-0.0023740513494807615,-0.0020108277670242147,-0.01354453336210116,0.0071856200324166225,0.987311662799353
2011-05-13,-1,-0.002201762046554323,-0.0018773562811046783,-0.01560589651964751,0.006692122730917375,0.987257201220674
2011-05-17,-1,-0.001494471002594277,-0.0013013724140555493,-0.01571031824744937,0.0071856200324166225,0.9857779459973365
2011-05-19,-1,-0.0009384217333432072,-0.0007965626892601294,-0.01571031824744937,0.006766478989310801,0.9865212440648158
2011-05-23,-1,-0.001993059200630037,-0.0017104287921214068,-0.01571031824744937,0.007703143239974857,0.9862066084615455
2011-05-25,0,0.0,0.0,-0.016631585644390313,0.007703143239974857,0.9855300418427261
2011-05-27,0,0.0,0.0,-0.016631585644390313,0.00925417206028839,0.9842913349602106
2011-06-01,-1,-0.004521870542060539,-0.0039738198900070455,-0.01571031824744937,0.013294569022490377,0.9860161192615938
2011-06-03,-1,-0.0031771934867635076,-0.002785895006889687,-0.011432218242407685,0.015522654212164764,0.9855659624447469
2011-06-07,-1,-0.0028118564045339148,-0.002508685045319842,-0.00836297620890862,0.015522654212164764,0.9863780723015936
2011-06-09,-1,-0.0024920924407958117,-0.0022531614601040855,-0.00836297620890862,0.014380820824645679,0.9870182244073037
2011-06-13,-1,-0.003556592074504654,-0.003162326320984118,-0.00836297620890862,0.014380820824645679,0.9859059471049256
2011-06-15,-1,-0.003407953232113416,-0.003040219483354361,-0.007812910421052168,0.013176025769726101,0.9872915113824321
2011-06-17,-1,-0.0027926829244673997,-0.0025136213883362743,-0.00836297620890862,0.013176025769726101,0.9873450848692248
2011-06-21,-1,-0.0015148323659629256,-0.0014153753361125971,-0.009184906808676951,0.013176025769726101,0.9875426690967763
2011-06-23,-1,-0.0028228945510814004,-0.0025289189420223583,-0.008086887287641613,0.014380820824645679,0.9862609660502296
2011-06-27,0,0.0,0.0,-0.006304245555198705,0.013176025769726101,0.9878785317745757
2011-06-29,-1,-0.0022016757610929818,-0.0021583714442779626,-0.008086887287641613,0.008630501027496743,0.9852860456352384
2011-07-01,0,0.0,0.0,-0.008086887287641613,0.004566980239769905,0.9864755846929424
2011-07-06,-1,-0.0008008670013536088,-0.0008001477991598429,-0.010567493081028341,0.007150575138459743,0.9849013596981034
2011-07-08,-1,-0.0005460251597748658,-0.000491846300634507,-0.013448724773736868,0.004290774511116,0.9830368118511259
2011-07-12,0,0.0,0.0,-0.013448724773736868,0.007150575138459743,0.9762057249807847
2011-07-14,0,0.0,0.0,-0.0219092679730487,0.007991474030160053,0.9714620220726623
2011-07-18,0,0.0,0.0,-0.018345515845702265,0.010915257472177396,0.9708599147219196
2011-07-20,0,0.0,0.0,-0.018581957457302165,0.007991474030160053,0.9712790251564138
2011-07-22,0,0.0,0.0,-0.037875168834114584,0.007150575138459743,0.9690959952488013
2011-07-26,0,0.0,0.0,-0.037875168834114584,0.008708915313490334,0.9664873661920839
2011-07-28,-1,-0.0015265151776917858,-0.0014305855567315784,-0.02130542450021219,0.012075144545111324,0.968627928037778
2011-08-01,-1,-0.0010611015847214551,-0.0010436131699463813,-0.02130542450021219,0.020746801984956948,0.9655392099420304
2011-08-03,0,0.0,0.0,-0.015154989912808633,0.020746801984956948,0.9667423124871548
2011-08-05,0,0.0,0.0,-0.019485877347435634,0.020746801984956948,0.9670723763087921
2011-08-09,0,0.0,0.0,-0.01627941785158573,0.020746801984956948,0.9727815160242484
2011-08-11,0,0.0,0.0,-0.01873315179869294,0.019231740088135288,0.9759677988886841
2011-08-15,-1,-0.0022361418143069366,-0.0020430244670153353,-0.01873315179869294,0.01354714662090649,0.9768785664536811
2011-08-17,0,0.0,0.0,-0.01873315179869294,0.020746801984956948,0.9750656520219018
2011-08-19,0,0.0,0.0,-0.01873315179869294,0.020746801984956948,0.9779225780447535
2011-08-23,-1,-0.0031638837227833255,-0.00294874473237411,-0.021511992274340187,0.014042172289544966,0.9784095135439265
2011-08-25,-1,-0.002681919187361044,-0.0025568801720568,-0.022694229716531664,0.011816311193365535,0.9784375151872521
2011-08-29,0,0.0,0.0,-0.022694229716531664,0.011816311193365535,0.9791424011458261
2011-08-31,0,0.0,0.0,-0.022694229716531664,0.015655699932654536,0.9774034295747872
2011-09-02,0,0.0,0.0,-0.024018664683114015,0.015655699932654536,0.9766795436005679
2011-09-07,0,0.0,0.0,-0.024018664683114015,0.015655699932654536,0.9763812676595682
2011-09-09,-1,-0.001711112418081855,-0.0016831870264536705,-0.02734194745465287,0.025823802235313876,0.9756754723363077
2011-09-13,-1,-0.0007435029778584466,-0.000625967523372795,-0.02734194745465287,0.02660474993645942,0.9741296888549493
2011-09-15,1,0.00016808635520574065,0.0003389873377029261,-0.02734194745465287,0.02660474993645942,0.9740359488534878
2011-09-19,0,-0.00013604657982054262,4.4143855990505434e-05,-0.02847911992776638,0.02660474993645942,0.9727578563277968
2011-09-21,-1,-0.001681306820811636,-0.0016436489451116115,-0.024027249086853178,0.028047281245908027,0.9718706145518248
2011-09-23,-1,-0.002836952654957962,-0.002643798414984868,-0.022305293044162487,0.030003062325891845,0.9712747075828432
2011-09-27,-1,-0.0010994638787999655,-0.0010963395950325122,-0.024027249086853178,0.029058644258746266,0.9692328467656601
2011-09-29,-1,-0.0004981413308986946,-0.00043212218274474784,-0.024027249086853178,0.03463008917298875,0.9668913522561758
2011-10-03,-1,-0.002495916046979047,-0.0023098194503712818,-0.021643498349292297,0.03463008917298875,0.9668407455481527
2011-10-05,-1,-0.0006227942600210059,-0.0005827188228791664,-0.024027249086853178,0.031375708038156425,0.966190923926752
2011-10-07,-1,-0.000662361445680959,-0.0006131857182047799,-0.021643498349292297,0.03229685765297153,0.9671883801966237
2011-10-11,1,0.0009442798716288205,0.001236792272301208,-0.021643498349292297,0.03112894346767808,0.9686602044449983
2011-10-13,1,0.001016913237568674,0.001280656748642203,-0.025919065204721054,0.02638124520599385,0.9680145528655333
2011-10-17,1,0.0007159696563990668,0.0009476442651345149,-0.009357993625224083,0.03112894346767808,0.9686695650109601
2011-10-19,1,0.0011850366803501315,0.0014834585755849707,-0.009275410932563847,0.02638124520599385,0.9703642096139257
2011-10-21,0,0.0,0.0,-0.019036131183098798,0.021673685844592543,0.97117423583082
2011-10-25,0,0.0,0.0,-0.019036131183098798,0.01687291454625048,0.9749148861438012
2011-10-27,0,0.0,0.0,-0.02303744495385878,0.00976813505626321,0.9781437225326232
2011-10-31,0,0.0,0.0,-0.019036131183098798,0.01687291454625048,0.9780530711344293
2011-11-02,1,0.00014893262554447893,0.00023035854302329425,-0.008684778741589946,0.01687291454625048,0.9791232875579732
2011-11-04,1,0.000969502227296197,0.0011551645246067053,-0.008684778741589946,0.01471268970555539,0.9796541879535066
2011-11-08,1,0.0018242178334407619,0.002137128905819495,-0.008684778741589946,0.01471268970555539,0.9796463583869529
2011-11-10,1,0.0012758337315437952,0.001548564662120942,-0.008684778741589946,0.016450218259787416,0.9801529145229192
2011-11-14,1,0.0018029611679405023,0.00211402632995921,-0.02171659290423552,0.010717184448295076,0.9795850653729292
2011-11-16,0,0.0,0.0,-0.018660473237222704,0.010717184448295076,0.9802118122814372
2011-11-18,0,0.0,0.0,-0.01760123952478679,0.010717184448295076,0.9803035245309627
2011-11-22,1,0.0008861959821081915,0.001144984860572853,-0.012378994050313466,0.016450218259787416,0.9793652313711023
2011-11-25,1,0.00039969086159543624,0.0005985510243185716,-0.0051418310335486755,0.016450218259787416,0.9801498240105327
2011-11-29,1,0.0019439016245604145,0.0023460737118627633,-0.012378994050313466,0.012775218414752081,0.9826049297892583
2011-12-01,1,0.0028391376506260264,0.0033116727994662414,-0.012378994050313466,0.012775218414752081,0.984665970838472
2011-12-05,1,0.0031808823043169713,0.003692854995670432,-0.012378994050313466,0.011331833183180866,0.9848906865640418
2011-12-07,0,0.0,0.0,-0.012378994050313466,0.011331833183180866,0.9854932537926987
2011-12-09,0,0.0,0.0,-0.009278494571177161,0.011331833183180866,0.9859851828722728
2011-12-13,0,0.0,0.0,-0.007532560859830145,0.011331833183180866,0.9875741772154034
2011-12-15,0,0.0,0.0,-0.006461023277688013,0.011331833183180866,0.9879205560219045
2011-12-19,1,0.0005736869886526381,0.0008801457357704923,-0.005625814200166818,0.012233156496814421,0.9878626852589473
2011-12-21,0,0.0,0.0,-0.005625814200166818,0.011331833183180866,0.9900742475541014
2011-12-23,0,0.0,0.0,-0.005625814200166818,0.00826040371559798,0.9902280387576332
2011-12-28,0,0.0,0.0,-0.005625814200166818,0.00826040371559798,0.9902244257228767
2011-12-30,0,0.0,0.0,-0.006433720405528298,0.007220965576464765,0.9898751081046323
2012-01-04,0,0.0,0.0,-0.007450652243350999,0.007220965576464765,0.9892154735465452
2012-01-06,0,0.0,0.0,-0.008791616506871106,0.006303522772956876,0.9885859889551142
2012-01-10,1,0.0018728717505031628,0.0020491345760089404,-0.0075555317465404795,0.00551292081473136,0.990347279666469
2012-01-12,1,0.00031065458857125423,0.00043889530757871745,-0.006923382101569096,0.006303522772956876,0.9904251738501668
2012-01-17,1,0.0008699755764313038,0.0009206898774220093,-0.006923382101569096,0.008822288440315854,0.9900758039546694
2012-01-19,1,0.0008055233950599058,0.0008279502154476324,-0.006923382101569096,0.008822288440315854,0.9893581071291065
2012-01-23,1,0.002065680167780112,0.0023302779920517606,-0.0075555317465404795,0.011688608623437395,0.9879945808627781
2012-01-25,1,0.002222511520713781,0.0025003360403626756,-0.009083711643491086,0.011688608623437395,0.9876749775456698
2012-01-27,1,0.000772268408928851,0.0007875782105309489,-0.007879752906153949,0.011688608623437395,0.9883170369574197
2012-01-31,1,0.0006567867452383113,0.000694469108228854,-0.007033960640656748,0.011688608623437395,0.9897453075692592
2012-02-02,-1,-0.0003267612088175313,-0.00017986498254183263,-0.007033960640656748,0.010687679414278796,0.9901148410867946
2012-02-06,1,0.0005411580153807398,0.0005586862197309475,-0.007516629031714147,0.006931874560352887,0.9905039061801981
2012-02-08,1,0.001004184644468567,0.0011102863479685002,-0.007516629031714147,0.011640604671275477,0.9893874581457883
2012-02-10,1,0.000828398028878935,0.0008595682494103047,-0.007986825562522193,0.011640604671275477,0.9891238589900232
2012-02-14,-1,-0.0013966582433840452,-0.0008622098818028719,-0.007986825562522193,0.011640604671275477,0.9886170264641292
2012-02-16,0,-0.00025620168427698507,0.00011532167147965469,-0.007986825562522193,0.011640604671275477,0.9898143342545616
2012-02-21,-1,-0.0008863106668737144,-0.0004929659104474526,-0.007516629031714147,0.011238624600311546,0.9910634893641437
2012-02-23,0,-0.00031256437351352,2.9518246199584236e-06,-0.007516629031714147,0.011238624600311546,0.9913902936113035
2012-02-27,-1,-0.0007706357618079805,-0.0004788801929500692,-0.0044553832776326584,0.013694989158651992,0.9909988499764149
2012-02-29,1,0.000209014389147586,0.00031608013569803955,-0.005378718841358799,0.013694989158651992,0.9908771889976457
2012-03-02,1,9.688990520728599e-05,0.00021586526942367291,-0.004984653407581197,0.01500166935411985,0.9906612961903561
2012-03-06,0,0.0,0.0,-0.0032728856445039,0.01500166935411985,0.9914996085044947
2012-03-08,0,0.0,0.0,-0.003707055662058128,0.008204227953949896,0.9918962243665623
2012-03-12,-1,-0.0011635699245674473,-0.0008091767203063678,-0.004984653407581197,0.005444101826017638,0.9911501770333886
2012-03-14,0,0.0,0.0,-0.004984653407581197,0.005444101826017638,0.991315163333103
2012-03-16,0,0.0,0.0,-0.006667690583736865,0.0028883248877388176,0.991195248235317
2012-03-20,0,0.0,0.0,-0.010439460375729567,0.005444101826017638,0.9895400797857575
2012-03-22,0,0.0,0.0,-0.012210973491458312,0.005444101826017638,0.9893369398900843
2012-03-26,0,0.0,0.0,-0.014587764082274732,0.005444101826017638,0.9887056357712258
2012-03-28,1,0.001112147676930538,0.001141880197752596,-0.014587764082274732,0.008331156646671655,0.9879650831199591
2012-03-30,1,0.0017311349533025728,0.0018846098006795437,-0.014587764082274732,0.005444101826017638,0.9888452027786632
2012-04-03,1,0.0022008288610707557,0.0024547294634249565,-0.014587764082274732,0.003928598924274043,0.9881471443709468
2012-04-05,1,0.0014794499892224994,0.001575060666310441,-0.014587764082274732,0.0024418598609079853,0.9878476774872964
2012-04-10,1,0.0007934195385004274,0.0008533584577087691,-0.011180377025187552,0.0024418598609079853,0.9899828787446879
2012-04-12,0,0.0,0.0,-0.011180377025187552,0.002157294035640504,0.9909089692197924
2012-04-16,0,0.0,0.0,-0.010828104226462291,0.0026284364216407666,0.9910700881033722
2012-04-18,0,0.0,0.0,-0.010684526131509374,0.0020432549286032264,0.9926623050485575
2012-04-20,0,0.0,0.0,-0.01111802128798,-0.0004226282762406987,0.9913872725768074
2012-04-24,0,0.0,0.0,-0.010684526131509374,-5.8955615468843825e-05,0.991704781512622
2012-04-26,0,0.0,0.0,-0.010684526131509374,-0.0012235703468547418,0.9920280210464125
2012-04-30,0,0.0,0.0004997419658327903,-0.01111802128798,-5.8955615468843825e-05,0.9906068968578827
2012-05-02,0,0.0,0.0,-0.012783071172187887,0.0028041177897053893,0.9902284270793044
2012-05-04,0,-4.580486295058543e-05,0.00016396591816591772,-0.011728171401210142,0.0028041177897053893,0.9896948314286127
2012-05-08,-1,-0.0018698217238965842,-0.001519170138645467,-0.011728171401210142,0.004841647640179818,0.9880231749185
2012-05-10,-1,-0.0024532847868096825,-0.001998259351992447,-0.011728171401210142,0.008263890084178223,0.9872086727373914
2012-05-14,-1,-0.0029524671868864857,-0.0024204148414368977,-0.012291370137824298,0.009031893816375034,0.9866782677729505
2012-05-16,-1,-0.0022840626159653004,-0.0019015515462783897,-0.012291370137824298,0.011153485036446411,0.9857078207402431
2012-05-18,-1,-0.0031907339965618654,-0.0027245058271782177,-0.0055889158411428505,0.014372547752612558,0.9861425718259279
2012-05-22,-1,-0.002937636891729948,-0.0024706872862457034,-0.0055889158411428505,0.014372547752612558,0.986300680596692
2012-05-24,-1,-0.002832514066707592,-0.0023914103448369225,-0.006286084497449846,0.01725556250125349,0.9842192092786065
2012-05-29,-1,-0.0024958870699271665,-0.002109060677394766,-0.006286084497449846,0.014372547752612558,0.9846420351953943
2012-05-31,-1,-0.002423683142567854,-0.0020775314571353405,-0.00299646972219481,0.015858940153809516,0.9845981687755975
2012-06-04,0,0.0,0.0,0.0002169751049204509,0.01725556250125349,0.9855098413550988
2012-06-06,0,0.0,0.0,-0.00299646972219481,0.015858940153809516,0.987073590527607
2012-06-08,0,0.0,0.0,-0.005840522686156686,0.015858940153809516,0.9874668142003946
2012-06-12,0,0.0,0.0,-0.005840522686156686,0.015858940153809516,0.9870623298058867
2012-06-14,0,0.0,0.0,-0.009296242846700976,0.015858940153809516,0.9858170903336412
2012-06-18,0,0.0,0.0,-0.00998170958919255,0.011434565667344201,0.9858663592694902
2012-06-20,0,0.0,0.0,-0.00998170958919255,0.011088096108640415,0.9859677166761831
2012-06-22,0,0.0,0.0,-0.00998170958919255,0.006694174018192061,0.9876644733491968
2012-06-26,0,0.0,0.0,-0.00998170958919255,0.005317232000514534,0.9872857774452874
2012-06-28,0,0.0,0.0,-0.00998170958919255,0.010891317607637965,0.9862335666048339
2012-07-02,0,0.0,0.0,-0.012060143543758253,0.009128967306839299,0.9868196312702253
2012-07-05,0,0.0,0.0,-0.015432008180295076,0.009128967306839299,0.9861150937238224
2012-07-09,0,0.0,0.0,-0.015432008180295076,0.010891317607637965,0.9851365262929936
2012-07-11,0,0.0,0.0,-0.014326618600653469,0.013423822135911413,0.9852665887328441
2012-07-13,1,0.00022176857881343778,0.0002624058365938763,-0.014326618600653469,0.009907542649262965,0.9873725482317826
2012-07-17,1,6.8236273872919686e-06,1.6824660463539867e-05,-0.010688508018535771,0.009907542649262965,0.9881700817777161
2012-07-19,1,0.00013861812893145822,0.00016234509102675053,-0.010688508018535771,0.010311509059945843,0.9877549068062157
2012-07-23,0,0.0,0.0,-0.007786036713390344,0.010311509059945843,0.9885558972631424
2012-07-25,0,0.0,0.0,-0.004474315860922712,0.010311509059945843,0.9901219577538614
2012-07-27,1,0.00024300803255091836,0.0002541325214087278,-0.005418140301297844,0.008935697790941926,0.9907216825949242
2012-07-31,0,0.0,0.0,-0.005418140301297844,0.005296437315052969,0.9911584837335466
2012-08-02,0,0.0,0.0,-0.004474315860922712,0.005296437315052969,0.9919470286667078
2012-08-06,0,0.0,0.0,-0.004474315860922712,0.00519948946147028,0.9929873436517053
2012-08-08,0,0.0,0.0,-0.004474315860922712,0.00519948946147028,0.9923713463789654
2012-08-10,0,0.0,0.0,-0.004474315860922712,0.004662807684773484,0.9924363291875943
2012-08-14,0,0.0,0.0,-0.004474315860922712,0.005805423863291107,0.9922073980058904
2012-08-16,0,0.0,0.0,-0.004474315860922712,0.005805423863291107,0.99162802644528
2012-08-20,0,0.0,0.0,-0.00815994341570613,0.005805423863291107,0.9911154435875462
2012-08-22,1,0.0015008983742829337,0.001794543852853657,-0.00815994341570613,0.005805423863291107,0.9910700307086621
2012-08-24,1,0.0019456217434856398,0.002303261669683895,-0.005065650217969139,0.003613991376772504,0.9918201254653494
2012-08-28,1,0.0014043117159975036,0.0016753634832711172,-0.006563679324809843,0.002492682566184736,0.9914808905702532
2012-08-30,1,0.0005763145103673175,0.0006649966459742898,-0.0045385247217488,0.005805423863291107,0.9917909648481542
2012-09-04,1,0.001153980688294877,0.0013613585478958684,-0.006563679324809843,0.002492682566184736,0.9914548166115768
2012-09-06,1,0.0016330748253251491,0.001875024374131532,-0.0045385247217488,0.0029845739233443852,0.9928453091512804
2012-09-10,1,0.001307367920235867,0.0015076606622240582,-0.0045385247217488,0.005409441925903125,0.9927509927070831
2012-09-12,1,0.00127006637200677,0.0014550056997518954,-0.005259134880868689,0.004437564619030486,0.9925420363147472
2012-09-14,1,0.002483635029115054,0.002834700625044785,-0.006563679324809843,0.002660614821053506,0.9928606255046122
2012-09-18,1,0.0019586753542474526,0.002270592479818593,-0.004284570791883239,0.007452051056315524,0.9933827654715306
2012-09-20,1,0.001934522966775824,0.00223577321421879,-0.004284570791883239,0.008615941402425586,0.9928972569396719
2012-09-24,1,0.0016322873807352164,0.0018704597634180494,-0.005259134880868689,0.008615941402425586,0.9920208784803523
2012-09-26,1,0.0005383777000515763,0.0005884264478491941,-0.005018648727462967,0.008615941402425586,0.992465679769504
2012-09-28,0,0.0,0.0,-0.005018648727462967,0.008615941402425586,0.9924693408800506
2012-10-02,0,0.0,0.0,-0.004922527908473267,0.008973202482491454,0.9922089510757559
2012-10-04,0,0.0,0.0,-0.005018648727462967,0.00881568180882414,0.9918626869910925
2012-10-08,0,0.0,0.0,-0.005892484390371476,0.008973202482491454,0.9901509755140512
2012-10-10,0,0.0,0.0,-0.008184093909810182,0.008973202482491454,0.9901340639125511
2012-10-12,0,0.0,0.0,-0.005838479054779515,0.008837884101419391,0.990521122816903
2012-10-16,0,0.0,0.0,-0.008184093909810182,0.008570835275401565,0.9908512146061749
2012-10-18,0,0.0,0.0,-0.008184093909810182,0.006548989220135218,0.9908326320523175
2012-10-22,0,0.0,0.0,-0.005838479054779515,0.008245685678211368,0.9914229048380682
2012-10-24,0,0.0,0.0,-0.004042907359418788,0.008837884101419391,0.9909159094253912
2012-10-26,0,0.0,0.0,-0.008254505971448528,0.008245685678211368,0.9906082844120911
2012-11-01,1,0.08841709495684656,0.09384182451290263,-0.008254505971448528,0.008205849203582274,0.9157949715315206
2012-11-05,1,0.0005033783270172911,0.0005452134477038908,-0.008254505971448528,0.006374025885605634,0.9910395612461305
2012-11-07,0,0.0,0.0,-0.008137592620808156,0.007962685620799374,0.9924325514605143
2012-11-09,0,0.0,0.0,-0.008254505971448528,0.007962685620799374,0.9922950390711006
2012-11-13,0,0.0,0.0,-0.008254505971448528,0.008205849203582274,0.9913862790191709
2012-11-15,0,0.0,0.0,-0.008254505971448528,0.008205849203582274,0.9913980773498255
2012-11-19,0,0.0,0.0,-0.008254505971448528,0.008205849203582274,0.9907869442920227
2012-11-21,0,0.0,0.0,-0.008254505971448528,0.008097812480699863,0.9907228067588245
2012-11-26,0,0.0,0.0,-0.008254505971448528,0.007778025589317977,0.9914308676721152
2012-11-28,0,0.0,0.0,-0.007854622971660005,0.007778025589317977,0.9916163139564586
2012-11-30,0,0.0,0.0,-0.009019714202181355,0.007778025589317977,0.990470140489099
2012-12-04,0,0.0,0.0,-0.007905698740614905,0.008456761578387166,0.9898006415299431
2012-12-06,0,0.0,0.0,-0.007905698740614905,0.010449894064809074,0.9896867743391163
2012-12-10,0,0.0,0.0,-0.007139407511475261,0.010449894064809074,0.9896435010111687
2012-12-12,0,0.0,0.0,-0.006288207717710922,0.013216666437795439,0.9895815069876324
2012-12-14,0,0.0,0.0,-0.0035598773832656496,0.013216666437795439,0.989962668474441
2012-12-18,0,0.0,0.0,-0.006181937306673581,0.008650733783473235,0.991090587846653
2012-12-20,0,0.0,0.0,-0.006181937306673581,0.013216666437795439,0.9899078168547334
2012-12-24,0,0.0,0.0,-0.0051600361688686975,0.013216666437795439,0.9900441687996088
2012-12-27,0,0.0,0.0,-0.0032656617709959116,0.013216666437795439,0.990349953615717
2012-12-31,0,0.0,0.0,-0.0051600361688686975,0.011289668427018463,0.9912755992801738
2013-01-03,1,0.0007828010366369273,0.0007953183956734664,-0.0051600361688686975,0.011289668427018463,0.9913869871499587
2013-01-07,0,0.0,0.0,-0.006181937306673581,0.009940646019597751,0.9907209543210476
2013-01-09,0,0.0,0.0,-0.0032656617709959116,0.010808128855165912,0.9907785070814881
2013-01-11,0,0.0,0.0,-0.0032656617709959116,0.007132543139365635,0.9919544372414837
2013-01-15,0,0.0,0.0,-0.0026495047781149453,0.008734862012982712,0.9916133003018864
2013-01-17,0,0.0,0.0,-0.004895837426433009,0.008734862012982712,0.9914258595235171
2013-01-22,0,0.0,0.0,-0.005713646050553025,0.006875771785042881,0.9915139664059422
2013-01-24,0,0.0,0.0,-0.008191931518712961,0.007370887750352242,0.9910212068632976
2013-01-28,0,0.0,0.0,-0.009200216807712658,0.007370887750352242,0.9898626277951316
2013-01-30,0,0.0,0.0,-0.007934866665146829,0.008683196500472858,0.9894703837789677
2013-02-01,1,0.0,0.003217481886427581,-0.007934866665146829,0.008683196500472858,0.9915589266803345
2013-02-05,0,0.0,0.0,-0.005586874094004086,0.008683196500472858,0.9903693903470647
2013-02-07,0,0.0,0.0,-0.005586874094004086,0.008081490411096895,0.9903072255283528
2013-02-11,1,0.0028682671273395424,0.003247290785848474,-0.007437571954570935,0.008081490411096895,0.9910596895189806
2013-02-13,1,0.0028061476595034208,0.0031235623701790375,-0.007437571954570935,0.007781627296657372,0.991195351512916
2013-02-15,1,0.0022597266723458557,0.0025002601425336652,-0.007437571954570935,0.007781627296657372,0.9912850685113971
2013-02-20,1,0.0016017667709368052,0.0017441998042264037,-0.005863000137532148,0.007182799990525053,0.9921128128004709
2013-02-22,1,0.001140905504273213,0.0011692454930800262,-0.005863000137532148,0.006776038989454165,0.9917417963935814
2013-02-26,1,0.0007083998199519416,0.000711530916686302,-0.0037670638508384693,0.007781627296657372,0.9923444558156952
2013-02-28,1,0.00051355592691486,0.0005628711582349005,-0.0037670638508384693,0.007781627296657372,0.9926658738556368
2013-03-04,1,0.001409482092440387,0.001495158713511098,-0.005910739823892212,0.006830856174968694,0.9929771399015005
2013-03-06,1,0.001888121887130246,0.0020510626760990415,-0.007722459120976577,0.006830856174968694,0.9925154530701212
2013-03-08,1,0.001959004397737185,0.0021094256740246753,-0.008150460453138633,0.006830856174968694,0.9919112621131773
2013-03-12,1,0.001616589198052419,0.0017170205876792764,-0.008150460453138633,0.008143054529242782,0.9913931536092576
2013-03-14,1,0.0020639384727277107,0.002256315129433634,-0.008150460453138633,0.008980410640662384,0.9912222120931755
2013-03-18,1,0.0019929140757298817,0.002207192410122757,-0.008150460453138633,0.010010663091663815,0.9892267924024131
2013-03-20,1,0.0014681834767428551,0.0015789988180743304,-0.010004727236205345,0.010010663091663815,0.9878754975892273
2013-03-22,1,0.0013054597869640934,0.001365030160624468,-0.008251126231603576,0.011162164954355397,0.9879635337575692
2013-03-26,1,0.0012739903128727369,0.0013471172966219662,-0.010048420648543678,0.011357975602546306,0.985602393712111
2013-03-28,1,0.001509627205181263,0.0016397866855322784,-0.014638398272448255,0.011357975602546306,0.9852111140990195
2013-04-02,1,0.001264636976931526,0.0013495697301639928,-0.014638398272448255,0.013058786897226234,0.9850885784335329
2013-04-04,1,0.0003832302894522852,0.00045622812823104247,-0.011826231056124337,0.013058786897226234,0.9854891894260546
2013-04-08,1,0.00033536507278626075,0.00042929346323120694,-0.011826231056124337,0.012762602910130316,0.9859453658432478
2013-04-10,1,0.0012014748066508003,0.0012307071706794091,-0.011826231056124337,0.012762602910130316,0.986174541431696
2013-04-12,1,0.000958283529452189,0.0009846711896991068,-0.011826231056124337,0.012762602910130316,0.9859872402642033
2013-04-16,1,0.0009212908174043046,0.0009393178214493187,-0.009629871340181707,0.012762602910130316,0.9877002670654459
2013-04-18,-1,-0.000239513205122191,-9.07923367294447e-05,-0.004559507614186085,0.012762602910130316,0.988429634534964
2013-04-22,1,0.0003897775976179122,0.00046951403059574857,-0.004559507614186085,0.01279212292140839,0.9888435733171071
2013-04-24,-1,-0.0009174019966663652,-0.0006565259451181174,-0.004559507614186085,0.012174708236998674,0.9909307544464153
2013-04-26,-1,-0.0017149192605561449,-0.001372093708713366,-0.0010634242822439271,0.012174708236998674,0.9910753101385991
2013-04-30,-1,-0.001302453442894202,-0.0009867355424545395,-0.004559507614186085,0.012174708236998674,0.9912765928554871
2013-05-02,-1,-0.0011352888794827964,-0.0008665978828941367,-0.004559507614186085,0.012174708236998674,0.9910946566483539
2013-05-06,-1,-0.0012157357645033407,-0.0009100725277540716,-0.0064807092807484135,0.010487992241877627,0.9912959764300596
2013-05-08,-1,-0.0002858789432990615,-0.00010475315504476041,-0.009586769498408833,0.009945836043845323,0.9907971924688922
2013-05-10,-1,-0.0006878909850017126,-0.00042958429028274673,-0.009586769498408833,0.010506607552832984,0.9902573113219613
2013-05-14,1,0.000495480347309805,0.0005584771771394831,-0.01132052556511958,0.0053077495028704715,0.9892035598277483
2013-05-16,1,0.0004466088247764221,0.0005202766684537487,-0.011685317735771358,0.0053077495028704715,0.9881148960762819
2013-05-20,1,0.0005434759932273334,0.0006267325383703682,-0.011685317735771358,0.01085347677755467,0.9874038564565752
2013-05-22,0,-4.6501856837839186e-05,0.00012592282650020545,-0.014585680088266502,0.01085347677755467,0.9862485943176096
2013-05-24,-1,-0.0003313256165611132,-0.00013196403224659172,-0.020045152921316017,0.01085347677755467,0.9854764522276702
2013-05-29,0,-8.09356376932525e-05,6.454316276119896e-05,-0.020045152921316017,0.012559204294562615,0.9847305288745666
2013-05-31,-1,-0.0003620308851483009,-0.00021168279489867855,-0.014585680088266502,0.012559204294562615,0.9853291647530567
2013-06-04,0,0.0,0.0,-0.014585680088266502,0.012559204294562615,0.9852266602471819
2013-06-06,0,0.0,0.0,-0.012219766947933003,0.014998164669747908,0.9860775244778578
2013-06-10,-1,-0.0003635127479274351,-0.00023632578831175735,-0.012219766947933003,0.012559204294562615,0.9865690844535091
2013-06-12,-1,-0.0017156008720652393,-0.0014223117235208542,-0.009303198204837044,0.014998164669747908,0.9863514414116394
2013-06-14,-1,-0.0006910517475082071,-0.0005687877859421704,-0.0067819908542291665,0.012559204294562615,0.9880531301144143
2013-06-18,1,0.00015729984672111232,0.0001926900112355991,-0.0067819908542291665,0.0079108900004059,0.9891742750835377
2013-06-20,-1,-0.0010250779383761412,-0.000863026417517774,-0.0010898465308923414,0.009269786286024616,0.9899984638035365
2013-06-24,-1,-0.0021763466328137073,-0.0018517983773798474,0.0007418175956079391,0.010510229690813342,0.9899882556858458
2013-06-26,-1,-0.00025731724401841503,-0.0002276454053870462,-0.0010898465308923414,0.0079108900004059,0.990241935822441
2013-06-28,-1,-0.0006391381856288975,-0.000525638787850669,-0.0010898465308923414,0.0079108900004059,0.9893512437767424
2013-07-02,-1,-0.00011839869952051142,-8.056018240762274e-05,-0.0017895926627059398,0.008867613188967075,0.9896176655418238
2013-07-05,1,0.00026144208927965124,0.00026566818585260906,-0.004862864068044197,0.008867613188967075,0.9893812070688679
2013-07-09,1,0.0006604855834598537,0.0007377859772727535,-0.005386918538693137,0.007949959582391452,0.9895456046937287
2013-07-11,1,0.0006749220649142838,0.0007352801283679775,-0.005386918538693137,0.007949959582391452,0.9902920185605794
2013-07-15,1,0.0004174748135598015,0.0004192782763004146,-0.006575790154238777,0.007949959582391452,0.9897133222175584
2013-07-17,1,0.0004456738855537753,0.0004584915400535699,-0.007891976529806428,0.008226783781335484,0.9894638429652741
2013-07-19,1,0.0006894885462155674,0.0007148086307614416,-0.009309582148515523,0.007143367179514869,0.9891966888040491
2013-07-23,1,0.00026221564274405334,0.0002920627391316342,-0.010255453904682531,0.007143367179514869,0.9888356266219467
2013-07-25,-1,-6.237342439608272e-05,-3.294321748252167e-05,-0.009964832245392463,0.008226783781335484,0.9902781891523081
2013-07-29,-1,-0.0002750223557121192,-0.0002229002857324609,-0.009861112911608688,0.008226783781335484,0.9911705033274798
2013-07-31,1,0.0003027639048460637,0.0003401477934487298,-0.01098827286915345,0.004127206108734462,0.9903177719042432
2013-08-02,1,0.00015691990690248878,0.00016089857849108831,-0.01098827286915345,0.0030556734004211312,0.9909795272040407
2013-08-06,-1,-0.00011690708313571391,-9.409354570403327e-05,-0.01098827286915345,0.004759506271866078,0.9911576753718864
2013-08-08,0,-1.801581160804456e-06,1.3482115233478891e-05,-0.009861112911608688,0.0030556734004211312,0.9920217053163931
2013-08-12,-1,-0.00047111966405557327,-0.0004010409638916356,-0.009861112911608688,0.006553766813499253,0.9919136481903174
2013-08-14,-1,-0.00022773077840276427,-0.00021080548073609888,-0.009292676624348399,0.004286060410763806,0.9924338765576048
2013-08-16,-1,-0.0005608716289596426,-0.0004884365034244486,-0.0069795092622439185,0.006556240013794439,0.9924622835482633
2013-08-20,-1,-0.00037975165971554294,-0.0003304112451893449,-0.003922254216471924,0.004286060410763806,0.9935572673723647
2013-08-22,-1,-0.0005887845140731135,-0.000510324342216507,-0.003922254216471924,0.004286060410763806,0.9929775178719719
2013-08-26,-1,-0.0010978480377043087,-0.0009495009594921169,-0.004466348431578906,0.004286060410763806,0.9927333859945632
2013-08-28,-1,-0.0010723394572278802,-0.0009426023406748981,-0.003326212065560876,0.004286060410763806,0.993779530497804
2013-08-30,-1,-0.0008891932395096575,-0.0008076000294382371,-0.003326212065560876,0.003379331412139172,0.9940507713453052
2013-09-04,-1,-0.0006250884572054191,-0.000569063264773033,-0.003326212065560876,0.0024848604622788326,0.9943841610791312
2013-09-06,-1,-0.00046079460891622635,-0.0004285602370723718,-0.003326212065560876,0.0033969081028159633,0.9940418537082913
2013-09-10,-1,-0.0006828950444647981,-0.0005806369372944155,-0.006583325932143724,0.0009340712057796913,0.9939368446195522
2013-09-12,-1,-0.0004981916622824407,-0.0004504701164958092,-0.004664345676511175,0.004236640971431177,0.9921474335517504
2013-09-16,-1,-0.0004054946275663816,-0.000349870278023778,-0.004664345676511175,0.004236640971431177,0.992280436121485
2013-09-18,-1,-0.0009078804488622399,-0.0007565965329672906,-0.004664345676511175,0.009614850870206689,0.9915555752732469
2013-09-20,-1,-0.00037973910646190904,-0.0003206680060277167,-0.0036755656851225975,0.009614850870206689,0.9922164697813332
2013-09-24,-1,-0.0006139753675499008,-0.0005201840251424618,-0.0025980467970793957,0.009614850870206689,0.9925699847068153
2013-09-26,-1,-0.000576087558640373,-0.0004911521481342507,-0.0027144980035999694,0.009614850870206689,0.9908711103779965
2013-09-30,-1,-0.0002846588544393134,-0.00026648540450470545,-0.0019548057579822104,0.010143103689693506,0.9897639394540959
2013-10-02,-1,-0.0003716506845562197,-0.0003368059761667962,-0.0006027333791410361,0.010143103689693506,0.989682097946526
2013-10-04,1,0.0001579327791118085,0.00021505441121116606,-0.0027144980035999694,0.009616308359646934,0.9898302292417933
2013-10-08,-1,-0.0005585703476483287,-0.0005117334351670574,-0.00205185648030575,0.009616308359646934,0.9902957795682599
2013-10-10,1,0.0006005938713280405,0.0007160720592193802,-0.0027144980035999694,0.007546250469102755,0.991656238666076
2013-10-14,1,0.0004582961043204607,0.0005479282981783923,-0.002355420967341575,0.007546250469102755,0.9908258445258176
2013-10-16,1,0.0006795940904259736,0.0008018299611892313,-0.0026231386560659,0.006625630576485136,0.9914264920581314
2013-10-18,1,0.0007464670486350608,0.0008713713755450394,-0.0026231386560659,0.006106248576981745,0.9915879454334071
2013-10-22,1,0.0006719674010907362,0.0007688980163622374,-0.0026231386560659,0.005732815022215695,0.9917686149733461
2013-10-24,1,0.0004162986553394195,0.00047547847710257326,-0.0005782390271521594,0.005358905575603585,0.9932957288219072
2013-10-28,1,0.0010347917079789294,0.0011808916843704363,-0.002620074864638241,0.005358905575603585,0.9941615116753189
2013-10-30,1,0.0007154335219755504,0.0008161177634613487,-0.004235984250049572,0.005358905575603585,0.9938550395104899
2013-11-01,1,0.000412226161318699,0.0004388897588008282,-0.0041478145825268485,0.005358905575603585,0.9941035300093939
2013-11-05,1,0.0002469460447660935,0.00026415719809199826,-0.0041478145825268485,0.005358905575603585,0.9938435896240795
2013-11-07,1,0.0004132498203054519,0.0004886244676810162,-0.0041478145825268485,0.005358905575603585,0.9934695566820728
2013-11-11,1,0.0003622948616290436,0.00038920539464193566,-0.004419298051325937,0.004944225556775714,0.9943820033839759
2013-11-13,1,0.000363351688324091,0.0003763047357169565,-0.005199093524228082,0.0034674369616880312,0.9938926887802304
2013-11-15,1,0.0005317916972760157,0.0005866248163625303,-0.005199093524228082,0.004576963843907394,0.9932526387661071
2013-11-19,1,0.00048294042407838293,0.0005351165219029637,-0.005199093524228082,0.005074826214211903,0.9912098159256498
2013-11-21,1,0.0007342200196439909,0.000827017165463502,-0.006935078913050122,0.005750264090971091,0.9906115380710879
2013-11-25,1,0.0007857587636520635,0.0008976752183176706,-0.006935078913050122,0.005145354010419288,0.9909580928888938
2013-11-27,1,0.0008848864369974784,0.0010164714865449297,-0.006935078913050122,0.0048727854180148624,0.9911727288381526
2013-12-02,1,0.000848800508960368,0.0009812066737742173,-0.006935078913050122,0.005196988539767451,0.991247017376717
2013-12-04,1,0.0008128674905239871,0.0009388786407351164,-0.006935078913050122,0.006765425323317731,0.9908794884475607
2013-12-06,1,0.0007899983574025541,0.0009156797500009165,-0.004960995789249098,0.006628751938963162,0.991813764163705
2013-12-10,1,0.0009294120260164006,0.0010941375462485466,-0.005151121767069217,0.006628751938963162,0.9918733197290851
2013-12-12,1,0.0006495853251212481,0.0007665515739505668,-0.00252712873724571,0.006628751938963162,0.9921617274285411
2013-12-16,1,0.0013043865414268912,0.0014800075531012178,-0.00252712873724571,0.008506174054431824,0.9926033445114277
2013-12-18,1,0.002082028728230873,0.0023408710817859057,-0.00331232216082481,0.006628751938963162,0.9935056171904558
2013-12-20,1,0.0021045808774670265,0.002375224986745136,-0.003903668446632389,0.005196988539767451,0.9937064760241737
2013-12-24,1,0.0024812086225654492,0.0028183866854545837,-0.008866589255833054,0.0032086660839651883,0.9910981825953029
2013-12-27,1,0.0021502166636908496,0.0024228788588372754,-0.011668615878488555,0.005792921745988919,0.9882197910470395
2013-12-31,1,0.0018758166679227,0.0021090184298248288,-0.013319829652938885,0.007708278981030646,0.9871821943190271
2014-01-03,1,0.0015682478402024018,0.0017359101420475315,-0.015029012647005877,0.003128697061543395,0.9858596127928252
2014-01-07,1,0.0017267983502231232,0.001907208693685722,-0.015029012647005877,0.003128697061543395,0.9844299260358704
2014-01-09,1,0.0013421106099228209,0.0014455931098213133,-0.015029012647005877,0.008248399961905566,0.9836016876681383
2014-01-13,1,0.0009630940452537409,0.0010087113071489536,-0.015029012647005877,0.008878333974787591,0.9839445089828146
2014-01-15,1,0.001309834850477097,0.0013978148520418883,-0.015029012647005877,0.007622354283521893,0.9843426011277303
2014-01-17,1,0.0005832687409509656,0.000606679745466663,-0.011984742794312402,0.007622354283521893,0.9852367005484747
2014-01-22,0,-4.6088442659168065e-05,7.599480766664902e-05,-0.011984742794312402,0.007622354283521893,0.985203322887983
2014-01-24,-1,-0.0015354860269197281,-0.001230237979895082,-0.009970510169522426,0.00835169239184857,0.9870255952336663
2014-01-28,-1,-0.0003691673158133425,-0.0002077134778932916,-0.009435814643173427,0.007622354283521893,0.9895510301989143
2014-01-30,-1,-0.0008701383500006149,-0.0006436348035830587,-0.007780475737492799,0.00922266807628043,0.989920166628577
2014-02-03,-1,-0.0018899457305662705,-0.0015687235424115796,-0.0033876105617001804,0.00968203079080256,0.9900412213763669
2014-02-05,-1,-0.001649773692684908,-0.0013479392491734152,-0.0018112880012255475,0.009539297775210936,0.9913991896852447
2014-02-07,-1,-0.0007060895993019655,-0.0005259468457035207,-0.0018112880012255475,0.00922266807628043,0.9924136366043222
2014-02-11,-1,-0.0004818363792005447,-0.0003267555146304142,-0.007780475737492799,0.008747164005582942,0.9919344944420856
2014-02-13,-1,-0.00015963474472219827,-6.121630494502974e-05,-0.009435814643173427,0.008747164005582942,0.99136019744609
2014-02-18,-1,-0.0004553332605541171,-0.0003024887658713036,-0.009435814643173427,0.009539297775210936,0.990723671997224
2014-02-20,-1,-0.0007911672459447089,-0.000590895033285609,-0.009496331725790457,0.010321808582619656,0.9899017906639975
2014-02-24,-1,-0.0008071582514668637,-0.0005858001776874209,-0.009496331725790457,0.009539297775210936,0.9899026020436682
2014-02-26,-1,-0.0013501172176249797,-0.0010631898914749073,-0.009971246512295504,0.009539297775210936,0.9900432792818646
2014-02-28,-1,-0.0007396105160105232,-0.0005318307627337821,-0.009971246512295504,0.008342238208748623,0.9904280434093813
2014-03-04,-1,-0.0010779481272068805,-0.0007925900141794989,-0.007964462867670339,0.008383197477574132,0.9914135106348436
2014-03-06,-1,-0.00027570166585812774,-0.00013584008599977574,-0.007964462867670339,0.008383197477574132,0.9912827970991174
2014-03-10,1,0.00021217815350015309,0.00029148281877179366,-0.0106205068367943,0.008285235422266682,0.9896635446833384
2014-03-12,-1,-0.00032790503677559524,-0.00019873149722732892,-0.007964462867670339,0.008285235422266682,0.9905670127373014
2014-03-14,-1,-0.0006619210971062033,-0.0005162898966556446,-0.010071860370956,0.008285235422266682,0.9898558151367833
2014-03-18,0,-6.519974410880891e-05,3.4724128932055165e-06,-0.010071860370956,0.008528557800180277,0.9894939721257938
2014-03-20,-1,-0.0002507932720007881,-0.0001230307037605997,-0.008247958881610269,0.008528557800180277,0.9900798625761299
2014-03-24,1,0.00014467648564076623,0.0001849255770075237,-0.007331814097058979,0.008528557800180277,0.9903206243581276
2014-03-26,-1,-0.0001385449666906446,-6.997366294259308e-05,-0.005553965362263777,0.008528557800180277,0.9904603780883448
2014-03-28,-1,-0.0002501083293962811,-0.00015680666981073439,-0.005456305964415167,0.008528557800180277,0.9906824495840336
2014-04-01,1,0.00010508601113871522,0.00017178786442172356,-0.005456305964415167,0.008196692521352276,0.9909228526937051
2014-04-03,1,5.422990279651266e-05,0.00013534055961374533,-0.006652083783932211,0.007646407055821369,0.9909480343909625
2014-04-07,-1,-0.0009762435842442729,-0.0008166926560707038,-0.004755080632616875,0.007646407055821369,0.9923018670091253
2014-04-09,-1,-0.0008403446540274905,-0.0006969979396024292,-0.004755080632616875,0.008307595832596418,0.9916747658029174
2014-04-11,-1,-0.0015850248779466516,-0.0013764804991114662,-0.0035209201134479796,0.00849384173431807,0.9925270225566281
2014-04-15,-1,-0.0007803636343218731,-0.0006662578832992052,-0.004225946709800548,0.007646407055821369,0.9936457623123327
2014-04-17,-1,-0.00015382717149434302,-0.00012068669927620927,-0.004755080632616875,0.007646407055821369,0.992824875290025
2014-04-22,1,0.00012932702837947614,0.00013529647566318012,-0.0058359926339323805,0.00639155551826561,0.9924843313367868
2014-04-24,1,0.0003284958472081499,0.000361429797391696,-0.0058359926339323805,0.006453637485506161,0.9921447067120487
2014-04-28,0,-6.630214364292006e-07,1.1412642515390954e-05,-0.004647357977021347,0.006453637485506161,0.9925164273284263
2014-04-30,1,0.00014515572691735647,0.00016213843913949824,-0.004647357977021347,0.005484169558437986,0.9928280119177068
2014-05-02,1,2.5371155676199997e-05,5.286827526776549e-05,-0.003714498624885924,0.005484169558437986,0.9933386765655969
2014-05-06,-1,-0.0006294905061130288,-0.0005191041227470949,-0.0025786586741172912,0.005498446388952846,0.9936996578268318
2014-05-08,-1,-0.0006141918440714237,-0.000475415969109987,-0.0015944204765950358,0.0061503250693331155,0.9934515787232469
2014-05-12,1,4.28448593480496e-05,6.47621182572971e-05,-0.0019020820811738864,0.005498446388952846,0.9935218590050192
2014-05-14,1,0.00028443878043955546,0.0003491149054689036,-0.002343234228396318,0.005498446388952846,0.9932204260594932
2014-05-16,-1,-0.00012468849072475586,-0.00011265326759726953,-0.0030827797584561186,0.005352261196932536,0.9944338671529489
2014-05-20,-1,-5.3562864781516416e-05,-2.0659162947290948e-05,-0.0017742249402550522,0.0057545999848167655,0.9939663560527132
2014-05-22,1,0.00041668437661406926,0.000514189352390598,-0.0030827797584561186,0.005127144931931721,0.9946652217094929
2014-05-27,1,0.0005581291342384272,0.0006821899250293532,-0.003183471014741523,0.005127144931931721,0.9943610035454571
2014-05-29,1,0.0007051405132762144,0.0008396150162402445,-0.003183471014741523,0.0057545999848167655,0.9942011860809901
2014-06-02,1,0.0008561593649674356,0.0010231665459596753,-0.003183471014741523,0.007069027599878801,0.9938893156413843
2014-06-04,1,0.001006497943644825,0.0011819176928554932,-0.003183471014741523,0.007564923815621698,0.9937120981659499
2014-06-06,1,0.0015061528585456059,0.0017275802277998292,-0.00375759216886551,0.007564923815621698,0.9939880581946333
2014-06-10,1,0.001487533996340409,0.0017384821718360612,-0.00534106832639324,0.007564923815621698,0.9938137391107829
2014-06-12,1,0.0006839524997164485,0.0007947533552165579,-0.0037678822480358668,0.007564923815621698,0.993365723277988
2014-06-16,1,0.00036071151010298925,0.00041257787908797843,-0.0037678822480358668,0.007766168810424569,0.9931002581229039
2014-06-18,1,0.00014148839465224843,0.00019920538589112197,-0.00553745642852368,0.005477937179257333,0.9931655018719235
2014-06-20,1,0.0008368651020039788,0.0009312076542852387,-0.00553745642852368,0.007564923815621698,0.992711894321888
2014-06-24,1,0.00039077254664109877,0.00039477473262383364,-0.003807057183539103,0.007766168810424569,0.9926881101908328
2014-06-26,-1,-0.0005593011237183965,-0.0003626288603472983,-0.00553745642852368,0.007564923815621698,0.9921269225622474
2014-06-30,1,0.0001313323705231457,0.00022600451984698585,-0.006433460844992203,0.004487010881821966,0.992040712125201
2014-07-02,1,0.0008599142604366946,0.0009160921994828982,-0.008496443752992787,0.0037274849278526303,0.990737306262087
2014-07-07,1,0.001096606869146251,0.001201550388397714,-0.008496443752992787,0.0010386447863692928,0.9911905885125596
2014-07-09,1,0.0007018775580219307,0.0007632614261061215,-0.007316878172321982,0.0037274849278526303,0.9914445786052101
2014-07-11,-1,-0.00031820237315164957,-0.00025328547356423206,-0.007316878172321982,0.0054422701028965185,0.9917701809879396
2014-07-15,-1,-0.0002330452150969883,-0.0001644492441527852,-0.007316878172321982,0.0038540876931979834,0.9922119133143634
2014-07-17,-1,-0.000865088417890506,-0.0007387570615444228,-0.002383976393907912,0.0038540876931979834,0.9929887614294564
2014-07-21,-1,-0.0008415325212355351,-0.0006882119928628865,-0.007090452967526595,0.0038540876931979834,0.9924430505286759
2014-07-23,1,3.3271401045661924e-05,4.8611008222321376e-05,-0.007090452967526595,0.0038540876931979834,0.992447585113246
2014-07-25,-1,-0.0007546788785618623,-0.0006583102997979112,-0.0027517343577856505,0.0039017851836202115,0.9934129416805578
2014-07-29,-1,-0.0009779953798404108,-0.0008719415762161788,-0.0012815347780823344,0.0054422701028965185,0.9930494842472968
2014-07-31,-1,-0.0013846462538992638,-0.0012628446579008629,-0.0012815347780823344,0.004681722326129015,0.9941666392388636
2014-08-04,-1,-0.0018714909728792307,-0.0016531364314346037,-0.0020094327522574146,0.004681722326129015,0.993794201228802
2014-08-06,-1,-0.0021738184788876384,-0.0018867071195373727,-0.0012583654824408232,0.0037281414623388455,0.9939960692376348
2014-08-08,-1,-0.001514583324671567,-0.0013391634788303126,-0.0012583654824408232,0.0036005717676088154,0.9954894709707033
2014-08-12,-1,-0.0010718816093275027,-0.0009667118166710143,-0.0021935266415148004,0.002922269183324823,0.9955041885638488
2014-08-14,-1,-0.000984707526158778,-0.0008870548210867906,-0.002918016857806517,0.0027684745609970595,0.9954285194308142
2014-08-18,-1,-0.0010077926082430787,-0.0008915128846232995,-0.002918016857806517,0.002471312097110318,0.9962261200329923
2014-08-20,-1,-0.0006131929062532511,-0.0005475629997376405,-0.002918016857806517,0.0025519093191028407,0.9960047719129012
2014-08-22,-1,-0.000115113508194183,-8.558354259872193e-05,-0.0032124541414588195,0.002471312097110318,0.9956010897004296
2014-08-26,1,0.0004837634046962798,0.0006015608718067066,-0.0032124541414588195,0.002471312097110318,0.9957831265725858
2014-08-28,-1,-0.00047787491028203094,-0.0003860420784336708,-0.004026095230822207,0.0025519093191028407,0.9952970881430531
2014-09-02,-1,-0.0004348648352722336,-0.00035568400469919843,-0.005720369786483185,0.0025480117542274272,0.9951195855544861
2014-09-04,-1,-0.0010339367216178359,-0.0008293648498725407,-0.006975480720583753,0.0025480117542274272,0.99450715290658
2014-09-08,-1,-0.0005251020415565268,-0.00042195079110621524,-0.006975480720583753,0.003574861010760165,0.9940527739268364
2014-09-10,-1,-0.0005405141089055167,-0.0004631858448204049,-0.00723946093514196,0.00495558773857826,0.9926556692850919
2014-09-12,-1,-0.000655796813328056,-0.0005771224977926579,-0.009186984365975759,0.00495558773857826,0.991662957026265
2014-09-16,-1,-0.0006778093412386394,-0.0006093239205511855,-0.01128580738883811,0.00495558773857826,0.990944128943323
2014-09-18,-1,-0.00037056067697604887,-0.0003221167027130129,-0.01128580738883811,0.00495558773857826,0.9908131675902441
2014-09-22,-1,-0.0005213125636319524,-0.0004791364075584359,-0.009482442600674278,0.005882559768224287,0.990673819717679
2014-09-24,-1,-0.0003678960620747291,-0.0003366293310578174,-0.009800715966396244,0.005882559768224287,0.9897834919914893
2014-09-26,-1,-0.0009107505045714496,-0.0007876969503615616,-0.008691953891828471,0.006039496635375882,0.9901026207365724
2014-09-30,-1,-0.0009640591523440273,-0.0008572947277343495,-0.008373421003735582,0.008198734718146642,0.9891592349628167
2014-10-02,-1,-0.0012299411855644247,-0.0011034259331007424,-0.003611135366361205,0.010459977367011,0.9893909914060544
2014-10-06,-1,-0.0010591225182297447,-0.0009376269709738972,-0.003611135366361205,0.012646137358549905,0.9890981351920328
2014-10-08,-1,-0.0015905720446840778,-0.0013821160313019693,0.00029868875747069996,0.010459977367011,0.9900824275247933
2014-10-10,-1,-0.0024954751423305783,-0.0021808771022504476,0.002083482792130661,0.010459977367011,0.9899654930277111
2014-10-14,-1,-0.002650015878246653,-0.002344557620279122,0.0018102295410447342,0.010459977367011,0.9907278818776396
2014-10-16,-1,-0.0019708451650552075,-0.0017505322620137349,-0.0008863371675499907,0.009530328844990025,0.9918746774745473
2014-10-20,-1,-0.001393326724422507,-0.0012552236632608822,-0.0028945809842945503,0.008936042209937881,0.9924837945448797
2014-10-22,-1,-0.0009688689673900047,-0.0008838963998569506,-0.0010535881175019915,0.0072342582070052735,0.9938087398833333
2014-10-24,-1,-0.0003559881235934755,-0.00035359772448303534,-0.0010535881175019915,0.008936042209937881,0.9940903899158529
2014-10-28,1,0.0008433754914353293,0.0010494958286594715,-0.0010535881175019915,0.00608289743095399,0.9954215978586319
2014-10-30,1,0.0011056480447324906,0.0013294003877346726,-0.0019521224802989414,0.00454623861110512,0.9956710086267565
2014-11-03,1,0.0013002145813019435,0.0015172448615790293,-0.0028945809842945503,0.00454623861110512,0.9954535618330945
2014-11-05,1,0.0015134024425616974,0.001746777794238564,-0.0028945809842945503,0.00454623861110512,0.9954836345067573
2014-11-07,1,0.0018728316143206698,0.0021933313450947655,-0.0019521224802989414,0.00454623861110512,0.9958234205981779
2014-11-11,1,0.0017862391701525303,0.002089161483378331,-0.00208323659379187,0.00454623861110512,0.9953758305175725
2014-11-13,1,0.0015302511466399992,0.0017911308880519492,-0.00208323659379187,0.00454623861110512,0.9944236383494558
2014-11-17,1,0.0013926263291878845,0.0016480863643414112,-0.0012264522051569477,0.005138973260710966,0.9943327515408669
2014-11-19,1,0.0017434736288537871,0.002072416727234923,-0.0012264522051569477,0.0063512048317262105,0.9918065165878118
2014-11-21,1,0.0021501437075334006,0.002543151501915613,-0.0012264522051569477,0.005795726988114958,0.9921215425723455
2014-11-25,1,0.002389622641286919,0.0028225945910386875,-0.0019748075677487216,0.005795726988114958,0.9921164102913818
2014-11-28,1,0.0022329548353615027,0.002619286806737357,-0.002001569060475825,0.005795726988114958,0.9920759216101336
2014-12-02,1,0.0016563033133716125,0.001912437130478941,-0.0031434014203574655,0.005282867311099403,0.9918680884237249
2014-12-04,1,0.0019151087482180624,0.0022185070140005557,-0.0053096848983162324,0.004462049913369657,0.9908438665149782
2014-12-08,1,0.001954337501338843,0.002221966473710631,-0.009391600154066823,0.004462049913369657,0.9896999969166553
2014-12-10,1,0.0018187707241217052,0.002086977069830411,-0.00816705514998455,0.005282867311099403,0.9894621355773217
2014-12-12,1,0.0013013350714687244,0.001523602108685431,-0.00816705514998455,0.005282867311099403,0.9903032382538445
2014-12-16,1,0.0007546517526011475,0.0008588568176070024,-0.009589273594504379,0.004622988334892078,0.9897555723931387
2014-12-18,1,0.0024778849127251156,0.0027840118501146482,-0.009589273594504379,0.003925453401019631,0.9915866411679203
2014-12-22,1,0.002335555888046732,0.00257454236451856,-0.009589273594504379,0.0022361880611224995,0.9905752794721593
2014-12-24,1,0.00213298076153311,0.0023411521185603317,-0.011382094637282883,0.0026257495027201478,0.9899869149858921
2014-12-29,1,0.0019027607674692863,0.0020829898748510644,-0.011948995123891021,0.0026257495027201478,0.9879453372081896
2014-12-31,1,0.0013872889638687708,0.001505264579669353,-0.011568798838167084,0.0026257495027201478,0.9886532860583643
2015-01-05,1,0.000621808214773968,0.0006403582551819711,-0.01127008510471391,0.00980894285775822,0.9886748245105678
2015-01-07,1,0.0005053742610728855,0.0005122951476955771,-0.009589273594504379,0.008666037405073683,0.9897455636630876
2015-01-09,1,0.0006314038701787102,0.0006578347786211784,-0.010638197277440446,0.0072656531682540005,0.9898328609756256
2015-01-13,1,0.000412053667531853,0.00042428718261711964,-0.009399389229955913,0.008666037405073683,0.9899614475792975
2015-01-15,-1,-0.0004004676562589741,-0.000319530234687336,-0.003237645701562879,0.008666037405073683,0.9910761644229946
2015-01-20,1,3.088481857944245e-05,3.696604648307308e-05,-0.006845273203241775,0.008666037405073683,0.9909066565563791
2015-01-22,1,0.0006174118589260143,0.000685898318988966,-0.006845273203241775,0.008666037405073683,0.9911794811746393
2015-01-26,1,0.0005046028785513378,0.0005552875530487654,-0.0054344753940045055,0.008747609001932175,0.9913871233476209
2015-01-28,-1,-0.0008220412710872881,-0.0007164943393366922,-0.0031128491400266092,0.008747609001932175,0.9930582832181453
2015-01-30,-1,-0.0010007846262730998,-0.0008756835790326748,-0.0031128491400266092,0.009481322994964129,0.9924052012564653
2015-02-03,-1,-0.00018194533339750178,-0.00013673045662843163,-0.005438439455830929,0.0072656531682540005,0.9935541453324782
2015-02-05,-1,-0.00016278836711815546,-0.00010686933370788681,-0.006082125125600092,0.006866330885292468,0.9932367051277556
2015-02-09,-1,-0.00041583128446020975,-0.00032134772317965894,-0.006082125125600092,0.006951715175990053,0.9928374368892832
2015-02-11,1,5.8218986632295385e-05,7.68217016316253e-05,-0.006082125125600092,0.006951715175990053,0.9922727840780363
2015-02-13,-1,-7.660476158330033e-05,-2.2638057345706128e-05,-0.0070170550413441325,0.007687542063791556,0.99125333402977
2015-02-18,-1,-0.0002743765453556492,-0.0002060001911463245,-0.006082125125600092,0.007687542063791556,0.9915313662172839
2015-02-20,1,0.00023236080844342207,0.00025140592054513893,-0.0070170550413441325,0.007687542063791556,0.9913158973688163
2015-02-24,1,0.0001716419104028798,0.0002148952514843313,-0.008321750947188858,0.006951715175990053,0.991649554232763
2015-02-26,-1,-0.0003807552705618921,-0.0002521102768816697,-0.008711838587428964,0.006951715175990053,0.9909495579545718
2015-03-02,-1,-0.0002579919097791358,-0.0001547254726371733,-0.008392192230965996,0.00662344478555286,0.9914494822927504
2015-03-04,-1,-0.0008034692789667415,-0.000625229026539326,-0.009016798446081482,0.006951715175990053,0.9911513809083408
2015-03-06,-1,-0.001467843656442813,-0.0011713859255292993,-0.008392192230965996,0.006660205543079463,0.9915527138296363
2015-03-10,-1,-0.0020657472979396787,-0.0016827360836735997,-0.008392192230965996,0.006808743880017975,0.9898931812126934
2015-03-12,-1,-0.0012346390702699735,-0.000971666254594034,-0.008392192230965996,0.006808743880017975,0.9904439659320949
2015-03-16,-1,-0.0009584551623618293,-0.0007371846171824512,-0.006290039526330407,0.006808743880017975,0.9909405900642005
2015-03-18,-1,-0.0007635309988057989,-0.0005747629317299193,-0.006290039526330407,0.007799846992777027,0.9905744887690648
2015-03-20,-1,-0.000609114366254635,-0.0004512847270141237,-0.006162555529548624,0.007191899661651585,0.991164716326697
2015-03-24,-1,-0.0005041594549100789,-0.0003919115833226602,-0.005273303241753523,0.007191899661651585,0.9913837366314484
2015-03-26,-1,-0.0009627791824723418,-0.000814027198597806,-0.0033143143189156045,0.007191899661651585,0.9918195937431532
2015-03-30,-1,-0.0005333981168195195,-0.00045495665885906226,-0.0033143143189156045,0.007191899661651585,0.9919766832947833
2015-04-01,-1,-0.0003864935786938431,-0.0003401704763744519,-0.005810269334989413,0.0063285574730980124,0.9919014867704443
2015-04-06,-1,-0.00017989635081347603,-0.00015995816369601586,-0.005810269334989413,0.0063285574730980124,0.9917726398639686
2015-04-08,-1,-0.0006410800093148413,-0.0005671532915464037,-0.0063395189987399524,0.005480633765755778,0.9938474069119204
2015-04-10,-1,-0.000606169168132242,-0.0005288446042043657,-0.0063395189987399524,0.005480633765755778,0.9939317636526731
2015-04-14,-1,-0.0003949853828641166,-0.0003295249121119245,-0.006393952104056607,0.004777894039135996,0.9943477101005505
2015-04-16,-1,-4.816052292821772e-05,-2.5450481733017553e-05,-0.006393952104056607,0.004777894039135996,0.9943707884537144
2015-04-20,1,7.992294005158884e-05,8.560963038795124e-05,-0.00631426576477611,0.004777894039135996,0.9944681207399669
2015-04-22,1,2.1745417668905554e-05,2.6833131480368428e-05,-0.00631426576477611,0.004777894039135996,0.9945132500308708
2015-04-24,1,5.510365554069995e-05,6.872550746871587e-05,-0.005526063662095428,0.004016887613463112,0.9949873531613992
2015-04-28,1,8.337410814879854e-05,9.686491071085734e-05,-0.006393952104056607,0.004183164584866105,0.9943979167210003
2015-04-30,-1,-0.0003513014439865488,-0.0003192076059694831,-0.005526063662095428,0.004183164584866105,0.9950544201024459
2015-05-04,1,0.00010439124034008782,0.0001496685347472933,-0.006393952104056607,0.0015184516745823454,0.9950525582709905
2015-05-06,-1,-0.00043044579073442976,-0.0003956740827951442,-0.005526063662095428,0.0015184516745823454,0.995272689016758
2015-05-08,-1,-0.0004059058208734454,-0.0003444293870578115,-0.006416168983992143,0.0003435175235952322,0.9955745917694221
2015-05-12,-1,-0.0006648788088732981,-0.0005669393228026521,-0.006505458331015429,0.0008340274973532011,0.9951288876166631
2015-05-14,1,0.0003901547752523406,0.0004967801612610723,-0.006733637824581075,0.0005064068623005506,0.9948716719044672
2015-05-18,1,0.0005781653975829651,0.0007240281881336547,-0.006733637824581075,0.0005064068623005506,0.9947306058730803
2015-05-20,1,0.0005576786876979678,0.0007059638249833115,-0.006733637824581075,0.0013226955134691561,0.9944314067732283
2015-05-22,1,0.0005245937735681372,0.000668322445749416,-0.007369130822018252,0.0018128652638721612,0.9940063128308477
2015-05-27,1,0.00030153842688716116,0.0003962075805729532,-0.006733637824581075,0.0013226955134691561,0.9947189632032831
2015-05-29,-1,-0.00010514246404572737,-9.516294821635816e-05,-0.006843955325345869,0.0018128652638721612,0.9938988504686612
2015-06-02,-1,-0.00018310659891804246,-0.0001753370646025725,-0.007801146385077737,0.002931633846677603,0.9929453280507289
2015-06-04,-1,-0.0003552325130812381,-0.0003318539946381663,-0.006790834330671017,0.002931633846677603,0.9934032552520353
2015-06-08,-1,-0.0005786812303863329,-0.0005217922572359486,-0.005597849898058722,0.0034595421904948026,0.9933897481651507
2015-06-10,-1,-0.0006949067100454012,-0.0006042348193572129,-0.006001995956704365,0.0034595421904948026,0.9927502475187466
2015-06-12,-1,-0.000751316147451302,-0.0006578363557826724,-0.0046080405620690735,0.00988465583073046,0.9920566154578327
2015-06-16,-1,-0.0010109164598576257,-0.0008903629249570886,-0.0046080405620690735,0.0055031443209449405,0.9925066703960517
2015-06-18,-1,-0.000262166318905213,-0.00024402011444360977,-0.0046080405620690735,0.0055031443209449405,0.9921663253025402
2015-06-22,-1,-0.0007779481986433376,-0.0006628132089482341,-0.0037407368620762426,0.0055031443209449405,0.9927403593809693
2015-06-24,-1,-0.0009422144153901477,-0.000801846884200429,-0.0046080405620690735,0.0055031443209449405,0.99186178817856
2015-06-26,-1,-0.00044473561068381095,-0.0003889393779300405,-0.0046080405620690735,0.0034595421904948026,0.992639198634772
2015-06-30,-1,-0.0006963570005815834,-0.0006166106042006825,-0.004224400746140841,0.005617074166772923,0.9934260276836305
2015-07-02,-1,-0.0007903637608247912,-0.0006976453621894563,-0.004323712479696749,0.005617074166772923,0.9934237998431648
2015-07-07,-1,-0.000727425367875651,-0.0006493181664943283,-0.0036898764261459865,0.005617074166772923,0.9936614377029124
2015-07-09,-1,-0.0007840741722161186,-0.0007039869402847261,-0.004323712479696749,0.0023656171453755254,0.994473718052839
2015-07-13,-1,-0.0005091798837440992,-0.0004552669317201748,-0.004323712479696749,0.001317031833800011,0.9948035486243467
2015-07-15,-1,-0.0002893267490632292,-0.00028327156354656985,-0.006119657443310985,-0.00013762351750992935,0.9940180209470995
2015-07-17,1,6.976465339435104e-05,0.00011730462358436886,-0.006119657443310985,0.0018608651971613716,0.994356063943565
2015-07-21,-1,-5.837536599697899e-05,-3.494064769848735e-05,-0.006119657443310985,0.0023687670345635846,0.994435917748574
2015-07-23,-1,-0.00044156357575544697,-0.00041941237249840883,-0.007476963710384058,0.0023687670345635846,0.9940620614353314
2015-07-27,-1,-0.0009919670354416996,-0.000904276092877384,-0.009255473942525322,0.0023687670345635846,0.9916731971280928
2015-07-29,-1,-0.00045182143593707326,-0.00041639644119909443,-0.009839094881919221,0.001608025485165039,0.9895148879525588
2015-07-31,-1,-0.0007112796339190568,-0.000636348479404901,-0.009839094881919221,0.0023687670345635846,0.988032525572333
2015-08-04,-1,-0.0004273963039920818,-0.0004084258329212361,-0.013285215278459425,0.0023687670345635846,0.9861406668672167
2015-08-06,-1,-0.000551766958344593,-0.0005237665717844522,-0.013285215278459425,0.005186787349537784,0.98612678181561
2015-08-10,-1,-0.00020530683104684317,-0.00018725939322142054,-0.014544663146944388,0.005186787349537784,0.9849620034986193
2015-08-12,-1,-0.0005014552644619276,-0.0004894984328025344,-0.014544663146944388,0.006495456481748289,0.9850391049669189
2015-08-14,-1,-0.0003919825535968045,-0.00038496520916075135,-0.014544663146944388,0.006495456481748289,0.9851174995428226
2015-08-18,-1,-0.0005276768541967715,-0.00048199642375253485,-0.014544663146944388,0.006913357265192928,0.9845671084082912
2015-08-20,-1,-0.0010254245484801697,-0.0009300232122244918,-0.014544663146944388,0.006913357265192928,0.984743951381426
2015-08-24,-1,-0.0019853036393027027,-0.0017773406511662998,-0.010647721577625028,0.008065168719799029,0.9863033875856836
2015-08-26,-1,-0.0014993300787576975,-0.001356135890391274,-0.008946802331015935,0.006913357265192928,0.988606906771947
2015-08-28,-1,-0.0011728099199470716,-0.001053540978881173,-0.008946802331015935,0.006913357265192928,0.9897053850063324
2015-09-01,-1,-0.0017527205060327055,-0.0015712603586617844,-0.008946802331015935,0.008065168719799029,0.990158412075224
2015-09-03,-1,-0.001406593088313902,-0.0012817214558444253,-0.010381726373301084,0.007339344237037998,0.990234051402668
2015-09-08,-1,-0.0010142790008729702,-0.0009507815535349649,-0.008946802331015935,0.007339344237037998,0.9905341114848899
2015-09-10,-1,-0.0009780514061103272,-0.0009201742826262526,-0.007716363215160225,0.009579593133241623,0.9902692236650192
2015-09-14,-1,-0.0010499018919208705,-0.0009827204707590976,-0.009490094935877663,0.009579593133241623,0.9894817903197783
2015-09-16,-1,-0.0006825174593809166,-0.0006618084709212169,-0.012282097608934034,0.003975979965558484,0.9894693255211053
2015-09-18,-1,-0.0011776932305742342,-0.0011063907434869782,-0.008624787242120334,0.00978675817385585,0.989529888400195
2015-09-22,-1,-0.001432646747130088,-0.0013150789050728547,-0.007528669006770189,0.0091897328447835,0.9902449548443497
2015-09-24,-1,-0.0014226412401744841,-0.0013178979195298916,-0.008723249481835829,0.012759780870252015,0.9867358385793868
2015-09-28,-1,-0.0015469532417431452,-0.001425217602491825,-0.008723249481835829,0.010831869925614837,0.9871831721737515
2015-09-30,-1,-0.0011024790603948395,-0.0010510337827364176,-0.007528669006770189,0.010771379939223176,0.9876028474811105
2015-10-02,-1,-0.001338515127576646,-0.0012558554339517493,-0.0043002205089040756,0.010771379939223176,0.9879912597064654
2015-10-06,-1,-0.00046687950297611417,-0.00042847341747573585,-0.0043002205089040756,0.007790037065399673,0.9888362446059626
2015-10-08,1,5.339667231698164e-05,0.00016584439562358083,-0.0066665859091361275,0.006707867496658564,0.9893278724379833
2015-10-12,-1,-0.0004344611451402306,-0.00038828720844474163,-0.004023799725216666,0.006707867496658564,0.9893747933249809
2015-10-14,-1,-0.0007587346815370144,-0.0007523664723811287,-0.002825122117109556,0.007738543428580475,0.9894696383795346
2015-10-16,-1,-0.00014756327087236222,-6.0614489940155245e-05,-0.006699406655707958,0.0063328028105490925,0.989766478548128
2015-10-20,-1,-0.00022043561437592494,-0.00014770476186725184,-0.006783593127620129,0.006707867496658564,0.9892841501236921
2015-10-22,1,0.0009910739404015562,0.001222635869014837,-0.004023799725216666,0.006707867496658564,0.9922787791691022
2015-10-26,1,0.0008529300892505699,0.0010493563238133318,-0.004023799725216666,0.006707867496658564,0.9922169621646761
2015-10-28,1,0.0011181304245860301,0.0013407875388789952,-0.006532606669683591,0.0063328028105490925,0.9926794933182012
2015-10-30,1,0.0012941670015949008,0.0015456382617735538,-0.006532606669683591,0.0063328028105490925,0.9926543492969419
2015-11-03,1,0.0015305259745193997,0.001803919411231696,-0.007210917760324753,0.004637957216681585,0.9923564539096192
2015-11-05,1,0.0016001983485089996,0.0018907217402249453,-0.007210917760324753,0.004637957216681585,0.9921779144677991
2015-11-09,1,0.00143617441139034,0.001721863551762408,-0.008833604717481432,0.004637957216681585,0.9918438563381311
2015-11-11,1,0.0016387075867818745,0.0019428888309709368,-0.011538899204125163,0.003091234770706495,0.9914416904807067
2015-11-13,1,0.001035791517953066,0.0012577183061365095,-0.010911566607043753,0.003091234770706495,0.9906721603015847
2015-11-17,1,0.001347404336491719,0.001628098090726149,-0.010911566607043753,0.004637957216681585,0.9903359037268198
2015-11-19,1,0.001716703174280466,0.0020196614127451955,-0.012485883759890185,0.003091234770706495,0.9897792328951167
2015-11-23,1,0.0015473631246968132,0.001819038966996274,-0.012485883759890185,0.005584495403262453,0.9896092913785128
2015-11-25,1,0.0015124940074972377,0.0017785529825698975,-0.012485883759890185,0.0069963002315761216,0.9887317135242404
2015-11-30,1,0.0014759753804469266,0.001725879067645647,-0.012485883759890185,0.0069963002315761216,0.9886153722285702
2015-12-02,1,0.0015921796642946319,0.0018936560853261386,-0.012967090623650835,0.0069963002315761216,0.988213370607635
2015-12-04,1,0.0017492880938477584,0.002069119892039076,-0.013855098442730326,0.005635590786482379,0.987914710067756
2015-12-08,1,0.0013593613913087743,0.0016560633071892373,-0.015499928657765755,0.005635590786482379,0.9867863969547715
2015-12-10,1,0.0010652296783384009,0.0013170036075587028,-0.01619166397965041,0.005635590786482379,0.9859110519661727
2015-12-14,-1,-0.00038046460620797873,-0.0003535611105790212,-0.01619166397965041,0.0069963002315761216,0.9856618130469096
2015-12-16,1,0.00033439775853127274,0.00044430449532923614,-0.01619166397965041,0.005635590786482379,0.9860323506779981
2015-12-18,-1,-0.0002443705927124671,-0.0001922235200142903,-0.014908613723889044,0.0069963002315761216,0.9868051305161983
2015-12-22,1,0.00010770378195299162,0.00020024921166772534,-0.014908613723889044,0.007763555228962639,0.9857441418240047
2015-12-24,1,0.0006787677172513024,0.0008455569307151841,-0.01924265648625987,0.007763555228962639,0.9848080856539871
2015-12-29,1,0.0007214179030524037,0.000871330551727677,-0.01924265648625987,0.009780125356556953,0.9832442609750619
2015-12-31,1,0.0003782453009124519,0.0005033557159060795,-0.01924265648625987,0.012948042272870806,0.98209131212069
2016-01-05,-1,-0.00015802141014314056,-0.0001301296344182259,-0.02315089601314498,0.012948042272870806,0.9813072389493626
2016-01-07,-1,-0.0012755914533853147,-0.0011825649265153758,-0.012435143479369123,0.01719561521078478,0.9821060962318297
2016-01-11,-1,-0.0020328035602004725,-0.001862659007240998,-0.012435143479369123,0.01719561521078478,0.9811821159319838
2016-01-13,-1,-0.0024874241572125054,-0.0022237942960756643,-0.012435143479369123,0.01236080992609229,0.9829044151851563
2016-01-15,-1,-0.00348487053207442,-0.0030252259163012192,-0.012435143479369123,0.01719561521078478,0.981404803716504
2016-01-20,-1,-0.0029796020533505024,-0.0026055393090803148,-0.012944230755281264,0.020753696484289878,0.9804228782612101
2016-01-22,-1,-0.0015218189880548685,-0.0013513005461793675,-0.012944230755281264,0.01719561521078478,0.9813306806293606
2016-01-26,-1,-0.0026622918298765414,-0.002298800758203135,-0.012944230755281264,0.015370496494762643,0.9825422856153455
2016-01-28,-1,-0.0015735985152322408,-0.0013583335739156981,-0.012944230755281264,0.013954101945297248,0.9837913014577621
2016-02-01,-1,-0.0005496030601442186,-0.0004709693067639074,-0.012944230755281264,0.013954101945297248,0.9842109989265838
2016-02-03,-1,-0.001256298759324699,-0.0010911114116061134,-0.00951529126450479,0.013954101945297248,0.9852486156247222
2016-02-05,-1,-0.0013238083736294348,-0.0011439451220358501,-0.008344600252441848,0.01080047340425058,0.9863963524691441
2016-02-09,-1,-0.0019510953407674194,-0.001722715165317936,-0.008150789472582624,0.01080047340425058,0.9880062207971045
2016-02-11,-1,-0.0029323028095829375,-0.002546676426112133,-0.006722289455083399,0.013954101945297248,0.987747838877318
2016-02-16,-1,-0.0016429806697947783,-0.0013971405467277688,-0.008344600252441848,0.009476481172590897,0.9890537041602565
2016-02-18,-1,-0.0014164182038968116,-0.0011802766783199218,-0.008150789472582624,0.009945174513098159,0.988982000790446
2016-02-22,-1,-0.001032878959274917,-0.000856507849072622,-0.006722289455083399,0.009476481172590897,0.9897796242559433
2016-02-24,-1,-0.0013758713603155418,-0.0011678874888082507,-0.004323570713642987,0.009476481172590897,0.9907388155218286
2016-02-26,-1,-0.0012098984856183269,-0.0010055951550492458,-0.00670727293872763,0.006898911355251085,0.9908107667817049
2016-03-01,1,7.192056187818244e-05,8.556828511688153e-05,-0.004323570713642987,0.006898911355251085,0.992028010731375
2016-03-03,1,0.0007608658901481866,0.0008708056068696933,-0.006028685783683149,0.006229384023444599,0.9919533812236557
2016-03-07,1,0.0004341938200241661,0.0004552474640936568,-0.008086102018491529,0.005048271439967711,0.9913093941498277
2016-03-09,-1,-0.0004148332701319363,-0.00030526252232135055,-0.008415365519658454,0.007552280270843736,0.9902430483984995
2016-03-11,1,0.0005039318232202908,0.0005464676820755683,-0.008415365519658454,0.005741376548070373,0.9907361153667354
2016-03-15,-1,-0.00045762708160988573,-0.000376187941216059,-0.004248909724562397,0.011139207613489216,0.9891635693931977
2016-03-17,1,0.0014498264836231949,0.0017013347583046427,-0.004248909724562397,0.005741376548070373,0.9910534721069542
2016-03-21,1,0.0014963023643489017,0.001752592408460231,-0.004248909724562397,0.008493170090217893,0.9907196694412934
2016-03-23,1,0.0016183604512356319,0.0019155929097211832,-0.00648328997148586,0.009473438009374826,0.990239455311779
2016-03-28,1,0.0016012450891650391,0.0019057919082625084,-0.006431233328983106,0.009473438009374826,0.9902444348979618
2016-03-30,1,0.002219878656832477,0.0026290397094040742,-0.006431233328983106,0.00735350909325083,0.9905847474830302
2016-04-01,1,0.002284882933192075,0.0027046314465063604,-0.008162905999139916,0.00735350909325083,0.9895711311227574
2016-04-05,1,0.0014589362967130132,0.001744161546182634,-0.006716893452889816,0.00735350909325083,0.9901610815173513
2016-04-07,1,0.001327768425226528,0.001615244869149158,-0.006716893452889816,0.005860205000441003,0.9915767415551402
2016-04-11,1,0.0012369258174349499,0.0014686642088291312,-0.006716893452889816,0.00735350909325083,0.9913894577260634
2016-04-13,1,0.0029144423744083495,0.003375985881757853,-0.0070079187812164545,0.005771003452129697,0.9926720755221388
2016-04-15,1,0.003194092303844723,0.003727447957715768,-0.008032468458541846,0.005771003452129697,0.9917660070628969
2016-04-19,1,0.003552576320240569,0.004127589459529853,-0.008613612768908666,0.005771003452129697,0.9914700937101685
2016-04-21,1,0.003469129483445266,0.004028957495006325,-0.008613612768908666,0.004871653673134857,0.9916489997424268
2016-04-25,1,0.0032108700932836323,0.0037376900913002535,-0.008613612768908666,0.005771003452129697,0.99151867055815
2016-04-27,1,0.003251627102667124,0.0037700249575433067,-0.008613612768908666,0.008693792296074239,0.9903869036736335
2016-04-29,1,0.002565598922412378,0.003003264480847025,-0.008613612768908666,0.008693792296074239,0.991343375533548
2016-05-03,1,0.002047451364168138,0.0023740156482942787,-0.007177528307633555,0.008693792296074239,0.9917514791562476
2016-05-05,1,0.0016699739138487358,0.00192892417255896,-0.007249844038749073,0.008693792296074239,0.9914796170466688
2016-05-09,1,0.0012033755462234565,0.0013247560612573428,-0.008885061074067908,0.006655361964866602,0.9911076918242178
2016-05-11,1,0.0016827608887810142,0.001913163306831851,-0.009104045363347139,0.0057772618658095435,0.9910794964574883
2016-05-13,1,0.0007665341194387944,0.0008227825282644333,-0.009317007974583865,0.0057772618658095435,0.9904763234995567
2016-05-17,1,0.0008981959079839088,0.0009930685293571017,-0.009317007974583865,0.005720497329241164,0.9906005703394221
2016-05-19,1,0.0010430895764178395,0.0011914665491834582,-0.009150565113060368,0.005720497329241164,0.9909530314177968
2016-05-23,1,0.001413233992831276,0.0016237309677166918,-0.009150565113060368,0.005720497329241164,0.991043070242897
2016-05-25,1,0.002016067630576551,0.002268602919104816,-0.009150565113060368,0.0029806249189124677,0.9915469785334474
2016-05-27,1,0.0015380907644947505,0.0017050797704504324,-0.012345875227192122,0.0018905905733627168,0.9882897093995604
2016-06-01,1,0.0007773099588281258,0.0007859202566382232,-0.012345875227192122,0.005720497329241164,0.986126408819284
2016-06-03,-1,-0.00022789159546655413,-5.8352880343492724e-05,-0.010167946934461509,0.007370269241496577,0.9855008512638878
2016-06-07,-1,-0.0005518077436894974,-0.0003420998249480452,-0.010513761863351016,0.009354459648802601,0.9853431994297265
2016-06-09,-1,-0.001084282420368589,-0.0008047570643354831,-0.009896650330784322,0.014104965633784994,0.9846784616578792
2016-06-13,-1,-0.0021906747268024976,-0.0017782917767368929,-0.005878095338904402,0.016833584289580077,0.9852829894220095
2016-06-15,-1,-0.0017544526058790762,-0.0014375817631036214,-0.005803436639865304,0.016833584289580077,0.985454998790451
2016-06-17,-1,-0.002069912448021608,-0.0017002929683143143,-0.005803436639865304,0.016833584289580077,0.9852364316586194
2016-06-21,-1,-0.0015823600264333756,-0.0012987321608771375,-0.007075077170686448,0.016833584289580077,0.9858141570872359
2016-06-23,-1,-0.0004760206785670261,-0.00035832189814669676,-0.007075077170686448,0.010263999200734295,0.9868890045824301
2016-06-27,-1,-0.003322200568192691,-0.002838891232586567,-0.006060381363171355,0.010263999200734295,0.988149285769122
2016-06-29,-1,-0.0016553153385881238,-0.0013700030949189458,-0.006060381363171355,0.004190129627568259,0.9909749067453474
2016-07-01,-1,-0.001729460345610458,-0.001399956255757266,-0.006060381363171355,0.0033237191030949177,0.9917741899640593
2016-07-06,-1,-0.002314950199065153,-0.0018863746325730284,-0.006060381363171355,0.0032481783231771222,0.9922031625230324
2016-07-08,-1,-0.0011007201416124751,-0.0008748407252630611,-0.006060381363171355,0.0032481783231771222,0.9929686303556925
2016-07-12,-1,-0.0004486310940930372,-0.0003177514257157533,-0.007075077170686448,0.002193979967898053,0.9931253655347022
2016-07-14,-1,-0.000539854302615713,-0.0004038101463732107,-0.006060381363171355,0.0021941157176284423,0.9934876585919084
2016-07-18,-1,-0.000623347230358114,-0.0004629241142631698,-0.006060381363171355,0.0015475963776109684,0.9936793724567583
2016-07-20,-1,-0.0006907721067235017,-0.000535151338587546,-0.00449337563829294,0.0021941157176284423,0.9936974322347962
2016-07-22,-1,-0.0003578140385384806,-0.0002692389425653295,-0.00449337563829294,0.0016561419538993034,0.9937417091920328
2016-07-26,-1,-0.001429805949357898,-0.001231978815507774,-0.0025670594194817254,0.0022179803779518938,0.9955584568520918
2016-07-28,-1,-0.0013997733310425096,-0.0012098531262237549,-0.0038416806977979645,0.002031496565802704,0.995363340191455
2016-08-01,-1,-0.0018341053323404754,-0.0015759326031548832,-0.0026606170126389933,0.0018140205553592928,0.9957412613421212
2016-08-03,-1,-0.0018952320337280982,-0.0016491847497959943,-0.0026606170126389933,0.0026916161823318623,0.9954453376355729
2016-08-05,-1,-0.0020174887682265956,-0.0017225511141524925,-0.0038416806977979645,0.0026916161823318623,0.9952259048261941
2016-08-09,-1,-0.0017288186012246803,-0.0015149240080777663,-0.002999558001472294,0.003448951298435799,0.9954921357061353
2016-08-11,-1,-0.001584566466150938,-0.001391219390990951,-0.004330579683099618,0.0027965232671055655,0.9946481878385086
2016-08-15,-1,-0.0017690890297858823,-0.0015509648293830542,-0.005665378781692395,0.004170375152738285,0.9930528402848067
2016-08-17,-1,-0.001651325831798724,-0.0014431386078350155,-0.005700823488593998,0.004596823357773388,0.9926260181682128
2016-08-19,-1,-0.0013426867249409884,-0.0011902006514211455,-0.00745731332267667,0.004596823357773388,0.9920536644347263
2016-08-23,-1,-0.0010761187593465978,-0.0009568021617640606,-0.00745731332267667,0.0031922079387428992,0.9922709087381801
2016-08-25,-1,-0.0016361846505767651,-0.001427175007331404,-0.008248229406249807,0.0031922079387428992,0.9921513383634774
2016-08-29,-1,-0.0017422028887465696,-0.0015073944330334264,-0.011031856976158771,0.004203124917642023,0.991686100571013
2016-08-31,-1,-0.001376142999235741,-0.0011962803671640174,-0.011396415558121483,0.004203124917642023,0.9913626846994477
2016-09-02,-1,-0.0004909104544893102,-0.0004828490354944544,-0.011067891384918675,0.004203124917642023,0.991369343234779
2016-09-07,-1,-0.00039832110747544975,-0.00039238857713664015,-0.011067891384918675,0.007153622739189463,0.9908059769126099
2016-09-09,-1,-0.0007306133887603788,-0.0007169177944573235,-0.011013244270368157,0.007153622739189463,0.9914057173946008
2016-09-13,-1,-0.0006831382658493986,-0.0006758225419278343,-0.011013244270368157,0.003745935372750124,0.9923485505138891
2016-09-15,-1,-0.0005601705567514445,-0.0005574909691423909,-0.011013244270368157,0.003161647976518082,0.9926760609328195
2016-09-19,-1,-0.0007774321261378854,-0.0007649802021448846,-0.011013244270368157,0.003263852196066344,0.9926410979384148
2016-09-21,-1,-0.0009729321258411384,-0.0009065895285845194,-0.011013244270368157,0.004007179129692669,0.9921480802645252
2016-09-23,-1,-0.0012723765384782845,-0.0011687553148040297,-0.008285365033881262,0.004007179129692669,0.9925844825451378
2016-09-27,-1,-0.0014296018990515675,-0.0013020149717247105,-0.008362084248800278,0.005195426086946002,0.9921900229136966
2016-09-29,-1,-0.0012219050729739677,-0.0011319424986510613,-0.008362084248800278,0.003800330561416118,0.9913223310303798
2016-10-03,-1,-0.0008311951821358764,-0.0008010000028857853,-0.008362084248800278,0.003263852196066344,0.9919452002171081
2016-10-05,-1,-0.0005423230600740103,-0.0005282147869354893,-0.009975912836743208,0.003161647976518082,0.9923458029701744
2016-10-07,-1,-0.0008612608324510413,-0.0008117119922602331,-0.007944313268347825,0.003263852196066344,0.992516480075956
2016-10-11,-1,-0.001086080598983687,-0.001006883388378453,-0.007731061642886347,0.003800330561416118,0.992327361481222
2016-10-13,-1,-0.0011482187360423277,-0.0010914084412071293,-0.0044025270240340975,0.00816782766228067,0.9877914698615385
2016-10-17,-1,-0.0006707643977031694,-0.0006012901088167467,-0.0007420810618076289,0.00998621236499408,0.9866869118533829
2016-10-19,-1,-0.00021771074723027503,-9.226617999708752e-05,-0.0044025270240340975,0.00816782766228067,0.9865835394088371
2016-10-21,0,-8.052451106963583e-05,6.642767493138962e-05,-0.0044025270240340975,0.009507017550500332,0.9860604429014543
2016-10-25,-1,-0.00012788040971251297,-4.083611033620777e-06,-0.0006248685278568232,0.008040124665929045,0.986790615181429
2016-10-27,-1,-0.0010218103278728915,-0.0010203837840436262,0.00015685389276782693,0.008040124665929045,0.9880087278368596
2016-10-31,-1,-0.0010424645508178396,-0.001020363010681528,-0.0006242980136900705,0.008040124665929045,0.9872567761765567
2016-11-02,-1,-0.001941334931030764,-0.0017649150565193469,0.0027455589020301792,0.009507017550500332,0.9857004209808212
2016-11-04,-1,-0.001647264153252788,-0.001505364800110959,0.001845763509410325,0.009507017550500332,0.986250017757365
2016-11-08,-1,-0.0015596065223589626,-0.0014269482582247009,0.0027455589020301792,0.011174327540242494,0.9859196595353541
2016-11-10,1,0.0014459995918851677,0.0017068105929665572,0.001845763509410325,0.009294954667031688,0.9907953696583638
2016-11-14,1,0.003177177687817349,0.0037147270581952335,0.0006959004100329869,0.0073775167055421444,0.9927668989371109
2016-11-16,1,0.0016653601246330073,0.0018496406893283848,0.0006959004100329869,0.0073775167055421444,0.9924622090812871
2016-11-18,1,0.0029657974584028322,0.003426662996978202,-0.0013165887446250255,0.0073775167055421444,0.9928242877127397
2016-11-22,1,0.003372292134395906,0.00391197169822788,-0.002074926995080009,0.00945013305556842,0.9920647528507077
2016-11-25,1,0.003437083278970441,0.003974495636859251,-0.004274371896316591,0.00945013305556842,0.991278308188608
2016-11-29,1,0.003316272489319261,0.0038733166489169036,-0.004274371896316591,0.00945013305556842,0.9916167996047699
2016-12-01,1,0.00457424743312726,0.0053308231797017935,-0.007085750585813068,0.005731428335442254,0.9914174108189706
2016-12-05,1,0.004474596606285975,0.005207954840859889,-0.007085750585813068,0.008279911875571231,0.9913307213270434
2016-12-07,1,0.005299077863424227,0.006152143631246445,-0.008233923076137243,0.005971127275148925,0.9902464531629221
2016-12-09,1,0.004885894863541766,0.0056701523229101235,-0.008233923076137243,0.005971127275148925,0.9902450624616681
2016-12-13,1,0.004792457179590511,0.005564154663898672,-0.008233923076137243,0.0074382700352015624,0.990248281487626
2016-12-15,1,0.0037928582298058407,0.004333948950838305,-0.00798403153617753,0.0074382700352015624,0.9905469284649662
2016-12-19,1,0.0039384751119636435,0.004491790490378521,-0.00798403153617753,0.00487290698323858,0.9904267907735986
2016-12-21,1,0.004013133803551004,0.004554611959755322,-0.00798403153617753,0.00487290698323858,0.9904051666241335
2016-12-23,1,0.0033746791939395157,0.003805417691802445,-0.007474808170026251,0.005819506513332551,0.9914492014719313
2016-12-28,1,0.0030842376217545676,0.0034941346415335874,-0.00798403153617753,0.005819506513332551,0.988695339430171
2016-12-30,1,0.002404100774836373,0.0026905315310111174,-0.008867990923585138,0.005819506513332551,0.9879313814030348
2017-01-04,1,0.0030978245196397166,0.003477911558699603,-0.009849167985287493,0.0036151947568530372,0.98753462651769
2017-01-06,1,0.0022517305448941523,0.00250609712129193,-0.008896549074816202,0.004780884857804072,0.9877547027401797
2017-01-10,1,0.0013723901350428196,0.0015182301291790114,-0.007876245657971685,0.0036151947568530372,0.9900184262540155
2017-01-12,1,0.0013158296320904318,0.0014504636896147446,-0.007876245657971685,0.004780884857804072,0.9895291181325488
2017-01-17,1,0.0011881752726899824,0.0013187105107400016,-0.007438879543957636,0.005495256488526812,0.9897900478876657
2017-01-19,1,0.0007897877367995394,0.0008419790459226618,-0.006121974406024068,0.007794757652222127,0.9889729916854626
2017-01-23,1,0.00108182816876835,0.001176619905668442,-0.006121974406024068,0.005495256488526812,0.989549243451651
2017-01-25,1,0.0014759461019318524,0.0016368093101516437,-0.006121974406024068,0.006288115372346925,0.9894880106777676
2017-01-27,-1,-0.0008190262219353612,-0.0006856458842600453,-0.003609078348794938,0.006288115372346925,0.9924523320831876
2017-01-31,-1,-0.0017886616665617524,-0.0015442789311016871,-0.0031171749094953283,0.008503563724121954,0.9919462442633765
2017-02-02,-1,-0.002814472010740315,-0.002406481959400488,-0.0031171749094953283,0.008503563724121954,0.9915399518715786
2017-02-06,-1,-0.00243072257532259,-0.0020629804208342015,-0.0031171749094953283,0.006288115372346925,0.9928263048689521
2017-02-08,-1,-0.00217687902698628,-0.0018499303108040965,-0.0032523258107771563,0.006288115372346925,0.9925797383346805
2017-02-10,-1,-0.0016210718672281165,-0.001328328538322156,-0.0032523258107771563,0.006288115372346925,0.9931758854858626
2017-02-14,-1,-0.0013682748709046115,-0.0011093610939084085,-0.003918678759529372,0.007174821649127895,0.9927698548853421
2017-02-16,-1,-0.000995520565614368,-0.0007548172841616759,-0.006217199877769622,0.005980558117799148,0.992249342154215
2017-02-21,-1,-0.0012761133052294378,-0.0009900326446734176,-0.008483341373752515,0.005980558117799148,0.9920413185919329
2017-02-23,-1,-0.0010130658759840492,-0.0007534046286106461,-0.008815004796153957,0.0034877287987624584,0.99207886887854
2017-02-27,-1,-0.0007758078811583982,-0.0005630077670336884,-0.008815004796153957,0.0034877287987624584,0.991826802846744
2017-03-01,-1,-0.00027744531444779373,-0.00014920622434471266,-0.00824522216318924,0.0034877287987624584,0.9922672212924429
2017-03-03,-1,-0.001284926898345506,-0.0010110518555816296,-0.007187942674175891,0.004612749601319834,0.9930621918564302
2017-03-07,-1,-0.0017755352108965083,-0.001425890127557346,-0.007187942674175891,0.004612749601319834,0.9930132757383209
2017-03-09,-1,-0.002061539147996363,-0.001667576467796369,-0.005786953358767423,0.007155925419664009,0.9926986862085571
2017-03-13,-1,-0.001787499590037286,-0.0014044904656738176,-0.005786953358767423,0.005745474969439574,0.9929328882229607
2017-03-15,-1,-0.001702822362779661,-0.0013480284576028706,-0.004238484673323912,0.00564563200174226,0.9933155536378571
2017-03-17,-1,-0.002988196045721452,-0.002482422064900752,-0.0031721939443450286,0.006672197568536296,0.9939216234620298
2017-03-21,-1,-0.0033824652705700606,-0.0028328859404441052,-0.0029408660081019417,0.007123268960299941,0.9935867697370444
2017-03-23,-1,-0.00420761146545366,-0.003510219360850562,-0.0029408660081019417,0.007123268960299941,0.9930107412144411
2017-03-27,-1,-0.004366599111864677,-0.003659854322890551,-0.00275722673181262,0.007692049337339064,0.9903951771763139
2017-03-29,-1,-0.004478941408228765,-0.0037399839052570123,-0.0013339191437711686,0.007692049337339064,0.9901121742608444
2017-03-31,-1,-0.004303515682940109,-0.003594549746120946,-0.00275722673181262,0.007692049337339064,0.9903281501297819
2017-04-04,-1,-0.004344243233021518,-0.0036281543574091025,-0.00275722673181262,0.008073615476629496,0.9895226010609852
2017-04-06,-1,-0.0015893226344487394,-0.0013612203917062059,-0.00275722673181262,0.007692049337339064,0.9914731640277215
2017-04-10,-1,-0.0005190676801389519,-0.0004729351056932601,-0.0031558797988201458,0.007117315110216007,0.991521095966198
2017-04-12,-1,-0.0005742998957848676,-0.0005089417096329561,-0.0031558797988201458,0.007452427478729701,0.9911237350655623
2017-04-17,1,6.812910374490919e-05,0.00010060653023374807,-0.0031558797988201458,0.007452427478729701,0.9916650654272011
2017-04-19,1,0.00031594501132930434,0.0003945615491567587,-0.004619995597207535,0.007075492127687557,0.9903029344057167
2017-04-21,1,0.000400132434319509,0.0004983880349725408,-0.003242256548304127,0.007605687795972104,0.9900650281890448
2017-04-25,-1,-0.0006007015969533483,-0.0005520385372714974,-0.00313162289694419,0.007605687795972104,0.9917657836273936
2017-04-27,1,0.00023358983967453512,0.0003347445625431728,-0.0034767694562888468,0.007929487509182992,0.9903149054036346
2017-05-01,1,0.00031810012380655434,0.0004329284001185839,-0.00313162289694419,0.007929487509182992,0.9907256791125442
2017-05-03,1,0.0011166601805855584,0.001374513717222186,-0.00313162289694419,0.009465296751554976,0.9903438347602087
2017-05-05,1,0.0010220689696508948,0.0012517493300674594,-0.0034647281106075,0.009465296751554976,0.9900393496120048
2017-05-09,1,0.0009106249593874954,0.0011240293279790058,-0.0034647281106075,0.009886146376310578,0.9897845295066424
2017-05-11,1,0.0007900208598327505,0.0009811075851736072,-0.00313162289694419,0.011269895039976021,0.9898162661434943
2017-05-15,1,0.0012305301292475988,0.0014951447157445777,-0.0034647281106075,0.010069865555428938,0.9896114123674284
2017-05-17,1,0.0004654874296089269,0.0006481531742305159,-0.0020683886293635084,0.010069865555428938,0.9913254259638428
2017-05-19,1,0.0008821824047920186,0.0011054214145450104,-0.0020683886293635084,0.009465296751554976,0.9918925642681723
2017-05-23,1,0.0009825438723119542,0.0012097494212497252,-0.0038429975236062204,0.009317556038395493,0.9917705260213956
2017-05-25,1,0.0004363903307398656,0.0005785493284401397,-0.002166980935042099,0.00897114554499209,0.9936129008956831
2017-05-30,1,0.0008403947101833102,0.001072971390447402,-0.002166980935042099,0.00897114554499209,0.9936335935062709
2017-06-01,1,0.0013679252501139012,0.001645459661938708,-0.0038429975236062204,0.00775062628906563,0.9937005884894409
2017-06-05,1,0.0009999436406129209,0.0011850972829912662,-0.0022494734310050473,0.00897114554499209,0.9934745131113926
2017-06-07,1,0.0010384997853250045,0.0012306123793410025,-0.0022494734310050473,0.00775062628906563,0.9937870192643966
2017-06-09,1,0.001440595565695416,0.0016774558403579512,-0.0022494734310050473,0.00897114554499209,0.9929956902397401
2017-06-13,1,0.0013389685809406839,0.0015539515621059256,-0.0022494734310050473,0.00785045266305546,0.9922998540116241
2017-06-15,1,0.0013799516383437745,0.0016123677433478472,-0.00010720001922293141,0.011762683040677839,0.9896813014556463
2017-06-19,1,0.001774964470957375,0.002074528505231697,-0.0016769845626893156,0.011762683040677839,0.9899719011602613
2017-06-21,1,0.0006344927753261597,0.0006912379405429407,0.0007594710993150587,0.011762683040677839,0.989738766715025
2017-06-23,1,0.0004360064724944684,0.00044468532779224084,-0.0006859648396125121,0.011762683040677839,0.989722445972569
2017-06-27,1,0.00025623057769382933,0.00030804522763556633,-0.0006859648396125121,0.012867344502431356,0.9876303060039855
2017-06-29,1,0.0003874465293561885,0.00041649810697750217,-0.0014252094036554998,0.012245353861263547,0.9874299163401695
2017-07-03,1,0.0007463745836590841,0.0007630635659871105,-0.0014252094036554998,0.012015052120532643,0.9877581765424327
2017-07-06,1,0.0007389246996391582,0.0007931522844095068,-0.0014252094036554998,0.012015052120532643,0.9882487305794629
2017-07-10,1,0.0016968379966056041,0.001884850572870273,-0.0014252094036554998,0.007438761067410486,0.9899266614604846
2017-07-12,1,0.001443290006715241,0.0016276726476546857,-0.0011941292116560294,0.007438761067410486,0.9910991909845698
2017-07-14,1,0.0028538105393417857,0.003218744973828723,-0.002390133799361392,0.004669353982719584,0.9933706686124799
2017-07-18,1,0.002867703467226251,0.003246947493510345,-0.002390133799361392,0.005650121863508731,0.9931646792948661
2017-07-20,1,0.003094963006227092,0.0035030517708600963,-0.003280232795285064,0.004669353982719584,0.9923178665342834
2017-07-24,1,0.0031744948589208814,0.0035991528046297717,-0.003782109073776526,0.004669353982719584,0.9921349955176199
2017-07-26,1,0.003984349027568693,0.004484868831973375,-0.00389493649886944,0.003268654829468338,0.9924994916981648
2017-07-28,1,0.0030055152969328544,0.003362711371913329,-0.003806237517585122,0.004669353982719584,0.9936996913511239
2017-08-01,1,0.003102567430699631,0.003463572891952617,-0.003806237517585122,0.0028605227581015484,0.9935315698203313
2017-08-03,1,0.0030788963970961995,0.0034575074380318537,-0.0028124581386814278,0.0037559889353543895,0.9937458385695894
2017-08-07,1,0.003181936028389323,0.0035657574625593503,-0.003806237517585122,0.0028605227581015484,0.9926783906647799
2017-08-09,1,0.002469010050150195,0.0027032849097400747,-0.00415231514107145,0.0028605227581015484,0.9928615835147361
2017-08-11,1,0.002036302189896157,0.002191682013075278,-0.003991230828361345,0.0037559889353543895,0.9926546189236167
2017-08-15,1,0.0021141263540403856,0.002265910730289658,-0.005131095813120952,0.0037559889353543895,0.9919853805697081
2017-08-17,1,0.0014444278816958711,0.0014899479042438117,-0.003991230828361345,0.005615621747188121,0.992922255895138
2017-08-21,1,0.0012853329325767362,0.0013099667898841584,-0.003373660362985139,0.006690847624474622,0.9927232476997058
2017-08-23,1,0.001318409793245273,0.0013465269311308697,-0.0026066013168893594,0.006653185305678229,0.993537520513946
2017-08-25,1,0.0015019701391159642,0.001550383439110942,-0.0017190241195034416,0.007271826436301653,0.9940021567410138
2017-08-29,1,0.0015856791784257416,0.0016626607723295057,-0.0026066013168893594,0.007323241140170569,0.9929209045932428
2017-08-31,1,0.0017312853492586783,0.0018404238271683348,-0.0018265288337114818,0.007670928227473031,0.9921285136844303
2017-09-05,1,0.001157422198164432,0.001189537189406458,-0.00036474998961103725,0.007670928227473031,0.992953065581663
2017-09-07,1,0.0010769968746279985,0.0011143969334959066,0.00024819728730212076,0.007670928227473031,0.9930206791553363
2017-09-11,1,0.0013561021586931368,0.001432951695980037,0.00024819728730212076,0.007323241140170569,0.9938048090807792
2017-09-13,1,0.0015221872816478994,0.0016146552048520923,0.001713496787735986,0.007272670741852406,0.9948035759062844
2017-09-15,1,0.0011883048509187522,0.0012021081008131223,0.002528572649997121,0.007323241140170569,0.9938613441323677
2017-09-19,1,0.0013404316949250335,0.0013615268500451233,0.001713496787735986,0.007272670741852406,0.9942266086705346
2017-09-21,1,0.0014656364214519501,0.0014997855579361491,0.00016645674425886463,0.007545033191562083,0.9940516155775706
2017-09-25,1,0.0019267140741823397,0.0020468849016614626,-0.0004825036850786081,0.008169524592396568,0.9938615215285919
2017-09-27,1,0.001989131052585624,0.0021133544700260394,-0.0004825036850786081,0.006144210798705741,0.9943249224110672
2017-09-29,1,0.0024362152016258725,0.002606374017792829,-0.0010278424378489313,0.005158517130677252,0.9947830962228515
2017-10-03,1,0.002296003001614662,0.00243248599310341,-0.0012873916919839416,0.005242641536108497,0.9938027915653249
2017-10-05,1,0.002492044681387552,0.0026637540960941014,-0.0019062652272929268,0.0057123800973532405,0.9927422162225881
2017-10-09,1,0.0018438885147825173,0.0018546834137880123,-0.0019062652272929268,0.0057123800973532405,0.9926259783451515
2017-10-11,1,0.002151747731535764,0.0022260589263956845,-0.004548341105676239,0.005109593041480247,0.9919324043935039
2017-10-13,1,0.002570517397594735,0.002702942165936177,-0.0077115489030880665,0.0043120482787541055,0.9918571707402369
2017-10-17,1,0.0020775555313145505,0.0020926779527969406,-0.0077115489030880665,0.006187130360125535,0.9916315708802054
2017-10-19,1,0.002096909263455577,0.0021063200048051203,-0.0077115489030880665,0.006187130360125535,0.9915442715719501
2017-10-23,1,0.0023913398249726875,0.0024780583498653355,-0.004723204562413074,0.004831386940920079,0.992365881566188
2017-10-25,1,0.0018800328131369642,0.0018910562861536744,-0.0030478603327694425,0.006187130360125535,0.9925029801421993
2017-10-27,1,0.0012365771833910254,0.0013104359661372242,-0.0020023651163179695,0.006187130360125535,0.9932927370201172
2017-10-31,1,0.0009886110523497627,0.0010730874577195198,-0.0014594800051055449,0.011717811403595527,0.9928268094430267
2017-11-02,1,0.0013655249140117987,0.0014123531346851095,-0.001291318793618092,0.011717811403595527,0.9932495262105313
2017-11-06,1,0.0011786608546284312,0.001257067811359338,-0.0014594800051055449,0.011717811403595527,0.9928071158330255
2017-11-08,1,0.0006546656521253097,0.0007911392530076734,-0.0003925310156320162,0.011717811403595527,0.9931810289283267
2017-11-10,1,0.00017718098124215056,0.00039630230772649485,-0.0003925310156320162,0.011717811403595527,0.9934934609260747
2017-11-14,1,0.00041362540170395356,0.0005977670159341097,-0.0003925310156320162,0.0101263396539458,0.9934365370564193
2017-11-16,1,0.0005959297237160371,0.0007573883437729665,-0.0003925310156320162,0.009411345765262497,0.9935178835866774
2017-11-20,1,0.0005789581899791076,0.0007515343405418348,-0.0016723831031722207,0.009411345765262497,0.9932935238020699
2017-11-22,1,0.0010503151606785473,0.001156334955405848,-0.0016723831031722207,0.008694756891014005,0.9934349564640242
2017-11-27,1,0.0006385396083967691,0.0008201939868032343,-0.0016723831031722207,0.008694756891014005,0.9931833861437619
2017-11-29,1,0.0021391660624513423,0.0021843210930934656,-0.0029357583647338366,0.00784127777221704,0.9943565746379828
