JNU-Tangyin/eata/results/Batch4_SP500/Batch4_SP500-EFX.csv
Date,Action,Predicted_Q25,Predicted_Q75,Actual_Q25,Actual_Q75,RL_Reward
2010-12-14,0,0.0,0.0007998656862334608,-0.004222609132863026,0.008518166065580854,0.9931532852601813
2010-12-16,1,0.000991188839950955,0.0010074930424469417,-0.0029224818535093866,0.008518166065580854,0.9931019529852986
2010-12-20,1,0.0024753213970362866,0.002747526464766048,-0.0067855753644088055,0.008518166065580854,0.9927141162776651
2010-12-22,0,0.0,0.0,-0.007611084186488945,0.008518166065580854,0.9924419726198601
2010-12-27,0,0.0,0.0,-0.007611084186488945,0.0061626047400704966,0.9928355347256218
2010-12-29,0,0.0,0.0,-0.005983968752677981,0.005108449432006078,0.9933672644939606
2010-12-31,0,0.0,0.0,-0.005983968752677981,0.005834767550780747,0.9927243172724086
2011-01-04,0,0.0,0.0,-0.0051809103905835025,0.005834767550780747,0.9933844540159343
2011-01-06,0,0.0,0.0,-0.0051809103905835025,0.0055321706832625606,0.9935099531742644
2011-01-10,0,0.0,0.0,-0.0031180775842898465,0.006382420476355791,0.9927792593858294
2011-01-12,0,0.0,0.0,-0.0069671084531797494,0.005729297349603559,0.99169098579641
2011-01-14,1,0.001362161118128907,0.001432228217157302,-0.0069671084531797494,0.005729297349603559,0.9918804063455697
2011-01-19,1,0.0005636423743299208,0.0007337811959862305,-0.0051809103905835025,0.005729297349603559,0.9922322795372985
2011-01-21,0,-6.78772601198993e-05,0.0001670485599037922,-0.003938099246404999,0.006135700607576327,0.992562373478629
2011-01-25,1,0.0007691752182209324,0.0008625667056145971,-0.0070871103998506975,0.006135700607576327,0.9905830139763799
2011-01-27,0,-4.8167042713074236e-05,0.00011112050488584996,-0.006498710615525951,0.006382420476355791,0.9905613554651556
2011-01-31,-1,-0.0007634448613003684,-0.0004968331474923659,-0.004997326239694072,0.007420873958659792,0.9908886137111516
2011-02-02,0,0.0,0.0,-0.00395064835695715,0.007868573530374871,0.9901541009571926
2011-02-04,0,0.0,0.0,-0.008394528187713066,0.007868573530374871,0.9893103001794995
2011-02-08,0,0.0,0.0,-0.008394528187713066,0.007868573530374871,0.9889796519216978
2011-02-10,0,0.0,0.0,-0.005654363651527412,0.012963216859807072,0.9889925732582027
2011-02-14,0,0.0,0.0,-0.012842883494249332,0.007868573530374871,0.9885157430366491
2011-02-16,0,0.0,0.0,-0.012842883494249332,0.007868573530374871,0.9881724864882355
2011-02-18,0,0.0,0.0,-0.012842883494249332,0.01384416505982999,0.986872566583734
2011-02-23,0,0.0,0.0,-0.008006053259029247,0.01384416505982999,0.9886601218914833
2011-02-25,0,0.0,0.0,-0.008006053259029247,0.01384416505982999,0.9883583708249434
2011-03-01,-1,-0.0027788545043796226,-0.0023988683405128035,-0.008006053259029247,0.012458919245302071,0.9882567364449698
2011-03-03,0,0.0,0.0,-0.008006053259029247,0.011245445197383118,0.9891818133940149
2011-03-07,0,0.0,0.0,-0.0011097064124461298,0.012458919245302071,0.9892006606521935
2011-03-09,0,0.0,0.0,-0.0051745689397624155,0.011245445197383118,0.990003137972012
2011-03-11,0,0.0,0.0,-0.008211919656058933,0.010421490732981537,0.9900442958620501
2011-03-15,-1,-0.001083018062673393,-0.0008169025677787214,-0.0051745689397624155,0.010421490732981537,0.9905748040916256
2011-03-17,-1,-0.001542848631539465,-0.0012328602815487673,-0.004495823420847381,0.010421490732981537,0.9906330946228655
2011-03-21,0,-6.0273847594065745e-05,6.13220755215842e-05,-0.005750785864685884,0.008145119744948576,0.9918096461471014
2011-03-23,-1,-0.0003274255239365494,-0.00014776474410466383,-0.005750785864685884,0.010421490732981537,0.9907547664764971
2011-03-25,1,0.0006679004520486705,0.0006888441107205997,-0.006096935056956076,0.010130819811232379,0.9911712259200561
2011-03-29,0,0.0,0.0,-0.008141702143560784,0.008127450820765117,0.990878657203773
2011-03-31,0,0.0,0.0,-0.008141702143560784,0.00434143260293824,0.9915545487564226
2011-04-04,0,0.0,0.0,-0.008141702143560784,0.0028845954094110656,0.9915624832806608
2011-04-06,1,0.0019449265340431697,0.00213470374092028,-0.0064747836945413155,0.005129914190302464,0.9916004709852848
2011-04-08,1,0.0007134039490022824,0.0007165814077629577,-0.005541295573949586,0.005129914190302464,0.9926575185551366
2011-04-12,1,5.6343937157438037e-05,0.0001341294893977087,-0.005541295573949586,0.007120007464193387,0.9921220523655105
2011-04-14,1,0.0003559057799264223,0.0003775720714375427,-0.006045288200225572,0.007120007464193387,0.9918546011733028
2011-04-18,-1,-0.0008753576401545222,-0.0006679326507015325,-0.006059637541188931,0.007120007464193387,0.9918785703977635
2011-04-20,1,0.0005968251597478352,0.0006008533453842861,-0.006059637541188931,0.005129914190302464,0.9925048371693374
2011-04-25,1,0.00026262083782477915,0.00031716062406577424,-0.007917254827002939,0.004154488415154259,0.9919625710595892
2011-04-27,1,0.0007525622473036788,0.0008210781521398745,-0.007505685772957915,0.0035555767252134713,0.9921883446803099
2011-04-29,1,0.00033848466910066426,0.0003512083585361335,-0.007505685772957915,0.004754692451091613,0.9922524074210444
2011-05-03,1,0.0011053171126153261,0.0011848624903267307,-0.008039895098822752,0.004754692451091613,0.9913269139258568
2011-05-05,1,0.0013070924307530974,0.0014114182718064758,-0.009584169126169537,0.0040094100197176925,0.9905200382423559
2011-05-09,1,0.0004960474493896573,0.000518377566403807,-0.009584169126169537,0.0040094100197176925,0.9907856519208226
2011-05-11,1,0.0005106096300834242,0.00052791715782276,-0.009584169126169537,0.0033504980248138454,0.9913496674565192
2011-05-13,1,0.00016251059383348964,0.00019429435508955582,-0.01164305189421323,0.0033504980248138454,0.990853810657615
2011-05-17,-1,-0.0004730092224278036,-0.0003609430401840067,-0.016948029139761556,0.0040094100197176925,0.9904635966828506
2011-05-19,1,0.0004060386481309162,0.00042320012717828796,-0.016948029139761556,0.00318505134003582,0.9909927103272724
2011-05-23,-1,-0.00017224838837737687,-0.00010487253951940037,-0.00989280984248893,0.0040094100197176925,0.991447386615736
2011-05-25,-1,-0.0006204973827819308,-0.0004821343183232363,-0.010819500197457614,0.002616399935682086,0.9913181895577928
2011-05-27,-1,-0.00043156154872405953,-0.00032874139161885276,-0.010819500197457614,0.002616399935682086,0.9910271864166961
2011-06-01,-1,-0.0006149831039913248,-0.0005047420801337615,-0.008088825217579514,0.004172898879739928,0.9925854275690275
2011-06-03,-1,-0.0011836846318918344,-0.0010010114943766924,-0.006331454563767566,0.0060033650329331745,0.9924506376071749
2011-06-07,-1,-0.0012016864012327723,-0.0010240806583732903,-0.007512549970432831,0.006493443530161026,0.9918278714956493
2011-06-09,-1,-0.0010896021632735332,-0.0009643163277913145,-0.007512549970432831,0.007129799742374385,0.9913399918627562
2011-06-13,-1,-0.0020361966292434704,-0.001774966113142052,-0.007512549970432831,0.007129799742374385,0.990922142936736
2011-06-15,-1,-0.0026363408518799325,-0.002281526453806849,-0.007512549970432831,0.007129799742374385,0.9912804458017203
2011-06-17,-1,-0.002538890703893442,-0.0022152026956164415,-0.008088825217579514,0.007131260468212949,0.9903841817705042
2011-06-21,-1,-0.0023724165343816913,-0.00206611090078037,-0.008088825217579514,0.007765650906924283,0.9901889930589793
2011-06-23,-1,-0.0030312881437679186,-0.0026291681024502855,-0.007920580096533006,0.009604937599701057,0.9893785716848067
2011-06-27,-1,-0.0029041513860829614,-0.002522593899955847,-0.009165686390558897,0.009604937599701057,0.9894896794893517
2011-06-29,-1,-0.0021682036762735763,-0.0018902637839320964,-0.009508218303007684,0.012281426836718254,0.987016470845831
2011-07-01,-1,-0.0006681750655193216,-0.0006012484187138481,-0.009508218303007684,0.007467491206828035,0.9875545141264428
2011-07-06,-1,-0.0009665412493238291,-0.0008268016004519194,-0.011255499420601013,0.007466865867634339,0.9867448574209118
2011-07-08,-1,-0.001426740600657132,-0.001244777943717582,-0.011255499420601013,0.006576836653418395,0.9855842015218278
2011-07-12,-1,-0.0019620592864329355,-0.0017137587171959575,-0.011255499420601013,0.007466865867634339,0.9817406659558844
2011-07-14,0,0.0,0.0,-0.017822960964459674,0.009906276547538508,0.9783427519478718
2011-07-18,-1,-0.002994066542623464,-0.0025567999785531433,-0.01271720713014212,0.011162890104056076,0.9788923413053066
2011-07-20,-1,-0.002346404729667061,-0.002004056756378314,-0.021233054770648137,0.009190712951500613,0.9782723138878788
2011-07-22,-1,-0.0019470551694990342,-0.0016728017577338225,-0.024291561100272606,0.008086864270660212,0.9764987091205649
2011-07-26,0,0.0,0.0,-0.024291561100272606,0.011135244348559295,0.9746884143842431
2011-07-28,0,0.0,0.0,-0.023112397500144093,0.011135244348559295,0.9762268472329382
2011-08-01,0,0.0,0.0,-0.023112397500144093,0.021439695344855885,0.9749140704537784
2011-08-03,0,0.0,0.0,-0.01299714391053836,0.021439695344855885,0.97605597860325
2011-08-05,0,0.0,0.0,-0.01680917758090008,0.021439695344855885,0.9766608902334027
2011-08-09,0,0.0,0.0,-0.015467645728810903,0.021439695344855885,0.9792124843946493
2011-08-11,0,0.0,0.0,-0.015467645728810903,0.015105925308647255,0.9807009986867288
2011-08-15,0,0.0,0.0,-0.015467645728810903,0.01749772892786545,0.9803589718295728
2011-08-17,-1,-0.002694261481841837,-0.0024550173952466283,-0.01473593616952337,0.020677946672960763,0.9795938300157094
2011-08-19,-1,-0.003957133650047571,-0.003592429922361317,-0.01473593616952337,0.020677946672960763,0.9811367177555436
2011-08-23,-1,-0.0020436166692976623,-0.0019306778410568529,-0.015467645728810903,0.017448141944172005,0.9822806510668002
2011-08-25,0,0.0,0.0,-0.015939765915570375,0.01618989051805022,0.9825788079480058
2011-08-29,0,0.0,0.0,-0.015939765915570375,0.01618989051805022,0.9819836533112825
2011-08-31,0,0.0,0.0,-0.018398766100902422,0.01618989051805022,0.9812991493355102
2011-09-02,0,0.0,0.0,-0.020223508124061203,0.01618989051805022,0.980469613387319
2011-09-07,0,0.0,0.0,-0.020223508124061203,0.017448141944172005,0.9795855893948148
2011-09-09,-1,-0.0028897144425504458,-0.0026409153727007862,-0.017945692516588646,0.017448141944172005,0.9803551870434627
2011-09-13,-1,-0.00095036977889061,-0.0009182945827325361,-0.017945692516588646,0.02172526889830551,0.9796322350878498
2011-09-15,1,0.0002690145799048204,0.00046640467526942427,-0.017945692516588646,0.01546372742606096,0.9811195107183671
2011-09-19,0,-2.1777691552636233e-05,0.000137483156913369,-0.020223508124061203,0.018339964721668357,0.9800538046962648
2011-09-21,-1,-0.0012187359555648899,-0.0012157114237611583,-0.01702519314489686,0.025553719180248978,0.9792750917808939
2011-09-23,-1,-0.0009569447038943347,-0.0008664553234624393,-0.012192433431420971,0.025553719180248978,0.9797021270484713
2011-09-27,1,0.0010031136853969613,0.0013700431865185606,-0.01702519314489686,0.016288889153105297,0.9809285022760512
2011-09-29,1,0.0004113869399971217,0.0006819655973231375,-0.012192433431420971,0.021019388576676037,0.9788474225074735
2011-10-03,-1,-0.001262930897629517,-0.0012245249324286602,-0.008855992503872492,0.021019388576676037,0.9805744187098713
2011-10-05,1,0.0005739450283937048,0.0008433431389722662,-0.010534112433352703,0.0173513262852066,0.9814878123282624
2011-10-07,0,0.0,0.0,-0.008855992503872492,0.019810251763883173,0.9812841592312646
2011-10-11,0,0.0,0.0,-0.008855992503872492,0.0173513262852066,0.9823774989243687
2011-10-13,0,0.0,0.0,-0.011840005516194603,0.0173513262852066,0.9806216390725978
2011-10-17,1,0.0018256291100591626,0.002240961462081765,-0.008855992503872492,0.019810251763883173,0.9819068700914267
2011-10-19,1,0.0023388238695301183,0.0028337391667206616,-0.008855992503872492,0.019084735806975645,0.9820349013104134
2011-10-21,0,0.0,0.0,-0.012285495108705122,0.019084735806975645,0.981435376857808
2011-10-25,0,0.0,0.0,-0.012258826464319103,0.019084735806975645,0.9823440836897566
2011-10-27,0,0.0,0.0,-0.017812065116830686,0.009902557260114665,0.9845503523210888
2011-10-31,0,0.0,0.0,-0.017812065116830686,0.016279538965054154,0.9826389044253169
2011-11-02,1,0.0047762665734318865,0.005549234033501372,-0.0102106627294349,0.016279538965054154,0.9834222977850825
2011-11-04,1,0.005466933482950213,0.006300253640873795,-0.0102106627294349,0.01462880889005834,0.9840076954295365
2011-11-08,0,0.0,0.0,-0.011598679125095853,0.013888134937401996,0.9838385950630489
2011-11-10,0,0.0,0.0,-0.009204118523417312,0.016279538965054154,0.9844773112059262
2011-11-14,0,0.0,0.0,-0.011492150098158157,0.013888134937401996,0.9847640804685649
2011-11-16,0,0.0,0.0,-0.009204118523417312,0.010990758833033567,0.9863525041199619
2011-11-18,0,0.0,0.0,-0.007839174684708683,0.010990758833033567,0.9872365206675612
2011-11-22,1,0.003306513115695776,0.0036898759595253724,-0.007767912125185084,0.013888134937401996,0.986349011446572
2011-11-25,1,0.002606857069231688,0.0028986659522281535,-0.004479796248804853,0.014196981957086437,0.9870584381570634
2011-11-29,1,0.0021212403821439445,0.0024456625938642927,-0.007767912125185084,0.010990758833033567,0.9882364199755213
2011-12-01,1,0.0027645854260256843,0.0031529047673440874,-0.007767912125185084,0.01036706974950314,0.9902632659944338
2011-12-05,1,0.0030314006874545066,0.00344563553527471,-0.008879557016214644,0.008343963764938771,0.9900667105913418
2011-12-07,1,0.002818101930405123,0.003193333402483305,-0.007767912125185084,0.01036706974950314,0.9901755653097335
2011-12-09,1,0.003406646284832911,0.00387509633241443,-0.0040635358317183965,0.01036706974950314,0.9910074883187829
2011-12-13,1,0.0026315229150284474,0.0029994725807397566,-0.006010156997141539,0.01036706974950314,0.991590938654681
2011-12-15,1,0.002667728490907831,0.0030181360290123926,-0.006010156997141539,0.008536975050194984,0.9915142603001479
2011-12-19,1,0.002954460202675763,0.0033816231476808266,-0.004330778223782526,0.011593235190590433,0.9913638215025435
2011-12-21,1,0.0031848790006710607,0.0036063487804367782,-0.004330778223782526,0.008536975050194984,0.9924076249417966
2011-12-23,1,0.0033444470986317395,0.0037712992982762497,-0.004330778223782526,0.006263688925728578,0.992471431591038
2011-12-28,1,0.0022107143219922596,0.00243666802159537,-0.004330778223782526,0.006263688925728578,0.9932206356648828
2011-12-30,1,0.0022604766165793284,0.0024763811580077373,-0.005951899814329794,0.002962229099773626,0.993118516361779
2012-01-04,1,0.0015908201924877297,0.0016705594089690909,-0.005951899814329794,0.006263688925728578,0.9927673512627847
2012-01-06,1,0.002067509034022649,0.002207434697274086,-0.005951899814329794,0.006263688925728578,0.9926924651775088
2012-01-10,1,0.0019226330484293855,0.00201089285074832,-0.006432555811543865,0.0027334983603511383,0.9928998283589321
2012-01-12,1,0.00035650820356847453,0.0005373841666700076,-0.004471577828583301,0.006494779100182479,0.9900780752136275
2012-01-17,1,0.0012755810563133093,0.0012841698622697599,-0.003869802726292145,0.006494779100182479,0.9901381779198503
2012-01-19,1,0.001692568146287082,0.0017293501227777185,-0.006482240580628282,0.006494779100182479,0.989335413382911
2012-01-23,1,0.0015620770786750348,0.0016391312868400934,-0.006482240580628282,0.006494779100182479,0.9894655271175301
2012-01-25,1,0.0019319774817451122,0.0020679546451312083,-0.006482240580628282,0.005167339136674735,0.9898862904357689
2012-01-27,1,0.0006982905575187773,0.000782314262907656,-0.003500971813157387,0.005167339136674735,0.9905329389863259
2012-01-31,1,0.0010169216345558563,0.001022931788446672,-0.0026456829652174736,0.005167339136674735,0.9904984955025953
2012-02-02,0,-0.00017104430248139017,5.346890633292124e-05,-0.0026456829652174736,0.005167339136674735,0.9902145144994222
2012-02-06,1,0.000738167308366657,0.0008175245776525136,-0.007519154303346652,0.004516738892825712,0.9900205730600903
2012-02-08,1,0.0007868014392710993,0.0008195782872773753,-0.0025915290492903526,0.006608665929038269,0.989208214451337
2012-02-10,1,0.0021520501661527643,0.002254004922225941,-0.0025915290492903526,0.006588520474940254,0.991469165514961
2012-02-14,1,0.0014318838755119894,0.001474592104709748,-0.008514866721473068,0.005944635382457235,0.9911583814352645
2012-02-16,1,0.0010728761636201016,0.001161515697893253,-0.006275502123195586,0.00493500673837299,0.9920914313424323
2012-02-21,1,0.0012089767974446477,0.0012323956824493263,-0.005346091425737527,0.00493500673837299,0.9921813270154058
2012-02-23,1,0.0008755504699942937,0.0009490057318448486,-0.005346091425737527,0.00493500673837299,0.9921476681335608
2012-02-27,0,-0.00022118178895752386,4.85491643709814e-05,-0.005346091425737527,0.007876223813444529,0.9911943968837446
2012-02-29,1,0.00036861926155008464,0.000465696511861072,-0.006275502123195586,0.007876223813444529,0.9905474693435619
2012-03-02,-1,-0.0003243047464969543,-0.00011787820704048152,-0.005346091425737527,0.007876223813444529,0.9911192156440262
2012-03-06,-1,-0.0001585833566591469,-1.2167011376060786e-05,-0.005271060457437762,0.011260817380015265,0.9911903807213848
2012-03-08,1,0.0004362634291005201,0.000513874948623888,-0.005431015594755271,0.006844661968118655,0.9916893236371974
2012-03-12,1,0.0012561603993588078,0.0012656253419827247,-0.008401563541864285,0.004600204886731199,0.9916359345265651
2012-03-14,1,0.0011954233090044138,0.0012249333037900757,-0.006543382671241216,0.008264831249624969,0.9905927083078916
2012-03-16,1,0.001960605554435953,0.0020644960255644983,-0.00655782804445653,0.008264831249624969,0.9906299844883225
2012-03-20,1,0.001554006587097679,0.001561410741595052,-0.008184287891626424,0.012772214884862253,0.9900269377408976
2012-03-22,1,0.002085547716607388,0.0022305100194343133,-0.008400249906660554,0.012772214884862253,0.9891567692964234
2012-03-26,1,0.002106779011034354,0.002229064115817043,-0.009395966830105336,0.012330087115327286,0.9889101149220673
2012-03-28,0,0.0,0.0,-0.007915969465179551,0.012772214884862253,0.9877493170467329
2012-03-30,0,0.0,0.0,-0.007915969465179551,0.012330087115327286,0.9880629703284692
2012-04-03,1,0.0018651133682892496,0.0019557370251516546,-0.007915969465179551,0.007708350783405683,0.9882072634915793
2012-04-05,1,0.0006619160375824129,0.0007893412311992466,-0.007915969465179551,0.01267566231163295,0.9879769972263633
2012-04-10,0,-0.00012106094058643283,7.66356562928313e-05,-0.007323972023751244,0.013132832871754152,0.9882297768126015
2012-04-12,1,0.0006558145834044494,0.0007733026050007632,-0.007323972023751244,0.012450293110957918,0.9888636021043034
2012-04-16,0,-0.00015615053015570143,9.521012077755699e-05,-0.007323972023751244,0.012450293110957918,0.9890313508434375
2012-04-18,-1,-0.0004763820491941825,-0.0001550040878750765,-0.007018278087770067,0.007708350783405683,0.9901578008961291
2012-04-20,-1,-0.000930776199449064,-0.000518829695351205,-0.007855039432646987,0.004311522188511987,0.989510938651566
2012-04-24,-1,-0.0005937511768990988,-0.00029865894366229787,-0.006260827403137214,0.00786074097011275,0.9890499993393002
2012-04-26,1,0.0020959221788278237,0.002170130400992111,-0.006260827403137214,0.004706182948457294,0.9911069345355771
2012-04-30,1,0.0018390294807460257,0.0019029230829313887,-0.005600194819154674,0.008282243603815038,0.9913584714225571
2012-05-02,1,0.0014278444924531602,0.0014369450280446168,-0.00809086932831846,0.008282243603815038,0.9904973994093862
2012-05-04,1,0.0015077014572568443,0.0015287829525480819,-0.00809086932831846,0.006784673034737423,0.9896373500076984
2012-05-08,1,0.0007654015847548714,0.000877102757340254,-0.005600194819154674,0.008282243603815038,0.9891452383647997
2012-05-10,0,0.0,0.0,-0.0035991816197144823,0.008282243603815038,0.9884554393298828
2012-05-14,0,0.0,0.0,-0.008858191136002303,0.00849828905019385,0.9874841594026823
2012-05-16,1,0.16774927258943131,0.17139757436064004,-0.008858191136002303,0.010316142244062503,0.8563731179034886
2012-05-18,1,0.0001109352282116985,0.0002986243399578656,-0.005286149121283317,0.010316142244062503,0.9874570920273943
2012-05-22,0,0.0,0.0,-0.004284716803874707,0.00849828905019385,0.988086834214276
2012-05-24,0,0.0,0.0,-0.005626395164992606,0.009134666005630215,0.9874010441641988
2012-05-29,1,0.0005970555472583195,0.0007901513405923314,-0.009390998996934886,0.008257329356555727,0.9865919191911708
2012-05-31,-1,-0.00027653109227972965,-4.372912080166701e-06,-0.006433580134590485,0.008257329356555727,0.9871066721013657
2012-06-04,-1,-0.0016594721959608493,-0.0012584583465172583,-0.005329185563818664,0.014947850239603227,0.9866239335757128
2012-06-06,0,-0.0002638362264289106,9.339213110841067e-06,-0.006433580134590485,0.008257329356555727,0.9881904588098788
2012-06-08,1,0.0010703072291367852,0.0011934618108206615,-0.007579420361115119,0.0063093306101983,0.9889275630219092
2012-06-12,1,0.0007416573586190427,0.0008005148832540776,-0.006433580134590485,0.005257546781789836,0.9898725836446557
2012-06-14,1,0.0014600017993423096,0.0014601175487641473,-0.006433580134590485,0.005257546781789836,0.9901686840140087
2012-06-18,1,0.0009116653393787187,0.0009672238183930278,-0.006687791557593292,0.006521456262010422,0.9897633255744501
2012-06-20,1,0.00016962157127438458,0.00033472379910180603,-0.006687791557593292,0.006521456262010422,0.9899076649371735
2012-06-22,-1,-0.0004833680742054701,-0.00022159578267180648,-0.006687791557593292,0.005257546781789836,0.990295279962569
2012-06-26,-1,-0.0013584841435856857,-0.0009965354290734113,-0.0038546018010207047,0.005318686924031767,0.99136695479376
2012-06-28,-1,-0.0013852015537069422,-0.0010242355870356686,-0.004406022825197454,0.005120207008017136,0.9902984153128683
2012-07-02,0,0.0,0.0,-0.00840951400775963,0.004101002953007701,0.9922227015663931
2012-07-05,0,0.0,0.0,-0.008890203946369581,0.003970548490436348,0.9914876762420248
2012-07-09,0,0.0,0.0,-0.008192128515168375,0.0050998269606031595,0.9912670497444144
2012-07-11,0,0.0,0.0,-0.00864815367451265,0.005120207008017136,0.9908087641895554
2012-07-13,0,0.0,0.0,-0.00899898854790381,0.004063640539469017,0.9912380541965105
2012-07-17,0,0.0,0.0,-0.00899898854790381,0.0038321736103809328,0.9917206669765518
2012-07-19,1,0.0023046559132224634,0.0024334769839427263,-0.00899898854790381,0.004884690252120894,0.9909164546147018
2012-07-23,0,0.0,0.0,-0.008236286271003476,0.005120207008017136,0.9911039624087948
2012-07-25,0,0.0,0.0,-0.008236286271003476,0.004884690252120894,0.9911562185745846
2012-07-27,0,0.0,0.0,-0.008054839380665316,0.0059675825708519845,0.9922216486239259
2012-07-31,0,0.0,0.0,-0.008236286271003476,0.00575244586236972,0.9919951756715828
2012-08-02,-1,-0.0005492968050769888,-0.0004288983497582091,-0.008236286271003476,0.00575244586236972,0.9926995582997786
2012-08-06,-1,-0.00020986929883780471,-0.00011002600396532215,-0.008236286271003476,0.006413551291676142,0.9928693406370466
2012-08-08,-1,-0.00027130018240246285,-0.00016511700179231846,-0.0060246639768844566,0.006413551291676142,0.9925208810941769
2012-08-10,-1,-0.000825296008133244,-0.0006410432022959249,-0.007168385598572734,0.006413551291676142,0.9927958343556917
2012-08-14,-1,-0.001041191328309397,-0.0008297907072675325,-0.007168385598572734,0.008261434537432527,0.9922741487220393
2012-08-16,0,-9.202392260624682e-06,4.91951643778234e-05,-0.007168385598572734,0.008531955470445308,0.991737476465312
2012-08-20,-1,-0.00042762793336958407,-0.0002780571908048438,-0.007168385598572734,0.008531955470445308,0.9917063513658418
2012-08-22,-1,-0.0003142654167262285,-0.00020596061276835444,-0.008018510671695237,0.008531955470445308,0.9911991089836634
2012-08-24,1,0.00017872776027984337,0.00022207951213151566,-0.008159752341730695,0.008261434537432527,0.9909753421232
2012-08-28,-1,-0.0009654253857830324,-0.0007591146058202877,-0.007732832247088602,0.008261434537432527,0.9912461637333065
2012-08-30,-1,-0.0022354822318341704,-0.0018233407441727795,-0.007168385598572734,0.008698704682306348,0.990894339499131
2012-09-04,-1,-0.000913049416214542,-0.000718453853042895,-0.007168385598572734,0.009704364949084509,0.990619868766236
2012-09-06,-1,-0.0002744603514965561,-0.0001419155238296782,-0.007168385598572734,0.011118820041015557,0.990435092865602
2012-09-10,0,0.0,0.0,-0.005998541198996115,0.011118820041015557,0.9904858316888698
2012-09-12,0,0.0,0.0,-0.005336486958804581,0.011118820041015557,0.9913299479201527
2012-09-14,0,0.0,0.0,-0.005336486958804581,0.009077341841472096,0.9921374422742613
2012-09-18,0,0.0,0.0,-0.005336486958804581,0.010708060671312258,0.9916223494312638
2012-09-20,0,0.0,0.0,-0.004018896836720093,0.010708060671312258,0.9918767993547932
2012-09-24,1,0.00023163066250809862,0.00024799378509578597,-0.0006177755267998246,0.010708060671312258,0.9919489862840887
2012-09-26,-1,-0.0003580223057475822,-0.00027449847504773685,-0.0006177755267998246,0.010708060671312258,0.9911608016908109
2012-09-28,1,0.00013970017785563667,0.0001764456076225469,-0.0006177755267998246,0.010205857860054457,0.9916409889760601
2012-10-02,1,0.0008110698543380508,0.0008761225913103568,-0.0006177755267998246,0.009290146075095778,0.9922307840470874
2012-10-04,1,0.001658753336009154,0.0018402958031977447,-0.004018896836720093,0.006690858910325352,0.9931965183673004
2012-10-08,1,0.001760845422709034,0.001957136347953435,-0.005214955344983549,0.006690858910325352,0.9925753941019227
2012-10-10,1,0.0006436244619610705,0.0006917888765338026,-0.003187151648305219,0.00750460522512744,0.9922636255264207
2012-10-12,1,0.0012080421685485726,0.0012691241572711876,-0.003187151648305219,0.00852583345763452,0.9915997118034527
2012-10-16,1,0.002049546233116051,0.0022437417306143265,-0.006861420538577686,0.006690858910325352,0.991019301511862
2012-10-18,1,0.00254090331713323,0.002822830882223646,-0.006861420538577686,0.006690858910325352,0.9909358311796442
2012-10-22,0,0.0,0.0,-0.005766444126398118,0.006690858910325352,0.9913585400282025
2012-10-24,0,0.0,0.0,-0.0013445706970531563,0.006690858910325352,0.9925547556267266
2012-10-26,0,0.0,0.0,-0.0013445706970531563,0.0064153831939597625,0.9928775851582415
2012-11-01,0,0.0,0.0,-0.0029672020830320556,0.005905740718894087,0.9930662830476499
2012-11-05,0,0.0,0.0,-0.0008440546173213293,0.008564314358654524,0.9906017222051218
2012-11-07,0,0.0,0.0,-0.0008440546173213293,0.006858863579012449,0.9915080076517648
2012-11-09,1,0.0017879257850115958,0.00199379652595559,-0.001343716577574914,0.005905740718894087,0.9919575082226966
2012-11-13,1,0.0021794505490072874,0.002417905602389866,-0.002579161988993924,0.005160181927832446,0.9927226964916095
2012-11-15,1,0.0009140879084996874,0.0009688214379065508,-0.002579161988993924,0.005160181927832446,0.9932911316923396
2012-11-19,1,0.000736567715751865,0.000752482172214277,-0.002579161988993924,0.005160181927832446,0.9920852481407925
2012-11-21,1,0.0009816240012156293,0.000989075845054038,-0.0033675065488953516,0.004367721275793508,0.9917711366534904
2012-11-26,1,0.0020394404432604245,0.002293245900103276,-0.004211527945642167,0.0033394552435067454,0.9912148521206742
2012-11-28,0,0.0,0.0,-0.004823917361693903,0.0033394552435067454,0.9903979293188871
2012-11-30,0,0.0,0.0,-0.005755374997950487,0.005324817725934624,0.9897656607271833
2012-12-04,0,0.0,0.0,-0.005755374997950487,0.0031333536177579986,0.9918381000099228
2012-12-06,0,0.0,0.0,-0.005755374997950487,0.005210763041312339,0.9910768961710248
2012-12-10,1,0.0009761295092308687,0.0012226896327972023,-0.005755374997950487,0.010304536316160033,0.9908383104698818
2012-12-12,0,0.0,0.0,-0.005755374997950487,0.010304536316160033,0.9907866478194477
2012-12-14,0,0.0,0.0,-0.003525907917216027,0.010304536316160033,0.9909331836916503
2012-12-18,0,0.0,0.0,-0.005102245376067699,0.008842838601676863,0.9921000410115002
2012-12-20,0,0.0,0.0,-0.003662403977794295,0.010304536316160033,0.9913187112435654
2012-12-24,0,0.0,0.0,-0.0032852449202407557,0.011557045996597645,0.9913593956938354
2012-12-27,0,0.0,0.0,-0.0030961386011238204,0.010304536316160033,0.9923058879444225
2012-12-31,0,0.0,0.0,-0.0030494326566302857,0.008842838601676863,0.9930301716829326
2013-01-03,0,0.0,0.0,-0.002418223994992909,0.008832844961746833,0.9932569682950653
2013-01-07,0,0.0,0.0,-0.002418223994992909,0.008822802817163009,0.9936079754830078
2013-01-09,1,0.008062981616408626,0.00990329359706808,-0.0030494326566302857,0.007460887664329306,0.9890865481209064
2013-01-11,0,0.0,0.0,-0.0037753351503934003,0.007460887664329306,0.9901950435606637
2013-01-15,1,0.003183704891013197,0.0034444679780978506,-0.00571408426062833,0.0041331047524718716,0.9892353775998513
2013-01-17,0,0.0,0.0,-0.005053825058736504,0.005792876343582239,0.9896632882108007
2013-01-22,0,0.0,0.0,-0.00571408426062833,0.005792876343582239,0.9890348738585555
2013-01-24,0,0.0,0.0,-0.00571408426062833,0.003919868754979877,0.9896588361507398
2013-01-28,0,0.0,0.0,-0.006911420843575576,0.003934187597622444,0.9888101849281911
2013-01-30,0,0.0,0.0,-0.006911420843575576,0.009850589219043098,0.9875162654290398
2013-02-01,0,0.0,0.0,-0.006911420843575576,0.010235227638745221,0.9870434105339408
2013-02-05,0,0.0,0.0,-0.006890009834479855,0.008493890431131568,0.9873357484311928
2013-02-07,0,0.0,0.0,-0.005650597645218959,0.008493890431131568,0.9901317605876362
2013-02-11,-1,-0.0018931432311798209,-0.0016480450101422728,-0.00378807042932159,0.008493890431131568,0.9903501526339191
2013-02-13,-1,-0.0007302003494790188,-0.0004651101778762168,-0.0014112978374540063,0.008493890431131568,0.9914312683061799
2013-02-15,-1,-0.0004928305562454833,-0.00021635342337171222,-0.0021133099004999687,0.0070769111567767495,0.9923635307093372
2013-02-20,-1,-0.0018785255200522934,-0.001407387516698173,-0.0014112978374540063,0.0070769111567767495,0.993420584900623
2013-02-22,-1,-0.0025061298799469176,-0.0019185691746374945,-0.0032633563561579445,0.0070769111567767495,0.993320056763889
2013-02-26,0,0.0,0.0,-0.0030535854808492083,0.0070769111567767495,0.9943455916367537
2013-02-28,0,0.0,0.0,-0.0030535854808492083,0.0059801902676245725,0.9950053659556912
2013-03-04,1,0.00017384316184408476,0.00030359550621341926,-0.0032633563561579445,0.0043497480804462335,0.9948139432248796
2013-03-06,0,0.0,0.0,-0.00374890959495725,0.0043497480804462335,0.993830882136754
2013-03-08,0,0.0,0.0,-0.00374890959495725,0.005068669675980265,0.9934262401925396
2013-03-12,0,-0.00010459837786078283,6.531168973133219e-05,-0.00374890959495725,0.010996263021088828,0.9921528792578267
2013-03-14,1,0.00017519450039792892,0.00028014808571132495,-0.00374890959495725,0.010996263021088828,0.9918090044491236
2013-03-18,1,0.00021911644378605336,0.00029846857403606464,-0.00374890959495725,0.011099747931846142,0.9906330830520987
2013-03-20,1,0.00036997255912742577,0.00045159841928405723,-0.00374890959495725,0.0109615114232685,0.991031706366543
2013-03-22,-1,-0.0009218520185976399,-0.00062300688638815,-0.0029100117945678955,0.0109615114232685,0.990559983700087
2013-03-26,-1,-0.0006909608155691818,-0.0004443875154254345,-0.002505791275574302,0.011167462760289647,0.9903243032854279
2013-03-28,1,0.00034962292905657755,0.0004617653213612323,-0.00337354407807252,0.011167462760289647,0.9898835147346889
2013-04-02,-1,-0.00022725388978995804,-2.5901930418638884e-05,-0.00337354407807252,0.011167462760289647,0.9905295453037947
2013-04-04,-1,-0.0008245175853292344,-0.0005480178281488193,-0.002505791275574302,0.011167462760289647,0.9915572392737148
2013-04-08,-1,-0.0005675109468739187,-0.0003338575419076161,-0.000845896698731477,0.011167462760289647,0.9916180479339124
2013-04-10,0,0.0,0.0,-0.002461640271261951,0.008040059833904895,0.992863729826555
2013-04-12,0,0.0,0.0,-0.000845896698731477,0.009415226613988366,0.9924663867673887
2013-04-16,0,0.0,0.0,-0.000845896698731477,0.007539213608510428,0.993561013777847
2013-04-18,0,0.0,0.0,-0.002461640271261951,0.007539213608510428,0.9933554397814285
2013-04-22,0,0.0,0.0,-0.004421204719798419,0.006858565644213556,0.9933299212543245
2013-04-24,1,0.0005085245144130989,0.0006092674154260119,-0.004860582274024701,0.006609828302723518,0.9928993494923782
2013-04-26,1,0.0011132839414018702,0.0011562937234639594,-0.005307606048818612,0.006334427359915044,0.994151078768579
2013-04-30,1,0.002115924333041936,0.0023079321123442038,-0.004421204719798419,0.006609828302723518,0.9941878898257666
2013-05-02,1,0.002051308257954447,0.0022250067991335986,-0.005307606048818612,0.006609828302723518,0.9934568705380463
2013-05-06,1,0.002522742033507176,0.0027513788975328515,-0.0061916494116568445,0.006297507209882576,0.9934779039353583
2013-05-08,0,0.0,0.0,-0.007150434092592002,0.004006129304527322,0.9933540669864377
2013-05-10,1,0.0026335556377212457,0.0028079723387909733,-0.007150434092592002,0.002939528231930486,0.9927571430789837
2013-05-14,0,0.0,0.0,-0.007150434092592002,0.0010586840862510745,0.993496924590703
2013-05-16,0,0.0,0.0,-0.0062621246022486025,0.004006129304527322,0.9930050563506801
2013-05-20,0,0.0,0.0,-0.0062621246022486025,0.006297507209882576,0.9924799242131522
2013-05-22,0,0.0,0.0,-0.0070066752557476015,0.0040416038025840595,0.9920913961520137
2013-05-24,0,0.0,0.0,-0.009103109226456737,0.0040416038025840595,0.9912865777124833
2013-05-29,0,0.0,0.0,-0.009103109226456737,0.0040416038025840595,0.9912741511198783
2013-05-31,1,0.0006824055772560396,0.0007025150607482261,-0.007532334072715843,0.007102275971507532,0.9912451223005793
2013-06-04,1,0.0008429478757087429,0.0009054714961057751,-0.007532334072715843,0.008408264899397798,0.9913422764702493
2013-06-06,1,0.0001234516152801142,0.00014731874257862106,-0.006437344207904682,0.008779111275379479,0.9917453543578171
2013-06-10,1,0.0007166289869091804,0.0007973404097465971,-0.006437344207904682,0.008268864733233702,0.9920013428216713
2013-06-12,1,0.00020033986059580958,0.0002038338585661521,-0.005259793929961472,0.00941498508134306,0.9915589473730322
2013-06-14,1,0.001109821581913412,0.0012815951882437526,-0.005259793929961472,0.008824196046111822,0.9924206336797471
2013-06-18,1,0.0016180429389786564,0.0018928623132829232,-0.004845704580498003,0.008268864733233702,0.9932249043679038
2013-06-20,1,0.0005260994089607408,0.0006463009210150259,-0.003044365420231836,0.008732032488069844,0.994235555886554
2013-06-24,-1,-0.00022546652930324144,-0.00020075126170219566,-0.002164233048097614,0.008732032488069844,0.9947791950831985
2013-06-26,1,0.0002678475298377432,0.00037360294393153906,-0.0027585419228014557,0.008732032488069844,0.9939661651886303
2013-06-28,1,0.0005661920576121183,0.0007093309207935677,-0.002164233048097614,0.008732032488069844,0.9937607992972852
2013-07-02,-1,-0.0006923854797419153,-0.000533513144548792,-0.0027585419228014557,0.009021167030130868,0.9933018979420215
2013-07-05,-1,-0.000954505475623639,-0.0007386150140895561,-0.001619101352193218,0.009819668883692683,0.9922932934667226
2013-07-09,0,0.0,0.0,-0.0027511673009951165,0.009819668883692683,0.9924781888109256
2013-07-11,0,0.0,0.0,-0.0032198432717887105,0.009418742488735332,0.9926503173701261
2013-07-15,0,0.0,0.0,-0.0034630993854867973,0.009418742488735332,0.9926385700911523
2013-07-17,0,0.0,0.0,-0.0034630993854867973,0.009418742488735332,0.9922685882581876
2013-07-19,0,0.0,0.0,-0.0046644919935350795,0.009418742488735332,0.9913325700115124
2013-07-23,0,0.0,0.0,-0.0046644919935350795,0.009418742488735332,0.9911228031226861
2013-07-25,0,0.0,0.0,-0.0046644919935350795,0.008551705568389112,0.9917777785301662
2013-07-29,0,0.0,0.0,-0.0046644919935350795,0.008254170268080941,0.9926157088309191
2013-07-31,1,0.0003255825759396533,0.00040604006207151273,-0.007074672873227438,0.004123675954020884,0.991611433686136
2013-08-02,1,0.0018403592390545337,0.0019473121786524761,-0.01013116141746653,0.0007767366661690807,0.9911384430478225
2013-08-06,0,0.0,0.0,-0.01013116141746653,0.0012775964289712003,0.9920688956983712
2013-08-08,0,0.0,0.0,-0.01013116141746653,0.0011895061471737128,0.992581466338003
2013-08-12,0,0.0,0.0,-0.01013116141746653,0.00244346053045696,0.9924857779247136
2013-08-14,1,0.0004932251377021834,0.0005733284399985257,-0.006782008759366056,0.00244346053045696,0.992826781377052
2013-08-16,-1,-0.0007001045696105718,-0.00047615039105660664,-0.00353432391395538,0.004005994117761207,0.9935572503860906
2013-08-20,-1,-0.00012179009512157325,-1.306253357489899e-06,-0.003398379896008542,0.005678353632742226,0.9933132061888258
2013-08-22,-1,-0.0003647510120858531,-0.00020321640169050073,-0.003398379896008542,0.005678353632742226,0.9929234411448116
2013-08-26,-1,-0.0008936321592831869,-0.0006403507669061199,-0.00879360824019624,0.005678353632742226,0.9921816847357401
2013-08-28,-1,-0.0021622550851064593,-0.001767290833359771,-0.004930796145642801,0.005678353632742226,0.9929587921814876
2013-08-30,-1,-0.002287435877710885,-0.0019391265829325883,-0.003398379896008542,0.005678353632742226,0.9935939477244699
2013-09-04,-1,-0.0020513425593517024,-0.0017271955615266589,-0.004930796145642801,0.005678353632742226,0.9937333980614712
2013-09-06,-1,-0.00241709792950437,-0.0020296285853836178,-0.006836350123840778,0.007014875296749198,0.9931449032526217
2013-09-10,-1,-0.0021433874950989194,-0.001796898803138549,-0.006836350123840778,0.00628943608928089,0.9934463328947623
2013-09-12,-1,-0.002060207563067803,-0.0017457783723821404,-0.006836350123840778,0.008950903544100738,0.9920029554522172
2013-09-16,-1,-0.0009836911299884845,-0.0008121365929049672,-0.006836350123840778,0.004654751301236314,0.9929819164565893
2013-09-18,1,9.51150066501265e-05,9.62570213088773e-05,-0.007816738281304442,0.004177356376962146,0.9926047440148826
2013-09-20,1,4.2505454704587995e-05,5.221456784543272e-05,-0.006836350123840778,0.00516625453540813,0.992619519085522
2013-09-24,-1,-0.0005475317426705314,-0.0004759981264759834,-0.0053675582870059465,0.00516625453540813,0.9931249773528102
2013-09-26,-1,-0.0003983458028159369,-0.0003805283489734337,-0.0053675582870059465,0.007843330439202854,0.99143901713796
2013-09-30,-1,-0.000162233136525311,-0.00014559072382342076,-0.0053675582870059465,0.00927987079400253,0.9899195604208244
2013-10-02,0,-4.3913254295366934e-05,2.9763834211421817e-05,-0.0055807775053095246,0.00927987079400253,0.989530719044055
2013-10-04,1,0.00010111355574001738,0.00018935150627873924,-0.0053675582870059465,0.008146083831129917,0.989957282236993
2013-10-08,-1,-0.00029630611455609674,-0.0002750946513915194,-0.005402086530892152,0.008146083831129917,0.989587447020566
2013-10-10,1,0.0006996262626890277,0.0008348993255065521,-0.005722891411923493,0.007583471297582406,0.9903809395720143
2013-10-14,1,0.0005143330767173182,0.0005950327926349874,-0.005722891411923493,0.008146083831129917,0.9896749196387042
2013-10-16,1,5.632314980307722e-06,8.378433862806264e-06,-0.005402086530892152,0.009460502373835705,0.9900597840518369
2013-10-18,1,0.000964318135064938,0.0011022078352669544,-0.005402086530892152,0.006843924606628568,0.9908310976249001
2013-10-22,1,0.0004030970629231796,0.0004398325929401277,-0.0020006356680688088,0.006843924606628568,0.9910451850775636
2013-10-24,1,0.0019126032784498143,0.0021516120914733265,-0.0007726360927911081,0.006777038617384016,0.9932641037463663
2013-10-28,1,0.0024344085548906828,0.0027031790330601674,-0.0007726360927911081,0.006412063567238524,0.9944746187782579
2013-10-30,1,0.0018197965617565725,0.002019952781664343,-0.0007726360927911081,0.006412063567238524,0.9950067409394763
2013-11-01,1,0.0018186579293947766,0.0019880351954418033,-0.0008756726997737527,0.006043736485930916,0.9951128638619463
2013-11-05,1,0.001526519596472254,0.0016944869603672912,-0.0011867189525923832,0.006043736485930916,0.9955078857786437
2013-11-07,1,0.0013194569606695189,0.001480800318469713,-0.0011867189525923832,0.006412063567238524,0.99477985237478
2013-11-11,1,0.0011743601876137817,0.0012435015993734978,-0.002250427878359134,0.006043736485930916,0.9948656580618539
2013-11-13,1,0.0012799619425060255,0.0013134131970833664,-0.003381304983421959,0.003280247379302071,0.9949406211876116
2013-11-15,1,0.0016495481413611908,0.0017477503840652518,-0.003381304983421959,0.0024823052665846265,0.9942667554106577
2013-11-19,1,0.0017934613173921118,0.0019138219163303267,-0.00401755228103565,0.002088771615104096,0.9935648789681097
2013-11-21,1,0.0021583797739761386,0.0023341145176478967,-0.00401755228103565,0.0019840891235439083,0.9930820315926896
2013-11-25,1,0.002290648114748641,0.0024871222361627465,-0.00401755228103565,0.0038758504147906672,0.9925361829450431
2013-11-27,1,0.0019972456179826103,0.002158453167500282,-0.003381304983421959,0.00415883477149663,0.9930580987250961
2013-12-02,1,0.0021995490123410642,0.0024267667943454114,-0.0037776798026835194,0.005024487402654465,0.9929841636805501
2013-12-04,1,0.0020459346721062887,0.0022616020999333664,-0.0039319018542909295,0.007241685245814061,0.9927123899614778
2013-12-06,1,0.002514058260772431,0.0027748481421299175,-0.005127665104537455,0.006652020583184063,0.9932573075359072
2013-12-10,1,0.001995637480214513,0.0021990115774130816,-0.0028334547940446556,0.006652020583184063,0.9940276159845641
2013-12-12,1,0.00159300244594881,0.001740488239133403,-0.0028334547940446556,0.006652020583184063,0.9935584273606554
2013-12-16,1,0.0021372465030330377,0.0023652871000516703,-0.0028334547940446556,0.007475120361343809,0.9935090798578567
2013-12-18,1,0.0019067144262150458,0.002142954921846992,-0.0013910537370477327,0.009259859401663753,0.9931661338041763
2013-12-20,1,0.0020586314329241336,0.0023173993063104253,-0.0016962786925112739,0.009468612445171175,0.9926098022306434
2013-12-24,1,0.0031498721647175982,0.0036155554028060714,-0.0066919544193368725,0.006652020583184063,0.9917236779022537
2013-12-27,1,0.0030308914960829195,0.0034742417779685996,-0.007758356402417816,0.006652020583184063,0.9910452052547859
2013-12-31,1,0.0030128727606693185,0.003460206468777803,-0.007758356402417816,0.007721550901630738,0.9894301607243424
2014-01-03,1,0.002549846059648913,0.002915328100408805,-0.009369779165591213,0.007721550901630738,0.9882098868271004
2014-01-07,1,0.002215884815172045,0.0025130609365879592,-0.009932716958511402,0.011231231320971247,0.9873529370550558
2014-01-09,1,0.001661633076592576,0.001827827665516855,-0.009932716958511402,0.014874656170420835,0.9858598780618143
2014-01-13,1,0.0011123412447672943,0.0012114438984813746,-0.007845706219594512,0.014874656170420835,0.9868849892082154
2014-01-15,1,0.001837247634551349,0.0020283722492027995,-0.007845706219594512,0.011779235152413858,0.9876390192316208
2014-01-17,1,0.002349672395064187,0.0026020219600425506,-0.009932716958511402,0.0072553103983372036,0.9870661862143251
2014-01-22,1,0.0019382395147387404,0.0020729202421977903,-0.009932716958511402,0.003796032038755106,0.9879993180249992
2014-01-24,1,0.0006624396313893762,0.0007325313424555594,-0.009932716958511402,0.0072553103983372036,0.9881570122935495
2014-01-28,1,0.0001965320074954096,0.0003153581078569097,-0.0073037545758747715,0.0072553103983372036,0.9883958862963932
2014-01-30,1,0.0009011640520409306,0.000945318383802775,-0.005732737845291972,0.005028328655007562,0.9903042143339864
2014-02-03,-1,-0.0006468530853994701,-0.00042694879849293466,-0.003468360406310265,0.0072553103983372036,0.9907448523993831
2014-02-05,-1,-0.0008545343319298127,-0.0006001300070603045,-0.003468360406310265,0.006516788306498231,0.9915637283001856
2014-02-07,1,0.0007612789294405562,0.0007984652459959109,-0.003468360406310265,0.005518438473319315,0.9933703099052142
2014-02-11,1,0.0009634281641315568,0.000968266831037183,-0.003468360406310265,0.00645945993653526,0.9929987061859091
2014-02-13,1,0.0011123734910921707,0.001134513167810605,-0.005113755215377596,0.00567354712164868,0.9925774484543134
2014-02-18,0,-8.771600904115655e-05,5.9417247892376525e-05,-0.004132378810415418,0.0071605982609836815,0.9928639065676795
2014-02-20,-1,-0.0004295600874570808,-0.00022368968303518224,-0.005113755215377596,0.0071605982609836815,0.9919329879535069
2014-02-24,-1,-0.0004927425511356809,-0.00027977833044120874,-0.007585007371872181,0.006982114251486328,0.992251285508783
2014-02-26,-1,-0.0009089500328867117,-0.0006316883303324075,-0.008979024468832232,0.006982114251486328,0.9917590809375786
2014-02-28,-1,-0.0008811280264598002,-0.0006059564317514404,-0.008979024468832232,0.006982114251486328,0.9913556085017476
2014-03-04,-1,-0.0009479152296618463,-0.0006475386581544877,-0.008979024468832232,0.006982114251486328,0.9911654634296203
2014-03-06,-1,-0.0005398986039968674,-0.0003309800761224506,-0.007761530007611396,0.0063427370281412005,0.9915927705262695
2014-03-10,-1,-0.00023698421701710652,-6.04787236620091e-05,-0.00955333240920742,0.0015371801859201204,0.9904102247863278
2014-03-12,-1,-0.00026372850816145125,-5.6323101224104236e-05,-0.00955333240920742,0.004572214337522773,0.9900375736127551
2014-03-14,-1,-0.000374757648879237,-0.0001875159290598735,-0.013039358971257459,0.004572214337522773,0.9886151530325531
2014-03-18,1,0.0003117254846183453,0.00043471774647202427,-0.013039358971257459,0.0044956631801581015,0.9887266355932008
2014-03-20,1,0.0005414723525292673,0.0005781613943102518,-0.011265143165314306,0.007133343982851446,0.9880037838295019
2014-03-24,1,0.0004357758137752272,0.00043799477503656117,-0.008669233656131021,0.007133343982851446,0.9886990680435882
2014-03-26,-1,-0.000543218022367597,-0.00042042897382264647,-0.00902606522052503,0.011725039204887041,0.9880273339295069
2014-03-28,-1,-0.0007272031943823282,-0.0006024463725298467,-0.007046411816165146,0.011725039204887041,0.9881165084311081
2014-04-01,-1,-0.00019788199274787123,-0.00010848190921849542,-0.007046411816165146,0.011400364004788697,0.9885011788664793
2014-04-03,-1,-0.0007844239810457125,-0.0006162272122728727,-0.006995016435063238,0.011400364004788697,0.9884925341531458
2014-04-07,-1,-0.0016837175971513314,-0.0014274884572671575,-0.0027689563663373337,0.011400364004788697,0.989865286547936
2014-04-09,-1,-0.0006327609529451792,-0.0005326082273335048,-0.002816667197179846,0.009392485519873938,0.9906980092130673
2014-04-11,-1,-0.0016662774576442158,-0.0014555614633288989,-0.0015337797081222025,0.009392485519873938,0.9917771814232537
2014-04-15,-1,-0.0009147265794059135,-0.0007942619623818369,-0.0027663731581961505,0.006853967270610945,0.9926431622537859
2014-04-17,1,0.0002802252130492495,0.00031965854475365105,-0.002816667197179846,0.005283890385903019,0.9938354851264357
2014-04-22,1,0.00027248180619568723,0.0003144119078836529,-0.002816667197179846,0.005283890385903019,0.993266149445204
2014-04-24,1,0.000542110956798047,0.0006089984984043441,-0.0027663731581961505,0.004892648940937507,0.995012112638576
2014-04-28,1,0.0005535067275543155,0.0006171643998535291,-0.0016578964003431144,0.004892648940937507,0.9949942956349894
2014-04-30,1,0.0010699214758288762,0.0011976590802839004,-0.0016578964003431144,0.004241529053400838,0.9957044204176708
2014-05-02,1,0.001185546822933412,0.0013518875753075902,-0.0016578964003431144,0.004386917753380362,0.995561553823236
2014-05-06,1,0.000810928436450939,0.0008913520823225906,-0.002922836455400128,0.004892648940937507,0.9949300769472116
2014-05-08,1,0.0006500195262625272,0.0006929651882477306,-0.0017666488667045799,0.00528981294371126,0.9945567875698126
2014-05-12,1,0.0011649182847437312,0.0012994409945152868,-0.0039212180574190215,0.005307828000370775,0.9943166198943693
2014-05-14,1,0.0008187765573104782,0.000882456604692582,-0.0039212180574190215,0.005307828000370775,0.9942865757366716
2014-05-16,1,0.0007539463517468775,0.0008072539237862963,-0.003762145627331516,0.005985092659767057,0.99441195193464
2014-05-20,1,0.00030348792674408573,0.0003164729458963671,-0.003104271246974086,0.005985092659767057,0.9951105419756374
2014-05-22,1,0.00025879057158352797,0.0002601161195237476,-0.003104271246974086,0.006997728561113223,0.9940272782630748
2014-05-27,1,0.0006413214889612702,0.0006877996851814977,-0.00410764848043893,0.006244532060269573,0.9941221585530856
2014-05-29,1,0.0005197825544710094,0.0005463069090948955,-0.005460373375959996,0.006244532060269573,0.9935763426564842
2014-06-02,1,0.0004884137094718789,0.0005031231373083763,-0.005460373375959996,0.006244532060269573,0.9937254402125151
2014-06-04,1,0.0006287613301037367,0.0006623746337500894,-0.00410764848043893,0.005324494447937459,0.9944221702944723
2014-06-06,1,0.0006983461466617815,0.000715179084769049,-0.00410764848043893,0.0051331110590762605,0.9948121279549107
2014-06-10,1,0.0009146000167963727,0.0010073056659378847,-0.0032194388646765576,0.0051331110590762605,0.9950629883036977
2014-06-12,1,0.0009280189749895508,0.0010588320313586336,-0.0023702609506893986,0.0051331110590762605,0.9954789506742412
2014-06-16,1,0.0011551718318144714,0.00132984712507797,-0.0019249574323377387,0.004463077948245394,0.9958351364239955
2014-06-18,1,0.0009428939219073189,0.0010510222631035697,-0.0023702609506893986,0.004463077948245394,0.9957711817956311
2014-06-20,1,0.0013654945967340037,0.0015020966291036642,-0.0033821542325350147,0.003518161383042283,0.9963239937609562
2014-06-24,1,0.0013425483589752135,0.0015193296223307614,-0.0023702609506893986,0.0039347792546261424,0.9958942270580956
2014-06-26,1,0.0004466610588134324,0.0004837110119102767,-0.0020920947561349516,0.0039347792546261424,0.9949241046472985
2014-06-30,1,0.0003385690755546032,0.0003939273288868305,-0.0020920947561349516,0.003518161383042283,0.9950826127112093
2014-07-02,1,0.0008663934533234822,0.000941974770414213,-0.0020920947561349516,0.003782942036934716,0.9945066507386626
2014-07-07,1,0.001242455367604991,0.0013722655557665189,-0.00256815022929834,0.003782942036934716,0.9943390415544927
2014-07-09,1,0.0014843619108732891,0.0016668494954969627,-0.003926729968436146,0.0035063625161080338,0.9935784072539193
2014-07-11,1,0.0012422951191391586,0.0013602745507185058,-0.003926729968436146,0.003782942036934716,0.9930283482049966
2014-07-15,1,0.0013560174246670172,0.0014833544981560122,-0.003926729968436146,0.0037873551333885832,0.9930110436918319
2014-07-17,1,0.0011072586708435201,0.001195937312610272,-0.0035409306943019517,0.0057619500749313286,0.9926274121016141
2014-07-21,1,0.0007232628046842339,0.0007429501061564962,-0.000990215032811559,0.00665582456818861,0.9924729758035366
2014-07-23,1,0.0010475014127198736,0.0011143116133259608,-0.0006475807674260413,0.0057619500749313286,0.9934078952548817
2014-07-25,1,0.0017664432947029785,0.0019383418659298282,-0.0018466050056398728,0.004681354427795065,0.9947270052317443
2014-07-29,1,0.0017284684520866163,0.0018940338103493935,-0.0033673246575834526,0.0057619500749313286,0.994325137628257
2014-07-31,1,0.0013721098526262578,0.0015108933086194765,-0.0033673246575834526,0.0057619500749313286,0.9945964782421063
2014-08-04,1,0.001552604681904227,0.001739452910410646,-0.0017796375486051012,0.0057619500749313286,0.9949361951940489
2014-08-06,1,0.0006091873311090859,0.0006383190053729688,-0.0006756209568403752,0.0057619500749313286,0.9956871317702561
2014-08-08,1,0.0018219664377485748,0.0020788983125511395,-0.0008895881554130951,0.0057619500749313286,0.9956613968821811
2014-08-12,1,0.0015296498153478178,0.0017136502113172757,-0.0017796375486051012,0.00605820904623177,0.9950309613593317
2014-08-14,1,0.0016162195010785035,0.0017759968132432286,-0.0033673246575834526,0.004508621107960079,0.9950746009454247
2014-08-18,1,0.001292454332734976,0.0013621570720974733,-0.0033673246575834526,0.004050248782766674,0.9953368989961402
2014-08-20,1,0.0012027874010759358,0.0012318803597836307,-0.0033673246575834526,0.0026080385063261503,0.9953868646809695
2014-08-22,1,0.0013914956424016791,0.0014943359902529225,-0.004907597307921124,0.0026080385063261503,0.9943466156713048
2014-08-26,1,0.001176804210029977,0.0012201841768967594,-0.00640379553890373,0.0022512596703509386,0.994431211342709
2014-08-28,1,0.0003885592619719542,0.0005045704004611562,-0.00825057799653691,0.0022512596703509386,0.9942219959660056
2014-09-02,1,0.0007247308553969398,0.0007700373265745649,-0.00825057799653691,0.0022512596703509386,0.9938821624113708
2014-09-04,-1,-0.0004309392730833453,-0.00016908721924049658,-0.009592374941331467,0.0012076576065209246,0.9934266429714238
2014-09-08,-1,-0.00046108322532492077,-0.0002323101896653892,-0.00825057799653691,0.0019479560266993713,0.9940831536839208
2014-09-10,1,0.0002017131080321415,0.00028972114212697046,-0.00896086982751486,0.0019479560266993713,0.9928367041802336
2014-09-12,-1,-0.00014702199717032862,-1.6712135364628847e-05,-0.012038780561883582,0.0019479560266993713,0.9918125794636017
2014-09-16,1,0.0007281424984744126,0.0007678117845920532,-0.013053305800961446,0.003071830374642268,0.9907068330193716
2014-09-18,1,0.0005914177428118594,0.0006412652873353571,-0.013053305800961446,0.004981981640478486,0.9893603335637263
2014-09-22,0,-3.158410687046406e-05,5.701357001064843e-05,-0.012265398691314688,0.0061430777144809885,0.9898937576836718
2014-09-24,-1,-0.000329680009507381,-0.00020423761596086024,-0.012265398691314688,0.007726781651168074,0.9886528614487364
2014-09-26,-1,-0.000879064616245394,-0.0006827098833490336,-0.012265398691314688,0.010764883346866247,0.9882131396557872
2014-09-30,-1,-0.0008866088384798319,-0.0006878705671167424,-0.012265398691314688,0.013438521713253429,0.9873788332864568
2014-10-02,-1,-0.0014146740775567998,-0.001174720809735929,-0.01189343677657967,0.013438521713253429,0.9871127561045452
2014-10-06,-1,-0.00121842147873379,-0.0009853062973356821,-0.01189343677657967,0.013438521713253429,0.9874330702587201
2014-10-08,-1,-0.0014055338348424587,-0.0011414687101261294,-0.011800495396576523,0.012445293413906076,0.9883623689643269
2014-10-10,-1,-0.0032282924369169044,-0.002713617442965101,-0.006992205740777072,0.013256434115245928,0.9881261253555483
2014-10-14,-1,-0.003464115904262162,-0.0029209449804160357,-0.0016370505703520923,0.013256434115245928,0.9884255800110014
2014-10-16,-1,-0.0026130542239977263,-0.0021954140956514986,-0.0013046551518480901,0.012445293413906076,0.9898442383997318
2014-10-20,-1,-0.002247431055326202,-0.0018696596258499583,-0.002261944205434695,0.01191528539585914,0.9909431444726736
2014-10-22,-1,-0.0017842029419760312,-0.0014634934965875549,-0.002261944205434695,0.009958517775183131,0.9922363096842381
2014-10-24,-1,-0.0015337007885039937,-0.0012506153271390945,-0.0014685724991846095,0.008385346861225,0.9934996302271625
2014-10-28,-1,-0.00033228050903173935,-0.00021789684290918752,-0.0014685724991846095,0.006741412405448908,0.9943402674108053
2014-10-30,-1,-0.00045152849268692644,-0.0003196947667478204,-0.0014685724991846095,0.005601745780163604,0.9950503516876069
2014-11-03,-1,-0.0006158343897583867,-0.0004441863187918603,-0.0017161869531373561,0.006583196779701618,0.9948773023220564
2014-11-05,-1,-0.0003952974322765565,-0.0002485331489104448,-0.0017161869531373561,0.006583196779701618,0.9945945447414424
2014-11-07,1,0.00025887129086766116,0.0003245086986382984,-0.0017161869531373561,0.005601745780163604,0.9954302746359568
2014-11-11,1,0.0008591629166703357,0.0009132073103492882,-0.0024183603859186686,0.00460344156003888,0.9950762239602375
2014-11-13,1,0.0005861692991355988,0.0005957041548136927,-0.0024183603859186686,0.004625853905419519,0.9944238879389914
2014-11-17,1,0.000407456457273004,0.00044056478961890136,-0.003445934298096513,0.004625853905419519,0.9943004613675848
2014-11-19,1,0.00037787309662396407,0.0004146033879967177,-0.003445934298096513,0.004625853905419519,0.9934647265692388
2014-11-21,1,0.00031647119010684674,0.000368640395294665,-0.003445934298096513,0.0045131762028401,0.9935955005643071
2014-11-25,1,0.0009367492982356551,0.0009751672198108805,-0.003445934298096513,0.0045131762028401,0.9938387704216712
2014-11-28,1,0.000827494329128528,0.0008519324227016813,-0.002822463154294062,0.0045131762028401,0.99383654725159
2014-12-02,1,0.001042634610778179,0.0010985005061238213,-0.003916162636458426,0.003547713684027497,0.9936448265245571
2014-12-04,1,0.001380855589437045,0.0014929170633829277,-0.004012144935434248,0.003547713684027497,0.9940683643600435
2014-12-08,1,0.0012426316614339086,0.001324435267396686,-0.00669518047362327,0.0045131762028401,0.9929382241477117
2014-12-10,1,0.0008741305980106937,0.0008881110534400621,-0.004729563091823485,0.00548491964591394,0.9923247487299686
2014-12-12,1,0.0006835160117387934,0.0007035910842529784,-0.003494863580846655,0.005777060379026902,0.9930910499404437
2014-12-16,1,0.001178490065050743,0.001329421051415966,-0.0036741921244340192,0.005777060379026902,0.9930068379442539
2014-12-18,1,0.0018574365118056684,0.0020986380151418915,-0.00288223933548985,0.005777060379026902,0.9940865744459938
2014-12-22,1,0.0016540677811690266,0.0018433458549317965,-0.00288223933548985,0.00752993200130411,0.9931990347545046
2014-12-24,1,0.0018880172654484218,0.0021026108354012803,-0.0036741921244340192,0.006715868448871036,0.9930338812722816
2014-12-29,1,0.0012431197008063869,0.0013215206042119434,-0.0036741921244340192,0.006715868448871036,0.9932027809506543
2014-12-31,1,0.0011603364468309105,0.0012677170607008612,-0.0036741921244340192,0.006715868448871036,0.9933224341819024
2015-01-05,1,0.0010631271172807418,0.0011648776615912114,-0.002717313841207176,0.008136352234084812,0.9935258459778263
2015-01-07,1,0.0016355069993077812,0.0018423048743551826,-0.0026349438409458545,0.006715868448871036,0.9943492287727982
2015-01-09,1,0.00217821563472233,0.002470771481489258,-0.0024886957948122455,0.005220127209819903,0.9951356612291911
2015-01-13,1,0.002482934175478927,0.002830183349273622,-0.0024886957948122455,0.00488051493607316,0.995236342132986
2015-01-15,1,0.00190228478055834,0.00215771381449585,-0.0021945943505414763,0.005697031627630804,0.991499340740524
2015-01-20,1,0.002350303740762022,0.0026715131930479365,-0.0021945943505414763,0.00508936164950048,0.9914973486645722
2015-01-22,1,0.0030890781018220676,0.0035042346142556855,-0.0021945943505414763,0.00488051493607316,0.9918594842071851
2015-01-26,1,0.002894637899887133,0.003286978190602285,-0.0024886957948122455,0.00488051493607316,0.99191696937911
2015-01-28,1,0.002877306041530611,0.003269767857050203,-0.002225147997133064,0.00488051493607316,0.9919743591988202
2015-01-30,1,0.002495662651640773,0.00283221523390153,-0.001982371326062831,0.00508936164950048,0.9921343015105646
2015-02-03,1,0.0026914840837992176,0.0030457371354909767,-0.002225147997133064,0.00488051493607316,0.9918192512413793
2015-02-05,1,0.002541580850814751,0.0028593443228125326,-0.002225147997133064,0.003259641922344978,0.9916795049347553
2015-02-09,1,0.00227606109023319,0.0025519537239696386,-0.0029171815792063778,0.003259641922344978,0.9912996806759908
2015-02-11,1,0.002717135361760496,0.00301824141722349,-0.003340816585327779,0.0032925560113272875,0.9908272568095653
2015-02-13,1,0.004287559576885305,0.004740722845678173,-0.003869364140209304,0.0032925560113272875,0.9938981580194626
2015-02-18,1,0.004130168662958288,0.004538463318790681,-0.003869364140209304,0.003306728061444054,0.993764045150539
2015-02-20,1,0.003959680489362684,0.004314324403816811,-0.003869364140209304,0.0027768666866663174,0.9939752010187914
2015-02-24,1,0.0035565079347531256,0.003853886571674318,-0.0046243565105601415,0.0027768666866663174,0.9940294816219201
2015-02-26,1,0.0029405960905604382,0.0031002740184901253,-0.005691000943498559,0.0036552079925812634,0.9937914691672596
2015-03-02,1,0.003525372691167897,0.0037694713052663443,-0.005691000943498559,0.0036552079925812634,0.9935554552486892
2015-03-04,1,0.002992504734152486,0.003150001602070063,-0.0046243565105601415,0.0036552079925812634,0.9940851858926756
2015-03-06,1,0.002088011076409921,0.002103852949481232,-0.003869364140209304,0.005182609212908934,0.9946955224953115
2015-03-10,1,0.0011431165239483665,0.001295914981469021,-0.0035757981787247557,0.005182609212908934,0.9950141094028337
2015-03-12,1,0.0010993383671653529,0.001217154816262598,-0.002978954267561902,0.0050832496743926795,0.995308090514629
2015-03-16,1,0.0012440729991604876,0.0013277042811993536,-0.002325555941553252,0.004472828149347183,0.9955936702106541
2015-03-18,1,0.0013263639924559311,0.0013966338893621462,-0.002978954267561902,0.0037976414451009843,0.9956350376650912
2015-03-20,1,0.001207956537447828,0.0012889529599772194,-0.0039840915862648495,0.004472828149347183,0.9941492669136613
2015-03-24,1,0.0010727171693553964,0.001134390699262439,-0.0031860467278352193,0.0050832496743926795,0.993981265151019
2015-03-26,1,0.0005657435024127441,0.0006474586040684635,-0.0013264635510377744,0.0050832496743926795,0.992564672246157
2015-03-30,1,0.0009588079727263896,0.0009930875665099112,-0.0035442020487840495,0.004472828149347183,0.9928542167200782
2015-04-01,1,0.0007536339198945533,0.0008093953672083922,-0.0037684030534374646,0.004472828149347183,0.9926505921358046
2015-04-06,1,0.0011280332115078107,0.001136820461416467,-0.0037684030534374646,0.006846151531198819,0.9915926259521596
2015-04-08,1,0.0007698793627609092,0.0007996244022880525,-0.0037684030534374646,0.006846151531198819,0.9916865581244956
2015-04-10,1,0.000786978740134824,0.00081681085842111,-0.00450636144520862,0.010328210860931438,0.9911225745066062
2015-04-14,1,0.0007384884200926009,0.0007813315709237585,-0.005027941332464216,0.010328210860931438,0.9905634321165481
2015-04-16,1,0.0004282093294373671,0.0005095953286341061,-0.00450636144520862,0.01261620963987136,0.9902059855459621
2015-04-20,1,0.0003342960826331388,0.0004279712412861758,-0.00450636144520862,0.01261620963987136,0.9907363437352824
2015-04-22,1,0.0006582311721231265,0.0007006287789774438,-0.005217398701622719,0.010730931495337815,0.9910013210257818
2015-04-24,1,0.0015209318018423465,0.0015781710268958915,-0.005217398701622719,0.006292896496783919,0.9927557161031081
2015-04-28,1,0.0012204582403624689,0.0012403184084895098,-0.006087182198387824,0.010708490034675543,0.9920220227380065
2015-04-30,1,0.0009780576879212875,0.0009809776357315016,-0.006087182198387824,0.010708490034675543,0.992407225323647
2015-05-04,1,0.001601515277350334,0.0016760008514201227,-0.006348609070784342,0.0046022555159887174,0.9924671314040486
2015-05-06,1,0.0011484645553427944,0.001152059585467295,-0.006348609070784342,0.005216547696386552,0.9924394448476862
2015-05-08,1,0.0008495237791342014,0.0009012702280139504,-0.0063469089011331005,0.0046022555159887174,0.99290736763067
2015-05-12,1,0.000475285752144604,0.0005786555298367887,-0.005585230700859354,0.005803670687734383,0.9930382463505268
2015-05-14,1,0.0009287660346608076,0.0009616513525882019,-0.0063469089011331005,0.005437218674312035,0.9930574935566046
2015-05-18,1,0.0010034999434361978,0.0010298447120981181,-0.00665312153420711,0.004661536154247908,0.9935003319019889
2015-05-20,1,0.0007760520489662838,0.0008197770104286407,-0.006151736759895719,0.005437218674312035,0.993165206286665
2015-05-22,1,0.0007210394051987905,0.0007827895119407466,-0.006151736759895719,0.0059321578771781205,0.9928620568021578
2015-05-27,1,0.00038942431947486554,0.0005091482159578842,-0.006151736759895719,0.005437218674312035,0.9935052965270532
2015-05-29,1,0.00012886954651257086,0.0002905353966234077,-0.006151736759895719,0.005437218674312035,0.9933187532371934
2015-06-02,-1,-0.000462880799623909,-0.00023806715835116075,-0.006151736759895719,0.005437218674312035,0.9929293837600391
2015-06-04,-1,-0.0005316638195162007,-0.00031514363754711204,-0.004113212835991994,0.0059321578771781205,0.993022396804749
2015-06-08,-1,-0.0006299493037881705,-0.00040450613284662075,-0.0038023590421672184,0.0059321578771781205,0.9931207251167772
2015-06-10,-1,-0.0003701027375450297,-0.00016332828625475625,-0.005219175378421392,0.003524618818404317,0.9930169161299248
2015-06-12,-1,-0.0005232257548468779,-0.00030678131330384695,-0.0038023590421672184,0.005303038367247507,0.9922256031976264
2015-06-16,-1,-0.00039434111691556543,-0.00022826935567719637,-0.0038023590421672184,0.005303038367247507,0.9922947310844599
2015-06-18,1,2.0608350429708665e-05,0.00014934210380356607,-0.004994070512076889,0.005303038367247507,0.9917301743807646
2015-06-22,1,0.00028703119709203164,0.0003894934170646702,-0.0068757411028215745,0.0028633536300956925,0.9919174987069626
2015-06-24,-1,-0.0005053508877552913,-0.0002869151418671424,-0.004801910797704682,0.008997381213345618,0.9915095869305299
2015-06-26,-1,-0.000294336097135098,-0.00011615652811148544,-0.0068757411028215745,0.008997381213345618,0.9910719784103063
2015-06-30,-1,-0.001039168831192037,-0.0007723334365473784,-0.004801910797704682,0.013514700652609188,0.990485155447627
2015-07-02,-1,-0.0008440536134687188,-0.0005887247689316265,-0.004801910797704682,0.013183737877278882,0.9912428601834876
2015-07-07,-1,-0.000996733109653679,-0.0007247332904964047,-0.002625540825282106,0.013183737877278882,0.9911213506396944
2015-07-09,-1,-0.00018283626970693237,-0.00011593650671407499,-0.002625540825282106,0.013183737877278882,0.9911100559669452
2015-07-13,1,0.0008502079835557641,0.0009171426648962926,-0.002625540825282106,0.009840471874326528,0.9915177348168324
2015-07-15,1,0.0006288651077249583,0.0006734034434792484,-0.007089380285738786,0.009840471874326528,0.9909081734329074
2015-07-17,1,0.0005863016853963363,0.0006143456183301262,-0.002625540825282106,0.0094752595789815,0.9916181871361001
2015-07-21,1,0.0004597588082121374,0.0004707267294863022,-0.001570939526764674,0.010004246904309776,0.9914374987367531
2015-07-23,1,0.0011639737923975233,0.0012992189298313328,-0.005498391790138425,0.008946489626825095,0.9907622230340295
2015-07-27,1,0.0007443301442442513,0.000802164986797756,-0.00888203374817578,0.008946489626825095,0.9876547122326117
2015-07-29,1,0.0014078646920426424,0.0015449250218900713,-0.01087799157782867,0.00791044745470926,0.986777872607018
2015-07-31,1,0.0010806653770667478,0.0011493437775938365,-0.01087799157782867,0.008946489626825095,0.9855140549533592
2015-08-04,1,0.0010929771102127371,0.0011553961219259528,-0.011777192697656131,0.008946489626825095,0.9841679380887978
2015-08-06,1,0.0008011120344494072,0.0008303161247119336,-0.010966630143816119,0.010004246904309776,0.9837297056074201
2015-08-10,1,0.0013686680166672888,0.0014798842643821012,-0.012338188927288182,0.010004246904309776,0.9828180247512266
2015-08-12,1,0.0008953456355219647,0.0009456668461958426,-0.012338188927288182,0.010004246904309776,0.9830288305468671
2015-08-14,1,0.0010583076374170498,0.0011116518787935696,-0.012338188927288182,0.007979617192339757,0.9835881550668771
2015-08-18,1,0.0010311832817283444,0.0010740895890408886,-0.012338188927288182,0.009699469318337033,0.9832771139280694
2015-08-20,1,0.00035544084368548654,0.00037767823179087615,-0.012338188927288182,0.009699469318337033,0.9839630196355676
2015-08-24,-1,-0.0015097908273486605,-0.0012624904547365338,-0.008863950227455845,0.012435808808893818,0.9875945825413912
2015-08-26,-1,-0.0004495885798591205,-0.00033647405308300806,-0.007974357174471891,0.008393110435920812,0.9892683732033953
2015-08-28,0,-5.3979387240323825e-05,2.5945568816997962e-05,-0.008863950227455845,0.005093401020638874,0.9895404377354171
2015-09-01,-1,-0.0010746998496054803,-0.0008800667600511815,-0.007974357174471891,0.008393110435920812,0.9902561049949006
2015-09-03,-1,-8.14449239493643e-05,-1.062597018984822e-05,-0.007974357174471891,0.009948471962581036,0.9906899312388853
2015-09-08,1,6.0974625799418405e-05,0.00012735568322104704,-0.006808909742336707,0.009948471962581036,0.991756711246558
2015-09-10,-1,-0.0004808900450574832,-0.0003434533910295654,-0.002577701678176577,0.01286238659468538,0.9906456944837898
2015-09-14,-1,-0.00046608973461380093,-0.00033537564040394,-0.002577701678176577,0.01286238659468538,0.9902522063461002
2015-09-16,1,0.0004987926742039213,0.00052360070110918,-0.0049168568142496415,0.011434134533955248,0.9905755148652458
2015-09-18,-1,-0.0002744835663901813,-0.00019234721217672266,0.0004372898292745299,0.01286238659468538,0.9903737758238591
2015-09-22,-1,-0.0003339452185886649,-0.00023181024030673208,0.0008746021844512038,0.01286238659468538,0.9904551346237341
2015-09-24,1,1.2747284279419603e-05,3.313625907955414e-05,0.0004372898292745299,0.01286238659468538,0.9892088797935626
2015-09-28,-1,-0.000854581692070022,-0.0007201945771299211,0.0023732693624382182,0.014763232817097073,0.9882023765898167
2015-09-30,-1,-0.00033309971280903836,-0.00025852770540987124,0.0006958373985724931,0.013220638102205532,0.9893510294945566
2015-10-02,1,2.36543793622009e-05,6.972049200069426e-05,-0.0007019791681609535,0.009644488089597893,0.9904706789960828
2015-10-06,1,0.000725611606854118,0.0007871858518161371,-0.0010774162284866234,0.008265451227638103,0.9905576221267534
2015-10-08,1,0.0016904761542191153,0.0018860704041201092,-0.0027003440447174254,0.0063188000867145265,0.9920242459162342
2015-10-12,1,0.00180102622068021,0.0019939558148020383,-0.004806088654417342,0.005241455278041847,0.9916046573353522
2015-10-14,1,0.001363684455924639,0.0015070295032865357,-0.0027003440447174254,0.006351317631430572,0.9918538831319675
2015-10-16,1,0.001748285616471429,0.0019370822865921447,-0.00761719379851071,0.005274393290529512,0.9915872475103015
2015-10-20,1,0.001976785288761878,0.002190880732562884,-0.00761719379851071,0.005552774316853993,0.9908192503702208
2015-10-22,1,0.0009365191711518346,0.0009853341488674288,-0.004137908993424116,0.007036780519490661,0.9913847997214008
2015-10-26,1,0.001616328016067609,0.0017458588783182858,-0.004137908993424116,0.005927249952454741,0.9924343987182294
2015-10-28,1,0.0015176410291761887,0.0016291151731967974,-0.0064166776514331175,0.007692424144356681,0.991733290196521
2015-10-30,1,0.001603650582117765,0.001750563223866451,-0.007236528561265937,0.008918490046009694,0.9910835371818187
2015-11-03,1,0.0014610263119375915,0.0015766625382197933,-0.0064166776514331175,0.008625018061993232,0.9913139776234708
2015-11-05,1,0.0010852422270712686,0.0011339303228362105,-0.007236528561265937,0.00987951752907401,0.989449298437649
2015-11-09,1,0.0010269289700192221,0.001098066856351887,-0.0064166776514331175,0.00987951752907401,0.9897220115542755
2015-11-11,1,0.0016032361692747661,0.0017696049322221288,-0.007236528561265937,0.009272021930774718,0.9892018967831406
2015-11-13,1,0.0007894126411455824,0.0008229378895505077,-0.006438023832139388,0.009272021930774718,0.988383271001696
2015-11-17,1,0.0014250533421017763,0.0015467134391019338,-0.006438023832139388,0.009272021930774718,0.9878513585961931
2015-11-19,1,0.0014049827069083447,0.0014852921020995274,-0.007704347012532686,0.008625018061993232,0.9878512301794807
2015-11-23,1,0.0017668575167378952,0.0019106761332178717,-0.007704347012532686,0.009272021930774718,0.9875823840986544
2015-11-25,1,0.0016109432486552972,0.0017246623069506683,-0.005557795361658333,0.010032349829792852,0.987774633951165
2015-11-30,1,0.0013615303344398507,0.0014106184553573436,-0.003525664234636968,0.009272021930774718,0.9883959163434176
2015-12-02,1,0.0017662962991916152,0.0019186188022498165,-0.008648961549871135,0.00822284066275997,0.9881243520699732
2015-12-04,1,0.0013584681369730608,0.0014409068664938815,-0.008648961549871135,0.006459899185429185,0.9890868039071621
2015-12-08,1,0.0013108030032209358,0.0013892213167020127,-0.013620917357080245,0.006459899185429185,0.9871740832802853
2015-12-10,1,0.000884197932988181,0.0008948674228370019,-0.013620917357080245,0.005899844084213737,0.9867635754727514
2015-12-14,1,0.0006869945906090779,0.0006972370891542402,-0.012679422723331668,0.005899844084213737,0.9875054455540868
2015-12-16,1,0.0015588286409724357,0.0016604968154175191,-0.012679422723331668,0.005809550036325844,0.9879782905697355
2015-12-18,1,0.001321698392613874,0.0014423456122336143,-0.012679422723331668,0.005899844084213737,0.988158501138663
2015-12-22,1,0.0015656095571086137,0.0017143318970725418,-0.012679422723331668,0.0068338165868349135,0.9875320413971707
2015-12-24,1,0.0017882170204968541,0.001969907908374932,-0.012679422723331668,0.00622707243369245,0.987473906059334
2015-12-29,1,0.0017516515942012506,0.0019180749103359122,-0.014415398930657757,0.00622707243369245,0.9860366861656792
2015-12-31,1,0.0015158089933489981,0.0016854343159809705,-0.014415398930657757,0.009364022930593612,0.9849491734483039
2016-01-05,1,0.0010590691255849044,0.0011390079420331798,-0.01456416724128342,0.009364022930593612,0.9842645759050492
2016-01-07,1,0.00041124571677739695,0.00042721077826111346,-0.01456416724128342,0.009364022930593612,0.9845346606122074
2016-01-11,-1,-0.000932513903220686,-0.0008272012331083896,-0.01456416724128342,0.009364022930593612,0.9830535345751702
2016-01-13,-1,-0.0014857184306529153,-0.0012639693519206976,-0.013271178383697834,0.009937955304095487,0.9828702144252567
2016-01-15,-1,-0.0025582843189248445,-0.0020864148673130057,-0.013271178383697834,0.011425837656103627,0.9813846639876541
2016-01-20,-1,-0.002487747725576724,-0.0020632681219418013,-0.011427744278625775,0.014819400088653206,0.9811416266335957
2016-01-22,-1,-0.0011917354836327794,-0.0009481581923515363,-0.011427744278625775,0.014819400088653206,0.9813589791463783
2016-01-26,-1,-0.0019210919280942716,-0.0015370499552889419,-0.011427744278625775,0.014819400088653206,0.9813705540060471
2016-01-28,-1,-0.0023937273923826403,-0.0019989627793722165,-0.007641749226050226,0.018083787917535687,0.9814617240387821
2016-02-01,-1,-0.000601595877946782,-0.00042984944298015863,-0.009461399081369158,0.015873470673512625,0.9826561927039285
2016-02-03,-1,-0.0021615628173220457,-0.0017811558309965047,-0.007641749226050226,0.015873470673512625,0.9837314304945162
2016-02-05,-1,-0.0032833684999856562,-0.002769988734352898,-0.007641749226050226,0.015873470673512625,0.984435893362019
2016-02-09,-1,-0.005221599472178123,-0.004505514097717768,-0.001658539030012078,0.015873470673512625,0.9857378457377527
2016-02-11,-1,-0.005530014018347875,-0.004743834148334182,-0.0009410955749597342,0.016090020053324328,0.9855086324721796
2016-02-16,-1,-0.003390848604135555,-0.0028649003381873467,-0.001604947573064271,0.013290913548878347,0.9892858045122056
2016-02-18,-1,-0.002942425298392885,-0.0024606284562338717,-0.0009410955749597342,0.011864772196387891,0.990185109260081
2016-02-22,-1,-0.002594840817583668,-0.0021179308720694506,-0.001604947573064271,0.01099012724956381,0.9912529784365048
2016-02-24,-1,-0.001956074388880313,-0.0015816431522851968,-0.001604947573064271,0.0107311457594735,0.9918087476209096
2016-02-26,-1,-0.0009838498710235,-0.0007557794590869036,-0.002079985894162855,0.008056026866560206,0.9927535398245513
2016-03-01,-1,-0.0006861373618784078,-0.0005164668264446605,-0.0010441560312663986,0.008355591212649092,0.9933520516129625
2016-03-03,1,0.00019897002955961826,0.00020686628391362283,-0.0010441560312663986,0.00965696340263937,0.9927324545971963
2016-03-07,1,4.4238755316904954e-05,5.484576749447842e-05,-0.002079985894162855,0.00965696340263937,0.992779501696159
2016-03-09,-1,-7.335383871676462e-05,-2.3585117120765653e-05,-0.002627980087789236,0.00965696340263937,0.9920686493261582
2016-03-11,1,0.0007462689000035935,0.0008356262558425205,-0.00392553636048042,0.00965696340263937,0.9919331637899367
2016-03-15,1,0.001192463357855353,0.0013616036805339884,-0.00392553636048042,0.00965696340263937,0.9920060829043881
2016-03-17,1,0.0009908236768924822,0.0010564075719459239,-0.00392553636048042,0.008981198853791002,0.9921893325348814
2016-03-21,1,0.0017139363036809132,0.001931487337501484,-0.0040252294364456,0.008247852989920082,0.992695198619505
2016-03-23,1,0.0014981643293840697,0.0016882395897993296,-0.0040252294364456,0.008247852989920082,0.9922029332852739
2016-03-28,1,0.0015196006316105328,0.0017054885344530988,-0.0040252294364456,0.008247852989920082,0.9923199234763939
2016-03-30,1,0.0020094941447451457,0.002260455891704056,-0.0040252294364456,0.008145679005394585,0.992311970513699
2016-04-01,1,0.0025543252248326383,0.002862862695153199,-0.0040252294364456,0.008145679005394585,0.9925538683462839
2016-04-05,1,0.0017450475987295315,0.0019222543611299681,-0.00211338359734096,0.008268268821194552,0.9926655503808187
2016-04-07,1,0.0017303036669585447,0.001933934489696575,-0.00211338359734096,0.008268268821194552,0.9931400285038331
2016-04-11,1,0.0013067065934897148,0.001415197283798503,-0.0017559170918298973,0.008238869365126564,0.9936265124056032
2016-04-13,1,0.0020091022684210627,0.0022579730701816803,-0.0020221806261655657,0.008238869365126564,0.9921219266265155
2016-04-15,1,0.002635448236979542,0.003005486799774754,-0.0020221806261655657,0.007943948402105439,0.9923859472654976
2016-04-19,1,0.0028130485416090626,0.0032237529905182645,-0.0028100235365774453,0.008238869365126564,0.9920709708523516
2016-04-21,1,0.0026212323065758925,0.003003304815996047,-0.002371896082040569,0.008238869365126564,0.9925900848029573
2016-04-25,1,0.002754696170141771,0.0031614239540351673,-0.0040684686905434345,0.008238869365126564,0.9925859760934015
2016-04-27,1,0.0033844849640698752,0.0038802507734620514,-0.0040684686905434345,0.008238869365126564,0.9919485286146403
2016-04-29,1,0.003684164522234285,0.0042136046126238875,-0.0040684686905434345,0.008238869365126564,0.9922082089033313
2016-05-03,1,0.003588669951870794,0.004105314628528525,-0.0040684686905434345,0.006841089621479603,0.992378526795048
2016-05-05,1,0.003376564401115505,0.0038458020299662046,-0.0040684686905434345,0.007089752868702023,0.9923194765181903
2016-05-09,1,0.0031453020657851967,0.003536354896015591,-0.004341831841177814,0.005347669774019879,0.992344613125862
2016-05-11,1,0.0040433736688006575,0.004627217411451432,-0.0040684686905434345,0.005291930021733559,0.99418312499214
2016-05-13,1,0.003581938665988974,0.004045575115357426,-0.004341831841177814,0.005291930021733559,0.9931679604865045
2016-05-17,1,0.0038650399828613078,0.004396290234563744,-0.004617195083958044,0.0032575729913772245,0.9926518840450598
2016-05-19,1,0.00386686633387087,0.004413841616873478,-0.004617195083958044,0.005291930021733559,0.9930476360735392
2016-05-23,1,0.0038554787076488296,0.004411857168057568,-0.004617195083958044,0.006337579552110875,0.9930433349529348
2016-05-25,1,0.004008410025560078,0.0045429089630707985,-0.004617195083958044,0.006337579552110875,0.9935889027277023
2016-05-27,1,0.003858921962995877,0.004348154784752275,-0.006969792382979846,0.006227968466602199,0.9903113959792315
2016-06-01,1,0.002872215384493742,0.0031443510825731754,-0.006969792382979846,0.006445630648230805,0.988566920539471
2016-06-03,1,0.0025996040953405334,0.0028250379783629847,-0.0055089855535368675,0.00795105020589658,0.9882979074650218
2016-06-07,1,0.002322234081316131,0.0024924865426300125,-0.0047215736746644196,0.009772060917868928,0.9884291700724738
2016-06-09,1,0.0020876932851789124,0.0021867358414550944,-0.0047215736746644196,0.012925215803320372,0.9880655168771784
2016-06-13,1,0.0010601333855648225,0.0011229419332636165,0.0012766866801758035,0.012925215803320372,0.988583261182938
2016-06-15,1,0.0009797309578330722,0.0010061959115011615,0.0015151302734036035,0.012925215803320372,0.9892855837677063
2016-06-17,1,0.0011108816141666466,0.0011274770153391733,0.00126055918736689,0.012925215803320372,0.9894805571132249
2016-06-21,1,0.000939653953410828,0.0010345492189040868,0.00126055918736689,0.010141215601186847,0.9897229982245095
2016-06-23,1,0.002252732852794935,0.002407260854943657,0.0005026512555048301,0.00862179943661736,0.9901656854639901
2016-06-27,-1,-0.0010062963433993984,-0.0006927531893505494,0.00126055918736689,0.00862179943661736,0.9916160528528376
2016-06-29,1,0.00025303350765019657,0.0004755666694464427,5.7373412739453395e-05,0.00697097450899555,0.9943738556568161
2016-07-01,-1,-0.0006005345743091935,-0.00018640182235953495,-0.0031253897372475834,0.005326834013569448,0.9946997431500196
2016-07-06,-1,-0.000469408214452083,-5.025495958841525e-05,-0.004157166422826082,0.004612744863937177,0.9948236692089139
2016-07-08,1,0.0010029082981317739,0.0011498425473124925,-0.004157166422826082,0.005326834013569448,0.9946486789757581
2016-07-12,1,0.0013022879756196218,0.0013900235315438677,-0.005223067104864757,0.005227057750335701,0.9940317807989977
2016-07-14,1,0.001539269581601601,0.001572336421885516,-0.005223067104864757,0.005227057750335701,0.993990022997638
2016-07-18,1,0.0015323651448307565,0.001556131649757373,-0.006117604003301577,0.005227057750335701,0.9936153324804585
2016-07-20,1,0.0019099671916058237,0.0019634084115203875,-0.006682466569092527,0.004875725962142852,0.9932841149292794
2016-07-22,1,0.001840592929919008,0.0018749580404446302,-0.006462089918860484,0.0036590311810058345,0.9938007603452461
2016-07-26,1,0.001776673761823827,0.0018056109295419348,-0.006462089918860484,0.0025202925911531767,0.9939688411618454
2016-07-28,1,0.0007774260096661855,0.0008907178232162034,-0.006189737603870191,0.0025202925911531767,0.9949454183741157
2016-08-01,1,0.00031063063992613216,0.0004760154516960287,-0.004090986871451971,0.003747646358585304,0.9951714143633007
2016-08-03,-1,-0.00025934805401812066,-5.934664038222072e-05,-0.0022179418509660183,0.003747646358585304,0.9955240946689303
2016-08-05,1,0.00034928565960757533,0.00047508210598178974,-0.0022179418509660183,0.003747646358585304,0.9957180717824724
2016-08-09,1,0.0003971402240118159,0.00048757302656844464,-0.0016676354826888093,0.003747646358585304,0.996244604930436
2016-08-11,1,0.0004616998496276835,0.0005593422703341549,-0.002808395282233608,0.003747646358585304,0.994839303418833
2016-08-15,-1,-0.00020069901132991805,-1.1111699266640857e-05,-0.0025393236055571726,0.005607822955812477,0.9938588560501518
2016-08-17,-1,-0.0003205333228270351,-0.00011402694170823107,-0.0016676354826888093,0.00713246324819694,0.9934455701545756
2016-08-19,0,-3.9361510897100794e-05,0.00011134571689756269,-0.004077426793275774,0.00713246324819694,0.9926575184726598
2016-08-23,1,0.00022828355732012155,0.0003130028134239998,-0.004077426793275774,0.0076425226465844185,0.9922697094304165
2016-08-25,-1,-0.0004656272680710552,-0.0002877091722071175,-0.004077426793275774,0.0076425226465844185,0.9917121822916006
2016-08-29,-1,-0.0003879996307285181,-0.00019023382925804683,-0.005295580260286855,0.008285297061648319,0.9915003637900718
2016-08-31,-1,-0.0005336379609039709,-0.0003017733510525066,-0.006681769634652926,0.00917452245640295,0.9905910843479303
2016-09-02,1,8.09616186529172e-05,0.00022700608792820657,-0.006681769634652926,0.009439444185254657,0.9908026693533922
2016-09-07,1,0.00037528637484191815,0.0004749869234599838,-0.008370253218579156,0.009439444185254657,0.9903930884888962
2016-09-09,-1,-0.0007398352334557402,-0.0005081150558601655,-0.008370253218579156,0.009439444185254657,0.9911690846642385
2016-09-13,-1,-0.0008519814271177454,-0.0005976764248062299,-0.008370253218579156,0.007933949326353142,0.9912366223603236
2016-09-15,-1,-0.00021236298417296753,-3.340630968243197e-05,-0.008370253218579156,0.007933949326353142,0.9913658726149591
2016-09-19,-1,-0.0006474295526782803,-0.00044526369322651015,-0.008025798343196036,0.009439444185254657,0.991567572313664
2016-09-21,0,-9.655088449483538e-05,2.0431839492309443e-05,-0.008025798343196036,0.007933949326353142,0.9918012534720798
2016-09-23,-1,-0.0004623268809909012,-0.00029726072704042107,-0.006717634342601915,0.007933949326353142,0.9922780724231112
2016-09-27,-1,-0.00029434848638416335,-0.00013833679178403056,-0.006717634342601915,0.007933949326353142,0.9922375094113712
2016-09-29,0,-6.846579993756495e-05,5.411185842895002e-05,-0.0082871663308688,0.006206003625870011,0.9904896760880423
2016-10-03,1,1.5398898508954865e-05,0.00010883190728800502,-0.009240530787754083,0.006206003625870011,0.9898861745814787
2016-10-05,-1,-0.00037815596476710103,-0.00022814124562003138,-0.009570906082631931,0.006206003625870011,0.9900804138102612
2016-10-07,-1,-0.0008905397691488056,-0.000683677647462885,-0.008373339937025437,0.006206003625870011,0.9904617293442232
2016-10-11,-1,-0.002011318589824484,-0.0017014427060603483,-0.006717634342601915,0.008465054093424183,0.9902518415739537
2016-10-13,-1,-0.0015185175231880476,-0.0012355637966412168,-0.009570906082631931,0.0062856866306007664,0.9870771956977269
2016-10-17,-1,-0.0010770352202144375,-0.0008739277985324902,-0.010636612960578247,0.0062856866306007664,0.9864604202959815
2016-10-19,-1,-0.000707802908604559,-0.0005648979056878852,-0.010636612960578247,0.010055816148790937,0.9848598792433764
2016-10-21,-1,-0.0010179787692710632,-0.000826050174903261,-0.010636612960578247,0.011121840183703059,0.9841877343799559
2016-10-25,-1,-0.0009301041234934502,-0.0007426733370550071,-0.011684922591184815,0.010157249465144924,0.9844422087509095
2016-10-27,-1,-0.0030255145918314137,-0.0025921626881899576,-0.009570906082631931,0.010157249465144924,0.9867027125422941
2016-10-31,-1,-0.002625845258633102,-0.0022505765893129897,-0.007881369594847861,0.008262761254836534,0.9876572625497695
2016-11-02,-1,-0.0036257856348558925,-0.0030951977461462343,-0.013120168376596346,0.008262761254836534,0.9848443428848244
2016-11-04,-1,-0.003720004841453093,-0.003147110250208712,-0.013120168376596346,0.010157249465144924,0.984099395620861
2016-11-08,-1,-0.002463917028061964,-0.0020534068192327158,-0.013120168376596346,0.010157249465144924,0.9845288294658341
2016-11-10,-1,-0.005443349467579149,-0.004719416776568141,-0.007249677909531877,0.01203973321407405,0.9868431995959228
2016-11-14,-1,-0.0055215772325193785,-0.00481934139112191,-0.005336292019616551,0.01203973321407405,0.9879429816213174
2016-11-16,-1,-0.005955123452772285,-0.005061427160375012,-0.005868105779814396,0.004735374942223683,0.9894122142355859
2016-11-18,-1,-0.003722980454781699,-0.0032108583237654845,-0.007249677909531877,0.0014757326964877735,0.99084613519922
2016-11-22,-1,-0.0035497984558564154,-0.0031056753707877824,-0.005868105779814396,0.004735374942223683,0.9899452945473266
2016-11-25,-1,-0.003214346935855845,-0.002837261647412881,-0.005868105779814396,0.007429571784076439,0.9894858259821858
2016-11-29,-1,-0.0029335512000383587,-0.002627594590076306,-0.005871447400167705,0.007429571784076439,0.9895185015256256
2016-12-01,-1,-0.005394867755001054,-0.0048249503146051125,-0.003980992047836399,0.007429571784076439,0.9912642389441575
2016-12-05,-1,-0.004049170718750109,-0.0036464070589315003,-0.003980992047836399,0.005218606724240548,0.9926690219260358
2016-12-07,-1,-0.0031541017045058775,-0.002866860739393947,-0.003716151150947742,0.005577959868117994,0.9933686271770213
2016-12-09,-1,-0.0022000897459064483,-0.0020566914892819472,-0.003955690667145346,0.0050035347284407275,0.9939685121168265
2016-12-13,-1,-0.002249837077971407,-0.0021080358578025003,-0.001951406649599008,0.0050035347284407275,0.993566545030273
2016-12-15,-1,-0.001751419666621133,-0.0016780047621405814,-0.001951406649599008,0.004583020587602231,0.9942135583942897
2016-12-19,-1,-0.00246373462056351,-0.0022741455264189527,-0.001524408009206336,0.004583020587602231,0.9941384817690139
2016-12-21,-1,-0.0016129736574531997,-0.0015034144754348198,-0.0034132639597996835,0.0041196679499717215,0.9948817739179202
2016-12-23,-1,-0.0014339686743553414,-0.0013241264745381147,-0.0034132639597996835,0.0041196679499717215,0.9951209442240141
2016-12-28,-1,-0.0012465807198558496,-0.001201609797844891,-0.0034132639597996835,0.0041196679499717215,0.9950941649462088
2016-12-30,-1,-0.0013182644673152642,-0.0012593543279522503,-0.0036240208875814284,0.0041196679499717215,0.9950553889153718
2017-01-04,-1,-0.0007092555532994056,-0.0006823098683166923,-0.0036240208875814284,0.0031815594843208448,0.995354930788933
2017-01-06,-1,-0.00024856074375057826,-0.00017672404472128878,-0.0036240208875814284,0.0028431566821610394,0.9950583614216973
2017-01-10,-1,-0.0005534286408713325,-0.0005285621704540576,-0.0023430721053115024,0.0042642200623334865,0.9949361851606492
2017-01-12,-1,-0.00013247296333937655,-3.908278660884226e-05,-0.0023430721053115024,0.006133094594450757,0.991936678329042
2017-01-17,-1,-0.00012453191780765062,-2.8060530772888422e-05,-0.0023430721053115024,0.006133094594450757,0.9920647921657826
2017-01-19,-1,-0.0003195089482939657,-0.00026005654881535367,-0.002001137509281386,0.006133094594450757,0.9920732987846664
2017-01-23,-1,-0.0006334604029912316,-0.0005854346090340322,-0.002001137509281386,0.006133094594450757,0.9925504027673617
2017-01-25,-1,-0.00036511077245051786,-0.00027678714868390977,-0.0020761561370066252,0.005549904928134304,0.992824231777105
2017-01-27,0,-5.213901827185255e-05,0.00012326888979347398,-0.001248473135809298,0.007054161248660772,0.9927318942090934
2017-01-31,0,-4.692377913050722e-06,0.0002020369368299097,-0.0006975387696438858,0.008138157411720536,0.9922139437390628
2017-02-02,-1,-0.00023704020524760612,-0.00012931315687985518,-0.001248473135809298,0.00802566074854432,0.9923234401599356
2017-02-06,1,0.0007466375145694623,0.0009960098599242268,-0.0021002200482867174,0.005549904928134304,0.9930423104407101
2017-02-08,1,0.0017662441139484212,0.0022060580282866043,-0.0021002200482867174,0.003915548906674888,0.9931572905591746
2017-02-10,1,0.004085185142554764,0.0047842212894193435,-0.0021002200482867174,0.002557403869873123,0.9949024441774054
2017-02-14,1,0.0042653069415264965,0.005016695849651761,-0.00200318513902694,0.0038511042370877094,0.9948010873763783
2017-02-16,1,0.004022376592679364,0.004725192795555637,-0.0013390251808644146,0.005420849337498723,0.995077744483975
2017-02-21,1,0.0039479827971906235,0.004651116168799205,-0.0021002200482867174,0.005420849337498723,0.9949523523121965
2017-02-23,1,0.00405207468071647,0.004783026041416364,-0.002291811648168174,0.006210048581877158,0.9942627041116472
2017-02-27,1,0.004684972886791175,0.005513181857292943,-0.0028679851258216296,0.005420849337498723,0.9940117229352942
2017-03-01,1,0.00508085419964977,0.005926207505020579,-0.0034194872530523865,0.005382095492292827,0.9938955222154809
2017-03-03,1,0.004636868657056207,0.005387759306236672,-0.0034194872530523865,0.005497921810642572,0.9946101229717227
2017-03-07,1,0.003960085301206447,0.0045936383305720165,-0.0028679851258216296,0.005497921810642572,0.9949700792349537
2017-03-09,1,0.004366199375533679,0.005059406085703459,-0.0028679851258216296,0.005382095492292827,0.9945846000525597
2017-03-13,1,0.004694692159788903,0.005440802891185023,-0.0034194872530523865,0.004623000233554727,0.9939735552473958
2017-03-15,1,0.005312184489054149,0.0061511090548498045,-0.0034812720416847187,0.002689541587305315,0.9934746739344458
2017-03-17,1,0.005427898642553185,0.006270617041958448,-0.0035996182128748312,0.002689541587305315,0.9928831913564363
2017-03-21,1,0.005171262371896004,0.0059902399037321105,-0.003613194275454852,0.002689541587305315,0.9932091442116271
2017-03-23,1,0.004106813464304405,0.004644644222239032,-0.00320732788365808,0.002689541587305315,0.994745576399661
2017-03-27,1,0.0040820504608012455,0.004627657501332298,-0.00320732788365808,0.004623000233554727,0.994648886525851
2017-03-29,1,0.0037743077251260176,0.004242980423995019,-0.003650482374873593,0.002509085409570062,0.9936846006213313
2017-03-31,1,0.003962051393285123,0.004474554180660423,-0.004638783185025008,0.0017131837445213344,0.9929537227848786
2017-04-04,1,0.004253345162063444,0.004867362532796385,-0.003650482374873593,0.002509085409570062,0.9928864229938482
2017-04-06,1,0.002289311679593869,0.0024278050953826895,-0.003650482374873593,0.005966830362996155,0.9934308350285687
2017-04-10,1,0.0017927445349991112,0.0018304368650112895,-0.005540951580918395,0.005966830362996155,0.9927193138340278
2017-04-12,1,0.002302267410666149,0.00249253619142146,-0.005540951580918395,0.005966830362996155,0.9925837906595525
2017-04-17,1,0.003052036047643465,0.003377945798617673,-0.005540951580918395,0.005966830362996155,0.992482943451472
2017-04-19,1,0.0024832847994849814,0.0027011311730080964,-0.006584491110949942,0.005966830362996155,0.9920385016066716
2017-04-21,1,0.002560541366112447,0.0027778520429192857,-0.006584491110949942,0.007843923591892956,0.9918182993525877
2017-04-25,1,0.0028554875195650076,0.00309006797438642,-0.006584491110949942,0.00705179495958625,0.991810797778506
2017-04-27,1,4.152675172024265e-05,0.00030617949207813915,-0.0049327095833734,0.00705179495958625,0.9934312974175455
2017-05-01,1,2.9937295208972673e-05,0.00024620355826362615,-0.004593493901328342,0.00705179495958625,0.9935034294605796
2017-05-03,1,0.000524482955532677,0.0006605714284870765,-0.004593493901328342,0.00705179495958625,0.9937508730037299
2017-05-05,1,0.0014650806714056604,0.0014734580496005509,-0.004593493901328342,0.0057741785543298976,0.9941482344537969
2017-05-09,1,0.00013605208914291669,0.0003165087348654868,-0.0040555618232491165,0.0057741785543298976,0.9950501454092273
2017-05-11,0,-5.919166082891752e-06,0.00018814595078488108,-0.004593493901328342,0.0057741785543298976,0.9944323702016399
2017-05-15,0,-0.00019443410467835653,5.123686408520017e-05,-0.004225975210586278,0.00705179495958625,0.9934837072180852
2017-05-17,-1,-0.0005898433049196266,-0.000336435374100755,-0.002199304905898897,0.00705179495958625,0.9937245657160888
2017-05-19,1,0.0001510102392105739,0.0003064883031010299,-0.003012339278746704,0.0057639313137743415,0.9941175779447706
2017-05-23,0,-0.00017615432777245228,4.2454388121214675e-05,-0.004124414322845166,0.004936994807102762,0.9936354426647244
2017-05-25,-1,-0.00029924767850967877,-5.546036366798756e-05,-0.004124414322845166,0.0044379808887854595,0.9938286541409654
2017-05-30,-1,-0.00037893553008924805,-0.00013978759507070934,-0.004215881896363378,0.0044379808887854595,0.9937669080730429
2017-06-01,1,0.00016706625797332722,0.0003162807953341045,-0.005966732133135192,0.0044379808887854595,0.9929767094726103
2017-06-05,0,-0.00014605984601272844,5.620132110499142e-05,-0.005966732133135192,0.0044379808887854595,0.9929565572900154
2017-06-07,-1,-0.00038408404520003775,-0.00016282795536741587,-0.006039384862761184,0.005275268107271845,0.9920060550788489
2017-06-09,-1,-0.001094474832230458,-0.0007858378556528182,-0.004215881896363378,0.0071792279025018925,0.9918651641223032
2017-06-13,1,5.606336615297412e-05,0.00024298416375373541,-0.004215881896363378,0.005146135658632783,0.9935598606514809
2017-06-15,0,-0.0001604076069844475,8.713971100141006e-05,-0.0049620617884927505,0.005015562724949225,0.993546383383988
2017-06-19,-1,-0.00027175096508800926,-1.3510616684346598e-05,-0.004046367706723402,0.005015562724949225,0.9935109979556882
2017-06-21,-1,-0.0014093988516421792,-0.0009987249687891209,-0.0005575656432662912,0.0067918305565847084,0.9934097428999169
2017-06-23,-1,-0.0016964559708976304,-0.0012324158517129928,8.927489647281571e-05,0.006815742129614141,0.9928748703393636
2017-06-27,-1,-0.0020680765811545666,-0.0015691269844823167,0.0019260412159617735,0.008381605423593468,0.9922848657227794
2017-06-29,-1,-0.0019585379614766186,-0.0015267360386924539,0.0019260412159617735,0.00840532973882341,0.9915454392653336
2017-07-03,-1,-0.0016736510447487,-0.0012883976992729758,0.0019260412159617735,0.00840532973882341,0.9916252979721238
2017-07-06,-1,-0.000732779250685201,-0.0005692369680363985,0.0012929720938303817,0.006815742129614141,0.9931402580866574
2017-07-10,-1,-0.0004281602586269107,-0.0002975497912003701,8.041643451193239e-05,0.006270191944068488,0.9937513472150995
2017-07-12,-1,-0.0003744133150768399,-0.00024199236278925318,-0.0007387584563340473,0.005802032746358932,0.9928639800545785
2017-07-14,-1,-0.0005511042687915372,-0.0003931465149338948,-0.004084719071442326,0.005802032746358932,0.9927602150846191
2017-07-18,-1,-0.00021261453594799727,-8.939412059555239e-05,-0.004084719071442326,0.005802032746358932,0.992954491552316
2017-07-20,1,0.00041629025991117086,0.0004440434877673608,-0.0050645017078253095,0.004693286180289792,0.9927389981884582
2017-07-24,1,0.0008728793019078568,0.0009256299501268263,-0.005262686098324754,0.0035364073780667585,0.9928694981776919
2017-07-26,1,0.0010408672930713595,0.0011064082838104065,-0.005487507612805667,0.0035364073780667585,0.9920414638504729
2017-07-28,1,0.000663040250036512,0.0006688024913797585,-0.005262686098324754,0.0026544139145441574,0.9938174781396036
2017-08-01,1,0.0009172283376367909,0.0009548077897100265,-0.005262686098324754,0.0015299440862912791,0.9939819975363777
2017-08-03,1,0.0006593347756132536,0.0006678308083857529,-0.005063889615547216,0.0035364073780667585,0.9940538479106367
2017-08-07,1,0.0009601598049079608,0.0010365061399385477,-0.005485671335971388,0.0027105288068680613,0.9936156883437158
2017-08-09,1,0.0003516146658726848,0.0003631829518044554,-0.005063889615547216,0.002810446376682864,0.994434440493872
2017-08-11,-1,-0.00010391970925470749,-7.197745649403802e-05,-0.00549074880009282,0.002810446376682864,0.9860665286423753
2017-08-15,1,0.0002883283800793186,0.00029665383933422356,-0.006812311082217078,0.002810446376682864,0.9805013333736997
2017-08-17,-1,-0.00013354343536772158,-7.796099560203535e-05,-0.012423611840853544,0.002810446376682864,0.9784524399422324
2017-08-21,-1,-0.00029554841329427654,-0.00022377336860139593,-0.012423611840853544,0.005750055724857963,0.9777417074264736
2017-08-23,1,6.715018815867083e-06,3.437413362135295e-05,-0.010516998140896218,0.007920190269091415,0.9772622183301263
2017-08-25,-1,-0.00021803937649602807,-0.00014973724418147305,-0.010516998140896218,0.010032715839464076,0.9742429132786274
2017-08-29,-1,-0.0002580521475458549,-0.00018507537011329248,-0.010516998140896218,0.010032715839464076,0.9736951401843937
2017-08-31,1,9.609416550363507e-06,5.919090677396286e-05,-0.010516998140896218,0.010032715839464076,0.9741131296909695
2017-09-05,-1,-0.0004763426046935613,-0.0003640237566418425,-0.008563779490946544,0.015585558672553198,0.9725002023307117
2017-09-07,1,0.0002557948637482947,0.00025966581921821775,-0.008563779490946544,0.015585558672553198,0.9721125601209006
2017-09-11,-1,-0.005641234897972828,-0.004940119607531672,-0.0013863538762957533,0.015585558672553198,0.9772211049164781
2017-09-13,-1,-0.007437595963074261,-0.006545079679320302,-0.0013863538762957533,0.01381405319021579,0.9804653684122744
2017-09-15,-1,-0.008797841363548446,-0.007780500420551065,0.00019256301178167295,0.01381405319021579,0.9808149400959792
2017-09-19,-1,-0.008424826608695528,-0.007421133978764334,-0.0017210536267518281,0.012283194931012577,0.9824391712808672
2017-09-21,-1,-0.007091674924414223,-0.0062335333728551715,-0.0017210536267518281,0.011969099578783265,0.9840975688923989
2017-09-25,-1,-0.004572627414980584,-0.004026640272902605,-0.005051576065926417,0.009841700494560953,0.9891473015816207
2017-09-27,-1,-0.0034047633405525665,-0.0030397260369588583,-0.0059867206182415015,0.009841700494560953,0.98992550804751
2017-09-29,-1,-0.003983712319117994,-0.00351293409729254,-0.0059867206182415015,0.011897000643511454,0.9888570132023893
2017-10-03,-1,-0.0024311897388957565,-0.002141470376699167,-0.0059867206182415015,0.00845277974296138,0.9911636009279577
2017-10-05,-1,-0.0014117757285085812,-0.0012514555617410218,-0.007483127006320339,0.006799312737115453,0.9913728511580657
2017-10-09,-1,-0.002043055338676056,-0.0017830053813131467,-0.006449293569158415,0.004614267111728349,0.9923745859304247
2017-10-11,-1,-0.0021438706027773645,-0.001903983621012967,-0.005775873220048683,0.0002638425389534717,0.9940878400099268
2017-10-13,-1,-0.002184545278750987,-0.0019463406259472662,-0.005571875974352662,0.0002638425389534717,0.9942578469461211
2017-10-17,-1,-0.002275540596441012,-0.0020363298789400548,-0.005227253146833795,0.004223884284336919,0.9940915974991781
2017-10-19,-1,-0.0016622115184871218,-0.001491962265703686,-0.005571875974352662,0.004223884284336919,0.9943271167949636
2017-10-23,-1,-0.001807345084656041,-0.0016405635128566843,-0.00525215627786232,0.005643234794508302,0.9937073893767993
2017-10-25,-1,-0.002340893624620049,-0.0021200449594266733,-0.004714118689766759,0.005643234794508302,0.9940578091508363
2017-10-27,-1,-0.0017340623957968083,-0.001575435478044344,-0.004714118689766759,0.00494973881506165,0.9945613076444324
2017-10-31,-1,-0.002247636880368644,-0.0020115096903185513,-0.004509422267568522,0.006152990663619226,0.9936184821472979
2017-11-02,-1,-0.0012570299407691891,-0.0012055845812557725,-0.004509422267568522,0.006152990663619226,0.9934276026627481
2017-11-06,-1,-0.001153541766902689,-0.001136744522975666,-0.00256862733494502,0.008357643895138687,0.9929511197199705
2017-11-08,-1,-0.0013280746231493685,-0.0012942558375254563,-0.0018343491724151922,0.010231599984735454,0.9920004196655802
2017-11-10,-1,-0.0010755203552872182,-0.0010344469808757867,-0.00010594592766821181,0.009618472885934495,0.9921873265488437
2017-11-14,-1,-0.0007094644447703431,-0.0006988137239708317,-0.002930976831338353,0.009618472885934495,0.9922796271760583
