JNU-Tangyin/eata/results/Batch4_SP500/Batch4_SP500-EOG.csv
Date,Action,Predicted_Q25,Predicted_Q75,Actual_Q25,Actual_Q75,RL_Reward
2010-12-14,0,0.0,0.0,-0.0022781648816196523,0.010916516042367432,0.9915490542455392
2010-12-16,0,0.0,0.0,-0.0022781648816196523,0.012974019967533036,0.9908541941285678
2010-12-20,0,0.0,0.0,-0.0026318814591554107,0.013964047619877611,0.9897872954109304
2010-12-22,0,0.0,0.0,-0.0026318814591554107,0.013964047619877611,0.9899704368690044
2010-12-27,0,0.0,0.0,-0.00173359504073877,0.013964047619877611,0.9901809879985037
2010-12-29,0,0.0,0.0,-0.0011599831468845577,0.01618417273670183,0.9892693051165986
2010-12-31,0,0.0,0.0,-0.0011599831468845577,0.018332882937145516,0.9875706307661298
2011-01-04,1,0.0017412634131531938,0.001872793709470589,-0.0009174400020979308,0.018332882937145516,0.988265864063934
2011-01-06,0,0.0,0.0,-0.0019593154024672814,0.018332882937145516,0.9878156525552005
2011-01-10,0,0.0,0.0,-0.006540764913532209,0.018332882937145516,0.9880025046839338
2011-01-12,0,0.0,0.0,-0.007163035112124221,0.00934996988678848,0.9892936765297435
2011-01-14,1,0.0013984998959795508,0.001528757728658731,-0.007764140650386929,0.00934996988678848,0.9895552236267107
2011-01-19,1,0.0009730020436760776,0.0010104901680024916,-0.007764140650386929,0.004990118646242207,0.9904144291594543
2011-01-21,0,0.0,0.0,-0.007764140650386929,0.010098571548549809,0.9881137933589969
2011-01-25,0,0.0,0.0,-0.007163035112124221,0.01282941797753785,0.9860243844702272
2011-01-27,0,0.0,0.0,-0.007764140650386929,0.012542577222812138,0.9851686912969652
2011-01-31,0,0.0,0.0,-0.008149804160665582,0.009964759344215807,0.9851983214971579
2011-02-02,0,0.0,0.0,-0.008149804160665582,0.012542577222812138,0.98430066196599
2011-02-04,0,0.0,0.0,-0.009549309505498267,0.012542577222812138,0.9834095035723596
2011-02-08,0,0.0,0.0,-0.009980547665031637,0.012542577222812138,0.9830865606505049
2011-02-10,0,0.0,0.0,-0.013500267751547097,0.014628329883478897,0.9809180812981623
2011-02-14,0,0.0,0.0,-0.013500267751547097,0.012542577222812138,0.9812041915299413
2011-02-16,0,0.0,0.0,-0.011522098213699726,0.01627638973867884,0.9797222392170669
2011-02-18,0,0.0,0.0,-0.011522098213699726,0.01627638973867884,0.9805724730217392
2011-02-23,0,0.0,0.0,-0.011522098213699726,0.01515467846601275,0.982374538567887
2011-02-25,-1,-0.7981135589345392,-0.7953688809798369,-0.009315386304323044,0.01731503378222764,0.5557190424485345
2011-03-01,1,0.002787038377872769,0.003074384960214964,-0.007737908930192988,0.01731503378222764,0.9853574631122503
2011-03-03,1,0.003358433555361997,0.003727778632004912,-0.007737908930192988,0.014036379829980919,0.9857784350184915
2011-03-07,0,0.0,0.0,-0.0060041327201771424,0.014036379829980919,0.9866361499053573
2011-03-09,0,0.0,0.0,-0.007428221951648476,0.014036379829980919,0.9864117957221933
2011-03-11,0,0.0,0.0,-0.0060041327201771424,0.011032356287270482,0.9890551919061297
2011-03-15,0,0.0,0.0,-0.007428221951648476,0.011032356287270482,0.9876228846223224
2011-03-17,1,0.002347435154344784,0.002642178465318863,-0.0060041327201771424,0.010947193147941193,0.989111110867427
2011-03-21,1,0.0024253416205602322,0.002705482781120566,-0.006913066023979119,0.008338977766909617,0.9903450934306182
2011-03-23,1,0.0026272864073813135,0.002921054418600271,-0.006913066023979119,0.008338977766909617,0.9899700589113095
2011-03-25,1,0.0032597377215420192,0.0036488766055579667,-0.010964986160502522,0.001468410635931315,0.9898597317068947
2011-03-29,1,0.003889669163963067,0.004233795744151153,-0.010964986160502522,0.0005840035304560994,0.9893556952531088
2011-03-31,1,0.002769444103803546,0.00294321933234423,-0.010964986160502522,0.0021989287720049562,0.9905336908179164
2011-04-04,0,0.0,0.0,-0.014596411278440179,0.0021989287720049562,0.9894143259066295
2011-04-06,0,0.0,0.0,-0.017307045617061683,0.0021989287720049562,0.9891621118279292
2011-04-08,1,0.0019907808731464876,0.002084372339548761,-0.017307045617061683,0.0102931664973092,0.9858363015523384
2011-04-12,0,-7.933217757547135e-07,0.00019014875722229334,-0.014580190628538235,0.0102931664973092,0.9864250612654785
2011-04-14,1,0.0013482796406698513,0.0013482870906162082,-0.014580190628538235,0.004556446645803847,0.9860965524697853
2011-04-18,0,-0.00014225571765404208,0.00011761484691606401,-0.014580190628538235,0.008907469743824267,0.9864335535341071
2011-04-20,1,3.128233354377733e-05,0.0002853760058715662,-0.014580190628538235,0.008907469743824267,0.9868830083923975
2011-04-25,-1,-0.0006637696842820977,-0.0003404200395329868,-0.017508014113361996,0.008907469743824267,0.9860908225034514
2011-04-27,1,0.0010631914048406983,0.00109202920010714,-0.017508014113361996,0.009557333156910902,0.9850478701024528
2011-04-29,1,0.0009877744948991194,0.0010389031444899583,-0.017508014113361996,0.008909528184287627,0.9851226894655104
2011-05-03,-1,-0.0010740592754998675,-0.0007441179995322904,-0.009269892626418,0.009256326840807825,0.9866811947206428
2011-05-05,-1,-0.0022739313589474498,-0.0017713945102412903,-0.006186225905469138,0.009859788194220207,0.9868039310303023
2011-05-09,-1,-0.0003461092843282925,-9.286640474006919e-05,-0.00884351810216049,0.008807134305123242,0.989120682570301
2011-05-11,-1,-0.002383310624535016,-0.0018553977759389465,-0.007439793115616803,0.009256326840807825,0.9897040676760248
2011-05-13,-1,-0.0023313475156495735,-0.0018077733003868356,-0.00884351810216049,0.009256326840807825,0.987705155333517
2011-05-17,-1,-0.0024676037890835724,-0.0019461458466695219,-0.010337503851881867,0.009256326840807825,0.9873049247896903
2011-05-19,-1,-0.0031649624171749455,-0.0025242045771446515,-0.012578190554681117,0.008723236622001317,0.987153523493651
2011-05-23,0,0.0,0.0,-0.012487096801075846,0.009552606556727052,0.9874201659722537
2011-05-25,0,0.0,0.0,-0.012487096801075846,0.008322608894127354,0.9878175849619731
2011-05-27,0,0.0,0.0,-0.013294012815914255,0.00846617434067473,0.9863087457507811
2011-06-01,-1,-0.0009665356616303601,-0.0007491414173409377,-0.013294012815914255,0.009373927215276422,0.9860349917211215
2011-06-03,0,0.0,0.0,-0.013690537936300751,0.009373927215276422,0.9858498707476578
2011-06-07,0,0.0,0.0,-0.013417256675484938,0.009373927215276422,0.9864275395912177
2011-06-09,0,0.0,0.0,-0.014480510766810211,0.008182167381249154,0.9862752694012633
2011-06-13,0,0.0,0.0,-0.013417256675484938,0.008182167381249154,0.9875317632060238
2011-06-15,0,0.0,0.0,-0.013417256675484938,0.008182167381249154,0.9875598982397747
2011-06-17,0,0.0,0.0,-0.013417256675484938,0.01258320040590891,0.9860486781911264
2011-06-21,-1,-0.0030841952428344,-0.002658702576200327,-0.012247991582590392,0.012902979322653805,0.9859814200302528
2011-06-23,-1,-0.003177577966859101,-0.002809531577121665,-0.010561763723006504,0.014762475403423162,0.985011575869995
2011-06-27,-1,-0.0019150326728112938,-0.0016589949489539545,-0.0048824491101861845,0.012902979322653805,0.9870172752840135
2011-06-29,-1,-0.0015852792768203752,-0.0013644340577490526,-0.010561763723006504,0.010305017082305001,0.9872843743094555
2011-07-01,0,0.0,0.0,-0.01050314104346168,0.004934147502765336,0.9877133107901092
2011-07-06,0,0.0,0.0,-0.014304642728175736,0.004934147502765336,0.9864872657270525
2011-07-08,0,0.0,0.0,-0.016004070558881617,0.004934147502765336,0.9829679637924265
2011-07-12,0,0.0,0.0,-0.016004070558881617,0.011390459293490368,0.9794990466166476
2011-07-14,0,0.0,0.0,-0.016234023989618755,0.0188243444588004,0.9751889014540646
2011-07-18,0,0.0,0.0,-0.016234023989618755,0.01832571087922064,0.9759508443898135
2011-07-20,0,0.0,0.0,-0.019183822731961044,0.012347365750890795,0.9760912488464621
2011-07-22,0,0.0,0.0,-0.023523029518954415,0.005253116321898812,0.9740933768436438
2011-07-26,0,0.0,0.0,-0.023523029518954415,0.013815355397508161,0.9723172372666569
2011-07-28,-1,-0.002240444946868341,-0.0020608395696499987,-0.019774567604185687,0.013815355397508161,0.9728969619153646
2011-08-01,-1,-0.0026501572689401035,-0.0024043125386710258,-0.019774567604185687,0.01987277560173873,0.9716107311071155
2011-08-03,-1,-0.002195080494563059,-0.002040124559899194,-0.017934335427038133,0.01987277560173873,0.9723330500233164
2011-08-05,-1,-0.0022932598169633357,-0.0021229428916209707,-0.017934335427038133,0.018241303962030775,0.9751248316296598
2011-08-09,-1,-0.003996749207820062,-0.0036837147878598653,-0.016239366410619283,0.018241303962030775,0.9771089664866813
2011-08-11,1,0.0008184089393812005,0.001113807347491552,-0.016239366410619283,0.012636663913753508,0.979875560315339
2011-08-15,0,-0.00014968255995203878,0.00012768402551040974,-0.016239366410619283,0.009613883042086265,0.9807716420776973
2011-08-17,1,0.000863100463244582,0.0012162519582365955,-0.015679095274315467,0.013149261612223906,0.9800512910895491
2011-08-19,1,3.319792486881467e-05,0.0002599282753745223,-0.015679095274315467,0.013149261612223906,0.9817867552795521
2011-08-23,1,0.00033126828823639245,0.0005508580337919767,-0.016414858051034202,0.010890135955157802,0.9815112019718619
2011-08-25,-1,-0.003142304957421002,-0.0029539348625591865,-0.028359837069021142,0.009826296897571607,0.9774135464537544
2011-08-29,-1,-0.00022074166316670237,-6.784578522151376e-05,-0.028359837069021142,0.009826296897571607,0.9758018474984027
2011-08-31,1,0.00014035380014772755,0.0002887644846129378,-0.035055655798254814,0.009826296897571607,0.9733211608636453
2011-09-02,-1,-0.0011232438440802624,-0.001055272049093381,-0.038027706614123524,0.009826296897571607,0.9723327227352999
2011-09-07,-1,-0.0019611264233030273,-0.0019292497291228503,-0.038027706614123524,0.014937918044361937,0.9695019038348643
2011-09-09,-1,-0.003086175396867172,-0.0028395045874735356,-0.038027706614123524,0.02328455086631788,0.9690554580362766
2011-09-13,-1,-0.002301626942280735,-0.0021907963791797957,-0.038027706614123524,0.02642701660654559,0.9664811164172984
2011-09-15,-1,-0.0013612752823200043,-0.0013431733875927565,-0.038027706614123524,0.02328455086631788,0.9675352649688217
2011-09-19,-1,-0.0020428190478432324,-0.001975763523289656,-0.038027706614123524,0.028915132990311614,0.9652437412848378
2011-09-21,-1,-0.0032292821999891324,-0.00305404763844991,-0.03684690530474096,0.0407710052795074,0.9634925358082143
2011-09-23,-1,-0.00682412235163215,-0.006170565774559352,-0.01441402477771755,0.0407710052795074,0.9662742045486822
2011-09-27,-1,-0.005413656210739085,-0.004902832849586939,-0.03210552434995923,0.03882291552126179,0.967996456796352
2011-09-29,-1,-0.006301213255810721,-0.005760638504470287,-0.01441402477771755,0.04368899390559526,0.9668056588240932
2011-10-03,-1,-0.008955723141209985,-0.008059513166099066,-0.006778247756950854,0.04368899390559526,0.9646601934155478
2011-10-05,-1,-0.003700874869542122,-0.003396434823238316,-0.01441402477771755,0.03988362767911055,0.9659299725055273
2011-10-07,-1,-0.003885840854179678,-0.003534258328840605,-0.006778247756950854,0.04287665774368528,0.9660590189077611
2011-10-11,-1,-0.0011325745545600055,-0.001095050065236379,-0.006778247756950854,0.03855213680062513,0.9696789967968833
2011-10-13,-1,-0.0013562998400907663,-0.001277946252117877,-0.01217441268217461,0.03855213680062513,0.9679799710614031
2011-10-17,-1,-0.0006952761648563779,-0.000638149694277475,-0.0052697450745832625,0.03808687963143435,0.9697757233064526
2011-10-19,1,0.0013427489263564034,0.0016726199834908564,-0.014269515447086262,0.02829213769819278,0.9723118508910534
2011-10-21,1,0.0019437313507621333,0.002345100244940352,-0.021263785371947518,0.02012076215529543,0.9722853029072948
2011-10-25,1,0.001100065714732983,0.0014386773061499374,-0.01691219859314787,0.02012076215529543,0.9728289747497533
2011-10-27,1,0.0028578984704814145,0.003389623211638833,-0.022898256381059183,0.016977829515691788,0.9733721047121902
2011-10-31,1,0.0018549501460547694,0.0023046386707827994,-0.01691219859314787,0.02072409447075393,0.9740217672298067
2011-11-02,1,0.0033355209370465903,0.003887530345977862,-0.014269515447086262,0.02072409447075393,0.9773508778857657
2011-11-04,1,0.004083666618277262,0.004724729517453981,-0.014269515447086262,0.010945426366895125,0.9790316565967655
2011-11-08,1,0.0037297089990703707,0.004324958645648569,-0.016669428829049083,0.020625970173339635,0.9775575059512336
2011-11-10,1,0.0035465772310078747,0.004122647802902104,-0.016669428829049083,0.027323653263036967,0.9776153302673688
2011-11-14,1,0.004033008974301212,0.004651677585007504,-0.019851511294763757,0.013145279297656137,0.9766106303952156
2011-11-16,1,0.0032293455070836422,0.0037565919153888347,-0.023779416334219386,0.017029664661337967,0.9754446585476573
2011-11-18,1,0.002753730586114098,0.0032404501127860706,-0.022024414897956444,0.027323653263036967,0.9750441907296539
2011-11-22,1,0.0019500879377870183,0.0023259508930368387,-0.022024414897956444,0.027323653263036967,0.9757591448896648
2011-11-25,1,0.0011620820636713439,0.0014294778729200962,-0.018699939886650734,0.027323653263036967,0.9778918663666686
2011-11-29,1,0.003028385024844658,0.003542080855607919,-0.022024414897956444,0.01650140718069047,0.9796070857859689
2011-12-01,1,0.0032178132045800265,0.003719148922572967,-0.022024414897956444,0.014396863324105714,0.9821255526361014
2011-12-05,1,0.0025525146230937303,0.002920156817282682,-0.022024414897956444,0.018798867473278413,0.9812965656985272
2011-12-07,1,0.003723488182895961,0.004313356954042915,-0.022024414897956444,0.014396863324105714,0.9833199584861255
2011-12-09,1,0.004541189296130749,0.005262785138746887,-0.007304042970423861,0.014396863324105714,0.9841875069486677
2011-12-13,1,0.0030494534253442066,0.003629277994014228,-0.0010922671191373827,0.014396863324105714,0.9856981236150706
2011-12-15,1,0.002480745431309334,0.002984023158501421,-0.0010922671191373827,0.00982132832283791,0.9882396177516019
2011-12-19,1,0.0022592022176064963,0.00269241973898678,-0.0010922671191373827,0.009624804655599707,0.9900009037335592
2011-12-21,1,0.002760657619893603,0.003227397143409274,-0.0025918085567247307,0.009624804655599707,0.9891183081746052
2011-12-23,1,0.0023892663655449625,0.0027701111045900645,-0.0040857159279585244,0.016104752614979054,0.9877161155941253
2011-12-28,1,0.0017297214379156606,0.0020088755538190967,-0.006532274773987849,0.016104752614979054,0.9877486441160773
2011-12-30,1,0.0023380226023090537,0.002683934774238622,-0.006532274773987849,0.012548859824964802,0.9879464604864993
2012-01-04,1,0.0039406885821966645,0.004605642405619683,-0.006532274773987849,0.00876840025864223,0.989147544029461
2012-01-06,1,0.004063165262839192,0.0047421137671547035,-0.006532274773987849,0.012548859824964802,0.988084621496448
2012-01-10,1,0.004428005950660025,0.00510753784817714,-0.006532274773987849,0.010148742987453285,0.9894998931818855
2012-01-12,1,0.0031587100680233807,0.0035501428672326937,-0.005638712130038473,0.010148742987453285,0.9899194084983081
2012-01-17,1,0.0032967984278749678,0.003739295782620501,-0.003442540923127294,0.012036873224228131,0.9901619096468607
2012-01-19,1,0.0030749850626410093,0.003439515569820017,-0.003074237867258235,0.012036873224228131,0.9896587965940274
2012-01-23,1,0.0038030217046696527,0.004310848913095585,-0.003074237867258235,0.0113837415287199,0.990031370907888
2012-01-25,1,0.004318956568487379,0.004902779083380859,-0.0005004214007063023,0.010133633457902323,0.9913743986476766
2012-01-27,1,0.0027397739740669972,0.003025677614147549,0.0019787950739729694,0.010133633457902323,0.9911085807712029
2012-01-31,1,0.003546615546716608,0.003969716158555746,-0.0005004214007063023,0.009617280860407118,0.9904906288365221
2012-02-02,1,0.0024827703307148488,0.0026476580675143316,-0.0013135148817800238,0.010133633457902323,0.9878551414197929
2012-02-06,1,0.0033847983049345256,0.0036862455104512293,-0.0056715842294772275,0.009617280860407118,0.9886343273788215
2012-02-08,1,0.003903196662583682,0.004338084033891895,-0.0056715842294772275,0.00999305623060792,0.9886840793208037
2012-02-10,1,0.0035504757793948256,0.0038884793027643668,-0.007327200386846522,0.00999305623060792,0.988578313732343
2012-02-14,1,0.0027695232757818404,0.0028782860716045607,-0.012258228558420601,0.00999305623060792,0.9866476820876762
2012-02-16,1,0.0011599924720559864,0.0016288365123874379,-0.012258228558420601,0.009246058624380573,0.9874492122604579
2012-02-21,1,0.0007231244841092274,0.0011917713934746512,-0.012258228558420601,0.008675110748550121,0.9879487269134041
2012-02-23,0,-0.0006459037277567903,6.118361166316914e-05,-0.0169566110671944,0.008675110748550121,0.9864660556913208
2012-02-27,-1,-0.0025153763086010364,-0.0014898645025588947,-0.012796292155854466,0.008908267641103976,0.9868708343860048
2012-02-29,-1,-0.003218444030293368,-0.002482725012067549,-0.011860460724002724,0.008699302706445285,0.9873840949246769
2012-03-02,-1,-0.001255304877292608,-0.0007028670878454961,-0.00860234714021526,0.008699302706445285,0.9886512278014378
2012-03-06,-1,-0.0007495545996038476,-0.00033425337119784293,-0.00860234714021526,0.010265414166102436,0.9878940701045341
2012-03-08,-1,-0.0006365216458121821,-0.00022229272955592632,-0.012800221222162214,0.008699302706445285,0.9868405910928272
2012-03-12,-1,-0.000856435013985546,-0.0004250270237537287,-0.016595424353676586,0.008699302706445285,0.9853487410378986
2012-03-14,1,0.00044402848080632397,0.0006180575885393,-0.015104848395334299,0.008699302706445285,0.9857777156245312
2012-03-16,1,0.001215774175721939,0.0012330181857240295,-0.016443313528894134,0.004192300201597449,0.9851423435436365
2012-03-20,0,0.0,0.0,-0.015104848395334299,0.006012851642363774,0.9856021010734866
2012-03-22,0,0.0,0.0,-0.012800221222162214,0.006012851642363774,0.9869291699079527
2012-03-26,0,0.0,0.0,-0.012800221222162214,0.006200429386520624,0.9870566521871145
2012-03-28,-1,-0.0003826514877805447,-0.00024279720434797447,-0.010603254788864314,0.018987124746231345,0.9863830352784869
2012-03-30,1,0.0008309734601955474,0.0009003129757265384,-0.010603254788864314,0.010892581742765202,0.9869397044462462
2012-04-03,1,0.0012819615193337664,0.0013673006039957654,-0.013077593485407487,0.009386333972981385,0.9864116670373065
2012-04-05,0,0.0,0.0,-0.01475931252861862,0.009386333972981385,0.9865975429025434
2012-04-10,0,0.0,0.0,-0.009233359331781,0.009386333972981385,0.9883317917761104
2012-04-12,0,0.0,0.0,-0.007820088729715798,0.011238452051119592,0.9887253948538802
2012-04-16,-1,-0.002607938996820672,-0.002214065615980571,-0.010301003945069921,0.011238452051119592,0.9874895487851876
2012-04-18,-1,-0.0027762187077221227,-0.0023059559300867612,-0.01515789178163044,0.008821991289627157,0.9880115019802302
2012-04-20,-1,-0.004071937551530453,-0.0033748837548661223,-0.016585958447254922,0.008821991289627157,0.9874118283627528
2012-04-24,-1,-0.0023731685497598394,-0.0019574047212297173,-0.016585958447254922,0.011690990663234906,0.9853760548524424
2012-04-26,-1,-0.00018829887543375093,-9.01692835055917e-05,-0.016585958447254922,0.008103316416329017,0.9862934910755681
2012-04-30,0,0.0,0.0,-0.016585958447254922,0.010824955571803803,0.9848469306928691
2012-05-02,0,0.0,0.0,-0.01707862356398484,0.009812086294360912,0.9837241729517509
2012-05-04,-1,-0.0010499465537689196,-0.0008800007072386817,-0.01707862356398484,0.009812086294360912,0.9814822786667011
2012-05-08,-1,-0.0021508317816994653,-0.0017659978390813938,-0.01707862356398484,0.011812078018006667,0.9797241703443649
2012-05-10,-1,-0.0027350366734591883,-0.0022150570705165287,-0.01707862356398484,0.00996293249839935,0.9801700078726454
2012-05-14,-1,-0.004395858182406273,-0.003690733279908333,-0.016519869503741885,0.012523389431884838,0.9803806186951337
2012-05-16,-1,-0.004402809336069673,-0.0037457370252294573,-0.01631523780635889,0.016942306366116863,0.9794390736266768
2012-05-18,-1,-0.005216641422315252,-0.0044613310349836,-0.016519869503741885,0.020009138758432937,0.9782551139881589
2012-05-22,-1,-0.003941814042822755,-0.003305804918275674,-0.017491717315850943,0.016942306366116863,0.9790174892407207
2012-05-24,0,0.0,0.0,-0.020015815283674233,0.016942306366116863,0.9753514414458282
2012-05-29,0,0.0,0.0,-0.023339162478875637,0.013951942117805611,0.9752551227026893
2012-05-31,0,0.0,0.0,-0.020015815283674233,0.016942306366116863,0.9764888779264274
2012-06-04,0,0.0,0.0,-0.01727730770522511,0.019509879573379556,0.9774233714349878
2012-06-06,0,0.0,0.0,-0.020015815283674233,0.019509879573379556,0.9751408647523626
2012-06-08,0,0.0,0.0,-0.020015815283674233,0.019509879573379556,0.9750396842872651
2012-06-12,-1,-0.005818578551594358,-0.005150592824558594,-0.02067065603011506,0.019509879573379556,0.9755800617351654
2012-06-14,-1,-0.005334319959105604,-0.004735906295608945,-0.02067065603011506,0.02075635318236205,0.9757366839791632
2012-06-18,-1,-0.004972277474361209,-0.004454465732462087,-0.016934593587320815,0.02075635318236205,0.9760795977658359
2012-06-20,-1,-0.005798442730120423,-0.005124818870944002,-0.013433736406723332,0.02075635318236205,0.9762480876390515
2012-06-22,-1,-0.007028205068277912,-0.006251537468291766,-0.013433736406723332,0.02075635318236205,0.9786723472581673
2012-06-26,-1,-0.007809125703171427,-0.006951741512224755,-0.013433736406723332,0.02075635318236205,0.9789251321210493
2012-06-28,-1,-0.00663025832110033,-0.005961466825586655,-0.013433736406723332,0.0208484790471898,0.9772129617235706
2012-07-02,-1,-0.005073079614269277,-0.004614558030584542,-0.01497907544975198,0.018721367951307855,0.9799812176513614
2012-07-05,-1,-0.003925261546063243,-0.003606206156232363,-0.01497907544975198,0.018721367951307855,0.9815325902069173
2012-07-09,-1,-0.003398809716411805,-0.0031605026536324276,-0.014658408479874886,0.0208484790471898,0.9774946457277214
2012-07-11,-1,-0.002401179568357255,-0.002332723054576216,-0.010684798586526018,0.0208484790471898,0.9783335388743799
2012-07-13,-1,-0.002223747656140906,-0.0021594455756392865,-0.010684798586526018,0.018921882249399568,0.9786508491495524
2012-07-17,-1,-0.0011933871898811487,-0.0011052655777209746,-0.010684798586526018,0.016541532952773035,0.9795007758080436
2012-07-19,-1,-0.0005942381233945808,-0.0004386615903142479,-0.010684798586526018,0.0150156364266654,0.9804706161959182
2012-07-23,-1,-0.0007471685758397118,-0.0006251489093186745,-0.010684798586526018,0.0150156364266654,0.9811137480308761
2012-07-25,-1,-0.0009590069028746524,-0.0008545897799081458,-0.008158955633335782,0.0150156364266654,0.9816080933060983
2012-07-27,1,0.0004167727656874499,0.0006953192046696434,-0.010684798586526018,0.01148895008319676,0.9827360969982538
2012-07-31,0,-0.0002076432904788044,1.0454522723220413e-05,-0.007407176034912529,0.01148895008319676,0.9838709222863549
2012-08-02,-1,-0.0004425155072709712,-0.0002565318328187785,-0.007407176034912529,0.009868354038167515,0.9858504333050702
2012-08-06,1,0.0012284987002262049,0.0016492794926870986,-0.007132229868848682,0.009868354038167515,0.9898675441905406
2012-08-08,1,0.00211393621361217,0.0026833799961328065,-0.007090657081630618,0.009868354038167515,0.9895450462297544
2012-08-10,1,0.002529968500548767,0.0031358166878679263,-0.007090657081630618,0.009465324770993551,0.9897168531297715
2012-08-14,1,0.0021872221966300837,0.0026942785843414945,-0.007090657081630618,0.006023532737996976,0.9903373521214395
2012-08-16,1,0.002657010541245536,0.003252274854528798,-0.007090657081630618,0.011502529432864428,0.9892980519022759
2012-08-20,1,0.0022246268975450022,0.0027275900695363396,-0.007090657081630618,0.011502529432864428,0.9892446806826556
2012-08-22,1,0.0023990628416950717,0.0029524835127451125,-0.007090657081630618,0.011502529432864428,0.9885413132168035
2012-08-24,1,0.0027554459543061476,0.0033845944441455228,-0.00663951191604226,0.006023532737996976,0.9897336095366748
2012-08-28,1,0.002194621717694325,0.0026877148167029664,-0.007090657081630618,0.006023532737996976,0.9886959503524172
2012-08-30,1,0.00106558290277258,0.001349587002316638,-0.007017394041854657,0.011931799818350606,0.988633679480975
2012-09-04,1,0.002113646475379361,0.002555440859242604,-0.007017394041854657,0.011014233168626094,0.9888365370110058
2012-09-06,1,0.002459257786172092,0.0029149313303505594,-0.0077733819512516705,0.005748830079116139,0.9890276061695901
2012-09-10,1,0.002524216443080124,0.0030082664693449924,-0.01021231666366287,0.005748830079116139,0.9884661708383551
2012-09-12,1,0.002586413118602455,0.0030627243551369357,-0.011167365703410708,0.009039624561124858,0.9874489054185105
2012-09-14,1,0.003515623293935728,0.0041417450816383025,-0.011167365703410708,0.0031762738630345057,0.9880360402329801
2012-09-18,1,0.0036261363672718673,0.00432289210645897,-0.011007286582219904,0.009039624561124858,0.9873415490362452
2012-09-20,1,0.003404938944250459,0.004081777302658629,-0.009709932043386767,0.011697125422932745,0.9879428617807029
2012-09-24,1,0.003280919674174287,0.003930212393084993,-0.011007286582219904,0.011697125422932745,0.9869874467429949
2012-09-26,1,0.002325720659266024,0.002799214629959817,-0.011007286582219904,0.011697125422932745,0.9874319003051886
2012-09-28,1,0.0025522692165470913,0.0030424925406548793,-0.010558261669007403,0.013269360834262126,0.9878705548893127
2012-10-02,1,0.0035466587538538425,0.004183234150775537,-0.010558261669007403,0.013269360834262126,0.9879754049497474
2012-10-04,1,0.002194957980481114,0.002574322156477067,-0.010558261669007403,0.013629068693406028,0.98840886232062
2012-10-08,1,0.0012203499039972548,0.0015222517594865215,-0.01065961875912727,0.01419552307465409,0.9861520096789683
2012-10-10,1,0.000797715454173625,0.0010043473328363388,-0.011691382967643552,0.01419552307465409,0.9849150879928688
2012-10-12,1,0.0013450937759400773,0.0016827644178054697,-0.011691382967643552,0.01419552307465409,0.9854712273167859
2012-10-16,0,0.0,0.0,-0.014440421069749137,0.01419552307465409,0.9851967433863399
2012-10-18,0,0.0,0.0,-0.014440421069749137,0.015025619010937132,0.9850231015141208
2012-10-22,0,0.0,0.0,-0.011691382967643552,0.015025619010937132,0.9853446629795247
2012-10-24,0,0.0,0.0,-0.011691382967643552,0.015025619010937132,0.9851231124506388
2012-10-26,1,0.0005700275914161409,0.0006049526590725916,-0.013687726986739509,0.011770753905036523,0.9855406168082255
2012-11-01,1,0.0013502204874522587,0.0013807743875025836,-0.013687726986739509,0.011048640076745374,0.9861953731110564
2012-11-05,1,0.0012099250175053925,0.0012224439220363966,-0.011462718769479432,0.008155073472604874,0.9872512310135336
2012-11-07,0,0.0,0.0,-0.01035043739977962,0.008155073472604874,0.9894092577988137
2012-11-09,0,0.0,0.0,-0.004556414951099622,0.008155073472604874,0.9910897877266419
2012-11-13,0,0.0,0.0,-0.004556414951099622,0.011048640076745374,0.9901675092970296
2012-11-15,0,0.0,0.0,-0.004556414951099622,0.009129451568594606,0.9910917183686649
2012-11-19,0,0.0,0.0,-0.004556414951099622,0.011048640076745374,0.9901100505871163
2012-11-21,0,0.0,0.0,-0.004556414951099622,0.011600979152592875,0.9895693229333958
2012-11-26,0,0.0,0.0,-0.006442854841204712,0.011600979152592875,0.9902530059393306
2012-11-28,-1,-0.0010825114713109625,-0.0008247357192687562,-0.006442854841204712,0.011600979152592875,0.9909425221032132
2012-11-30,-1,-0.0011585114733666901,-0.0008838536123334217,-0.006988892566823113,0.013776615927932537,0.9894589216883489
2012-12-04,0,0.0,0.0,-0.006988892566823113,0.015919958382606413,0.9881844339025757
2012-12-06,0,0.0,0.0,-0.006988892566823113,0.015919958382606413,0.9882634709423215
2012-12-10,-1,-0.000595644088102258,-0.00044736176875379957,-0.0073398732888249095,0.015919958382606413,0.9878452479215545
2012-12-12,1,0.0004378504248098102,0.0004682812502673209,-0.0073398732888249095,0.013704180082417573,0.9885155862793635
2012-12-14,-1,-0.00043992908382191944,-0.0003013247385858942,-0.006785824718487522,0.013704180082417573,0.9889588020937391
2012-12-18,0,-5.0655159680859825e-05,5.0070676861118085e-05,-0.006785824718487522,0.0068970199227962655,0.9906587223500158
2012-12-20,1,0.000665829176221949,0.0007241038116005969,-0.006442854841204712,0.0054558709866247964,0.9917159191854777
2012-12-24,1,0.00025998624706857526,0.00028981765332960417,-0.004725666491042606,0.0054558709866247964,0.9915079732488338
2012-12-27,-1,-0.0010532563091032719,-0.0008266266017983797,-0.004725666491042606,0.0054558709866247964,0.9912332610033487
2012-12-31,1,5.912520235428043e-05,0.00010410356124811548,-0.004016462470332421,0.0054558709866247964,0.9922489137375398
2013-01-03,1,0.0005864825861046903,0.000661507319836502,-0.005593422822172837,0.0054558709866247964,0.9917927560304325
2013-01-07,1,0.0008796875253665151,0.0010062380843094848,-0.00792616317427896,0.0054558709866247964,0.991414192858969
2013-01-09,1,0.0007510860003579834,0.0008543619490702836,-0.005593422822172837,0.006172316150976421,0.9920180998104123
2013-01-11,0,0.0,0.0,-0.005593422822172837,0.006172316150976421,0.9912216187805585
2013-01-15,0,0.0,0.0,-0.0040174751547430235,0.006172316150976421,0.9913111464843843
2013-01-17,1,0.0012591991260911312,0.0013504613743348121,-0.005798551112148402,0.006172316150976421,0.9900909169489625
2013-01-22,1,0.0011717737679708367,0.0012455679561741177,-0.008952827296400376,0.007953674029019024,0.9881685964436373
2013-01-24,1,0.0006159373943148209,0.0006311387981720244,-0.008952827296400376,0.010865301780425708,0.9871563468024843
2013-01-28,0,-0.00014199566456364723,1.3126525926850812e-06,-0.010291986481964329,0.012566670612347628,0.9856183147132073
2013-01-30,1,0.0005291662185518706,0.0005524777213716302,-0.010291986481964329,0.012566670612347628,0.9851091806908844
2013-02-01,1,0.0016843584704419692,0.001838232388843104,-0.013029385282875745,0.010865301780425708,0.9853025550972413
2013-02-05,1,0.0014522185206484884,0.0015574532266935635,-0.012767429691141339,0.011412124818832671,0.9850440376503847
2013-02-07,1,0.0017234792366005083,0.001878702999099481,-0.012767429691141339,0.014556626906114577,0.9843162967981132
2013-02-11,1,0.0025540362083770404,0.0028605321580182893,-0.012767429691141339,0.011829404987818093,0.9851404275120084
2013-02-13,1,0.0023217403287522816,0.002585690334248224,-0.012767429691141339,0.014408813517058524,0.9847731893157156
2013-02-15,1,0.0006383412119579687,0.0006541402576889059,-0.010877882930532042,0.014408813517058524,0.9851777216739522
2013-02-20,1,0.000269561591261094,0.00030580579196763023,-0.010877882930532042,0.011829404987818093,0.9864552855538139
2013-02-22,1,1.9101896160040265e-05,0.00012585940196516528,-0.010877882930532042,0.011829404987818093,0.9869756812864581
2013-02-26,-1,-0.00012506822254256667,-1.8648152092548098e-05,-0.010051948307852119,0.012031078777308097,0.9866984388674618
2013-02-28,1,0.0004243503228564886,0.0004268864206677859,-0.010051948307852119,0.009344314508823373,0.988056092383753
2013-03-04,-1,-0.0008192257807088621,-0.0006240616152275852,-0.008190115465186816,0.009344314508823373,0.9893432698420436
2013-03-06,0,-0.0001182814996853348,8.843113864855231e-06,-0.010877882930532042,0.008732577210869065,0.9885198020946792
2013-03-08,1,0.00013289472857416887,0.0002640736946641294,-0.010877882930532042,0.009296747955006146,0.9880742041195499
2013-03-12,1,0.00019013758829999655,0.0003271630991179271,-0.010877882930532042,0.009217028654229922,0.9879750352568508
2013-03-14,1,0.0012589381643230574,0.0013259161399507876,-0.011787296192816932,0.0053307361465491174,0.9868123465394666
2013-03-18,1,0.0004919552895999847,0.0005154568635804262,-0.01429040341395319,0.009217028654229922,0.9837258382525758
2013-03-20,-1,-0.0007543968428019462,-0.0005519696991480432,-0.019616917675591344,0.009217028654229922,0.9829161981496376
2013-03-22,-1,-0.0009255002675963666,-0.0006815968543162349,-0.01787768176068944,0.011884301686926241,0.9822104305301343
2013-03-26,1,0.00027880039399314426,0.0003426101496847528,-0.01787768176068944,0.011884301686926241,0.9830403320171286
2013-03-28,1,0.00016416446672080413,0.0002260051191131435,-0.022578448693560616,0.015560699414346636,0.9814958897076362
2013-04-02,0,0.0,0.0,-0.022578448693560616,0.01635811837423852,0.9803569927301036
2013-04-04,0,0.0,0.0,-0.01697052975882564,0.01635811837423852,0.9814275568028542
2013-04-08,0,0.0,0.0,-0.01697052975882564,0.018359081374806747,0.9804607995770707
2013-04-10,0,0.0,0.0,-0.01697052975882564,0.023952911749506162,0.9766665116499993
2013-04-12,0,0.0,0.0,-0.01675572029380333,0.023952911749506162,0.9768301141215262
2013-04-16,0,0.0,0.0,-0.013952712380958146,0.022787247644899675,0.9800046087616302
2013-04-18,0,0.0,0.0,-0.013520289556164548,0.022787247644899675,0.9807353961133868
2013-04-22,-1,-0.001788289165540702,-0.0014940804623567562,-0.011484947710941305,0.01809161844011224,0.981572027153756
2013-04-24,-1,-0.0024270959830551726,-0.0020258046903617235,-0.013520289556164548,0.016369187102378398,0.9816780109230039
2013-04-26,0,0.0,0.0,-0.011484947710941305,0.016369187102378398,0.9831701909263781
2013-04-30,0,0.0,0.0,-0.011484947710941305,0.015500222666946326,0.9838785885368121
2013-05-02,0,0.0,0.0,-0.011484947710941305,0.015500222666946326,0.9837909997807753
2013-05-06,1,9.965394649630337e-05,0.00022542498336215413,-0.011484947710941305,0.013590641040890947,0.9852754132066254
2013-05-08,1,0.0021330469405900637,0.0023118790856937943,-0.013520289556164548,0.005952670560328185,0.9874998289695877
2013-05-10,1,0.00045751739460889174,0.0005282936074493569,-0.010084152186285122,0.013590641040890947,0.9880432939472628
2013-05-14,1,0.0020281014162902913,0.002243494563141942,-0.011807324678394081,0.006281089945290938,0.9880708730810224
2013-05-16,1,0.0010730867502013373,0.0011657499802054808,-0.010336979957240729,0.013590641040890947,0.9873816362311979
2013-05-20,1,0.0013862098227401547,0.0014864936309884312,-0.010336979957240729,0.012766886365459145,0.9870828365107082
2013-05-22,-1,-0.0002811559676868634,-0.00015291389632410892,-0.00897316427033468,0.012766886365459145,0.9867476923787222
2013-05-24,-1,-0.0005244324977986292,-0.0003575028820347268,-0.013711455155826382,0.012766886365459145,0.9858198683324352
2013-05-29,1,0.0006500248578313546,0.0006729415396074746,-0.013711455155826382,0.01370030468600083,0.9849166415468233
2013-05-31,-1,-0.00011240871658675525,-7.014164634006852e-05,-0.00897316427033468,0.01370030468600083,0.9856507804580884
2013-06-04,1,0.0005058361258163591,0.000514398863057383,-0.00897316427033468,0.015835397436874187,0.9846386984132545
2013-06-06,1,0.0002900872820339167,0.0002934792264110356,-0.006775504955512973,0.015728037939732802,0.985874062743785
2013-06-10,1,0.0004214949529045283,0.0004232536710538303,-0.005011541220529147,0.01644992078510478,0.9859815893350733
2013-06-12,0,-3.0765420596558064e-05,6.73805013948828e-06,-0.004517786826151205,0.01644992078510478,0.9865376604625136
2013-06-14,0,0.0,0.0,-0.004517786826151205,0.013812962224143886,0.987710194388499
2013-06-18,0,0.0,0.0,-0.004517786826151205,0.013812962224143886,0.9881422278542624
2013-06-20,0,0.0,0.0,-0.000862370155092794,0.013812962224143886,0.9890591460902929
2013-06-24,0,0.0,0.0,0.001719684689872843,0.013812962224143886,0.9898537200358212
2013-06-26,0,0.0,0.0,-0.0008759080161542289,0.012536901459690046,0.9889196880799846
2013-06-28,1,0.0008884632321787044,0.0010543081890364249,-0.004840310227868038,0.012536901459690046,0.9889919295154377
2013-07-02,1,0.002479453926062729,0.0028678972321374845,-0.004840310227868038,0.009159245162491905,0.9909043325085132
2013-07-05,1,0.0033792003163255983,0.003931220554685224,-0.004840310227868038,0.009159245162491905,0.9895881292712684
2013-07-09,1,0.0037106033118600567,0.004309403264304762,-0.005821138111091054,0.00883822406089501,0.990093241732862
2013-07-11,1,0.0031909581851772817,0.003657183328701643,-0.005821138111091054,0.010074688791043167,0.9889612359145838
2013-07-15,1,0.002940500047899235,0.0033367571394928713,-0.004583008342107449,0.010074688791043167,0.9893942266893369
2013-07-17,1,0.0032197081732090807,0.003621427402714334,-0.005821138111091054,0.010074688791043167,0.9888393985950211
2013-07-19,1,0.003469930380072113,0.0038719971554799547,-0.006425989025377834,0.008047638523070484,0.9887770316384814
2013-07-23,1,0.003503899851060677,0.003936099877893042,-0.007035334845694769,0.010394541188471919,0.9878326387268813
2013-07-25,1,0.0028740293154222315,0.003155687886089461,-0.007035334845694769,0.010394541188471919,0.9888148302432685
2013-07-29,1,0.002906426186785999,0.0032482565676816297,-0.0047181067697328796,0.013074517717550088,0.9894719481981782
2013-07-31,1,0.00329710196489638,0.0037389650944466392,-0.005471098137651327,0.01456041119080673,0.9889135581857791
2013-08-02,1,0.005136609812869236,0.005836355462933007,-0.006425989025377834,0.013074517717550088,0.9895318777938564
2013-08-06,1,0.005071963159362572,0.005784596117344229,-0.005670653769061816,0.013535890053853484,0.9896985369402623
2013-08-08,1,0.005673347904102789,0.006417483160184835,-0.005670653769061816,0.009750193538422307,0.9904247664439085
2013-08-12,1,0.0051464711923412355,0.005765417061465456,-0.005670653769061816,0.01211060675699253,0.9904733361511829
2013-08-14,1,0.004393321195564527,0.004883384629434948,-0.0019922446963493933,0.012793732130015544,0.9908809420755041
2013-08-16,1,0.004369352818271629,0.004898373114310206,-0.004188749271197296,0.012793732130015544,0.99054467098672
2013-08-20,1,0.003890819514491859,0.00433706175164567,-0.0016487212137887184,0.013535890053853484,0.9906483928146514
2013-08-22,1,0.003861428565842662,0.004311540585035579,-0.004188749271197296,0.01226439753576033,0.9911213763280884
2013-08-26,1,0.003112801480440054,0.0033486558788594504,-0.004188749271197296,0.01226439753576033,0.9906209813149404
2013-08-28,1,0.003805988157093955,0.004180433670871361,-0.003915343988736,0.01189488479351906,0.9915390106387673
2013-08-30,1,0.00336601417590538,0.003696637215832372,-0.0046368515074377385,0.01189488479351906,0.9914534965550438
2013-09-04,1,0.003185456014578022,0.003413135433763231,-0.0046368515074377385,0.01189488479351906,0.9913847737798838
2013-09-06,1,0.0027474546434487048,0.002870712432893557,-0.0046368515074377385,0.013010565011399678,0.990609590377553
2013-09-10,1,0.0022210412133332556,0.002247394460851488,-0.007908842991680853,0.012971287912677943,0.9901439962332371
2013-09-12,1,0.0028914659948482023,0.0029593209877666303,-0.007908842991680853,0.012971287912677943,0.9901437411610932
2013-09-16,1,0.002564103890910824,0.002637312255302777,-0.006603444009806222,0.01641836329361652,0.989671033655243
2013-09-18,1,0.0034757999823310714,0.0036345666294218125,-0.006603444009806222,0.013728188506761557,0.9900999329142859
2013-09-20,1,0.002823039891893154,0.0029165766421849677,-0.005207886944456534,0.013983287924431499,0.9904307919061558
2013-09-24,1,0.0028427371921139325,0.0029049524292397736,-0.005207886944456534,0.012976026358613278,0.9912761343544794
2013-09-26,1,0.0030035518025915107,0.0032050920836987707,-0.006490774078980594,0.013983287924431499,0.9891325427493377
2013-09-30,1,0.002968719672353285,0.003249440891510659,-0.00509297213187427,0.013983287924431499,0.9894662830177123
2013-10-02,1,0.0028130016502454927,0.0030406714052696178,-0.005675339250467582,0.013568783002327212,0.9882405456515809
2013-10-04,1,0.003407752862980881,0.0037324299959025217,-0.0064967718193821985,0.012976026358613278,0.9885279521738474
2013-10-08,1,0.002116234624625979,0.0022089776741100685,-0.005675339250467582,0.013568783002327212,0.9872455818938938
2013-10-10,1,0.0027528797476835923,0.0029550708934859772,-0.012325092354979549,0.012976026358613278,0.9858592406659049
2013-10-14,1,0.00302812227465738,0.003254203983736703,-0.012325092354979549,0.011531778702664313,0.9869348204144699
2013-10-16,1,0.0027016274703812355,0.0028760623815930774,-0.017977193169890462,0.011616811841887627,0.9859633146714369
2013-10-18,1,0.003051223611061525,0.0032747781492519666,-0.017977193169890462,0.010328497151962815,0.9863814942379346
2013-10-22,1,0.002357270244809893,0.0024121252047031804,-0.017977193169890462,0.010328497151962815,0.9852575070621783
2013-10-24,1,0.0016412778268541175,0.0016471321882702038,-0.016814157373233673,0.010328497151962815,0.9869771508618481
2013-10-28,1,0.001372444335331419,0.0014242252179529262,-0.016814157373233673,0.006240575790800174,0.9873417729489403
2013-10-30,1,0.0005169023353020093,0.0006720237618371961,-0.0164504041298448,0.003678671590606558,0.9885968023535233
2013-11-01,1,0.0002094049485353006,0.0004402374996643766,-0.0164504041298448,0.003389905719487829,0.9889113139281406
2013-11-05,1,0.0002616884252606813,0.000463977217563216,-0.01053691395639007,0.0034221217637311913,0.9905183774037528
2013-11-07,-1,-0.001949371606601833,-0.0015264807070841891,-0.009061840626054122,0.0034221217637311913,0.9908529814742064
2013-11-11,-1,-0.002885515913993419,-0.00225797303134306,-0.010821166551141584,0.00557059303189723,0.9903311062761561
2013-11-13,-1,-0.00421306508371656,-0.0033700412708032924,-0.010821166551141584,0.00557059303189723,0.9907718620261619
2013-11-15,-1,-0.003324404998785237,-0.002638923693235335,-0.010821166551141584,0.004636127938794827,0.9908287366192512
2013-11-19,-1,-0.0041674059226333975,-0.0033544156411705194,-0.009061840626054122,0.00557059303189723,0.9904473059439994
2013-11-21,-1,-0.003105401547574397,-0.002479737402837974,-0.009061840626054122,0.00804163434011386,0.9892867610877405
2013-11-25,-1,-0.0029353292871431022,-0.002355171115621108,-0.009061840626054122,0.00804163434011386,0.9893793789038108
2013-11-27,-1,-0.0034569333445281167,-0.0028303741312876033,-0.006153539260661799,0.00804163434011386,0.9894663460247664
2013-12-02,-1,-0.0029128025291504916,-0.002314647544613337,-0.006623222591083585,0.00804163434011386,0.9894150753123101
2013-12-04,-1,-0.002573169306325681,-0.002012067494431272,-0.010528146562258782,0.006938301090528724,0.9896800148259777
2013-12-06,-1,-0.003991528179896751,-0.0032893310393851388,-0.003796244493227378,0.008908666932853655,0.9900230736659107
2013-12-10,-1,-0.0038053577585329475,-0.0031581555403019574,-0.002911045420397655,0.008448471922073438,0.9906022184889435
2013-12-12,-1,-0.004097027469149388,-0.003413337486941285,-0.002911045420397655,0.005092030625005324,0.9911227747478596
2013-12-16,-1,-0.004086609728303268,-0.003385142142151424,-0.002911045420397655,0.01150909130936863,0.9895125683565722
2013-12-18,-1,-0.004078858512644395,-0.0033420243633094787,-0.003796244493227378,0.007698395990352878,0.9903846683307432
2013-12-20,-1,-0.0026151376329252834,-0.0020549478783901012,-0.003796244493227378,0.004559843133925106,0.9920570949795733
2013-12-24,-1,-0.001704933099902807,-0.001335719876743969,-0.007701430754220959,0.0038921782571379876,0.9910290149542978
2013-12-27,-1,-0.001608570839971419,-0.0012475862515957375,-0.01173737906829239,0.00480567149388888,0.9888803334051482
2013-12-31,-1,-0.0012390606517522305,-0.0009802536391832722,-0.014979584484127948,0.009351342252777851,0.9882993735915687
2014-01-03,-1,-0.0020349190990946,-0.001684107957614548,-0.014979584484127948,0.009351342252777851,0.9879771024609622
2014-01-07,-1,-0.001875066146724036,-0.0015148082351131118,-0.014979584484127948,0.009351342252777851,0.98662253714013
2014-01-09,-1,-0.002120261582280675,-0.001713717156501474,-0.014979584484127948,0.015725056746251433,0.9840878778455017
2014-01-13,-1,-0.0031805162814682506,-0.002637657468317334,-0.013485827343110136,0.015725056746251433,0.9841996292113937
2014-01-15,-1,-0.0016852879016150118,-0.001310168410342067,-0.013485827343110136,0.010420057346458709,0.9860780541591659
2014-01-17,-1,-0.0017197799726594244,-0.0013702221067777927,-0.013485827343110136,0.015217025811548695,0.9849326657400881
2014-01-22,-1,-0.0008255126464293398,-0.0006057439262222627,-0.013485827343110136,0.010923347082678413,0.9852910203574595
2014-01-24,-1,-0.0027359827073200884,-0.00226084724204701,-0.007668286289291565,0.014294057588553651,0.9855607979072019
2014-01-28,-1,-0.0018337172617622268,-0.0015045201421110166,-0.006035058153689528,0.014294057588553651,0.9864076045784116
2014-01-30,-1,-0.0019647680727774746,-0.001632705909480192,-0.005490808342826367,0.014294057588553651,0.9865944182872979
2014-02-03,-1,-0.0027957854475272707,-0.002386808594643586,0.001370307727743813,0.014294057588553651,0.9865139321634369
2014-02-05,-1,-0.0007246333134894607,-0.0006094086059345977,0.001370307727743813,0.013316440069797781,0.9895053895890095
2014-02-07,1,0.0009643894389392373,0.0010267534939087382,-0.004832056849311645,0.010799287016287554,0.9922066818597258
2014-02-11,1,0.0012455935460001135,0.0014203630227084553,-0.004832056849311645,0.010799287016287554,0.9920009392961349
2014-02-13,1,0.0010299647936883975,0.0011375297923151748,-0.0056621303961280406,0.012309373937505539,0.9906104374902982
2014-02-18,1,0.002239253330508959,0.0025456795751516376,-0.0056621303961280406,0.010799287016287554,0.9912400877263096
2014-02-20,1,0.002210132556590831,0.002510392394551541,-0.005680934166670952,0.012309373937505539,0.9906880123981656
2014-02-24,1,0.0019216643446694486,0.002145116158380363,-0.005680934166670952,0.010799287016287554,0.9909715961624852
2014-02-26,1,0.0033579141919643602,0.0038076119143021954,-0.005680934166670952,0.010328740157366676,0.992092720663612
2014-02-28,1,0.004119152955186056,0.004694060275648506,-0.005680934166670952,0.010328740157366676,0.9915754278411105
2014-03-04,1,0.00410318720193699,0.004631328466747512,-0.005680934166670952,0.009420641723784163,0.9914831988582731
2014-03-06,1,0.004282344855921808,0.004873508891492641,-0.005257674925046409,0.010328740157366676,0.9913761579965803
2014-03-10,1,0.004616084198401182,0.005329485985719747,-0.008648606508870008,0.010328740157366676,0.9906223469301831
2014-03-12,1,0.004006272466106037,0.004655410906121822,-0.005920265052409409,0.010328740157366676,0.9917602731101298
2014-03-14,1,0.0043713083441387635,0.005088336113995446,-0.005888272492554302,0.009420641723784163,0.9925693097760901
2014-03-18,1,0.005147782959750729,0.005983438587409358,-0.005888272492554302,0.010668880399608676,0.9923013563991597
2014-03-20,1,0.004955944924390658,0.005718378949305538,-0.0019970876360077125,0.010668880399608676,0.9926720278760919
2014-03-24,1,0.004877735032554578,0.005640824863369014,-0.0019970876360077125,0.010782463696787889,0.9924426183120351
2014-03-26,1,0.005031359888875285,0.00578457497158109,-0.005888272492554302,0.011999652881108434,0.9907502960006499
2014-03-28,1,0.005734532446795247,0.006558377171581784,-0.009031169765789947,0.010782463696787889,0.9882588882500855
2014-04-01,1,0.005915479308990391,0.006770377982435213,-0.010294838441963477,0.011999652881108434,0.9873564786019937
2014-04-03,1,0.005302075906364906,0.005963162413391019,-0.010294838441963477,0.010782463696787889,0.9870590885827011
2014-04-07,1,0.0043318174358382465,0.004852904537831957,-0.009208429289218207,0.013677560566918146,0.9862238251712352
2014-04-09,1,0.004054676487849338,0.004509039713952787,-0.010294838441963477,0.013677560566918146,0.9844973197105262
2014-04-11,1,0.003957019373246006,0.004417607246486734,-0.010294838441963477,0.013677560566918146,0.9846658812373057
2014-04-15,1,0.004270153852139226,0.004718114420461935,-0.01163962126156699,0.014382628999040359,0.9841664214310483
2014-04-17,1,0.004723008506328669,0.005240687976293236,-0.01163962126156699,0.013663285817566172,0.9838014044510995
2014-04-22,1,0.0044586651796321005,0.004930324684867243,-0.01139237612656425,0.013663285817566172,0.9841225584699018
2014-04-24,1,0.0042881805228570675,0.004691112931457806,-0.010212423396962564,0.013663285817566172,0.9848609919596849
2014-04-28,1,0.0019452401671766766,0.0020098065997269775,-0.005701136200705955,0.013663285817566172,0.9876458869516743
2014-04-30,1,0.001983481634791817,0.002073250695662087,-0.004157973610647977,0.013490063151787695,0.9885255989284971
2014-05-02,1,0.00036456534963738444,0.000565408391278385,-0.004157973610647977,0.013490063151787695,0.9883058989062293
2014-05-06,1,0.00266168431361204,0.002717466739512202,-0.004157973610647977,0.011431923690639905,0.9907240305195374
2014-05-08,1,0.0014566753265144827,0.0015725850551077723,-0.003979320661403196,0.013194446952527373,0.991534500852119
2014-05-12,1,0.002106526150051492,0.002140211077560294,-0.004157973610647977,0.012400012994586134,0.9917715207523631
2014-05-14,1,0.002230357497620482,0.0022357536402936046,-0.003979320661403196,0.012400012994586134,0.9919632041243623
2014-05-16,1,0.002263285800280913,0.0023428023528816178,-0.0030316485529423604,0.013387671752896858,0.9918429865391896
2014-05-20,1,0.0017665889551083441,0.001767790302416705,-0.0030316485529423604,0.013387671752896858,0.9910070492187834
2014-05-22,1,0.002319594982557825,0.0023928740285745127,-0.0006139401183715553,0.014148238907340936,0.9908065106878842
2014-05-27,1,0.002279254601658213,0.002318806774948659,-0.004185187862512783,0.014148238907340936,0.9887519670523716
2014-05-29,1,0.0022777069856505924,0.002294641994917151,-0.004916370751888299,0.015411034897725988,0.987868710854504
2014-06-02,1,0.00176483839277383,0.0018257164105058448,-0.0032470274719301117,0.015411034897725988,0.9882250195898735
2014-06-04,1,0.0018518004839582552,0.0019117365709538975,-0.0032670311963445445,0.015411034897725988,0.9885209665684817
2014-06-06,1,0.0021233326534797936,0.002206494335088815,-0.004916370751888299,0.012297408193726352,0.989049942692327
2014-06-10,1,0.0025158944039561015,0.0025602321467491033,-0.0032670311963445445,0.012297408193726352,0.9894204370646965
2014-06-12,1,0.00300706487205108,0.00308932409739115,-0.006062778849138046,0.009162024509355951,0.9889798399815902
2014-06-16,1,0.0037944261095115154,0.004004879031798069,-0.009401252655137762,0.009162024509355951,0.9881476498642959
2014-06-18,1,0.0024688306785972934,0.0025195581383425725,-0.009401252655137762,0.011091427792975669,0.9872135293494643
2014-06-20,1,0.0038758046473040095,0.004002462517827467,-0.009401252655137762,0.004605597246916234,0.9884212452731471
2014-06-24,1,0.0015463821939964602,0.0017376142676401823,-0.006062778849138046,0.004605597246916234,0.9906962898930521
2014-06-26,1,0.0013220299262355689,0.0016121808332720461,-0.009401252655137762,0.004298892160176599,0.9916160322579601
2014-06-30,1,0.002342975228378849,0.002456787538311895,-0.011515448181445103,0.004298892160176599,0.9908674656719793
2014-07-02,1,0.0029657130113542184,0.0030343119807964575,-0.01202060904240368,0.004298892160176599,0.9888661902934808
2014-07-07,1,0.002167600717245009,0.0022326662668197762,-0.01253881204160448,0.004430630437395175,0.9874156671756037
2014-07-09,1,0.0022228827655477986,0.002290413403495494,-0.013359089068792844,0.0036430192738583778,0.9850425036802221
2014-07-11,1,0.0013679977099218736,0.0014899657087067567,-0.012903436248060762,0.005054487032128277,0.9856311731228411
2014-07-15,1,0.0009663228151218766,0.0011461652924668851,-0.012903436248060762,0.004386598039273868,0.9865930571043096
2014-07-17,1,0.001469487314068632,0.0015927367746670122,-0.013310837955259228,0.0036430192738583778,0.9872729297176503
2014-07-21,1,0.0022520621771246964,0.002275965505658735,-0.013310837955259228,0.003789047422796,0.9858473298079327
2014-07-23,1,0.002244205826762917,0.0022955126816645755,-0.013310837955259228,0.005492571478941144,0.9856458598874286
2014-07-25,1,0.001850361410490238,0.0018664325174902986,-0.013310837955259228,0.005492571478941144,0.9857638802380884
2014-07-29,1,0.001304494911081781,0.0013670740280647261,-0.013310837955259228,0.013938501047289437,0.985617920113601
2014-07-31,-1,-0.001120518209277358,-0.0007453769694187532,-0.009635310899659333,0.013938501047289437,0.9878148980896706
2014-08-04,-1,-0.0009111950716787953,-0.0005130723174961011,-0.01015373753686831,0.013581177136201498,0.9884793643484581
2014-08-06,-1,-0.00304544769604284,-0.002405600081757799,-0.007561647160324517,0.013581177136201498,0.9893352753781023
2014-08-08,-1,-0.0023486758606284415,-0.0018182347465048978,-0.01015373753686831,0.0074681112354967796,0.9883822730331104
2014-08-12,-1,-0.002771723885710088,-0.002203645120831428,-0.007561647160324517,0.008563654364238692,0.9887827896286886
2014-08-14,-1,-0.004147886698120899,-0.0034058434256336273,-0.007561647160324517,0.011101303620006041,0.9881683221678391
2014-08-18,-1,-0.0033521445330193644,-0.002724530751797246,-0.007561647160324517,0.011101303620006041,0.9874607572773922
2014-08-20,-1,-0.002081097108862563,-0.0016509800875033286,-0.007561647160324517,0.007755414173062426,0.9887978773798369
2014-08-22,-1,-0.0025394116875828198,-0.002058468926909386,-0.009636748282752124,0.007755414173062426,0.9877581641659141
2014-08-26,-1,-0.0009467624566005901,-0.0006850015755170464,-0.01085540721247135,0.006094763119333085,0.9882966816207648
2014-08-28,-1,-0.0021672618690727254,-0.0017035746665600322,-0.017019273699847598,0.007755414173062426,0.9870881789039766
2014-09-02,-1,-0.00229943995521648,-0.0018382658270343984,-0.017019273699847598,0.006094763119333085,0.9873346279758746
2014-09-04,-1,-0.003775449563083691,-0.0031294573339940854,-0.017019273699847598,0.006094763119333085,0.9874116505871706
2014-09-08,-1,-0.004540010963400549,-0.003853422292742219,-0.01571511612694242,0.006094763119333085,0.988727747080044
2014-09-10,-1,-0.0039669319242851475,-0.003373958277114235,-0.01589395564830785,0.006904494282986798,0.9881264620114989
2014-09-12,-1,-0.004307396563953117,-0.0036717833422454616,-0.01854897352354887,0.0030820125078356206,0.9873888374663383
2014-09-16,-1,-0.002236142012654556,-0.001871217549821172,-0.022226613913276693,0.0001651845645656404,0.9857826940289734
2014-09-18,-1,-0.003691213263968297,-0.0030503059771599355,-0.022226613913276693,0.004163332994313852,0.981864991273046
2014-09-22,-1,-0.005519725565257689,-0.004643050801393631,-0.01854897352354887,0.010834276899459852,0.9820474888746159
2014-09-24,-1,-0.005663659246703524,-0.004747475572995617,-0.022226613913276693,0.01139770249290208,0.9794222387727315
2014-09-26,-1,-0.003914259118810791,-0.003347744923982491,-0.022226613913276693,0.011222729434336266,0.9794672458350123
2014-09-30,-1,-0.005558171368722966,-0.00476358103646616,-0.022226613913276693,0.015054731000624228,0.9773328457389353
2014-10-02,-1,-0.005939114114221499,-0.0051395534609679615,-0.01746367220689014,0.017115248762437144,0.9771319410203907
2014-10-06,-1,-0.006706415520756419,-0.005825312673094416,-0.019441289906827124,0.021032509698371955,0.9752634469565887
2014-10-08,-1,-0.006729478810920369,-0.005828377853393037,-0.024245599726885784,0.031694809801514276,0.9718915968963073
2014-10-10,-1,-0.008165628870674149,-0.00709841755310838,-0.01498924189856021,0.031694809801514276,0.9710672541378945
2014-10-14,-1,-0.010164006761080795,-0.008901833501512083,-0.01139028593799438,0.031694809801514276,0.9732149119556042
2014-10-16,-1,-0.006436935381808966,-0.005633683661319302,-0.014820913080530494,0.02082682154979464,0.9779301815188647
2014-10-20,-1,-0.005163933695919021,-0.004548073863382956,-0.017695995149157477,0.025541346578283323,0.9771646311292042
2014-10-22,-1,-0.005556979209743441,-0.004876748213470659,-0.014820913080530494,0.019385685975812673,0.9793755209306004
2014-10-24,-1,-0.005222755352472153,-0.004602992847145871,-0.013419909808652085,0.023372161805994093,0.9786041157651212
2014-10-28,-1,-0.004463844284406715,-0.00398800376665767,-0.017695995149157477,0.01914300290971025,0.9802688977740703
2014-10-30,-1,-0.004387964508080526,-0.003918641785736064,-0.019186293910679147,0.01605740639277402,0.9769307871985318
2014-11-03,-1,-0.0028244817292917756,-0.002586326590069853,-0.019186293910679147,0.01605740639277402,0.9769282715361745
2014-11-05,-1,-0.0009995113277127857,-0.0009775780420924608,-0.01775558349035229,0.014427860487719019,0.9801146208478011
2014-11-07,1,0.00020914395495568567,0.00038838938375361216,-0.022118765150753415,0.013228908545983095,0.9795837588233145
2014-11-11,1,0.0007572701909417009,0.0010896136579926824,-0.024763222338999316,0.013228908545983095,0.9784977216634994
2014-11-13,-1,-0.0007614612383684804,-0.0007111318500224985,-0.024763222338999316,0.013228908545983095,0.9793930012211699
2014-11-17,0,-7.505138254512407e-05,0.00011395671527051916,-0.024763222338999316,0.011734358625549633,0.9809324244043228
2014-11-19,1,0.0009679905874223126,0.0013327337564983906,-0.024763222338999316,0.013397262470260692,0.978206758424022
2014-11-21,1,0.0021099593950605414,0.002616894161351934,-0.024763222338999316,0.013397262470260692,0.97829846184898
2014-11-25,1,0.0005570074032503276,0.00085486444025233,-0.02426485976741924,0.014244582272568267,0.9790291735188857
2014-11-28,-1,-0.002605620447823931,-0.0025182261315129907,-0.00721230559882103,0.014244582272568267,0.9827653290146032
2014-12-02,-1,-0.0013977472777375404,-0.0013760136879874259,-0.013264086661555421,0.013354301680835049,0.9841813554826614
2014-12-04,-1,-0.00027278819393320716,-9.554273883147647e-05,-0.01900824756936129,0.006798367276423366,0.9828258234498783
2014-12-08,-1,-0.001414657397726839,-0.0013442848664445748,-0.013264086661555421,0.006798367276423366,0.9836228199853422
2014-12-10,-1,-0.0015819150984654408,-0.0015140266367029253,-0.008078443048467223,0.008557327413176745,0.9831060429534492
2014-12-12,-1,-0.001474204603529497,-0.0013903763537453668,-0.013264086661555421,0.008557327413176745,0.9814950002591499
2014-12-16,-1,-0.0017378318051335007,-0.0016910727666860333,-0.014663004954842691,0.014244582272568267,0.9799176908949614
2014-12-18,1,0.0009827188440650443,0.0013860837645722074,-0.014663004954842691,0.008557327413176745,0.9814466142594558
2014-12-22,1,0.0012903640842156598,0.00165434840116736,-0.014663004954842691,0.008393239795862834,0.9819698438682284
2014-12-24,1,0.0014480564164730926,0.0018804608817127129,-0.01158628215510966,0.008393239795862834,0.9829670701647724
2014-12-29,1,0.0008562542427049928,0.0011230341952595023,-0.014663004954842691,0.008828737516751579,0.9803744614812161
2014-12-31,1,0.0003806684901277159,0.0006073858036447179,-0.01158628215510966,0.010281935250782623,0.9810954120394825
2015-01-05,-1,-0.001520043190074025,-0.0014885009819162656,-0.007433197292762548,0.02059846679150062,0.9796042355398538
2015-01-07,-1,-0.002976931927256919,-0.002733660374949642,-0.004203922302079751,0.02059846679150062,0.9795429328422015
2015-01-09,-1,-0.0009675857667831692,-0.0009446122253277288,-0.005831705250410725,0.014399510865872734,0.9822479211330717
2015-01-13,-1,-0.0013336222384597793,-0.001318610610116394,-0.008106259810772377,0.014399510865872734,0.9828167754944542
2015-01-15,-1,-0.0007731449434462392,-0.000696951057561087,-0.004916637038986902,0.01701353482255942,0.9831665654317804
2015-01-20,1,0.0008270116858977258,0.0011723380172953333,-0.005125286911131728,0.014399510865872734,0.9855423669075641
2015-01-22,1,0.0011605926062353395,0.0015376837636111268,-0.011779110432558613,0.012119536287716264,0.984079448718092
2015-01-26,1,0.0018728949867918468,0.0023418685027225203,-0.011779110432558613,0.009625654760299232,0.9843036412533501
2015-01-28,1,0.00015140978915383736,0.0003430009566287379,-0.011779110432558613,0.011754096462753737,0.9849308351152565
2015-01-30,1,9.545838927496944e-05,0.0002282959769914684,-0.011779110432558613,0.011754096462753737,0.9848006994366125
2015-02-03,1,0.0026384849952931985,0.003120481990935568,-0.011779110432558613,0.009625654760299232,0.9872631679084298
2015-02-05,1,0.0025228387461399826,0.0029783850153969416,-0.01159618417420022,0.0035858188061812383,0.987052077867429
2015-02-09,1,0.003072000284828408,0.0036699329118059887,-0.013132682809935693,0.0033289746781102435,0.9856108003684869
2015-02-11,1,0.0022413196387234043,0.0027275044066532497,-0.01159618417420022,0.005465728725667802,0.9869895698545473
2015-02-13,1,0.0029659884754319413,0.0034937508816657104,-0.01159618417420022,0.002040071572053003,0.9866899362464885
2015-02-18,1,0.0025505652715954886,0.0030311821877564487,-0.011667422459521262,0.005465728725667802,0.9852189690439535
2015-02-20,1,0.0012380285696532208,0.0015431440474497067,-0.010305691159657305,0.010210546955639286,0.9867836377597509
2015-02-24,1,0.0010272740530741463,0.0012563365166485209,-0.011654922960033218,0.0063438376374675655,0.9863260646102637
2015-02-26,1,0.0002707816147648584,0.00036461305487432466,-0.010305691159657305,0.012666442359754103,0.9874381938728105
2015-03-02,-1,-0.00038687712494615974,-0.00036158803875107487,-0.010305691159657305,0.013310966137073943,0.9868065899922901
2015-03-04,1,2.9435576239680374e-05,4.6459605924202025e-05,-0.010305691159657305,0.012666442359754103,0.9870476917071892
2015-03-06,-1,-0.0016306322738786087,-0.0013729000577116005,-0.009624038369097974,0.01575539540089399,0.9864368370312782
2015-03-10,-1,-0.0038762586153006672,-0.003250039700718207,-0.006932531289008657,0.01575539540089399,0.9874332698910133
2015-03-12,-1,-0.0022334813982308275,-0.0019370332901956291,-0.005425612866348439,0.016612339499189298,0.9865355609623576
2015-03-16,-1,-0.001109410181310162,-0.0009691162462926342,-0.006932531289008657,0.016612339499189298,0.9862304063119636
2015-03-18,-1,-0.00020687461692752164,-0.00016439874709485916,-0.005425612866348439,0.01575539540089399,0.988160999583706
2015-03-20,-1,-0.000185678983556317,-0.00014644889968269876,-0.005425612866348439,0.01575539540089399,0.9887575899440674
2015-03-24,-1,-0.0008875953773891808,-0.0007591676384666468,-0.005425612866348439,0.01575539540089399,0.9885129594414533
2015-03-26,1,8.359715302750471e-05,8.759202379999303e-05,-0.006707658247007678,0.01574639395053975,0.988941677708662
2015-03-30,1,0.0004763440368341688,0.0005437942130494627,-0.005425612866348439,0.012506531563584979,0.9894610378358732
2015-04-01,1,0.0007572228064502434,0.000920254169923474,-0.006707658247007678,0.013637764987370397,0.9890876001137958
2015-04-06,1,0.0024885238398192023,0.0029439257831321,-0.006707658247007678,0.01134666393133364,0.9910160814215833
2015-04-08,1,0.002090922951405099,0.002478371206437683,-0.007872982175037492,0.01134666393133364,0.9889154030952669
2015-04-10,1,0.00241002842310334,0.0027875102496462832,-0.008881933525179811,0.007787339036313404,0.9889767650782828
2015-04-14,1,0.0024990055312518614,0.0028989570805762928,-0.008881933525179811,0.007787339036313404,0.9889150198177087
2015-04-16,1,0.0032841576597141516,0.0038242025546617485,-0.012767650223307716,0.006029895627657703,0.98796618472645
2015-04-20,1,0.0037880010594450965,0.004458289247646407,-0.012767650223307716,0.007787339036313404,0.987759055488296
2015-04-22,1,0.0029525815319158552,0.0034210451308032816,-0.01598401949662831,0.006029895627657703,0.98785399027567
2015-04-24,1,0.0009369200869191336,0.0009451332772353666,-0.014237435431681315,0.007787339036313404,0.9877838310194517
2015-04-28,1,0.0019420975364873104,0.0021548247899760642,-0.014237435431681315,0.005143827768844035,0.9875632854768287
2015-04-30,1,0.0024864101430370784,0.00281980457170086,-0.014237435431681315,0.002900459778383229,0.9879648743409364
2015-05-04,1,0.0016752474169818847,0.0018060714259271328,-0.014237435431681315,0.0030898097291322396,0.9880414525860446
2015-05-06,1,1.2878717675433372e-05,0.00012209063159784292,-0.014237435431681315,0.0018180045769701579,0.9898111610644713
2015-05-08,-1,-0.0007540676637393189,-0.0005426854501344426,-0.012584371072694353,0.004506574670772229,0.9892250530245283
2015-05-12,-1,-0.001068304539042407,-0.0008026438861736593,-0.010197775786800213,0.004506574670772229,0.9904586141139775
2015-05-14,-1,-0.00045295018756233646,-0.0003872032775540142,-0.009423967532505104,0.004835646751914519,0.9909453168586857
2015-05-18,1,0.0003814032478966404,0.0004661724644342171,-0.009423967532505104,0.004400687675639142,0.9911103084095969
2015-05-20,-1,-0.00015925261450142883,-0.0001567508794368475,-0.009291358153804077,0.004400687675639142,0.9913798505048569
2015-05-22,-1,-0.00015632006659971033,-0.00015289281447861808,-0.006883451360921556,0.0019276952706842548,0.9922110723657946
2015-05-27,-1,-0.0010425373056264075,-0.0009054956486517307,-0.006149287315514106,0.004006123206866011,0.9923940238281385
2015-05-29,-1,-0.0022366597403796415,-0.0018715355751916525,-0.006719614799575594,0.005523448328196103,0.9923395619973314
2015-06-02,-1,-0.0025673055162196024,-0.002108761826407954,-0.007974509423189488,0.005523448328196103,0.9914731500545082
2015-06-04,-1,-0.0026533253846350124,-0.0022506150321941797,-0.006719614799575594,0.005523448328196103,0.9915797882460847
2015-06-08,-1,-0.002670059972915551,-0.0022172098106952275,-0.007030307792774426,0.005523448328196103,0.9919383311945874
2015-06-10,-1,-0.0017041000962521283,-0.0014015748031392236,-0.00879984846976619,0.005523448328196103,0.9909408194406004
2015-06-12,-1,-0.0014656297662991188,-0.0012363724236850236,-0.008085443418481279,0.005523448328196103,0.9910994388913287
2015-06-16,-1,-0.0010678711935566626,-0.0009019718330628796,-0.00962416013967945,0.005523448328196103,0.9898471509909401
2015-06-18,-1,-0.0011038649078791206,-0.0009658082898439124,-0.012740471856875107,0.005523448328196103,0.9889177585289028
2015-06-22,-1,-0.002195089901643835,-0.0018623881894569065,-0.02038701895224565,0.005523448328196103,0.9877846228171752
2015-06-24,-1,-0.00193721394242972,-0.0016494028302181255,-0.02038701895224565,0.003436497881395368,0.9874056245501021
2015-06-26,-1,-0.0005262229787363733,-0.0005235742507586234,-0.021180172973403712,-0.00011872318669737115,0.9854837964189521
2015-06-30,-1,-0.0006504979383369946,-0.0006405192680770177,-0.021013051467157914,0.004663834125335303,0.9842239104018838
2015-07-02,-1,-0.0013287944664308817,-0.001238914070610149,-0.018656073152686317,0.009762934300797763,0.9840945851036245
2015-07-07,-1,-0.0014165194076861953,-0.0012730482150558155,-0.018656073152686317,0.005340188831031297,0.9847324502286232
2015-07-09,-1,-0.0010908034595378422,-0.0010569803056938673,-0.016323601946899653,0.0055161281209601745,0.9848905254350826
2015-07-13,-1,-0.0015833488913914338,-0.0014604116198714259,-0.018656073152686317,0.010613312687859025,0.9814533609989361
2015-07-15,-1,-0.002849347252197319,-0.0025125019330050247,-0.016323601946899653,0.012061930464166013,0.980941093941413
2015-07-17,-1,-0.0037163035782513394,-0.0032909097024532547,-0.015408143274472458,0.012061930464166013,0.9819916598481077
2015-07-21,-1,-0.0052945446026460554,-0.004664406388447216,-0.011086990515149707,0.012061930464166013,0.9825878545505565
2015-07-23,-1,-0.005870393725380089,-0.005158234183549342,-0.011086990515149707,0.012061930464166013,0.981599669367112
2015-07-27,-1,-0.0072562645189696955,-0.006414886839876865,-0.011584381646840683,0.012061930464166013,0.9785041043837581
2015-07-29,-1,-0.00412099035167227,-0.0036190362115946593,-0.014043069801244184,0.01109424891234212,0.980026080436221
2015-07-31,-1,-0.004736620627376195,-0.004127810733284894,-0.01053584690363266,0.020265618847738563,0.9766940933822177
2015-08-04,-1,-0.004838194360660737,-0.004213569395063768,-0.015838702886025197,0.020265618847738563,0.9753153537559867
2015-08-06,-1,-0.0038081565016574548,-0.0033426498630170264,-0.015838702886025197,0.02059928504556449,0.9755930497270444
2015-08-10,-1,-0.0035097995444393166,-0.003124531134047796,-0.008671463790260833,0.01514239728996159,0.9788412502464234
2015-08-12,-1,-0.0021244852430684098,-0.0019050819473276231,-0.01029862722166006,0.013373363820113308,0.9802332014144931
2015-08-14,-1,-0.0023014034065782134,-0.002037442329647286,-0.01199187032461569,0.013373363820113308,0.9797556596387248
2015-08-18,-1,-0.0016217551303095825,-0.0014755372091186198,-0.01199187032461569,0.01603032463051735,0.9777430525443737
2015-08-20,-1,-0.0026759172659227056,-0.0024234619231222245,-0.01199187032461569,0.01603032463051735,0.9778804398833308
2015-08-24,-1,-0.005359397208513913,-0.004785650678741196,-0.009964405643853235,0.01603032463051735,0.9812510170245274
2015-08-26,-1,-0.003778948643664211,-0.003448625041221394,-0.009964405643853235,0.013373363820113308,0.9823522471513245
2015-08-28,-1,-0.001351618191289121,-0.0012995920534871674,-0.012990477410191933,0.010192963195047172,0.984205834363548
2015-09-01,-1,-0.0011978752503709858,-0.0011911773398958622,-0.009964405643853235,0.010243731655345027,0.9837533923370567
2015-09-03,-1,-0.0006186100652945832,-0.0005278636028646225,-0.009964405643853235,0.01075946446016211,0.9821142314556508
2015-09-08,0,-0.0001893003947010107,6.19845430810677e-06,-0.009964405643853235,0.01780505816796914,0.9794402005838831
2015-09-10,1,9.162253766865696e-05,0.0003307518351378996,-0.00991377582697652,0.029071238941719806,0.9782537189088297
2015-09-14,-1,-0.00031740976816816476,-0.00011992310533998692,-0.008448538583133991,0.029071238941719806,0.9782907503575928
2015-09-16,1,0.0009982022794129688,0.0013615835078534505,-0.010175313338962167,0.015208425094629753,0.980150088795967
2015-09-18,1,0.00013245554360173239,0.00042156839184168235,-0.006991114476322872,0.018679465635765415,0.9812358680488215
2015-09-22,1,3.633460189032638e-05,0.00032815419357165674,-0.006991114476322872,0.018679465635765415,0.9806687876610717
2015-09-24,-1,-0.0003912322660126762,-0.000139462825440833,-0.006991114476322872,0.024871689704326235,0.980241244548951
2015-09-28,-1,-0.0023709877240526704,-0.0023052438954736304,-0.005413761935849589,0.024871689704326235,0.9805371441972768
2015-09-30,-1,-0.0009721920853133965,-0.0008798212371443628,-0.008385274380737228,0.02440114238492945,0.9818879287430105
2015-10-02,1,0.0008394731118366496,0.0011747795615093108,-0.008385274380737228,0.017918593571604947,0.9847422191565468
2015-10-06,1,0.002559700983792151,0.0030746638327992003,-0.008385274380737228,0.012383478340949012,0.9872814638859567
2015-10-08,1,0.00421830978874062,0.004975793414279141,-0.009749221484058507,0.0065496434517252795,0.9877081603488729
2015-10-12,1,0.003666429689647712,0.00432548495360901,-0.009749221484058507,0.0065496434517252795,0.9878444653360605
2015-10-14,1,0.0036041264165098084,0.004253507188005783,-0.013101838222151408,0.010000488042738185,0.9860524685409708
2015-10-16,1,0.004047479206917141,0.004734742401437928,-0.015299047929000015,0.007293729445541319,0.9851753401468364
2015-10-20,1,0.003148283165820744,0.0037114780542603647,-0.015299047929000015,0.010000488042738185,0.9847442689236969
2015-10-22,1,0.003637495002835193,0.004285549353162898,-0.020009029885313168,0.010000488042738185,0.9837574811791095
2015-10-26,1,0.002424772833765426,0.002865755506572791,-0.015299047929000015,0.010000488042738185,0.9852570415908456
2015-10-28,1,0.0032032596966353284,0.003781106306704826,-0.019073302683777008,0.010000488042738185,0.9843602596245311
2015-10-30,1,0.00378935303746867,0.004470348564402565,-0.019073302683777008,0.014927933175209001,0.9827676062926067
2015-11-03,1,0.004488399501562837,0.00524514660667804,-0.020009029885313168,0.009116955895504998,0.9816103729630696
2015-11-05,1,0.003929008870758903,0.0046211798142304595,-0.019073302683777008,0.009116955895504998,0.982611135802948
2015-11-09,1,0.003411260946565582,0.004012973964479462,-0.020009029885313168,0.012599684812709283,0.9805617190816464
2015-11-11,1,0.0026576130414523967,0.0031469194988734436,-0.019073302683777008,0.013173771859377306,0.9822428289001796
2015-11-13,1,0.002412901222475679,0.0028782905788103164,-0.01951923536087903,0.016650194315213068,0.9802601015415525
2015-11-17,1,0.0027038894981357754,0.003205621499514306,-0.01903375716820837,0.013173771859377306,0.9815219219477138
2015-11-19,1,0.0025759407078726794,0.0030536297799839654,-0.020931594506542167,0.008592322132345622,0.9811104199046623
2015-11-23,1,0.002222767449133859,0.0026156489748178254,-0.020931594506542167,0.008592322132345622,0.9801365935577662
2015-11-25,1,0.0027645642537257632,0.0032507906335304095,-0.020931594506542167,0.008592322132345622,0.9795679639844294
2015-11-30,1,0.0024556675359078363,0.002870998542216525,-0.027379106695056644,0.007701515435727446,0.9790038839807229
2015-12-02,1,0.001347022715983479,0.0015920960681905794,-0.020931594506542167,0.006421500541883221,0.9809951910568325
2015-12-04,1,0.0010613780495227674,0.0012498434638074443,-0.020931594506542167,0.006971493805486726,0.980337710822059
2015-12-08,-1,-0.0007145819195617188,-0.0006227367137065913,-0.02604103511708371,0.005908057056019728,0.9805977381130709
2015-12-10,-1,-0.0010344232936257826,-0.0008436499451601699,-0.027780839875834303,0.00334309521126891,0.9802343637088655
2015-12-14,-1,-0.0018211851494339645,-0.0015175669158856517,-0.02604103511708371,0.00334309521126891,0.9822662026615928
2015-12-16,-1,-0.00305640625959793,-0.0025457431567287,-0.027780839875834303,0.003526426299136745,0.9813902518500939
2015-12-18,-1,-0.003675464981779513,-0.0031873519839091115,-0.027780839875834303,0.003526426299136745,0.9822733513596258
2015-12-22,-1,-0.004747055690456199,-0.0041211227919770495,-0.027780839875834303,0.01063041642228766,0.9783122893223134
2015-12-24,-1,-0.0029341300748839164,-0.002515867298562907,-0.029077317637159053,0.01063041642228766,0.9743063287007393
2015-12-29,-1,-0.003599430554844142,-0.0031240963663749267,-0.027780839875834303,0.017706269104280675,0.9745086345149744
2015-12-31,-1,-0.003917015198436709,-0.0033828985929590513,-0.027780839875834303,0.023605976614909478,0.9720419638949753
2016-01-05,-1,-0.0032026397169469933,-0.0028229499740041633,-0.02800976301643615,0.03502025760052408,0.9695662229216964
2016-01-07,-1,-0.005158941212768665,-0.004554829980867765,-0.027365205228287788,0.03502025760052408,0.9707410231680871
2016-01-11,-1,-0.00576679438732864,-0.005105611052338415,-0.027365205228287788,0.03502025760052408,0.9692272178992164
2016-01-13,-1,-0.006119921650810895,-0.005356284870422712,-0.027365205228287788,0.03502025760052408,0.9702435199247861
2016-01-15,-1,-0.009005202012592308,-0.007749883858738915,-0.02549310653591582,0.03502025760052408,0.9702115937261571
2016-01-20,-1,-0.009707606338341715,-0.008415124308174031,-0.02135586963016069,0.036392529594954856,0.9683426080398825
2016-01-22,-1,-0.004998367620153028,-0.004393760785620383,-0.02135586963016069,0.035084025203842704,0.9718252503763369
2016-01-26,-1,-0.0052172002357708785,-0.0045646076519077145,-0.02135586963016069,0.03318748834832113,0.9745910405954363
2016-01-28,-1,-0.00336791509025746,-0.002965945085192227,-0.02135586963016069,0.024699715650894828,0.9760376592503173
2016-02-01,-1,-0.0029864782107079826,-0.0026358119192742718,-0.02135586963016069,0.020835215546949927,0.9768121070853784
2016-02-03,-1,-0.002197969229210531,-0.0019511837614719263,-0.019443647028187634,0.024152309418330492,0.9769909339839836
2016-02-05,-1,-0.004173997474787111,-0.0036639886602817784,-0.014616902420763862,0.03155400314070049,0.974077741974324
2016-02-09,-1,-0.0038375390808956305,-0.003447679190242279,-0.014616902420763862,0.03155400314070049,0.9728424420977339
2016-02-11,-1,-0.004636815948652646,-0.004080500992680125,-0.014616902420763862,0.03287690740949556,0.9707125860579284
2016-02-16,-1,-0.0035314270597748996,-0.003084545444003514,-0.01491545953226077,0.031789063854948243,0.9723982422347915
2016-02-18,-1,-0.003167023688210609,-0.0027208698964209547,-0.014616902420763862,0.030637013479372362,0.9732881066522369
2016-02-22,-1,-0.0029157537736772716,-0.0024102170143426895,-0.014616902420763862,0.025682832614478995,0.9747858342588532
2016-02-24,-1,-0.00316798262758821,-0.0027134692629640985,-0.014616902420763862,0.025682832614478995,0.9775820946968975
2016-02-26,-1,-0.002887323118366216,-0.0025624945998048935,-0.006833584421554016,0.025682832614478995,0.9782972569849702
2016-03-01,-1,-0.00245506004337726,-0.0023045570044776514,-0.006833584421554016,0.025682832614478995,0.9787935107457538
2016-03-03,1,0.000580776997589528,0.0009112985297978556,-0.012194934813895227,0.019434103619523715,0.9816381759993661
2016-03-07,1,0.003171591259832458,0.003829178875445698,-0.014907955964179915,0.006358528729088219,0.984021810835746
2016-03-09,1,0.0020234290428178597,0.00252901116447307,-0.012194934813895227,0.00568251038863033,0.988225360823813
2016-03-11,1,0.0036491767242180563,0.004408931795821822,-0.012194934813895227,0.007922444520619545,0.9885225893223404
2016-03-15,1,0.002660209525182872,0.0032402965920155426,-0.008423205150860216,0.010315943154041196,0.9878175461621997
2016-03-17,1,0.004110235655740514,0.00490732807546849,-0.012194934813895227,0.00511001695764241,0.9873643925178146
2016-03-21,1,0.0035791473633909015,0.004260718386243055,-0.00924555504211451,0.010315943154041196,0.9865918941793258
2016-03-23,1,0.003249150867792808,0.003920659281236595,-0.003844387888828939,0.010315943154041196,0.9877439624985113
2016-03-28,1,0.0036134120260215385,0.004359218024112414,-0.009163833200239498,0.01471381848800558,0.9861631524979362
2016-03-30,1,0.003879936142828596,0.004723044160840647,-0.003844387888828939,0.02192580477339743,0.9854778902670476
2016-04-01,1,0.0029297176748179733,0.003607062930423065,-0.00037219039989474026,0.02192580477339743,0.9849005971319126
2016-04-05,1,0.0022376756519184244,0.0028060991581276623,-0.00037219039989474026,0.02192580477339743,0.9844977029481498
2016-04-07,1,0.002335974480028421,0.0028745859255426606,-0.005568142528801794,0.022387634271067547,0.9829473483670484
2016-04-11,1,0.0031986503876158924,0.0038264403507522636,-0.014751077768401953,0.02192580477339743,0.9826008951083979
2016-04-13,1,0.004883775844053494,0.005753397453887928,-0.014751077768401953,0.0211299263656692,0.9839873006536466
2016-04-15,1,0.004137646577254583,0.0049068515132656325,-0.014751077768401953,0.0211299263656692,0.9842976697192307
2016-04-19,1,0.005441223631108632,0.006380776490416423,-0.014751077768401953,0.015620213128652874,0.9846285321384388
2016-04-21,1,0.005712625564808459,0.006712874041589518,-0.014751077768401953,0.015620213128652874,0.9837237086964067
2016-04-25,1,0.0059090126422930754,0.0069326006619053184,-0.014665404404696679,0.011644596767699727,0.9851886501616504
2016-04-27,1,0.0071783140267491245,0.008314300009022791,-0.014665404404696679,0.01059357387195929,0.9867577560560434
2016-04-29,1,0.006406964576626019,0.007430909436206338,-0.010596611190975956,0.01059357387195929,0.9872813580486431
2016-05-03,1,0.0048880409278851,0.00563125799155772,-0.008999652798336649,0.01059357387195929,0.988151392465695
2016-05-05,1,0.005302048292314903,0.006123014549249144,-0.008999652798336649,0.008172312634048818,0.9888551896732426
2016-05-09,1,0.003931888627304404,0.004538344085203752,-0.007840669003748265,0.011644596767699727,0.988159828814065
2016-05-11,1,0.004350549791103945,0.004986619989275368,-0.008936960002323276,0.01059357387195929,0.9877581098943926
2016-05-13,1,0.0026932493961652083,0.003000651853188846,-0.008936960002323276,0.01059357387195929,0.9871699780164377
2016-05-17,1,0.003270776450153842,0.0036072265968554616,-0.008936960002323276,0.007986688919468691,0.9872513870098634
2016-05-19,1,0.003414023698749203,0.003857842447471463,-0.008936960002323276,0.00926366459979627,0.986735485357827
2016-05-23,1,0.0032870336774223343,0.0036503462209006706,-0.008936960002323276,0.016142683395759527,0.9850617507145617
2016-05-25,1,0.0037172675189282075,0.004122743732788732,-0.009200447877077477,0.012958081108630545,0.9844090333931672
2016-05-27,1,0.0028047965711899903,0.003066855901401904,-0.01112501261291374,0.012958081108630545,0.9820698882007493
2016-06-01,1,0.0011312811731882264,0.0012075324611822936,-0.01112501261291374,0.019846388887696763,0.9802769060460458
2016-06-03,0,-8.808371028182747e-05,0.00018089911533662793,-0.010710356504793688,0.019846388887696763,0.9803126191917475
2016-06-07,1,0.0020737891436258824,0.00208389219589332,-0.01752770430500903,0.017111193973602667,0.9820341339492497
2016-06-09,1,0.001126825966556767,0.001298702758928548,-0.01752770430500903,0.017111193973602667,0.9816546832616838
2016-06-13,-1,-0.0013803874976523625,-0.0008397194246328574,-0.014278755058011981,0.019819916962914654,0.9819458294065674
2016-06-15,1,0.0005778256432645879,0.0007377310076603199,-0.015308793727093508,0.017395492565602574,0.9822031131884428
2016-06-17,0,-0.0002065285176150308,5.746453706269956e-05,-0.014238966041715671,0.017395492565602574,0.9831455626544783
2016-06-21,1,0.001978229951399028,0.002025071527621182,-0.014718143830606111,0.010923093003527206,0.9843694504388074
2016-06-23,1,0.001778039156071928,0.0018028695447814215,-0.014055345748318642,0.009915957429011139,0.9848257069670493
2016-06-27,-1,-0.0005766822918186857,-0.00033992970321692934,-0.011054153077827427,0.012622512589834038,0.9864230156511106
2016-06-29,1,0.00043131380787002913,0.0006322182543386871,-0.011054153077827427,0.005626827088314861,0.9888089156433736
2016-07-01,1,0.00028366074826592235,0.000547697672505624,-0.014055345748318642,0.005626827088314861,0.9867792529970584
2016-07-06,-1,-0.0008849861026876745,-0.0004748806535950878,-0.011054153077827427,0.012326935255605067,0.9858538247748884
2016-07-08,-1,-0.0004917310185492094,-0.0001749312394283177,-0.008772848140955207,0.02182247274560332,0.9824943111987111
2016-07-12,1,0.0009260572023422123,0.0010379238691953251,-0.008772848140955207,0.016737373086892424,0.9835099488313982
2016-07-14,1,0.0013141448335420155,0.0013195806283362612,-0.008772848140955207,0.016737373086892424,0.9836392689747999
2016-07-18,-1,-0.00027531416703490265,-2.2852579010491968e-05,-0.007745192786762011,0.016737373086892424,0.9837483846707696
2016-07-20,-1,-0.0015812380105806997,-0.0011209139670545105,-0.007233064677181886,0.016737373086892424,0.9843482992723115
2016-07-22,-1,-0.003052163979474625,-0.0023544744308562453,-0.004183776928223908,0.01794948237740157,0.9836276263402911
2016-07-26,-1,-0.0021086794727523724,-0.0016266094632099415,-0.0040094603539781145,0.015524779601085803,0.9858193434296502
2016-07-28,-1,-0.0007192311201751148,-0.0005377235918719826,-0.005269515284875152,0.015524779601085803,0.9860714897802783
2016-08-01,-1,-0.0021730967062394404,-0.0017492095601435425,-0.0037176288711562207,0.01176421008767204,0.9881347831990455
2016-08-03,1,7.948026510051954e-05,0.0001824409961350473,-0.0055753092011233425,0.009760781247990605,0.9892570406368574
2016-08-05,1,0.0025952749651858217,0.002763402547985615,-0.0055753092011233425,0.004435553931278956,0.9927120242545735
2016-08-09,1,0.0031164296925676634,0.003420350717338972,-0.0056410155090597935,0.005453515415128446,0.9894294640509644
2016-08-11,1,0.0027444346646641714,0.002980613527411884,-0.0056410155090597935,0.005596754413490239,0.988548566262526
2016-08-15,1,0.002263451457390964,0.0023905982068022713,-0.0056410155090597935,0.0036877351627960463,0.9880273830143756
2016-08-17,1,0.0019935766650057995,0.002082042605323962,-0.007757439167871839,0.0057104712843689155,0.9860750906426742
2016-08-19,1,0.0020380695822149564,0.002111096326530041,-0.010519947075287731,0.0036877351627960463,0.986169664712762
2016-08-23,1,0.0012235045545742798,0.0012964421739811612,-0.010519947075287731,0.0057104712843689155,0.9851611758218238
2016-08-25,1,0.00019311265071987908,0.00042743081296992393,-0.013190615563608435,0.0057104712843689155,0.9839353660728085
2016-08-29,1,0.0004977284503017735,0.0006850549405603822,-0.013190615563608435,0.003931411006189421,0.9837333207498532
2016-08-31,0,-1.2488960572831515e-05,0.00019056279720305934,-0.009826173606240189,0.011642656194380872,0.981755032110193
2016-09-02,1,0.0009757265223851732,0.0009848417038751276,-0.009826173606240189,0.013192453277919548,0.9806649465711016
2016-09-07,1,0.0021332701006584907,0.0022247528486024383,-0.010097762116720423,0.013192453277919548,0.9824370185360223
2016-09-09,1,0.002085945979208644,0.002244861527006852,-0.009821026353145629,0.013066655126000486,0.9837697176335399
2016-09-13,1,0.0012519382242936635,0.0012961418088978812,-0.009821026353145629,0.013066655126000486,0.9843583418477381
2016-09-15,1,0.0014586618412827609,0.001538298688252849,-0.008663177377565801,0.00951049650025541,0.9862215647612511
2016-09-19,1,0.0019522794222704865,0.0021951764174510374,-0.008663177377565801,0.00951049650025541,0.9857914807377447
2016-09-21,1,0.002618436901359971,0.0029069588252813644,-0.008663177377565801,0.00951049650025541,0.985900363322364
2016-09-23,1,0.0009838109214443565,0.0010106696836343098,-0.007958583305362404,0.00951049650025541,0.9876921422014335
2016-09-27,1,0.0006325617758292969,0.0006438806971285696,-0.008753706881059212,0.00951049650025541,0.9878087455343989
2016-09-29,1,0.002125187219160815,0.002243210091155739,-0.008753706881059212,-0.0005327122128045217,0.9900251147128479
2016-10-03,1,0.00259801178597053,0.0028096883560467505,-0.010106324397468133,-0.0022428840852020456,0.9899582484616227
2016-10-05,1,0.0024852207938571625,0.0026371246108424576,-0.008767416414901481,-0.0022044860086288293,0.9911708372302739
2016-10-07,1,0.0026376014987581245,0.002866640747817565,-0.008767416414901481,-0.0005327122128045217,0.9910555412644513
2016-10-11,1,0.0020064842510510955,0.00211353221870677,-0.007633618779160132,8.878717642269319e-05,0.9915260284928212
2016-10-13,1,0.0019010420897223762,0.0020136898553371075,-0.007697415934386245,-0.00037446993643640004,0.9915320683603622
2016-10-17,1,0.0015721810955646384,0.001675843983801196,-0.007338997013378232,0.0026083596261435296,0.99145014864785
2016-10-19,1,0.0015569851765936992,0.0016198124350268175,-0.00643005246544915,0.007200946573241208,0.9916300137862173
2016-10-21,1,0.0008303934158918817,0.0008835577041921046,-0.00643005246544915,0.008331064838413654,0.99069337403159
2016-10-25,0,-5.433045733155544e-05,0.0001286367956823825,-0.004685728772378668,0.009712922467245508,0.9900385835466184
2016-10-27,1,0.0008087510643506215,0.0008431312158006393,-0.005279454956207377,0.01287515055723531,0.9890476190620058
2016-10-31,1,9.184293945387756e-05,0.00016534929856037013,-0.009050801958321822,0.01287515055723531,0.9879643716352531
2016-11-02,-1,-0.0006073684836524793,-0.0003840754116688094,-0.009050801958321822,0.017856708741636345,0.9825963672576425
2016-11-04,0,-0.0001483920397220155,1.1703581900376794e-06,-0.009860376202649327,0.017856708741636345,0.9825514717085723
2016-11-08,0,-0.000113845953767307,6.746009892847368e-05,-0.009860376202649327,0.01495979552912194,0.9830382542645503
2016-11-10,1,0.0004641447431942529,0.0005033147419440972,-0.009860376202649327,0.015404099914989144,0.9821100236822811
2016-11-14,1,0.00028669011452496355,0.00036074753316605213,-0.006778720018552566,0.018717400127044925,0.9821430217267572
2016-11-16,-1,-0.0004326107036318182,-0.00014108000759030894,-0.009860376202649327,0.015404099914989144,0.9817329331301469
2016-11-18,0,-8.237945727209605e-05,6.864348891207219e-05,-0.006778720018552566,0.015404099914989144,0.9832399162059756
2016-11-22,1,0.0009485705128501242,0.00095717824912048,-0.006845369043975541,0.013763452921521927,0.9840403665496287
2016-11-25,1,0.0005218895727725601,0.0006287726879833581,-0.006845369043975541,0.0085859962615565,0.984778132185097
2016-11-29,-1,-0.0010892404229808264,-0.0007849614691801246,-0.005846501310918373,0.0085859962615565,0.9862232522868444
2016-12-01,1,0.0036056532956904603,0.00393421204297068,-0.005846501310918373,0.005162843370817294,0.9904025521026238
2016-12-05,1,0.003205078211976937,0.003458561190430839,-0.005206047033621954,0.005162843370817294,0.9902094345320293
2016-12-07,1,0.002377223089721568,0.002478826724753514,-0.005206047033621954,0.0067134714075940865,0.9906685080013958
2016-12-09,1,0.0027831656775193126,0.0029020003720914484,-0.005846501310918373,0.005099997727899202,0.9904856276461956
2016-12-13,1,0.002744958536973763,0.0028190017239374658,-0.005228263375429613,0.005099997727899202,0.9911223370203326
2016-12-15,1,0.0009050580950696276,0.0010724252951996485,-0.0039799678849086004,0.005099997727899202,0.9934423353971262
2016-12-19,1,0.0002735064399327122,0.0005359510494076854,-0.0032292784491850073,0.005099997727899202,0.9936028443507166
2016-12-21,-1,-0.000679179867760297,-0.00027093559627414565,-0.0024042928489034776,0.005099997727899202,0.9929304506934784
2016-12-23,0,-0.00015754411038860366,0.00011500545485118813,-0.0018310409526107155,0.0044664070499759135,0.9935387076378356
2016-12-28,1,0.0014077934442833816,0.0014849366483923286,-0.0018310409526107155,0.004395782469052099,0.9933734156980444
2016-12-30,1,0.0011574239713480847,0.0012013257375582595,-0.0010669415032482231,0.004395782469052099,0.9927395859556557
2017-01-04,1,0.0018012569520608874,0.0019223362832996222,-0.007475424058318666,0.003888498251928826,0.9929041012556532
2017-01-06,1,0.0022038831184344205,0.0023782151385779247,-0.012406506260815724,0.003705236022062073,0.9922054471107473
2017-01-10,1,0.0014572994409614332,0.0015186428126851195,-0.012406506260815724,0.003888498251928826,0.9917526516815302
2017-01-12,1,0.0022724965792051237,0.002467829007783781,-0.012406506260815724,0.003995254934761335,0.9909725607122851
2017-01-17,1,0.002026145376858257,0.0021716364024509964,-0.012406506260815724,0.005729378441957625,0.9902280671317384
2017-01-19,1,0.0015887113616481225,0.0016486916381787849,-0.012406506260815724,0.005729378441957625,0.9898042674095456
2017-01-23,1,0.0010569223152173957,0.001061045331339951,-0.011606630149630877,0.005729378441957625,0.9900643352200962
2017-01-25,1,0.00039057206669764936,0.0005182409751089288,-0.012406506260815724,0.005729378441957625,0.9893093624808816
2017-01-27,0,-4.847387334273488e-05,0.00012681119592448286,-0.012406506260815724,0.009020676293957322,0.9888549552577567
2017-01-31,1,0.0006801366787910685,0.0006926881149106705,-0.011606630149630877,0.010414929278736657,0.9876723575372374
2017-02-02,-1,-0.0004317688618554507,-0.00028192140884513074,-0.011606630149630877,0.010414929278736657,0.9879187476080978
2017-02-06,-1,-0.0010536109010469042,-0.0007855960646901654,-0.01090414199363611,0.011135380371853642,0.988175029767412
2017-02-08,-1,-0.0016567714107380675,-0.001319842744337121,-0.01090414199363611,0.010685098168611663,0.9871643888990537
2017-02-10,-1,-0.0007426388846172099,-0.0004893695410675057,-0.01090414199363611,0.005524681123092466,0.9882607190264353
2017-02-14,0,-8.147069616014113e-05,2.7132518253163878e-05,-0.009976792329089523,0.005625907134120841,0.9876226516553192
2017-02-16,-1,-0.0014839624632883974,-0.001136625097350815,-0.011703617745164603,0.006989368539649598,0.9873318264679432
2017-02-21,-1,-0.002169550678079263,-0.0017146905064459727,-0.01275846288131586,0.006989368539649598,0.98738302068346
2017-02-23,-1,-0.0013316405744530134,-0.0011030200653422949,-0.010299763069292174,0.006989368539649598,0.9879066301047805
2017-02-27,-1,-0.0009711093847994967,-0.000803602066305021,-0.010299763069292174,0.0028330652111187822,0.9885395635308436
2017-03-01,1,0.00011321429106613372,0.00013138248177781795,-0.010299763069292174,0.006989368539649598,0.9885990561036916
2017-03-03,-1,-0.0006848083151309188,-0.0005547787299694214,-0.006424384049722443,0.006989368539649598,0.9890657180330522
2017-03-07,-1,-0.00044341965952469047,-0.00033305172063979936,-0.006913375867865731,0.006989368539649598,0.9891630001355308
2017-03-09,-1,-0.0020479941990186063,-0.001738834758974843,-0.006240995621675153,0.005177697717468964,0.9911605263412325
2017-03-13,-1,-0.0027635841452267117,-0.0023376547636085377,-0.006240995621675153,0.007802826576939495,0.9906358409844859
2017-03-15,-1,-0.0016397297804016222,-0.0013685849377040277,-0.0068645213994440206,0.005177697717468964,0.9918938308760297
2017-03-17,-1,-0.0022090833510061423,-0.0018472406030010785,-0.0068645213994440206,0.004137185054017329,0.9918352408499433
2017-03-21,-1,-0.0032874479816656244,-0.0027755560249050903,-0.007009407326931185,0.004137185054017329,0.9915182937154018
2017-03-23,-1,-0.0034464214893443544,-0.0028960667466844284,-0.007009407326931185,0.004137185054017329,0.9915169629910358
2017-03-27,-1,-0.0044198949755384145,-0.0037273765918873977,-0.0068645213994440206,0.006719452994640702,0.9909699624581251
2017-03-29,-1,-0.0028797494641073073,-0.002374905092902507,-0.0076541549150070986,0.0032284745576761733,0.9924247895219217
2017-03-31,-1,-0.002458385701982377,-0.002021769535721624,-0.0076541549150070986,0.002032558119543125,0.9925855584292141
2017-04-04,-1,-0.0018965044354718227,-0.0015523568347102531,-0.0076541549150070986,0.0012116099084362177,0.9933652136977547
2017-04-06,-1,-0.0022041285600808767,-0.001808591298117911,-0.00964780469616469,0.0012116099084362177,0.9910370021864513
2017-04-10,-1,-0.0020404138398820437,-0.001664378012115781,-0.00964780469616469,0.0012116099084362177,0.9913770139306141
2017-04-12,-1,-0.0018979558563697728,-0.0015863490136637504,-0.00964780469616469,0.002032558119543125,0.990022246107623
2017-04-17,-1,-0.0030487056334718315,-0.0025648403553835994,-0.006408475040230127,0.0033644929920697464,0.9904528089515918
2017-04-19,-1,-0.003555797574350481,-0.003052116088984346,-0.006376936913603658,0.0033644929920697464,0.9906525684962809
2017-04-21,-1,-0.0032348759803204957,-0.002783404784554011,-0.009409212030176379,0.00556932442673437,0.989376245687171
2017-04-25,-1,-0.003392321254412124,-0.0028552215069279105,-0.009409212030176379,0.0013513421798094765,0.9902319452785219
2017-04-27,-1,-0.0014820044152687875,-0.0013874427818332102,-0.007941072888579294,0.0022484611902361985,0.9899316223000107
2017-05-01,-1,-0.001811882780337875,-0.001678633883846739,-0.009409212030176379,0.0027617262530303505,0.9893557535620567
2017-05-03,-1,-0.0020062209354118356,-0.0018394307020224514,-0.009409212030176379,0.005265876101380289,0.9887865423556806
2017-05-05,-1,-0.0015007540828168933,-0.001445789659932686,-0.008318140203208823,0.0027617262530303505,0.9912142680810576
2017-05-09,-1,-0.0007850095759213314,-0.0007147306097790203,-0.009409212030176379,0.0027617262530303505,0.989362852154263
2017-05-11,-1,-0.00039020503473772677,-0.0003417591023460243,-0.009409212030176379,0.0027617262530303505,0.9898813335822684
2017-05-15,-1,-0.00022960325433175888,-0.00016246995199336667,-0.009409212030176379,0.0035394389096901476,0.9896467816418981
2017-05-17,-1,-0.0009694274234161677,-0.0009287329969350432,-0.014551711379066256,0.0035394389096901476,0.9887365284021528
2017-05-19,-1,-0.0006066144821733979,-0.0006027457007007204,-0.01035846040232883,0.0035394389096901476,0.9893976907974831
2017-05-23,-1,-0.0011066769930547296,-0.0010410456782568656,-0.010617176682400425,0.0035394389096901476,0.9896163030498142
2017-05-25,-1,-0.0017431370032216318,-0.0015966440190183218,-0.008050853898852257,0.006798433688041745,0.9901231483686089
2017-05-30,-1,-0.001632092141060592,-0.001548203132696799,-0.006005454815874893,0.007126569714763704,0.9904929653356219
2017-06-01,-1,-0.0008453861062969589,-0.0007984335737383142,-0.006005454815874893,0.008426435079908277,0.9897923474049211
2017-06-05,-1,-0.0015431679358408027,-0.0014779735195159698,-0.004688149361257246,0.011154317886703652,0.9888734703921085
2017-06-07,-1,-0.0013417384798558878,-0.001337619544068296,-0.005890064528243472,0.008426435079908277,0.9893441709462907
2017-06-09,-1,-0.0004227693244076853,-0.0002945359018644662,-0.005890064528243472,0.008426435079908277,0.9898536470031511
2017-06-13,0,-0.00013973551991846526,2.8870707933623357e-05,-0.005890064528243472,0.011074036202612665,0.9897693500020268
2017-06-15,-1,-0.0017223585211381973,-0.0016651352954628895,-0.0030126063434915418,0.011350025891663474,0.9904968773108045
2017-06-19,-1,-0.0009992995545444624,-0.0009526627237945535,-0.0022567529573146432,0.011074036202612665,0.991665229509896
2017-06-21,-1,-0.0014321808830721138,-0.001413414005232768,-0.0021518459729981338,0.011350025891663474,0.9901749578662694
2017-06-23,-1,-0.0012541486478954479,-0.0012377624769859274,-0.0027713324873003113,0.011350025891663474,0.9901390682764339
2017-06-27,-1,-0.0014239874481450322,-0.0013562546010439241,-0.0021518459729981338,0.012028748732040991,0.9897901607662641
2017-06-29,-1,-0.00041981169391569104,-0.0003592513576645813,-0.0030908969322094113,0.013071769853378327,0.9902951401384006
2017-07-03,1,0.0002938260334429767,0.0004168473714909964,-0.006098976934905969,0.011697699598775918,0.9911174585031793
2017-07-06,-1,-0.0004171288405523201,-0.0003142727693619503,-0.006098976934905969,0.011697699598775918,0.9902602525133926
2017-07-10,1,6.410245669937945e-05,0.00023419951034827345,-0.006955915959311325,0.011697699598775918,0.9897260212203414
2017-07-12,1,0.0003493416496819494,0.0005387845201706166,-0.007362445543799596,0.013158935364808378,0.9890391854255803
2017-07-14,1,0.0008217955472020162,0.0010641276045070735,-0.008161649229368783,0.006474273270012639,0.9884805355636123
2017-07-18,1,0.0004566596422263915,0.0006131242981345785,-0.008661845529931354,0.006474273270012639,0.9878571264092385
2017-07-20,1,0.0013674659942746776,0.0016544376936688387,-0.011671414940707593,0.00012760566012043621,0.9870349329826371
2017-07-24,1,0.001764697599986326,0.00216073620753599,-0.011671414940707593,0.0011801169104884031,0.9868101451770787
2017-07-26,1,0.002102404707066502,0.00251061954378258,-0.011671414940707593,0.0070576683153774,0.9869436647561405
2017-07-28,1,0.0025921653844186493,0.0030882037078811915,-0.011671414940707593,0.0006680021751578093,0.9870467243570803
2017-08-01,1,0.0013963529070019861,0.0016442310633809458,-0.013254329722767006,0.0006680021751578093,0.9872995789707754
2017-08-03,-1,-0.0010020135758342685,-0.0009263181096468846,-0.009338579760908813,0.0070576683153774,0.9901063759080794
2017-08-07,-1,-0.0001086968059625425,-2.2651184168500597e-05,-0.009338579760908813,0.006870278814840265,0.9906137831513834
2017-08-09,1,0.00011068691255931433,0.00021337492181638772,-0.007721247208637569,0.00795305226908191,0.9902851652324532
2017-08-11,-1,-0.0010235008290180782,-0.000943901686241149,-0.007330726787550315,0.008520735478494815,0.9896252336634698
2017-08-15,-1,-0.0015739065532430097,-0.001438587256797479,-0.0050068593982297155,0.008984876749870328,0.9884160077551731
2017-08-17,-1,-0.0036107958096400156,-0.0032121673623149195,-0.0017243526649822244,0.011058730927705481,0.9881523450888114
2017-08-21,-1,-0.00228299375551332,-0.0021180797849889156,-0.0014308580312996444,0.011058730927705481,0.9891883410796909
2017-08-23,-1,-0.0012794042862688572,-0.0012473577421059498,-0.0021171179625736336,0.01176892643804627,0.9898894723126078
2017-08-25,-1,-0.0012175166671635736,-0.0012112776800773844,0.0001888620267502817,0.01386136923531138,0.9887542743824189
2017-08-29,-1,-0.001714742723046391,-0.0016514415302067414,0.004126178892694252,0.01386136923531138,0.9884774145271116
2017-08-31,-1,-0.0006162040148743538,-0.0005227104198021396,0.00043819423961013776,0.01176892643804627,0.990157582552463
2017-09-05,-1,-0.0003184199731577574,-0.00020347256597774005,-0.0010756266903114856,0.01176892643804627,0.9902886768351864
2017-09-07,1,0.0005667116608484313,0.0007626314469987071,-0.0017771351245439554,0.008416895179672666,0.9919825315204517
2017-09-11,-1,-0.00011603847382172803,-6.391987912587703e-05,-0.0017771351245439554,0.007138238342689161,0.9930137286330268
2017-09-13,1,0.0012757322672889272,0.0015200655822736884,-0.0017771351245439554,0.0062750027079719545,0.9950510916281139
2017-09-15,1,0.0024803292660511194,0.0029245273294258014,-0.0020898849845856606,0.004572566649851236,0.9957070307781188
2017-09-19,1,0.0020075240481974115,0.002337173491763294,-0.0020433967802385624,0.0049898994942446165,0.9958023177549065
2017-09-21,1,0.0020821366817485084,0.0023973425596670343,-0.003098663517539381,0.004572566649851236,0.99542931626614
2017-09-25,1,0.002899751363690573,0.0033144396819661318,-0.003098663517539381,0.003554146841709695,0.9957333983596278
2017-09-27,1,0.0031208480594089893,0.003541886125500033,-0.004059754940265624,0.0025770303261805406,0.9950207150954739
2017-09-29,1,0.002947360397577866,0.0033613570705587656,-0.003497473705937263,0.003554146841709695,0.9949250212032072
2017-10-03,1,0.0034728097554610317,0.004022296552255559,-0.003021606681135443,0.004088661050941199,0.9948920971324074
2017-10-05,1,0.0034626016023376754,0.004017902075771034,-0.003021606681135443,0.006841224907038881,0.9941408684812598
2017-10-09,1,0.0030335132013100353,0.003487798328456076,-0.0009549567700429507,0.010893039907909416,0.9930046865124786
2017-10-11,1,0.0033954123187436907,0.003918288229396125,-0.0038285844310538093,0.010893039907909416,0.9915774714240997
2017-10-13,1,0.0029413472976945972,0.0033703687545197287,-0.0038285844310538093,0.010893039907909416,0.9917147625141408
2017-10-17,1,0.0028843308167636806,0.0032653360067893098,-0.005816478525198793,0.010893039907909416,0.9905687247474758
2017-10-19,1,0.0018332415674610623,0.002036210609017347,-0.0038285844310538093,0.010893039907909416,0.9908338126815864
2017-10-23,1,0.0023896462897039636,0.002683053763367761,-0.0038285844310538093,0.008697382714601794,0.9911228631715734
2017-10-25,1,0.0017000041768667864,0.0018676845123651792,-0.0019234738898952519,0.008697382714601794,0.9915555444918999
