JNU-Tangyin/eata/results/Batch4_SP500/Batch4_SP500-CPB.csv
Date,Action,Predicted_Q25,Predicted_Q75,Actual_Q25,Actual_Q75,RL_Reward
2010-12-14,0,0.0,0.0,-0.0019443453898293547,0.003702507954006162,0.9948844226413142
2010-12-16,-1,-0.0003279944880918925,-0.00032672879590755707,-0.0019443453898293547,0.003264155313045581,0.9952293774927925
2010-12-20,0,0.0,0.0,-0.0019443453898293547,0.003264155313045581,0.9960946737378487
2010-12-22,0,0.0,0.0,-0.0015154630950434053,0.003540093094942057,0.9962811517549668
2010-12-27,0,0.0,0.0,-0.0019443453898293547,0.003264155313045581,0.9961050943567689
2010-12-29,0,0.0,0.0,-0.002959027102987134,0.003264155313045581,0.9957119249011037
2010-12-31,0,0.0,0.0,-0.006574938288675628,0.0022873863558196036,0.9953243279765304
2011-01-04,-1,-0.0006881849060952153,-0.000539382951797808,-0.004672050256050768,0.003264155313045581,0.9953434656245124
2011-01-06,-1,-0.00035372054716012214,-0.0002548186519134358,-0.004672050256050768,0.0028334159257137077,0.9954397514150598
2011-01-10,1,0.00020307632075346554,0.0002122477277616003,-0.005779139602339391,0.002766747361715662,0.9953842310106957
2011-01-12,1,0.0004571796481536754,0.00048467490531948294,-0.006583101032151404,0.002766747361715662,0.9954034705974425
2011-01-14,0,0.0,0.0,-0.006583101032151404,0.003340087402947922,0.9951394236298982
2011-01-19,1,0.00014867421309310607,0.00022595645501590872,-0.005805702865727553,0.002766747361715662,0.9956207706422086
2011-01-21,1,0.0004745709900532636,0.0005927349304069183,-0.006726682863569229,0.002766747361715662,0.9937625024739138
2011-01-25,0,0.0,0.0,-0.005805702865727553,0.003430881193938586,0.9932351142368515
2011-01-27,0,0.0,0.0,-0.005805702865727553,0.003430881193938586,0.9931694886667294
2011-01-31,0,0.0,0.0,-0.0034193424323008853,0.003430881193938586,0.9936907609476473
2011-02-02,0,0.0,0.0,-0.0034193424323008853,0.003430881193938586,0.9934772572060827
2011-02-04,-1,-0.00042117357143861794,-0.0003825063383284615,-0.0049536390052938965,0.003430881193938586,0.9931450072518156
2011-02-08,-1,-0.00010133743514861653,-8.899689295467669e-05,-0.004320856083379223,0.006171419831013105,0.9924051140216348
2011-02-10,-1,-9.107057113063686e-05,-4.759307225177549e-05,-0.0032713445555409065,0.005310299688029386,0.9927223343869443
2011-02-14,1,0.00012654413617651738,0.00020384330773742503,-0.005275824604277745,0.005310299688029386,0.9919197297776132
2011-02-16,1,7.113871940936693e-05,0.00012704079059560214,-0.005275824604277745,0.005310299688029386,0.9917512310206811
2011-02-18,-1,-0.0004658641358334407,-0.0004622287591084246,-0.004320856083379223,0.004711962139705038,0.9938399529755085
2011-02-23,0,0.0,0.0,-0.004987558896989097,0.0028144730982824317,0.9942245731665104
2011-02-25,0,0.0,0.0,-0.004322604087689691,0.004268842330824606,0.9946014605129606
2011-03-01,-1,-0.00021660054325952667,-0.00020942825059825347,-0.004987558896989097,0.004268842330824606,0.9943887457780626
2011-03-03,-1,-0.00037281085314636443,-0.0003439896496462186,-0.005015527130162811,0.0023691119640572677,0.994663045074838
2011-03-07,0,0.0,0.0,-0.0047811644752922666,0.0035150954601698347,0.9947682633890826
2011-03-09,1,0.0005201924867432107,0.0006651334312538237,-0.0047811644752922666,0.0035150954601698347,0.9952166638560527
2011-03-11,1,0.0005143872293238002,0.0006545842508918941,-0.005015527130162811,0.0021762940129120547,0.9949573616569376
2011-03-15,-1,-0.0001381847217982794,-8.91584790784475e-05,-0.004579508905789958,0.003625677947788626,0.9953626182573523
2011-03-17,-1,-8.366318684933211e-05,-1.9675615016091145e-05,-0.004579508905789958,0.003625677947788626,0.9954220792624064
2011-03-21,1,0.0002010746930510268,0.00030271017082211067,-0.0047811644752922666,0.0030568002965506774,0.9949391989622736
2011-03-23,-1,-0.0002547585955176806,-0.00023368205041923306,-0.004048035018928817,0.0030568002965506774,0.995259440522026
2011-03-25,1,0.00011492764507743176,0.00020478780112874494,-0.004588831650181196,0.002320628830905154,0.994775313965264
2011-03-29,0,-6.324676644252862e-05,1.1933334282066026e-05,-0.004048035018928817,0.0034738860368437197,0.9946022708943799
2011-03-31,1,5.302666590745544e-05,0.00016019203007692497,-0.0037094315776227296,0.004681245410572181,0.9944073967482621
2011-04-04,-1,-0.00016702285520905493,-0.00011601481473691333,-0.002021573796529795,0.005335467954885819,0.9943202224513557
2011-04-06,-1,-0.0004704889916132029,-0.00042854947945479175,-0.0037094315776227296,0.004225869677737462,0.9946353885599687
2011-04-08,-1,-0.0006655372229868424,-0.0006100617239933014,-0.002912126635837674,0.005258877054260537,0.9944566635200108
2011-04-12,-1,-0.0003061477351482032,-0.0002837401750385417,-0.002912126635837674,0.005258877054260537,0.9945702608315895
2011-04-14,-1,-8.667208993328804e-05,-7.423876277515097e-05,-0.002912126635837674,0.006055338549169607,0.9925792426619924
2011-04-18,-1,-0.0009323552205691548,-0.0008092658108276898,-0.0026660788691293008,0.006055338549169607,0.9933263037637693
2011-04-20,-1,-0.0007560909436877903,-0.0006606998238859556,-0.0026660788691293008,0.006055338549169607,0.9931115247611384
2011-04-25,-1,-0.0014980204421319405,-0.001304177321175145,-0.0026660788691293008,0.006055338549169607,0.9933095596705384
2011-04-27,0,0.0,0.0,-0.0027074062890404386,0.006055338549169607,0.9929572645970588
2011-04-29,0,0.0,0.0,-0.0027074062890404386,0.005825565847293762,0.9932626164498866
2011-05-03,-1,-0.0002610600801420547,-0.00021556631417524036,-0.003683772430053158,0.00526702970093088,0.9930942068184884
2011-05-05,-1,-0.00024255353488220527,-0.00022786984898757464,-0.006742018829207928,0.00526702970093088,0.9924527942136955
2011-05-09,-1,-5.33236249168321e-05,-2.8421269651197602e-05,-0.004179536317429548,0.0036637064911165234,0.992894948434374
2011-05-11,1,0.00039299320454956545,0.0004988463796999848,-0.004179536317429548,0.0036637064911165234,0.9929363829667993
2011-05-13,1,0.0015312935646518099,0.0017682584764902177,-0.008402208575632432,0.002747577985948355,0.9941351722789806
2011-05-17,1,0.001152120698438805,0.0013148454840007338,-0.00861791121429334,0.003339797696201264,0.9938222414996294
2011-05-19,1,0.0014148266414152583,0.001622696983169978,-0.00861791121429334,0.003339797696201264,0.993556193784296
2011-05-23,1,0.0012780656188237838,0.0014752976961517341,-0.00861791121429334,0.003339797696201264,0.9941467780750709
2011-05-25,1,0.0009678822322624896,0.0011297813318239922,-0.00861791121429334,0.0029952009177840384,0.9935661220247948
2011-05-27,1,0.0008605484172030836,0.000986579812821894,-0.00861791121429334,0.003612988222758075,0.9925431113592981
2011-06-01,1,0.0007567898690653558,0.0008776842207661416,-0.008302041014056544,0.004431828766605956,0.9913599831379023
2011-06-03,-1,-8.666096260850841e-05,-7.54791707248911e-05,-0.0045648145673671614,0.004431828766605956,0.9920595829893079
2011-06-07,1,0.00016259502487558653,0.00022442566937889318,-0.0060823934598167855,0.0046052767626028526,0.9917602139334452
2011-06-09,1,0.0005162636612937321,0.0006320024412371878,-0.007317722593380719,0.003890394864611855,0.9915689125086973
2011-06-13,1,0.00033672730362645036,0.00041918552917333696,-0.0060823934598167855,0.003890394864611855,0.9916242686893919
2011-06-15,1,0.00046900110821947215,0.0005962877854302725,-0.0060823934598167855,0.0036708042214237072,0.9914619148594503
2011-06-17,1,0.000760051470422,0.0009086526363812667,-0.007317722593380719,0.003055764572615483,0.9911923099774256
2011-06-21,1,0.0006677656841507548,0.0007849835349125077,-0.007317722593380719,0.0036708042214237072,0.9905405493143322
2011-06-23,-1,-0.0005926844078676563,-0.0005167005220648993,-0.005603560753609342,0.004306382046559098,0.9918853373753725
2011-06-27,1,0.0005543151268789338,0.0006333233392717749,-0.006386624822764827,0.003186777452343831,0.9925671346944421
2011-06-29,1,0.0010302332508528534,0.0011733841912194482,-0.00639943312352646,0.002704158683273614,0.9934000048576226
2011-07-01,1,0.0009350423489394179,0.0010559334992958965,-0.00639943312352646,0.0020022968526086115,0.9934819055234761
2011-07-06,1,0.0008406925690071565,0.0009478442551996178,-0.008668596123754327,0.0020022968526086115,0.9930234133537682
2011-07-08,1,0.0004932490141611338,0.0005637570422731914,-0.008668596123754327,-6.222865838568007e-06,0.9923645151136078
2011-07-12,1,0.0009450491966095029,0.0010998240064223435,-0.009875095133678409,-0.0002906859873789147,0.9909181580261047
2011-07-14,1,6.47846275796887e-05,7.401220031719294e-05,-0.010088644962522654,0.0009360939480972271,0.9898767447526183
2011-07-18,-1,-0.0002739416136385896,-0.00023919788910805375,-0.008714256418229559,0.006227228820295819,0.9893384644041749
2011-07-20,0,0.0,0.0,-0.008714256418229559,0.006227228820295819,0.9894427352442887
2011-07-22,0,0.0,0.0,-0.011101019262031322,0.0037938416015269156,0.9878599466462611
2011-07-26,-1,-0.0002800414700422808,-0.00024112557011697714,-0.011101019262031322,0.009855183044048378,0.9870965192935828
2011-07-28,-1,-0.0010312541098547044,-0.0008859609199294452,-0.014727780729837193,0.01051398940448875,0.986226507475913
2011-08-01,-1,-0.0005220469171261653,-0.000476942470991524,-0.014727780729837193,0.012846183280599725,0.9846568317283318
2011-08-03,-1,-0.0005070252367481099,-0.0004632684966908659,-0.014727780729837193,0.012846183280599725,0.9853263753550775
2011-08-05,-1,-0.0018734311857586618,-0.0016434262976353475,-0.012702459122864771,0.012846183280599725,0.9859649237287055
2011-08-09,-1,-0.002722516634903477,-0.0023878714391777447,-0.00957545456808846,0.01486539167671036,0.986435590496506
2011-08-11,-1,-0.0029673497537195904,-0.0026205690368900176,-0.00957545456808846,0.012729078766320423,0.9876391905413852
2011-08-15,-1,-0.0022847137649129228,-0.002005892844906477,-0.00957545456808846,0.007744727952598229,0.9888380509705675
2011-08-17,-1,-0.0020489192798895314,-0.0018039801301624272,-0.00957545456808846,0.008241160197852333,0.9884380014573731
2011-08-19,-1,-0.0034879820874322252,-0.003064466793187281,-0.006335939816590241,0.008241160197852333,0.9896364106079998
2011-08-23,-1,-0.002315892714234624,-0.0020244520512809647,-0.007646242550256428,0.005862645214411951,0.9904149471623422
2011-08-25,-1,-0.0027689328602638246,-0.0024227760305365357,-0.006335939816590241,0.005862645214411951,0.9908574080689379
2011-08-29,-1,-0.0011245779177926547,-0.001006549600353282,-0.006335939816590241,0.007149524161526697,0.9910628778340205
2011-08-31,0,0.0,0.0,-0.007646242550256428,0.01145773972319417,0.9901933549463378
2011-09-02,0,0.0,0.0,-0.006335939816590241,0.01145773972319417,0.9902331156186496
2011-09-07,0,0.0,0.0,-0.0051474622785332,0.009539643125764406,0.990793240758671
2011-09-09,0,0.0,0.0,-0.0037200369306393684,0.009539643125764406,0.9915757071113939
2011-09-13,0,0.0,0.0,-0.0015515865938924124,0.01145773972319417,0.9910117852277834
2011-09-15,-1,-0.0013045141752950906,-0.001139256775851152,-0.003951346786037141,0.009539643125764406,0.9911626579777499
2011-09-19,0,0.0,0.0,-0.003951346786037141,0.010512748052067741,0.9906680951907654
2011-09-21,0,0.0,0.0,-0.003619208242322791,0.012112729918090082,0.9906712153879523
2011-09-23,-1,-0.0009188630258443201,-0.0008388942063377708,-0.004791047993867233,0.012276940795979855,0.9902868128154393
2011-09-27,-1,-0.0001615945639486589,-0.00015696620592426397,-0.006216478055290882,0.00928330946096195,0.9913353979850136
2011-09-29,-1,-0.0002931412049245749,-0.0002712351441062921,-0.005890205839693971,0.008669590935745247,0.9922017956478287
2011-10-03,1,0.0003080676898733875,0.00037831783652860423,-0.006216478055290882,0.00710422700345512,0.9923439550938591
2011-10-05,1,0.0011666183978070188,0.0014417360672221119,-0.006345742019136487,0.005480222559628935,0.9920363057174065
2011-10-07,1,0.0009174778962789904,0.001140176805538026,-0.006345742019136487,0.00752504538437254,0.9914518743053767
2011-10-11,1,0.0016621915118129168,0.0019917654342487164,-0.006345742019136487,0.0063906788939265165,0.9909587932140077
2011-10-13,1,0.0013207601866338085,0.0015992511116931524,-0.0063462327586484265,0.008639635285240381,0.9901867001039287
2011-10-17,1,0.0010281682793976976,0.0012432274145343877,-0.006228775595030425,0.0062663033463238645,0.9907251070562023
2011-10-19,1,0.0013571515584670049,0.0016195301443026433,-0.0063462327586484265,0.00543388025111171,0.990869882895244
2011-10-21,1,0.001703078052398393,0.0020004730170781002,-0.00630439358375042,0.00543388025111171,0.9917304559140145
2011-10-25,1,0.0008289429095618215,0.0009739629750615823,-0.00630439358375042,0.00543388025111171,0.9899300865799658
2011-10-27,1,0.0011510967980160776,0.0013468787182846105,-0.007891883549742084,0.0060370081848147295,0.9883434366951988
2011-10-31,1,0.0010813464488723425,0.0012894386484172756,-0.007623190408684093,0.007412823433371341,0.9882552329373798
2011-11-02,1,0.0006164361060940853,0.0007529387208324598,-0.005085880379351416,0.00844145621397862,0.9880320124421862
2011-11-04,1,0.0008982348852094809,0.0010618698248738817,-0.005085880379351416,0.007412823433371341,0.9890105301169146
2011-11-08,1,0.001837615416838888,0.0021440208651009865,-0.005085880379351416,0.007412823433371341,0.9897715756335631
2011-11-10,1,0.001550146661439138,0.0018241302918013337,-0.005085880379351416,0.007228149959267362,0.9904815829552936
2011-11-14,1,0.000991358294689099,0.0011388332458403178,-0.006362015330357127,0.007228149959267362,0.9900887059801045
2011-11-16,1,0.0011986148377669578,0.0014189483510995008,-0.004918070048079327,0.007887435791666684,0.9903229989120881
2011-11-18,1,0.0018777303439595516,0.0022282111548486846,-0.005762236227613681,0.007887435791666684,0.9900704744170145
2011-11-22,0,0.0,0.0,-0.004918070048079327,0.01022109882044836,0.9916836855216116
2011-11-25,0,0.0,0.0,-0.004918070048079327,0.00947217139443241,0.9932024624675918
2011-11-29,0,0.0,0.0,-0.0031904495497582707,0.007895909083880853,0.9936491840625161
2011-12-01,1,0.0009987212462110344,0.0012150992436060811,-0.005762236227613681,0.007895909083880853,0.9938684662774703
2011-12-05,1,0.0008955024902160165,0.0010763532887758595,-0.006807855422219964,0.007895909083880853,0.993138349662459
2011-12-07,1,0.0010214746395729758,0.001202729398917217,-0.007640755174050442,0.003876092258130784,0.9916154586461544
2011-12-09,1,0.001091522396710679,0.0012923807572401305,-0.007493773852764105,0.010256194457824904,0.9910428054201597
2011-12-13,1,0.0005891262314542546,0.0007288541511999182,-0.006807855422219964,0.010256194457824904,0.9913429101049469
2011-12-15,1,0.0009788495885249882,0.0011623385158669023,-0.007493773852764105,0.009616710518252518,0.9909943052713128
2011-12-19,1,0.0004634051664505432,0.0005535074584228846,-0.007493773852764105,0.009616710518252518,0.9910347987715372
2011-12-21,1,0.0012268466365707963,0.0014123834034861441,-0.007640755174050442,0.003988103444254343,0.9911497821124574
2011-12-23,1,0.0010959616092353437,0.0012683554258010963,-0.007640755174050442,0.0045624176830076826,0.9913176681762369
2011-12-28,1,0.0004433291570254029,0.0004636994901165946,-0.007640755174050442,0.0045624176830076826,0.9912329236216474
2011-12-30,-1,-0.00013415607429536296,-4.353837306954946e-05,-0.007640755174050442,0.004122108766245311,0.9919068504422969
2012-01-04,-1,-0.0008967400249682626,-0.0006987627179013943,-0.004824878582577036,0.004122108766245311,0.992512051085965
2012-01-06,-1,-0.001385903383966155,-0.0011727799752792695,-0.0031690290469738765,0.004122108766245311,0.9941310211548028
2012-01-10,-1,-0.00028737027503777414,-0.00020872312426725625,-0.0031690290469738765,0.0036348244686390052,0.9956473703014107
2012-01-12,-1,-0.0011502064813303774,-0.0008908194514689699,-0.0031690290469738765,0.0036348244686390052,0.9954043848714264
2012-01-17,-1,-0.0012370520371597165,-0.0010280029002421318,-0.001569597801377403,0.004104231996168564,0.9957486335411574
2012-01-19,-1,-0.0011815464462396497,-0.0009482321306107033,-0.001569597801377403,0.004104231996168564,0.9957626758222041
2012-01-23,-1,-0.0009337438953983626,-0.0007944620819397225,-0.0013391339428521134,0.004240925149689214,0.9948996499171832
2012-01-25,-1,-0.0007947102810136938,-0.0006738182434756786,-0.00031576346251168606,0.004842102970446455,0.9944760972823287
2012-01-27,-1,-0.001686120965937591,-0.0014228236382545674,0.00023655334288411566,0.005224092496583487,0.9937995570348633
2012-01-31,-1,-0.0011404330299214422,-0.0009653519418155391,-0.00031576346251168606,0.005268814660750647,0.9938564794971015
2012-02-02,-1,-0.0015589593775707524,-0.001289837493997444,-0.0013391339428521134,0.005268814660750647,0.9937693833111569
2012-02-06,-1,-0.0016716276912857979,-0.0013957963577824898,-0.004590002650884321,0.005268814660750647,0.9932782085452504
2012-02-08,-1,-0.0012272522992785387,-0.0010281205316869462,-0.004590002650884321,0.005325411168682827,0.9932144795517616
2012-02-10,-1,-0.0016624777157484918,-0.0013981661715354015,-0.002271723890043778,0.005147015159367351,0.9938405931401216
2012-02-14,-1,-0.001826941063400231,-0.0015108565956187382,-0.002271723890043778,0.00508342749255613,0.9939356731434966
2012-02-16,-1,-0.0012456857974350376,-0.001033789191694741,-0.004590002650884321,0.00508342749255613,0.9940224521454958
2012-02-21,1,0.00020302091512740259,0.00020646331738640065,-0.004598278585094802,0.00508342749255613,0.9949714273538737
2012-02-23,1,0.0005670731300788331,0.0006166022063963101,-0.004598278585094802,0.003095325451138405,0.9953847180180033
2012-02-27,0,0.0,0.0,-0.004522123434976167,0.0022095133461029004,0.9958719232132124
2012-02-29,0,0.0,0.0,-0.0040879098496129085,0.0022095133461029004,0.9964328110474491
2012-03-02,1,0.0004350602956541816,0.0004878270385917458,-0.002127905576501634,0.004317752342881666,0.9955316921364252
2012-03-06,1,0.00023889002192697641,0.00030215635996709946,-0.0006848928361539846,0.004317752342881666,0.9961085314534953
2012-03-08,1,0.0002593341512215237,0.0003101003505541507,-0.001500947680358683,0.0041630577514228904,0.9957944116122477
2012-03-12,1,0.00024535134324354295,0.00028606172170504577,-0.004090668494349735,0.0041630577514228904,0.9950375825724109
2012-03-14,1,0.00047533264874266833,0.0005685062426661711,-0.004090668494349735,0.0041630577514228904,0.9950101372585858
2012-03-16,1,0.0006268560120467515,0.0007640228282559513,-0.003928111082030181,0.0041630577514228904,0.9950363972316667
2012-03-20,1,0.0004956427240040306,0.0005834628445104407,-0.003431690068905645,0.0041630577514228904,0.9950749738957675
2012-03-22,1,0.000532924750126607,0.000638618733678372,-0.001262244184826065,0.004177892051237954,0.9951859136885493
2012-03-26,1,0.00043007651349737054,0.0005074744396585714,-0.003431690068905645,0.004317752342881666,0.9938512232656739
2012-03-28,1,0.00037526548514030196,0.0004216455741142732,-0.003431690068905645,0.005110191612933114,0.9937032517710179
2012-03-30,1,0.001217807924543506,0.0013990136976225944,-0.003431690068905645,0.0041432652534789905,0.9945602196487701
2012-04-03,1,0.00173736126569728,0.002034336516597278,-0.00449398657078428,0.003993199715468952,0.9941439801487324
2012-04-05,1,0.0012077005518640826,0.0014119200465822486,-0.0020869582232412513,0.004456270179548717,0.9948754664577423
2012-04-10,1,0.0006832818129105874,0.0008172274098121966,-0.0008149272766633539,0.005935042032917009,0.9952897272902368
2012-04-12,1,0.0007595045527178008,0.0008873958913225323,-0.0008149272766633539,0.007698105921678311,0.9948725366797333
2012-04-16,1,0.0010472543332538534,0.0012360853325194571,-0.0006639976435871519,0.005935042032917009,0.9953878169249263
2012-04-18,1,0.0003709185068156021,0.00038726083195015737,-0.0018359650105662022,0.004456270179548717,0.9954690775858629
2012-04-20,1,0.0006381211057239875,0.0006789346870906343,-0.003947527849110445,0.00288362521226678,0.9944996942962485
2012-04-24,1,0.0004865908852474491,0.0005112569957197192,-0.003947527849110445,0.0014081875185131933,0.9947793669725564
2012-04-26,1,0.0009697100610596892,0.0010831842139410585,-0.005471765802067803,0.0014081875185131933,0.9944345105486708
2012-04-30,1,0.0009135112621072449,0.0010239113743052471,-0.005471765802067803,0.0014081875185131933,0.9943398764876009
2012-05-02,1,0.000817292993788939,0.0009297485036088757,-0.006848805523564969,0.0014081875185131933,0.9936029115026078
2012-05-04,1,0.0009791025528762655,0.0011090164409272942,-0.008373875506503195,0.001387339675158219,0.9928535392377678
2012-05-08,1,0.0007535387755461776,0.0008172282789739494,-0.008373875506503195,0.001387339675158219,0.992900083316444
2012-05-10,1,0.001326105423118647,0.0014896640025087787,-0.008373875506503195,0.0007513750775438207,0.992670519304572
2012-05-14,1,0.0011466195907029165,0.0012699788283791244,-0.008373875506503195,-0.0015104519803853136,0.9924186155495256
2012-05-16,1,0.0013377432491391253,0.0015386410042365457,-0.008373875506503195,0.0015403037620402046,0.9922515878159183
2012-05-18,0,0.0,0.0,-0.006365212664220478,0.004347107390426871,0.9934742966831229
2012-05-22,0,0.0,0.0,-0.005256647867017458,0.004898182197734484,0.993677928452375
2012-05-24,0,0.0,0.0,-0.005256647867017458,0.004898182197734484,0.9938257171478424
2012-05-29,-1,-0.00016337385391409218,-0.00014418153627441266,-0.00488352253507787,0.006475422974143143,0.9936757508820082
2012-05-31,-1,-0.002144691349011186,-0.0018189661904593067,-0.0031049547410769334,0.006475422974143143,0.9944504490700437
2012-06-04,-1,-0.0016557869241592101,-0.0014367361482206455,-0.002670368501409747,0.006594935657143991,0.9938720740327767
2012-06-06,0,0.0,0.0,-0.0031049547410769334,0.005295388138519206,0.9940786200991673
2012-06-08,0,0.0,0.0,-0.003484361468916474,0.005295388138519206,0.9939065228506496
2012-06-12,0,0.0,0.0,-0.003221430643330337,0.006594935657143991,0.9937049736343746
2012-06-14,0,0.0,0.0,-0.003151770099654159,0.006594935657143991,0.9933087872796016
2012-06-18,0,0.0,0.0,-0.00402786246937629,0.005597093736833677,0.9933448356877607
2012-06-20,-1,-0.0012269382297121778,-0.0010149711498359877,-0.00402786246937629,0.006184023434967538,0.993551671768623
2012-06-22,-1,-0.0015140057724873546,-0.0012820288297465047,-0.006314172420181529,0.006184023434967538,0.9928992933721038
2012-06-26,-1,-0.0010878229758088968,-0.000913243220172507,-0.0072584859440872375,0.005158417397793722,0.9927696859933873
2012-06-28,-1,-0.0008403008270513822,-0.0006903071460392263,-0.0072584859440872375,0.006225600289139994,0.9923956627484638
2012-07-02,0,-4.1683088252425184e-05,1.3087500503536055e-05,-0.0072584859440872375,0.005118444322224823,0.9932052349225974
2012-07-05,-1,-0.0004927250681056749,-0.00037410924728699364,-0.007668267095690283,0.005118444322224823,0.992776968580486
2012-07-09,-1,-0.0007931165171333767,-0.000653937594980584,-0.0054809125856101525,0.006225600289139994,0.9929493600643868
2012-07-11,-1,-0.0004956534874090437,-0.0003981821266631794,-0.0054809125856101525,0.006714328464387591,0.9926739626694643
2012-07-13,1,0.0004943010520948404,0.0005625229477002411,-0.0054809125856101525,0.005118444322224823,0.9932125537529106
2012-07-17,0,0.0,0.0,-0.004600082704006481,0.006714328464387591,0.991833180918625
2012-07-19,0,0.0,0.0,-0.004600082704006481,0.005064949250182126,0.9922195713803779
2012-07-23,1,8.296239978249355e-05,0.00011114521517359782,-0.0012091092058158933,0.005064949250182126,0.9932448558372642
2012-07-25,-1,-0.00022783600823410885,-0.0002071258192226148,-0.0018273572708348601,0.005064949250182126,0.9934833488171548
2012-07-27,1,8.090220665399661e-06,2.4508167126198327e-05,-0.0018273572708348601,0.004847041692512579,0.993842312175696
2012-07-31,-1,-2.616151979864712e-05,-1.0493293339347451e-05,-0.0008160386872795909,0.006237868831690599,0.9936054218329858
2012-08-02,-1,-0.0005515123752441586,-0.0004756133313394231,-0.0008160386872795909,0.006237868831690599,0.9938775201180307
2012-08-06,-1,-0.00029291720180730585,-0.00025001214309105125,-0.000785445438310751,0.004847041692512579,0.9943756316228568
2012-08-08,1,0.00027727901680639456,0.0003016177623851481,-0.0018273572708348601,0.004847041692512579,0.9940284046820469
2012-08-10,1,0.0003246403149025357,0.00036081203495430466,-0.0037429287820191347,0.004847041692512579,0.9937217666109001
2012-08-14,1,0.001237860978684028,0.0013889535169229778,-0.0037429287820191347,0.0028435967392964247,0.9953230041025324
2012-08-16,1,0.001459385680600494,0.001638721865089461,-0.0037429287820191347,0.0015151561713345886,0.9952180264180142
2012-08-20,1,0.001461934945373187,0.0016474029187428826,-0.0037429287820191347,0.002226133414695379,0.9949363181006223
2012-08-22,1,0.0017049037208606258,0.001975160458368835,-0.003511897828197312,0.0036948467670268074,0.9950391058646098
2012-08-24,1,0.002063682460025904,0.0023791703491835665,-0.003511897828197312,0.0026296833698596454,0.9950754252861359
2012-08-28,1,0.0022158810602141447,0.0025273556408760608,-0.0037429287820191347,0.0015906219175090557,0.9947380463064232
2012-08-30,1,0.0016252874452665246,0.001824666871944108,-0.003458183451262106,0.0020172948843583077,0.9955383331704762
2012-09-04,1,0.0015933918198117237,0.0017950159497772677,-0.003458183451262106,0.002921934333815941,0.9953465014177019
2012-09-06,1,0.0017905998290939406,0.0020274051544830855,-0.003458183451262106,0.002921934333815941,0.9959813324065198
2012-09-10,1,0.0013915353162256526,0.0015934235473649386,-0.0016426216285961497,0.0042757002303722685,0.9965800811765583
2012-09-12,1,0.0014097321601686111,0.0016196926337382232,-0.0029255937535141176,0.0042757002303722685,0.9962312821348411
2012-09-14,1,0.001309051079097609,0.001499037670795545,-0.0032237576121201044,0.0042757002303722685,0.9959061456595134
2012-09-18,1,0.0017564909817831154,0.002018067337425372,-0.0032237576121201044,0.004464176860819964,0.9959688828260903
2012-09-20,1,0.001757479458756797,0.002011868049120982,-0.0032237576121201044,0.004939735790962723,0.995816413181599
2012-09-24,1,0.0017052184347790007,0.0019365245147189222,-0.005791125839870393,0.004939735790962723,0.9951753592307819
2012-09-26,1,0.001476197396516458,0.0016921357411299402,-0.005791125839870393,0.004939735790962723,0.9950593736537996
2012-09-28,1,0.0015276770342212385,0.0017537934440837201,-0.005791125839870393,0.004939735790962723,0.9950432306662474
2012-10-02,1,0.0020403223430573974,0.002363429041136864,-0.005791125839870393,0.004939735790962723,0.9944711631534617
2012-10-04,1,0.001936379051519063,0.0022440750222021246,-0.00569124284528514,0.00468940668432903,0.9945927858899055
2012-10-08,1,0.0019069884252766352,0.0021911918721027445,-0.00569124284528514,0.00468940668432903,0.9943682501322129
2012-10-10,1,0.0011612802103703873,0.0013023067504078498,-0.003990656077356376,0.005017730808651426,0.9947941782937526
2012-10-12,1,0.00048211517813726294,0.0004933818118191887,-0.0027046961709283387,0.007243353740084225,0.9938949891739547
2012-10-16,1,0.0007227982452328149,0.0007565551599830486,-0.0040469382077679035,0.007243353740084225,0.9937756125430255
2012-10-18,1,0.0009455361406436873,0.0009971371031937358,-0.0040469382077679035,0.007824180563830893,0.9934367634782688
2012-10-22,0,-2.0491118522354614e-05,8.100303311625031e-05,-0.0032708900607586336,0.007824180563830893,0.9928874459400548
2012-10-24,-1,-0.0006147905909819472,-0.0004336021632531165,-0.0028055398935599098,0.007824180563830893,0.9927649646261272
2012-10-26,-1,-0.0003363635294476154,-0.0001986079943086319,-0.0028055398935599098,0.007824180563830893,0.9927945215190984
2012-11-01,0,-6.637421311620135e-05,4.8822669123238873e-05,-0.0028055398935599098,0.007252114962498196,0.993384670667667
2012-11-05,0,0.0,0.0,-0.0026604880581759098,0.007252114962498196,0.9933580532463177
2012-11-07,0,0.0,0.0,-0.0031382657225013464,0.006919096762595854,0.9933523679488127
2012-11-09,0,-6.230361387447175e-07,0.00011384742536300489,-0.0031382657225013464,0.006685714981162438,0.9935241121749235
2012-11-13,1,0.0011714216671226182,0.0012153043299410493,-0.005461891883073882,0.005476483329743926,0.9937929315209002
2012-11-15,0,0.0,0.0,-0.005661773939132318,0.005476483329743926,0.9939994813583898
2012-11-19,0,0.0,0.0,-0.005661773939132318,0.004041367947200088,0.9940206831445044
2012-11-21,0,0.0,0.0,-0.005661773939132318,0.003558725180634143,0.9948466838865416
2012-11-26,1,0.0011887550171462418,0.0012845004713709343,-0.0057700465776324055,0.0027559069234162313,0.9943700726022159
2012-11-28,1,0.001062673931444857,0.0011258436328256908,-0.006729006773479894,0.0010328663900120308,0.9938847331248085
2012-11-30,1,0.0009233309000711531,0.0009336580111857168,-0.006973849615420004,0.0006222355708495097,0.9932788997614945
2012-12-04,1,0.0007113340896132711,0.0007252131984087833,-0.006973849615420004,0.0027559069234162313,0.9922443451811322
2012-12-06,1,0.0007704843732195901,0.0007893063113446664,-0.007739601744250226,0.0020838902149887878,0.9919893175145494
2012-12-10,1,0.0006914492815634656,0.0007035017932547787,-0.008682679560701276,0.0020838902149887878,0.9912732507721
2012-12-12,1,0.00014009485204923724,0.00019013942494771916,-0.007739601744250226,0.002576748543126562,0.9922767811221647
2012-12-14,0,0.0,0.0,-0.007739601744250226,0.00431604157605598,0.9920870174774382
2012-12-18,0,0.0,0.0,-0.007739601744250226,0.00431604157605598,0.9923777819517198
2012-12-20,-1,-0.0003958925043236096,-0.0002529400853058865,-0.005937024046209194,0.005101800695312679,0.9924738435129052
2012-12-24,-1,-0.0011114312190245717,-0.0008789722363013793,-0.004899953882994596,0.005101800695312679,0.992892257679718
2012-12-27,0,0.0,0.0,-0.0031728558186205984,0.005101800695312679,0.9931312782740606
2012-12-31,0,0.0,0.0,-0.0024992864321057018,0.005101800695312679,0.9933999726577978
2013-01-03,0,0.0,0.0,-0.0024992864321057018,0.004665936302939587,0.9946171801024578
2013-01-07,0,0.0,0.0,-0.0022671922039128696,0.005101800695312679,0.9945370420827254
2013-01-09,0,0.0,0.0,0.0005027485558573548,0.006429918971663307,0.9948768064354226
2013-01-11,-1,-0.0007877696445274477,-0.0006969165537261477,0.001588100845226785,0.008052913253400292,0.9937581322501143
2013-01-15,-1,-0.00029815783994518026,-0.00026817398512942153,0.0005288561734950193,0.006429918971663307,0.994370708220878
2013-01-17,1,0.00018585061595195667,0.00020062579515513456,0.000714847168063031,0.008052913253400292,0.993670256325508
2013-01-22,1,0.0006816394530384901,0.0007549592132622712,-0.00033525768575150207,0.009193561129241301,0.9935817521650475
2013-01-24,1,0.0008361081160494795,0.0009546707656746925,-0.00033525768575150207,0.010780593817164123,0.9928699241660791
2013-01-28,1,0.0003925400620735562,0.00042873613852642084,-0.00033525768575150207,0.010780593817164123,0.9924923128374598
2013-01-30,1,0.0006292691872955806,0.000680831494862944,0.0016969589943936643,0.012020295075078104,0.9923498279972837
2013-02-01,1,0.0009511339474766638,0.0010530385120907715,-0.00033525768575150207,0.013506363696437726,0.9912499445033536
2013-02-05,1,0.0007020741607390451,0.0007389418839154989,-0.001959196710871025,0.013506363696437726,0.9913681446912328
2013-02-07,1,0.0010757213587424131,0.001159047010558697,-0.001959196710871025,0.013506363696437726,0.9919330057432763
2013-02-11,1,0.0015309206548942767,0.001663992190834573,-0.001959196710871025,0.012020295075078104,0.9927011932573423
2013-02-13,0,0.0,0.0,-0.0010221484095745488,0.012020295075078104,0.9924172557615528
2013-02-15,0,0.0,0.0,-0.0023709429726142335,0.008281601439977441,0.9934372904103529
2013-02-20,0,0.0,0.0,-0.0023709429726142335,0.009498857027404915,0.9928521176606515
2013-02-22,0,0.0,0.0,-0.0023709429726142335,0.009498857027404915,0.9928053195217506
2013-02-26,0,0.0,0.0,-0.0010221484095745488,0.010321088521543207,0.992407313612905
2013-02-28,1,0.003557529257946513,0.003964708500420536,-0.0010221484095745488,0.011815672959684878,0.9928217728233557
2013-03-04,1,0.003896389616674464,0.004337140421871382,-0.00018110830359463134,0.009932136711844428,0.9940866956917075
2013-03-06,1,0.0035460430730993235,0.0039451645921868995,-0.00018110830359463134,0.009932136711844428,0.9936142721583461
2013-03-08,1,0.0032075791563819485,0.003534398269810538,-0.0010677363802114742,0.009970470715022004,0.9929496874410553
2013-03-12,1,0.0029844048953996034,0.0032543890719166865,-0.005742751725070198,0.011815672959684878,0.9920643501222629
2013-03-14,1,0.0032857399639731407,0.003612350343289536,-0.005742751725070198,0.011815672959684878,0.9921792340747501
2013-03-18,1,0.0032946768821813816,0.0036411961468350547,-0.0053852620592605175,0.012319776259095493,0.9910953457872276
2013-03-20,1,0.0036664414156411234,0.004030851173488859,-0.005742751725070198,0.011815672959684878,0.99118368991522
2013-03-22,1,0.003557736141980164,0.0038724350049160264,-0.0053852620592605175,0.010928848952527867,0.9916259788149067
2013-03-26,1,0.004113371712624646,0.004502839427299329,-0.005781267181352383,0.00970070052599121,0.9912682788183155
2013-03-28,1,0.004877195078924956,0.005385793997718481,-0.005781267181352383,0.007158106867655053,0.9915476238185835
2013-04-02,1,0.004977422040212636,0.0054768671563747515,-0.005781267181352383,0.004591629281654524,0.9913605591658399
2013-04-04,1,0.004292593635518987,0.004697509767581518,-0.005356622810258727,0.006958784451782518,0.9923229956167735
2013-04-08,1,0.004212856664734916,0.004614514639584661,-0.005356622810258727,0.006782461350737924,0.9923780118516389
2013-04-10,1,0.00456449473404214,0.005070439461255104,-0.003625865801603047,0.006682853837504127,0.9927911930855704
2013-04-12,1,0.004248001399611589,0.004683564832925637,-0.005356622810258727,0.006682853837504127,0.9926321797679781
2013-04-16,1,0.005193889471734649,0.0057796739559240785,-0.002688072951829087,0.006682853837504127,0.9927957217205515
2013-04-18,1,0.004517290196493506,0.004973440087544514,-0.002688072951829087,0.006796465419100861,0.9932810964834798
2013-04-22,1,0.0044557600010366235,0.004898737663303657,-0.005707682431523286,0.006682853837504127,0.9912446313122264
2013-04-24,1,0.004302917621573074,0.004703851463358511,-0.004848786500993216,0.006097551058431147,0.991880384591038
2013-04-26,1,0.004345566957691227,0.004759124188417535,-0.004848786500993216,0.006097551058431147,0.9914221400789603
2013-04-30,1,0.004091066407061,0.004449550494159572,-0.005707682431523286,0.006097551058431147,0.9901849970433693
2013-05-02,1,0.003943678425576187,0.004254814227891861,-0.01021507547936744,0.005219553029147852,0.9883978967331734
2013-05-06,1,0.0035804752506034604,0.0038517256731122277,-0.006990136695648322,0.006097551058431147,0.9889638651148327
2013-05-08,1,0.003015181019495867,0.003149555235002525,-0.01021507547936744,0.006054650846078475,0.9884163154223813
2013-05-10,1,0.0023957438612716452,0.002421568911012146,-0.011957532324730822,0.00676266321139759,0.9867344604033661
2013-05-14,1,0.0034810152402441463,0.003684952239624488,-0.011957532324730822,0.006054650846078475,0.9876655808313425
2013-05-16,1,0.003046223646247937,0.003159071229253783,-0.011957532324730822,0.0060049147824425015,0.9882425281014167
2013-05-20,1,0.00023831381577841182,0.0005050421872740559,-0.005249396683468213,0.00676266321139759,0.9895508532411498
2013-05-22,1,5.8757192206326586e-05,0.00038562851428241055,-0.014767783585478306,0.00676266321139759,0.9874067742574203
2013-05-24,0,-0.0003594788249516585,1.814709304123513e-05,-0.014767783585478306,0.00676266321139759,0.9873629274613448
2013-05-29,-1,-0.0009334962763759881,-0.0005380146185833502,-0.011957532324730822,0.007574383046021743,0.9877635633698325
2013-05-31,-1,-0.0032009064713294966,-0.0025086666962490026,1.5051628494202186e-05,0.008011795971205545,0.987999958686497
2013-06-04,-1,-0.0027774969164066025,-0.002112570583446617,-0.002389948104145603,0.0077026179945713594,0.9887600250858583
2013-06-06,-1,-0.003271086904257736,-0.002545831041522243,-0.002389948104145603,0.007776004325832925,0.9883596729747982
2013-06-10,-1,-0.002703547929686156,-0.0020590570386904636,1.5051628494202186e-05,0.007776004325832925,0.9899393817411457
2013-06-12,-1,-0.0022652286704648236,-0.0016914241779358878,-0.0022208254483938967,0.008475217987896137,0.9893166832060613
2013-06-14,-1,-0.0017937774857729755,-0.0012914660191268258,-0.0030363716120315235,0.010020005711502359,0.9890131371746497
2013-06-18,-1,-0.0012782346735187658,-0.0008259625607600417,-0.0030363716120315235,0.008475217987896137,0.9901584207120602
2013-06-20,-1,-0.0038218415924791463,-0.0030544309741185145,-0.0021530977150178003,0.010020005711502359,0.9899859689443775
2013-06-24,-1,-0.0035063446181757825,-0.002787467098282447,-0.0021530977150178003,0.010020005711502359,0.9904143181355747
2013-06-26,-1,-0.0028835488312625992,-0.0022424364598764403,-0.0026640657561515274,0.008710118412266073,0.9907609650861516
2013-06-28,-1,-0.002751651376973881,-0.002120740776429955,-0.0026640657561515274,0.008336232709220773,0.990829373870644
2013-07-02,-1,-0.0025150626834656254,-0.001926316506258803,-0.0026640657561515274,0.008336232709220773,0.9906513138087639
2013-07-05,-1,-0.0025669488425214024,-0.002005718016123165,-0.0023852052331546927,0.009593446397791323,0.9909375355198161
2013-07-09,-1,-0.0020830518411409735,-0.0015753343131394801,-0.0023852052331546927,0.008336232709220773,0.991903439058173
2013-07-11,-1,-0.0007608834925441946,-0.0004545926479691139,-0.0023852052331546927,0.008336232709220773,0.9926326761300992
2013-07-15,-1,-0.0006973649969026362,-0.00042452176679476285,-0.0020429176830174074,0.006038374538118965,0.9935678361276583
2013-07-17,-1,-0.0009489296555986818,-0.0006514538293701007,-0.0010522721642055967,0.006038374538118965,0.9926682476150862
2013-07-19,1,1.2800168818130468e-05,0.00019605339420686264,-0.004381810740421318,0.003286860558202768,0.9932074142889716
2013-07-23,1,0.0002502275864166241,0.0003782860028989749,-0.004381810740421318,0.003286860558202768,0.9932580252337954
2013-07-25,0,-6.368597165704341e-05,7.739320841819832e-05,-0.004381810740421318,0.003390548240778301,0.9932658670551929
2013-07-29,0,-0.0001037359294829486,6.28381759442454e-05,-0.009185269342720855,0.003390548240778301,0.9921211835865938
2013-07-31,-1,-0.0004726897533313861,-0.00025832130601737176,-0.008096829286622413,0.0022645559034897883,0.9922266714279961
2013-08-02,0,-3.074838289962708e-05,0.00012393253771295618,-0.00979138639723515,0.0019412178874084912,0.991372571485518
2013-08-06,1,1.562229358726281e-05,0.0001544136346315994,-0.010941713390712782,0.002096546318994961,0.9908108804315751
2013-08-08,0,-4.399889332371975e-05,0.00010772589401997565,-0.014908376095919617,0.002070552659511976,0.9904706113596399
2013-08-12,1,0.0006078244900382275,0.000641398955746514,-0.017885504386777794,0.0009657867718408837,0.9895792095308531
2013-08-14,-1,-0.00012025824447482064,-1.3711599575654335e-05,-0.01488426656554196,0.0013088304801990493,0.9901856177363673
2013-08-16,-1,-0.00036101288487700556,-0.00026144953245058826,-0.010941713390712782,0.00347757429221666,0.9898246856346989
2013-08-20,1,0.00010642571780254329,0.00011181392359057542,-0.011605912934128701,0.004376698585421444,0.9885523784993928
2013-08-22,1,0.00021827201600851292,0.00024655433492334596,-0.010179720879225938,0.00347757429221666,0.9887247431678808
2013-08-26,-1,-0.000708938858128648,-0.000595614309758253,-0.009598611987367453,0.002797735904689671,0.9902941927548434
2013-08-28,-1,-0.0010176518644272963,-0.0008739921800352942,-0.009598611987367453,0.002797735904689671,0.9906871462260238
2013-08-30,-1,-0.0019877912558384117,-0.0017426547493105315,-0.009586671673902732,0.002797735904689671,0.9917323859901116
2013-09-04,-1,-0.0021892719541794434,-0.001921049141912566,-0.009411890720442836,0.002797735904689671,0.9915458871934673
2013-09-06,-1,-0.0023292963592985933,-0.002093321334691124,-0.008770180671799736,0.00246298822371962,0.992550763219511
2013-09-10,-1,-0.0033790937096873797,-0.002992311901082746,-0.007323528603891496,0.00246298822371962,0.9932804661084182
2013-09-12,-1,-0.0030289934024769665,-0.0027046247550029405,-0.007323528603891496,0.00246298822371962,0.9922512209566311
2013-09-16,-1,-0.0020932863902645275,-0.0018608553090428952,-0.007323528603891496,-0.0002177083452164462,0.9936388441904638
2013-09-18,-1,-0.0014759601215513015,-0.0013283736149109484,-0.0063970446762784145,0.0014186647531501235,0.9937141458473461
2013-09-20,-1,-0.0021588912818686114,-0.0019445607426114256,-0.0060757455786847915,0.0020450934120313548,0.9943458410281497
2013-09-24,-1,-0.002167920932674371,-0.0019607409480254957,-0.005989814343541485,0.003308729898484769,0.9930975054739997
2013-09-26,-1,-0.0023751232767102986,-0.002135129305007594,-0.005989814343541485,0.003308729898484769,0.9932121985204945
2013-09-30,-1,-0.002677196703679617,-0.0024188641353942676,-0.0036605185382929638,0.006270508753443029,0.9929009119570149
2013-10-02,-1,-0.002349895783054652,-0.0021257984001107327,-0.0036605185382929638,0.006270508753443029,0.9931223342453669
2013-10-04,-1,-0.00200170471469084,-0.0018786274526091024,-0.0036605185382929638,0.006270508753443029,0.9929116543583062
2013-10-08,-1,-0.002398710259834024,-0.0022315346813325822,-0.0018325087491967303,0.006270508753443029,0.9927079013998861
2013-10-10,-1,-0.002185191449807137,-0.001977212475176306,-0.0036605185382929638,0.006270508753443029,0.9926655034083943
2013-10-14,-1,-0.002014685533627071,-0.0018304360165386038,-0.0021860667593427874,0.006270508753443029,0.9923913776041947
2013-10-16,-1,-0.001352590683923001,-0.0012423452956155832,-0.0060721447716705155,0.006270508753443029,0.9925619568737948
2013-10-18,-1,-0.0018011697577587837,-0.00160170786120278,-0.0060721447716705155,0.007420356782228772,0.9921285799437964
2013-10-22,-1,-0.001600847701303122,-0.0013491453052562371,-0.008658506768650261,0.00459239938501401,0.9900409257784348
2013-10-24,-1,-0.0012025003984544543,-0.0010452691323258635,-0.009003202342134699,0.007164884865894885,0.9891509048385346
2013-10-28,-1,-0.000965006430134882,-0.0008265087924159101,-0.010576625142615955,0.0077684492995267525,0.9884698581526643
2013-10-30,-1,-0.0007995597187326461,-0.0006946539905359453,-0.010576625142615955,0.004210799438286832,0.9892082463950732
2013-11-01,-1,-0.0006710893904276028,-0.0005977699707303252,-0.01027097213181704,0.004210799438286832,0.9896230632110081
2013-11-05,-1,-0.0006556711546734087,-0.0006025590616190067,-0.010028160895265571,0.0077684492995267525,0.9882306137911634
2013-11-07,-1,-0.0007797984714445637,-0.0007520557174924146,-0.004274535947850774,0.0077684492995267525,0.9868375231672109
2013-11-11,-1,-0.001623118786998332,-0.0014050102596321818,-0.010028160895265571,0.0077684492995267525,0.9851548718004662
2013-11-13,-1,-0.0010490768433371515,-0.0009176345320621403,-0.009454353170947411,0.00556808989204026,0.9856868432168246
2013-11-15,-1,-0.0006615006592510067,-0.0005992945758234513,-0.009454353170947411,0.005039546286752013,0.9858905357308684
2013-11-19,-1,-0.003037954791115853,-0.002713700687369952,-0.0018127439568196117,0.008720356268106837,0.9858693797454554
2013-11-21,-1,-0.0028777583608798883,-0.0025881630338920273,-0.002880207353127596,0.007134725452242096,0.9866245213812788
2013-11-25,-1,-0.003192840864062652,-0.0028591953601731553,-0.0018127439568196117,0.005039546286752013,0.9873185132383815
2013-11-27,-1,-0.0027591826019726547,-0.002505688957681722,-0.0018127439568196117,0.006851528340500356,0.9869058658761949
2013-12-02,-1,-0.0021655443625636997,-0.00202988712569599,-0.001621488798927595,0.006851528340500356,0.9870822549103381
2013-12-04,-1,-0.0006323078132768931,-0.0005841034000018483,-0.0036365008093045244,0.004487040544811491,0.9886379946791622
2013-12-06,1,0.001309657500293686,0.001602588610005435,-0.0036365008093045244,0.004487040544811491,0.9911629884443557
2013-12-10,1,0.00017058180235425687,0.0003740021844737105,-0.0036365008093045244,0.004487040544811491,0.9926822396864126
2013-12-12,1,0.0005730584519988725,0.0008320783704778505,-0.0036365008093045244,0.006049573739281088,0.9921981737902689
2013-12-16,1,0.00039887342334225676,0.0006119247471290138,-0.005791764380711768,0.008249941583521199,0.9917201455572082
2013-12-18,1,0.0025950141121157165,0.0031130613081301554,-0.006775120084371627,0.0035812704225489343,0.9918758041710164
2013-12-20,1,0.0017961337127808353,0.0021987600541411335,-0.005791764380711768,0.007563959525690442,0.9927740842730504
2013-12-24,1,0.002247116427367462,0.0027361924249062336,-0.006775120084371627,0.008249941583521199,0.9917367305210417
2013-12-27,1,0.002694121209679684,0.003247322236006591,-0.007757998880336931,0.007563959525690442,0.991558922937165
2013-12-31,1,0.0026973724175897293,0.0032590643335017426,-0.009101884660403538,0.007563959525690442,0.9906368435994526
2014-01-03,1,0.0022699960373518046,0.002790499005014731,-0.009101884660403538,0.007563959525690442,0.9902044906951879
2014-01-07,1,0.002419999317819756,0.002925665033917777,-0.009101884660403538,0.005773757796177727,0.9902560896240679
2014-01-09,1,0.0019715795222588353,0.0023862086192003844,-0.009101884660403538,0.007437546189030241,0.9906495329511037
2014-01-13,1,0.0017239595102119096,0.0021068543868631856,-0.007757998880336931,0.007437546189030241,0.991203177167913
2014-01-15,1,0.0018569349594416567,0.0022605243649905576,-0.006060733448143968,0.006467041954966554,0.9918445759758572
2014-01-17,1,0.0010916811868982006,0.0013501830089496722,-0.002044368826841561,0.006467041954966554,0.9909762797914226
2014-01-22,1,0.0013352604872958187,0.0016082505787678,-0.002044368826841561,0.006346645588508265,0.9911612304759808
2014-01-24,1,0.0010608817396325814,0.0012551537954844363,0.000470990184186779,0.006271969874515365,0.9916347804432173
2014-01-28,1,0.0007304786998877098,0.0008695897825781627,-0.002044368826841561,0.006271969874515365,0.9907921101820328
2014-01-30,-1,-0.00013385302950862554,-0.00012318288914180196,-0.0014271485379720936,0.006271969874515365,0.9911199468892185
2014-02-03,-1,-0.0016151185390333713,-0.0014004239601733762,-0.0014271485379720936,0.006712371402773828,0.990836154696311
2014-02-05,-1,-0.0013918777379659099,-0.0012034550097546743,-0.0017214602548360236,0.006712371402773828,0.9912288340829623
2014-02-07,-1,-0.0004083528798606391,-0.00037818141319040133,-0.0017214602548360236,0.006271969874515365,0.9918325548783279
2014-02-11,1,0.00025977295837982403,0.0003390149506199515,-0.003274375821538253,0.005844526593077667,0.9917244947005773
2014-02-13,-1,-0.00017499989953633876,-0.0001525216588206607,-0.0044166989156162306,0.005844526593077667,0.9915855030550872
2014-02-18,1,0.0012364721460864968,0.0013894957315582594,-0.0044166989156162306,0.005240581607366008,0.9936165524656719
2014-02-20,1,0.0013297142576739617,0.0014890436334500236,-0.004994755646144275,0.005240581607366008,0.9928182240040088
2014-02-24,1,0.0012462352417042626,0.0013665487034062247,-0.0056677053579797946,0.004216528508268825,0.9926852518332803
2014-02-26,1,0.0006777883831398905,0.0007402976852849743,-0.005005072278864029,0.004216528508268825,0.9936429444353897
2014-02-28,1,0.0005908016787822358,0.0006121064510241105,-0.005005072278864029,0.005580984069620734,0.9934802050455979
2014-03-04,1,0.00080527974915683,0.0008269657036101019,-0.005005072278864029,0.005054684578766184,0.9941598375691438
2014-03-06,1,0.0009436910853661286,0.001038010695175097,-0.004647893241374574,0.006843556290783926,0.9942430776868804
2014-03-10,1,0.0008588717045430736,0.0009259680013877628,-0.005797008475175275,0.007707620966666366,0.9933248688282188
2014-03-12,1,0.0014324890818818265,0.0016013573975301302,-0.00474624646041079,0.006843556290783926,0.9938230037143871
2014-03-14,1,0.0010111265760935095,0.0011181694766723798,-0.0061968065413229865,0.006843556290783926,0.993253945847528
2014-03-18,1,0.0017559511374871772,0.0020152012738746386,-0.006665795778248752,0.006843556290783926,0.9930813595042843
2014-03-20,1,0.001671525445153779,0.0018927760978151437,-0.0061968065413229865,0.006843556290783926,0.9935100676330433
2014-03-24,1,0.00131275833932245,0.0015018037377560322,-0.005861206106776906,0.0070294825425747595,0.9936481236666086
2014-03-26,1,0.0011097535388733802,0.0012676693986677662,-0.003796097525892601,0.0070294825425747595,0.9937241332895815
2014-03-28,1,0.0014808697101519742,0.0016821838636294547,-0.003796097525892601,0.0070294825425747595,0.9934241716281907
2014-04-01,1,0.0013840832830953626,0.0015601192869301888,-0.003796097525892601,0.00679294331303824,0.9937202056184882
2014-04-03,1,0.001258464397793036,0.0013858834841805046,-0.005870581682212265,0.006276954229605321,0.9933409619780833
2014-04-07,1,0.0012782440715006166,0.0014229908748807545,-0.005870581682212265,0.004864212497209929,0.9939840138649378
2014-04-09,1,0.0014151729364434815,0.0015954304962113304,-0.005870581682212265,0.005098184275617847,0.9938795717910139
2014-04-11,1,0.0008971908897916013,0.0010070014091682704,-0.003511533842740119,0.005098184275617847,0.9945748586785698
2014-04-15,-1,-0.0003212791916602611,-0.0001641738908450267,-0.003511533842740119,0.004451845535203348,0.994838834458012
2014-04-17,-1,-0.00022866942600495058,-7.361373114061917e-05,-0.005016890632754818,0.003763858345980309,0.9951686715916815
2014-04-22,-1,-0.00026237243598740175,-0.00010741441826822757,-0.0061421049139520146,0.003192361878139576,0.9944780737243778
2014-04-24,-1,-0.0005121320831227261,-0.0003170569925712598,-0.0061421049139520146,0.003192361878139576,0.9942818661657458
2014-04-28,1,5.949895820210274e-05,0.00019177135350646269,-0.0061421049139520146,0.003192361878139576,0.9941968952405894
2014-04-30,1,0.000623039588004371,0.0006272638986626286,-0.00502942511268147,0.003763858345980309,0.9937959719313291
2014-05-02,1,0.0009894518303830357,0.0011431768695861256,-0.004765242795364931,0.005207308943722056,0.9931860269824145
2014-05-06,-1,-7.985592556139154e-05,-1.3732154465766048e-05,-0.003101818129043063,0.0071596240965348295,0.9932527434244204
2014-05-08,1,0.00015844294701943099,0.00019295165587708682,-0.003101818129043063,0.0071596240965348295,0.9930835564489564
2014-05-12,1,7.30977102507126e-05,0.00012467805059163743,-0.004979277530175928,0.0071596240965348295,0.992576108244671
2014-05-14,1,0.0007414487398993022,0.0008641047109472946,-0.0046391763637004995,0.0071596240965348295,0.9924658617275393
2014-05-16,1,0.0004021466146907097,0.0004335918283268129,-0.004365099187512917,0.007334481090737066,0.9925574303591889
2014-05-20,1,1.3830029800878245e-05,3.006983238805618e-05,-0.003879986816290609,0.007334481090737066,0.993424722016162
2014-05-22,1,0.00020031958241493103,0.00022739367038431555,-0.003969817610256577,0.008431374562742455,0.9930996059489735
2014-05-27,1,0.0004096088243319177,0.0004483423035312848,-0.0046391763637004995,0.007106736855684206,0.9931699782030863
2014-05-29,1,0.0003718403140023442,0.00038186171700154293,-0.005476064240490041,0.007014898491144685,0.9933757820851763
2014-06-02,1,0.00028777987992826626,0.00030295613858121427,-0.0046391763637004995,0.007014898491144685,0.994119098681101
2014-06-04,1,0.0005721009622235978,0.0006200910301810298,-0.0046391763637004995,0.005843921238102099,0.9941806715748944
2014-06-06,1,0.0004710531586301863,0.0004855328629768584,-0.005346452783940642,0.003663485860975759,0.994249865818739
2014-06-10,1,0.0001336752593161289,0.0001580527960833421,-0.004928547407073092,0.003663485860975759,0.9946675643186658
2014-06-12,-1,-0.00018786982820969057,-0.00011465755334852623,-0.004747671494742469,0.003663485860975759,0.9950766207776018
2014-06-16,1,0.0002047794623355416,0.0002262338919960409,-0.005674183941669155,0.0028831443723910687,0.9941758033447918
2014-06-18,1,0.0005425477247710247,0.000577567937368515,-0.007057511528821203,0.0028831443723910687,0.9930562626456856
2014-06-20,1,0.00024772204577681205,0.0002687477292833239,-0.007057511528821203,0.0034936889903974377,0.993539225716621
2014-06-24,-1,-0.0004573141667618797,-0.00032931093410573165,-0.005674183941669155,0.0034936889903974377,0.994096196545779
2014-06-26,-1,-0.0008639147106202215,-0.0006690504008163332,-0.005256018071128883,0.0034936889903974377,0.9942619236231972
2014-06-30,-1,-0.0006766581553915527,-0.000503716159839305,-0.005256018071128883,0.0010369393031265115,0.9947235634195333
2014-07-02,-1,-0.0004481782059488439,-0.0003112608396642963,-0.007348173997167992,-0.00045008386007283613,0.9931786359492512
2014-07-07,-1,-0.0006600620709447896,-0.0005041502129226464,-0.006094457866565343,0.0015258868629360438,0.9930005700441533
2014-07-09,-1,-0.0009599994226894198,-0.0007628541661933244,-0.008943120103211608,0.004783871131480898,0.9923972413821701
2014-07-11,-1,-0.00032585800940210317,-0.00024720097425165097,-0.008943120103211608,0.005209484899732865,0.9916470723599766
2014-07-15,-1,-0.0009136487731558277,-0.0007704805636002136,-0.00609419737289262,0.007050118974175265,0.9923512268615878
2014-07-17,-1,-0.0010375335451308036,-0.0008918452501021214,-0.004592836308218644,0.006843569950046921,0.992934673893973
2014-07-21,-1,-0.0008500151405396128,-0.0007015292168932959,-0.005371500082603271,0.008276696532502955,0.9927943080993663
2014-07-23,-1,-0.0013840811870769762,-0.0011740716237049911,-0.004592836308218644,0.008276696532502955,0.9926183673916814
2014-07-25,-1,-0.0012997959680269586,-0.001125688065540693,-0.004708405150917273,0.008276696532502955,0.992102383166895
2014-07-29,-1,-0.0016046940601672018,-0.001377907593486645,-0.0024959267511269726,0.008276696532502955,0.9915519047175142
2014-07-31,-1,-0.002512846943438691,-0.002183909103044942,0.0016386332226730517,0.008276696532502955,0.9922387357707863
2014-08-04,-1,-0.001785681328269906,-0.0015691890439199347,-0.001050562322396609,0.00644838463010166,0.99335442887747
2014-08-06,-1,-0.001779835983112009,-0.0015505968275279884,-0.002018425788806433,0.005825279599901507,0.9940627498571896
2014-08-08,-1,-0.0013266764961301367,-0.001167867934484197,-0.0038601698443859835,0.005825279599901507,0.9933246704669023
2014-08-12,-1,-0.0010212828473162793,-0.0009067406820589264,-0.003942451248835143,0.0057244091904165295,0.993615755604914
2014-08-14,-1,-0.0007994436770814121,-0.0006946498997431514,-0.004248848994942055,0.0053259305050769815,0.9928356774231665
2014-08-18,-1,-0.0007584944956599399,-0.0006482578915252857,-0.003942451248835143,0.004770876375334575,0.9932721442179907
2014-08-20,-1,-0.00035180371255602935,-0.00030773154129716264,-0.004248848994942055,0.004770876375334575,0.9928804161455418
2014-08-22,-1,-0.0002896833790891528,-0.00026280793688187324,-0.005277969753392947,0.004206328438545457,0.9929591358120348
2014-08-26,-1,-5.364540696364915e-05,-4.8725175786747536e-05,-0.005277969753392947,0.00401563198310855,0.9927733695363886
2014-08-28,1,0.00011320375826672535,0.0001373386679940561,-0.006661274341153372,0.0048863119150302226,0.9921696581693139
2014-09-02,1,0.00011803746705104462,0.00014123067889142558,-0.006661274341153372,0.00546313714955487,0.9920179544871326
2014-09-04,-1,-0.00036530087587208893,-0.000314263473067493,-0.008742551044577641,0.00546313714955487,0.9917821560512063
2014-09-08,-1,-0.0007967869568341996,-0.0006892492307142735,-0.006661274341153372,0.00546313714955487,0.9928468247156768
2014-09-10,-1,-0.0008717673115018849,-0.0007614163824543103,-0.006661274341153372,0.005987405518258266,0.9926187437952915
2014-09-12,-1,-0.0006322749907836855,-0.0005632447874796642,-0.006661274341153372,0.005987405518258266,0.9929642310529241
2014-09-16,-1,-0.0006542069342626468,-0.0005832037393112865,-0.006661274341153372,0.007070981612461963,0.9925494431321705
2014-09-18,-1,-0.00030982501428014543,-0.00030276195536069314,-0.00781100588930134,0.006097759233298072,0.9926166749592271
2014-09-22,-1,-0.0007418828967008878,-0.0006858684275475968,-0.0063950078080826055,0.007750810739350382,0.9919241009343834
2014-09-24,-1,-0.0007108421539318188,-0.0006430619951371731,-0.0063950078080826055,0.007442336159640312,0.9923599083234995
2014-09-26,-1,-0.0010478062310146055,-0.000939254032975376,-0.00571167343916821,0.007442336159640312,0.9929188154252313
2014-09-30,-1,-0.0007682902217877432,-0.0007082510368634847,-0.00571167343916821,0.007750810739350382,0.9926252451646455
2014-10-02,-1,-0.0010960923743657891,-0.0010036541120282388,-0.00571167343916821,0.008321522888279934,0.992321548701523
2014-10-06,-1,-0.00030831769754091664,-0.00028329069472472887,-0.00571167343916821,0.0077587397676801015,0.9926447420573966
2014-10-08,-1,-0.0005206658424016955,-0.0004880106371656404,-0.0011318020938422906,0.008564424764336047,0.9925663589894422
2014-10-10,-1,-0.001599409646089879,-0.001407199532583355,-0.004490090692270884,0.008564424764336047,0.992676727664218
2014-10-14,-1,-0.001374665778714263,-0.0012173952535472373,-0.0010028989829542851,0.007237430814341835,0.9929873807791412
2014-10-16,-1,-0.0016496520558085498,-0.001478971462250384,-0.00011397571376017646,0.007237430814341835,0.9929489897362805
2014-10-20,-1,-0.0004174919123526344,-0.0004085396878700149,-0.0009120438892896693,0.006084869367896576,0.9939436216989637
2014-10-22,-1,-0.00011253269562344552,-6.50756124314914e-05,-0.0009120438892896693,0.006188438211704432,0.9939856018886691
2014-10-24,1,0.00020835431812413403,0.00030982828122977347,-0.0023795602690139836,0.006188438211704432,0.9941004692419456
2014-10-28,1,0.0009036271318399702,0.0011261166317709567,-0.0030105290579139766,0.0059556872029280054,0.9944696269120005
2014-10-30,1,0.000806105979593475,0.0009874508791649634,-0.0030105290579139766,0.0059556872029280054,0.994165858945648
2014-11-03,1,0.0009653149097777433,0.0011516247965732249,-0.004406831293691172,0.0037141809423475213,0.9935839997658501
2014-11-05,1,0.0014931937526123005,0.0017661114542969784,-0.00498234884205344,0.0015119891047939778,0.9927570613028809
2014-11-07,1,0.0011153282862546607,0.0013533365351631414,-0.004406831293691172,0.003527832615564462,0.9933551997453688
2014-11-11,1,0.0014823055037469324,0.0017859171972305584,-0.004406831293691172,0.0021998875627437854,0.9932603124404644
2014-11-13,1,0.000877614709097931,0.001071210007227427,-0.004406831293691172,0.003527832615564462,0.9930309649949636
2014-11-17,1,0.001249376663878354,0.001477843134344861,-0.006104336273959421,0.0021998875627437854,0.9926573285793722
2014-11-19,1,0.0016391460756864295,0.0019417993193151374,-0.006104336273959421,0.003998487610828319,0.9914855490643937
2014-11-21,1,0.0018031474680342704,0.002143925224850931,-0.006104336273959421,0.006241995754904058,0.9914125454486514
2014-11-25,1,0.0015222505477370761,0.0018062174495578692,-0.005733090008627819,0.006241995754904058,0.9916359987617962
2014-11-28,1,0.001823426737835656,0.0021326601557046894,-0.005733090008627819,0.0057149188166724825,0.9924812635614412
2014-12-02,1,0.0013140012166738151,0.0015554975801228064,-0.00643693811029044,0.0057149188166724825,0.9924032846395329
2014-12-04,1,0.000368930470075549,0.00044113387094639266,-0.00643693811029044,0.0057149188166724825,0.9926183612292774
2014-12-08,1,0.000566804320109077,0.0006485614765578364,-0.007108772471790963,0.0057149188166724825,0.9906706089505941
2014-12-10,1,0.0006518954195624851,0.0007618846784542592,-0.007108772471790963,0.006360645213096562,0.9901798045948584
2014-12-12,1,0.0002941314113426378,0.00034027688307273574,-0.006021009009659909,0.0057149188166724825,0.9911191549155682
2014-12-16,-1,-0.0005774921546093219,-0.0005070777355826168,-0.001554217501443099,0.0070671183370500015,0.9915151989709962
2014-12-18,1,0.0003350850111059398,0.00036615701671541343,-0.001554217501443099,0.006469694981875886,0.9923570259611111
2014-12-22,-1,-0.00011591317106730771,-2.8157468416149925e-05,-0.001554217501443099,0.007188973626263243,0.9922815826645625
2014-12-24,1,0.00016560410331516021,0.00019822599051970267,-0.0035906660705034683,0.007188973626263243,0.9916808463213017
2014-12-29,1,0.00028237899861900955,0.0003031200103486902,-0.006021009009659909,0.007188973626263243,0.9909569595284968
2014-12-31,-1,-0.00017444219630443006,-0.00011522124705328065,-0.0050414597522851065,0.008778669599853165,0.9904350431732709
2015-01-05,-1,-0.0004973890581653199,-0.00041580898849898887,-0.003264149651378534,0.010282610008040332,0.9900031415848782
2015-01-07,1,0.0008957170123255638,0.0010118200248173126,-0.0010431159999984149,0.010545496954996202,0.9918035010886411
2015-01-09,1,0.0012122521702426661,0.001374481474010164,-0.0014520656315366808,0.01006808207300554,0.9919625246697993
2015-01-13,1,0.0013825743224566845,0.0015806740723707782,-0.004245750156879395,0.010153713074200526,0.9915036086057598
2015-01-15,1,0.0016623524331371283,0.0018877752366890928,-0.006278253930210604,0.010008996757751912,0.9909219302200784
2015-01-20,1,0.0021922071415383607,0.0025026068427878613,-0.006278253930210604,0.009322677320906728,0.9912754549658147
2015-01-22,1,0.002551193760823637,0.002919442631012051,-0.012375400898785227,0.009322677320906728,0.9905664949538336
2015-01-26,1,0.0020749524313978,0.002373622800047481,-0.006278253930210604,0.010153713074200526,0.9909581993511228
2015-01-28,1,0.0013207568282174362,0.0015028587938323858,-0.0060330055410966685,0.010153713074200526,0.991188257874833
2015-01-30,1,0.0010147682934197656,0.0011193318379778283,-0.0027658685532500997,0.009322677320906728,0.9924412370943119
2015-02-03,1,0.0016327103555128168,0.00181748415255227,-0.0060330055410966685,0.005447364526294171,0.99251163724305
2015-02-05,1,0.0022853301127250805,0.0025531566442579764,-0.012137892480935001,0.0035669057151843805,0.9919360090157688
2015-02-09,1,0.002008991271347788,0.002245419437847956,-0.00901350733815627,0.0036451803445695713,0.991981999525701
2015-02-11,1,0.0020315336613069075,0.0022585801114886504,-0.010882972896052842,0.0036451803445695713,0.9915452592959677
2015-02-13,1,0.0010994207471855116,0.0011742986620736405,-0.00809732841178964,0.0036451803445695713,0.9927291238411677
2015-02-18,1,0.0013538732336222685,0.0014664936164280173,-0.00809732841178964,0.0036451803445695713,0.9926719956425096
2015-02-20,1,0.0007125870299851011,0.0007215561389065275,-0.004179272738886196,0.004758605923963087,0.992927544758458
2015-02-24,1,0.00103264953316061,0.0010850392576703411,-0.006793022066756911,0.0036451803445695713,0.9930146389239782
2015-02-26,1,0.000131949300763845,0.00021806177592308633,-0.006793022066756911,0.0036451803445695713,0.9936067502021103
2015-03-02,1,0.00044242169902047505,0.0004785723212046412,-0.006793022066756911,0.006811992966988385,0.9922933653535408
2015-03-04,1,5.399236972415596e-05,0.00013503821610760602,-0.003952222352530461,0.006811992966988385,0.9931416830313559
2015-03-06,-1,-0.0011351450572112784,-0.0008953278375747726,-0.002427310275653607,0.006811992966988385,0.9942141156550547
2015-03-10,-1,-0.0011481273682414066,-0.0009066539816504605,-0.002427310275653607,0.003338859296796428,0.9943194778869773
2015-03-12,-1,-0.001475497421963658,-0.0011649107408567543,-0.002427310275653607,0.002210888653984777,0.9950259570931104
2015-03-16,-1,-0.0010109824295000962,-0.0007978507909862458,-0.002427310275653607,0.00628694825982737,0.9943622212072893
2015-03-18,-1,-0.0008630511844020645,-0.0006711273309664619,-0.0017538722144880238,0.003425657418383415,0.9946812914485118
2015-03-20,-1,-0.0005697962777785244,-0.0004199231298198588,-0.0026251219904449286,0.0029254471433447903,0.9948207460621017
2015-03-24,-1,-0.0006262975849207399,-0.0004905030014199477,-0.0026863680561241563,0.0029254471433447903,0.9946870797280736
2015-03-26,-1,-0.0008302808028928301,-0.0006777624154262189,-0.0023771967953302637,0.0029254471433447903,0.994778219791116
2015-03-30,1,0.00035647132973628734,0.0003570873558517927,-0.004849048673986849,0.0015154259906416069,0.9960586335821467
2015-04-01,1,0.0005872775699866867,0.0006373375772839683,-0.005952720712833782,0.0012932964035493294,0.9952585566861109
2015-04-06,1,0.00030398601306428177,0.00032258838475060394,-0.005952720712833782,0.002831645278090859,0.9942616322993668
2015-04-08,1,7.038524851184245e-05,0.00010725683560840465,-0.005952720712833782,0.0020200445954163563,0.9944102206335522
2015-04-10,-1,-0.0005500573694838826,-0.0004174907553386384,-0.005249331109083428,0.004958541931880253,0.9942871589890007
2015-04-14,1,0.00024814836241677883,0.0002612233646541142,-0.005249331109083428,0.0031716620029855454,0.9946963526206862
2015-04-16,1,0.00031530876947468615,0.00031896694812463486,-0.005249331109083428,0.004265095928672039,0.9939546072457268
2015-04-20,1,0.00019611609268222456,0.0002080223751016463,-0.004717642559668028,0.00467713633611846,0.9940894474626235
2015-04-22,-1,-0.0001440832879366069,-8.441585082892965e-05,-0.004285489151420526,0.00467713633611846,0.994527764840568
2015-04-24,-1,-0.00011570189124780999,-8.120162147578271e-05,-0.003184591252601205,0.00656993256982685,0.9935398222401335
2015-04-28,-1,-0.0007177683564505658,-0.0005860285142180444,-0.0028465565276642067,0.0077617366978334984,0.9933552524409085
2015-04-30,-1,-0.00169470978770029,-0.0014170119321840402,-0.0013344831241983845,0.0077617366978334984,0.9934651119658963
2015-05-04,-1,-0.0007453130076031898,-0.0005951731779868712,-0.0017751917551254576,0.00656993256982685,0.9943510516852105
2015-05-06,-1,-0.0012169062850514178,-0.001007660169555952,-0.0017751917551254576,0.00656993256982685,0.9942409458324821
2015-05-08,-1,-0.000940605418264059,-0.0007499105109166318,-0.004057870661629183,0.0050965282894039595,0.994322708264707
2015-05-12,-1,-0.0014013436948413743,-0.0011172560790219197,-0.004057870661629183,0.005914856706112463,0.9938569568791038
2015-05-14,-1,-0.00044163794439603857,-0.0003183750328469845,-0.004057870661629183,0.005657670085598257,0.9945457418114921
2015-05-18,-1,-7.939913762691964e-05,-1.3182954419778002e-05,-0.005710835997661578,0.005657670085598257,0.9931662496757364
2015-05-20,-1,-0.0001713195299662075,-9.377757562443591e-05,-0.005710835997661578,0.005914856706112463,0.9925559853140676
2015-05-22,1,0.0007338910602823701,0.000774982503324966,-0.005710835997661578,0.005657670085598257,0.9936331710633596
2015-05-27,1,0.00045683111221248663,0.0004863186643304207,-0.005869624169995117,0.004715034003289429,0.9939077501060007
2015-05-29,1,0.00019774751852851978,0.0002867575637675695,-0.006176806936168549,0.0034625506911945096,0.9938367026053935
2015-06-02,1,0.00037184746918319026,0.00038308123199136537,-0.006176806936168549,0.004761721882801912,0.9929548859410852
2015-06-04,1,8.943298681766759e-05,0.00011769636437419871,-0.0056395673606047005,0.004761721882801912,0.9932414759595337
2015-06-08,-1,-0.00046033966925214284,-0.00037205577992150465,-0.004271500013068307,0.005914856706112463,0.9928734056100225
2015-06-10,1,0.0001683347646621202,0.0001736183108334711,-0.0068884405938697876,0.0040946305780509215,0.9926064583157868
2015-06-12,1,0.0003817726330511647,0.0004483101789333722,-0.0068884405938697876,0.0058248689260284835,0.9920716516186336
2015-06-16,1,0.001077866552798523,0.0012554094613045907,-0.0068884405938697876,0.004880337926866301,0.9929523537692491
2015-06-18,1,0.0012367423895682456,0.0014086546357252759,-0.0068884405938697876,0.0048755290616210095,0.9928942091369459
2015-06-22,1,0.0009066969427061687,0.0009979827069966421,-0.0068884405938697876,0.0048755290616210095,0.9924634405145499
2015-06-24,1,0.000661287899379281,0.0007161272588263403,-0.0068884405938697876,0.0069630279367315405,0.9918473398589511
2015-06-26,1,0.0008546144531266741,0.0009717857831822599,-0.0058074595906009874,0.0069630279367315405,0.9922480111457207
2015-06-30,1,0.0011011618465008222,0.001292676758944755,-0.00524131863040648,0.0069630279367315405,0.9927673869655829
2015-07-02,1,0.0010263314084683138,0.001196099582693544,-0.00524131863040648,0.009137545396958916,0.9926513010993876
2015-07-07,1,0.0013069386287607788,0.0015239701108969894,-0.004261136103004217,0.009137545396958916,0.9930520784425828
2015-07-09,1,0.0005258245245085152,0.0006057324598618828,-0.0032480311826108645,0.009532728980281357,0.9931778187015077
2015-07-13,1,0.0011068989106138962,0.0012800987816310107,-0.0036575842225909003,0.009137545396958916,0.993572805869822
2015-07-15,1,0.0006911150532714617,0.0007820711819896265,-0.003262235050767671,0.009137545396958916,0.9941141542087503
2015-07-17,1,0.0010266051239754197,0.0011834576108664162,-0.0031553652456114776,0.008926801054358693,0.9942360699092102
2015-07-21,1,0.0005164415557108999,0.0005768549302018122,-0.002875773232416085,0.008926801054358693,0.9940758104107368
2015-07-23,1,0.0010385890161631816,0.0011774343401617208,-0.0033795864115927395,0.007019544634834879,0.9944897717433007
2015-07-27,1,0.0010223319823647397,0.001139013769517323,-0.004599069059614811,0.007019544634834879,0.9918160507055026
2015-07-29,1,0.0006533335849409548,0.0006793432057050847,-0.0048003117580695046,0.007019544634834879,0.9905725270742631
2015-07-31,1,0.0009255091060005587,0.000987114683439959,-0.0048003117580695046,0.006196024109898529,0.9907831083470778
2015-08-04,1,0.0010747566119860118,0.0011582190007237351,-0.0074372468962803084,0.004511878241331824,0.9902024769258151
2015-08-06,1,0.0012240122505516446,0.0013315876885535162,-0.0074372468962803084,0.004511878241331824,0.9892747291204087
2015-08-10,1,0.0012219118861037301,0.001330363362352939,-0.010223545793817498,0.006774351094602267,0.9876115718639188
2015-08-12,1,0.0012753961919538667,0.0013945838926954371,-0.012459506817668019,0.008772381745085576,0.9867618690931791
2015-08-14,1,0.0012507963300053527,0.0013509041674687355,-0.012459506817668019,0.00679220725074175,0.9870882112674677
2015-08-18,1,0.0008390663512813402,0.0008678389624219144,-0.012459506817668019,0.015490241288866446,0.9856738554188222
2015-08-20,1,0.0008865639793291438,0.0009678923684567596,-0.012459506817668019,0.015490241288866446,0.9859186338076084
2015-08-24,-1,-0.0005729332289634027,-0.0004775278309184849,-0.007087680473131257,0.015490241288866446,0.9874924745158169
2015-08-26,-1,-0.00027655358239025247,-0.000218221729683023,-0.004912665115658789,0.010457082141019439,0.9893950299082204
2015-08-28,-1,-0.00023582423219851276,-0.00016951025656299215,-0.007087680473131257,0.011610382273554189,0.9884890025920778
2015-09-01,-1,-0.0009516912462679879,-0.0007892859717860367,-0.004912665115658789,0.011610382273554189,0.9893845470694701
2015-09-03,1,0.00023844083465696738,0.00024326225169561986,-0.007087680473131257,0.00921038359101561,0.9901231967474715
2015-09-08,1,0.0006778207579784862,0.000727447179182816,-0.007087680473131257,0.00921038359101561,0.9909610288182658
2015-09-10,1,0.0004845347741037576,0.0005025947633990214,-0.004912665115658789,0.009819505859036747,0.9915215366068331
2015-09-14,1,0.0005273416930823363,0.0005390513422455809,-0.007001414639876643,0.009819505859036747,0.9913593582074275
2015-09-16,1,0.001432315792238212,0.0015496395467715913,-0.008834652311733318,0.005036013530558597,0.9917491074360204
2015-09-18,1,0.0010277672496018984,0.001075481390880744,-0.008575854811969475,0.005036013530558597,0.9922066196251569
2015-09-22,1,0.0006278403888604874,0.000659342759587767,-0.008575854811969475,0.002540116188721861,0.9927329749895534
2015-09-24,1,0.000883964113200115,0.0009150983769427891,-0.008575854811969475,0.005743495755502286,0.9912919646777641
2015-09-28,1,0.0004224179864025895,0.00047377455425947615,-0.005001703353426208,0.0037362540021791653,0.9925127005228569
2015-09-30,1,0.00048784742738288073,0.0005138855775805761,-0.00789498528057936,0.0037362540021791653,0.9919506130041094
2015-10-02,1,0.000389707210239516,0.0004274587616184272,-0.007862438605910063,0.0037362540021791653,0.9923948485352327
2015-10-06,1,0.0006098060552824714,0.0006121291627066906,-0.007862438605910063,0.0022413762089255255,0.9930394026377827
2015-10-08,1,0.0009273553264967988,0.0009799819939537572,-0.007862438605910063,0.0022413762089255255,0.9931638030829146
2015-10-12,1,0.0005994299584522963,0.0006004015359212833,-0.0080403560751114,0.0022413762089255255,0.9920091629888387
2015-10-14,1,0.00013347167040682632,0.00015088301280380848,-0.007655143443124266,0.0036701190892537185,0.9926040000627823
2015-10-16,1,0.00018412035041243517,0.00019011341662482028,-0.007862438605910063,0.0036701190892537185,0.9916904105181302
2015-10-20,1,0.00023550088074259746,0.00024237631327921825,-0.0080403560751114,0.004246885189382639,0.9904817489434964
2015-10-22,1,0.0011182239937613072,0.0012149903382143192,-0.0080403560751114,0.005153675721821919,0.9907151330838649
2015-10-26,1,0.0009436862115414115,0.0009916653846401041,-0.008616317922584065,0.008246428649616264,0.9893046402383744
2015-10-28,1,3.278377511682564e-05,0.00012608815842417835,-0.008518677898576174,0.01255115152254347,0.987741092844526
2015-10-30,1,0.00016978798030735086,0.00023243243606456732,-0.010454360372042355,0.01255115152254347,0.9871696168561475
2015-11-03,-1,-0.0003273716021759671,-0.0002021711914712366,-0.008617545851832985,0.01255115152254347,0.9871169716338745
2015-11-05,1,4.055147691584866e-05,9.691865930777855e-05,-0.008617545851832985,0.013425629521466972,0.9864615002810921
2015-11-09,-1,-0.0008260409320791147,-0.0006898504512468731,-0.007024742223030197,0.013425629521466972,0.9876880418250542
2015-11-11,-1,-0.000683135287586518,-0.0005649617438849483,-0.005266614396078775,0.013425629521466972,0.9884516885424838
2015-11-13,-1,-0.0013968129037960162,-0.0011861099213983824,-0.00289044501475376,0.013425629521466972,0.9882375291131076
2015-11-17,-1,-0.0014255129485322478,-0.0012058000441888118,-0.0011314803922218158,0.01152433231831474,0.9890273170602728
2015-11-19,-1,-0.000591426297564594,-0.0004614911057794814,-0.006257739500390787,0.010944223277496445,0.989536887934899
2015-11-23,-1,-0.00040465153485919514,-0.0002962397734453743,-0.00289044501475376,0.009916321881779792,0.9902626411280367
2015-11-25,1,0.001274570762480116,0.0013823075850768255,-0.004686276723174199,0.008790541750295186,0.992485688648724
2015-11-30,1,0.0007670846236201067,0.0007710658554611112,-0.002870959432594898,0.008081360073188895,0.9935181617621669
2015-12-02,1,0.0011594601700986667,0.0012375086682224414,-0.005747452943292134,0.007199592220834916,0.9930872991700084
2015-12-04,1,0.001236841314459454,0.0013121521431007828,-0.009265897921314832,0.0055391842395308985,0.9929427900750692
2015-12-08,1,0.00142654468238286,0.0015325695367514607,-0.011127013191557957,0.004945859377235242,0.9921754359601975
2015-12-10,1,0.0012323539004091377,0.0012964440425967804,-0.011127013191557957,0.005682148889585584,0.9918042327175216
2015-12-14,1,0.0011924622209861118,0.0012732803062303086,-0.011198488410432621,0.006255356887546629,0.9900285158914349
2015-12-16,1,0.001345573057013799,0.0014475661192235784,-0.011198488410432621,0.006255356887546629,0.9894383798414126
2015-12-18,1,0.0005498350511770442,0.0005644309544356689,-0.008903593848972857,0.008081360073188895,0.9893879264104609
2015-12-22,1,0.0011088307355592104,0.0012148342535023729,-0.008903593848972857,0.006255356887546629,0.9897421937198193
2015-12-24,1,0.0012308757718914095,0.0013623635834684696,-0.008903593848972857,0.0067519035101872,0.9898507888892346
2015-12-29,1,0.001572782980593197,0.0017724668247027949,-0.008903593848972857,0.010004521760058142,0.9892682548666256
2015-12-31,1,0.0009885248609109764,0.0011086999160102556,-0.003098274449361869,0.010815278473636161,0.9895420686446406
2016-01-05,1,0.0005886397244770125,0.0006523456622173639,-0.003098274449361869,0.010815278473636161,0.9899293476654958
2016-01-07,1,0.0001349257217390111,0.00014713307515004816,-0.003098274449361869,0.010815278473636161,0.9896218935733025
2016-01-11,1,0.0002836810320564803,0.000300253141089822,-0.003098274449361869,0.012466294549981913,0.989001139650158
2016-01-13,1,0.0007910467270782378,0.0008531224017022142,-0.003098274449361869,0.011964952645992465,0.9906345499203361
2016-01-15,0,-6.581938172686128e-05,6.219249115727802e-05,-0.0012289310324489103,0.012469448947395769,0.9899052308078553
2016-01-20,1,0.0006168081769432376,0.0006583124813096535,-0.00044937541550376736,0.012469448947395769,0.9902439071970636
2016-01-22,1,0.0009409187021791315,0.0009451551409027913,-0.0012289310324489103,0.012469448947395769,0.9905717309895714
2016-01-26,1,0.0007574321269345585,0.000814617952005135,-0.0028193614858284567,0.012469448947395769,0.9906690073142785
2016-01-28,1,0.001516208252780134,0.0016095473936316232,-0.003857243409204412,0.01311952238607755,0.9893747644086855
2016-02-01,1,0.0022285962774424833,0.00244200231173824,-0.00697490076655494,0.012882782752126131,0.9893531640437804
2016-02-03,1,0.0017329078269389695,0.0018679811051945504,-0.0043020449903785314,0.012882782752126131,0.9896020854348759
2016-02-05,1,0.0015077034327293697,0.001621369121636987,-0.0032660655362029105,0.012882782752126131,0.9908226336687481
2016-02-09,1,0.0027018269300435084,0.0030409940354653286,-0.0032660655362029105,0.011850109662740702,0.9911568238466774
2016-02-11,1,0.0025781429033956277,0.0028829017983096382,-0.0026766809778580023,0.012444939650728177,0.9913871363138788
2016-02-16,1,0.003490579835355398,0.0039098523673059375,-0.0032660655362029105,0.006856592773008062,0.9921463788828491
2016-02-18,1,0.004097164003668764,0.004590905742489798,-0.0032660655362029105,0.006856592773008062,0.9927879840125884
2016-02-22,1,0.003762554932389333,0.0041939751699080485,-0.002824948171582709,0.006856592773008062,0.9929906273713892
2016-02-24,1,0.0034790054982322184,0.0038614700012164506,-0.002824948171582709,0.006856592773008062,0.9925635746926516
2016-02-26,1,0.003855216117792403,0.0042796895906784815,-0.002824948171582709,0.005963264663286427,0.994218752495268
2016-03-01,1,0.003314838902461946,0.003667804823866569,-0.0004661798619579563,0.006856592773008062,0.9948455671479014
2016-03-03,1,0.00367736826216828,0.004090125087509588,-0.000982100948276889,0.007877018383355392,0.9936248284680174
2016-03-07,1,0.0035285163861430023,0.003897898916821623,-0.002921991501727419,0.007877018383355392,0.9928687104301285
2016-03-09,1,0.0034543914281088095,0.003756450759703827,-0.004515999177684105,0.0036826771700707926,0.9926702803481057
2016-03-11,1,0.00355520392247707,0.003862607194976238,-0.0051794508931380856,0.0036826771700707926,0.9929333511759946
2016-03-15,1,0.0031809041547170036,0.0034294431747927613,-0.0051794508931380856,0.0036826771700707926,0.9925309500629598
2016-03-17,1,0.0038040864127596953,0.0041970048467439725,-0.007188925437932526,0.0035457764319655038,0.9915774385422345
2016-03-21,1,0.0036407422313483985,0.004009847667140666,-0.009119789781653407,0.004346780001327623,0.9914315736794893
2016-03-23,1,0.0028275307071335474,0.00305314234894018,-0.009119789781653407,0.004346780001327623,0.9907579737817996
2016-03-28,1,0.0026477018029493916,0.002839696381316081,-0.009119789781653407,0.005239894518903407,0.9904284454380908
2016-03-30,1,0.002633378194014291,0.0027943464547940467,-0.009119789781653407,0.005239894518903407,0.9904716081460632
2016-04-01,1,0.002903399094138262,0.0030981547863156178,-0.009119789781653407,0.004858016903841339,0.9915032915658408
2016-04-05,1,0.001727506478170767,0.0017517914781991378,-0.0083709553729591,0.005239894518903407,0.9914125762192467
2016-04-07,1,0.0012496613049179399,0.0013335300449307474,-0.007180756477389158,0.005759619202208092,0.991576706535911
2016-04-11,1,0.0006203515415318945,0.000817327626957422,-0.007180756477389158,0.010758847858486036,0.9907062240452711
2016-04-13,0,-0.000191448345863095,0.0001059343259031787,-0.003523557791758909,0.010758847858486036,0.9911686249666352
2016-04-15,-1,-0.0002802591336476465,-1.4525985925266383e-05,-0.003328850866553684,0.011681867163013724,0.991074979612659
2016-04-19,-1,-0.000464349967194103,-0.00019632252860517555,-0.003999996894887511,0.011681867163013724,0.9900191295447942
2016-04-21,-1,-0.0007126099727396414,-0.0004736841945534924,-0.0026571629850053787,0.011681867163013724,0.9908206957586981
2016-04-25,-1,-0.00026404643367475365,-8.713422737747578e-05,-0.003828311940503369,0.010758847858486036,0.9887985669793984
2016-04-27,1,1.8695501272689586e-05,0.0001567445469892101,-0.0045335042756951705,0.011706726335691435,0.9883526953887867
2016-04-29,1,4.235873086143901e-05,0.00017092722879981132,-0.0045335042756951705,0.011706726335691435,0.988096338720713
2016-05-03,1,0.00020497238910060654,0.0003092888330256211,-0.0045335042756951705,0.010309003905456186,0.9883658005013489
2016-05-05,1,0.0005400965171545246,0.000606296490408263,-0.005347378044087245,0.010952679844757326,0.9880110524345741
2016-05-09,1,0.0011040017778742106,0.0011207880025591152,-0.005347378044087245,0.008048909546096394,0.988833487013568
2016-05-11,1,0.0012873857317275486,0.0012993261105536202,-0.005347378044087245,0.008581794661995967,0.9885004702240363
2016-05-13,1,0.0008935631561923381,0.0009754646885444367,-0.005347378044087245,0.008048909546096394,0.9890751142554554
2016-05-17,0,-2.0641907918610906e-05,0.0001487212732348777,-0.005347378044087245,0.008048909546096394,0.9902844844608936
2016-05-19,0,-5.6156528275939075e-05,0.00011884843976484743,-0.0050563331992958035,0.008581794661995967,0.9899580132638889
2016-05-23,-1,-0.0019236816715402392,-0.0015373820010287458,-0.004517612611561483,0.008581794661995967,0.9924654320132954
2016-05-25,-1,-0.0020155386158232083,-0.0015885206114538174,-0.004517612611561483,0.007310057971804146,0.9932617128666001
2016-05-27,-1,-0.0021590031900379954,-0.0016905888477059573,-0.004517612611561483,0.007310057971804146,0.9927730935267759
2016-06-01,-1,-0.0028289975261480017,-0.002239983586862418,-0.004517612611561483,0.005384545302132905,0.9929203350111505
2016-06-03,-1,-0.002715926593837365,-0.0021288826413536775,-0.004517612611561483,0.005384545302132905,0.9907324731180143
2016-06-07,-1,-0.002337451770236096,-0.0018334668485825408,-0.004337670576453083,0.008569597465712136,0.9898765224067183
2016-06-09,-1,-0.002127703005228604,-0.0016345598585216928,-0.0054713208632723494,0.005780994352232583,0.9900516087369433
2016-06-13,-1,-0.002177668965950538,-0.001698719775304117,-0.005158248597291027,0.005780994352232583,0.9903720468977577
2016-06-15,-1,-0.0023124967602299084,-0.0018298669945380713,-0.004337670576453083,0.005780994352232583,0.9907530197067287
2016-06-17,-1,-0.0018989111467357799,-0.0014760979543889427,-0.003907739450323868,0.004369525821547078,0.9915478304267171
2016-06-21,-1,-0.0015847904052407593,-0.0012126085339113713,-0.004555658244803509,0.0038308342236649633,0.9904900925256415
2016-06-23,-1,-0.0014479203484453148,-0.0011179709188940518,-0.006125283868323627,0.0038308342236649633,0.9897496684325643
2016-06-27,-1,-0.0012519670869838987,-0.0009222585365451042,-0.007963072717225059,0.0038308342236649633,0.9897282247207291
2016-06-29,-1,-0.0020417441482660946,-0.0015992879082963837,-0.007963072717225059,0.0038308342236649633,0.9893656387573274
2016-07-01,1,0.00027253011762345296,0.0004040648091621868,-0.007023855919281091,0.0038308342236649633,0.991841538434711
2016-07-06,1,0.0009895006281407102,0.0010429555410277562,-0.010975549641566718,0.0016249824159897037,0.9917129307386084
2016-07-08,1,0.0012710942845518976,0.0013217006201664315,-0.008363970200100004,0.0026491393170627003,0.9920908843621902
2016-07-12,1,0.001342564300883854,0.001446832627653842,-0.008363970200100004,0.0026491393170627003,0.9925586082713731
2016-07-14,1,0.0012080177295136249,0.0012836570853123753,-0.008363970200100004,0.0016249824159897037,0.9925962204865165
2016-07-18,1,0.001074019499661306,0.0011194157768789092,-0.008363970200100004,0.0012863104536032389,0.9922477149808181
2016-07-20,1,0.0004407651363073872,0.0004485342638047631,-0.007362381611381341,0.0026491393170627003,0.9934120433462515
2016-07-22,-1,-0.000639819197686194,-0.0004933704413009473,-0.006100254390794606,0.0036163758027226074,0.9940698862616111
2016-07-26,-1,-0.0008691661037264742,-0.0007173868364348207,-0.006100254390794606,0.0036163758027226074,0.9942871085345194
2016-07-28,-1,-0.001435917689603979,-0.0012231299609817437,-0.004126617323472904,0.0045989393764709315,0.9946207341097105
2016-08-01,-1,-0.0007061186020707634,-0.0006139205819158706,-0.006100254390794606,0.0045989393764709315,0.9943644852841185
2016-08-03,-1,-0.0011534275659452692,-0.0010313831033314166,-0.004126617323472904,0.0045989393764709315,0.9948199830052404
2016-08-05,-1,-0.0008384251697145485,-0.000744367204063344,-0.005901303698196128,0.004721224548222474,0.991534973175226
2016-08-09,-1,-0.0005673697977503316,-0.000524384482104685,-0.006765529533585905,0.004721224548222474,0.9911512973557539
2016-08-11,-1,-0.0006919466461868533,-0.0006345096491659576,-0.01032725480772906,0.004721224548222474,0.9894922608834861
2016-08-15,-1,-0.0012282501408903612,-0.0010866989964357114,-0.01032725480772906,0.005355317484915276,0.9884005755747851
2016-08-17,-1,-0.0013039236803793178,-0.0011535460148436086,-0.01032725480772906,0.005533020355495966,0.9886070018720051
2016-08-19,-1,-0.0006486347011849413,-0.0005968995351387479,-0.01032725480772906,0.004780458838416037,0.9888715160534988
2016-08-23,-1,-0.0005972516524512306,-0.000578583562801189,-0.009923754142143137,0.005566224784169589,0.9889040127144276
2016-08-25,-1,-0.0003804224093825198,-0.0003700186897935747,-0.009923754142143137,0.0019829768457968943,0.9887935776659891
2016-08-29,-1,-0.0005035722540728755,-0.00046658762606671016,-0.009225984426996365,0.0006377048700684716,0.9895730195663773
2016-08-31,-1,-0.0006737718166309415,-0.0006191368067812813,-0.009870610078290874,0.0019829768457968943,0.9891450858643007
2016-09-02,-1,-0.0025807296528985424,-0.002278113427755163,-0.009225984426996365,0.0019829768457968943,0.9928700513447061
2016-09-07,-1,-0.003148798286762856,-0.002761343676573362,-0.009225984426996365,0.0025646854217800906,0.9924612108634041
2016-09-09,-1,-0.004419340767722272,-0.003881470267271237,-0.006028457945843163,0.0035394999952384695,0.9934725689314015
2016-09-13,-1,-0.004612390948663428,-0.004002349998697158,-0.005586069286139146,0.00353240798174557,0.9943672404739309
2016-09-15,-1,-0.0038992026935709204,-0.0034077520582893204,-0.005586069286139146,0.005363241562597621,0.9938176181796738
2016-09-19,-1,-0.0039377727682375005,-0.0034603722283086643,-0.0064924359696709195,0.005363241562597621,0.9933983626746472
2016-09-21,-1,-0.003540468241606372,-0.0031145783147094683,-0.009185408396429786,0.005363241562597621,0.9928083867803232
2016-09-23,-1,-0.0038240868950897683,-0.0033796223880430873,-0.00717891936204183,0.005363241562597621,0.9927239022454805
2016-09-27,-1,-0.003548286664093554,-0.0031647440646782395,-0.00717891936204183,0.005840955921224287,0.9925854517022602
2016-09-29,-1,-0.0028945762496322023,-0.002639484974353722,-0.00717891936204183,0.005356984537695791,0.9926188440774288
2016-10-03,-1,-0.002455242294247041,-0.002271213489383503,-0.00717891936204183,0.005356984537695791,0.991612028892016
2016-10-05,-1,-0.0025893576079597273,-0.0024128263457521932,-0.009576789879288474,0.005356984537695791,0.9914480565400877
2016-10-07,-1,-0.0029560575285108867,-0.0026841870516069867,-0.009576789879288474,0.005356984537695791,0.9918171550320439
2016-10-11,-1,-0.0028051502592831806,-0.002562013037010581,-0.009576789879288474,0.009309704554041964,0.9893047542528792
2016-10-13,-1,-0.0036156025492081953,-0.0031748132322763625,-0.01175741736456419,0.00454626678559842,0.9888535287549604
2016-10-17,-1,-0.0040417354335308825,-0.003577369401164367,-0.010083699813403575,0.0077757984740591535,0.9880489815164388
2016-10-19,-1,-0.0038538882302655937,-0.0034319251152789207,-0.009076271963363974,0.0064868863617506215,0.9886841453763947
2016-10-21,-1,-0.0039146593319292124,-0.003486476958290705,-0.009076271963363974,0.0064868863617506215,0.9888754221242001
2016-10-25,-1,-0.0035658339401482154,-0.0032040498469596314,-0.009076271963363974,0.01578174275766232,0.986573289296299
2016-10-27,-1,-0.003457944546274623,-0.0031099686373160535,-0.005397733195323672,0.01578174275766232,0.9866250204995518
2016-10-31,-1,-0.0020788511001741377,-0.0019190140513256865,-0.005397733195323672,0.01297381633103525,0.9878342369223555
2016-11-02,-1,-0.003013821787219524,-0.002739021773572354,-0.0036866785000637106,0.01297381633103525,0.9879497998583742
2016-11-04,-1,-0.003144937737265864,-0.002851798353795007,-0.0036866785000637106,0.01297381633103525,0.9873319563849355
2016-11-08,-1,-0.00071452200186316,-0.0006997635767418375,-0.0036866785000637106,0.009412491385048261,0.9896290682969993
2016-11-10,-1,-0.0019315037906449685,-0.0018179754224563953,-0.00283274996815056,0.012800120456941691,0.9902479307052636
2016-11-14,-1,-0.0010417879722853418,-0.0010317609817583058,-0.00283274996815056,0.011039823890445048,0.9908260942144637
2016-11-16,-1,-0.0006570637699830295,-0.0005841167036740825,-0.00283274996815056,0.011039823890445048,0.9908032597571778
2016-11-18,-1,-0.0008582152146329826,-0.0008285909750656196,-0.0018232207058210895,0.011039823890445048,0.9905529519498638
2016-11-22,1,0.001721665012199653,0.0021842205282333305,-0.0018232207058210895,0.006668271256593856,0.993888073435222
2016-11-25,1,0.002477122893534703,0.0030848933389620485,-0.00039042231008080237,0.005409522478330099,0.9946127254509471
2016-11-29,1,0.0025534174653845604,0.0031623650868782428,0.0004959137839343545,0.005409522478330099,0.9948441797226282
2016-12-01,1,0.002279580005588963,0.002840366827682267,0.0004959137839343545,0.006303221029763687,0.9949645585497334
2016-12-05,1,0.002626186565536679,0.00323968646408443,0.001037248987876114,0.0063000743206953124,0.9952814762027669
2016-12-07,1,0.003339345974728073,0.0040529413289594855,-0.0005322677087757964,0.005409522478330099,0.9954555657963851
2016-12-09,1,0.0030429433105982283,0.0036567832215487904,-0.0005322677087757964,0.004949190705402293,0.9955145212663696
2016-12-13,1,0.003220965810669032,0.0038274541469361647,-0.0005322677087757964,0.004949190705402293,0.9947966633997906
2016-12-15,1,0.0028391908957734976,0.003376299596104888,0.0004959137839343545,0.004949190705402293,0.99572448165933
2016-12-19,1,0.0027434496972681176,0.0032386330081074057,-0.0002006712005364705,0.0045591363302586296,0.9957102826982134
2016-12-21,1,0.003035762270700558,0.003582137548251573,-0.0002006712005364705,0.004840505386826858,0.9954844820959946
2016-12-23,1,0.0027793935053786164,0.0032593984794138187,-0.001134281310385208,0.004840505386826858,0.9954233005200958
2016-12-28,1,0.0029989808954363597,0.0035202694760414883,-0.002386695564518624,0.004840505386826858,0.9948039700089019
2016-12-30,1,0.0029814224725208723,0.003501073469546958,-0.0025933734013661976,0.004377512564140061,0.9949248517142976
2017-01-04,1,0.0031990115360043528,0.0037409663733048376,-0.0025933734013661976,0.004377512564140061,0.9946735710543075
2017-01-06,1,0.0029141336577103278,0.003404951781979766,-0.0025933734013661976,0.004377512564140061,0.9945959483278007
2017-01-10,1,0.0025490874001353287,0.0029863063916787747,-0.0012031739226677325,0.004840505386826858,0.9952768899887868
2017-01-12,1,0.0034004479828868483,0.003966568643102521,-0.0025933734013661976,0.004840505386826858,0.9953686570008927
2017-01-17,1,0.0034679939729619913,0.004026316802081181,-0.00316865764809698,0.004247497954758536,0.9949437480463704
2017-01-19,1,0.0036646970244030904,0.004266475510890344,-0.003973488075906431,0.005007687212939474,0.994138934811443
2017-01-23,1,0.0036292782919178554,0.004213803766055553,-0.006631382723013101,0.004799443942093572,0.9908289610028431
2017-01-25,1,0.0035065400039545596,0.004063749501565764,-0.006631382723013101,0.004799443942093572,0.9909797356045766
2017-01-27,1,0.0028857780187675156,0.003287521483444973,-0.003973488075906431,0.004799443942093572,0.9914681777703553
2017-01-31,1,0.0024924861001144995,0.0028213444910607432,-0.0033528884922226702,0.00649881217662401,0.9919049615873609
2017-02-02,1,0.00217509221052598,0.002396398494836937,-0.005211858457403358,0.005897413458630744,0.9918468481469824
2017-02-06,1,0.001925101470927675,0.0021249404539240278,-0.004360913845251785,0.005897413458630744,0.991898394160825
2017-02-08,1,0.0022360718536998643,0.0024824936066026107,-0.005211858457403358,0.0058633156864135345,0.9916443928962666
2017-02-10,1,0.001953774969494255,0.0021449601333354586,-0.004360913845251785,0.004227761315490151,0.9921813797955206
2017-02-14,1,0.0018150217820993345,0.001995598481724859,-0.0035796616682734267,0.0058633156864135345,0.9921993013457933
2017-02-16,1,0.0012983399936018938,0.0013845647861405424,-0.0035796616682734267,0.005858758953765063,0.9924836245409098
2017-02-21,-1,-0.00042052500620049996,-0.00028576501838781,-0.003583507878268572,0.004227761315490151,0.9944356086502882
2017-02-23,-1,-0.0005050453693308363,-0.00035418812038652206,-0.003583507878268572,0.005858758953765063,0.9939727370087648
2017-02-27,-1,-0.0005616846330773309,-0.0004070417099754897,-0.003583507878268572,0.005858758953765063,0.9939586920894901
2017-03-01,-1,-0.0006579871162103546,-0.00046946471980277896,-0.003583507878268572,0.003461674914332425,0.9943171322958498
2017-03-03,-1,-0.0006946935626563534,-0.0005017150982264486,-0.003583507878268572,0.002384866583183329,0.994340796073523
2017-03-07,-1,-0.0010108360683894388,-0.0007770474127844372,-0.004062454661310557,0.002384866583183329,0.9943961303567913
2017-03-09,-1,-0.0007984965565122138,-0.000613083601309027,-0.0032226183761878673,0.0022649931295223333,0.9948585459837294
2017-03-13,-1,-0.0012332444691893277,-0.0009653208993372688,-0.0032301823349662573,0.0017619021269733956,0.9949738040795668
2017-03-15,-1,-0.00119569898639974,-0.0009281185476494674,-0.0032301823349662573,0.0022649931295223333,0.9948308267911022
2017-03-17,-1,-0.0014371620716584275,-0.0011326633272132729,-0.0032301823349662573,0.0022649931295223333,0.9944343649822514
2017-03-21,-1,-0.002487945064117412,-0.002061089258424978,-0.003157364862141042,0.0023267119929136874,0.995160679352966
2017-03-23,-1,-0.002426474963339091,-0.001994640714878469,-0.0028760049252363855,0.0023267119929136874,0.9956193818495515
2017-03-27,-1,-0.002065465321826483,-0.0017108080421725195,-0.0031732154137332352,0.0028185998566128217,0.9949820103198761
2017-03-29,-1,-0.0024741167173905855,-0.0020381924989360404,-0.0037374401795166466,0.0028185998566128217,0.9950317147150145
2017-03-31,-1,-0.002817412709699946,-0.0023304796555757017,-0.0037374401795166466,0.004601998266575346,0.9945730770594516
2017-04-04,-1,-0.0022499036960626226,-0.0018973108524390813,-0.0032103745372217656,0.004601998266575346,0.9945970770453777
2017-04-06,-1,-0.003022848548873535,-0.0025258432358917435,-0.0032103745372217656,0.007046520545809042,0.9938447931570024
2017-04-10,-1,-0.0026465860759307502,-0.002225359051849467,-0.0037374401795166466,0.007539274755136079,0.9932122532401386
2017-04-12,-1,-0.0024038124883746636,-0.0020112227577553507,-0.0037374401795166466,0.007539274755136079,0.9933233817166338
2017-04-17,-1,-0.0027105461094893784,-0.002275463074357808,-0.0037374401795166466,0.006211551449755531,0.9938278989920657
2017-04-19,-1,-0.0017243709191561204,-0.0014635095539381935,-0.005441676362166492,0.005382827901259566,0.9941840522698308
2017-04-21,-1,-0.0016613409819704599,-0.0014156907827961426,-0.0068664789022882715,0.005382827901259566,0.9932432770079769
2017-04-25,-1,-0.0014762465336047525,-0.0012561428755673266,-0.006779041390807445,0.006211551449755531,0.9919168131951923
2017-04-27,-1,-0.001847052270079548,-0.0015723486975031706,-0.006779041390807445,0.007539274755136079,0.9913697753752917
2017-05-01,-1,-0.001860557631331201,-0.0015931126536608325,-0.006779041390807445,0.006221491577326558,0.991301905255636
2017-05-03,-1,-0.0015532401809935812,-0.0013479156650076502,-0.006779041390807445,0.006221491577326558,0.9910309794397326
2017-05-05,-1,-0.0011233741056065794,-0.0009787836629998482,-0.006779041390807445,0.0054759982314732236,0.9914341602242163
2017-05-09,-1,-0.0009687624395784578,-0.0008625544735391743,-0.004900343972918036,0.005284063848255411,0.992126528464495
2017-05-11,-1,-0.0008473236405495332,-0.000744513092957098,-0.006779041390807445,0.0048522300797058755,0.9920008262662975
2017-05-15,-1,-0.0008021384912521347,-0.0007134205223685798,-0.004900343972918036,0.005284063848255411,0.9921326751101279
2017-05-17,-1,-0.0006932644383107972,-0.0006269598242018167,-0.004062924117026074,0.00469946349569338,0.9926484904739529
2017-05-19,-1,-0.0014492350349367322,-0.0012980965150893068,-0.004024801021853426,0.00469946349569338,0.9921711060532896
2017-05-23,-1,-0.0001653518379941934,-0.00015893056291672145,-0.004216134819494139,0.001726751046253771,0.9936146156368041
2017-05-25,1,0.00015272790251621873,0.00020077781574317282,-0.004962423614683008,0.0006148661764841619,0.9936564912224678
2017-05-30,-1,-9.770444220032815e-05,-6.712993114578763e-05,-0.004962423614683008,0.0006148661764841619,0.9937359314225992
2017-06-01,-1,-0.00010433722676699724,-8.275353829267217e-05,-0.007750183680733005,0.00022957424862622542,0.9933487316592616
2017-06-05,-1,-0.0004795213656948657,-0.00044103686961510346,-0.007750183680733005,0.0009267856349242448,0.9936322580572623
2017-06-07,-1,-0.00011222268546104945,-6.684393951392453e-05,-0.007750183680733005,0.0004550431428979606,0.9933526692868686
2017-06-09,-1,-0.0002901991658602153,-0.0002533621047226187,-0.007750183680733005,0.0004550431428979606,0.9934121606681662
2017-06-13,0,-5.77123843359704e-06,7.608321939878517e-05,-0.007750183680733005,0.0004550431428979606,0.9933018541241257
2017-06-15,1,0.00024888970315208844,0.0003884855048589194,-0.007750183680733005,0.0013111007214792723,0.9928673642042397
2017-06-19,-1,-0.0006006761072614139,-0.0005701378122264875,-0.007750183680733005,0.0016058000998103636,0.9940858440387571
2017-06-21,-1,-0.0009689729266751971,-0.00094631148562904,-0.008148690526792582,0.002977014279529777,0.9925543421519742
2017-06-23,-1,-0.001216060322789563,-0.001161141066354393,-0.007620434132831587,0.002977014279529777,0.9927247885379796
2017-06-27,-1,-0.001190341676353936,-0.0011621333360875342,-0.0042688485323040225,0.002977014279529777,0.9930564294838038
2017-06-29,-1,-0.001666341002434761,-0.0015757139947207652,-0.0037667612798025158,0.003677722908187304,0.9931671674222248
2017-07-03,-1,-0.0011762784169553747,-0.0011655967313121964,-0.004576094428985499,0.003577225315306851,0.9932972477314979
2017-07-06,-1,-0.0013108720675080552,-0.0012869861468920497,-0.002487589056151598,0.005531643326717985,0.993044771089678
2017-07-10,-1,-0.0015933520580459198,-0.0015370269800435677,-0.00047836935108285894,0.005531643326717985,0.9931136739487354
2017-07-12,-1,-0.0011587286213479246,-0.0011354427823024715,-0.0007579880198080498,0.00413610877489857,0.9937936791324519
2017-07-14,-1,-0.0023241189630606304,-0.002113983515690034,-0.00047157223319675755,0.00413610877489857,0.9931770277150516
2017-07-18,-1,-0.0026344501651529052,-0.00239556414108944,-0.00047157223319675755,0.004780428931715085,0.9934554600818839
2017-07-20,-1,-0.0018872175678310327,-0.0017369203218241343,-0.00042270112867110355,0.004567315032630828,0.9956303420560134
2017-07-24,-1,-0.0015022818486005501,-0.001415010888810013,-0.0006045775883449863,0.004567315032630828,0.9957272183938018
2017-07-26,-1,-0.0009449474609965042,-0.0009271468974620866,-0.0006045775883449863,0.00383241666536481,0.9962460912882571
2017-07-28,-1,-0.0008287551611973042,-0.0008164382960760927,-0.0011204912975418123,0.0035432806353422885,0.9944498288910032
2017-08-01,-1,-0.0009701423443137877,-0.0009452634575112527,-0.0011204912975418123,0.0035432806353422885,0.9939564793023898
2017-08-03,-1,-0.0006023310619982577,-0.0005671035019803713,-0.006508156063147116,0.003241356529730034,0.9901961021015292
2017-08-07,-1,-0.0001833593701857173,-0.0001147005973273782,-0.011476225294110819,0.0033879887427656725,0.9882702516311807
2017-08-09,-1,-0.00016662504865786796,-9.144034556099896e-05,-0.011476225294110819,0.0037580540209477932,0.9872767449247194
2017-08-11,-1,-0.00040900575754291267,-0.00040103709816197684,-0.011476225294110819,0.0037580540209477932,0.9869096728239731
2017-08-15,-1,-0.00017412053570005478,-0.00013546576824983216,-0.011476225294110819,0.003848632231397297,0.9865518015712804
2017-08-17,0,-4.0194233586437236e-05,1.5144760744047702e-05,-0.011476225294110819,0.0042745681670555095,0.9857486765949457
2017-08-21,0,-3.710656675664332e-05,2.3816956491059063e-05,-0.014058572996616732,0.0042745681670555095,0.9846976626017435
2017-08-23,1,0.000108965543124154,0.00018184458252395885,-0.017167145392921954,0.002670380444311395,0.9832766561228786
2017-08-25,-1,-0.0014923599105258509,-0.0013612161152689577,-0.014058572996616732,0.007703037163647186,0.9840315895846035
2017-08-29,-1,-0.0018640515772129105,-0.001689004935378826,-0.014058572996616732,0.008902666177001124,0.9841521837982593
2017-08-31,-1,-0.004660894044014442,-0.004160938888703836,-0.012091634201699938,0.008902666177001124,0.9881677728882052
2017-09-05,-1,-0.0039441355142610275,-0.0035481705732311004,-0.012091634201699938,0.006942669744396837,0.9897048336407189
