JNU-Tangyin/eata/results/Batch4_SP500/Batch4_SP500-IBM.csv
Date,Action,Predicted_Q25,Predicted_Q75,Actual_Q25,Actual_Q75,RL_Reward
2010-12-14,0,0.0,0.0,-0.0026736364236903732,0.003561307511379428,0.9959321740247297
2010-12-16,0,0.0,0.0,-0.00207984532658283,0.005069219521488378,0.9958781828971544
2010-12-20,0,0.0,0.0,-0.0018985224506334003,0.00615145522426274,0.9943286687724394
2010-12-22,-1,-0.00026622892880650173,-0.0002412035041705601,-0.0019342251279164512,0.005069219521488378,0.9946529875299986
2010-12-27,0,0.0,0.0,-0.0018898248118346351,0.00868398103459665,0.9930254728054306
2010-12-29,0,0.0,0.0,-0.0019342251279164512,0.00868398103459665,0.9932937940893489
2010-12-31,0,0.0,0.0,-0.00207984532658283,0.011046198388913587,0.9919422546468345
2011-01-04,0,0.0,0.0,-0.00207984532658283,0.011046198388913587,0.9916851009301247
2011-01-06,0,0.0,0.0,-0.0019342251279164512,0.010056904125553625,0.99220966640474
2011-01-10,1,0.00026072311875909737,0.00038330805782317535,-0.0016617026301285081,0.010056904125553625,0.9921056801938422
2011-01-12,1,0.0001749952529464554,0.0003293855300199382,-0.0018898248118346351,0.00835421628014333,0.9922250934279637
2011-01-14,0,-0.00012304107218311339,8.336875786395834e-05,-0.002063581458144447,0.00800439619886368,0.9924005798327052
2011-01-19,1,5.626842850436366e-06,0.00021152222164330528,-0.002365582789006995,0.005615648180082308,0.9939975119272967
2011-01-21,1,2.0394589838332875e-05,0.00021986129077227368,-0.002365582789006995,0.005721285036201711,0.9936997819929028
2011-01-25,1,0.0008823652843520306,0.0009624308234216038,-0.003512097024858034,0.003989861905734455,0.9940110610481999
2011-01-27,1,0.0009749268902184421,0.001040889749295345,-0.003512097024858034,0.005035191361293772,0.9936618771850366
2011-01-31,1,0.0008901029165420487,0.0009876705347016993,-0.003512097024858034,0.004012525900950819,0.9943105961955885
2011-02-02,1,0.0012505059856254385,0.0013041301848844009,-0.003512097024858034,0.004012525900950819,0.9938765253405932
2011-02-04,1,0.0012543393952745142,0.0013174296222060104,-0.008846606815891486,0.004012525900950819,0.9927605075970302
2011-02-08,1,0.0014797025158011009,0.0015250599369121102,-0.008846606815891486,0.004047738186323953,0.991513495458386
2011-02-10,1,0.0012468922059943111,0.0012990849381317997,-0.010302049609588,0.004047738186323953,0.9910073986280047
2011-02-14,1,0.0010243087550561995,0.0011036959336118415,-0.011132134713671745,0.004047738186323953,0.9902557936350863
2011-02-16,1,0.0011102613203276652,0.0011695333728140276,-0.011755293425026899,0.005783709374575574,0.9882977845952334
2011-02-18,1,0.001146603381929411,0.0012031890910461384,-0.011755293425026899,0.009816947160161862,0.9876239223793809
2011-02-23,1,0.0003364269189920756,0.0004813129931352211,-0.010504927992053123,0.010035450456048992,0.9885637555242593
2011-02-25,1,0.0007903299490770736,0.0008861559468165618,-0.010504927992053123,0.01118886224808882,0.988452790534458
2011-03-01,1,0.00044605129237962484,0.0005579911372088587,-0.00732530820554688,0.01118886224808882,0.9884369109640663
2011-03-03,1,0.0008730211779012988,0.0009339940234662087,-0.00732530820554688,0.010035450456048992,0.9891409918285301
2011-03-07,1,0.0002901541142778803,0.00041165573275216247,-0.003678285025274639,0.010035450456048992,0.9897965813979345
2011-03-09,1,0.0011634711144515428,0.0011768169680516844,-0.003678285025274639,0.008123598649220786,0.9914986237554169
2011-03-11,1,0.00036942789036819624,0.00047628432141043787,-0.00231548802246768,0.008123598649220786,0.9925359810017512
2011-03-15,-1,-0.00028498621192943167,-0.00010667611010827996,-0.001689079882404187,0.008123598649220786,0.993246561942848
2011-03-17,-1,-0.0005722435935853743,-0.00036871913606160186,-0.0008529597872246875,0.00785838441853591,0.994855373391874
2011-03-21,1,0.0004310406827680981,0.0005073036798021114,-0.0015933366061379112,0.006505740392967525,0.9957219551445566
2011-03-23,1,0.0008204906892563508,0.0008519568856171837,-0.00231548802246768,0.004870689684759539,0.9957939075307967
2011-03-25,1,0.0016132901969461112,0.0017055714235320529,-0.0032432087073361432,0.004870689684759539,0.9951575306757697
2011-03-29,1,0.001817319019239668,0.001949559044921872,-0.00231548802246768,0.005223256046901917,0.99523774378352
2011-03-31,1,0.0020684665801513017,0.0022632568076032993,-0.0017202366843779688,0.005223256046901917,0.995431992848374
2011-04-04,1,0.0020764076477767486,0.0022526152350630766,-0.0017202366843779688,0.005223256046901917,0.995347602189087
2011-04-06,1,0.0018458416354836665,0.0019718322424756994,-0.003346863149837064,0.005223256046901917,0.9941244047531878
2011-04-08,1,0.0014373248712665125,0.0014754323502095023,-0.003346863149837064,0.005223256046901917,0.9942156303634425
2011-04-12,1,0.00091885690840795,0.0009633174759015716,-0.003346863149837064,0.006545189863746048,0.9938930180258342
2011-04-14,1,0.0015918217964709896,0.0016658250336323234,-0.003701156422480396,0.007529769755919204,0.9929025698068152
2011-04-18,1,0.0015333364239916228,0.0015647932844229848,-0.004238641114381577,0.007978070591726028,0.9925449714239652
2011-04-20,1,0.001313819583199954,0.0013148887485392208,-0.0040099350400729285,0.007978070591726028,0.9929092321761961
2011-04-25,1,0.0016300256193265159,0.001630617618752728,-0.0054332865323122445,0.005560274678285534,0.9933086250190782
2011-04-27,1,0.0026172057943137537,0.002788876693247311,-0.0054332865323122445,0.0029599918381092096,0.9933339088138172
2011-04-29,1,0.0024450286285389146,0.0025809331759170454,-0.0054332865323122445,0.0029599918381092096,0.9932795923626282
2011-05-03,1,0.002793141764704431,0.002972530860844377,-0.007470141284569895,0.002073761160116099,0.9923673682171184
2011-05-05,1,0.001726198694527743,0.0017517894605122973,-0.0054332865323122445,0.002073761160116099,0.9937163086848141
2011-05-09,1,0.0018907647370007274,0.0019423320910386282,-0.006244099876209476,0.0011385941029209046,0.9931202480137841
2011-05-11,1,0.0014584988561897644,0.001495393415132033,-0.006244099876209476,0.0021962510701426137,0.9937644429185114
2011-05-13,1,0.0011899492359015587,0.0012664020955189558,-0.006244099876209476,0.0011385941029209046,0.9947190679875286
2011-05-17,1,0.0015693775803397383,0.0015844413806292397,-0.006304809380955145,0.0011385941029209046,0.9944841076577616
2011-05-19,1,0.001586021142250725,0.0016159591469052993,-0.006304809380955145,0.002331468795677447,0.9941295482985923
2011-05-23,1,0.0009498501004568498,0.0010483596717440256,-0.004113892599190775,0.0036380507541822317,0.9946850386313748
2011-05-25,1,0.0006148751916100507,0.0007534740083460134,-0.004113892599190775,0.0036380507541822317,0.9946632424125894
2011-05-27,1,0.0008131100356149393,0.0009331444842869108,-0.006276507618903466,0.004433718729766627,0.9938401816493483
2011-06-01,1,0.0003444115433934642,0.0005145276707121184,-0.004002031862449122,0.004433718729766627,0.9941642167035606
2011-06-03,-1,-0.0004154364172714557,-0.00013546332218736744,-0.0021754083687320173,0.006259779960732406,0.9933492238967123
2011-06-07,-1,-0.0007182713737253809,-0.00041802485679409956,0.0015555178060453869,0.008174150748136388,0.992614093054008
2011-06-09,-1,-0.0004719950244288009,-0.0002080996875983409,-0.0008581931190009459,0.008174150748136388,0.9927872075006754
2011-06-13,-1,-0.0005787689940202759,-0.0003246509337086498,-0.003779511730435601,0.008174150748136388,0.9925944856599787
2011-06-15,-1,-0.0011213585242148354,-0.0008119314059523595,-0.0011994268301628638,0.008174150748136388,0.9930793118614715
2011-06-17,-1,-0.00029996255766839375,-0.0001366353747190682,-0.001923054428976141,0.007333613470902341,0.9935934494385222
2011-06-21,1,7.232920376140092e-05,0.00018353017906809997,-0.003779511730435601,0.008888283739792373,0.990984025484734
2011-06-23,1,0.0005738342700204872,0.0006331018392839561,-0.0024537749499874244,0.008888283739792373,0.9909438531661202
2011-06-27,1,0.00116678654114514,0.001207656592274465,-0.004486597145907823,0.006984565924405089,0.9914042456314592
2011-06-29,1,0.001816607307195602,0.0019492767064096877,-0.005759094963139773,0.006143430778566656,0.991571206301133
2011-07-01,0,0.0,0.0,-0.006267025671814789,0.00313587052876906,0.9924063925423836
2011-07-06,0,0.0,0.0,-0.007189080183454402,0.001783783957478389,0.9923461801568566
2011-07-08,0,0.0,0.0,-0.008099896059901066,0.0029562875616178626,0.9902398531195005
2011-07-12,0,0.0,0.0,-0.008099896059901066,0.004987209609004684,0.9877154615872582
2011-07-14,0,0.0,0.0,-0.008476459757751431,0.006984565924405089,0.9842636857070339
2011-07-18,0,0.0,0.0,-0.008476459757751431,0.008764696496157718,0.9828950304739128
2011-07-20,0,0.0,0.0,-0.009007002846911626,0.007291705018928483,0.9854888936394337
2011-07-22,1,0.002072657405535653,0.002309250517854272,-0.02080170716325839,0.0054724369762070655,0.9815129012942791
2011-07-26,1,0.0018077231631794533,0.0020539477500391766,-0.02080170716325839,0.008897585967406535,0.9805042268277117
2011-07-28,1,0.0015102298598418983,0.0016786512539601665,-0.02080170716325839,0.010567631860729065,0.9799784138935832
2011-08-01,1,0.0015611915795333336,0.0017862179014565757,-0.02080170716325839,0.020806075722075525,0.978579502942121
2011-08-03,1,0.000986260773148488,0.0010947238578362134,-0.0171855478578557,0.020806075722075525,0.9790546635811329
2011-08-05,-1,-0.00032930322726676484,-0.00022348741560990936,-0.012504122463907976,0.020806075722075525,0.9799609383912774
2011-08-09,-1,-0.001094709812095127,-0.0008553902518565904,-0.010386904588995735,0.016280514517280024,0.9819659415763807
2011-08-11,-1,-0.0010063129362607955,-0.000808083849033627,-0.01147726718062331,0.01370557163529362,0.9838416161595385
2011-08-15,-1,-0.00022489727185481302,-0.00013009562699170665,-0.01147726718062331,0.010186449925409027,0.9849342478102561
2011-08-17,-1,-0.0002585803443697614,-0.00017482474610067074,-0.01147726718062331,0.015397166292485708,0.9835152221300053
2011-08-19,0,0.0,0.0,-0.0076047642960795254,0.017043448853508586,0.9866332243769806
2011-08-23,-1,-0.0008566140739265793,-0.0006554840436868389,-0.009325599548861715,0.015397166292485708,0.9878075543120716
2011-08-25,0,0.0,0.0,-0.010097129867402771,0.014253620486525596,0.9874145701183947
2011-08-29,0,0.0,0.0,-0.010097129867402771,0.014253620486525596,0.9870835543096979
2011-08-31,0,0.0,0.0,-0.010097129867402771,0.014253620486525596,0.9867957584878383
2011-09-02,0,0.0,0.0,-0.010097129867402771,0.014253620486525596,0.9865924656521009
2011-09-07,0,0.0,0.0,-0.00920892027809975,0.01331665610487091,0.9867911057953423
2011-09-09,-1,-0.0013749118631656886,-0.0011729220539973425,0.0003818393172374905,0.017043448853508586,0.9864234582759958
2011-09-13,0,0.0,0.0,-0.0028454605747781267,0.017371644553681342,0.9860819420805544
2011-09-15,1,0.0005913577638836238,0.0006074417888040538,-0.0028454605747781267,0.013318792112197855,0.9878097544898866
2011-09-19,1,0.0011065771088804041,0.001217455493438827,-0.008769350459761103,0.013640579790389778,0.9868553067835563
2011-09-21,0,0.0,0.0,-0.008769350459761103,0.013640579790389778,0.9849708320644465
2011-09-23,1,0.0002612703596094479,0.00031207086896054557,-0.008500502278920536,0.01871742678701894,0.9852551957223342
2011-09-27,1,0.0009965273398541887,0.0011055982999360423,-0.008769350459761103,0.00986196284263886,0.9870378606817962
2011-09-29,1,0.0012373182719813084,0.0013814488904700115,-0.008769350459761103,0.0140209989891516,0.986213666901489
2011-10-03,0,0.0,0.0,-0.008500502278920536,0.0140209989891516,0.9863523115545219
2011-10-05,0,0.0,0.0,-0.009103128612114014,0.01559331824858266,0.985793496301272
2011-10-07,1,0.002150195102739808,0.002386242547303176,-0.009103128612114014,0.015223030588972666,0.9865193439230218
2011-10-11,1,0.0025708521444969493,0.0028696385842235618,-0.008922918836425747,0.010237838368012207,0.9878843963402408
2011-10-13,1,0.0025149207602372554,0.002779669118147833,-0.011538785586948593,0.010237838368012207,0.9864811314320094
2011-10-17,1,0.0023416252552565728,0.002570874702206807,-0.008922918836425747,0.010237838368012207,0.9873589241610383
2011-10-19,1,0.00177211187605932,0.0019317357290865936,-0.006276485408193959,0.010237838368012207,0.9890116947314391
2011-10-21,1,0.0021368751976506496,0.0023211263229284164,-0.006276485408193959,0.008566341746384506,0.9897294415933032
2011-10-25,1,0.0016723981033455516,0.0017817440705819338,-0.006505086164895411,0.008566341746384506,0.9891564879090338
2011-10-27,0,0.0,0.0,-0.012224587857052951,0.0064363126021820235,0.9896065326588508
2011-10-31,0,0.0,0.0,-0.008048714256928866,0.0064363126021820235,0.9889916086097776
2011-11-02,0,0.0,0.0,-0.00549356075139535,0.007532639942173883,0.9882686123594336
2011-11-04,1,0.0009036644270027151,0.0009133403213445468,-0.00549356075139535,0.006534419461407733,0.9889646451383758
2011-11-08,1,0.0010858054332861667,0.0011332021272217265,-0.00549356075139535,0.007532639942173883,0.988518270036401
2011-11-10,0,0.0,0.0,-0.00549356075139535,0.008535553501605193,0.9887172220370016
2011-11-14,0,0.0,0.0,-0.008048714256928866,0.007532639942173883,0.9889395473311432
2011-11-16,0,0.0,0.0,-0.008285715162408832,0.006594456250733465,0.9889138395190412
2011-11-18,-1,-0.0003596727990271077,-0.0002059677722989972,-0.012352720471464754,0.006594456250733465,0.9882068886316084
2011-11-22,0,0.0,0.0,-0.012352720471464754,0.008535553501605193,0.9864497502177424
2011-11-25,0,0.0,0.0,-0.008285715162408832,0.01197467898935401,0.9867176797877513
2011-11-29,0,0.0,0.0,-0.007986140538030423,0.008535553501605193,0.9881696788189666
2011-12-01,0,0.0,0.0,-0.012262997377428156,0.007417259442187579,0.9892682071097888
2011-12-05,0,0.0,0.0,-0.012262997377428156,0.011228675602387267,0.9887835217581716
2011-12-07,0,0.0,0.0,-0.012262997377428156,0.005331482069844638,0.9888096056798297
2011-12-09,0,0.0,0.0,-0.011668659986290192,0.0015971167578331038,0.9898636269469695
2011-12-13,0,0.0,0.0,-0.010151345277216213,0.0037484331405115267,0.9899769782071887
2011-12-15,1,0.0012227680335055245,0.0013540273177172126,-0.00820109090566185,0.0049091116265905935,0.990103798736055
2011-12-19,1,0.0009708545278492352,0.001059603506028625,-0.005827915362415721,0.005664058763435509,0.9910251913954538
2011-12-21,1,0.0008655231365802289,0.0009292228781017606,-0.005193974672302168,0.00639442695120434,0.9912371836084082
2011-12-23,1,0.0013601003456725404,0.0014840265620171484,-0.005193974672302168,0.00639442695120434,0.9914229233560538
2011-12-28,1,0.0008453863108652303,0.0008721871646939514,-0.004858235385287071,0.00639442695120434,0.9913612573783176
2011-12-30,1,0.0005169109400775455,0.0005437999463962294,-0.004245301242732807,0.00639442695120434,0.9921175853773306
2012-01-04,1,0.0002466795408334569,0.00034054291178398137,-0.004858235385287071,0.005664058763435509,0.9927218214890808
2012-01-06,1,0.0001152645988247554,0.00018175036533699945,-0.0039924468766455315,0.00639442695120434,0.9928003740036316
2012-01-10,-1,-0.0003326236041184626,-0.00019395137552955525,-0.003256009747809983,0.00639442695120434,0.9929109717906851
2012-01-12,-1,-0.001257524956254049,-0.0008898961473394905,-0.0031971454218977717,0.00639442695120434,0.9934661075027555
2012-01-17,0,0.0,0.0,-0.002801456572105332,0.00639442695120434,0.9938495454541086
2012-01-19,0,0.0,0.0,-0.0022381962507034333,0.004940071142890653,0.9940876707841227
2012-01-23,0,0.0,0.0,-0.0022381962507034333,0.002241365231259502,0.9965560895957267
2012-01-25,0,0.0,0.0,-0.0022381962507034333,0.002548626133621454,0.9960366103489041
2012-01-27,0,0.0,0.0,-0.00138943021382065,0.002548626133621454,0.9962704237907445
2012-01-31,0,0.0,0.0,-0.002070721111171409,0.0023290747725644946,0.9964013841805435
2012-02-02,-1,-0.0002044693725058277,-0.00011558272842722428,-0.00138943021382065,0.003062782655056184,0.9961548298971655
2012-02-06,0,0.0,0.0,-0.00138943021382065,0.003062782655056184,0.9956185614885128
2012-02-08,0,0.0,0.0,-0.0004070373177943571,0.004020550168479249,0.9952181012689274
2012-02-10,0,0.0,0.0,7.831421416209608e-05,0.004056966839787323,0.995151800234098
2012-02-14,0,0.0,0.0,0.0006083235799587547,0.0050795797404006495,0.9943934145335112
2012-02-16,-1,-0.0007110148546863608,-0.0005916473070775017,0.0005814426966290024,0.006309337632909008,0.9938840686833721
2012-02-21,-1,-0.00014620203668051866,-0.00012487118219946112,-0.0002543138293806205,0.006309337632909008,0.9939164074713922
2012-02-23,1,0.0008769855651009553,0.0010565608918596068,-0.0002543138293806205,0.005022683340531649,0.995203969336338
2012-02-27,1,0.0003226109484117716,0.00038442806999843524,2.4259555326568712e-05,0.006309337632909008,0.9944648905058766
2012-02-29,1,0.0007700197964447437,0.0009207752855203764,2.4259555326568712e-05,0.006309337632909008,0.9949311475453598
2012-03-02,1,0.0009900843751208233,0.0012094013799165081,2.4259555326568712e-05,0.005108876628278795,0.9952369741876556
2012-03-06,1,0.00038765243909826203,0.0005401943396641988,0.00011952350100913499,0.004641495138944578,0.9961173933545022
2012-03-08,1,0.0007764564348540538,0.0010023743626380649,-0.0003884566699451439,0.004193538869351595,0.9958075460670115
2012-03-12,1,0.0008676297576969287,0.0009221591818405783,-0.002638320995712309,0.004100755943586906,0.9950781614458694
2012-03-14,1,0.0008556367214897716,0.000895495186761563,-0.002638320995712309,0.003913775572751949,0.99525485485927
2012-03-16,1,0.0009355432982272425,0.0010078295218101216,-0.0028210454292756297,0.0025927678663897856,0.9948447141009802
2012-03-20,1,0.0006007153726555959,0.0006379034289847815,-0.0028210454292756297,0.003913775572751949,0.9924868851201555
2012-03-22,0,0.0,0.0,-0.002904257643109843,0.0023509094939488584,0.9925862078629644
2012-03-26,0,0.0,0.0,-0.003550902117550533,0.0023509094939488584,0.9925534854913705
2012-03-28,1,7.187824167481054e-05,8.448281013392699e-05,-0.003550902117550533,0.005282743232059557,0.9913694825935785
2012-03-30,0,0.0,0.0,-0.003550902117550533,0.006224262354340544,0.9913191584226538
2012-04-03,0,0.0,0.0,-0.003550902117550533,0.006224262354340544,0.9912868310103224
2012-04-05,0,0.0,0.0,-0.00418336134691024,0.006224262354340544,0.9915072108850651
2012-04-10,0,0.0,0.0,-0.005194585991649402,0.006224262354340544,0.9914150405046324
2012-04-12,0,0.0,0.0,-0.005194585991649402,0.004827772283352624,0.99192589760036
2012-04-16,0,0.0,0.0,-0.005194585991649402,0.004827772283352624,0.991986255719799
2012-04-18,1,3.844159639163861e-05,0.00019309566700068668,-0.00418336134691024,0.0037106377923905825,0.9946885771371397
2012-04-20,0,0.0,0.0,-0.006686732203631575,0.0037106377923905825,0.9938261437531476
2012-04-24,0,0.0,0.0,-0.006686732203631575,0.0037106377923905825,0.9937030293593864
2012-04-26,1,0.00033282375102408433,0.0003389243699096957,-0.006686732203631575,0.0016895593867436263,0.9947883432031315
2012-04-30,1,0.000610145740767926,0.0006664543121095884,-0.00873185701105264,0.0009267643708208639,0.9939843470486459
2012-05-02,0,0.0,0.0,-0.009149419640683838,-0.0009688940127097981,0.9935838508846287
2012-05-04,0,0.0,0.0,-0.009149419640683838,-0.0009688940127097981,0.9931959922799485
2012-05-08,0,0.0,0.0,-0.00873185701105264,0.002997778467606316,0.992622829753807
2012-05-10,0,0.0,0.0,-0.00873185701105264,0.0034751222356140324,0.9925465644554363
2012-05-14,0,0.0,0.0,-0.009149419640683838,0.003525489639420562,0.9919246750851644
2012-05-16,0,0.0,0.0,-0.009149419640683838,0.005099498184511498,0.9913180620598762
2012-05-18,-1,-0.0010135004800424282,-0.0008867416678001094,-0.00768460626006609,0.009787597237342752,0.9911431380739884
2012-05-22,-1,-0.0014703292585826902,-0.0012906414180378053,-0.00768460626006609,0.005289412769778446,0.9916175858794051
2012-05-24,0,0.0,0.0,-0.008566489425263241,0.005289412769778446,0.9903441513579271
2012-05-29,0,0.0,0.0,-0.00768460626006609,0.003525489639420562,0.990893212105911
2012-05-31,0,0.0,0.0,-0.005402102763521365,0.004067608341137961,0.9911113726001091
2012-06-04,0,0.0,0.0,-0.004432044997038,0.006691927707222141,0.9910888583130156
2012-06-06,-1,-0.0013003764768722468,-0.0010829551080023302,-0.004432044997038,0.004067608341137961,0.9922679365991047
2012-06-08,-1,-0.0015690875987907538,-0.001299458288923542,-0.007662344741303437,0.003788197023431324,0.9914007363977438
2012-06-12,-1,-0.0017089290846928635,-0.0014258804689942272,-0.007662344741303437,0.002009078252120274,0.991593395209488
2012-06-14,-1,-0.0011517887110843545,-0.0009700891032463417,-0.008490212237427207,0.002009078252120274,0.9910103162634819
2012-06-18,-1,-0.0008560299530396376,-0.0007197701810564227,-0.008490212237427207,0.0013593874174356747,0.9916172178468451
2012-06-20,-1,-0.0008138727791234365,-0.0006583292351462844,-0.008490212237427207,0.002569720337170385,0.9886640686024923
2012-06-22,-1,-0.0010919292560562547,-0.0009221478909693086,-0.008585918531341571,0.0023261883979060986,0.9890873979388636
2012-06-26,-1,-0.0014059659289628547,-0.001186917583769752,-0.008585918531341571,0.0042833719127206415,0.9892013923459095
2012-06-28,-1,-0.0012774978201689972,-0.0010833046273265381,-0.008585918531341571,0.013190363435754512,0.9883774332508107
2012-07-02,-1,-0.0008689492583409944,-0.0007241950030662809,-0.008585918531341571,0.0060609699175518785,0.9892743537496304
2012-07-05,-1,-0.0009605027973644719,-0.0007993342137005718,-0.008585918531341571,0.0060609699175518785,0.9891828244342252
2012-07-09,-1,-0.0017044903111003607,-0.0014566411940080998,-0.006266609520342626,0.013190363435754512,0.9894636905550972
2012-07-11,-1,-0.0022046547785018362,-0.0019006987413467333,-0.004918452814473963,0.013190363435754512,0.9899764155463067
2012-07-13,-1,-0.0019242960062379076,-0.001655760257453242,-0.004186912015218603,0.007559995877986971,0.9909469371900193
2012-07-17,-1,-0.0019134198428757145,-0.0016905695534856575,-0.0036484690286585734,0.007559995877986971,0.9912615996114208
2012-07-19,-1,-0.000347352080934038,-0.00029509687356477424,-0.0036484690286585734,0.004760106689428143,0.9936688579260108
2012-07-23,-1,-0.0010300909884071012,-0.0008887943530006341,-0.003563872925312762,0.004760106689428143,0.9944962634615035
2012-07-25,-1,-0.0008327013249368272,-0.0007337495804182923,-0.0036484690286585734,0.004760106689428143,0.9940844618132392
2012-07-27,-1,-0.00026109046686884454,-0.00021525643855232397,-0.0038255903771942674,0.0025152319319707715,0.9945331746083307
2012-07-31,0,0.0,0.0,-0.004268157064577705,0.0025152319319707715,0.9940079541544179
2012-08-02,0,0.0,0.0,-0.005138033114645828,0.0025152319319707715,0.9939081091683571
2012-08-06,1,0.0005884138119035509,0.0007062689519300956,-0.005138033114645828,0.0025152319319707715,0.9944640615107097
2012-08-08,1,0.0006313116171806078,0.0007535586736762614,-0.004904656697691023,0.003023726450179264,0.9938820245061376
2012-08-10,1,0.0006201941231663353,0.0007298093424093045,-0.004904656697691023,0.003744603936264466,0.9938572803157641
2012-08-14,1,0.0005430377981559864,0.0006588595724394619,-0.004904656697691023,0.007364551182601852,0.9935430050067693
2012-08-16,1,0.0011234184197371363,0.0013296576652001733,-0.004904656697691023,0.007364551182601852,0.9936023023300826
2012-08-20,1,0.0008904272459073338,0.0010583548876535445,-0.004904656697691023,0.007364551182601852,0.99371470966764
2012-08-22,1,0.0006157114441491941,0.0007576915444951504,-0.0019658574242550643,0.007364551182601852,0.9942363527198783
2012-08-24,1,0.0010104290411549982,0.0012110875132980254,-0.0019658574242550643,0.003744603936264466,0.994938771725673
2012-08-28,1,0.00027855684764564276,0.00035962150650845146,-0.0015302880502578832,0.003744603936264466,0.9952176075132059
2012-08-30,-1,-0.00014714228503756688,-0.00014258492629637504,-0.0012858486234909364,0.00752267886032519,0.9947713735356664
2012-09-04,1,0.00032837869227926456,0.00042890327196900874,-0.0012858486234909364,0.00794993094050828,0.9945120526467673
2012-09-06,1,0.0008856550403123051,0.0010239654565811678,-0.0012858486234909364,0.007320864954592634,0.9955240889007654
2012-09-10,1,0.0009928945644364791,0.0011379141914247878,-0.001880867659085009,0.00426442253188003,0.9956529900645547
2012-09-12,1,0.0012734232371482122,0.0014568257110395295,-0.003155483329774703,0.0024337008427635282,0.9951098245247113
2012-09-14,1,0.0016759900160573478,0.001909613148205452,-0.003155483329774703,0.0020312213584173875,0.9950268203895969
2012-09-18,1,0.0022159475517976937,0.0025761364200504585,-0.003155483329774703,0.005948135283222576,0.9944605344219546
2012-09-20,1,0.0021142847164735998,0.002450149333733827,-0.003937545059448405,0.005948135283222576,0.9908807954607841
2012-09-24,1,0.0019337670766018205,0.0022564931842481302,-0.005637364064393722,0.005948135283222576,0.9906889457682627
2012-09-26,1,0.0014217729527112827,0.001650153471101208,-0.008335519811567927,0.005948135283222576,0.9901297943694909
2012-09-28,1,0.0017095325706296865,0.0019527079071332413,-0.008335519811567927,0.0053933839659135,0.9902513975113132
2012-10-02,1,0.001722143858071286,0.001961088403415864,-0.008335519811567927,0.005708232655658055,0.9903120570466575
2012-10-04,1,0.0017813554339565964,0.0020204594515418825,-0.009149581265837824,0.005708232655658055,0.9893864716678227
2012-10-08,1,0.0016573122928244944,0.0018864833565691336,-0.01187582401349889,0.005708232655658055,0.9884864119447118
2012-10-10,1,0.0007988990200215147,0.0008694398961930302,-0.010206021223814272,0.005708232655658055,0.9889517446153253
2012-10-12,1,0.0014570541064521524,0.0016270373372907843,-0.010206021223814272,0.0053933839659135,0.9890094559304053
2012-10-16,1,0.0015640992875464812,0.001751985414660036,-0.015241954290557096,0.004658128520155825,0.988773317845351
2012-10-18,-1,-0.00020014146279337793,-0.00016296468184686318,-0.00621050762600156,0.005500162684845997,0.9916376987176312
2012-10-22,-1,-0.0002191625088486148,-0.00015274066266042548,-0.005669185653269688,0.005787016601436633,0.9917405013516536
2012-10-24,-1,-0.0015193424736653694,-0.001258371072825221,-0.005071862038702339,0.006028568812455547,0.9916543751057586
2012-10-26,-1,-0.00022399401732738132,-0.00016825025845342768,-0.005669185653269688,0.005787016601436633,0.9917280577896637
2012-11-01,1,0.00015267681130798087,0.00017088284442127828,-0.006436817902371052,0.004139105540025475,0.9921694130100354
2012-11-05,-1,-0.0004109167577987663,-0.000326687141711347,-0.005669185653269688,0.004139105540025475,0.9932674792058506
2012-11-07,-1,-0.0009857852515248126,-0.0008356447611135127,-0.005071862038702339,0.004332992961401663,0.9942019705044753
2012-11-09,-1,-0.0009241361272837452,-0.0007943542320762798,-0.004040616748416724,0.005614679903029823,0.9936497232700587
2012-11-13,-1,-0.0011587362374449973,-0.0010027333704959486,-0.004322461509979893,0.005787016601436633,0.9931774797838544
2012-11-15,-1,-0.0015882538350948956,-0.0013588589955749104,-0.004055936534200935,0.005787016601436633,0.9938168744486217
2012-11-19,-1,-0.000992341282837719,-0.000804986050065443,-0.004055936534200935,0.0063714412213314335,0.9940069533186936
2012-11-21,-1,-0.0010385489187485417,-0.0008586996706244299,-0.0033018320388589735,0.006225087114419556,0.994446609708846
2012-11-26,-1,-0.0003870022267545008,-0.0003078910182620826,-0.005049925893730557,0.004332992961401663,0.9947220339319389
2012-11-28,-1,-0.0004137409092518522,-0.00033782672522847845,-0.004055936534200935,0.0043609983968611096,0.9950346938587593
2012-11-30,-1,-0.0013199708349006935,-0.0011070730604281448,-0.004055936534200935,0.006225087114419556,0.9944846635963388
2012-12-04,-1,-0.0015630124607195954,-0.0013045288938518032,-0.005049925893730557,0.00841716610569138,0.9931212961661673
2012-12-06,-1,-0.001077003651962867,-0.0008976185892558329,-0.00533021449872894,0.00841716610569138,0.9930731597691589
2012-12-10,-1,-0.0011360368405052511,-0.0009184654029234172,-0.00533021449872894,0.005020190310554802,0.9938371361116669
2012-12-12,-1,-0.0005065715741578991,-0.00043112799489211016,-0.005049925893730557,0.005004475767946992,0.9936880959699773
2012-12-14,-1,-0.0010814187029897435,-0.0008945826062791813,-0.00533021449872894,0.005004475767946992,0.9936727602641457
2012-12-18,-1,-0.0005016908227699751,-0.0003803475044290212,-0.00533021449872894,0.0031736895962541237,0.9942231251273864
2012-12-20,-1,-0.0003632328642038642,-0.0002931838777307713,-0.00533021449872894,0.0045518169479283055,0.9937178187575869
2012-12-24,-1,-0.0006415227702623696,-0.0005333384693573947,-0.0032341264282287423,0.006162944018914151,0.9920630117780369
2012-12-27,-1,-0.0004278542533254608,-0.00033585827442875947,-0.0032341264282287423,0.006162944018914151,0.9922037212671507
2012-12-31,-1,-7.699047828269644e-05,-5.4975480651594184e-05,-0.0032341264282287423,0.0045518169479283055,0.9930358882309139
2013-01-03,1,0.00029821898642407333,0.0003236489346398604,-0.0023712588387851128,0.0045518169479283055,0.9938866125157377
2013-01-07,1,5.2124612429837506e-05,5.2660526169171e-05,-0.0023712588387851128,0.0045518169479283055,0.9938625503539221
2013-01-09,-1,-0.0003279883398679499,-0.0002684737584075388,-0.004936799497367629,0.0045518169479283055,0.9933822265786548
2013-01-11,1,0.00035076390721247623,0.0004037429118266477,-0.005361487870658277,0.0045518169479283055,0.9929783922577389
2013-01-15,1,9.768096342552417e-05,0.00010507567624788478,-0.004936799497367629,0.0045518169479283055,0.993473246496633
2013-01-17,-1,-0.00018274635359705936,-0.00013676235643599356,-0.004936799497367629,0.004841239548364798,0.993391339705614
2013-01-22,1,0.00042109570327895863,0.00046944456110353686,-0.00503008092096206,0.0008601222047899737,0.9933672995181968
2013-01-24,1,4.189753981067127e-05,7.59517347763728e-05,-0.00503008092096206,0.0008601222047899737,0.994854454247564
2013-01-28,0,-1.4605561223755674e-05,3.457337126385379e-05,-0.005373303372029597,0.0018529009177146903,0.9937350990128447
2013-01-30,-1,-0.00015234182474560337,-9.061822224796202e-05,-0.006469279058994607,0.007059449509910245,0.9929665422831779
2013-02-01,1,0.0005559803342190907,0.0006298912747850322,-0.006469279058994607,0.008617711100730573,0.9923427257678292
2013-02-05,1,0.00026493628287051674,0.0003085123637145171,-0.005373303372029597,0.00914631126920865,0.9922897384986419
2013-02-07,1,0.00011568912122330992,0.0001591570615754564,-0.0036922002227221303,0.00914631126920865,0.9925915771354562
2013-02-11,1,0.000373215871172931,0.00047133898946869553,-0.0024702596755308815,0.00842895549997522,0.993329277632341
2013-02-13,1,0.0004154565323403184,0.0005218230925824796,-0.0024702596755308815,0.009307418242285499,0.9922207219354063
2013-02-15,1,0.0006690518547256019,0.0008087630262877649,-0.004287661944224795,0.009307418242285499,0.9920909381354972
2013-02-20,1,0.0002791657426772189,0.00035358118323639784,-0.0020890127952518777,0.009307418242285499,0.9920160745182887
2013-02-22,1,0.0006178945956832188,0.0007233401925594691,-0.0020890127952518777,0.00842895549997522,0.9923512878171548
2013-02-26,1,0.0006388844492168322,0.0007768077727166174,-0.0020890127952518777,0.008004767178503283,0.9929713200519749
2013-02-28,1,0.0006454189162815473,0.0007851077998257592,-0.0020890127952518777,0.008004767178503283,0.9932249812819465
2013-03-04,1,0.001352078438239906,0.001594900292152915,-0.004136718769537911,0.007614239234738304,0.9937166355360944
2013-03-06,1,0.0015431714011277377,0.001805459886964923,-0.006325807881323398,0.007276228156969423,0.9934755832842646
2013-03-08,1,0.0014982604889982793,0.0017322147858880315,-0.0064916796345627,0.007276228156969423,0.9931459648236555
2013-03-12,1,0.0017783952000505997,0.002078293190102768,-0.0064916796345627,0.007614239234738304,0.9925865926099058
2013-03-14,1,0.002429459331513989,0.0028233602545606412,-0.006999831196108591,0.005152221375760085,0.9928036259900275
2013-03-18,1,0.0011023352584201137,0.0012232049269877705,-0.006999831196108591,0.007614239234738304,0.9928342174202537
2013-03-20,1,0.0012752988511471899,0.001434576263893449,-0.008195793751054389,0.005176531969242854,0.9918440306349736
2013-03-22,1,0.0006768852025999599,0.0007231414752469983,-0.00925102367038685,0.005176531969242854,0.9881147453831957
2013-03-26,1,0.0010860208052279573,0.00121536712419522,-0.00925102367038685,0.005585471727728413,0.9877015245152684
2013-03-28,1,0.0015851308457775371,0.001800266612999776,-0.00925102367038685,0.005585471727728413,0.987934539052898
2013-04-02,1,0.0013406344211073335,0.0014993329630917005,-0.00925102367038685,0.012036694584436392,0.9867512855813494
2013-04-04,1,0.0006525967330833155,0.0006840168000023857,-0.010269685541382259,0.013142198415199275,0.9862234762636014
2013-04-08,1,0.0005223344765309449,0.0005333638700057647,-0.010269685541382259,0.013142198415199275,0.9858157511745874
2013-04-10,1,0.0005834528525192948,0.0005912681048626011,-0.010269685541382259,0.012036694584436392,0.9860524279472769
2013-04-12,1,0.00032314395286014085,0.00036023817789594204,-0.010269685541382259,0.012036694584436392,0.9859186640292006
2013-04-16,1,0.0007474448288118423,0.0007951270155972634,-0.010083697310621219,0.010777184209100494,0.9864549590543025
2013-04-18,0,-1.1339839438707342e-05,4.1899041529287496e-05,-0.007900362000251595,0.010777184209100494,0.9870995583008689
2013-04-22,-1,-0.0015155827720669582,-0.0012983754450914611,-0.0006160829997788599,0.012219647784286514,0.9899780671276344
2013-04-24,-1,-0.0007708023970645014,-0.0006359372488266564,-0.004950954526457327,0.010777184209100494,0.9907408130695579
2013-04-26,-1,-0.0007149566580489861,-0.0005643700256337382,-0.004950954526457327,0.0076723180198541565,0.9912708394501863
2013-04-30,1,0.00023834088112026133,0.0002769480101358213,-0.004950954526457327,0.006223488894804202,0.9929293816089877
2013-05-02,1,0.00020448376358225384,0.00024250578646010191,-0.004622564546931142,0.006223488894804202,0.9936557552250441
2013-05-06,1,5.3248908712807275e-05,9.433235892674305e-05,-0.004622564546931142,0.005895922905923624,0.9936896442027441
2013-05-08,1,0.0003705718313121944,0.0003844399401229941,-0.006728905332430618,0.005434252460680175,0.9931105831189566
2013-05-10,1,0.00022149361053531985,0.0002557457284899741,-0.006411712721093258,0.005605808477407365,0.9928514162612795
2013-05-14,1,0.00034009893141659445,0.00034927805739448344,-0.006411712721093258,0.005605808477407365,0.9925556423976285
2013-05-16,1,0.00025841102463098226,0.00027230839200175345,-0.006760157141055975,0.005652711231310189,0.991882192894248
2013-05-20,1,0.0002674473228645974,0.0002959383904251175,-0.006760157141055975,0.005652711231310189,0.9923678907562236
2013-05-22,1,0.00024686522904974833,0.00027008696491301906,-0.009080764325891557,0.005652711231310189,0.9911584365295159
2013-05-24,-1,-6.066172729815575e-05,-1.9808072886738214e-06,-0.010669432907657877,0.005652711231310189,0.9905543096565819
2013-05-29,1,0.00015865043181309283,0.00018321363507814813,-0.010669432907657877,0.005652711231310189,0.9906289884263738
2013-05-31,-1,-0.00021622676985264604,-0.00013827775342919104,-0.0133138849622656,0.004660182002963777,0.9900405168100079
2013-06-04,-1,-0.0006101164293994329,-0.00047845326456466244,-0.010774402828091351,0.004422799323382387,0.9908549296088993
2013-06-06,-1,-0.00035253301967773707,-0.0002618926556752006,-0.009638410695217444,0.007753560926376514,0.990983668305029
2013-06-10,-1,-0.0005211647358375686,-0.0004022765817066963,-0.010774402828091351,0.004975776836539004,0.9909897932000546
2013-06-12,-1,-0.0010290016710891186,-0.0008499560062044414,-0.009638410695217444,0.005584569677466946,0.991330299030376
2013-06-14,-1,-0.0006381352384615901,-0.0005269113132128678,-0.009638410695217444,0.005584569677466946,0.9917298483823325
2013-06-18,1,0.00013137971876472853,0.00014066345956258045,-0.009638410695217444,0.004282108671770754,0.9922394790248413
2013-06-20,-1,-0.0009305263450293572,-0.0008169156390851308,-0.005233995201117071,0.005584569677466946,0.991909608280518
2013-06-24,-1,-0.0011285710452415172,-0.0009816813094608422,-0.0006548541030135863,0.005584569677466946,0.9922189333119111
2013-06-26,-1,-0.0008916810686977505,-0.000780995671130932,-9.631628888924623e-07,0.005814462675964324,0.9921078929294977
2013-06-28,-1,-0.0013828942749557652,-0.0011967763559274506,-9.631628888924623e-07,0.005814462675964324,0.9928904858545249
2013-07-02,-1,-0.0013516209014752816,-0.001155588273847762,-0.0017110901431045234,0.005814462675964324,0.9929568362853044
2013-07-05,-1,-0.0009590882334194989,-0.0008121268830170653,-0.0034362453813382206,0.004107336438510792,0.993726885731055
2013-07-09,-1,-0.001414277610431652,-0.0012177601745701366,-0.0034362453813382206,0.004107336438510792,0.9933060474716611
2013-07-11,-1,-0.0011949479172720496,-0.0010377343993469043,-0.004076965837913,0.003695282421419865,0.9931914329323573
2013-07-15,-1,-0.0010559843448542917,-0.0008987120226860259,-0.0037430316130096326,0.003695282421419865,0.9934961439223603
2013-07-17,-1,-0.0008887741301512087,-0.0007712140361287234,-0.00477981411324628,0.003313935253304462,0.9934038003591359
2013-07-19,-1,-0.0014982335534356691,-0.0012933528432481707,-0.00477981411324628,0.002906951169287315,0.9949563189376669
2013-07-23,-1,-0.0009129473423502282,-0.0007793267256219611,-0.0051557132103090915,0.001754392401333475,0.9949655539323523
2013-07-25,-1,-0.00023773761617770507,-0.00021992925109389852,-0.0051557132103090915,0.001654702495618971,0.9951482304576298
2013-07-29,-1,-0.00033627346725779273,-0.0003184726341068086,-0.00477981411324628,0.001654702495618971,0.9952530881966325
2013-07-31,-1,-0.00024634081677977793,-0.0002455245862971876,-0.005039869593643079,0.001654702495618971,0.9948232287900781
2013-08-02,-1,-0.00024162237354771775,-0.00023712998723294065,-0.005039869593643079,0.001654702495618971,0.9949520246581496
2013-08-06,-1,-0.0003067253054239717,-0.0002740244845169521,-0.004564776588091771,0.0016654357602406856,0.9955266913304152
2013-08-08,-1,-0.0007870645351329411,-0.0007371908253449261,-0.004564776588091771,0.0017865921951986184,0.995802864920119
2013-08-12,-1,-0.0002217441049198564,-0.00019707441849001263,-0.004564776588091771,0.0020021419326483976,0.9950793456132073
2013-08-14,-1,-0.0007380607073173939,-0.0006881585305187998,-0.0038785018596316344,0.003368745905278163,0.9943152739653746
2013-08-16,-1,-0.000784491082379374,-0.0007276128234342937,-0.0032972579963908965,0.006064852967092895,0.9941158844097246
2013-08-20,-1,-0.0005761037062178118,-0.0005621531364273192,-0.0032972579963908965,0.0078518954969309,0.9937011768155373
2013-08-22,-1,-0.0005144365283384696,-0.0005096356343944092,-0.00466530414851058,0.0078518954969309,0.9928622640418293
2013-08-26,-1,-0.000807000719687673,-0.0007471671815166841,-0.005168642028387284,0.0078518954969309,0.9925916195369292
2013-08-28,-1,-0.001013437594238747,-0.0009301107769217052,-0.00466530414851058,0.0078518954969309,0.9928525324025809
2013-08-30,-1,-0.0008063397343935433,-0.000764479279175569,-0.005308472082216847,0.0078518954969309,0.9918635346638732
2013-09-04,-1,-0.000651574155933328,-0.0006285526194603464,-0.005525936654082708,0.006747647561314997,0.9918526689805222
2013-09-06,-1,-0.0006622908939927293,-0.0006428403071924015,-0.005492246705264881,0.006747647561314997,0.9920660462778998
2013-09-10,-1,-0.0005737856298643505,-0.0004997263558180656,-0.008041362647813683,0.005100923409759643,0.9917183009334869
2013-09-12,-1,-0.0012741602498095455,-0.001051383462393212,-0.008041362647813683,0.005448577000785765,0.9912934264082495
2013-09-16,-1,-0.0005602233668287459,-0.00045822357923098003,-0.008041362647813683,0.005448577000785765,0.991205486163514
2013-09-18,0,-1.429535986818029e-05,4.044356478269006e-06,-0.00981974574572725,0.005448577000785765,0.9907852581165062
2013-09-20,1,0.00013882518003426053,0.00016170126309716394,-0.00981974574572725,0.005448577000785765,0.9884703413593697
2013-09-24,-1,-0.0003427847196844848,-0.00033611584735959054,-0.00981974574572725,0.006740872817953786,0.9881653683114895
2013-09-26,-1,-0.00025720280706742824,-0.00024135624164801982,-0.00981974574572725,0.00844458735195768,0.9876718834478257
2013-09-30,-1,-0.0005901055021261664,-0.0005846914130759595,-0.006409121928146759,0.00844458735195768,0.9885116034020787
2013-10-02,-1,-0.0006308677018501202,-0.0006197826119979267,-0.0072086579360216545,0.011294611647663043,0.9873584100307287
2013-10-04,-1,-0.0007776173910993958,-0.0007425129767493833,-0.0072086579360216545,0.011294611647663043,0.9874512212548011
2013-10-08,-1,-0.0013379207784389225,-0.0012455719442852058,-0.005508763797477119,0.011294611647663043,0.9877985679880954
2013-10-10,-1,-0.00017034962521837258,-0.00010610036419033845,-0.005508763797477119,0.007525756974775762,0.9890613493056651
2013-10-14,1,0.0001710804709625418,0.00028202613763883864,-0.005508763797477119,0.008453246602614926,0.9889173989293246
2013-10-16,1,0.00010531124928616573,0.00020697794154419326,-0.005306261268561832,0.006235548966987096,0.9899015993584377
2013-10-18,1,0.00011049987109020514,0.00023203049610498943,-0.005236924921417107,0.006235548966987096,0.9927316336108919
2013-10-22,1,0.0003925943571970301,0.0005470705339492454,-0.0013461727535527923,0.00609876470840489,0.993159052719564
2013-10-24,1,0.0007003841722488522,0.000892131170837759,-0.005249191830317961,0.005484465771764123,0.9936211650634821
2013-10-28,1,0.0006162274655837698,0.0007944771903524592,-0.006117988796695208,0.005484465771764123,0.9925397491360349
2013-10-30,1,0.0006912369765210008,0.0008760555205545602,-0.006117988796695208,0.005484465771764123,0.99349184559408
2013-11-01,1,0.00043186381051806434,0.0005613777355060222,-0.00775263304331982,0.005484465771764123,0.9929637077002175
2013-11-05,1,0.00035700260525901704,0.00048420755706018054,-0.007447395488349169,0.004734883650497087,0.9933781770851081
2013-11-07,1,0.0009311944169908403,0.0011625651942756225,-0.007447395488349169,0.00451584933868192,0.9934840878439946
2013-11-11,1,0.0010197110314313345,0.0012067088030091118,-0.007447395488349169,0.004032421245244346,0.9939844378449042
2013-11-13,1,0.0009131575749331681,0.0010731112022694354,-0.009443215369233576,0.004032421245244346,0.9929202279045958
2013-11-15,1,0.0008716118604581444,0.0010244917248291624,-0.009443215369233576,0.004032421245244346,0.9919534794030608
2013-11-19,1,0.0001744462545527196,0.0002241255770091711,-0.010543941573970879,0.002442764512378557,0.9912556291464725
2013-11-21,1,8.714121820887387e-06,3.10194288552067e-05,-0.010543941573970879,0.00510181004023047,0.9911417457509047
2013-11-25,-1,-0.00016213105415590335,-0.00013837037646931286,-0.00819349615776433,0.008636912596215806,0.9916887948551923
2013-11-27,1,0.00018558636586127255,0.00021690401757678619,-0.004437907551517859,0.008636912596215806,0.9919231575898602
2013-12-02,-1,-9.53760817518495e-05,-8.504284164592864e-05,-0.0022701304005895984,0.008636912596215806,0.992070124833581
2013-12-04,-1,-7.624345031535641e-05,-5.261342679451933e-05,-0.002258936129873759,0.008636912596215806,0.9917242477953943
2013-12-06,1,0.00024489212298000267,0.0003195838307855877,-0.003323118698580427,0.009285755335015172,0.9911471686493247
2013-12-10,1,5.871343410498883e-05,0.00010387616685266426,-0.004864804679729499,0.009285755335015172,0.9906796014671568
2013-12-12,-1,-0.0003600051519079918,-0.000354145229390464,-0.003323118698580427,0.009285755335015172,0.9908600585894509
2013-12-16,1,0.0005040835779499314,0.0006452597965904917,-0.0032113868460474995,0.00961497300392685,0.9916326132993963
2013-12-18,1,0.00047467504890714887,0.0006054489832805151,-0.0018772598599250921,0.008768638825045527,0.9924623058021615
2013-12-20,1,0.00022708404383553986,0.0003184763673413687,-0.0047550140641186775,0.007778808957307099,0.9907956507066479
2013-12-24,1,0.0013368835703827203,0.001568864315538085,-0.008842537298953677,0.007081033052104779,0.9907519196711845
2013-12-27,1,0.0014093280834991152,0.0016169000084136948,-0.009300445566398152,0.006428662884280956,0.9904667969625471
2013-12-31,1,0.0015683449494177872,0.0017632003657563507,-0.009300445566398152,0.005577367052871015,0.990544857263349
2014-01-03,1,0.0014732230192528854,0.001664825519773168,-0.009300445566398152,0.0054353339918207216,0.9899930291127266
2014-01-07,1,0.0009814207554067313,0.001130357864103716,-0.009300445566398152,0.0054353339918207216,0.9908561755133491
2014-01-09,1,0.0005206493984420231,0.0005960344820700337,-0.008971073719565688,0.005843151027347759,0.9908389827602009
2014-01-13,1,0.00019939802718565774,0.00023269007974314955,-0.00660978954975371,0.007309512508318005,0.9909766435630573
2014-01-15,1,0.0010304375876742224,0.0011107479680065198,-0.00660978954975371,0.005843151027347759,0.9913675923147436
2014-01-17,1,0.0012582882574173845,0.0013668860854411102,-0.00660978954975371,0.006106655036486712,0.9912322007541767
2014-01-22,0,-2.8728254810354728e-05,5.4213581116527813e-05,-0.0029999729907825077,0.007395284174524213,0.9929756423577841
2014-01-24,-1,-0.0007463492884253972,-0.0005995652191151909,-0.0029999729907825077,0.007395284174524213,0.9933607847116065
2014-01-28,-1,-0.0011071060190486171,-0.0009026285703964007,-0.0016187391275643138,0.007395284174524213,0.9937061343348753
2014-01-30,-1,-0.0010431526516016618,-0.0008450713314432828,-0.0012269666596742012,0.007395284174524213,0.9937170791315435
2014-02-03,-1,-0.001422084405240383,-0.0012115233670398611,-0.0007652611429397088,0.008294275494608448,0.9938157541538037
2014-02-05,-1,-0.0007117883068768166,-0.0006165998613380054,-0.0007652611429397088,0.007589535133397799,0.9941972556339678
2014-02-07,1,0.00013704341937332792,0.0001669006338337436,-0.0012269666596742012,0.006720599579212448,0.9949208718813044
2014-02-11,1,0.0005996558533523993,0.0007099281591534865,-0.0016630853745289943,0.0050408224224097135,0.9955236493220286
2014-02-13,1,0.0006457098641460071,0.0007142877746586933,-0.003397150445845792,0.003948375770786872,0.9948863005178794
2014-02-18,1,0.0008366230187655272,0.0009295664099073803,-0.003397150445845792,0.004742782242827434,0.9943610055438439
2014-02-20,1,0.0009845319886612471,0.001099641710220433,-0.005404157771239015,0.004742782242827434,0.9933827192747473
2014-02-24,1,0.0003540919401443908,0.0004164952111733634,-0.005322300038816429,0.0056798886599406465,0.9931865626114983
2014-02-26,1,0.0003897070196242345,0.0004549072127830163,-0.006627865855812768,0.007046536447546102,0.9910841158140927
2014-02-28,1,0.0005274472765725365,0.0006059159508017607,-0.007452520822814576,0.006152415908799261,0.990568851003178
2014-03-04,1,0.0002800214917281689,0.0002927999893636619,-0.007452520822814576,0.008958606020309885,0.9903467512662815
2014-03-06,1,0.0007490824762202064,0.0008684858150680137,-0.007452520822814576,0.008958606020309885,0.9901515878048671
2014-03-10,1,0.0007370182732803409,0.0008670966505925537,-0.007206947625546815,0.010509420412440677,0.9896267680309221
2014-03-12,1,0.000730448362127388,0.0008575069866899902,-0.007206947625546815,0.011618622836345814,0.9887065339756352
2014-03-14,-1,-0.0006911149392331783,-0.0005395643755945307,-0.005244033203154293,0.011618622836345814,0.9894167313627326
2014-03-18,1,0.0002750135198155901,0.0003000898444828631,-0.005244033203154293,0.011338075011802649,0.9897212771433185
2014-03-20,1,0.0007514548272041621,0.0008099311603533367,-0.005244033203154293,0.010509420412440677,0.9892616404756162
2014-03-24,1,0.00045631295881231557,0.00047739999078096225,-0.004882602930180225,0.011007135615420414,0.9894265410309951
2014-03-26,1,0.001072988207030401,0.001192135964684655,-0.004882602930180225,0.010509420412440677,0.9911139947369686
2014-03-28,1,0.000767195107215598,0.0008373612110321855,-0.004801414877130735,0.011007135615420414,0.9909986657291918
2014-04-01,1,0.0011142913821761676,0.0012167296630819662,-0.004801414877130735,0.010623408305915398,0.9911024313731652
2014-04-03,1,0.0009297194859002325,0.001022761119613152,-0.005242335572379879,0.010623408305915398,0.9903471220899117
2014-04-07,1,0.0015663022684678936,0.001773766543927463,-0.006350196536905791,0.007777820563412371,0.9906013919099078
2014-04-09,1,0.0017949806342481864,0.002032348758011575,-0.005269300979532416,0.001274557992330413,0.9911913130616626
2014-04-11,1,0.001450901558238463,0.0016380960290557104,-0.004488874545498113,0.007777820563412371,0.991087270075106
2014-04-15,1,0.0017628090839120238,0.0020013476590105437,-0.006792225477517273,0.006387684075776393,0.9906703963579229
2014-04-17,1,0.0009008572130385488,0.0010135606533768617,-0.006792225477517273,0.006387684075776393,0.9920843456159485
2014-04-22,1,0.0006138704619515272,0.0006484633059315977,-0.008606563908793132,0.003961718173977926,0.992125401740186
2014-04-24,1,0.00026418976826176753,0.00027553240345165565,-0.007523165751331525,0.006387684075776393,0.9921929427571088
2014-04-28,1,0.000597073628274251,0.0006121642030925765,-0.007523165751331525,0.003961718173977926,0.992783956881782
2014-04-30,1,0.0007567860335121899,0.0007780479287080963,-0.009599900781295401,0.001854647177084152,0.9928720745142375
2014-05-02,1,0.0001217941816244319,0.00016197518799434857,-0.006286730980536157,0.003377429895163092,0.9939118998105982
2014-05-06,-1,-0.00015776999034254982,-7.649689035964531e-05,-0.006456109579387079,0.003377429895163092,0.9939487486197758
2014-05-08,-1,-0.0007482327776439678,-0.0005672360066362251,-0.006456109579387079,0.004333978407636744,0.9936818802605782
2014-05-12,1,0.00036555317198885677,0.00036745894222964563,-0.007631473564904127,0.0032296598370446144,0.9940558283321455
2014-05-14,-1,-0.00026819641526311595,-0.0001916619485194225,-0.007631473564904127,0.0032296598370446144,0.9943166569243157
2014-05-16,-1,-0.0005608901461937667,-0.00044270304865644185,-0.006456109579387079,0.003377429895163092,0.9946764931032074
2014-05-20,-1,-0.0006262197325326523,-0.0005267751784605174,-0.005798366066151621,0.004589144934831406,0.9948122213922992
2014-05-22,-1,-0.00038738717467236424,-0.0003232444995972995,-0.006415650011133374,0.003377429895163092,0.9948733663636127
2014-05-27,-1,-0.00024327579904357685,-0.00021503963552428065,-0.006925012890442546,0.003377429895163092,0.9947172441030226
2014-05-29,-1,-0.00036292656468614904,-0.00031567513791002754,-0.005968153692588012,0.0032536536666131644,0.9952704208745745
2014-06-02,1,0.0001526079510100604,0.00020002595417834156,-0.005968153692588012,0.0023852003982091368,0.9951807965865902
2014-06-04,-1,-0.00034946288111484074,-0.00030650342099153267,-0.004599175164297274,0.007362748380386899,0.9937589586582612
2014-06-06,-1,-0.00037166778103226046,-0.0003029199990434835,-0.004599175164297274,0.004275407475347891,0.9941372457622039
2014-06-10,-1,-0.00024589974152234873,-0.00022487000857058267,-0.004276459711689393,0.006645247616530136,0.9940814255400147
2014-06-12,-1,-0.00046050902653303586,-0.0004296092425660233,-0.0029045815890327824,0.006645247616530136,0.9946430221647042
2014-06-16,-1,-0.000852641454356664,-0.0007268471835879609,-0.0039280392109533385,0.006645247616530136,0.9942738715187942
2014-06-18,-1,-0.0009245872863541428,-0.0007636993957698919,-0.0039280392109533385,0.006664485281039614,0.9935833632742731
2014-06-20,-1,-0.0015454970715923452,-0.0012970195180839884,-0.0029045815890327824,0.006664485281039614,0.9935573631458807
2014-06-24,-1,-0.0016119754014979437,-0.0013589813433156194,-0.0024658537526886853,0.00804526109167332,0.9930940924324893
2014-06-26,-1,-0.0020472809919438433,-0.0017090872286248129,-0.0029045815890327824,0.008709530446434455,0.9924891563922923
2014-06-30,-1,-0.001749300073406553,-0.0014624063861229065,-0.003941542294473945,0.008709530446434455,0.9923484355475451
2014-07-02,-1,-0.0004877310303885393,-0.0003665304317230274,-0.0043169689622512145,0.006581880563686974,0.9937700878229192
2014-07-07,-1,-0.00047424605983558045,-0.00037271996204996696,-0.004815663857053827,0.006581880563686974,0.9931481496882584
2014-07-09,-1,-0.00019348154087042165,-0.000138500625878661,-0.006439253812173672,0.0037175587801711553,0.9927130295649371
2014-07-11,-1,-0.00029908242525003977,-0.0002306477593453427,-0.00755474846024309,0.007402759666565532,0.9919319179163365
2014-07-15,-1,-0.00022785320003463111,-0.00017617305817894228,-0.0067781479722134955,0.005150327279977327,0.9925036561380188
2014-07-17,1,0.00017983613534418768,0.00019367587665093027,-0.0067781479722134955,0.003567305715273639,0.9932801129873516
2014-07-21,1,5.3455569109344634e-05,7.994471452793872e-05,-0.006074764698442809,0.005150327279977327,0.9930966494724358
2014-07-23,1,0.0003728576936880836,0.00039659634866486904,-0.006074764698442809,0.003937364085121034,0.9938099683612681
2014-07-25,1,0.0005254785128525561,0.000573537608810422,-0.006074764698442809,0.003937364085121034,0.99390734118007
2014-07-29,1,0.0005417843681907797,0.0005995626656861248,-0.004725898519911798,0.004079338657256057,0.9939537858722729
2014-07-31,1,9.003428521490322e-05,0.00010165874563135703,-0.003947805898836114,0.004079338657256057,0.994455474553724
2014-08-04,-1,-0.00014872365024859758,-0.00010664124365940976,-0.003837843356612195,0.004079338657256057,0.9949822695343106
2014-08-06,-1,-0.0009426861787133129,-0.0007807202148773663,-0.0029545584401668118,0.004079338657256057,0.9954205910592099
2014-08-08,-1,-0.0002968749208009516,-0.0002452094834556009,-0.0029545584401668118,0.0037968572721008165,0.9961560901803258
2014-08-12,-1,-0.00020828288409416843,-0.00018360028112424358,-0.0029545584401668118,0.0037968572721008165,0.9959634209975372
2014-08-14,-1,-0.00021547067195105523,-0.00018115952941107636,-0.0029545584401668118,0.0037968572721008165,0.9959877007058965
2014-08-18,1,0.00031032142205893176,0.0003717392307922679,-0.002679815937892108,0.0037968572721008165,0.9962922620684794
2014-08-20,1,0.0002387048194952849,0.00027896926663910533,-0.002679815937892108,0.0041859656974772355,0.996165742604541
2014-08-22,1,0.0004715418606013789,0.000570598513747331,-0.002679815937892108,0.0030627771777985797,0.9964382900161003
2014-08-26,1,0.0007328622606105504,0.0008498502452324982,-0.003837843356612195,0.0027379989246241335,0.9965054331075004
2014-08-28,1,0.00078637528402701,0.0009332607805532703,-0.004033029067808856,0.0029782841471929482,0.995733387518195
2014-09-02,1,0.0008201563909421591,0.0009861393514065022,-0.0028681224862421046,0.0029782841471929482,0.9958565701094373
2014-09-04,1,0.0005950660690923135,0.00071465370967197,-0.0028681224862421046,0.0029782841471929482,0.9954091721742186
2014-09-08,1,0.0007197043361586378,0.0008741513763051742,-0.002231131963412787,0.003932486605660342,0.9953516143089067
2014-09-10,1,0.0006751049656193386,0.0007800218821174668,-0.0028681224862421046,0.003932486605660342,0.9939182541574976
2014-09-12,1,0.0007424825733448942,0.0008719943932587232,-0.005369667923449301,0.003932486605660342,0.9931234049616384
2014-09-16,1,0.0008605882508976079,0.0009859359510167968,-0.00902730441263932,0.0023710401584495205,0.9927475295667303
2014-09-18,1,0.001261070473962456,0.0014719480354897074,-0.011605504252373357,0.001634558200200185,0.9917704084455675
2014-09-22,1,0.0010993855802059593,0.0013030211740965004,-0.013224550530420166,0.0023710401584495205,0.9880313660240873
2014-09-24,1,0.000470697442982654,0.0005422250793997393,-0.014390923547459362,0.001634558200200185,0.9865050201490307
2014-09-26,1,0.0002152685763526105,0.0002488097633507873,-0.013224550530420166,0.001634558200200185,0.9875264963830254
2014-09-30,1,0.00010312772142808841,0.00011636140270452621,-0.013224550530420166,0.0020734575437083443,0.9871252576484945
2014-10-02,1,6.850247932722612e-05,9.684704986558501e-05,-0.011605504252373357,0.0031690864708446183,0.9875926470293326
2014-10-06,1,1.6459331981955648e-05,1.726651303801593e-05,-0.011605504252373357,0.0017469154399136068,0.9881186726939103
2014-10-08,1,0.00024162287233630162,0.0002677874699910287,-0.010670051848555446,0.0006095485940735229,0.9890984554198592
2014-10-10,-1,-0.00037034897304483974,-0.00031027941479118925,-0.01043021433541989,0.0017469154399136068,0.9899019588134409
2014-10-14,-1,-0.0005311162243479967,-0.0004569607110578007,-0.009217376700645302,0.002752406008037583,0.99016273662459
2014-10-16,-1,-0.0007904670238701552,-0.0006837165752814321,-0.005939920640474207,0.004176785283331643,0.990529065608153
2014-10-20,-1,-0.001545005681766344,-0.0013489904750551218,-0.0029442417367140333,0.004176785283331643,0.9940080148800241
2014-10-22,-1,-0.002329692893380413,-0.002048779932297873,-0.002378853959120943,0.004176785283331643,0.9950704733359229
2014-10-24,-1,-0.0023297709992107325,-0.0020432793643140722,-0.003354517017681769,0.004176785283331643,0.9950641743049744
2014-10-28,-1,-0.001907593648037801,-0.0016802077738473854,-0.003354517017681769,0.004176785283331643,0.995310542584019
2014-10-30,-1,-0.0018434426697920537,-0.0016173044228434625,-0.003354517017681769,0.002251772666487607,0.9954243583903799
2014-11-03,-1,-0.0019532273343111587,-0.0017035983125363952,-0.004137037264695316,0.004176785283331643,0.9950658795555142
2014-11-05,-1,-0.002103936830122054,-0.0018458388651863078,-0.0028452818032632704,0.0057785689503790216,0.9949194321833233
2014-11-07,-1,-0.0018115872150733497,-0.001596876735715948,-0.004102296344877539,0.0057785689503790216,0.9947577343613572
2014-11-11,-1,-0.0019778692562651148,-0.0017301094415267072,-0.004789480384495854,0.005775111597025402,0.994222752708877
2014-11-13,-1,-0.00195629689855355,-0.0017102417388937489,-0.004789480384495854,0.004361982057411203,0.9929882252627588
2014-11-17,-1,-0.002218810328859078,-0.0019418874773008252,-0.009172022013258676,0.0021794785263433464,0.992556246509585
2014-11-19,-1,-0.002421366401908367,-0.0021265305046649675,-0.005829277231367297,0.004361982057411203,0.9909516614692084
2014-11-21,-1,-0.0019244848348641617,-0.0017276727756831347,-0.005725054471913967,0.0069848065339160464,0.9898816454265088
2014-11-25,-1,-0.0019208259732268762,-0.0017211210210422766,-0.005725054471913967,0.005693225145153816,0.9900063428024496
2014-11-28,-1,-0.0016969864999400565,-0.0015312408687962547,-0.009172022013258676,0.005693225145153816,0.9895827479496441
2014-12-02,-1,-0.001607175817065804,-0.0014525592808597365,-0.009172022013258676,0.005032503516095273,0.9898501730402252
2014-12-04,-1,-0.0013839840882114182,-0.0012575251321693627,-0.01090321014443235,0.005032503516095273,0.9892675844100514
2014-12-08,-1,-0.0012052518404669782,-0.00113351491100862,-0.012187210648172762,0.005032503516095273,0.988520122664512
2014-12-10,-1,-0.0015600707167639644,-0.0014396049742171828,-0.01090321014443235,0.005032503516095273,0.9882078717278544
2014-12-12,-1,-0.0018620176796906138,-0.0017202554062667316,-0.01090321014443235,0.005032503516095273,0.9891515621153454
2014-12-16,-1,-0.0021951701803184917,-0.00202206843458041,-0.00687534849884985,0.005032503516095273,0.9896932759063025
2014-12-18,-1,-0.0008342328581779909,-0.0008224942209133698,-0.00687534849884985,0.005032503516095273,0.9909673607825136
2014-12-22,-1,-0.0005125944395342588,-0.0005010118496850103,-0.0087392475599869,0.004505464494382775,0.9895991570183017
2014-12-24,-1,-0.0007928432174375335,-0.0007726588852999261,-0.0087392475599869,0.0034989550281214945,0.9896182402316934
2014-12-29,-1,-0.0009815069110739347,-0.0009229878902759637,-0.014280538981597882,0.0034466511230989375,0.988922818275758
2014-12-31,-1,-0.0008744657189372225,-0.0008393272937609385,-0.014401300423078807,0.005790916947089623,0.9872133338860148
2015-01-05,-1,-0.0009370962264951803,-0.0008956079562834287,-0.013836017598477373,0.010760986359164114,0.9867627116599311
2015-01-07,-1,-0.001358289167149298,-0.0012768318781945303,-0.010595447657418891,0.010760986359164114,0.9872524747680553
2015-01-09,-1,-0.0005613714718443754,-0.0005341929960874611,-0.010595447657418891,0.006740783614100845,0.988021739469877
2015-01-13,-1,-0.0007267477068199661,-0.0007151493049130061,-0.00830327349843399,0.010760986359164114,0.9879737949926268
2015-01-15,-1,-0.000924790774297641,-0.0009179826252488383,-0.008034110345157115,0.013051528570468575,0.9878331888546341
2015-01-20,-1,-0.0002707960814746014,-0.00016772503846400853,-0.008034110345157115,0.009569223982451637,0.9882548901951901
2015-01-22,-1,-0.00036407963634596573,-0.00027472247376563217,-0.006525994297997034,0.009224674274505263,0.9902207728768113
2015-01-26,-1,-0.00025686934563706986,-0.0001522489493497376,-0.006525994297997034,0.010807599281758937,0.9897787886114935
2015-01-28,-1,-0.0007990103155092037,-0.0007668991174224566,-0.006525994297997034,0.010807599281758937,0.9900196681226326
2015-01-30,-1,-0.000478940726089832,-0.00039868374765765133,-0.006525994297997034,0.009224674274505263,0.9912665843585282
2015-02-03,1,0.0004989350451823053,0.000723671977715124,-0.007905869423730576,0.006898927371231832,0.9923694112978846
2015-02-05,1,0.00042357852472312116,0.0006393906461940343,-0.007905869423730576,0.008351605476890091,0.9917700199945528
2015-02-09,1,0.00037083363200790856,0.0005978824710470401,-0.009261322808533149,0.010621183042286323,0.990888267941914
2015-02-11,1,0.0008605239966118206,0.0011623992058945021,-0.009261322808533149,0.008351605476890091,0.9912920135683393
2015-02-13,1,0.0012510805069866726,0.0015958906410785075,-0.010477558685126408,0.008351605476890091,0.9898581218708216
2015-02-18,1,0.001721865161184256,0.0021253549026439673,-0.010477558685126408,0.010621183042286323,0.9893165458469045
2015-02-20,1,0.0019183229077867467,0.002330658370439295,-0.010477558685126408,0.011226446322706097,0.9889460395258597
2015-02-24,1,0.0021715166143660043,0.0026191145332622014,-0.010477558685126408,0.010818134510628137,0.9887254586046036
2015-02-26,1,0.001269766908063706,0.0015723949290646095,-0.009925289354905057,0.010818134510628137,0.9885025487305574
2015-03-02,1,0.0014959741110205486,0.001855602766687802,-0.009925289354905057,0.01181804249518124,0.9885480800409977
2015-03-04,1,0.0013200068154245563,0.0016555924052497045,-0.010760723034813563,0.01181804249518124,0.9879912388290453
2015-03-06,1,0.0009658127738279635,0.0012255468756059184,-0.008643461554437985,0.011596146922575894,0.988576868471303
2015-03-10,1,0.000728182749715392,0.0009381529615544011,-0.0068561117279067295,0.010118284483659758,0.9900130539048804
2015-03-12,1,0.0003715098860065503,0.0004929147550097916,-0.00307415921589108,0.010118284483659758,0.9904273827931467
2015-03-16,1,0.0004525860187209023,0.0006160401546146072,-0.0017549208615655091,0.009025784777242963,0.9922694038974517
2015-03-18,1,0.00027592028082955387,0.000333508922783633,-0.0037336810984119877,0.009025784777242963,0.9923141707761728
2015-03-20,1,0.0009536268644689211,0.001103802283128418,-0.006625624777530215,0.009025784777242963,0.9908136950480161
2015-03-24,1,0.0011567451050083905,0.0013499150513887766,-0.006625624777530215,0.008166546190788417,0.9909370427646699
2015-03-26,1,0.0007762342305941303,0.0009300850796173667,-0.0037336810984119877,0.008461170000027357,0.9909479081940725
2015-03-30,1,0.0012217800300456348,0.0014358353526858552,-0.0037336810984119877,0.008461170000027357,0.9906245262836049
2015-04-01,1,0.0002777887518236705,0.0003373196002799898,-0.002763326448179721,0.008461170000027357,0.9906222664488197
2015-04-06,1,0.0008069430386534492,0.0009378255838313062,-0.002763326448179721,0.007841364537092782,0.9908254088663744
2015-04-08,1,0.0009474600977512468,0.001112032025307646,-0.005360054130409159,0.007841364537092782,0.9898062358221569
2015-04-10,1,0.001090545287260309,0.001268119508236197,-0.005360054130409159,0.010231567363851623,0.9893779839122588
2015-04-14,1,0.0011148690107360133,0.0013119628059492432,-0.00682806448868046,0.010231567363851623,0.9889546325696584
2015-04-16,1,0.0009842922453286536,0.0011309119315999197,-0.006095379533488647,0.010176226179012125,0.9888657286213072
2015-04-20,1,0.0014588357608443909,0.0016616840967985944,-0.004683178310761606,0.009948611952181819,0.9909764518057755
2015-04-22,1,0.0013977963125368469,0.0016015961393988916,-0.0036330059945012495,0.009948611952181819,0.9918076678830209
2015-04-24,1,0.002255298774498804,0.0025749479086733897,-0.004683178310761606,0.006667493166884609,0.9928112039169646
2015-04-28,1,0.0029600724705861354,0.003375935921480404,-0.005452182933149166,0.006616763452982599,0.9923893115821267
2015-04-30,1,0.0025896534486188017,0.0029701680403652906,-0.005452182933149166,0.006616763452982599,0.992595280378641
2015-05-04,1,0.0027810340165038186,0.0031591905029480804,-0.005452182933149166,0.0037249722749119964,0.9928089238311276
2015-05-06,1,0.0018469964127278042,0.002083422448856095,-0.005019535431898885,0.0037249722749119964,0.993856697728639
2015-05-08,1,0.001730507171926727,0.0018896132983651276,-0.007104450896900483,0.0018172416162268324,0.9933614607194283
2015-05-12,1,0.0007604669388718339,0.0007782819880877606,-0.0059804513552664225,0.0026012086244152745,0.9933532405351425
2015-05-14,1,0.0019174999429205485,0.0021194793202439417,-0.007111712004707294,0.0017245915991010502,0.9932545199278304
2015-05-18,1,0.0020116343243527963,0.002266669507561725,-0.007111712004707294,0.0021489866122621436,0.9933194609432289
2015-05-20,1,0.0021097410189190886,0.0023808593483445988,-0.007111712004707294,0.0023232585730379282,0.9930923739777897
2015-05-22,1,0.0016427858594340121,0.001834809509249072,-0.007882417531281705,0.003215139784233151,0.9932989041051714
2015-05-27,1,0.001528279410091954,0.0017023058218433697,-0.007882417531281705,0.003215139784233151,0.993710897935203
2015-05-29,1,0.0010022951151955194,0.00109389595275721,-0.006237353197457893,0.003215139784233151,0.9939577064377687
2015-06-02,1,0.00042959035801114296,0.0004614832276545732,-0.007882417531281705,0.0024143738505284507,0.993413096500868
2015-06-04,1,0.0005792723563749743,0.0006057087816057192,-0.006237353197457893,0.0038436290033591514,0.9932308957874304
2015-06-08,-1,-0.0003253856900031838,-0.0002195355301294582,-0.004611188534647542,0.0038436290033591514,0.9940370307781281
2015-06-10,1,4.7780073050394814e-06,9.729307369947765e-05,-0.005869940369910737,0.003793015224282152,0.9943325389559441
2015-06-12,-1,-0.0001393453952780008,-4.921241336682615e-05,-0.004611188534647542,0.0046500964141218,0.993238663517047
2015-06-16,-1,-0.00047553329573140994,-0.0003251555762371022,-0.004742102457357211,0.0046500964141218,0.9934198071978066
2015-06-18,-1,-0.00011293524054078801,-1.7995858354094e-05,-0.004742102457357211,0.006187226845272998,0.9926490716177385
2015-06-22,-1,-0.0008685515710944795,-0.0006407555791700337,-0.004742102457357211,0.006187226845272998,0.990192902038411
2015-06-24,-1,-0.0007722190372397908,-0.000590395678895715,-0.004742102457357211,0.008662215922112675,0.9896770920674961
2015-06-26,-1,-0.000478415618797795,-0.00037581837623406575,-0.0061974010606601964,0.008662215922112675,0.9892934431561204
2015-06-30,-1,-0.0010376537447212828,-0.0008593636748468416,-0.004329022388749897,0.008662215922112675,0.9893021557570341
2015-07-02,-1,-0.0009204620339438905,-0.0007373099689731372,-0.004329022388749897,0.0070250045652957074,0.98979520357943
2015-07-07,-1,-0.0006262914501401751,-0.000495440727162016,-0.008033300790537663,0.0070250045652957074,0.988739464336771
2015-07-09,-1,-0.0007343422270565768,-0.0006091298026682093,-0.007747005582852631,0.0070250045652957074,0.988895422228844
2015-07-13,1,0.0003027873357563382,0.0003117694562319458,-0.008259021589860874,0.006423779441880353,0.9895735414754384
2015-07-15,1,0.00020091591927261438,0.0002076768734286113,-0.008434603340326563,0.006423779441880353,0.9892564673258865
2015-07-17,1,0.0008977806157760926,0.001010697772062693,-0.008434603340326563,0.004829069648173879,0.9898106061247465
2015-07-21,-1,-0.0008074263072041281,-0.0006740133094785878,-0.007735118196444006,0.004829069648173879,0.9927979805096553
2015-07-23,-1,-0.0010023365699567792,-0.0008415060205395014,-0.00801175657334664,0.004231130717329892,0.9930920320398715
2015-07-27,-1,-0.00180585392650136,-0.0015364656892322055,-0.008737773219637398,0.004231130717329892,0.9910266237573451
2015-07-29,-1,-0.0012368451000233835,-0.0010360373413189823,-0.010821840080789744,0.003741561878907881,0.988815311291995
2015-07-31,-1,-0.0012269759130063024,-0.0010204454993472216,-0.010821840080789744,0.003741561878907881,0.9883962805977021
2015-08-04,-1,-0.0017874276078336938,-0.0015240381333899693,-0.010821840080789744,0.003741561878907881,0.9880635162895857
2015-08-06,-1,-0.0019199442231345627,-0.001642606078379846,-0.009553299779849977,0.005915864551469766,0.9871145423374493
2015-08-10,-1,-0.0013486421497370406,-0.0011675542013558984,-0.014325042009472204,0.006270585962552211,0.9856835911811502
2015-08-12,-1,-0.0011085326264989068,-0.0009666065220476815,-0.015478837396100906,0.00892794756485813,0.9851255550923311
2015-08-14,-1,-0.0013726480658935746,-0.001189026399485568,-0.015478837396100906,0.008983767700252943,0.9847672019088057
2015-08-18,-1,-0.001364729567396057,-0.0011793293129121096,-0.015478837396100906,0.012080813390452482,0.9839977383619506
2015-08-20,-1,-0.0017036292168618886,-0.0014885999229317048,-0.018367126094018516,0.012080813390452482,0.9837834204688477
2015-08-24,-1,-0.0028807973029464033,-0.002509243523716802,-0.014197973320472597,0.012633866929705431,0.9851316819908389
2015-08-26,-1,-0.0015769240477581446,-0.0013873568063285128,-0.012252255385363595,0.012080813390452482,0.9875668937609515
2015-08-28,-1,-0.001951699967641527,-0.0017058108543292186,-0.014197973320472597,0.008983767700252943,0.9870392259197183
2015-09-01,-1,-0.0024027038579799813,-0.002115266086762697,-0.012252255385363595,0.012172099431429079,0.987597476039458
2015-09-03,-1,-0.002003257160289081,-0.001759782624954947,-0.012252255385363595,0.007946906501266768,0.9884691526622665
2015-09-08,-1,-0.0019150259331727182,-0.0016824159153692704,-0.010057289648466333,0.007946906501266768,0.989102066418594
2015-09-10,-1,-0.0015783442019746813,-0.001424431728117881,-0.006378335449577325,0.009830670944438407,0.9889223513580901
2015-09-14,-1,-0.0019397254485179836,-0.0017325714161100531,-0.0060491917128281045,0.009830670944438407,0.989385594458073
2015-09-16,-1,-0.0011224197361148376,-0.0010291264836552274,-0.008531844433902322,0.007446689871673965,0.989912504395363
2015-09-18,-1,-0.0011070469626670513,-0.0010569752281640676,-0.0060491917128281045,0.007446689871673965,0.9908422419278519
2015-09-22,-1,-0.0014227192378011499,-0.0013104726335993362,-0.00788549775843055,0.006919505847215363,0.989079614261931
2015-09-24,-1,-0.0008390806279336493,-0.0008040510854730602,-0.00788549775843055,0.007446689871673965,0.9883857389340343
2015-09-28,-1,-0.0015373494732286808,-0.0014092958684972677,-0.007232472181814846,0.0073722713038927535,0.9890099817561597
2015-09-30,-1,-0.0009082946529907054,-0.0008732369964299237,-0.00788549775843055,0.0073722713038927535,0.9870421942172055
2015-10-02,-1,-0.0005493648629843114,-0.0005437576776553667,-0.007232472181814846,0.005272259518950329,0.9876883471269822
2015-10-06,-1,-0.00026373679368869797,-0.0002011525313820823,-0.007232472181814846,0.005272259518950329,0.9886893860942311
2015-10-08,1,0.0004949052621295777,0.0006540031291056608,-0.00788549775843055,0.002204365354017626,0.9892381607385919
2015-10-12,1,0.00017722472178036342,0.0003071761465111784,-0.010473569840321226,0.002204365354017626,0.988027645997467
2015-10-14,1,4.145672279303418e-05,0.00014031506304863908,-0.008765713091323558,0.0020166582251489977,0.9884250199498992
2015-10-16,1,0.00024541604457737167,0.0003824335492851222,-0.011864059644277673,0.0020107375525004094,0.9872906703202821
2015-10-20,-1,-0.0013199461844798112,-0.0012389700389235636,-0.010203134358838253,0.0025763862239539517,0.9899076240847088
2015-10-22,-1,-0.00033319945063110085,-0.0002815831644142321,-0.010203134358838253,0.004764442363123629,0.9899329413412588
2015-10-26,-1,-0.0006946633563115987,-0.0006895206262300843,-0.010203134358838253,0.007769597301251978,0.989808688154132
2015-10-28,-1,-0.0008126919132546431,-0.000776770495564466,-0.005670804245969335,0.0032461446423791875,0.9926038996102547
2015-10-30,-1,-0.0008161834687007339,-0.0008124591293573488,-0.005670804245969335,0.006813618765212275,0.9921837507760375
2015-11-03,-1,-0.0005098666969439721,-0.0004918805348828428,-0.010068104690863154,0.006813618765212275,0.9917266132567452
2015-11-05,-1,-0.000904503179160009,-0.0008799993788938244,-0.006611706594459369,0.007917399817630242,0.9914850868420028
2015-11-09,-1,-0.0013435639340110112,-0.0012817808768466929,-0.005754257766824729,0.007917399817630242,0.9922066287338036
2015-11-11,-1,-0.0013293778555377297,-0.0012659162619793152,-0.007123978652638703,0.007917399817630242,0.9918575465678895
2015-11-13,-1,-0.0018399006289244102,-0.0017140483734276167,-0.005754257766824729,0.010297077013104741,0.9915226932418324
2015-11-17,-1,-0.0014260170964077328,-0.001345405445737803,-0.005754257766824729,0.010873731659572006,0.9911808789184346
2015-11-19,-1,-0.0010156626739144725,-0.000972125468354214,-0.010510466822010643,0.010297077013104741,0.9909826397848267
2015-11-23,-1,-0.00038767900592295607,-0.00033113029304767956,-0.010510466822010643,0.010297077013104741,0.9905706296011371
2015-11-25,-1,-0.0003358213487810285,-0.00025374940167024063,-0.010510466822010643,0.010297077013104741,0.9905323334003323
2015-11-30,-1,-0.00023810774005046548,-0.0001663042866940831,-0.010510466822010643,0.010873731659572006,0.9900595623562849
2015-12-02,1,0.00027191484927269834,0.00046801526597625416,-0.010510466822010643,0.010297077013104741,0.9905293367135144
2015-12-04,1,0.0006679796973761389,0.0009055469195566637,-0.011095266515237796,0.005862329271782113,0.9906045346168028
2015-12-08,1,0.0005399552824179193,0.0008077801814142374,-0.01218712874891299,0.005862329271782113,0.9903924953717005
2015-12-10,0,-0.00011572991227875039,1.4011914499667858e-05,-0.01218712874891299,0.010301176019109065,0.9899888281812549
2015-12-14,0,-8.829788708028443e-05,4.2824636430826126e-05,-0.01218712874891299,0.006057280157940749,0.9905108598543341
2015-12-16,1,0.00023281772053060623,0.00037780681084818537,-0.012512285704353084,0.004428833719917705,0.989877595650811
2015-12-18,-1,-0.00027293550958944977,-0.00016015292662826982,-0.012512285704353084,0.004428833719917705,0.9885126597622684
2015-12-22,1,0.0006135458476618541,0.0008308199295934842,-0.012512285704353084,0.0005539975426195173,0.9886198096793205
2015-12-24,1,3.154964861456724e-05,0.0001344786885585428,-0.012512285704353084,0.000492758229263405,0.9888348125488222
2015-12-29,1,0.00043444743366004025,0.0005792563622971467,-0.013087091359181216,0.000492758229263405,0.9884818398902028
2015-12-31,1,3.905604708118551e-06,0.00010334037195868878,-0.013087091359181216,0.005287315353176005,0.9884183120420238
2016-01-05,1,5.8604669870766844e-05,0.00017568195894082818,-0.013663731229610792,0.009066540436912624,0.9876049184455382
2016-01-07,-1,-0.0005056400580153666,-0.0004712188712043586,-0.013087091359181216,0.010851318873521669,0.9871683014193817
2016-01-11,-1,-0.0001849433314933506,-0.00010722082189699425,-0.013663731229610792,0.009066540436912624,0.9865289110430795
2016-01-13,-1,-0.0009915941895535174,-0.0009469660586913403,-0.01622273971587701,0.009066540436912624,0.9848797874219781
2016-01-15,-1,-0.001792724001252933,-0.0015894915609264118,-0.01485951595475304,0.011323736723097616,0.9845673807038215
2016-01-20,-1,-0.0022268021499474433,-0.002038324499505028,-0.012599219969013236,0.016115869066533037,0.983456537082979
2016-01-22,-1,-0.002759770465092217,-0.002493513039852969,-0.012599219969013236,0.016115869066533037,0.9832354477975255
2016-01-26,-1,-0.003346878748265252,-0.002973692433182933,-0.012599219969013236,0.016115869066533037,0.9828569134567106
2016-01-28,-1,-0.002671474856985787,-0.002420439015945613,-0.013060278563602064,0.016115869066533037,0.9826185347745217
2016-02-01,-1,-0.00190500113743511,-0.0017580110928102502,-0.013060278563602064,0.01673211391962912,0.9823923744480625
2016-02-03,-1,-0.0016205036782338679,-0.001502434524478255,-0.010772815211019776,0.016645644567482812,0.9824818256377401
2016-02-05,-1,-0.0008143330246557995,-0.0007775316959684091,-0.010772815211019776,0.015035921991298894,0.9833252710314135
2016-02-09,-1,-0.0017548335701319212,-0.0016419243718970647,-0.007607035083942936,0.015035921991298894,0.9837981703889216
2016-02-11,-1,-0.0034023458363077975,-0.003066282861515107,-0.0003917138983524031,0.015872677789656318,0.9844214125148684
2016-02-16,-1,-0.0020065259575800963,-0.0018391482711490777,-0.0003917138983524031,0.014642236347442184,0.9869233266474345
2016-02-18,1,0.0005533255506649033,0.0007213849616172107,-0.0003917138983524031,0.01319171835627992,0.990579100792106
2016-02-22,1,0.0002777803570521596,0.0003707677535461245,-0.0003917138983524031,0.01319171835627992,0.9903810808426083
2016-02-24,1,0.0007356392605544125,0.000928882208844078,-0.0020666016770250514,0.01319171835627992,0.9900874693943044
2016-02-26,1,0.0003516939764006354,0.0005130533527770811,-0.0003917138983524031,0.014642236347442184,0.9905505776634532
2016-03-01,1,0.0013330626796877617,0.001639144373786317,-0.0003917138983524031,0.013191444776680205,0.9919288781106835
2016-03-03,1,0.002402661349369322,0.00290812732272338,-0.0003917138983524031,0.01347036337613268,0.9921508804747772
2016-03-07,1,0.002816116426299418,0.003345802483480281,-0.003104263781391365,0.011052537502345588,0.9919591423517176
2016-03-09,1,0.0025708186855123508,0.003064948370567369,-0.003104263781391365,0.011052537502345588,0.9919363067227213
2016-03-11,1,0.002145115801000964,0.002389541843855808,-0.003104263781391365,0.008182342836098587,0.9922477169282691
2016-03-15,1,0.0022006005292104424,0.0024484413404534024,-0.003104263781391365,0.010525585859606126,0.9919086274142226
2016-03-17,1,0.0039012732160422676,0.004413527910202832,-0.003104263781391365,0.007153768967403794,0.9926711610693528
2016-03-21,1,0.00376660234849054,0.004254710306705201,-0.004214603393468807,0.006466390466043724,0.9901900766608452
2016-03-23,1,0.002908363868303793,0.0033086938627591963,-0.0012398260919942615,0.008238152176880719,0.990263812937123
2016-03-28,1,0.0035749369365349975,0.004050726528726711,-0.003552384930099164,0.007153768967403794,0.9904588757176529
2016-03-30,1,0.0037383719573156485,0.004266429679645566,-0.0012398260919942615,0.007895863416214796,0.9906888828062914
2016-04-01,1,0.0033327080918114597,0.0037565092747436643,-0.005939599320154207,0.00585899932960104,0.989871283658473
2016-04-05,1,0.002416640587708166,0.0026883557139483834,-0.005939599320154207,0.00585899932960104,0.9902937775329772
2016-04-07,1,0.0018737828453152395,0.0020654885417673292,-0.004782766628733158,0.007895863416214796,0.9904198372391113
2016-04-11,1,0.0013361584204780036,0.001374146874872423,-0.004782766628733158,0.0065297590765596315,0.9904340691202573
2016-04-13,1,0.0019461672981382484,0.0020948566561145086,-0.005719083571810087,0.0065297590765596315,0.9897781901517818
2016-04-15,1,0.002643153701925505,0.0029505137624197125,-0.006982224891887809,0.0065297590765596315,0.989226663961346
2016-04-19,1,0.0028431501326815064,0.0032065794915923642,-0.006982224891887809,0.009937659347256291,0.9911328378068812
2016-04-21,1,0.0037395856837749955,0.004208582851641591,-0.007564468985742237,0.002965277665699038,0.990852910807524
2016-04-25,1,0.0033641660621292007,0.003779297801881739,-0.007564468985742237,0.0065297590765596315,0.9906143088250475
2016-04-27,1,0.003762740233707343,0.004231172952237459,-0.007564468985742237,0.010814217688918616,0.9896161103696256
2016-04-29,1,0.002424040705748978,0.002731446613787177,-0.0051435256778406815,0.010814217688918616,0.9915909120717538
2016-05-03,1,0.0015125107179444902,0.001654492712031196,-0.005044887338240498,0.010814217688918616,0.991689273391394
2016-05-05,1,0.0012035973323031315,0.0012734061239507253,-0.005044887338240498,0.007491732808522553,0.9918531540206399
2016-05-09,1,0.0010536740245628954,0.0010702913235517365,-0.005044887338240498,0.007491732808522553,0.9918395717857635
2016-05-11,1,0.0018750341464753855,0.0020501380885617746,-0.004095313476746758,0.0060392808359459515,0.992734774490134
2016-05-13,1,0.0011111008730891098,0.0011385827573924176,-0.005055520650514024,0.0060392808359459515,0.9923757728543751
2016-05-17,1,0.0014756158099754602,0.0015863339010010209,-0.004095313476746758,0.005180405012149422,0.9931336886143641
2016-05-19,1,0.0003836228955770573,0.0004052575639422937,-0.003386408514253227,0.005955539880705461,0.9938769534332415
2016-05-23,1,0.0013340677862604768,0.001479975108268942,-0.002828206014160046,0.005955539880705461,0.9944617086033918
2016-05-25,1,0.0019758865426284995,0.0021628768840015423,-0.003818219835845601,0.005180405012149422,0.9949089966370839
2016-05-27,1,0.0017697294016605382,0.0019101200423266077,-0.006921336178634342,0.00474937519524593,0.9910535150583972
2016-06-01,1,0.0015292387804445402,0.001619992977480991,-0.004691437915984336,0.0062402197806957355,0.9902089306348816
2016-06-03,1,0.0016137583667368417,0.0017257714951504498,-0.0045357051865930744,0.00728202524718926,0.989616002751329
2016-06-07,1,0.0011468132043978296,0.0011594663494913188,-0.0050092896834907155,0.00728202524718926,0.9893203129810568
2016-06-09,1,0.0013950978062749182,0.0014677583551414763,-0.0050092896834907155,0.011041173006832486,0.9892449371693736
2016-06-13,1,0.00047118372449135603,0.0005392065455974308,-0.0017195799061095977,0.011303851310749992,0.9890267160853217
2016-06-15,1,0.00023422455847326102,0.00033004184311845883,0.002268746923505601,0.012717024353851561,0.9881869578189945
2016-06-17,-1,-0.0007498519241667184,-0.0004501192913434149,-0.00040431844794609,0.012717024353851561,0.9880597040141471
2016-06-21,-1,-0.0006508307393084775,-0.00035607741228670673,-0.002093603190182835,0.012717024353851561,0.98819782698125
2016-06-23,0,-0.00014536457164090544,6.934544237042291e-05,-0.002093603190182835,0.011412886754746927,0.9887110440984355
2016-06-27,-1,-0.0025442495594256796,-0.0020449102066297234,-6.233788492562603e-05,0.011412886754746927,0.9910808408350001
2016-06-29,-1,-0.00113770419328148,-0.0008401514089610853,-0.002052178964924257,0.010324726853668167,0.9934057053128208
2016-07-01,-1,-0.001324495181091289,-0.0009417426403029463,-0.002911767524250305,0.007204438973513009,0.9943303595560369
2016-07-06,-1,-0.0021472329348617225,-0.0016125018422756994,-0.002911767524250305,0.007204438973513009,0.9943517263326762
2016-07-08,-1,-0.001340130235947213,-0.0009547489659471515,-0.002911767524250305,0.007204438973513009,0.9942867292753382
2016-07-12,1,0.00016993440889211678,0.0002788703255428001,-0.003154301675685307,0.0056679303589673045,0.9946767696976397
2016-07-14,1,0.0006499707183129462,0.000699042259061805,-0.003154301675685307,0.005244830628086176,0.9950951372042961
2016-07-18,1,0.00034828722109031475,0.00044284058483507046,-0.00360584418558051,0.005244830628086176,0.9947882758950723
2016-07-20,1,0.00028529094129693124,0.0004045723860565938,-0.0048329139813995175,0.003975855402888158,0.9949679226429339
2016-07-22,1,0.0005610645709848084,0.0006281866339634415,-0.0048329139813995175,0.003975855402888158,0.9949774329595811
2016-07-26,1,0.0007389486456347373,0.0007579400987627019,-0.0048329139813995175,0.002729022955734296,0.9951545903698337
2016-07-28,1,0.0007695837415890439,0.0007738696413450777,-0.005863852397994853,0.002729022955734296,0.9948654856227946
2016-08-01,1,0.0006728088478335245,0.0006836608470590231,-0.005863852397994853,0.002806452627907936,0.994847766673062
2016-08-03,1,0.000647145016870394,0.0006481070436302331,-0.004269018795604321,0.002806452627907936,0.9948305160414759
2016-08-05,1,0.0010221917712994412,0.0010715902753607918,-0.004269018795604321,0.0016978061601047492,0.9952956183213293
2016-08-09,1,0.0009778213479315972,0.001060547699891014,-0.0027960932520366983,0.004369036742641404,0.9954063035016718
2016-08-11,1,0.00130509204323048,0.0014408785427221576,-0.007354591760329518,0.0022572534582850795,0.9937824892182322
2016-08-15,1,0.0006780341298992647,0.0006963519788528202,-0.007354591760329518,0.004369036742641404,0.9929714510078346
2016-08-17,1,0.0007098196973544317,0.0007588099342832397,-0.007707767418562138,0.005194109018305361,0.9924129939222764
2016-08-19,1,0.000580420743486682,0.0006087732560787662,-0.008486610024623394,0.00543439534922464,0.9922100258039737
2016-08-23,1,0.0009079243067326665,0.0010178728264397293,-0.008486610024623394,0.006769619376634479,0.9917928673062782
2016-08-25,1,0.0004238545803138483,0.0004431359050560284,-0.008252824821644664,0.006769619376634479,0.9918566981449533
2016-08-29,1,0.0004189629852723679,0.00042031235216599385,-0.008252824821644664,0.006769619376634479,0.9911717851680922
2016-08-31,1,0.0003083492755574641,0.0003153654437227705,-0.008252824821644664,0.007255634020585655,0.9909425340614652
2016-09-02,1,0.0005432163474852483,0.0005859312355147666,-0.008678545305501674,0.007255634020585655,0.9905489536780044
2016-09-07,1,0.0008454066726622349,0.0009286134793497691,-0.008678545305501674,0.006769619376634479,0.9905707003678447
2016-09-09,-1,-0.0009248496140485936,-0.0007177311668825918,-0.007400587284034238,0.006769619376634479,0.9921860791817804
2016-09-13,-1,-0.0003014113958758271,-0.00021938102156193604,-0.007400587284034238,0.006769619376634479,0.9925340935060388
2016-09-15,-1,-0.00040078084867690343,-0.00029875777312833926,-0.007252992604582924,0.0051840509765076065,0.9933167483828657
2016-09-19,-1,-0.0004340518033996218,-0.0003421827808911277,-0.006648886611278475,0.004697436106928033,0.9938533130926992
2016-09-21,-1,-0.0006503606302724913,-0.0005064498374449905,-0.007252992604582924,0.00414212330877643,0.9929097685459487
2016-09-23,-1,-0.0010392259993415036,-0.0008339122209405621,-0.007400587284034238,0.00414212330877643,0.9928176651941678
2016-09-27,-1,-0.000488339650037271,-0.0003612219167123926,-0.007400587284034238,0.00414212330877643,0.9934862104802928
2016-09-29,-1,-0.0004010178359956655,-0.00028722938422979534,-0.007400587284034238,0.004697436106928033,0.9931746189281834
2016-10-03,-1,-0.0003809398590942452,-0.0002796165096797326,-0.005443302127585161,0.005102624628669285,0.9931983816428457
2016-10-05,-1,-0.0006312617145564276,-0.0004902163480917884,-0.005587281942155054,0.005102624628669285,0.9932474530584356
2016-10-07,-1,-0.0008170232744066757,-0.0006568605797567809,-0.004993607349920585,0.005102624628669285,0.9933961621530634
2016-10-11,-1,-0.0012434771080697903,-0.0010115026892370282,-0.003977092625284705,0.005102624628669285,0.9932443129572125
2016-10-13,-1,-0.0011936238772566419,-0.000981630054543479,-0.0038553281896341,0.00619349619620246,0.991635369209282
2016-10-17,-1,-0.0005941109013309505,-0.0004954542055822524,-0.004993607349920585,0.006350029053739721,0.9908790537010722
2016-10-19,-1,-0.0010988972070583376,-0.0009412566741225748,-0.0038553281896341,0.006350029053739721,0.9918376374987429
2016-10-21,-1,-0.001373713024400083,-0.0011827681252423892,-0.0026230507963010026,0.006350029053739721,0.9920035031145509
2016-10-25,-1,-0.0010950566675824527,-0.0009397122223689023,-0.0026230507963010026,0.0066843549251079095,0.9918012467109689
2016-10-27,-1,-0.0006937151276183765,-0.0005865041569692517,-0.0037093591282266938,0.0066843549251079095,0.992237055183031
2016-10-31,-1,-0.0006716651798869899,-0.0005674819002046667,-0.0037093591282266938,0.006705476435486753,0.9921149883877806
2016-11-02,-1,-0.0011527456384276317,-0.0009784096261641851,-0.0037093591282266938,0.006705476435486753,0.991453207557889
2016-11-04,-1,-0.0012062235183471627,-0.001016094398885498,-0.0037093591282266938,0.006705476435486753,0.9915962079826806
2016-11-08,-1,-0.0005213936672772712,-0.00042482966614682715,-0.002800496531279238,0.006705476435486753,0.991335017417873
2016-11-10,1,0.00037241606981870624,0.00039264827813085233,-0.001904090674153197,0.006668905792043727,0.992821079490923
2016-11-14,1,0.00014983029955770426,0.00016050887889733272,-0.001904090674153197,0.007051612072137449,0.992874747242665
2016-11-16,-1,-0.0009866950705920978,-0.0007522969758692648,-0.0032412736759900498,0.007051612072137449,0.9928660602567756
2016-11-18,-1,-0.000278571957284809,-0.00017398775995660607,-0.004685663623296845,0.007051612072137449,0.9929528120932272
2016-11-22,1,0.00035500530019140985,0.0003572825457251192,-0.004685663623296845,0.005893457603839005,0.9933101418184158
2016-11-25,1,0.00048427391253222927,0.0005041183116767837,-0.003685240966125495,0.0039741293092522365,0.99365010819698
2016-11-29,1,0.0005499065404692107,0.000591105362444494,-0.0036018087316434864,0.003257799069135231,0.9939603970319949
2016-12-01,1,0.00028282184602392116,0.00031198774838214955,-0.0022982507686788774,0.003257799069135231,0.9948352936597871
2016-12-05,1,0.0004264602391831261,0.0005037335415090307,-0.0022982507686788774,0.005893457603839005,0.9940537665560781
2016-12-07,1,0.0014069419724043956,0.0016067640081171284,-0.0030079748893341867,0.0050698988892175605,0.9951715928329008
2016-12-09,1,0.0015415546270040209,0.0017742701072242175,-0.004167065414743994,0.0031644836401238793,0.9941769011961445
2016-12-13,1,0.0018908063663457435,0.002174401231914846,-0.0033967446485035297,0.0031644836401238793,0.9946190146879667
2016-12-15,1,0.00157989138978559,0.0018170362880474806,-0.003639401485480917,0.0036950657704250566,0.9946073098105618
2016-12-19,1,0.0013477860926911505,0.0015463291535552227,-0.003639401485480917,0.0036950657704250566,0.9947141937656683
2016-12-21,1,0.0015478649601280558,0.0017769774771799064,-0.003639401485480917,0.0036950657704250566,0.9939598151986607
2016-12-23,1,0.0012859769021265116,0.0014698823455171644,-0.003639401485480917,0.008517300935728304,0.9923449824709039
2016-12-28,1,0.0015031477557871798,0.0017461320598978283,-0.003639401485480917,0.008517300935728304,0.9923294612309513
2016-12-30,1,0.0012992522167263143,0.001491729475619639,-0.006689525569182117,0.008517300935728304,0.9916717080935707
2017-01-04,1,0.0020412036773295207,0.002352187551262363,-0.006689525569182117,0.0036950657704250566,0.9922561805732837
2017-01-06,1,0.0018765052247593748,0.002143862222709113,-0.006689525569182117,0.004240759301672448,0.9923573256610945
2017-01-10,1,0.0010248622626485295,0.0011665645238644947,-0.004347124614135557,0.008695247554476378,0.9923318867685417
2017-01-12,1,0.0014639515599452271,0.0016581867384455884,-0.004347124614135557,0.007400885255883448,0.9924276355637447
2017-01-17,1,0.0013806016375694091,0.0015623225641328516,-0.002611489747138989,0.007400885255883448,0.9924963827927537
2017-01-19,1,0.000995482455969997,0.0011095223621696547,-0.0013323987721247125,0.00837262584759861,0.992306148605228
2017-01-23,1,0.00170655475246055,0.0019270161024966181,-0.0027492272531732505,0.007400885255883448,0.9931447057065305
2017-01-25,1,0.0026764565890466394,0.003011048393487839,-0.0027492272531732505,0.00517883066185466,0.9948104890466297
2017-01-27,1,0.002328744226102999,0.0026195086745555325,-0.0027492272531732505,0.00517883066185466,0.9944982561998023
2017-01-31,1,0.002154950676866401,0.0024451408965493093,-0.0014449027370288248,0.006203229862267455,0.9950473329273154
2017-02-02,1,0.0014831678956648598,0.0016188408443976842,-0.0023667030682559802,0.006203229862267455,0.9943588097499394
2017-02-06,1,0.0016388325181900345,0.0017942190042164697,-0.0023667030682559802,0.00517883066185466,0.9945853014450661
2017-02-08,1,0.001584447052462634,0.0017367254578173506,-0.003041372560715791,0.004454142012255255,0.9949000465822624
2017-02-10,1,0.0017903076898409228,0.0019475411973063467,-0.0044306511853868915,0.0037029327074905327,0.9948566787771361
2017-02-14,1,0.0019882112365805895,0.0021796955310687993,-0.00443413771079661,0.0024459132147283892,0.9946512119874876
2017-02-16,1,0.0017910754766620064,0.0019416875736306778,-0.005792826622547113,0.0024459132147283892,0.9943441237717207
2017-02-21,1,0.0018239863237672943,0.0020060262833855045,-0.007729093656661816,0.0024459132147283892,0.9941658743900448
2017-02-23,1,0.0018608110948327853,0.002044897487299309,-0.007729093656661816,0.0023348297372195693,0.9940918282865098
2017-02-27,1,0.0014046849285650454,0.0015182803414314407,-0.006173199333555325,0.0023348297372195693,0.9945715375900348
2017-03-01,1,0.0017252428943966276,0.0018706400812536915,-0.006173199333555325,0.0009673230636629088,0.9945971297388192
2017-03-03,1,0.0011457194290510168,0.0011989663223215745,-0.00528256029881416,0.0017911097832443539,0.9954048072482822
2017-03-07,1,0.000996388107330346,0.0010183087558718797,-0.00528256029881416,0.0017247466933647108,0.9955000220513313
2017-03-09,1,0.00041307795540906,0.0004720204505734085,-0.004560928614466014,0.0017247466933647108,0.9960290600824483
2017-03-13,1,0.00012158619329880196,0.0002158054823455666,-0.004510370528158694,0.0007867874008866348,0.9962997401017915
2017-03-15,-1,-0.000438261942571542,-0.00022522270296177556,-0.004081266593698985,0.0007543626309062968,0.9964482775229606
2017-03-17,-1,-0.0009268824639566009,-0.0006321367596980422,-0.004081266593698985,0.0007543626309062968,0.9965208458881472
2017-03-21,-1,-0.0012471923918971621,-0.0009225133089882219,-0.005511258750900413,0.0007543626309062968,0.9944026824444575
2017-03-23,-1,-0.0006007614414255989,-0.00040929609975844875,-0.005781399203154808,0.0007543626309062968,0.9938783751239941
2017-03-27,-1,-0.0008049261779895198,-0.0005878803346511804,-0.005629724944232848,0.0017247466933647108,0.9939485395503137
2017-03-29,-1,-0.0012402885021814683,-0.0009513810467606433,-0.005629724944232848,0.001614027842690569,0.9942148919584554
2017-03-31,-1,-0.0012575870884754417,-0.0009687880843799841,-0.006257938080537769,0.0007578163531287858,0.9939411784420258
2017-04-04,-1,-0.0008468820892540374,-0.0006311988406997246,-0.006257938080537769,0.0007578163531287858,0.993779183322832
2017-04-06,-1,-0.0008597515985560286,-0.0006776148502435325,-0.006257938080537769,0.0016275080823835385,0.9929159080773008
2017-04-10,-1,-0.0013307138893140008,-0.001074860736277081,-0.00722754059652668,0.0016275080823835385,0.9924576698714641
2017-04-12,-1,-0.001294175026091129,-0.0010518058424229403,-0.00722754059652668,0.0016275080823835385,0.9922820120335936
2017-04-17,-1,-0.0011025876308950512,-0.0008888268683083479,-0.00686411970436971,0.0016275080823835385,0.9925333860834389
2017-04-19,-1,-0.0022784364806270408,-0.0019416580541703385,-0.006770393929578836,0.00180440539868657,0.9938373032704197
2017-04-21,-1,-0.0026181934649393093,-0.0022476539795016964,-0.005743359279965121,0.00180440539868657,0.9940143589331206
2017-04-25,-1,-0.002619993445007158,-0.0022486914164423968,-0.005743359279965121,0.0018895755625379929,0.9938521687349906
2017-04-27,-1,-0.0026642115527642264,-0.0022710520564256055,-0.005743359279965121,0.003453616852790161,0.9934595248616243
2017-05-01,-1,-0.0030200347197103473,-0.0025789127742790064,-0.00515141901738901,0.003453616852790161,0.9936926094489413
2017-05-03,-1,-0.0022579850798189697,-0.001963877900209198,-0.00515141901738901,0.004388029223484087,0.9933272488887734
2017-05-05,-1,-0.0024523814058949127,-0.0021368981741109166,-0.00472181055414049,0.004388029223484087,0.9943754292297395
2017-05-09,-1,-0.0027836872362187897,-0.0024462667307797187,-0.004204360146671906,0.004388029223484087,0.9945945531113298
2017-05-11,-1,-0.003123927673698501,-0.0027345916210348856,-0.004012507492471338,0.0063032690474542075,0.993414433231803
2017-05-15,-1,-0.0030148325530321356,-0.0026337329869382886,-0.004204360146671906,0.006200832109115686,0.9933856949969503
2017-05-17,-1,-0.0030890717001324838,-0.0027122204040873803,-0.004012507492471338,0.004876113870612183,0.9946615942170406
2017-05-19,-1,-0.002906499558837908,-0.002539290475700083,-0.004012507492471338,0.004876113870612183,0.994807787774659
2017-05-23,-1,-0.0029851931197657825,-0.002606981377795154,-0.004204360146671906,0.004876113870612183,0.9948015763831685
2017-05-25,-1,-0.0027439330292728854,-0.0023957891918181674,-0.004204360146671906,0.004457754102083018,0.9951124412290069
2017-05-30,-1,-0.0025304891557207023,-0.0022388004218404913,-0.0031879831691974747,0.006200832109115686,0.9948405060785852
2017-06-01,-1,-0.002162671845837096,-0.0019185420634166936,-0.0036217545134647087,0.004726947378356387,0.9948735182379547
2017-06-05,-1,-0.0025921815816130427,-0.0022642424552065947,-0.0031879831691974747,0.00707318281602853,0.9944414870142118
2017-06-07,-1,-0.002504543355615455,-0.0022172903215357843,-0.0041047604787429375,0.00707318281602853,0.9940928055921259
2017-06-09,-1,-0.0017494908445408175,-0.0015484203829182165,-0.0041047604787429375,0.0038466734505736514,0.9948162285610629
2017-06-13,-1,-0.0020872916974484157,-0.0018370013982869408,-0.0031879831691974747,0.0037142269907933256,0.9951790136519059
2017-06-15,-1,-0.0015065944055914018,-0.0013543658985436377,-0.0031879831691974747,0.0038466734505736514,0.995152088372999
2017-06-19,-1,-0.0006943700585744889,-0.0006881687809342906,-0.004190731588766113,0.0038466734505736514,0.9949792459541459
2017-06-21,-1,-0.0009026224381022004,-0.0008490510165464935,-0.00423454467357452,0.0038466734505736514,0.9932708533117802
2017-06-23,-1,-0.000880612364893406,-0.0008223132927955181,-0.007473614042501782,0.0037142269907933256,0.9930890013589351
2017-06-27,-1,-0.000717706250536369,-0.0006811286778606663,-0.007473614042501782,0.0034177071927628914,0.9932410758063012
2017-06-29,-1,-0.0005680581098636362,-0.0005621524308041044,-0.0061109164468548674,0.003186160412620805,0.99347690721891
2017-07-03,-1,-0.00017088205540196114,-0.00012836426032495005,-0.0061109164468548674,0.003186160412620805,0.9937224457540264
2017-07-06,-1,-0.00047959519775687634,-0.0004491501196234528,-0.00545192373038391,0.0033448929264967044,0.9942716042019444
2017-07-10,-1,-0.00012667324242692768,-3.884244179206683e-05,-0.00572067310896235,0.002807517980978934,0.9940031113898411
2017-07-12,0,-4.864722984601724e-05,5.5047973016641126e-05,-0.00624022710807612,0.0017968238906803193,0.993653005129952
2017-07-14,1,0.00010258025063282272,0.0002275913147329241,-0.00624022710807612,0.0014069564819671591,0.9938258217680175
2017-07-18,1,0.00037336879615069534,0.0005418846631976681,-0.00572067310896235,0.0014069564819671591,0.9942485943508527
2017-07-20,-1,-0.0005906364617412603,-0.000560455053199483,-0.00572067310896235,0.0017968238906803193,0.9956763656399624
2017-07-24,-1,-0.000514554095275764,-0.0004382567423387324,-0.00572067310896235,0.002731923380857549,0.9956297487327705
2017-07-26,-1,-0.0005772222954770272,-0.0005272148736804752,-0.005495027284124327,0.0033861137201097505,0.9952731076122788
2017-07-28,-1,-0.0006511882580422976,-0.0006033860602633161,-0.003256936688797845,0.004393472862206352,0.9949475298929137
2017-08-01,-1,-0.0004972936924451394,-0.00043585515944034994,-0.006164291981638097,0.004442976119314834,0.9947530949590541
2017-08-03,-1,-0.0005547225735740269,-0.0005106793800059348,-0.004815764124260027,0.004442976119314834,0.9948249926506766
2017-08-07,-1,-0.0005733143802519995,-0.0005252072877896573,-0.004815764124260027,0.004593661351621136,0.9947545158498606
2017-08-09,-1,-0.0007824289976402624,-0.0007612133832123539,-0.004638192099127745,0.004997487039000403,0.9946212009392982
2017-08-11,-1,-0.0007795662485488131,-0.0007656693556826803,-0.004638192099127745,0.005488944876079434,0.9937269228538462
2017-08-15,-1,-0.00035196348537110003,-0.0002623769532483486,-0.004638192099127745,0.005604613845546683,0.9936931070613618
2017-08-17,-1,-0.0006534486717914481,-0.0006034313949894404,-0.004275710888789139,0.005604613845546683,0.9940193372353779
2017-08-21,-1,-0.00047752704347169916,-0.0004058580483150402,-0.003374756048744606,0.005604613845546683,0.9945392042566094
2017-08-23,0,-7.801594255864416e-05,5.124708681453324e-05,-0.004101492670095977,0.005604613845546683,0.9945286690246576
2017-08-25,1,0.00018591124640011556,0.0003626447645547221,-0.004101492670095977,0.005187419389871221,0.994784100794986
2017-08-29,1,0.0001322721684504822,0.000286102868811768,-0.004101492670095977,0.005187419389871221,0.9948829884034819
2017-08-31,1,4.96850637205115e-05,0.00018938865334037678,-0.004048916911394972,0.005187419389871221,0.9950372125918726
2017-09-05,1,0.0001387465328264192,0.00029440525795692164,-0.0033572307958442712,0.005187419389871221,0.9951910015241665
2017-09-07,1,0.00030749307246211264,0.0004989233112342601,-0.0030991189354982376,0.004822384756656964,0.9955956049549214
2017-09-11,1,0.0001319941700196079,0.0002655341207512945,-0.0023035129237577805,0.004822384756656964,0.9961919093583695
2017-09-13,1,0.00025774933574902444,0.0003960078691280095,-0.003307323875353981,0.004822384756656964,0.9958659849260607
2017-09-15,1,0.0001275696040214474,0.00025153257448567475,-0.0025283535037769543,0.004822384756656964,0.9960832104006624
2017-09-19,1,0.00011769467991580888,0.00024398922967220894,-0.0025283535037769543,0.004822384756656964,0.9960436450412508
