JNU-Tangyin/eata/results/Batch4_SP500/Batch4_SP500-DVA.csv
Date,Action,Predicted_Q25,Predicted_Q75,Actual_Q25,Actual_Q75,RL_Reward
2010-12-14,0,-0.002266636323023855,0.0,-0.006571047285947805,0.003245374823121686,0.9941452798170028
2010-12-16,0,0.0,0.0,-0.004627673736705266,0.0075771543670764985,0.9932143897018597
2010-12-20,0,0.0,0.0,-0.0041818161132130775,0.0075771543670764985,0.9939154715855029
2010-12-22,0,0.0,0.0,-0.0041818161132130775,0.003635076365361598,0.994265240799342
2010-12-27,0,0.0,0.0,-0.004093508853697207,0.0075771543670764985,0.9928387721417297
2010-12-29,0,0.0,0.0,-0.0029619926915658026,0.009308992581207992,0.991926664737169
2010-12-31,0,0.0,0.0,-0.004093508853697207,0.0075771543670764985,0.9917149816529732
2011-01-04,-1,-0.0010485677239614752,-0.0007926938006354667,-0.004093508853697207,0.0075771543670764985,0.9919499261020764
2011-01-06,0,0.0,0.0,-0.0018987451681257183,0.009639897244769411,0.99146364032712
2011-01-10,-1,-0.0013466893809439256,-0.0010418423563308154,-0.002501470819501645,0.010945645927188368,0.9907471037150599
2011-01-12,-1,-0.002336044580872251,-0.001856154337306022,-0.002501470819501645,0.010945645927188368,0.9905706928315475
2011-01-14,-1,-0.0012709974594046567,-0.0009246791933178484,-0.002501470819501645,0.010945645927188368,0.9903250298559266
2011-01-19,-1,-0.0015314136336217498,-0.0011463792656738472,-0.002501470819501645,0.012268713037205062,0.9893236193013666
2011-01-21,0,0.0,0.0,-0.002560356879797163,0.012268713037205062,0.9895281300719087
2011-01-25,0,0.0,0.0,-0.006300926010686084,0.010945645927188368,0.9901880325262031
2011-01-27,0,0.0,0.0,-0.006300926010686084,0.010945645927188368,0.9907149364962715
2011-01-31,0,0.0,0.0,-0.002560356879797163,0.010945645927188368,0.9910780544415244
2011-02-02,1,0.0005753149832544102,0.0007459102624385728,-0.0020254523430977803,0.011027472783288233,0.9912605338249761
2011-02-04,1,0.0007088434026639549,0.0009136362092666345,-0.005426284917191503,0.011027472783288233,0.9899640644274021
2011-02-08,1,0.0011819669141676448,0.0012861337149333559,-0.005701740726506398,0.010668643499864093,0.9900023721801996
2011-02-10,1,0.0011251297736593027,0.001202549446163474,-0.005701740726506398,0.011380489893191143,0.9891996844907986
2011-02-14,1,0.001994479100651278,0.0020082502990892695,-0.009110264482484996,0.010290742262426253,0.9897622224995914
2011-02-16,1,0.0029754821655358092,0.0031567655911262094,-0.010375687852143371,0.010290742262426253,0.988849480176527
2011-02-18,1,0.0027121357482160725,0.002880116224531739,-0.010511956627189272,0.010290742262426253,0.9886750283338945
2011-02-23,1,0.0016994176275409451,0.001740383457636192,-0.00967009839810062,0.013776161300585921,0.9885843184626045
2011-02-25,1,0.0017886051442142607,0.0018050068363862427,-0.00967009839810062,0.011772634198255671,0.9890861739736465
2011-03-01,1,0.0022814312624110785,0.0023902019907147817,-0.00967009839810062,0.011772634198255671,0.9891711320226585
2011-03-03,1,0.003338602907101998,0.0036699008893200436,-0.00967009839810062,0.013867469499081214,0.9885362948189855
2011-03-07,1,0.0038176240948035903,0.004161919396451568,-0.004423788310558533,0.012319365188263922,0.9905890118658484
2011-03-09,1,0.0037191371419989768,0.004069527134029181,-0.0034582095637112594,0.012319365188263922,0.9907963828546892
2011-03-11,1,0.0037953324088016473,0.004177924997683382,-0.0028513387344344977,0.012319365188263922,0.9916531928562693
2011-03-15,1,0.003054214754900966,0.003327234362428309,-0.002081097819640408,0.012319365188263922,0.9923784971721064
2011-03-17,1,0.0026507089246096925,0.0028346749660396156,-0.000980993147307011,0.008719929457685916,0.9938529587705718
2011-03-21,1,0.0019905324843627554,0.0020738167715049728,-0.0008570830875718425,0.008719929457685916,0.9938449875171879
2011-03-23,1,0.003217529949261946,0.0034502677106937603,-0.0008570830875718425,0.007245903210871767,0.9949888322629862
2011-03-25,1,0.0033754123116432047,0.003664969870885779,-0.0008570830875718425,0.007245903210871767,0.9951357078009876
2011-03-29,1,0.0030145933611472678,0.003230347970149953,-0.0007724344802825965,0.007245903210871767,0.9952525543707076
2011-03-31,1,0.004436817378754063,0.004899248314878984,-0.0011917994584175523,0.003761367086570353,0.9954482577161651
2011-04-04,1,0.004309036533385609,0.004770317431524528,-0.0018271519977726704,0.003761367086570353,0.9935570076493355
2011-04-06,0,0.0,0.0,-0.002478601129000363,0.003194958287861218,0.9941535712444305
2011-04-08,0,0.0,0.0,-0.0031000622533789227,0.003194958287861218,0.9939430761674479
2011-04-12,1,0.0036232145648937026,0.0039548138747712595,-0.0027340384686808353,0.003761367086570353,0.9928959729883595
2011-04-14,0,0.0,0.0,-0.006025088293621309,0.00461848722111695,0.9921340536383539
2011-04-18,0,0.0,0.0,-0.0032076949345716597,0.007245903210871767,0.992215568693225
2011-04-20,0,0.0,0.0,-0.0032076949345716597,0.0046045807389893546,0.9925672319036423
2011-04-25,0,0.0,0.0,-0.007701124412456359,0.004589751082688725,0.9916363841666751
2011-04-27,0,0.0,0.0,-0.010178954689328676,0.004589751082688725,0.9911308993148767
2011-04-29,0,0.0,0.0,-0.010178954689328676,0.0061763173437611694,0.9908899416505298
2011-05-03,0,0.0,0.0,-0.007464131601799088,0.005324696836829944,0.992956385653362
2011-05-05,0,0.0,0.0,-0.007110840955395384,0.005953337778162512,0.9930542047800158
2011-05-09,1,0.00026105644630729246,0.00039596668572036535,-0.008696470052650817,0.005953337778162512,0.9928923225080565
2011-05-11,1,0.0006255121145853265,0.0007722066184610569,-0.008696470052650817,0.0063412423742666545,0.9931960770250595
2011-05-13,1,2.1540578537069936e-05,0.00025556925281246116,-0.008696470052650817,0.005953337778162512,0.9937329128425223
2011-05-17,1,0.00042447287406741584,0.000590133939172018,-0.008696470052650817,0.005953337778162512,0.993400533756642
2011-05-19,1,0.00013488703067541857,0.00035885163214391565,-0.008696470052650817,0.005953337778162512,0.9931095593614413
2011-05-23,-1,-0.001127979706723558,-0.0007305545760748753,-0.004708170551618629,0.0063412423742666545,0.9939763512165618
2011-05-25,-1,-0.0019363405814537946,-0.0014550101038397396,-0.004708170551618629,0.0063412423742666545,0.9940102031286424
2011-05-27,-1,-0.0017267365799306248,-0.0012903235683732084,-0.005670533805932268,0.007001950775923997,0.9936664375723921
2011-06-01,-1,-0.0024002234208609936,-0.0018366912315508786,-0.005670533805932268,0.007401007498352322,0.9934541364946132
2011-06-03,-1,-0.0024907197776783156,-0.001931030325038487,-0.0033539464040702213,0.008051910212413908,0.9929686005439103
2011-06-07,-1,-0.003048551336149033,-0.0024221893405215926,-0.002013367364843009,0.009282919033293318,0.9920449942734689
2011-06-09,-1,-0.002022442200320284,-0.0015528200532184614,-0.0030398413312518044,0.009725084955093425,0.9926460458118317
2011-06-13,-1,-0.0027125382750500153,-0.0021532108692814815,-0.0030398413312518044,0.009725084955093425,0.9918507220405486
2011-06-15,-1,-0.003056791316537937,-0.002435948870429608,-0.0027086179608558562,0.009725084955093425,0.9923846317236685
2011-06-17,-1,-0.0018888019143091146,-0.0014872784630206978,-0.0041017239910252495,0.007907081554321543,0.9926633099908766
2011-06-21,-1,-0.0009779916832635084,-0.0007298211284869071,-0.0041017239910252495,0.007690870051969939,0.9927874797808593
2011-06-23,-1,-0.0015938242714377256,-0.0012236101545364032,-0.0041017239910252495,0.007690870051969939,0.9926010408988726
2011-06-27,-1,-0.0014219919347495636,-0.0010728634019909742,-0.00794079978462773,0.006934978487523214,0.9925559454652443
2011-06-29,-1,-0.0009697580432061884,-0.0007090495252018249,-0.00878442597068176,0.006185755699771228,0.9918784167013589
2011-07-01,-1,-0.00025942483812655857,-9.100121364316279e-05,-0.009888486079874931,0.005277772165852643,0.9902370711973701
2011-07-06,0,-0.00016336738547082668,3.171217843057623e-05,-0.01223258975555696,0.004367334447325073,0.9901477622997482
2011-07-08,1,0.0004931068645246123,0.0005343866341556137,-0.01223258975555696,0.004367334447325073,0.990129188875981
2011-07-12,1,0.0002081416985121308,0.00026130389539528586,-0.01223258975555696,0.004367334447325073,0.9853233701227722
2011-07-14,-1,-0.00017128911236517433,-4.9871867362478875e-05,-0.014808902170050774,0.005165220986994296,0.982380136870114
2011-07-18,-1,-0.0012313475631381865,-0.0009440726154532723,-0.012690171352721658,0.005844339315447655,0.981702904853649
2011-07-20,0,0.0,0.0,-0.012690171352721658,0.005277571155261152,0.9813434870720639
2011-07-22,0,0.0,0.0,-0.01665089803490697,0.005277571155261152,0.9794809978136176
2011-07-26,-1,-0.0010168014935826844,-0.0008253303091462934,-0.01665089803490697,0.005844339315447655,0.9787215197138128
2011-07-28,0,0.0,0.0,-0.01926113345859589,0.005844339315447655,0.9781953744276098
2011-08-01,-1,-0.0023891581366527717,-0.0020721947642844147,-0.014138877502463227,0.022684689650796612,0.9778804824182473
2011-08-03,-1,-0.00277833732571599,-0.002391716443005253,-0.009944262463173996,0.022684689650796612,0.9785772631911036
2011-08-05,-1,-0.004111452587546742,-0.003533815035088008,-0.016710117742420028,0.022684689650796612,0.9782550718668025
2011-08-09,-1,-0.006019181123943493,-0.0052180766255211924,-0.009944262463173996,0.022684689650796612,0.9814326704921581
2011-08-11,-1,-0.007071021022136257,-0.006132268522802162,-0.014742293152205564,0.013639948873225815,0.9829719049468517
2011-08-15,-1,-0.004936857116742131,-0.0043222852584176,-0.014742293152205564,0.006796506430138332,0.9842522479026387
2011-08-17,-1,-0.005393273192591162,-0.0047361327773442295,-0.014742293152205564,0.014168760785713446,0.9826244215624783
2011-08-19,-1,-0.007380542792860132,-0.00649288263942447,-0.0076357799635736546,0.014168760785713446,0.9831178988043647
2011-08-23,0,0.0,0.0,-0.01430652837270381,0.010536365429328998,0.9852983932880323
2011-08-25,0,0.0,0.0,-0.015151911713258064,0.010536365429328998,0.983756127034274
2011-08-29,-1,-0.002572127479369986,-0.0023415743697306687,-0.015151911713258064,0.010536365429328998,0.9845219141616248
2011-08-31,-1,-0.0029242825852960307,-0.00265098127291925,-0.02056313415072868,0.010536365429328998,0.9789933918407622
2011-09-02,-1,-0.004350619190125864,-0.003920319168952754,-0.020762185494268226,0.010536365429328998,0.9787705165948524
2011-09-07,-1,-0.0017747851364525512,-0.001665962840647241,-0.020762185494268226,0.008014658286147995,0.9792811845446431
2011-09-09,-1,-0.003873954412440331,-0.0035063990869726117,-0.02132817227811125,0.014168760785713446,0.9778044406713897
2011-09-13,-1,-0.0029035452961986533,-0.0026807783016321936,-0.02132817227811125,0.017152352401225913,0.9765234360410554
2011-09-15,-1,-0.0012472815785383,-0.0012381571650884144,-0.02132817227811125,0.014310984572258809,0.9775230946103811
2011-09-19,-1,-0.0016349971521839005,-0.001581040360030451,-0.02498666955365869,0.014310984572258809,0.9770805160488809
2011-09-21,-1,-0.0016831268581838695,-0.0016185570574189217,-0.02498666955365869,0.021110153250458546,0.9740224255164226
2011-09-23,-1,-0.003976672724753756,-0.0036142345778947672,-0.013417481851626528,0.023463923870210228,0.974642425018177
2011-09-27,0,0.0,0.0,-0.014459564915423894,0.021110153250458546,0.9768189755987249
2011-09-29,-1,-0.007148509670677643,-0.0063953606539064595,-0.007038928286856048,0.023463923870210228,0.9782935393456479
2011-10-03,-1,-0.007511488743424546,-0.006765110287683731,-0.007038928286856048,0.023463923870210228,0.9772401143469371
2011-10-05,-1,-0.00599582790156878,-0.005434966074889791,-0.010731247634733555,0.023570345083808068,0.9774459826142455
2011-10-07,-1,-0.005999557255288701,-0.005455227814474415,-0.007038928286856048,0.023570345083808068,0.977708215571222
2011-10-11,-1,-0.0042641730815715,-0.003945806239115814,-0.007038928286856048,0.0226347755165203,0.9795636371319519
2011-10-13,-1,-0.004912899781260296,-0.004481170365891328,-0.007386289308121837,0.0226347755165203,0.9780738945548025
2011-10-17,-1,-0.005554812198418543,-0.005035775958885457,-0.006158031061653951,0.0226347755165203,0.9781333569511984
2011-10-19,-1,-0.002368741540194213,-0.002232787053195299,-0.006158031061653951,0.012281570122319884,0.9831821980001566
2011-10-21,-1,-0.0008450796311669617,-0.0007842097856109168,-0.008088555959127263,0.012281570122319884,0.9824834998263755
2011-10-25,-1,-0.001249230990040129,-0.001241949249442121,-0.007496328693981497,0.012281570122319884,0.9824624296572064
2011-10-27,1,0.000500181334814341,0.0007216945402314495,-0.009231820664975052,0.009523579073902529,0.9849398431675378
2011-10-31,1,2.5550927620540003e-05,0.00021865302634126464,-0.007438795036323894,0.01056275318051295,0.9858774712841819
2011-11-02,1,9.495600626167758e-05,0.000283336711923383,-0.004871521338726304,0.01056275318051295,0.9869039846778912
2011-11-04,1,0.0018612514307351654,0.002288234359675347,-0.005620756395339017,0.007520959896780202,0.989441478428765
2011-11-08,1,0.0023254628396681774,0.0028370109881150508,-0.007438795036323894,0.007520959896780202,0.9887284707922356
2011-11-10,0,0.0,0.0,-0.007438795036323894,0.007412362828951973,0.9889556848991901
2011-11-14,0,0.0,0.0,-0.009231820664975052,0.006024786520025682,0.9887055047698003
2011-11-16,0,0.0,0.0,-0.009231820664975052,0.007412362828951973,0.9880953992768943
2011-11-18,1,0.00024257039523513857,0.0006010449526148696,-0.009231820664975052,0.006024786520025682,0.9901943917427124
2011-11-22,1,0.0005564396179412604,0.0010012263139359808,-0.007615589884968129,0.007412362828951973,0.9897562986109567
2011-11-25,1,0.0009832184877226736,0.001522513213661716,-0.005679688011553762,0.010202993913863576,0.9897044090449156
2011-11-29,1,0.0017004563480763652,0.00234638684669163,-0.007808610528786508,0.008064024939847243,0.9901822382561911
2011-12-01,0,0.0,0.0,-0.007808610528786508,0.0077211177266000505,0.990980503987404
2011-12-05,0,0.0,0.0,-0.007808610528786508,0.008305727203577366,0.9903760451367805
2011-12-07,0,0.0,0.0,-0.003320200946883039,0.008305727203577366,0.9907027879853906
2011-12-09,0,0.0,0.0,-0.00189788080847515,0.008639558819994758,0.9915951690219892
2011-12-13,-1,-0.00041755759716741305,-0.0004044881374981395,-0.0008012099988119925,0.008639558819994758,0.9924653257928011
2011-12-15,1,0.0016852506014493345,0.002042070147645931,-0.0008012099988119925,0.0077211177266000505,0.9937959714131696
2011-12-19,0,0.0,0.0,-0.0008012099988119925,0.008639558819994758,0.9929750167055318
2011-12-21,1,0.0032712969212361793,0.0038691212728464573,-0.0008012099988119925,0.008071920140470677,0.9946312725980629
2011-12-23,1,0.003707087391766145,0.004337760881804854,-0.0008012099988119925,0.008071920140470677,0.9946883912842921
2011-12-28,1,0.0032319318483392313,0.003796590861612224,-0.0004799246327904905,0.008071920140470677,0.9950781384227324
2011-12-30,1,0.002689352185734965,0.0030966655621646657,9.168387267681759e-05,0.006109007274696502,0.995341966482854
2012-01-04,0,0.0,0.0,-0.0004799246327904905,0.006109007274696502,0.9931412433979209
2012-01-06,0,0.0,0.0,-0.0004799246327904905,0.008966859270416266,0.9926464513190085
2012-01-10,1,0.003337369907093908,0.0038397366957938182,-0.0016947559023201804,0.006109007274696502,0.993770882045039
2012-01-12,1,0.002472053615292133,0.002756230390902473,-0.0016947559023201804,0.006109007274696502,0.993595441375416
2012-01-17,1,0.0027759689903299805,0.0031508266864544252,-0.0006256488075664107,0.008651728819008147,0.9936845749631119
2012-01-19,1,0.002542947509277627,0.0028286332469047177,-0.0006256488075664107,0.008651728819008147,0.9936792077508587
2012-01-23,1,0.0036217100758726348,0.00416176347003583,-0.0006256488075664107,0.006361515502812464,0.9941510495455295
2012-01-25,1,0.003930799715692052,0.004495063829343966,-0.000966230685176639,0.004037025917482218,0.9940394710235475
2012-01-27,1,0.003058196210715719,0.0034492122163405393,-0.000966230685176639,0.006129918029057389,0.9943360294240374
2012-01-31,1,0.0038372945067070103,0.004406019759301093,-0.0014107358069113513,0.0071371677221912224,0.9937960177371337
2012-02-02,1,0.0033272520236703835,0.003745476166262987,-0.0010459792943310125,0.004372775815193496,0.9955542373898773
2012-02-06,1,0.0037423187766577846,0.0042225947468005065,-0.0017293355783876301,0.0033757674176973637,0.9948773618309918
2012-02-08,0,0.0,0.0,-0.0011521792181564388,0.006881538194634881,0.9949416154449764
2012-02-10,0,0.0,0.0,-0.0017293355783876301,0.006881538194634881,0.9942410810086789
2012-02-14,1,0.001865530387582184,0.0021018187778041424,-0.0017293355783876301,0.008412091752404635,0.9939744833324959
2012-02-16,1,0.0025778133080813738,0.0027604483837023754,-0.0011521792181564388,0.007726127983596698,0.9944819684317169
2012-02-21,1,0.0032635309527264296,0.003613414361145461,-0.003169887427389629,0.007726127983596698,0.9935599707974445
2012-02-23,0,0.0,0.0,-0.005652544066982099,0.007726127983596698,0.9934806882709636
2012-02-27,0,0.0,0.0,-0.005652544066982099,0.007726127983596698,0.9927758279510074
2012-02-29,0,0.0,0.0,-0.005652544066982099,0.007726127983596698,0.9929702172564232
2012-03-02,1,0.00019044100552151127,0.000308361273853882,-0.005652544066982099,0.008858278445858687,0.9922052504234105
2012-03-06,0,0.0,0.0,-0.005097447403010423,0.008858278445858687,0.9921988502073529
2012-03-08,0,0.0,0.0,-0.005652544066982099,0.007751484342870667,0.9918729892789917
2012-03-12,0,0.0,0.0,-0.006471095399677218,0.007751484342870667,0.9915071990331301
2012-03-14,1,0.0009700892843403201,0.001192239774236861,-0.006471095399677218,0.008121601958502811,0.9913235628697428
2012-03-16,0,0.0,0.0,-0.007247782369291661,0.0064327552112954985,0.9910289635570236
2012-03-20,0,0.0,0.0,-0.007247782369291661,0.01010153059326127,0.9909194996544382
2012-03-22,0,0.0,0.0,-0.005877644875658092,0.01010153059326127,0.9910380874992859
2012-03-26,0,0.0,0.0,-0.005877644875658092,0.0061220106826027736,0.9916668216063039
2012-03-28,1,0.0007571039975851822,0.0007917082989276403,-0.005877644875658092,0.01010153059326127,0.991031331866704
2012-03-30,1,0.001665027016871614,0.0017934974746012832,-0.0070971407731908985,0.006254909983108925,0.9912216240742584
2012-04-03,1,0.0014155810582714965,0.001521840813164458,-0.009199935394173058,0.010538649712485788,0.9894479524709768
2012-04-05,1,0.0007045082994099206,0.0007155926432678326,-0.010710831630547805,0.010538649712485788,0.9894916144448676
2012-04-10,1,5.221901222311683e-05,0.00013799536607013175,-0.0076007728519824815,0.010538649712485788,0.9901336594200137
2012-04-12,1,0.00047460366180657773,0.0005256918407006003,-0.010710831630547805,0.005962991965400388,0.9905191390438816
2012-04-16,-1,-0.00019289482568844268,-4.068759568855358e-05,-0.011441182366547146,0.005962991965400388,0.9898272904423769
2012-04-18,1,7.240100672108933e-06,0.0001469963663599845,-0.011441182366547146,0.005271568973023032,0.9900800774011964
2012-04-20,1,7.98913473306213e-06,0.00016227115631784492,-0.013695364161471895,0.004286209924271273,0.9893829684846656
2012-04-24,-1,-0.0004698792468895033,-0.0002558143690789508,-0.013695364161471895,0.007258287446813506,0.9852667634737852
2012-04-26,1,0.0007082463669106029,0.0007309967019321913,-0.013695364161471895,0.007258287446813506,0.9851309675433093
2012-04-30,1,0.0005992503065381696,0.0006348609731863688,-0.013695364161471895,0.007258287446813506,0.9852638895786406
2012-05-02,-1,-0.00031053006628235715,-0.00014723601987500748,-0.012820174873896285,0.004041611953111581,0.986812557910756
2012-05-04,-1,-0.0014694224317459538,-0.001149345045000604,-0.012589463244719202,0.007258287446813506,0.986912657915113
2012-05-08,-1,-0.0014498541031678297,-0.001089188960134095,-0.012589463244719202,0.010633138716768785,0.9858945389595318
2012-05-10,-1,-0.0020550643996144593,-0.0016382902843305553,-0.011281787551327697,0.012478015670055674,0.9855212303284516
2012-05-14,-1,-0.00313250285763602,-0.002563584745458868,-0.006843653869408978,0.012862653248072155,0.9855180822862777
2012-05-16,-1,-0.002580429972665831,-0.0021054767122278394,-0.006843653869408978,0.013598860215197427,0.9848187812925392
2012-05-18,0,0.0,0.0,-0.003602163169150431,0.015442229835873452,0.9843453341356738
2012-05-22,0,0.0,0.0,0.000515932584992225,0.015442229835873452,0.9881418266246713
2012-05-24,-1,-0.00316832613948748,-0.0026025467675414764,-0.003602163169150431,0.015442229835873452,0.9858678628540434
2012-05-29,-1,-0.002674629074113102,-0.0021997364274312166,-0.003603143656215557,0.015442229835873452,0.9866860955935847
2012-05-31,-1,-0.003199566883657313,-0.0026719064655647082,0.001368208263463035,0.015442229835873452,0.9853730812027522
2012-06-04,0,0.0,0.0,0.001368208263463035,0.015506876205374203,0.9867448265106042
2012-06-06,0,0.0,0.0,-0.0017108856352567661,0.014871959745523147,0.9882823256749806
2012-06-08,0,0.0,0.0,-0.002701645078704248,0.014482553613332415,0.9884698343441534
2012-06-12,0,0.0,0.0,-0.002701645078704248,0.014482553613332415,0.988784534960613
2012-06-14,0,0.0,0.0,-0.002701645078704248,0.014482553613332415,0.9892149736096753
2012-06-18,0,0.0,0.0,-0.002701645078704248,0.012526719015790272,0.9907119642019204
2012-06-20,0,0.0,0.0,-0.0038802736747108432,0.00873409230064711,0.9913548988939768
2012-06-22,0,0.0,0.0,-0.0061233236458867815,0.007083514104275934,0.9922024691968699
2012-06-26,0,0.0,0.0,-0.0061233236458867815,0.008065746960097098,0.9918407280514977
2012-06-28,1,0.0034505511916525272,0.003855208168783959,-0.0061233236458867815,0.007942880510922005,0.9916747339447495
2012-07-02,1,0.0033044563791912954,0.0036683120617139664,-0.007163029364181507,0.007942880510922005,0.991454994187302
2012-07-05,1,0.0031692597410654063,0.003517909669099724,-0.009338317835281322,0.007942880510922005,0.9909635881316995
2012-07-09,1,0.003030305015626976,0.003373823989721539,-0.00995347185155907,0.0092305146126084,0.9890937059419972
2012-07-11,1,0.003196833954718585,0.003567240493158871,-0.00995347185155907,0.01021627704306616,0.9892172468258453
2012-07-13,1,0.0037318868318363223,0.00418235405908798,-0.010428040937421038,0.0092305146126084,0.9889127434005677
2012-07-17,1,0.0037512837345338567,0.004195606901236236,-0.010428040937421038,0.01021627704306616,0.9883699197144472
2012-07-19,1,0.003236090365782388,0.0036104647676823308,-0.010428040937421038,0.01021627704306616,0.9892330675306487
2012-07-23,1,0.002075132095012562,0.0022987001648881455,-0.0042803724634313395,0.01021627704306616,0.9906707790660934
2012-07-25,0,0.0,0.0,-0.0075042633235155535,0.009847677695540881,0.9893733716579464
2012-07-27,0,0.0,0.0,-0.0075042633235155535,0.006037104576027049,0.9902529227665796
2012-07-31,1,0.0031048272193441935,0.003482305435561907,-0.004165759429591252,0.004599619884446391,0.9917409846433712
2012-08-02,1,0.00240910791426295,0.002654538012202107,-0.0032951036546919697,0.004599619884446391,0.992087692565496
2012-08-06,1,0.00196807604083148,0.002187368246409984,-0.0031493185053729175,0.004223829421273409,0.9947020105866949
2012-08-08,1,0.002542803513933729,0.00284748142379722,-0.0031493185053729175,0.004599619884446391,0.9939652234088178
2012-08-10,1,0.0021581484885855357,0.0023829446770756444,-0.0031493185053729175,0.004599619884446391,0.9931813041839522
2012-08-14,1,0.002434990935465901,0.0026904298434378892,-0.0032951036546919697,0.004599619884446391,0.9932423085879144
2012-08-16,1,0.0026083009708896244,0.002910761824028855,-0.004165759429591252,0.005223655147127764,0.9921927674852855
2012-08-20,1,0.0023237153577491962,0.002574134864903724,-0.0032951036546919697,0.006397231994276136,0.9919789587828028
2012-08-22,1,0.002184495883236061,0.002457146412951633,-0.0032951036546919697,0.006397231994276136,0.9925864805814618
2012-08-24,1,0.0020586403976872642,0.002292914581346304,-0.004649718340496199,0.006416327600732585,0.9912152228900767
2012-08-28,1,0.0016304207948608538,0.0017536885813973805,-0.004649718340496199,0.007163655277649155,0.9910459752731685
2012-08-30,1,0.0008702353277696635,0.0009026840610779929,-0.004191537077942122,0.01148457889615735,0.990221727960914
2012-09-04,1,0.0014815993238032447,0.0015657695644544704,-0.004191537077942122,0.01148457889615735,0.9900897591580456
2012-09-06,1,0.0020872476508959617,0.0022160262855452683,-0.004191537077942122,0.01148457889615735,0.9897081653022107
2012-09-10,1,0.001403653233913769,0.001463719849902865,-0.0016569227098677047,0.01148457889615735,0.9908419858429908
2012-09-12,1,0.0014747885043755798,0.0015580100583759023,-0.0016569227098677047,0.011985719371151317,0.9906609755195472
2012-09-14,1,0.0010761450391997378,0.0010813637195518065,-0.0010262633570720693,0.011985719371151317,0.9912747477485806
2012-09-18,1,0.0017256159411134335,0.001843104145427561,-0.0010262633570720693,0.009462710804604917,0.9910065272055388
2012-09-20,1,0.0013949883600204306,0.0014716530072647392,-0.0007284209364700013,0.012428072548969318,0.9902616176111227
2012-09-24,0,0.0,0.0,-0.0007284209364700013,0.011624611150074153,0.9902958079554932
2012-09-26,1,0.0005031520751444053,0.0005160524933016497,-0.002487515649877052,0.011624611150074153,0.9902093603703808
2012-09-28,0,0.0,0.0,-0.0038824374504042927,0.008155794604376508,0.9909812396504237
2012-10-02,0,0.0,0.0,-0.0038824374504042927,0.009398782143554552,0.9906467164615771
2012-10-04,1,0.002351718289501701,0.002361054373539691,-0.005131442832524458,0.008155794604376508,0.9918967309396962
2012-10-08,1,0.002171512182546972,0.002193539308126777,-0.005465688788678896,0.009398782143554552,0.9897475023069785
2012-10-10,1,0.001678282417429161,0.0018145287156603196,-0.006065297800239305,0.008155794604376508,0.9902044013900062
2012-10-12,1,0.0015097008836301524,0.001685594964509428,-0.006065297800239305,0.006568993496383653,0.990374117962777
2012-10-16,0,0.0,0.0,-0.005154792839220914,0.006447729451045802,0.9907460901845663
2012-10-18,0,0.0,0.0,-0.005154792839220914,0.005965556090975419,0.9916874889894042
2012-10-22,0,0.0,0.0,-0.005154792839220914,0.005356788750727256,0.9915500616513251
2012-10-24,0,0.0,0.0,-0.005643163942032723,0.005965556090975419,0.9908045172535087
2012-10-26,0,0.0,0.0,-0.007776347542222902,0.005965556090975419,0.9905212141626656
2012-11-01,0,0.0,0.0,-0.007776347542222902,0.004499092642323958,0.9907094028973642
2012-11-05,0,0.0,0.0,-0.00832351855296368,0.004499092642323958,0.9902856951540349
2012-11-07,1,0.0017056770051174174,0.0017847366832435003,-0.007570942848433793,0.0038332122016635365,0.9920734821615472
2012-11-09,1,0.0020505659655754437,0.0020838045735912017,-0.006685928311077272,0.0038332122016635365,0.9923916202661397
2012-11-13,1,0.0024237670543481356,0.0025604331681121314,-0.006685928311077272,0.004014869122076237,0.992056656151978
2012-11-15,1,0.00242549255023613,0.002571552878167933,-0.006685928311077272,0.004014869122076237,0.9915230181476116
2012-11-19,1,0.002469249853721539,0.0026049907001570206,-0.006685928311077272,0.005147209509418312,0.9914042947292278
2012-11-21,1,0.001532777442561613,0.0015974126816711838,-0.004570033529562311,0.0066112149114704154,0.9928059198680348
2012-11-26,1,0.001582277843372081,0.0016719562764852917,-0.006341078496669879,0.005147209509418312,0.9932904371761746
2012-11-28,1,0.0008581033898479777,0.0008685696691946734,-0.004532213984595737,0.005147209509418312,0.9934855185457081
2012-11-30,1,0.0005205536086813239,0.0005816467165680201,-0.003918194634669488,0.006154658160746503,0.9936675546322892
2012-12-04,-1,-0.0002992747179495582,-0.00013929731428319856,-0.0034465269415880715,0.006767578310117228,0.9936845332601001
2012-12-06,0,-8.19492615150492e-05,2.4105285577790542e-05,-0.0045085429570386765,0.006767578310117228,0.9931930411450978
2012-12-10,1,0.00014316367576010735,0.00021441996346734896,-0.0045085429570386765,0.007471832152328878,0.9927571586387224
2012-12-12,1,0.00014148732576723842,0.00023807940351426614,-0.004858113394914593,0.006767578310117228,0.9930810102302648
2012-12-14,-1,-0.00022514662586171127,-1.4039510574325419e-05,-0.004858113394914593,0.006767578310117228,0.9938113988158795
2012-12-18,1,0.0003090410254445209,0.00045490096230672427,-0.004858113394914593,0.006767578310117228,0.9934578155228351
2012-12-20,1,0.0015619342359487413,0.0016224535210565938,-0.004858113394914593,0.006767578310117228,0.9932636085162887
2012-12-24,1,0.0009495834704324961,0.0009742212215929113,-0.002253916038775841,0.006767578310117228,0.9935179625394409
2012-12-27,0,-5.7623520072490634e-06,0.00016212422288785177,-0.002253916038775841,0.006767578310117228,0.9936627752814997
2012-12-31,-1,-0.0003651402584281141,-0.0001180966614526491,-0.0017464267000675475,0.006909069507693814,0.9934378961256674
2013-01-03,-1,-0.00035000158347914224,-0.0001301797234386394,-0.000831496555930295,0.008523633802684515,0.9935296800252318
2013-01-07,-1,-0.0013229271769893067,-0.0009709838675804231,-0.00042259497534217057,0.011438763886939228,0.9922907330238154
2013-01-09,0,0.0,0.0,5.618664708611018e-05,0.011438763886939228,0.9923917153169767
2013-01-11,0,0.0,0.0,-0.00028051815953721384,0.011438763886939228,0.9925713875841173
2013-01-15,0,0.0,0.0,-0.0009045873206170133,0.011438763886939228,0.9927888359376417
2013-01-17,0,0.0,0.0,-0.0015354058070995544,0.00746970477411441,0.9929119170810131
2013-01-22,0,0.0,0.0,-0.004079257671622366,0.005004174605964481,0.993040628920952
2013-01-24,0,0.0,0.0,-0.003583943152207554,0.005004174605964481,0.9931238422585534
2013-01-28,0,0.0,0.0,-0.003583943152207554,0.006342996769523318,0.9929880636383511
2013-01-30,0,0.0,0.0,-0.003583943152207554,0.00797069062123084,0.9921761863586952
2013-02-01,0,0.0,0.0,-0.003583943152207554,0.00798663992145867,0.9920633498159565
2013-02-05,0,0.0,0.0,-0.003583943152207554,0.00798663992145867,0.9923781851020255
2013-02-07,0,0.0,0.0,-0.005079838935596578,0.004679674463904975,0.9920604839667375
2013-02-11,1,0.0007273611391771581,0.0009046907918287785,-0.0062028590761756,0.004679674463904975,0.9916414263780889
2013-02-13,0,0.0,0.0,-0.0062028590761756,0.00798663992145867,0.9911982922670414
2013-02-15,0,0.0,0.0,-0.005952761886781843,0.00798663992145867,0.9915866405017173
2013-02-20,-1,-0.0003305652786167999,-5.796596390428288e-05,-0.005079838935596578,0.010234063264823314,0.9917641444837102
2013-02-22,-1,-0.0004552272354096438,-0.0001752179406409374,-0.005952761886781843,0.010234063264823314,0.991655347541883
2013-02-26,1,5.470315910712398e-05,0.0002227479896718644,-0.004160144806286891,0.010234063264823314,0.9919800434014514
2013-02-28,1,0.001297986051762642,0.001322365218912728,-0.004160144806286891,0.0039507312535581275,0.9929864498230241
2013-03-04,1,0.0027795338267531094,0.0030347676384322496,-0.004160144806286891,0.006297098401242724,0.9901487090959286
2013-03-06,1,0.0020536049096911,0.0022648909629342543,-0.004160144806286891,0.0039507312535581275,0.9905121491226191
2013-03-08,1,0.00108754063149196,0.001190521879585347,-0.002759659441922698,0.0039507312535581275,0.9920544075725523
2013-03-12,1,0.0007569649853950463,0.0008307296723526896,-0.001758344292093167,0.0039507312535581275,0.992483027889873
2013-03-14,0,0.0,0.0,-0.0015622686649552167,0.0039507312535581275,0.9923515264726619
2013-03-18,0,0.0,0.0,-0.0010361473850992943,0.006297098401242724,0.9909110807682949
2013-03-20,0,0.0,0.0,-0.004937659139790553,0.0033651968280029015,0.9896812241292229
2013-03-22,1,0.0007788527552423632,0.000861881772449406,-0.0025096041977796303,0.005017807917694743,0.9896698541940153
2013-03-26,1,0.0009296649415373809,0.001034930250524055,-0.004422557616573778,0.006576392504644122,0.9890862273883515
2013-03-28,1,0.0011906786467439207,0.0013532647408211272,-0.00885824675151724,0.006576392504644122,0.9884402873967789
2013-04-02,0,0.0,0.0,-0.009078897525570938,0.0010369453982361039,0.9915786394071551
2013-04-04,0,0.0,0.0,-0.00885824675151724,0.0010369453982361039,0.9920059434012722
2013-04-08,0,0.0,0.0,-0.00885824675151724,0.0011715354943396751,0.9915263293206515
2013-04-10,0,0.0,0.0,-0.00885824675151724,0.006276013693921152,0.9864974344298099
2013-04-12,0,0.0,0.0,-0.00885824675151724,0.006276013693921152,0.9859379954231514
2013-04-16,1,0.0030807450681676783,0.0034572840813241607,-0.00885824675151724,0.006096576902830791,0.9859485500438401
2013-04-18,1,0.0009662845896733558,0.0009872578787571437,-0.006779834783134541,0.006096576902830791,0.9875736165835501
2013-04-22,1,0.0011037978519837493,0.0011384057856467648,-0.008477068737632824,0.0018786506523383807,0.9876084701775079
2013-04-24,1,0.000543722207066959,0.0006081651380261614,-0.006653005626591154,-0.0014240977389184978,0.9881632434117007
2013-04-26,-1,-0.00025494242490903035,-8.467181602482695e-05,-0.006043722228021832,-0.0014240977389184978,0.9888837305062828
2013-04-30,-1,-0.0012183569214604993,-0.0009039790646243182,-0.006043722228021832,0.002334789382327122,0.9878957439111836
2013-05-02,-1,-0.0015779318470662872,-0.0012176381651942524,-0.006653005626591154,0.007644429883887376,0.9865760426390399
2013-05-06,-1,-0.0014752052191064323,-0.0011317145661122196,-0.006653005626591154,0.008500337559478944,0.9864002296622383
2013-05-08,1,0.0017147336308584154,0.0017597762085771948,-0.008644720955612563,0.008500337559478944,0.9888729817105145
2013-05-10,1,0.002237476306400191,0.002372340022852448,-0.008644720955612563,0.009335802206847373,0.9892904862839274
2013-05-14,1,0.002236857405586219,0.0023933931467277378,-0.005696937703624958,0.009907569799433951,0.9894388170614923
2013-05-16,1,0.0016482220307743184,0.0017576083718462737,-0.00526951119731499,0.009907569799433951,0.9901608486945784
2013-05-20,1,0.0010409997291489549,0.0010430033598310636,-0.004554286447613519,0.01064436506863672,0.9899635430742217
2013-05-22,1,0.0002432641990962675,0.0003664919245352804,-0.009629877598981864,0.01064436506863672,0.9879401527372912
2013-05-24,1,1.5378595191483746e-05,0.0001562302826665024,-0.009629877598981864,0.01064436506863672,0.9879394361265341
2013-05-29,-1,-0.0003928124204922003,-0.00018957529419235221,-0.008163441884184271,0.009586901169137949,0.9895491032366415
2013-05-31,-1,-0.001010663273927087,-0.0007038659642001101,-0.008163441884184271,0.009335802206847373,0.9905581176164905
2013-06-04,-1,-0.00048649148040958,-0.0002621755741651268,-0.009649835115189806,0.0060563374825482845,0.9882676603170144
2013-06-06,-1,-0.00043772702718103016,-0.00021918557936268835,-0.008163441884184271,0.005171475739028464,0.9895043245745372
2013-06-10,1,0.00025608299574052923,0.0003813615009338643,-0.008163441884184271,0.004718215423546997,0.9889618735968264
2013-06-12,0,0.0,0.0,-0.008163441884184271,0.003827165198516442,0.9879723305112383
2013-06-14,0,0.0,0.0,-0.008215732202373994,0.005171475739028464,0.9877337036786759
2013-06-18,1,0.0008782538618709224,0.0008854286548166288,-0.009649835115189806,0.00391133355974732,0.9873118218646744
2013-06-20,-1,-0.0010395259671348192,-0.0008067693946852474,-0.008215732202373994,0.005086635351964767,0.9892187213177488
2013-06-24,-1,-0.0007636904313054618,-0.0005794438063521431,-0.008215732202373994,0.005468958995406517,0.9893038282053789
2013-06-26,-1,-0.0008308690187151315,-0.0006608177638895067,-0.007647132170054207,0.005468958995406517,0.9893962076635712
2013-06-28,-1,-0.0011690447552508312,-0.000956464930401355,-0.007233973763058272,0.005468958995406517,0.9896626264222731
2013-07-02,-1,-0.0025998683923504134,-0.0022493931210371856,-0.007040627463560089,0.005468958995406517,0.9920895427052504
2013-07-05,-1,-0.002295180235615409,-0.0019786497062528074,-0.007040627463560089,0.005468958995406517,0.9919406060046955
2013-07-09,-1,-0.001986583474773997,-0.0017051782733337674,-0.007040627463560089,0.004034175166238722,0.9929837898257748
2013-07-11,0,0.0,0.0,-0.007352039590734374,0.002938257496264786,0.9938990777373278
2013-07-15,0,0.0,0.0,-0.007040627463560089,0.0033825084873800376,0.994121071206472
2013-07-17,0,0.0,0.0,-0.005730649876682158,0.002878922492778585,0.9951871963851808
2013-07-19,0,0.0,0.0,-0.007040627463560089,0.0016503782290472908,0.9948146591831774
2013-07-23,0,0.0,0.0,-0.007470344468216029,0.0016503782290472908,0.9943912802362298
2013-07-25,0,-0.0012316340915320319,0.0,-0.008592054340135593,0.0016503782290472908,0.994541431916418
2013-07-29,-1,-0.00135558826489673,-0.001183193843048982,-0.008592054340135593,0.003378984153384405,0.9940578277772317
2013-07-31,-1,-0.001951252560490494,-0.0016707791027244347,-0.009356275032308705,0.003378984153384405,0.9932991774560549
2013-08-02,-1,-0.0018786837093587637,-0.0015896258493554667,-0.009356275032308705,0.0008307933709734593,0.9937015113968559
2013-08-06,-1,-0.00199853102883359,-0.001710377800981635,-0.009003759500929309,0.0037698109005230465,0.9930446941786539
2013-08-08,-1,-0.0029069113105072626,-0.0024970432152899933,-0.00850742842896585,0.004869804825830957,0.9926070823233731
2013-08-12,-1,-0.002345075752106968,-0.002022883009678766,-0.00850742842896585,0.0051293562370349245,0.9924312018791103
2013-08-14,-1,-0.002564454094837193,-0.0022010470838179723,-0.00850742842896585,0.005838846878340883,0.9922286154115688
2013-08-16,-1,-0.003135875027851065,-0.002713530720901605,-0.005196300360579475,0.007354995925515527,0.9920697091591157
2013-08-20,-1,-0.0031786199989256776,-0.0027545300251959454,-0.005196300360579475,0.008382129435513383,0.9903016535409764
2013-08-22,-1,-0.0023124077054634826,-0.0021021733077496558,-0.004528538583726271,0.008382129435513383,0.9908463739074032
2013-08-26,-1,-0.0022045608421578057,-0.0019878094711417438,-0.006185124069784491,0.008382129435513383,0.9909617240434314
2013-08-28,-1,-0.002830786119591984,-0.002549966708414156,-0.004528538583726271,0.008382129435513383,0.9915347500328089
2013-08-30,-1,-0.002904481754092012,-0.00261441957516104,-0.00485814648679461,0.008382129435513383,0.9912977957585861
2013-09-04,-1,-0.001943789769324874,-0.0017891657737311927,-0.00485814648679461,0.0074077968225015,0.9913636729561383
2013-09-06,-1,-0.0015508462069904738,-0.0014415917824441523,-0.004513214562566212,0.007073997058310735,0.9918853446961465
2013-09-10,-1,-0.001883292514954506,-0.0016765382409092196,-0.0061145102346243565,0.004353287709223617,0.9922472660865566
2013-09-12,-1,-0.001560996403030964,-0.0014048461094745223,-0.0061145102346243565,0.0060413021292692135,0.9917738133781628
2013-09-16,-1,-0.0011906595527633353,-0.00107512212163952,-0.006479772993428391,0.0032092680965021196,0.9922937234373364
2013-09-18,-1,-0.00028611985071497903,-0.00025527038592432514,-0.006361434277251093,0.0032092680965021196,0.9935809328056372
2013-09-20,-1,-0.0006127443155599907,-0.0005247730254996217,-0.006361434277251093,0.0035947384483234262,0.9935806567254415
2013-09-24,-1,-0.0011876063836036774,-0.0010233566140929581,-0.006361434277251093,0.0035947384483234262,0.9933701420076151
2013-09-26,-1,-0.0011133870696475468,-0.0009630404459409131,-0.006547512248581047,0.003071162223873336,0.9930064841572228
2013-09-30,1,0.00011481866326453367,0.0002558115137467008,-0.006523783903301203,0.005478098093408004,0.9922243957878933
2013-10-02,1,0.0008677364775851764,0.0011359156412209105,-0.006831343361273408,0.003748450504806391,0.99217247923311
2013-10-04,1,0.0011300931761074817,0.0014345968827759305,-0.006831343361273408,0.004237427628730705,0.9925245770571196
2013-10-08,1,0.00052074771274691,0.0007123058820326897,-0.006523783903301203,0.004237427628730705,0.9931147823884557
2013-10-10,1,0.0007263127350029147,0.0009301911561561574,-0.006831343361273408,0.004237427628730705,0.9918999616875759
2013-10-14,1,0.00045320608551308955,0.0006134070484900783,-0.006523783903301203,0.007224518549389078,0.9914750784197763
2013-10-16,1,0.0005517961052878568,0.0007180242954169136,-0.005045938015109828,0.007224518549389078,0.9909839383977994
2013-10-18,1,0.0006682116161667871,0.000847688271965053,-0.005045938015109828,0.0074382394374754085,0.9907213114950407
2013-10-22,1,0.00010680914780084575,0.00020786238607302745,-0.005045938015109828,0.0074382394374754085,0.9906016979816067
2013-10-24,-1,-0.000152015384154121,-7.007538229263159e-05,-0.007078263108017501,0.0074382394374754085,0.9901790197095571
2013-10-28,1,0.00015034953597221445,0.0002761035665803013,-0.006586699471388341,0.0074382394374754085,0.9866636298171912
2013-10-30,1,0.00035340831833444663,0.0005302541636007841,-0.00880640075836102,0.0074382394374754085,0.9860283647367521
2013-11-01,1,0.0009227048196462071,0.0012035902375031348,-0.00880640075836102,0.0074382394374754085,0.9858840554883411
2013-11-05,1,0.0008943446243609702,0.0011638912103819712,-0.012682889503217845,0.0074382394374754085,0.9845340038294147
2013-11-07,1,0.0007618709973199454,0.0010274597844804295,-0.01158057356727641,0.0074382394374754085,0.9853935943281819
2013-11-11,1,0.0007732011958336784,0.000979116198554392,-0.011678511401893852,0.0065119266070051375,0.9824970299267444
2013-11-13,1,0.0014804142147862142,0.0017847303827815976,-0.01210238162519425,0.004168993140154957,0.9825214768351592
2013-11-15,1,0.001659108659464587,0.0019740005512718867,-0.01210238162519425,-0.0015075101516235354,0.9824236922653886
2013-11-19,1,0.0012910068397835018,0.0015434028451609479,-0.011678511401893852,0.002203726034205958,0.9820551746882231
2013-11-21,-1,-0.0002287583935106578,-0.00019129590621885947,-0.01158057356727641,0.006349074270850104,0.9825533581108209
2013-11-25,1,0.0022559716198979787,0.0025497968489895354,-0.01158057356727641,0.004973629435891426,0.9859496532085663
2013-11-27,1,0.0016236155451310498,0.001854725431567819,-0.007771456647375125,0.004973629435891426,0.9875550797443379
2013-12-02,1,0.0018837371819294352,0.0022181994715226895,-0.007771456647375125,0.004973629435891426,0.9880863951178648
2013-12-04,1,0.0009082306924586124,0.0011105865729609398,-0.004678919426772842,0.011273256743099013,0.9886088189746751
2013-12-06,1,0.0012092356491696945,0.0014251572551218568,-0.004678919426772842,0.007104011746093557,0.9892913081627948
2013-12-10,1,0.0027319581176777318,0.0031406681083741587,-0.0019894521730854575,0.005382202366244505,0.9930398416951722
2013-12-12,1,0.0021641316552433467,0.002503691181893487,-0.001871214002460092,0.005382202366244505,0.9931899165360456
2013-12-16,1,0.001920825033736854,0.0022137355056573186,-0.001871214002460092,0.0065684450360539055,0.9927663192770863
2013-12-18,1,0.0028917953853824256,0.0033009836518042277,-0.001871214002460092,0.005382202366244505,0.9943204651225864
2013-12-20,1,0.0029336418708969737,0.0033383881273406613,-0.0006311294238114891,0.006210601577692364,0.9945891825941008
2013-12-24,1,0.0033015809853484046,0.0037687056518660835,-0.004324204914896746,0.005382202366244505,0.992959322328466
2013-12-27,1,0.0031005595460633934,0.0035200270180231015,-0.004324204914896746,0.005646654297336162,0.9928110715422048
2013-12-31,1,0.002647094142141608,0.002960945897669112,-0.005221498080064192,0.006210601577692364,0.9920083314258966
2014-01-03,1,0.00314657290342857,0.0035390880662915254,-0.006782844085272125,0.005646654297336162,0.9916046919096952
2014-01-07,1,0.0033644117797951793,0.0037786625433034867,-0.006782844085272125,0.0056845108496172275,0.9911575231773614
2014-01-09,1,0.003080314932108758,0.003412170415455766,-0.006782844085272125,0.006576086156880398,0.990737558877313
2014-01-13,1,0.0023956250116041466,0.002628751458605293,-0.00531997614448786,0.0074177394104158745,0.9917033352135539
2014-01-15,1,0.0018544417983934218,0.001985428623833117,-0.003916039626026853,0.0074177394104158745,0.9907277476145964
2014-01-17,1,0.0019824947704864225,0.0021378817138702614,-0.003916039626026853,0.0074177394104158745,0.9905673882428834
2014-01-22,1,0.002143409103879078,0.0022699731758275042,-0.00531997614448786,0.007031078856147119,0.9905938464293438
2014-01-24,1,0.0008931424322982992,0.0009406946620407531,-0.0037841905961024528,0.0074177394104158745,0.9913276503355537
2014-01-28,1,0.0011173722541279283,0.0011188385252166783,-0.004521146999757171,0.007810381612963364,0.9909647902238494
2014-01-30,1,0.0013956354916775397,0.0014440326063209468,-0.0025093429669874887,0.007831523439039917,0.9913631977871741
2014-02-03,1,0.0005468042909165854,0.0005916120025641624,-0.0025093429669874887,0.007831523439039917,0.9921267543065728
2014-02-05,1,0.0005525469231275286,0.0005953859986723038,-0.0025093429669874887,0.007831523439039917,0.9921844893342889
2014-02-07,1,0.0008223030433102965,0.0008230530801629846,-0.0044551012052880465,0.0076825121452776144,0.9924629142556235
2014-02-11,1,0.0015164002323753687,0.0016681378729505984,-0.004798857186244018,0.007124034618006933,0.9926527958639472
2014-02-13,1,0.0021526617213764583,0.0023794346862531877,-0.004798857186244018,0.005901171698947405,0.9940264460804722
2014-02-18,1,0.0020535279332331096,0.0022383292237875526,-0.004798857186244018,0.0060943781500631495,0.9937387909305438
2014-02-20,1,0.0015221970429349892,0.0016314904832125821,-0.0033586445875689016,0.0077999762557787525,0.9942408612841224
2014-02-24,1,0.001901518447656304,0.002036252017042909,-0.004798857186244018,0.0060943781500631495,0.99424166275654
2014-02-26,1,0.002040177453392443,0.002216657447886511,-0.0033586445875689016,0.005557952876299477,0.9949507777424477
2014-02-28,1,0.002505108334446936,0.002748889418430751,-0.004798857186244018,0.004135950101262931,0.9949861558629044
2014-03-04,1,0.002157036588298778,0.0023246073066853987,-0.0033586445875689016,0.0045595900221739975,0.9951838055554812
2014-03-06,1,0.002174102973461672,0.002354455601412163,-0.0031329069684210733,0.004631027821040969,0.9952047308190749
2014-03-10,1,0.0018058695032205476,0.0019123796094737766,-0.004158810060724248,0.004631027821040969,0.9938429007848131
2014-03-12,1,0.001652920611230483,0.001742487195233508,-0.0031329069684210733,0.006990525129455922,0.993088598906884
2014-03-14,1,0.001534669592546447,0.0016073007775080066,-0.00794298904189223,0.006990525129455922,0.9917915182243185
2014-03-18,1,0.0014574845103088388,0.001475826367168542,-0.00794298904189223,0.007269304253344529,0.9916961230166826
2014-03-20,1,0.0011931273459286269,0.0012400532492608373,-0.00794298904189223,0.007269304253344529,0.991433153084678
2014-03-24,1,0.0004920259567774516,0.0006151391603723237,-0.004662686019097418,0.007269304253344529,0.9922342755126206
2014-03-26,1,0.00040242609087316083,0.0005486641109939225,-0.004662686019097418,0.007269304253344529,0.9923371821606776
2014-03-28,1,0.00018498500654181947,0.00034708583068183475,-0.003962255526323946,0.007269304253344529,0.9923780937543674
2014-04-01,1,0.00036747358005048534,0.0005137433544370382,-0.004920618668864157,0.007142939409974837,0.9923588651300028
2014-04-03,0,-2.9209324229724975e-06,0.00021847354608420884,-0.006802531169839976,0.007969799623520582,0.9906912865550749
2014-04-07,-1,-0.0008151230799756891,-0.0005265027665940673,-0.004154944736068358,0.007969799623520582,0.9919690192646808
2014-04-09,1,0.0003108853042771412,0.00043588341288738197,-0.004920618668864157,0.007022638021600762,0.9925643235461037
2014-04-11,-1,-0.0005307475868362402,-0.00031741366904782637,-0.0022958686050768102,0.007022638021600762,0.9933505339486153
2014-04-15,-1,-0.0003533845810682536,-0.00014100645024894766,-0.0033215390495076424,0.0053550061119691265,0.9939586471051354
2014-04-17,-1,-0.0004861586076188539,-0.00021841737930581857,-0.0033215390495076424,0.003163528017467503,0.994630484319475
2014-04-22,1,0.000954601115885413,0.0009571742027388722,-0.0033215390495076424,0.003163528017467503,0.9943761244371396
2014-04-24,1,0.00014391709338916361,0.0002866791603618623,-0.0033215390495076424,0.00521263310285598,0.9939552422117437
2014-04-28,-1,-0.0003496528516816102,-0.00012406410080664548,-0.0029880329006168643,0.007126171880019406,0.9934706707373137
2014-04-30,-1,-0.001189974798002092,-0.0008078189317201985,-0.002831394740176321,0.00830076534356912,0.993478407534458
2014-05-02,-1,-0.001980642098009886,-0.0015304977609370848,-0.0027825179955462275,0.0087815486214333,0.994499563619486
2014-05-06,-1,-0.0009135936609192343,-0.0006946851211777473,-0.0023171562283796445,0.0087815486214333,0.9944875386494733
2014-05-08,-1,-0.0013132510637162492,-0.001015633950145012,-0.0021018764410610643,0.008301300176453485,0.9947981187164496
2014-05-12,-1,-0.0011375318829104988,-0.0008545018080179267,-0.0023171562283796445,0.008301300176453485,0.9953384079648039
2014-05-14,-1,-0.00080232265891644,-0.0006035848617146174,-0.0021018764410610643,0.008301300176453485,0.9951447722341338
2014-05-16,-1,-0.0008421288784715883,-0.0006457434075560919,-0.002089756619143161,0.008301300176453485,0.995227578500526
2014-05-20,-1,-0.0007464741893378563,-0.0005727295771312111,-0.002126604184993614,0.008301300176453485,0.9947316677738545
2014-05-22,-1,-0.0005105804997224784,-0.0003628731100367083,-0.002089756619143161,0.008301300176453485,0.994473693607321
2014-05-27,0,-5.384929447505357e-05,4.276835633452292e-05,-0.002126604184993614,0.0039585891133050305,0.9951123479166484
2014-05-29,1,0.0004267172122124894,0.0004427728161851803,-0.002420000151047565,0.0039585891133050305,0.9951644889129244
2014-06-02,1,0.0010780856807550356,0.0011592052324296282,-0.003372157358587343,0.0035322473643561595,0.9945881019325007
2014-06-04,1,0.001291100503567415,0.0014089598008629827,-0.003372157358587343,0.005164097464299518,0.994035725315947
2014-06-06,1,0.0010021987881148038,0.0010480574976872484,-0.0035603229969245575,0.004122982756912041,0.9940905680711466
2014-06-10,1,0.0008305954642565557,0.0008499861886090917,-0.003897391062613726,0.00572689488767896,0.9937724557918478
2014-06-12,1,0.0005119706975947578,0.0005260667310210076,-0.0035603229969245575,0.00572689488767896,0.9942539649539273
2014-06-16,1,0.0007663435702778295,0.0008243356916913077,-0.003897391062613726,0.006156501222014046,0.993882343069916
2014-06-18,0,-4.6939356218434814e-05,4.875715956052134e-05,-0.003897391062613726,0.006613917067226175,0.9938488307517841
2014-06-20,1,0.000484904982681731,0.0005182960464211096,-0.004185837940523833,0.006243954433435456,0.9925524246660918
2014-06-24,1,0.0003818602135043577,0.0004226797431752567,-0.003906658710637435,0.006613917067226175,0.9924501895154245
2014-06-26,-1,-0.00017600045056495356,-2.5213372336142662e-05,-0.0045826032273909734,0.006274299225533201,0.9925463316371822
2014-06-30,1,4.2183792375343723e-05,0.0001671548067471343,-0.0045826032273909734,0.0060432952747830546,0.9934032588050544
2014-07-02,1,0.0005763658544028191,0.0006331241893925004,-0.005730525945999115,0.00445145671592391,0.993494321308425
2014-07-07,1,0.0004530084484660179,0.0005004295233182065,-0.005730525945999115,0.006274299225533201,0.9926415940463953
2014-07-09,1,0.0010270344864402637,0.0010710870175081248,-0.005730525945999115,0.006274299225533201,0.9926494446056496
2014-07-11,1,0.0010216067823541758,0.0010780087047418474,-0.005730525945999115,0.006274299225533201,0.9925851446217232
2014-07-15,1,0.0007074526964702023,0.0007256132309616676,-0.005730525945999115,0.0053094456308768745,0.9929236458937947
2014-07-17,1,0.0011216351096716777,0.0012036676324682922,-0.0020896875847276762,0.005488793957219531,0.9929619146647055
2014-07-21,0,-5.7958041959008116e-05,7.207041441966924e-06,-0.0020896875847276762,0.006279709190477044,0.9935613826365166
2014-07-23,1,0.0005491083222511471,0.0005864610260789218,-0.002276434958905435,0.005097839671763577,0.9937236609053909
2014-07-25,1,0.00042135923247050823,0.0004401425525996525,-0.00142253605294457,0.005097839671763577,0.9939669068729786
2014-07-29,1,0.00031866165464525286,0.00032224684329905514,-0.0008972882321430186,0.0057490661332107685,0.9939583185614006
2014-07-31,-1,-0.00025370652415452515,-0.0001816187470779911,-0.0008972882321430186,0.0057490661332107685,0.9943048742363066
2014-08-04,1,0.0005028302793001573,0.0005152107126368199,-0.001147783245020629,0.005036470973728238,0.9953609406296586
2014-08-06,1,0.00010399342995151603,0.00014440216353988527,-0.001147783245020629,0.005036470973728238,0.9954641320199775
2014-08-08,1,0.0005007272593383582,0.0005346415691417094,-0.001147783245020629,0.0038799974277286906,0.995613835010658
2014-08-12,1,0.0006886916733097598,0.0007620353973622833,-0.0014745080632505105,0.0038799974277286906,0.9956713888477197
2014-08-14,1,0.0007739035716970702,0.0008200894356340913,-0.0019136036418777019,0.0026699820354679255,0.9960858718454635
2014-08-18,1,0.0009754494959725054,0.0010580289827203451,-0.0018832392580575268,0.0026699820354679255,0.9973847635163913
2014-08-20,1,0.0009107697402693153,0.0009696155721435356,-0.0019204601071258175,0.0026699820354679255,0.9969446170723607
2014-08-22,1,0.0010419277195446665,0.0011396067529284232,-0.0018832392580575268,0.0026699820354679255,0.9969675274070654
2014-08-26,1,0.0013398082144075612,0.00148093954716146,-0.0019204601071258175,0.0023137050783838533,0.9962434574405528
2014-08-28,1,0.0006990525961310959,0.0007050299883089627,-0.0034661669877620554,0.0023137050783838533,0.9953528379557472
2014-09-02,1,0.0011720960436974225,0.0012749197260539715,-0.00428850113929029,0.0018810800289275574,0.9952382822909487
2014-09-04,1,0.0003500939537021716,0.0004037656338066029,-0.00428850113929029,0.0023137050783838533,0.9948441877642392
2014-09-08,1,0.0007276795678242888,0.000742856340647785,-0.0047008913116986,0.0027548611499953763,0.9940214350617446
2014-09-10,1,0.0008225060051369846,0.0008785882222714194,-0.004945437498570519,0.0055519449995746544,0.9925271570526425
2014-09-12,1,0.0007354684334100136,0.0007760171075993981,-0.00792689627506683,0.0055519449995746544,0.9916304660733626
2014-09-16,1,0.0007075036046285964,0.0007366777233897232,-0.00792689627506683,0.004113683502280561,0.9918568740849039
2014-09-18,1,0.0008167486633362622,0.0008529855546337238,-0.009349831061032704,0.001998981994036777,0.991431391547555
2014-09-22,1,0.0007545917524425877,0.00078342182586079,-0.009349831061032704,0.009720272088640484,0.9906763593557807
2014-09-24,1,0.00022575024941377483,0.00032282665671603096,-0.008750486226262741,0.009720272088640484,0.9904675096048798
2014-09-26,-1,-0.0007713145846460253,-0.0005514203250072653,-0.00792689627506683,0.010280385903880463,0.990563338238835
2014-09-30,-1,-0.0009624920798853467,-0.0007215959419259125,-0.00792689627506683,0.01121882444675728,0.9902069017114357
2014-10-02,-1,-0.0004868039685750036,-0.0003188809832609074,-0.00792689627506683,0.010280385903880463,0.9908541567534411
2014-10-06,-1,-0.0006923027974679441,-0.0004863620378235115,-0.004111377551521726,0.010280385903880463,0.9914087317238732
2014-10-08,-1,-0.00021408485068407106,-5.697852120760242e-05,-0.003245290409605784,0.00722030754074662,0.9928683258916221
2014-10-10,-1,-0.0011090855344509593,-0.000849438633144665,-0.002758634377526715,0.007530539250048939,0.9911948556572675
2014-10-14,-1,-0.0007210049920541022,-0.0005447908621642665,-0.002758634377526715,0.010280385903880463,0.9902935512377765
2014-10-16,-1,-0.0011097795359560215,-0.0009101958789238635,-0.0009930273828593545,0.010280385903880463,0.9904394738726331
2014-10-20,-1,-0.0003990105040940968,-0.00029157484238872156,-0.002502962017047121,0.006969064672702081,0.9908507142087352
2014-10-22,1,0.0005316826509234498,0.0005614064389572475,-0.002502962017047121,0.006398536562339161,0.99203028684772
2014-10-24,1,0.0010754891451840816,0.0011860823689201876,-0.0029571789790293623,0.004577614408553131,0.992411385685296
2014-10-28,1,0.0013570899194714696,0.0015068474587893095,-0.0029571789790293623,0.004577614408553131,0.9925459673386317
2014-10-30,1,0.001281648633851439,0.001413451782975134,-0.002753269643714705,0.006025268584778339,0.9920204233523497
2014-11-03,1,0.0012014869820929463,0.001302237226795721,-0.0041187069759609785,0.005915040101396294,0.9916647422189876
2014-11-05,1,0.0009091343798480986,0.0009640302122748857,-0.0043470061275471435,0.005915040101396294,0.9917723139409346
2014-11-07,-1,-0.0003870718292775312,-0.0002744589458313966,-0.0038006961129811966,0.004699410715207337,0.9941495717259947
2014-11-11,1,0.0005404478583982369,0.0005676875104551935,-0.005563110231410212,0.0042238538042789295,0.9941288148196398
2014-11-13,1,0.0007060930514063931,0.0007430920439501893,-0.007059259513555803,0.0013978389575786607,0.9938231081608038
2014-11-17,1,0.00015160018346226561,0.000181232577406212,-0.006935248088665106,0.0013978389575786607,0.9945992100880333
2014-11-19,1,0.00013654709722080329,0.0001555768970665045,-0.006935248088665106,0.004699410715207337,0.9932510258859216
2014-11-21,1,0.00017567495611412994,0.00018714453843335626,-0.005563110231410212,0.006150855521641107,0.9929055186609914
2014-11-25,1,0.0002811913560086625,0.00029879803485903793,-0.005563110231410212,0.005461826106636902,0.9930411496656322
2014-11-28,1,0.0007563492210522781,0.0008338855912027593,-0.005563110231410212,0.003475660728534541,0.9937742704528809
2014-12-02,1,0.0004020463125222747,0.00042815377030011863,-0.004824498813727268,0.003475660728534541,0.9940886639546764
2014-12-04,1,0.0002690622652448902,0.00028041104399635555,-0.005375591979568194,0.003475660728534541,0.9935884881827225
2014-12-08,1,0.0004760823596881523,0.000516816737350269,-0.007846411574220412,0.002927474674220417,0.9927653090120949
2014-12-10,-1,-0.0006871345933857147,-0.0005379704551077963,-0.005351039207783912,0.006324400750016225,0.9924580319141656
2014-12-12,-1,-0.0009941561230437327,-0.000821869164129866,-0.005351039207783912,0.006324400750016225,0.9926402212468629
2014-12-16,-1,-0.0013352008337730369,-0.0011181911575792649,-0.0037445945023397618,0.006324400750016225,0.9927138799080928
2014-12-18,-1,-0.00038294678308338053,-0.00027244250976132096,-0.0037445945023397618,0.00294863103102588,0.9938867270451953
2014-12-22,-1,-0.00020984863169243534,-9.674867259046153e-05,-0.0037445945023397618,0.0029853929140995945,0.9940425915884419
2014-12-24,1,5.620016765809816e-05,0.00010409822473617388,-0.003550718781256597,0.004748436361311925,0.9938944702773493
2014-12-29,-1,-0.00016060647776568394,-7.246170514501173e-05,-0.004664365217584472,0.004748436361311925,0.9936544432841917
2014-12-31,-1,-0.0002880442210302925,-0.00019082994898978514,-0.006943608981079967,0.0058880035188980445,0.992764024944208
2015-01-05,-1,-0.0007296124479982714,-0.0005833999891324642,-0.004664365217584472,0.0068244525465723845,0.993119743651032
2015-01-07,-1,-0.0006606451352240231,-0.0005434110563181271,-0.0032944879835011824,0.0068244525465723845,0.9934548218102696
2015-01-09,-1,-0.00020816044550128025,-0.0001485833346083311,-0.004664365217584472,0.005858144002152873,0.9935544048672759
2015-01-13,-1,-0.0004531492285649124,-0.0003706626298552321,-0.0032944879835011824,0.0068244525465723845,0.9932371906998242
2015-01-15,-1,-0.0005175124344962994,-0.00042593563819535204,-0.004664365217584472,0.0068244525465723845,0.9910695244576325
2015-01-20,1,4.726025111233102e-06,1.9008958310382978e-05,-0.004992811210596595,0.006813449610190739,0.9911163287723266
2015-01-22,1,0.00035885671299405335,0.0003885480600933652,-0.004992811210596595,0.006813449610190739,0.9913953432431903
2015-01-26,1,0.0003878477170157225,0.00042431432107156556,-0.008106298648525264,0.006813449610190739,0.9911298476793445
2015-01-28,0,-1.0239788337062413e-05,1.4513066363004693e-05,-0.0062605477049918375,0.006927515495261171,0.9905978498174095
2015-01-30,-1,-0.00015061586948674058,-0.00011530393022879473,-0.0015037882472918496,0.006927515495261171,0.9908180295405509
2015-02-03,1,7.377480910515628e-06,2.9601563196036963e-05,-0.0015037882472918496,0.007990871719612156,0.9904543285419972
2015-02-05,1,0.0004246495273838223,0.000450098607932989,-0.0015037882472918496,0.007599788287482156,0.9908154954780372
2015-02-09,-1,-0.00044420930952059805,-0.00036811963959380005,0.001337303664944583,0.007599788287482156,0.9914740219899634
2015-02-11,1,0.00021235760378753452,0.0002234237644867735,0.001337303664944583,0.007599788287482156,0.9916575075612568
2015-02-13,-1,-0.0010286520798146472,-0.0008940977475641145,0.002097892548586646,0.009657405892064368,0.9922006351340639
2015-02-18,-1,-0.000870987190249325,-0.0007594354440785526,0.002097892548586646,0.009657405892064368,0.9923620945235151
2015-02-20,-1,-0.0010430976619570328,-0.0008792652767196766,0.002097892548586646,0.009657405892064368,0.9923124092562603
2015-02-24,-1,-0.0014878827915255828,-0.0012663956836285674,0.003325206430275394,0.011492051259540838,0.9917522063153795
2015-02-26,-1,-0.0007309547815121265,-0.0006102030450300609,0.0010232037474096063,0.009657405892064368,0.992512942813357
2015-03-02,-1,-0.0001712448827784382,-0.00011686546254017108,0.0010232037474096063,0.009168016255341204,0.992968645839555
2015-03-04,1,0.0005465856075459389,0.000608310294864019,-0.0027585786923784643,0.00784345990255822,0.9927541068471119
2015-03-06,1,0.0005035645599933858,0.0005217948550584131,-0.0027585786923784643,0.007912334789573023,0.9924079977347222
2015-03-10,1,0.0006587032689348857,0.0006987302910511132,-0.0027585786923784643,0.007912334789573023,0.9923914486748425
2015-03-12,1,0.0008426180717547044,0.00086620886340428,-0.002939878874354215,0.006915499671230219,0.9929781513649465
2015-03-16,1,0.0016637022689242526,0.001829218882442308,-0.002939878874354215,0.005501441460886614,0.9937859829403952
2015-03-18,1,0.0019733347984768252,0.002217689624037697,-0.0032379749120894194,0.005460792960013386,0.9937761111679668
2015-03-20,1,0.0022553118323534876,0.002566635460427515,-0.005619698750581426,0.006465220177367063,0.9933112430288907
2015-03-24,1,0.002463153062240089,0.0028179418013470105,-0.0032379749120894194,0.006465220177367063,0.9935993456110906
2015-03-26,1,0.00203686607551766,0.0023341823300252274,-0.0019549146022296007,0.006465220177367063,0.994259155472643
2015-03-30,1,0.002486260110222411,0.0028506772010166103,-0.0024630996481097354,0.006088795353948946,0.9943082308672285
2015-04-01,1,0.0016327589024821725,0.0018715579917176802,-0.0024630996481097354,0.006088795353948946,0.9940834005388611
2015-04-06,1,0.0018853519693371778,0.0020789572578811364,-0.0024630996481097354,0.005088894160211633,0.9939078758795156
2015-04-08,1,0.0022564573050729386,0.0025422708875782614,-0.0032379749120894194,0.004994740852361621,0.9934043600707595
2015-04-10,1,0.0024715009011517406,0.0028076527678836797,-0.0030095988267426167,0.005259592539498126,0.9935295146192769
2015-04-14,1,0.002066806966480245,0.002304983697001853,-0.007346861861798974,0.005259592539498126,0.9928269584705246
2015-04-16,1,0.00191448805746396,0.002118631907500506,-0.007346861861798974,0.005259592539498126,0.9928987880970923
2015-04-20,1,0.0015473626601383576,0.0016843830645568584,-0.005246168587378334,0.005259592539498126,0.9928514649519081
2015-04-22,1,0.0021272104253242954,0.0023503371341934156,-0.005246168587378334,0.0059157381900522815,0.9931190896562015
2015-04-24,1,0.0026368004187723973,0.0029629967023710145,-0.005246168587378334,0.005928604346698954,0.9927715633586195
2015-04-28,1,0.0022137653023245924,0.002457993099730526,-0.005246168587378334,0.005928604346698954,0.9928626925265601
2015-04-30,1,0.0010344190884287873,0.0011084751417152641,-0.004192942246281381,0.005928604346698954,0.9941231861286697
2015-05-04,1,0.0015879252470067254,0.0017468230893377525,-0.004192942246281381,0.005233343666000623,0.99485395141545
2015-05-06,1,0.0007961762018456051,0.0008081460030815151,-0.004192942246281381,0.005233343666000623,0.9945798325363455
2015-05-08,1,0.0007314031365186428,0.0007586601550288687,-0.004817170851730336,0.004248469868784217,0.9944579369585048
2015-05-12,-1,-0.00018387035269627294,-3.091824888578319e-05,-0.004192823763005877,0.004248469868784217,0.9949229213347593
2015-05-14,1,0.0008173806634171286,0.0008440896027390253,-0.004641682793328794,0.004248469868784217,0.994658428999747
2015-05-18,1,0.001330321594630552,0.001451466151643944,-0.004192823763005877,0.0030476901611514017,0.995445464351476
2015-05-20,1,0.0015539850363543248,0.0016936139044268095,-0.004816815401903824,0.0024561447734607615,0.9953605082294751
2015-05-22,1,0.0016502724990455978,0.0017984699549417798,-0.004816815401903824,0.0024561447734607615,0.9953237956007013
2015-05-27,1,0.0014558743659936106,0.0015645653517577635,-0.0057532126148265575,0.0020997266227938327,0.9944119442119638
2015-05-29,1,0.0010019862804547443,0.0010179519187714177,-0.0057532126148265575,0.0024561447734607615,0.9944151422351931
2015-06-02,1,0.0007335693566802112,0.0007600076707384343,-0.007143135331961173,0.0024561447734607615,0.9934841912548134
2015-06-04,1,0.00035420744620446513,0.0004060672337117204,-0.0057532126148265575,0.0024561447734607615,0.9940829840752218
2015-06-08,-1,-0.0002687853615538638,-0.00012280003132838688,-0.004942550009079547,0.003294142665560126,0.9942525094021187
2015-06-10,-1,-0.0004693544211734976,-0.00029845982129390305,-0.0057532126148265575,0.003294142665560126,0.9940949435552479
2015-06-12,-1,-0.0004779444049133602,-0.00032076696242096367,-0.004942550009079547,0.003294142665560126,0.9944087880051304
2015-06-16,-1,-0.0002574117152718941,-0.00014472357086466167,-0.005096271043478319,0.0050379219356174254,0.9939971146882959
2015-06-18,-1,-0.0003490591283140133,-0.00022423597470772532,-0.0048419268662313894,0.0034139890190530843,0.9942869202450832
2015-06-22,-1,-0.00032926370140870195,-0.00018943659282223278,-0.0048419268662313894,0.0022308416280384024,0.9945924717959737
2015-06-24,-1,-0.0013783054922785311,-0.0011018029513352367,-0.0022293463347684496,0.0032730682203113734,0.9952518842151933
2015-06-26,-1,-0.0009211185914362295,-0.0007075342534677364,-0.0048419268662313894,0.0022308416280384024,0.9949816253827994
2015-06-30,-1,-0.0013451218074664697,-0.0011071042036934155,-0.003638781881129891,0.0032730682203113734,0.9953113717748305
2015-07-02,-1,-0.002163956595623669,-0.0017850224727932228,-0.0036900222259294816,0.005196898429016838,0.9947498808414031
2015-07-07,-1,-0.0015667583430838414,-0.001283622576902879,-0.0036900222259294816,0.0056671051347577895,0.9946462844556596
2015-07-09,-1,-0.002871484512162175,-0.002365457708074243,-0.001657807136237062,0.006104214941919017,0.9939450564074969
2015-07-13,-1,-0.0026189367272606377,-0.002142923398563203,-0.001922922798407062,0.005681452545693884,0.9945311910631102
2015-07-15,-1,-0.0024956059860374285,-0.002042626079949956,-0.003304794390649754,0.005196898429016838,0.9947519117861344
2015-07-17,-1,-0.002683441330111458,-0.002187148104699506,-0.0035291244453193545,0.005681452545693884,0.9945733368707296
2015-07-21,-1,-0.002515572351408561,-0.00206946465010363,-0.0035539052053796373,0.005681452545693884,0.9945247458330205
2015-07-23,-1,-0.0019989075784932276,-0.0016402642980024456,-0.0042053961804612745,0.005352166638694643,0.9941229725068522
2015-07-27,-1,-0.0025372967197706316,-0.0021382862403859235,-0.0042053961804612745,0.005352166638694643,0.9922577925229542
2015-07-29,-1,-0.001934850547160859,-0.001628867605828975,-0.0042053961804612745,0.005352166638694643,0.991371605089487
2015-07-31,-1,-0.0018462882986747865,-0.0015600506569253881,-0.003988386341848992,0.006351111431273141,0.9913277600222808
2015-08-04,-1,-0.0009470206565301376,-0.0007984275810237406,-0.008928175595341047,0.003435040366862625,0.9908104783737328
2015-08-06,-1,-8.561600973418682e-05,-7.358545453992074e-05,-0.008928175595341047,0.0035960091253773624,0.9903185260045108
2015-08-10,-1,-6.33588770370882e-05,-5.826357019665829e-05,-0.010563572295361295,0.0049355535654453195,0.9892279542822674
2015-08-12,-1,-0.0004373326790747058,-0.00039303921185438655,-0.01010548303104667,0.0049355535654453195,0.9894161110539631
2015-08-14,-1,-0.0002003318363108489,-0.00019093837216982472,-0.01010548303104667,0.004400674850746144,0.989561466015039
2015-08-18,-1,-0.0005485835082478183,-0.0004781625004979499,-0.01010548303104667,0.005552406879840176,0.9890594774461061
2015-08-20,-1,-0.0008466937907861942,-0.0007624286170559169,-0.009729695435945332,0.005552406879840176,0.9895912712820856
2015-08-24,-1,-0.002961991731572669,-0.002594670124822096,-0.008560573869694978,0.007450875096263076,0.9910353622512943
2015-08-26,-1,-0.0017059159310009182,-0.0015126709217377803,-0.008896779309197578,0.005552406879840176,0.9918235539723967
2015-08-28,-1,-0.0016265772470185076,-0.0014499221088979278,-0.010670083673419185,0.004887948949789634,0.9902622856463851
2015-09-01,-1,-0.002476086699468676,-0.002205797359809958,-0.009729695435945332,0.006040607775192594,0.9903293605619403
2015-09-03,-1,-0.0017713366264656676,-0.0015879864919484126,-0.009729695435945332,0.006040607775192594,0.9907328528359798
2015-09-08,-1,-0.0016916322274687242,-0.0015232192382057946,-0.009729695435945332,0.005389238586280408,0.9907911990011438
2015-09-10,-1,-0.002070971719939157,-0.0018559339147114716,-0.009084979523321749,0.0069613702155837745,0.990339732894794
2015-09-14,-1,-0.0015734970576618914,-0.0014466690562790485,-0.009084979523321749,0.007149547105971515,0.9902584963070011
2015-09-16,-1,-0.0008202132594869173,-0.0007967962510715364,-0.009084979523321749,0.006372726656800835,0.9909548617917266
2015-09-18,-1,-0.0012013406586728332,-0.0011333804404668722,-0.005124035699077714,0.012281793148913124,0.9891762001569545
2015-09-22,-1,-0.0015488105238525677,-0.0013936115975726668,-0.0038878692699593187,0.007870012976555433,0.9902106214313067
2015-09-24,-1,-0.0015965560224290775,-0.0014634622493242117,-0.0038878692699593187,0.007870012976555433,0.98992952739812
2015-09-28,-1,-0.0033885052305449716,-0.00303264853772505,-0.0019311494632079887,0.012048856313564317,0.9901458224728885
2015-09-30,-1,-0.0023590414899355315,-0.0021435978820056297,-0.0019311494632079887,0.008348504930483136,0.9909641059419056
2015-10-02,-1,-0.0022754464092039576,-0.002047977969336268,-0.0019311494632079887,0.006720400865164476,0.9914423256379333
2015-10-06,-1,-0.002266030085184131,-0.0020625086427575796,-0.0019311494632079887,0.007495678155037766,0.9917894847110734
2015-10-08,-1,-0.0014925919522110296,-0.0014023669861714788,-0.002005306615806055,0.006720400865164476,0.9925764430619369
2015-10-12,-1,-0.0008460810904973218,-0.0008341762625295991,-0.003299614332744909,0.00657560539382935,0.9918119998995715
2015-10-14,-1,-0.0008163935246939462,-0.0007856478914643485,-0.003858511087595458,0.006959178466582711,0.9909359720151325
2015-10-16,1,0.0007219586850259422,0.0009637525480106677,-0.007626495970385187,0.006135011852454184,0.991627792420039
2015-10-20,1,0.0006251694147674786,0.000851988120009633,-0.007626495970385187,0.006495700609659527,0.9910331933388025
2015-10-22,1,0.00020037317451247348,0.00037503756821476815,-0.007626495970385187,0.006959178466582711,0.9910492052243497
2015-10-26,1,0.0006588018144935868,0.0008677993468386783,-0.007626495970385187,0.006495700609659527,0.991622672389201
2015-10-28,1,0.0010189417644282557,0.0012606608561110421,-0.007626495970385187,0.004095046504737432,0.9920421072328562
2015-10-30,1,0.001058538958635281,0.0013030513341261607,-0.009394048661968834,0.004998056012728344,0.9911613576571499
2015-11-03,1,0.0010909216368162299,0.0013352196229233931,-0.010286466908841274,0.00492115832570435,0.991095526939361
2015-11-05,1,0.0012223206038935927,0.0014883483006420154,-0.011651039880415572,0.006648580621340904,0.9902449651388889
2015-11-09,1,0.0003270279713408486,0.00047563361127903357,-0.010286466908841274,0.006648580621340904,0.9910865244008907
2015-11-11,1,0.0002778718095044513,0.00043821034714007246,-0.009508213822362834,0.00492115832570435,0.9917226869418099
2015-11-13,-1,-0.0011560420519553425,-0.0010904781795735919,-0.010286466908841274,0.00492115832570435,0.9913474832804536
2015-11-17,-1,-0.0005483679450162249,-0.0005160346380784833,-0.010286466908841274,0.0036437662722049726,0.9920275630385123
2015-11-19,-1,-0.0008410902906589356,-0.0008041365664546124,-0.009508213822362834,0.00233212875208485,0.992903425476696
2015-11-23,-1,-0.0008053376117824476,-0.0007633047678972044,-0.009508213822362834,0.004193941141742492,0.9918385224742269
2015-11-25,-1,-0.0003672760553054184,-0.0003362343286486614,-0.009508213822362834,0.0068472883128121815,0.9914720491684315
2015-11-30,-1,-0.0008664378114701803,-0.0008198102031947807,-0.007678712700944744,0.0058083940624245965,0.9923328803643655
2015-12-02,-1,-0.0007239838923587212,-0.0007125173806622038,-0.007448370218381647,0.002870279725645551,0.9925927715417664
2015-12-04,-1,-0.0008339070782596393,-0.0008162623310560247,-0.007448370218381647,0.002870279725645551,0.9926625806759253
2015-12-08,-1,-0.001068687824020303,-0.0010337079813184955,-0.008030864435374303,0.002870279725645551,0.9921782058720201
2015-12-10,-1,-0.0012181571999704472,-0.0011611544771889465,-0.008030864435374303,0.0026013764644408723,0.9922821713840527
2015-12-14,-1,-0.002467612299931448,-0.0022805548930008436,-0.006857186750552449,0.0038426809838214724,0.993030985184415
2015-12-16,-1,-0.002685367729101824,-0.0024390936033843458,-0.008030864435374303,0.0058037600247674926,0.9916248499376809
2015-12-18,-1,-0.002511136313531479,-0.0023038626456393365,-0.009125300174020235,0.0058037600247674926,0.991302345719427
2015-12-22,-1,-0.0014092142938016007,-0.0013333740784284998,-0.009125300174020235,0.0038426809838214724,0.9911302540566181
2015-12-24,-1,-0.0006896981756429321,-0.000649089065268754,-0.012047539845618025,0.0038426809838214724,0.9904877102835816
2015-12-29,-1,-0.0001577593906442396,-1.9671285251845062e-05,-0.013929896152632699,0.0013725821504590435,0.9892230886279377
2015-12-31,-1,-0.00044638126432878215,-0.00034200642627392366,-0.013929896152632699,0.004878761632532338,0.9876469721809118
2016-01-05,-1,-0.0007911172081120072,-0.0007537995010342686,-0.013929896152632699,0.003534348186409754,0.9873738019325067
2016-01-07,-1,-0.0012887485481530366,-0.0012777540695391733,-0.0141720240678786,0.003534348186409754,0.9872874550014826
2016-01-11,-1,-0.0014153305186560966,-0.0013926721178970348,-0.015161864978669922,0.003534348186409754,0.9863965493762317
2016-01-13,-1,-0.0021397934768022336,-0.0020018328199324456,-0.015161864978669922,0.005401201703859183,0.9857597522071895
2016-01-15,-1,-0.0030495635879382956,-0.002712366634248137,-0.014804670782964862,0.0020392137941567957,0.9873642168131115
2016-01-20,-1,-0.002944392962915419,-0.0026716990639361225,-0.014804670782964862,0.006958710292803216,0.9861181093907557
2016-01-22,-1,-0.0018947589902992522,-0.0017533495862333361,-0.014804670782964862,0.006958710292803216,0.9862358054290868
2016-01-26,-1,-0.002628208691776265,-0.0023547230476239837,-0.01354656539644395,0.00483980277846163,0.9870206797951396
2016-01-28,-1,-0.003260080607949444,-0.0029510397908578843,-0.011233415126930511,0.01666744094965084,0.9861427605276204
2016-02-01,-1,-0.001426972119443392,-0.0013374982856993762,-0.011233415126930511,0.01666744094965084,0.9868193716626147
2016-02-03,-1,-0.002583060559729591,-0.00234177603219918,-0.007726995299863272,0.017610869546030136,0.9863633395969117
2016-02-05,-1,-0.0032972003063000657,-0.0029812113201121396,-0.0034766773939463756,0.017610869546030136,0.9863833289467683
2016-02-09,-1,-0.003721086210806511,-0.0033862249028273027,-0.0034766773939463756,0.017610869546030136,0.9863583062404208
2016-02-11,-1,-0.003562717818324803,-0.0032333573998531754,-0.0028091941133610615,0.01730392175962739,0.9872959689222252
2016-02-16,-1,-0.0032074691277624873,-0.0029353558247241936,-0.005370373969853343,0.01730392175962739,0.9871328814361868
2016-02-18,-1,-0.002233157470832193,-0.0020571686138730542,-0.005370373969853343,0.01666744094965084,0.9881070972118106
2016-02-22,-1,-0.0028475554160381986,-0.0025200216135990846,-0.005073761918029216,0.01730392175962739,0.987761878042564
2016-02-24,-1,-0.0027163867929802877,-0.0024421182541514846,-0.004799704590602543,0.01730392175962739,0.9875840166229085
2016-02-26,-1,-0.0010995695550407832,-0.001030385837012609,-0.005364203622032758,0.007416856935812386,0.9893862972805351
2016-03-01,-1,-0.00027612704393656975,-0.00026183908832877397,-0.004799704590602543,0.007416856935812386,0.9904101892651118
2016-03-03,1,0.0008905833217013021,0.001086954962653223,-0.004799704590602543,0.00661198479057212,0.9914806790053752
2016-03-07,1,0.001452416183913132,0.0017396737728214858,-0.0060382479853535636,0.006526207426656724,0.9913051577210207
2016-03-09,1,0.0010464866581859464,0.0012706270172155813,-0.0060382479853535636,0.008845264477875226,0.9909943128156528
2016-03-11,1,0.0022383283815668635,0.002706436660526464,-0.006329655948701196,0.006160065445308015,0.9916062238826386
2016-03-15,1,0.0016898710060698865,0.0020809835399175245,-0.0060382479853535636,0.006177931529481843,0.992313881763042
2016-03-17,1,0.0020028534298119505,0.0024069674665570164,-0.0060382479853535636,0.00553924517759031,0.9927455307833732
2016-03-21,1,0.002990622519330137,0.003564633958050215,-0.005314827749046353,0.00553924517759031,0.9941193877336789
2016-03-23,1,0.003281796471924619,0.0039225260522368,-0.005405549890051529,0.005066756220471489,0.993989865573748
2016-03-28,1,0.002996877784923335,0.0036041295817969537,-0.0032053384108394005,0.005678930142369858,0.9944749246461146
2016-03-30,1,0.003666680647429852,0.004361738423311641,-0.0032053384108394005,0.005066756220471489,0.9949826215745657
2016-04-01,1,0.004173646398286965,0.004942689715499706,-0.005405549890051529,0.003954612105148695,0.9937099266887915
2016-04-05,1,0.0033169244194335853,0.0039194508807146484,-0.0037702586315096157,0.003954612105148695,0.9946224869215295
2016-04-07,1,0.0035152653753542417,0.004125768824395266,-0.0037702586315096157,0.003954612105148695,0.9938624012381372
2016-04-11,1,0.0026937819207234724,0.003133220397496089,-0.0027821353145275184,0.00459442568248726,0.9945434101232075
2016-04-13,1,0.0031116156272795845,0.0036199235508492258,-0.0027821353145275184,0.003851652485964246,0.9942052489279127
2016-04-15,1,0.0031414354675245405,0.0036554857305140156,-0.0037702586315096157,0.003851652485964246,0.9935976578707049
2016-04-19,1,0.003482024537011092,0.004045963945348871,-0.00414825034246036,0.003225380274400751,0.9922852091747455
2016-04-21,1,0.0033301506301938906,0.00388146873557873,-0.003644294001015705,0.0048480739781195025,0.99280527385983
2016-04-25,1,0.0032479465813614527,0.0037696816121011497,-0.00414825034246036,0.003225380274400751,0.9925266981300265
2016-04-27,1,0.0033226437294321307,0.0038463205134901617,-0.00414825034246036,0.0048480739781195025,0.992104949365431
2016-04-29,1,0.0026783417418850524,0.003101783747659249,-0.0028238830731954472,0.0048480739781195025,0.9930739384679566
2016-05-03,1,0.0023675479038849745,0.0027267053362324913,-0.0025873106419267693,0.0048480739781195025,0.9935260605520053
2016-05-05,1,0.003115301639916075,0.0035620987413270827,-0.0025873106419267693,0.00465842778227943,0.9946531203464369
2016-05-09,1,0.0024585916607187236,0.002738311933864103,-0.0025873106419267693,0.003917958984697014,0.9946972239349652
2016-05-11,1,0.0024704519770911313,0.0027488278549639244,-0.0025873106419267693,0.0036359251336484685,0.9948708635165712
2016-05-13,1,0.0019354347902706482,0.002129330744492146,-0.0029498803101790285,0.0036359251336484685,0.9945244642611415
2016-05-17,1,0.002760776349646594,0.0031081860558585033,-0.0025873106419267693,0.002913023846828097,0.995198137518991
2016-05-19,1,0.0030406512549241006,0.003436365362810495,-0.003653050535531724,0.0027990855194498006,0.9947583876689463
2016-05-23,1,0.0028217079925072176,0.0031970726841768805,-0.0025873106419267693,0.0031623593510580364,0.9950525147046779
2016-05-25,1,0.0026589795214585553,0.0029856166523974893,-0.0024331120019100154,0.0036359251336484685,0.9949287229758742
2016-05-27,1,0.0022954153207134812,0.0025558870032388057,-0.007009152062720965,0.0036359251336484685,0.9928758640630044
2016-06-01,1,0.00201518912722351,0.0021956100288365314,-0.007009152062720965,0.005620967746729074,0.9912862567532007
2016-06-03,1,0.0016688753185064977,0.0017874241203998521,-0.0034937506945251847,0.0073410407646206394,0.9916650000636512
2016-06-07,1,0.0011927603774582584,0.001215690496539144,-0.007009152062720965,0.0073410407646206394,0.9911697565389889
2016-06-09,1,0.001298485095592548,0.0013342452690363292,-0.007009152062720965,0.00845653974904216,0.9906305315199905
2016-06-13,1,0.00011941850788208143,0.00025464319392325824,-0.0036654397809870176,0.00845653974904216,0.9910769815850143
2016-06-15,1,0.0003670475158086313,0.0004431724671434198,-0.0043806985365506135,0.00845653974904216,0.9910008402489078
2016-06-17,0,-4.068870473380434e-05,9.667321978189882e-05,-0.0029561668212412405,0.00845653974904216,0.9913363954731794
2016-06-21,-1,-0.0005805737757469234,-0.000326353139109971,-0.0029561668212412405,0.0073410407646206394,0.991486730149667
2016-06-23,1,0.0008368981227704005,0.0008562363823911684,-0.0029561668212412405,0.004375115769840442,0.9922471624198578
2016-06-27,-1,-0.001359649395849637,-0.0010340868780183935,-0.0009025813988062549,0.004375115769840442,0.9938309908876958
2016-06-29,-1,-0.0006699627480088089,-0.0003865474789953679,-0.002255804130634897,0.003632800100737514,0.994972094066089
2016-07-01,-1,-0.0011083355266819567,-0.0007289902933133752,-0.0029561668212412405,0.003632800100737514,0.994529897322934
2016-07-06,-1,-0.001557470246834952,-0.0011145106946135392,-0.0029561668212412405,0.003220067517843997,0.9945502452600746
2016-07-08,-1,-0.001151117716827256,-0.0007504980138605493,-0.0029561668212412405,0.0031821187744227684,0.9948486514306252
2016-07-12,-1,-0.0009221669055686282,-0.0005781762417434766,-0.004241307612167046,0.0028272857845716725,0.9925202420201672
2016-07-14,-1,-0.0010650109292133063,-0.0007114166206380958,-0.008469872693020969,0.0028272857845716725,0.991281397002311
2016-07-18,-1,-0.001609355278870806,-0.001167213207860821,-0.013093073483750972,0.0028272857845716725,0.9903147619301047
2016-07-20,-1,-0.0010127892786730365,-0.0006942718938701202,-0.013940675169877792,0.001475314993870925,0.989793969230674
2016-07-22,-1,-0.0005009841638168454,-0.000282960699723321,-0.016844202120820502,0.001475314993870925,0.9872985240511872
2016-07-26,1,3.1324376204152954e-05,0.00012184377574025806,-0.016844202120820502,0.0031315789236080753,0.9865452604437837
2016-07-28,-1,-0.00036150352390663823,-0.00023754094048916214,-0.014653756351640415,0.0018636009573119127,0.9869410432522846
2016-08-01,-1,-0.000542376714220185,-0.00037957438319613827,-0.014653756351640415,0.0018636009573119127,0.9868606177401863
2016-08-03,-1,-0.0007606361652286675,-0.000585820910820019,-0.014653756351640415,0.00398514769656549,0.98738467980536
2016-08-05,-1,-0.0007895793614435492,-0.0005859682460132834,-0.014653756351640415,0.00398514769656549,0.9874049799910188
2016-08-09,-1,-0.002260214378534578,-0.0019083032165506623,-0.012246519564857044,0.004235258314680891,0.9896954892100047
2016-08-11,-1,-0.002771182782431586,-0.002385661365985518,-0.011920241501958601,0.004235258314680891,0.9905205399182748
2016-08-15,-1,-0.0034795820737801696,-0.003012117383815033,-0.011272090779541112,0.004896451859231038,0.9900886856573959
2016-08-17,-1,-0.00412696544264265,-0.0035693403345891783,-0.009932673800675983,0.007320224107349487,0.9897543115896615
2016-08-19,-1,-0.004793069167022126,-0.004189042658328243,-0.009932673800675983,0.0066290837827010785,0.9913802320859478
2016-08-23,-1,-0.0035581926391774683,-0.003121530104011528,-0.009932673800675983,0.009759459207984681,0.9904757244917791
2016-08-25,-1,-0.0041514039983630326,-0.0036330046108593046,-0.008922632164806486,0.011478989216424608,0.9900867442806774
2016-08-29,-1,-0.003753388203881925,-0.0033000126327800685,-0.007490605829540569,0.009774827924485068,0.9907619661192801
2016-08-31,-1,-0.0036547648686787865,-0.0032075927310269235,-0.009932673800675983,0.009774827924485068,0.990836098981491
2016-09-02,-1,-0.0033435697175036782,-0.0029479877126506646,-0.011167818977738631,0.009870281848849298,0.9897233384987929
2016-09-07,-1,-0.0035082728048293826,-0.0030969236573938014,-0.009985932199984483,0.009870281848849298,0.9901016368646799
2016-09-09,-1,-0.003512003558809108,-0.0031155058395295225,-0.009985932199984483,0.009870281848849298,0.9899835669071817
2016-09-13,-1,-0.0033612050612190428,-0.0029778704942454194,-0.009985932199984483,0.006660901757489155,0.989873966212619
2016-09-15,-1,-0.0032526174743682055,-0.0028904933106983733,-0.006779249755808068,0.006660901757489155,0.9898185864667327
2016-09-19,-1,-0.0032604823254368705,-0.002908213818850678,-0.0062942094732761624,0.00627957954794575,0.9903820055613256
2016-09-21,-1,-0.0024800414396993434,-0.002201653584691673,-0.0062942094732761624,0.004272330149176494,0.9917902171839746
2016-09-23,-1,-0.002254740318960445,-0.002002236962111202,-0.009872473328068416,0.004075731509105013,0.9914228866834944
2016-09-27,-1,-0.0019841946379171283,-0.0018100434768103632,-0.011801539168862707,0.004075731509105013,0.9893127926472897
2016-09-29,-1,-0.0022006550338375275,-0.002008905037705418,-0.018400104081306497,0.004075731509105013,0.987993478883179
2016-10-03,-1,-0.0026370828921778275,-0.0024046708377428714,-0.01441440464142838,0.004075731509105013,0.9861832503352183
2016-10-05,-1,-0.0028982149427340957,-0.002627362228309436,-0.01441440464142838,0.004075731509105013,0.9857455063608583
2016-10-07,-1,-0.002707686543131027,-0.0024923965930994186,-0.01441440464142838,0.004272330149176494,0.9856965754328731
2016-10-11,-1,-0.00315162082757514,-0.0029043061055305025,-0.013677209239717734,0.004091393575912913,0.9863437794500973
2016-10-13,-1,-0.0025565850953199794,-0.0023741187250278335,-0.013677209239717734,0.004091393575912913,0.9855647711337777
2016-10-17,-1,-0.0026091850512258096,-0.0024333698269514716,-0.013677209239717734,0.005352639985381975,0.9846702631267819
2016-10-19,-1,-0.0021618607631165997,-0.0020437177977603136,-0.013677209239717734,0.004565852117281918,0.984978780598262
2016-10-21,-1,-0.002809893328278682,-0.002634936318817677,-0.01338966170499697,0.009078366357314233,0.9845321812968856
2016-10-25,-1,-0.004130927784551543,-0.003803786296708653,-0.009012368998015097,0.01266826746195841,0.9853451955847131
2016-10-27,-1,-0.005280702021013335,-0.004824886427708388,-0.00546534099714242,0.01266826746195841,0.9858956693771551
2016-10-31,-1,-0.0031990373839871733,-0.0030020223453362713,-0.002736138183108254,0.009078366357314233,0.9897586135089455
2016-11-02,-1,-0.0037149655808662936,-0.003430502219411732,-0.002736138183108254,0.01266826746195841,0.9891597621618223
2016-11-04,-1,-0.0031016517576062594,-0.002895168290929293,-0.0048071229543079205,0.01266826746195841,0.9900889497533315
2016-11-08,-1,-0.003284053183376043,-0.003057569221521955,-0.002736138183108254,0.01266826746195841,0.9905814867441677
2016-11-10,-1,-0.0017495115550532976,-0.00172407754095381,-0.002736138183108254,0.009910392727603454,0.9909153884065173
2016-11-14,-1,-0.0008751161704844993,-0.0007382664705142376,-0.002736138183108254,0.00574634004427479,0.991456178718101
2016-11-16,-1,-0.0015425013272087002,-0.0015202112336597357,-0.0027569776781487237,0.00574634004427479,0.9901596727870471
2016-11-18,0,-8.930303976238175e-05,0.0001606425022816938,-0.0019144354899151652,0.00574634004427479,0.9913543955891665
2016-11-22,1,0.0010276884103213979,0.0014492081029958072,-0.0035297801282622313,0.005070704598549865,0.9921279965809322
2016-11-25,1,0.001220765959945469,0.0016599199639528855,-0.0035297801282622313,0.005111058476894043,0.9921395907477407
2016-11-29,1,0.0018750045428399945,0.002442277369237476,-0.004879411946422857,0.00414121272046634,0.9917033591506942
2016-12-01,1,0.002480948672571886,0.003129766546470295,-0.0035395506352557606,0.003338698941513352,0.9924167823135012
2016-12-05,1,0.00238420306396631,0.003022912622854145,-0.0029563131694040363,0.005111058476894043,0.9917859502397648
2016-12-07,1,0.002467499113669811,0.0031193594285244446,-0.0035395506352557606,0.005111058476894043,0.9914664949377086
2016-12-09,1,0.0036367846459000107,0.004431872981225948,-0.005943639178036676,0.0042122786940203445,0.9906887571983416
2016-12-13,1,0.003336293062759792,0.004104599209775705,-0.005410296466732938,0.0042122786940203445,0.9914898359657359
2016-12-15,1,0.002983164195613298,0.003717069404366072,-0.0035395506352557606,0.004307608121569843,0.9925753688387662
2016-12-19,1,0.0033133636950077408,0.0040614209995997845,-0.005410296466732938,0.0035973026763619358,0.9917642116999941
2016-12-21,1,0.003259404331734667,0.004010542797753582,-0.003914277112782758,0.0035973026763619358,0.9923614277725903
2016-12-23,1,0.0034401819548675874,0.004198398502034556,-0.003914277112782758,0.004701068424919164,0.992056925385804
2016-12-28,1,0.003324525725487474,0.0040907516441665535,-0.0035933086431225126,0.007273479252708449,0.9918231079791748
2016-12-30,1,0.002424288190953517,0.002965530582814014,-0.007448358176025155,0.007273479252708449,0.9910902202912386
2017-01-04,1,0.002920066574115765,0.003472840732264013,-0.007448358176025155,0.006478336067980949,0.9917621918058902
2017-01-06,1,0.0023190195600480213,0.0027482535438311346,-0.007716533190248527,0.007273479252708449,0.9915352416937339
2017-01-10,1,0.0011789122325576206,0.0014302570760985284,-0.005791034374990817,0.007273479252708449,0.9927827586152944
2017-01-12,1,0.0005860173211211533,0.0006950807108965088,-0.002292641492997807,0.007273479252708449,0.9930005206560533
2017-01-17,1,0.0010841205781372122,0.0012892875713487995,-0.0022798094959188605,0.006643987983714297,0.9934948142294797
2017-01-19,1,0.0002776289815825865,0.000339263944907985,-0.0016581555322348345,0.006643987983714297,0.9937989988431233
2017-01-23,1,0.00044071836205370146,0.0005293191754857347,-0.0016581555322348345,0.008219919927466393,0.9908656969677734
2017-01-25,1,0.0010040381839917102,0.001174397800188166,-0.0021438995786985746,0.006985246098934991,0.9914826749796256
2017-01-27,1,0.001284629804317081,0.0014965113517944636,-0.0013962026727972997,0.0063693694049057736,0.9928570622500561
2017-01-31,1,0.0007627276953639871,0.000891889770439636,-0.0013962026727972997,0.0040185061569439715,0.9935976780064938
2017-02-02,1,0.0010924085110016024,0.001243215889907786,-0.0013962026727972997,0.0040185061569439715,0.9937937907780766
2017-02-06,1,0.001081859933225032,0.00124033768170414,-0.0021438995786985746,0.0028634585639368956,0.9932975117921525
2017-02-08,1,0.0011237712429325824,0.0012907679350478338,-0.0013962026727972997,0.0023190205789515336,0.9938193413280002
2017-02-10,1,0.0010310248154113749,0.0011704719975193776,-0.0013962026727972997,0.002983067263252437,0.9936725713353508
2017-02-14,1,0.0016960669955430538,0.001997228589645684,-0.0010159745171732146,0.003336581741796491,0.9937004451656204
2017-02-16,1,0.0018736795798982406,0.002221155054926007,-0.0010159745171732146,0.003336581741796491,0.9928861141069693
2017-02-21,1,0.004066030596581812,0.0046970980035800905,-0.00403139627083377,0.0027979250620058455,0.9928867655827165
2017-02-23,1,0.0037959666456641463,0.0043609232245008485,-0.006018456857132578,0.002983067263252437,0.9927733337277317
2017-02-27,1,0.0034725775678752045,0.0039480580960086515,-0.006018456857132578,0.003336581741796491,0.9928636485798014
2017-03-01,1,0.003375310323132932,0.0038345971177677594,-0.006018456857132578,0.005738108544107338,0.9926783227457294
2017-03-03,1,0.003506417075138557,0.003956020749334041,-0.007047215647098666,0.004056372824053887,0.9925718311450646
2017-03-07,1,0.0020146695309654285,0.0022145069305130323,-0.006014326387508281,0.004056372824053887,0.993707248597272
2017-03-09,1,0.002291462498208904,0.002558039854580677,-0.006014326387508281,0.0051245543847807384,0.9936469982065195
2017-03-13,1,0.0022021373492440797,0.002427663296660121,-0.006804826634962437,0.006701210750245705,0.9922926003852128
2017-03-15,1,0.002383579883415476,0.0026465818874825365,-0.006804826634962437,0.006701210750245705,0.9921917362249068
2017-03-17,1,0.0010756440567156545,0.001100219189501591,-0.006014326387508281,0.008331959550924608,0.9925766556099644
2017-03-21,-1,-0.0010678356633822615,-0.0007623454812768225,-0.005341506523989084,0.008331959550924608,0.9933016253004009
2017-03-23,-1,-0.002074914818425234,-0.0015747728548008125,-0.005341506523989084,0.008486323917918507,0.9929990570781154
2017-03-27,-1,-0.0007121303960399649,-0.00046280312623093393,-0.005341506523989084,0.00793350855173643,0.9931691190839641
2017-03-29,-1,-0.0004010676488866553,-0.0001655634379612729,-0.005341506523989084,0.005245588810665527,0.9940042259330873
2017-03-31,-1,-0.0005170209280019801,-0.0002823598043272919,-0.0047380032871066685,0.005245588810665527,0.994268428775866
2017-04-04,-1,-0.0012276451140489895,-0.000898609222679301,-0.0034803973106075897,0.006521746266671669,0.9912946679108078
2017-04-06,-1,-0.0004622188194494496,-0.00026585447825727357,-0.005792279459887835,0.00567967848641809,0.9909254461552536
2017-04-10,0,-0.00013412132244830152,1.0484375788218634e-05,-0.0034803973106075897,0.005558830502567019,0.9919894834599917
2017-04-12,-1,-0.00040248400992252986,-0.00021856634139890015,-0.0018622617330018877,0.007461471342376146,0.991344902209762
2017-04-17,0,-4.041180556082244e-05,7.362490792208127e-05,-0.0049594173814012585,0.005667395844281828,0.9914290210350402
2017-04-19,1,7.309567899106258e-05,0.00014455918692131097,-0.004979781391242093,0.007461471342376146,0.9875188131721816
2017-04-21,1,7.26244258451397e-05,0.00014032032198230238,-0.0015846410401730289,0.007334390222135317,0.988020032710336
2017-04-25,1,0.0004917788317777043,0.0005044677383488287,-0.0015846410401730289,0.005665318132151909,0.9884214406073728
2017-04-27,1,0.000819944068415832,0.0008745124180434044,-0.0021687066459050164,0.007334390222135317,0.9875867474449239
2017-05-01,1,0.0007644829660408553,0.0007921390843368657,-0.004979781391242093,0.007334390222135317,0.9862074011177502
2017-05-03,-1,-0.0007066655973773665,-0.0005535508111181304,-0.0021687066459050164,0.008048347969054705,0.9875262010941661
2017-05-05,-1,-0.000422723014465398,-0.000370673627883013,-0.004979781391242093,0.008048347969054705,0.9873730019096166
2017-05-09,-1,-0.0005569688255465711,-0.0004592019908651034,-0.009650131324853017,0.008042114832664947,0.9866075758261277
2017-05-11,-1,-0.0004516572800407084,-0.0003307580827152014,-0.009650131324853017,0.008879208451438464,0.9864207957904287
2017-05-15,-1,-0.0006025806371273729,-0.0004925409444724051,-0.007937131461096843,0.012104962270413857,0.9860695709618549
2017-05-17,-1,-0.0018836461236464183,-0.0016102052339145839,-0.00637866891055292,0.008407563782997195,0.9897063955477693
2017-05-19,-1,-0.0013297216636816759,-0.0011358534891396368,-0.00637866891055292,0.009886677094218796,0.98983306733961
2017-05-23,-1,-0.001461158106747091,-0.0012271623914112918,-0.01138936480501766,0.009886677094218796,0.9890275023871419
2017-05-25,-1,-0.0007254008961198056,-0.0005728087798241838,-0.01138936480501766,0.009886677094218796,0.9894050820354978
2017-05-30,-1,-0.000612483472535728,-0.0005317462735186225,-0.007937131461096843,0.009886677094218796,0.990296764540576
2017-06-01,1,0.00044081699197915416,0.0004719158861794859,-0.010433251861168644,0.006810929402381139,0.9907218094324123
2017-06-05,-1,-0.0014020353577851338,-0.001146453677429919,-0.006802975345288629,0.009317705337285159,0.9916624344613998
2017-06-07,-1,-0.0025577734983644003,-0.0021593144064965767,-0.006802975345288629,0.009317705337285159,0.992111182175669
2017-06-09,-1,-0.0021468192013664577,-0.001808857011910696,-0.007635015478645896,0.006810929402381139,0.9919192874933139
2017-06-13,-1,-0.0018235962488430781,-0.001492780513903837,-0.007635015478645896,0.008481424287521109,0.991521721430843
2017-06-15,-1,-0.0018329276125272271,-0.0015060894944720583,-0.007635015478645896,0.008481424287521109,0.9913091737241977
2017-06-19,-1,-0.0011966447757172987,-0.0009734020117044698,-0.007635015478645896,0.00835778026638946,0.99125179477882
2017-06-21,-1,-0.0021900149777064615,-0.0018626846575250575,-0.005307092609510253,0.00894677327389021,0.991309237469334
2017-06-23,-1,-0.0021197992892801904,-0.0017758184426981591,-0.0060961070094278915,0.00835778026638946,0.9915643530502548
2017-06-27,-1,-0.002238478681676182,-0.001912051644351061,-0.006236638347741235,0.00835778026638946,0.9916403843354945
2017-06-29,-1,-0.0023440246574279525,-0.002000184596536056,-0.004728842202400323,0.00835778026638946,0.9919295273210237
2017-07-03,-1,-0.0021139513838164562,-0.001798912699625818,-0.007991328282469111,0.007422244631745047,0.9919944137296638
2017-07-06,-1,-0.003146216120159428,-0.0027084068748941606,-0.007991328282469111,0.007422244631745047,0.9882155116281239
2017-07-10,-1,-0.003628353261971316,-0.003134358734409981,-0.009961026144227567,0.007422244631745047,0.988182683749029
2017-07-12,-1,-0.0025403195905756007,-0.002171604544466177,-0.009961026144227567,0.004047411671262974,0.9891320159613736
2017-07-14,-1,-0.0002711181993716074,-0.00023125943066098863,-0.009961026144227567,0.0031798242317718182,0.9889115451317871
2017-07-18,1,0.00012236396362878344,0.00021885113761528928,-0.009961026144227567,0.0031798242317718182,0.9889462091331549
2017-07-20,1,0.0009849700649400901,0.0012058795016237902,-0.010160292468108324,0.0016701122496943336,0.988582567101977
2017-07-24,1,0.00046588059169355554,0.0006194837591898096,-0.010160292468108324,0.0037055860954385705,0.9890326589618699
2017-07-26,1,0.0004348859392764065,0.0006165041501814002,-0.010160292468108324,0.004573559887226316,0.9892165994521005
2017-07-28,1,0.0002838648217153653,0.00038283122674735536,-0.010160292468108324,0.004474434755340298,0.9892312578969511
2017-08-01,-1,-0.0004307349772831751,-0.0004183366148273643,-0.007497669878065469,0.004474434755340298,0.9898617415535242
2017-08-03,-1,-0.004016321314055164,-0.0036288119851217012,-0.0061009585558461634,0.005696702143662391,0.9921743618498862
2017-08-07,-1,-0.004970829608266691,-0.0044881030137185265,-0.0061009585558461634,0.005696702143662391,0.9921715780042887
2017-08-09,-1,-0.005441813660323638,-0.004872598853209135,-0.0047297456414372675,0.005696702143662391,0.9920164659537146
2017-08-11,-1,-0.005948630746031921,-0.005270421107241927,-0.002014987193652818,0.006374228711644407,0.9898708530009372
2017-08-15,-1,-0.00529409083675348,-0.004701516349505212,-0.0047297456414372675,0.0067097795237807435,0.990305476551982
2017-08-17,-1,-0.005097372050202677,-0.004560188773585156,-0.002095201766611994,0.0060884645869987465,0.9909632387928261
2017-08-21,-1,-0.004372008252808712,-0.003970648738832011,-0.002095201766611994,0.007962302166756776,0.9897573728276585
2017-08-23,-1,-0.0040738256529576355,-0.0037043907576099853,-0.002095201766611994,0.013141324363402658,0.9884740166965272
2017-08-25,-1,-0.0037906667691072395,-0.0034371561960535348,-0.005385896974054326,0.013141324363402658,0.9862557546010623
2017-08-29,-1,-0.0034692961536540645,-0.0031787335110578896,-0.004167119926698153,0.01436843150130232,0.9857605845321742
2017-08-31,-1,-0.0018783892511649752,-0.0017975594653057948,-0.004167119926698153,0.014205836523232495,0.9866832013223875
2017-09-05,-1,-0.0027766836424298175,-0.002592502252202179,-0.0012131602988299575,0.014205836523232495,0.9857240470096106
2017-09-07,-1,-0.0023370252162313366,-0.002218959800286496,-0.0016889427508266033,0.014205836523232495,0.985131380301446
2017-09-11,-1,-0.0005334395679983043,-0.00044009105742707903,-0.008663016392970648,0.012423180685654855,0.9827284293346371
2017-09-13,-1,-0.00033587712124626297,-0.0002409897456619477,-0.004370986734565485,0.012423180685654855,0.9829245897429795
2017-09-15,0,-9.05722566255629e-05,6.533835936289433e-05,-0.004518065540995254,0.012423180685654855,0.9826891335273653
2017-09-19,0,-6.565467792761401e-05,0.00010829796830740153,-0.004131602731329312,0.012423180685654855,0.9824051425024981
2017-09-21,1,0.0012639383885878887,0.0016263563182067557,-0.004131602731329312,0.013400506422369708,0.9826340492196599
2017-09-25,-1,-0.0013233100803435455,-0.0012806597186116896,-0.002785469642706355,0.014205836523232495,0.9828170670210755
2017-09-27,-1,-0.0010991703644642583,-0.0010576064014403838,0.00046684457716900866,0.016045526989231555,0.982325924394325
2017-09-29,-1,-0.0001935953693975558,-0.00010298076081002416,-0.004131602731329312,0.014221065844246827,0.9825964633954022
2017-10-03,1,0.0010682170883290689,0.0013616988437404217,-0.008115228387574818,0.012549538195169675,0.9833206308963601
2017-10-05,1,0.0006221065666876537,0.0008331046123419682,-0.008115228387574818,0.012549538195169675,0.9833010850634406
2017-10-09,-1,-0.003925016189274541,-0.0035260799909485026,-0.005984893433200862,0.012549538195169675,0.9870467956055201
2017-10-11,-1,-0.0031164908978027293,-0.002837055966160776,-0.007883037216620923,0.012549538195169675,0.9842273314234409
2017-10-13,-1,-0.0022337152197548097,-0.0020552115885849455,-0.007883037216620923,0.014872163824748588,0.9838193069958081
2017-10-17,-1,-0.0006701667307589549,-0.0006244708193019849,-0.00776733448700886,0.011847423240525871,0.9858087021667012
2017-10-19,1,0.0002794936921862245,0.00042482122653788077,-0.00776733448700886,0.007682610461744801,0.986279034954199
