JNU-Tangyin/eata/results/Batch4_SP500/Batch4_SP500-VRSN.csv
Date,Action,Predicted_Q25,Predicted_Q75,Actual_Q25,Actual_Q75,RL_Reward
2010-12-14,0,0.0,0.0,-0.007254128326544807,0.001473811488382288,0.9873101668524873
2010-12-16,-1,-2.834402004950062e-05,-1.023819607139109e-06,-0.007049145823325728,0.001937383995373377,0.9923463973947629
2010-12-20,1,5.151336555128837e-06,3.339371389600565e-05,-0.007254128326544807,0.001596397792560523,0.9916431443246185
2010-12-22,0,-4.8906375889162714e-05,0.00038205832035935407,-0.007254128326544807,0.0027448500252955895,0.9917262138584702
2010-12-27,1,0.001047974386869598,0.0012096124174132417,-0.007162492415017527,0.004730409698982374,0.9910055525492163
2010-12-29,0,-4.4155981930151325e-06,3.99097553794052e-05,-0.007162492415017527,0.008230247371871162,0.9907661080438572
2010-12-31,0,-3.0864455004924764e-05,1.575839330479354e-05,-0.0064687870371983435,0.010011705096844521,0.9897425260169408
2011-01-04,-1,-0.000610890542930602,-0.00016298578714765504,-0.006340421343658314,0.010011705096844521,0.9904673414106281
2011-01-06,0,0.0,0.0,-0.006340421343658314,0.01409614932221953,0.9892742467020578
2011-01-10,0,0.0,0.0,-0.003698994021879315,0.01409614932221953,0.9901267920888882
2011-01-12,0,0.0,0.0,-0.0021059651841483225,0.015024912728494919,0.9897023963520207
2011-01-14,0,0.0,0.0,-0.0031006856873021476,0.01409614932221953,0.989769998206545
2011-01-19,0,0.0,0.0,-0.0021059651841483225,0.01409614932221953,0.9903840462354488
2011-01-21,0,0.0,0.0,-0.0025660435341071063,0.01409614932221953,0.990905977987868
2011-01-25,-1,-0.005853520963309397,-0.004570463051330901,-0.0025660435341071063,0.013816735185994994,0.9871666048186486
2011-01-27,-1,-0.00047256230973473725,-0.00038131547700569326,-0.0025660435341071063,0.013986680779817594,0.9892424708223876
2011-01-31,0,0.0,0.0,-0.0035207907902089193,0.012708667545466854,0.9894631062778567
2011-02-02,0,0.0,0.0,-0.0027106127658818044,0.012708667545466854,0.9891128132674524
2011-02-04,0,0.0,0.0,-0.0036724161613583494,0.009962990512665474,0.989838357620281
2011-02-08,1,0.0004254135360094403,0.0004471412282043282,-0.004152095274747696,0.011238992604808304,0.9890735499008249
2011-02-10,1,0.0010110688660901594,0.0010929210451129908,-0.005007814657047003,0.009962990512665474,0.9889112732183853
2011-02-14,1,0.0009935931759214357,0.00106017473745351,-0.0076700676356579265,0.009606657458951192,0.9891091521452441
2011-02-16,1,0.0010041208942464033,0.001057056850395056,-0.010892136510579808,0.008907222221573894,0.9884110139740345
2011-02-18,1,0.0007253228454849841,0.0007359275635187386,-0.010892136510579808,0.009606657458951192,0.9880425850445973
2011-02-23,0,0.0,0.0,-0.008062359312890281,0.009606657458951192,0.9898499605531474
2011-02-25,0,0.0,0.0,-0.008062359312890281,0.009662037522259657,0.9897729112104365
2011-03-01,0,0.0,0.0,-0.005138578549457788,0.010097945500168765,0.9903673834809091
2011-03-03,0,0.0,0.0,-0.00676928013323207,0.009662037522259657,0.99128394826751
2011-03-07,0,0.0,0.0,-0.004953706466796147,0.009662037522259657,0.9915486097862236
2011-03-09,0,0.0,0.0,-0.004339494251082679,0.008962565363866262,0.9925503576161817
2011-03-11,0,0.0,0.0,-0.004339494251082679,0.007785367811288227,0.9929270955298521
2011-03-15,0,0.0,0.0,-0.004339494251082679,0.00909010613787187,0.9919780068941755
2011-03-17,0,0.0,0.0,-0.004339494251082679,0.010097945500168765,0.9918440195192089
2011-03-21,0,0.0,0.0,-0.005302585613783132,0.00909010613787187,0.9921909871310969
2011-03-23,0,0.0,0.0,-0.004485019485906064,0.010097945500168765,0.9913670546951675
2011-03-25,1,0.0006393240391794852,0.0006976948254622531,-0.004485019485906064,0.007785367811288227,0.9923012765199823
2011-03-29,1,0.00031941666585300044,0.00037436989540485003,-0.004485019485906064,0.005532613696213427,0.9927049015591142
2011-03-31,1,0.0007838468854510314,0.0008980490941001886,-0.004485019485906064,0.005532613696213427,0.9925733013572539
2011-04-04,1,0.0010389800940808732,0.0011664229921942147,-0.005401932879549185,0.004322277480432816,0.992233501175257
2011-04-06,1,0.0011290104488307189,0.0012753153601806687,-0.00939307018431315,0.002088601399675462,0.9897440802181663
2011-04-08,1,0.0015318454861415812,0.0015600566609981288,-0.007569590696464616,0.004322277480432816,0.9891329348098551
2011-04-12,1,0.002089687932416139,0.002154364053462407,-0.0063569098746529,0.004322277480432816,0.9898623886985057
2011-04-14,0,0.0,0.0,-0.005193637133221938,0.004322277480432816,0.9900158466624946
2011-04-18,0,0.0,0.0,-0.0063569098746529,0.004322277480432816,0.9892180827663074
2011-04-20,1,0.0008271277598431786,0.000942813536104176,-0.0063569098746529,0.004322277480432816,0.9883432007217562
2011-04-25,1,0.0005417076113983071,0.000605718048601333,-0.0076296894358232285,0.004322277480432816,0.9877898053601141
2011-04-27,1,0.0009063270366180974,0.0010343615277886996,-0.009974462124589797,0.0031824729820701006,0.987427272127996
2011-04-29,1,0.00044624633026568857,0.0004987674495718873,-0.012287445152891999,0.0035664575654541543,0.986446919729379
2011-05-03,0,0.0,0.0,-0.011952700842353723,0.0029290725077398137,0.9862811688421597
2011-05-05,0,0.0,0.0,-0.010215948872638315,0.003748839959430771,0.9879173158324616
2011-05-09,-1,-0.00039515112211111056,-0.00020052419075806364,-0.011952700842353723,0.0029290725077398137,0.9884665752854692
2011-05-11,1,0.0011018562470139557,0.0012348813054256311,-0.011952700842353723,0.0009016006652970549,0.9880707898274277
2011-05-13,1,0.0016627716628664579,0.0018553944604492458,-0.013139128386740088,-0.0005363206613127267,0.9882778924316972
2011-05-17,1,0.00040735752695985814,0.0004198861554369392,-0.013139128386740088,-0.0005363206613127267,0.9892750298522134
2011-05-19,1,0.00010169360357982214,0.00018245385960845455,-0.013139128386740088,-0.0014889540358518697,0.9911238919029083
2011-05-23,-1,-0.0008702104332390856,-0.0006573115129492005,-0.01157322513932102,-0.0014889540358518697,0.9913026737625391
2011-05-25,-1,-0.0017392367781115632,-0.0014069774253924086,-0.010611424720767103,-0.001739757205881525,0.9921412890597862
2011-05-27,-1,-0.002556724463190048,-0.002157522605749874,-0.009916204771814112,-0.001739757205881525,0.993504808540304
2011-06-01,-1,-0.0028239146237508204,-0.002430666455919492,-0.007127156467920602,-0.00015262282232108264,0.9930489536697673
2011-06-03,-1,-0.0016543977220165008,-0.0013830894854833784,-0.007127156467920602,-0.00015262282232108264,0.9929195337332073
2011-06-07,-1,-0.004336839680172526,-0.003683249504029815,-0.0047478495356944265,0.005816394578056311,0.9926212046926337
2011-06-09,0,0.0,0.0,-0.005924639239433587,0.005816394578056311,0.9920834442332264
2011-06-13,0,0.0,0.0,-0.005924639239433587,0.005816394578056311,0.9919381186227021
2011-06-15,0,0.0,0.0,-0.005924639239433587,0.00523426365262201,0.9917917896255914
2011-06-17,0,0.0,0.0,-0.006254699585061739,0.007256301792825769,0.9902637400900619
2011-06-21,-1,-0.0005752990600414881,-0.0004861893203043777,-0.008260475093927709,0.007256301792825769,0.9902891194885425
2011-06-23,0,0.0,0.0,-0.008260475093927709,0.011107406904600268,0.9893499297595245
2011-06-27,-1,-0.0004196209455945681,-0.00036167955881324416,-0.006254699585061739,0.011107406904600268,0.9896663937353689
2011-06-29,-1,-0.0030834146837946342,-0.0026907326241489317,-0.012016246774062139,0.007256301792825769,0.9890094321843871
2011-07-01,0,0.0,0.0,-0.017559499355837282,0.00523426365262201,0.9869440512076473
2011-07-06,0,0.0,0.0,-0.01802308543264814,0.0032372240396500726,0.9860302958557181
2011-07-08,0,0.0,0.0,-0.018894807752506328,-0.001108910423564567,0.9841674806867537
2011-07-12,0,0.0,0.0,-0.02097492899151562,0.0055047330847527234,0.9815503151484797
2011-07-14,0,0.0,0.0,-0.022550325661087285,0.014113607833290284,0.9774925261218453
2011-07-18,0,0.0,0.0,-0.022550325661087285,0.014858673597072058,0.9769628969322149
2011-07-20,0,0.0,0.0,-0.02400252533958289,0.014531862718010814,0.9767261709857787
2011-07-22,0,0.0,0.0,-0.02711962782638403,0.0055047330847527234,0.9749493447232633
2011-07-26,0,0.0,0.0,-0.02711962782638403,0.014531862718010814,0.9723287311708273
2011-07-28,-1,-0.003402440785085571,-0.0029606536792913347,-0.02400252533958289,0.014531862718010814,0.9746190108984552
2011-08-01,-1,-0.004311634449914355,-0.0037997158512874446,-0.022017503937197307,0.018832226231648725,0.9743303998650835
2011-08-03,-1,-0.004564470941547839,-0.00402081248711581,-0.021364289600935508,0.018832226231648725,0.9753946380744788
2011-08-05,-1,-0.006685018330476075,-0.005876951540246066,-0.021364289600935508,0.018832226231648725,0.9759004627241084
2011-08-09,-1,-0.004823152604423158,-0.004265647397803487,-0.013833326868249696,0.02279697220387844,0.9724294444387502
2011-08-11,-1,-0.005428565744759004,-0.0048151127158737594,-0.017991711505987225,0.018832226231648725,0.9723919824256623
2011-08-15,-1,-0.004092295571068574,-0.003648128470772179,-0.017991711505987225,0.012955843583161729,0.9741326154163308
2011-08-17,-1,-0.001944624206522853,-0.0017758307312649526,-0.012943069060462203,0.012955843583161729,0.9749930548570808
2011-08-19,-1,-0.0031944403440809705,-0.002892521294177997,-0.01129616246366098,0.012955843583161729,0.9769551333490627
2011-08-23,-1,-0.0016102353676625757,-0.0014904545490958445,-0.012943069060462203,0.007152320897182095,0.9791964280632516
2011-08-25,-1,-0.002636604202906556,-0.0024664124766099202,-0.012943069060462203,0.012955843583161729,0.9780571896257653
2011-08-29,-1,-0.0006815635845782869,-0.0006010131511283897,-0.012943069060462203,0.011617811776200481,0.9782223029288812
2011-08-31,0,0.0,0.0,-0.018281906317426034,0.013060119349478155,0.9763208351058871
2011-09-02,-1,-0.001631667744406766,-0.0015969086532142518,-0.018281906317426034,0.013060119349478155,0.9757332742791361
2011-09-07,1,0.003129173847761995,0.0037270747051251383,-0.018281906317426034,0.013060119349478155,0.9790283954717112
2011-09-09,-1,-0.0007911351194887936,-0.0007182728365188678,-0.011343025210478084,0.013060119349478155,0.9841892302263805
2011-09-13,1,0.0007520706297989064,0.001072204530466047,-0.011343025210478084,0.014999346460737533,0.9831729441187534
2011-09-15,1,0.00034789788984576706,0.0006119606148610089,-0.012659484550147796,0.014999346460737533,0.9827806145002923
2011-09-19,0,0.0,0.0,-0.012955495236815603,0.01593313417295074,0.9818339149635523
2011-09-21,0,0.0,0.0,-0.012955495236815603,0.01593313417295074,0.9818026034437203
2011-09-23,0,0.0,0.0,-0.011843062064040713,0.01734431936746392,0.9822998532569315
2011-09-27,0,0.0,0.0,-0.011843062064040713,0.013371381920215891,0.9839620683167645
2011-09-29,0,0.0,0.0,-0.010738431162050355,0.01734431936746392,0.9824959606315294
2011-10-03,0,-4.358744595000998e-05,7.408591331807687e-05,-0.006270044350780521,0.01734431936746392,0.9831455179420405
2011-10-05,1,4.765827700001961e-06,0.00031655860668840176,-0.010837101390939626,0.014523235547785394,0.985378806316319
2011-10-07,1,0.0006605060846857836,0.0010078155303957924,-0.010837101390939626,0.014572611922028387,0.9845205090297559
2011-10-11,0,0.0,0.0,-0.010837101390939626,0.014523235547785394,0.9849336261302224
2011-10-13,1,0.00252388546368817,0.0031190097778159122,-0.010837101390939626,0.014523235547785394,0.9836323331384812
2011-10-17,1,0.0024756571589047956,0.003041470487341413,-0.006240367331737549,0.014523235547785394,0.9835850358441364
2011-10-19,1,0.0019667337019847204,0.0024209365162176184,-0.006173878083505216,0.014523235547785394,0.9836485754954524
2011-10-21,1,0.002647653875905256,0.0031442661036068208,-0.010203643192986328,0.013526752509805793,0.9833980698777826
2011-10-25,1,0.002764379553315758,0.0033014847402892335,-0.011361610302222538,0.013526752509805793,0.9830412502214205
2011-10-27,1,0.0042163981094457525,0.004904836327831962,-0.013891161727181434,0.013039596292728172,0.9854100732610647
2011-10-31,1,0.0037567839804114583,0.004370572717347784,-0.01104682700130596,0.013039596292728172,0.9861544973269271
2011-11-02,1,0.0032972443031476562,0.003803284239114887,-0.005242660443858331,0.013039596292728172,0.9857210654091378
2011-11-04,1,0.004013441908470138,0.0045939098430384006,-0.010924394666792223,0.011657985104810028,0.9861008623435991
2011-11-08,1,0.004552084236624404,0.005183669352493614,-0.010924394666792223,0.009280747783549929,0.9857651936177116
2011-11-10,1,0.0035139902299166064,0.004039576077969729,-0.007003912028098391,0.00972376007015893,0.9878606668741919
2011-11-14,1,0.003974815299169555,0.004545649943819785,-0.009878542720247678,0.00844272256168458,0.9878148403002956
2011-11-16,1,0.00379950596578112,0.00432363466075995,-0.007751514476869682,0.00844272256168458,0.9875481598291582
2011-11-18,1,0.003291745414517007,0.003796563934043303,-0.006237433452637655,0.011022479464083312,0.988636542999282
2011-11-22,1,0.003036968529561192,0.003525258624219387,-0.0046055878629084656,0.018747671945479542,0.9886666753712474
2011-11-25,1,0.0028465415968435656,0.0033429972144683683,-0.003960295515000724,0.018747671945479542,0.9891615660026739
2011-11-29,1,0.0037423979835566963,0.00435519438222698,-0.0046055878629084656,0.012704538084777357,0.9889651315254296
2011-12-01,1,0.004763134028426895,0.005457468204430181,-0.0046055878629084656,0.009003408768582596,0.9902245034187334
2011-12-05,1,0.004099255810708561,0.004655536673338624,-0.003960295515000724,0.008815558943578649,0.9911261627763706
2011-12-07,1,0.0039541364753949695,0.0045162711645173785,-0.0034760503870563905,0.008815558943578649,0.9911043846747049
2011-12-09,1,0.004495747721324009,0.005131272954011313,-0.004689534309415653,0.008815558943578649,0.9905517651759812
2011-12-13,1,0.004076873788585556,0.004680842186471865,-0.0034760503870563905,0.008815558943578649,0.9914789206507003
2011-12-15,1,0.004726828328166451,0.005414010737903546,-0.00348198117398173,0.00751869697238485,0.9920474504533086
2011-12-19,1,0.004297775829470734,0.004816376581971894,-0.004053411552641135,0.006677132744260878,0.9923656234612734
2011-12-21,1,0.004149047758253361,0.0045516601782609085,-0.004053411552641135,0.006666389524156299,0.9930992805077086
2011-12-23,1,0.003928337003453294,0.004275788506235425,-0.004053411552641135,0.006666389524156299,0.9930162524096031
2011-12-28,1,0.002584061929931504,0.0026446478689802324,-0.004053411552641135,0.006666389524156299,0.9935314630661597
2011-12-30,1,0.0026542601780218996,0.002727644742726169,-0.004053411552641135,0.007283423542711659,0.9925408269220042
2012-01-04,1,0.002942648608470218,0.0031018116722938945,-0.00522663584147893,0.00827071502942209,0.9913047376375581
2012-01-06,1,0.003197619972884911,0.003486512995328327,-0.00522663584147893,0.00827071502942209,0.9913550074866112
2012-01-10,1,0.0027157571166310894,0.0028685706034519624,-0.004053411552641135,0.007283423542711659,0.9924408586265163
2012-01-12,1,0.0012986789103369193,0.0014500434299372313,-0.005104623958222306,0.007882676852803016,0.9921619374959718
2012-01-17,1,0.0022234582154981235,0.002290292519279713,-0.0033729434440414505,0.009566077655655895,0.9922809956217318
2012-01-19,1,0.001490680668945062,0.0015608376964437098,-0.004021988229554851,0.009566077655655895,0.9917043025163342
2012-01-23,1,0.0023081620831869724,0.00240430789655909,-0.004021988229554851,0.009566077655655895,0.9918370074865205
2012-01-25,1,0.0024412564884472017,0.0025555134271709793,-0.003197359614398405,0.009566077655655895,0.9919576901519991
2012-01-27,1,0.0013500646700497611,0.001448418906053817,-0.003197359614398405,0.009102858956523486,0.9924083876834511
2012-01-31,1,0.003872708654431278,0.004376838004134476,-0.007461598696865995,0.007107768068836616,0.9924255360860893
2012-02-02,1,0.0017224190962049379,0.001734723351142343,-0.006752295376035403,0.005899774265136011,0.9938133389483551
2012-02-06,1,0.001535893228887401,0.0015411313664263615,-0.0070331758259852845,0.004447474659525247,0.9934907306009895
2012-02-08,1,0.001008188167263396,0.0010902997944335078,-0.0070331758259852845,0.007107768068836616,0.9928714658293465
2012-02-10,1,0.0008846669317033168,0.0009832928496606148,-0.006746101213109662,0.009102858956523486,0.9925552960978198
2012-02-14,1,0.0006150653964357827,0.0007844507556661862,-0.006746101213109662,0.009825119733940988,0.9921194668715162
2012-02-16,1,0.00029849478407867574,0.0005156685575786483,-0.00622115484358559,0.012557874425812365,0.9924302766025355
2012-02-21,1,0.000848439348147298,0.0009472072240837361,-0.006746101213109662,0.012557874425812365,0.9919562377927311
2012-02-23,1,0.0008098149597203814,0.000952241404094631,-0.006746101213109662,0.011989229513450363,0.9919445708140342
2012-02-27,-1,-0.0006662533264056145,-0.00028229892529456975,-0.006746101213109662,0.011989229513450363,0.9918295946413288
2012-02-29,0,-0.0001379820081681397,6.497493999861766e-05,-0.0050589424531621635,0.011989229513450363,0.9923133615455603
2012-03-02,-1,-0.0002330014497350537,-1.5970196957768587e-05,-0.005216850024826831,0.011989229513450363,0.9917373153796825
2012-03-06,-1,-0.000469366467999901,-0.00025825880592958135,-0.004518400146420763,0.011989229513450363,0.9918965022896499
2012-03-08,-1,-0.0007423814996356538,-0.0004674425537076508,-0.004518400146420763,0.010781689885992976,0.9917726012385226
2012-03-12,0,-0.00020171814183245,1.5236075023911848e-05,-0.004518400146420763,0.008874120551232725,0.9930161124293599
2012-03-14,0,-9.14726742039533e-05,0.00012551395999927815,-0.003453526152045948,0.008874120551232725,0.9933600485234476
2012-03-16,1,0.0005854537901576,0.0006933778072961417,-0.003453526152045948,0.008874120551232725,0.9927066067209679
2012-03-20,1,0.00011374906916188326,0.0002903318856676463,-0.0029326000246620372,0.01064321995858303,0.9907526901473308
2012-03-22,1,0.0010437786490148594,0.0010485176441139017,-0.0029326000246620372,0.010391647648794385,0.9906799968608685
2012-03-26,1,0.0006934650396689588,0.0007497193293880198,-0.0029326000246620372,0.010391647648794385,0.9898566262171952
2012-03-28,1,0.000372767282045783,0.0004793122152083051,-0.000553210855313882,0.01064321995858303,0.9893070430134209
2012-03-30,1,0.0007667011088558407,0.0007860104527824715,-0.0036225044785145964,0.01064321995858303,0.9888768877960326
2012-04-03,1,0.0014261760322916237,0.001520428085892423,-0.0036225044785145964,0.010604579685753693,0.9894477676391709
2012-04-05,1,0.0007071433496099553,0.0007717742948134907,-0.0036225044785145964,0.009074944044908861,0.9895807491555213
2012-04-10,0,0.0,0.0,-0.004717552225718253,0.009074944044908861,0.9892048651014232
2012-04-12,1,0.0021667143793986784,0.0022220534453198135,-0.007987382111718176,0.007114731533476495,0.9891196623378695
2012-04-16,0,0.0,0.0,-0.009707382184638595,0.0064199801475296895,0.9898942784017147
2012-04-18,0,0.0,0.0,-0.009707382184638595,0.004382436911119395,0.9919713996962061
2012-04-20,0,0.0,0.0,-0.013500786420980912,0.004382436911119395,0.9909918418959157
2012-04-24,0,0.0,0.0,-0.009659533574778072,0.004382436911119395,0.9912121849332336
2012-04-26,0,0.0,0.0,-0.013500786420980912,0.0031439708132517067,0.9906409269435957
2012-04-30,1,0.0021378735405373963,0.002153637372498062,-0.009659533574778072,0.004382436911119395,0.9905803998499612
2012-05-02,1,0.0018616796220785083,0.0019135783490264015,-0.013500786420980912,0.003195060890746117,0.9886595382409021
2012-05-04,0,0.0,0.0,-0.013172285054146225,0.003195060890746117,0.9892164773013202
2012-05-08,0,0.0,0.0,-0.013172285054146225,0.009831518525980533,0.987974026453346
2012-05-10,0,0.0,0.0,-0.013172285054146225,0.011121046805207252,0.9875907115764591
2012-05-14,-1,-0.0002901765500846886,-5.2323257319352194e-05,-0.010843467850878365,0.01327100970592783,0.9874028042854422
2012-05-16,0,0.0,0.0,-0.010843467850878365,0.015424684541101862,0.985740423194668
2012-05-18,0,0.0,0.0,-0.0043506858030587445,0.017333359752672438,0.9857915947958631
2012-05-22,0,0.0,0.0,-0.0037281994278059206,0.015424684541101862,0.9869179840545622
2012-05-24,0,0.0,0.0,-0.0037281994278059206,0.015424684541101862,0.9871297613250313
2012-05-29,1,0.00023262989431148287,0.0003662371071637438,-0.0064809416436074066,0.017333359752672438,0.9861543672911921
2012-05-31,-1,-0.0018634493205365215,-0.0014950915482493388,-0.0037281994278059206,0.017333359752672438,0.9863792081683908
2012-06-04,-1,-0.0021734577191638766,-0.001783765083799836,-0.0034996089439082037,0.018420360866672817,0.9855768047944055
2012-06-06,-1,-0.0009287197406045376,-0.0006860138911490096,-0.0034996089439082037,0.02073266167347975,0.9856196751227282
2012-06-08,-1,-0.00028383262455917253,-0.00010752523139035482,-0.006124807589136928,0.02073266167347975,0.9851334627210904
2012-06-12,1,4.155469973038449e-05,0.0001848677372662213,-0.008212643396830852,0.02073266167347975,0.9857018059456699
2012-06-14,1,0.0016487046256748136,0.0017151246799894312,-0.008892433041687988,0.015237375263794121,0.9863441868784648
2012-06-18,0,0.0,0.0,-0.008892433041687988,0.010592956326677234,0.9878445967799191
2012-06-20,0,0.0,0.0,-0.008892433041687988,0.010592956326677234,0.9876333103730448
2012-06-22,1,0.003039626343798893,0.003295839506151276,-0.010574715294720864,0.009137793195278751,0.9865018754989273
2012-06-26,1,0.0034072811811248402,0.003680754306314702,-0.008892433041687988,0.006096323030345269,0.9872400398715128
2012-06-28,0,0.0,0.0,-0.008575685722029578,0.015237375263794121,0.9847702558565187
2012-07-02,0,0.0,0.0,-0.008892433041687988,0.009137793195278751,0.9849216953822281
2012-07-05,0,0.0,0.0,-0.008892433041687988,0.006096323030345269,0.9859549656553473
2012-07-09,0,0.0,0.0,-0.008239143340888362,0.008368435939896465,0.9868360888204242
2012-07-11,0,0.0,0.0,-0.008239143340888362,0.012242374549105556,0.9866538602050285
2012-07-13,1,0.0014428422986789956,0.0014527138287540313,-0.00252496395409481,0.008368435939896465,0.9881495449592649
2012-07-17,1,0.002209020709149013,0.0023524524883391782,-0.008239143340888362,0.012242374549105556,0.9874231277569949
2012-07-19,1,0.002419065212491076,0.0025487474230709113,-0.008239143340888362,0.013392393002709946,0.9870055813989763
2012-07-23,0,0.0,0.0,-0.00252496395409481,0.013392393002709946,0.9876364882881266
2012-07-25,0,0.0,0.0,0.0009373560414137575,0.013392393002709946,0.987835130816727
2012-07-27,1,0.002387413228599137,0.002444883408565466,-0.001888121817723198,0.009274120799844136,0.9926718093080131
2012-07-31,1,0.0008535388725946821,0.0009687731148128661,-0.001888121817723198,0.009274120799844136,0.9933565967179246
2012-08-02,1,0.0020107114097157736,0.0020825753941853416,-0.004893991231940395,0.007779167053539044,0.9936496639797191
2012-08-06,1,0.002495038539976537,0.002645580753563937,-0.004893991231940395,0.008483602810805846,0.9935403057422656
2012-08-08,1,0.0032209636614684957,0.003497954527567363,-0.004893991231940395,0.008483602810805846,0.9936725672500492
2012-08-10,1,0.003066113064646256,0.0032888736355693865,-0.005244857328062099,0.008483602810805846,0.9922749643348604
2012-08-14,1,0.0028691118095886823,0.0030823700684045547,-0.005244857328062099,0.007779167053539044,0.99275263413231
2012-08-16,1,0.0032062703489208525,0.003446619626847034,-0.005244857328062099,0.007779167053539044,0.992565872042588
2012-08-20,1,0.002720752821178285,0.002872141014169511,-0.005244857328062099,0.004857735006784303,0.9921752512912114
2012-08-22,1,0.002770328814018775,0.002922428225714464,-0.00511060917028373,0.00515091590046713,0.9923972639829931
2012-08-24,1,0.0026229451151904707,0.0027892353933617418,-0.0048053048940793356,0.00710473378859389,0.9925111335117967
2012-08-28,0,0.0,0.0,-0.004664010604842059,0.008767070921932919,0.9923795907763633
2012-08-30,0,0.0,0.0,-0.003708637652443044,0.008928162187766998,0.9918804492650619
2012-09-04,0,0.0,0.0,-0.004664010604842059,0.00710473378859389,0.9924410740776423
2012-09-06,1,0.004504292340887061,0.0049350561569729305,-0.004664010604842059,0.00710473378859389,0.9915667430119552
2012-09-10,1,0.00450772440380633,0.005067173821715459,-0.004976476973553466,0.00710473378859389,0.9916039345712964
2012-09-12,1,0.0035050887755325457,0.0038795136005102815,-0.004976476973553466,0.00710473378859389,0.9917248948378543
2012-09-14,1,0.003261813281002695,0.0035525472781327756,-0.004849828334961168,0.00509940098659649,0.9925553567571371
2012-09-18,1,0.0021899744045735864,0.0024001588086956173,-0.0014691320655495404,0.006677727860327477,0.9937762115007263
2012-09-20,0,0.0,0.0,-0.004844743032258008,0.006677727860327477,0.9930043355907349
2012-09-24,0,0.0,0.0,-0.005518674255801314,0.005352792100345699,0.9921472240695195
2012-09-26,0,0.0,0.0,-0.005615098711455031,0.0046577557332692305,0.9918353836058371
2012-09-28,0,0.0,0.0,-0.008034742764569225,0.0031889774186984964,0.987753052790363
2012-10-02,0,0.0,0.0,-0.015088186979432,0.0046577557332692305,0.9804264575879752
2012-10-04,0,0.0,0.0,-0.016682191801937727,0.0046577557332692305,0.9791005945640485
2012-10-08,1,0.0011116324307973197,0.0012008371250562598,-0.015107104851682637,0.005352792100345699,0.9797247024955823
2012-10-10,-1,-0.0007141640426264293,-0.0003279949430311528,-0.008491097123500508,0.007187187913259072,0.9788900931659352
2012-10-12,0,-0.00016851043161368433,0.00011572811671412919,-0.014878618705633414,0.007889803849788608,0.976716499324459
2012-10-16,0,-6.27867088759806e-05,0.00022436763556072888,-0.014878618705633414,0.007889803849788608,0.9764752252344766
2012-10-18,1,0.00015303098058974869,0.0003889765317721057,-0.0160144033012182,0.0032895818374103166,0.9758377874525658
2012-10-22,-1,-0.002305159079061244,-0.0016920821932302123,-0.014878618705633414,0.009073019627527434,0.9773866578086794
2012-10-24,-1,-0.003443620882847209,-0.0026632011663103505,-0.0160144033012182,0.009073019627527434,0.9769605844136624
2012-10-26,-1,-0.0011513029490041462,-0.0007003989943036623,-0.01034074895344439,0.009073019627527434,0.9806912075205582
2012-11-01,1,0.0012720547548269647,0.0014286869536857128,-0.0160144033012182,0.005581251170425593,0.9820403803287646
2012-11-05,1,0.00042765310152202967,0.0006625640169214723,-0.01034074895344439,0.005581251170425593,0.9817960868857296
2012-11-07,1,0.0015449472567939057,0.0015714203898290102,-0.01034074895344439,0.005934731830829369,0.9802558233490742
2012-11-09,1,0.0028976895113742127,0.003122452188822855,-0.01034074895344439,0.005934731830829369,0.980512013950185
2012-11-13,1,0.0033789472701290513,0.0036555753434743183,-0.007981063105688371,0.004519799155635138,0.982285138576122
2012-11-15,1,0.00240108308526457,0.0025216728890855916,-0.009998549532763277,0.004519799155635138,0.982225766103365
2012-11-19,1,0.0015500957955649037,0.0015790964582789145,-0.007695001111681095,0.009636432354900512,0.9826266597001
2012-11-21,1,0.0007504290719044752,0.0008855343131798008,-0.008529136123598341,0.011862991033506978,0.9811844877708256
2012-11-26,-1,-0.00026443302491178185,-4.437074985069397e-05,-0.007695001111681095,0.011862991033506978,0.9825098099443603
2012-11-28,1,0.0008680499930305337,0.0008851229570381468,-0.007695001111681095,0.011862991033506978,0.9820400352137062
2012-11-30,1,0.00103584528082647,0.0011119592499137141,-0.004289049983500477,0.01917229514107239,0.9866414504592415
2012-12-04,1,0.002246457642600306,0.002283870394699048,-0.0036861846073705175,0.01917229514107239,0.9880628754591192
2012-12-06,1,0.003121227154575103,0.0032754017824412488,-0.0033084227322284663,0.011862991033506978,0.9895268761586601
2012-12-10,1,0.003477823857358839,0.0036887730976901704,-0.00390335590515166,0.008716889406519547,0.9898844436408865
2012-12-12,1,0.003176534166950885,0.0033598992636921206,-0.00640802029002284,0.008716889406519547,0.9882360660332653
2012-12-14,1,0.0008762468689384925,0.001081479469995889,-0.00462937799783871,0.012259945162012889,0.9883478338778902
2012-12-18,1,0.0012686727050141866,0.0014768322515521363,-0.00462937799783871,0.008849207449354851,0.9892719339790567
2012-12-20,1,0.004343437858775076,0.004719944166860727,-0.003421865403674544,0.00550410990364818,0.9911586358430885
2012-12-24,1,0.0037118788681371057,0.003939109977387181,-0.003421865403674544,0.00550410990364818,0.9915245501127011
2012-12-27,1,0.003579915730216169,0.0038289857147553183,-0.0028830296576379255,0.005887716789961777,0.9885218024365482
2012-12-31,1,0.004501627456042644,0.004896082407762318,-0.0020979684505432862,0.005548918515693072,0.9889368617188583
2013-01-03,1,0.005669640671608726,0.006238548569336566,-0.0020979684505432862,0.006330800285926535,0.9886912703384365
2013-01-07,1,0.005406725874901081,0.005947703828095351,-0.0020979684505432862,0.00898363328548953,0.9891102950056945
2013-01-09,1,0.004716793817081375,0.005165564914641859,-0.001863042018112655,0.00898363328548953,0.989727687637224
2013-01-11,1,0.0032934276793043166,0.003583130415024358,0.002535594372617394,0.009336376273150468,0.9916243651162503
2013-01-15,1,0.004412955757630623,0.004840633990781536,0.00035814524763266853,0.0067281988887070215,0.9926549315414881
2013-01-17,1,0.004264407312099483,0.004668813118683019,0.0011091799288418728,0.008762416007107804,0.9926484290156649
2013-01-22,1,0.0041202790525988854,0.004477244636690552,0.00035814524763266853,0.008762416007107804,0.991725456585397
2013-01-24,1,0.0040093768294071,0.00432853154332987,-0.001863042018112655,0.00940918093617378,0.9908849251675096
2013-01-28,1,0.006322722806160063,0.006930448925798848,-0.0023829497964343257,0.008762416007107804,0.9927545052284088
2013-01-30,1,0.006679940271565019,0.00736668023669511,-0.0023829497964343257,0.010408412293274188,0.9927405610135549
2013-02-01,1,0.00774377947892738,0.008601399211790126,-0.0023829497964343257,0.00940918093617378,0.9930700823128974
2013-02-05,1,0.007554986493134398,0.008318579571326243,-0.0023829497964343257,0.008172646737269829,0.9927676675023769
2013-02-07,1,0.006844119684015493,0.0074738370921706015,-0.0023829497964343257,0.00825808731012179,0.9932827013650409
2013-02-11,1,0.007197258633376042,0.007863971884720494,-0.0033148704724985456,0.007886956175720845,0.9921909100654104
2013-02-13,1,0.006272265205122829,0.006752267383379123,-0.005292129287633604,0.007886956175720845,0.9919060697064711
2013-02-15,1,0.006509634174000926,0.007025568727773518,-0.007560965925664817,0.005863281893934862,0.9909704772640036
2013-02-20,1,0.0056646336485174295,0.006055288371236898,-0.005292129287633604,0.007886956175720845,0.9919407507067065
2013-02-22,1,0.005494832517407578,0.0058778423413050115,-0.005495890193061278,0.007886956175720845,0.99171070243268
2013-02-26,1,0.004657112790135915,0.004945042869277671,-0.002982336857478654,0.008408058171879998,0.9930476189596716
2013-02-28,1,0.005044682054371972,0.005371949411848175,-0.002982336857478654,0.007577166634028765,0.993367693956505
2013-03-04,1,0.005528105889527072,0.005936522979666672,-0.005495890193061278,0.00461813402517695,0.9923577855341883
2013-03-06,1,0.004804651494329253,0.005047530216626569,-0.007933871729412971,0.004776579551443573,0.9921860457714787
2013-03-08,1,0.004120599679339802,0.004220266778133517,-0.008485350524252092,0.003993873753514324,0.9921845524482349
2013-03-12,1,0.0035939027059804546,0.0036378492327675685,-0.008485350524252092,0.005135279456660542,0.9914814457714146
2013-03-14,1,0.002819291755640316,0.0028618573323211808,-0.007933871729412971,0.005580519248681881,0.992499746839401
2013-03-18,1,0.0018316741980520222,0.0019998865665546237,-0.007933871729412971,0.005580519248681881,0.9923989994428997
2013-03-20,1,0.001239920410951686,0.0015512149760863502,-0.008530658924624216,0.004500986922738407,0.9921946902393932
2013-03-22,1,0.0007465636964618134,0.0011575726831568364,-0.009536281171816803,0.003993873753514324,0.9923087990432495
2013-03-26,1,0.0014830290284755317,0.001752775608775676,-0.009536281171816803,0.003993873753514324,0.991768543301846
2013-03-28,1,0.0028454778086744324,0.0028592117827636477,-0.01091936915376267,0.003993873753514324,0.9894969022065941
2013-04-02,1,0.0014715557410868848,0.001678456567092816,-0.01091936915376267,0.006334202177556647,0.9891772608793168
2013-04-04,1,0.001020719122471171,0.0012802443148514126,-0.01091936915376267,0.010575714983375699,0.9891890897241359
2013-04-08,1,0.0005833125305849461,0.0008629087705272338,-0.007867916653309102,0.011260762080542322,0.9892297195662784
2013-04-10,1,0.0011020413949365785,0.001291970175427928,-0.005247790085999003,0.012480807555938021,0.989839028302093
2013-04-12,1,0.0005886298618857831,0.0008859771242907975,-0.005247790085999003,0.012480807555938021,0.9895491723907469
2013-04-16,-1,-0.0012342006732645196,-0.0006565095336024981,-0.0036093248477039462,0.012480807555938021,0.9900182512478302
2013-04-18,-1,-0.0021579466521863414,-0.00147395884747719,-0.0012783725400461695,0.012480807555938021,0.9895413881689896
2013-04-22,-1,-0.004380202510866126,-0.0033557165804495226,-0.0012783725400461695,0.012480807555938021,0.989044067981298
2013-04-24,-1,-0.0034646435594241983,-0.0025565396856792734,-0.003377120694244691,0.011215156060792625,0.9905046694391769
2013-04-26,-1,-0.0033786112735482102,-0.0025664051674940992,-0.003377120694244691,0.010575714983375699,0.9925415104492553
2013-04-30,-1,-0.0016184991273007349,-0.0010684386112289968,-0.004096583620046857,0.005690518043768642,0.9936322036822792
2013-05-02,-1,-0.000617339728331609,-0.00022777778831927658,-0.004096583620046857,0.005690518043768642,0.9935035082352127
2013-05-06,1,0.0001584858909596732,0.00043982352782020344,-0.005889066935298922,0.0019994588303087696,0.992880141960655
2013-05-08,1,0.0008135633741142596,0.0010401120584220336,-0.0068767735403393974,-0.0009495153101653851,0.993221511696964
2013-05-10,0,-0.00011824606154709383,0.00027732724149615745,-0.007399809399904755,-0.0009495153101653851,0.9929463956168892
2013-05-14,1,0.00021984614214283038,0.0005242467763389715,-0.008289480287802693,-0.0015119155173148684,0.992239034913264
2013-05-16,1,0.00042662417533418956,0.000671031314844357,-0.008137338421483136,-0.0015119155173148684,0.9922823871565591
2013-05-20,0,-0.00019521911632673552,0.00012399298329720968,-0.008137338421483136,-0.0010853464319444696,0.9928290635281479
2013-05-22,-1,-0.001032789281782526,-0.0006114301109487596,-0.008137338421483136,-0.0010853464319444696,0.9926403519695542
2013-05-24,-1,-0.001143710630618623,-0.0007489346807565496,-0.009547615010337133,-0.00013348312812892695,0.9918526676521888
2013-05-29,-1,-0.0014843746314858442,-0.0011013351170633223,-0.008137338421483136,0.002765812650678546,0.9914348276552782
2013-05-31,-1,-0.0010706709503017647,-0.0007320858791782748,-0.008137338421483136,0.002765812650678546,0.9917440108873804
2013-06-04,-1,-0.0026043153639712935,-0.0020565529886865997,-0.006997974725226159,0.0037312313227266984,0.9924978328469668
2013-06-06,-1,-0.004046312073896418,-0.0032519528735936213,-0.0061256228734830435,0.005605411754546142,0.9915974590425203
2013-06-10,-1,-0.003119435477192228,-0.0024983022922851024,-0.004698040251576782,0.0037312313227266984,0.9928346336369216
2013-06-12,-1,-0.0037057747851016007,-0.0030119168619696696,-0.00392226991769387,0.006263459290449927,0.991883335022301
2013-06-14,-1,-0.0038428624201290074,-0.0031449967410552148,-0.003221495430035762,0.006263459290449927,0.9921659373254919
2013-06-18,-1,-0.0038075881331939964,-0.0031248883036766846,-0.0033802458472531535,0.006263459290449927,0.9917828193472369
2013-06-20,-1,-0.003721554070515042,-0.0031531383307014044,-0.003043471845180177,0.006263459290449927,0.9926083489191081
2013-06-24,-1,-0.0037536387529823424,-0.0031934899670890173,-0.003043471845180177,0.005605411754546142,0.9934793124168557
2013-06-26,-1,-0.0024095878959372805,-0.002049228364941472,-0.0022359400333313312,0.005605411754546142,0.9946143518196184
2013-06-28,-1,-0.0018887293533411805,-0.0016205844349540593,-0.0022359400333313312,0.0062407753604991996,0.9935344186293528
2013-07-02,-1,-0.0017160758578901201,-0.001463330119857656,-0.0022359400333313312,0.006299279362726932,0.9933811436354322
2013-07-05,-1,-0.000846013992259043,-0.0007242615173832305,-0.0022359400333313312,0.006299279362726932,0.9936005791381131
2013-07-09,-1,-0.001044316620316668,-0.0008961523661738237,-0.0018796606968749028,0.006299279362726932,0.9934815718327722
2013-07-11,-1,-4.4368087513419626e-05,-3.5862953685724125e-05,-0.0022359400333313312,0.004782536860105097,0.9943204579218066
2013-07-15,-1,-0.0004877809048379528,-0.00040586983112299654,-0.0018796606968749028,0.006205215672790868,0.9935424563229334
2013-07-17,-1,-0.0005713347653182307,-0.00048725716322869234,-0.0015270552783988372,0.006205215672790868,0.994004771737991
2013-07-19,-1,-0.0010956617262368453,-0.0009066451986951412,-0.0015270552783988372,0.006205215672790868,0.9936267611014598
2013-07-23,-1,-0.0009030361425203971,-0.0007806518795263386,-0.00035482408382681274,0.006733280191085136,0.9935898883178057
2013-07-25,-1,-5.78034410076336e-05,-5.681924548059692e-05,-0.0015270552783988372,0.006733280191085136,0.99376955098014
2013-07-29,1,0.0007951385891619067,0.0009185671785205598,-0.0015270552783988372,0.006981909001017261,0.9948390139199428
2013-07-31,1,0.0011738106089008299,0.001345399415722602,-0.003288580586597714,0.006981909001017261,0.9936921363523941
2013-08-02,1,0.001409613318205639,0.00159572957360567,-0.005293504060552881,0.006462818075235941,0.9935613240270954
2013-08-06,1,0.001170876790821513,0.001289498976349871,-0.005293504060552881,0.006981909001017261,0.993220753848759
2013-08-08,1,0.0007419979645960403,0.0007793819476489387,-0.0034327539792077012,0.00801669022443263,0.9930838577952208
2013-08-12,1,0.0015927048406617302,0.0017841652427062196,-0.0034327539792077012,0.007053794890537192,0.9934759394693103
2013-08-14,1,0.001745735366326005,0.001971201314411389,-0.0034327539792077012,0.007053794890537192,0.9935400439150274
2013-08-16,1,0.0015008773809878704,0.0017109204453859303,-0.0019051865070102499,0.007053794890537192,0.9940981875536481
2013-08-20,1,0.0017919013220653258,0.002061624686039997,-0.0008638228811427788,0.008972659334997893,0.9933494839831298
2013-08-22,1,0.0018186427276237244,0.0020741652827999295,-0.0008638228811427788,0.008972659334997893,0.9934155613656072
2013-08-26,1,0.002158180265606732,0.002438745722593177,-0.0022014986506625053,0.00905317613483406,0.9930204625452911
2013-08-28,1,0.0009332935253085699,0.00103401250433877,-0.0008638228811427788,0.009629602840565311,0.9937550038661069
2013-08-30,1,0.0006560797810827594,0.0007309920407994708,-0.0014145163756191692,0.009629602840565311,0.9933760759421868
2013-09-04,1,0.0013192000757212342,0.0014950558966961062,-0.0014145163756191692,0.008986372820394623,0.9935879664706428
2013-09-06,1,0.0013807295205959791,0.0015287918586206683,-0.00430675778647208,0.008499851647046485,0.9931627384585866
2013-09-10,1,0.0014532424843674144,0.0015749472155523665,-0.007652026441572427,0.008499851647046485,0.9915778357232725
2013-09-12,1,0.0009132227126462916,0.0009133471471202623,-0.007652026441572427,0.008986372820394623,0.9903121217320116
2013-09-16,1,0.0011809211502413319,0.001262701376269777,-0.007652026441572427,0.008986372820394623,0.9900369224196052
2013-09-18,1,0.0017521739382762485,0.0018806537047030732,-0.007652026441572427,0.008431437526159597,0.9908532414261962
2013-09-20,1,0.002319605666384667,0.0025763065630762536,-0.007652026441572427,0.008431437526159597,0.9907782943288354
2013-09-24,1,0.0024281623562419506,0.0027250039124838057,-0.006090078992719795,0.007809967637508692,0.9914102226599825
2013-09-26,1,0.0027280043877359944,0.0030972530405084147,-0.003528477761835866,0.007457611284747074,0.9918252602649482
2013-09-30,1,0.0025871177357355063,0.0029795639625081072,-0.0018343631957052288,0.007809967637508692,0.9921237357362139
2013-10-02,1,0.0031094437259406933,0.003572065490834895,-0.0018343631957052288,0.00826172635917414,0.9922445473679036
2013-10-04,1,0.0029996009738729196,0.0034424048288690494,-0.0015449131167769587,0.007608197525302224,0.9927375524576534
2013-10-08,1,0.001526552085659408,0.0017680525243482397,-0.001047335046031004,0.007608197525302224,0.994604815497977
2013-10-10,1,0.0025548358052202144,0.0029149929520626665,-0.0013424002043536474,0.005672238700359917,0.9949177791906602
2013-10-14,1,0.0025011370008916883,0.002820899587814658,-0.0013424002043536474,0.0058745262032982365,0.9944899786253376
2013-10-16,1,0.002524237870625185,0.002836022460407109,-0.0013424002043536474,0.007050074342947571,0.9944939428882292
2013-10-18,1,0.002707871174201169,0.002990825510145341,-0.0015449131167769587,0.007050074342947571,0.9946018380409202
2013-10-22,1,0.0029461909136308732,0.0032852528659890164,-0.001947522197791915,0.007050074342947571,0.9944752259090524
2013-10-24,1,0.002206988307990143,0.0023905003703560642,-0.001960270822148391,0.007992995826450279,0.9941334070437072
2013-10-28,1,0.002190952071673571,0.00235845807713009,-0.001960270822148391,0.007992995826450279,0.9940083013811297
2013-10-30,1,0.0025494437455057754,0.00276460819444661,-0.001960270822148391,0.007050074342947571,0.9943201650346718
2013-11-01,1,0.0021069157116635996,0.0022312467715281574,-0.0016823185750006226,0.007050074342947571,0.9943980163320849
2013-11-05,1,0.001993596657887923,0.002089310599039797,-0.0028689275710821185,0.007050074342947571,0.9939999483351285
2013-11-07,1,0.0009333536424589821,0.0009803811723070534,-0.0007167167330006575,0.007050074342947571,0.9945451359897813
2013-11-11,1,0.000926672730496961,0.0010348893128376852,-0.0028689275710821185,0.007050074342947571,0.9945463512804059
2013-11-13,1,0.0013044365471636702,0.0013689099833463436,-0.003102461566671719,0.005449838475334463,0.9941541776234569
2013-11-15,1,0.00164842193978302,0.0016512204917762015,-0.003102461566671719,0.006643115432917077,0.9939457681903691
2013-11-19,1,0.0014899705759177594,0.0015007600801738737,-0.0005565528204192162,0.009432493881566332,0.9937813749149648
2013-11-21,1,0.0016779742801966554,0.0016822438047065808,-0.0004248893666580543,0.009432493881566332,0.9934802809276579
2013-11-25,1,0.001959470366888939,0.0020207801636726885,-0.0004248893666580543,0.006381737157865157,0.9941900885795769
2013-11-27,1,0.001838866227450975,0.0018639246914296719,-0.003284161227080159,0.00748089908357814,0.993636055906134
2013-12-02,1,0.0022733617686953598,0.0023816855134927047,-0.003485759638572909,0.009432493881566332,0.9931939761933329
2013-12-04,1,0.0017443946772556585,0.0017642646815663723,-0.003284161227080159,0.009432493881566332,0.9933340300687267
2013-12-06,1,0.0015825516260142146,0.0016004416406532745,-0.003485759638572909,0.01028248054577813,0.9918287422642154
2013-12-10,1,0.001504368053294975,0.0015338992887658635,-0.003485759638572909,0.009498345720622369,0.9924109296679946
2013-12-12,1,0.0003990265797572042,0.0005850098947132576,-0.003485759638572909,0.009498345720622369,0.9921329250301548
2013-12-16,1,0.0013906786359839177,0.0014354448846307585,-0.003485759638572909,0.009498345720622369,0.9914588326458788
2013-12-18,1,0.0019191759038966983,0.0019888378689744725,-0.00395181625296058,0.008523578372569713,0.9909268134199429
2013-12-20,1,0.002331138661647127,0.002480204198556867,-0.00395181625296058,0.0071559766342272554,0.991949132921384
2013-12-24,1,0.0023392244646012568,0.0024986183623013983,-0.004403735442070512,0.0071559766342272554,0.9904288120654315
2013-12-27,1,0.0023114872197602995,0.002463153728000722,-0.005246119391632524,0.005254132772188067,0.9899673084540604
2013-12-31,1,0.0022450160431096433,0.002366442134149351,-0.007237546827929841,0.00510800279595934,0.989862139421111
2014-01-03,1,0.0022420816721569013,0.002395592917396449,-0.012659290593607047,0.00510800279595934,0.9873721507666081
2014-01-07,1,0.0028555821219852515,0.003079497635476311,-0.012659290593607047,0.004229995525850782,0.9880793708069007
2014-01-09,1,0.00234430455479297,0.0024641833409139277,-0.015958857554749146,0.004229995525850782,0.9857694894000546
2014-01-13,1,0.0013645113077960644,0.0013956137073077855,-0.012659290593607047,0.004229995525850782,0.986156734880893
2014-01-15,1,0.0024389200318630714,0.0026154175189500536,-0.012659290593607047,0.0040710026405892195,0.9874072600754034
2014-01-17,1,0.002297577617265236,0.0024646346882028114,-0.010656064815179557,0.0040710026405892195,0.9876344329312553
2014-01-22,1,0.001793477212621488,0.0018302619670000706,-0.010656064815179557,0.004706298665664971,0.9871974216179707
2014-01-24,1,0.00018457201918385018,0.00036231696308966114,-0.010656064815179557,0.004350409137824693,0.9882385278417337
2014-01-28,1,0.00024423713134591734,0.0003907171370487997,-0.010009160216794813,0.005957689211440158,0.9889060161985241
2014-01-30,1,0.0001807546439723676,0.00032395130172068517,-0.006267155318274721,0.0041877832706762345,0.9894674329263329
2014-02-03,-1,-0.001912450321152403,-0.001540988140282218,-0.0036147068369782346,0.005957689211440158,0.9909240752413472
2014-02-05,-1,-0.0020749684602539226,-0.0016812512269013806,-0.001894073683351872,0.005957689211440158,0.9911969138162212
2014-02-07,-1,-0.003476134548383512,-0.0029107005672135357,-0.002845516702825953,0.005957689211440158,0.9922768852386404
2014-02-11,-1,-0.002121685897980078,-0.001759792871758781,-0.004875444059420027,0.0041877832706762345,0.993915972757155
2014-02-13,-1,-0.0018554721312436001,-0.0015293245760871006,-0.004875444059420027,0.0041877832706762345,0.9938617964775052
2014-02-18,-1,-0.0009366457354759167,-0.0007422091475235846,-0.004973205580608537,0.0041877832706762345,0.991397970981477
2014-02-20,-1,-0.0009343249425334883,-0.0007387235451560099,-0.005247851071950533,0.004109124557794863,0.9915041994591409
2014-02-24,-1,-0.0019211538971003654,-0.0015899036617714117,-0.005247851071950533,0.005611971370230355,0.9914056766234581
2014-02-26,-1,-0.0013964735639343802,-0.0011480925281124278,-0.005247851071950533,0.005914909759955058,0.990714664052495
2014-02-28,-1,-0.0015030885591061863,-0.0012363306199178904,-0.005247851071950533,0.005914909759955058,0.9906491617426819
2014-03-04,-1,-0.001672259908779614,-0.0013246508891344448,-0.005247851071950533,0.005914909759955058,0.9912296281444484
2014-03-06,-1,-0.0012663091689902395,-0.0010160069858972521,-0.008636222297329476,0.005914909759955058,0.9892681989576029
2014-03-10,-1,-0.00187706977634208,-0.0015564735172730886,-0.008636222297329476,0.005914909759955058,0.9891201644118895
2014-03-12,-1,-0.0019487457017352513,-0.0016225468487924325,-0.006779656085613175,0.007257750916581308,0.9884925052435796
2014-03-14,-1,-0.0015379046054299805,-0.0012858791937103487,-0.01769241749551808,0.005914909759955058,0.9872059338737854
2014-03-18,-1,-0.002547862174053479,-0.002180955389343855,-0.012125002435638165,0.005914909759955058,0.9897524255755387
2014-03-20,-1,-0.002628467532006994,-0.002248685932835494,-0.012125002435638165,0.007257750916581308,0.9891218907443056
2014-03-24,-1,-0.002760011978150632,-0.0023661710822238586,-0.008159204940993411,0.005840806187928165,0.9895172931049548
2014-03-26,-1,-0.0019042904284005972,-0.0016295911105694645,-0.01611675004229637,0.004555019548191862,0.9895685710102694
2014-03-28,-1,-0.0019486349515378905,-0.0016634623756593488,-0.01769241749551808,0.004555019548191862,0.9879066341391717
2014-04-01,-1,-0.001740215341689682,-0.0014843362671443233,-0.01769241749551808,0.003384515284153736,0.9881346292849567
2014-04-03,-1,-0.0037031093612194524,-0.003179712259872749,-0.015676057121939452,0.0061337631830987,0.9884136958521509
2014-04-07,-1,-0.003534551367376377,-0.0030694240351598207,-0.011861402033241155,0.0061337631830987,0.9885894702305059
2014-04-09,-1,-0.002576765436011956,-0.0022484953719466936,-0.011861402033241155,0.0036510392843042607,0.9893183788497801
2014-04-11,-1,-0.0038622551669546456,-0.0033929775485625523,-0.0042406138671756115,0.0061337631830987,0.9892724984786504
2014-04-15,-1,-0.003122309432321039,-0.002737518530386986,-0.006135352445657298,0.005185324036755896,0.9900541475358249
2014-04-17,-1,-0.0024489951235359374,-0.0021589712199700287,-0.008241048234842044,0.004901429525356897,0.9909801197639364
2014-04-22,-1,-0.0022690959178828657,-0.002008669156602574,-0.008241048234842044,0.004946415244181544,0.9904154310450813
2014-04-24,-1,-0.00305467531540539,-0.0027151453649393864,-0.005706903571010256,0.006268720339572641,0.9907433428525699
2014-04-28,-1,-0.0038744241366466007,-0.0034551640788888366,-0.004006604668958284,0.009974663639954164,0.991431490900129
2014-04-30,-1,-0.0035619466942313324,-0.0031741860895236978,-0.004006604668958284,0.009974663639954164,0.9913298355816764
2014-05-02,-1,-0.00268505071461393,-0.0024071444465065695,-0.005247542362550451,0.0056398901697194935,0.9930103656164363
2014-05-06,-1,-0.0030754554959051645,-0.0027649074165774917,-0.0036758262066719396,0.00675012148237218,0.9929756063399803
2014-05-08,-1,-0.0031473343729474983,-0.002811269607813769,-0.0036758262066719396,0.0082688199137392,0.9922398387310681
2014-05-12,-1,-0.0018310945630307205,-0.0016840008149403628,-0.0036758262066719396,0.007228423278879217,0.9936166354957553
2014-05-14,-1,-0.0015623976489380963,-0.0014637758943389385,-0.0036758262066719396,0.007228423278879217,0.9933755093692583
2014-05-16,-1,-0.0014580568350153183,-0.0013928280022147386,-0.0024275558897475123,0.007228423278879217,0.9933095353698808
2014-05-20,-1,-0.0012111508123809401,-0.001178959939539339,-0.0005491244325561853,0.00675012148237218,0.9937324735396448
2014-05-22,-1,-0.0006963779742264326,-0.0006578703872271057,-0.002669366857402716,0.005930289779501491,0.9940221771622627
2014-05-27,0,-0.00010154627777704967,3.220654790774506e-05,-0.0029757552057398454,0.005930289779501491,0.9943344557366381
2014-05-29,1,0.00011913979452806317,0.0002780438308077975,-0.003428454231463813,0.005536497404367949,0.994423572094767
2014-06-02,1,0.00043261456077849103,0.0006732641712125391,-0.003428454231463813,0.005536497404367949,0.9929150466460729
2014-06-04,1,0.00047619814616517127,0.0007134880546961135,-0.0031724228160432987,0.005536497404367949,0.9925368855400571
2014-06-06,1,0.0008163022712715881,0.0010861056323639073,-0.003428454231463813,0.004727206478955571,0.9920906664231491
2014-06-10,1,0.0015993510640211906,0.0020473393026179607,-0.0039575255310874404,0.004727206478955571,0.9921100703250244
2014-06-12,1,0.0012790671950036337,0.0016734312207088529,-0.003428454231463813,0.004727206478955571,0.9925134140949373
2014-06-16,1,0.0018119759074230423,0.002290970259787733,-0.0037473608688639586,0.004727206478955571,0.9916296205916661
2014-06-18,1,0.0016431079799202706,0.002045517632610591,-0.004830636058425595,0.0014272672569248313,0.990798664866927
2014-06-20,1,0.001134301545500285,0.001464221883917885,-0.004830636058425595,0.0042391272958756466,0.9911922379904315
2014-06-24,1,0.0013139919720741241,0.0016721855161179317,-0.005426391277582027,0.004161625417871834,0.9903072927749017
2014-06-26,1,0.00043423798747273143,0.0005747359493095286,-0.005426391277582027,0.011560865727380729,0.9848805725228347
2014-06-30,-1,-0.0003669918326488084,-0.00033052629851965256,-0.005426391277582027,0.011560865727380729,0.9853022046754747
2014-07-02,-1,-0.0004320202847403632,-0.00041010306672692985,-0.005426391277582027,0.010136113470684733,0.9854988114926441
2014-07-07,-1,-0.00011279127219315487,-4.958649663322758e-05,-0.005426391277582027,0.010136113470684733,0.984754956040216
2014-07-09,1,0.0001626625969872707,0.0002754619387499238,-0.005426391277582027,0.010136113470684733,0.9848654197836471
2014-07-11,1,0.00036535292067782103,0.0005401627191025943,-0.005739519438265296,0.010136113470684733,0.984684925948476
2014-07-15,1,0.0006665967122787685,0.0008885553401509932,-0.005739519438265296,0.009071315130828402,0.9853357883757646
2014-07-17,-1,-0.00015374275396723593,-7.78762885660775e-05,-0.00523113034332521,0.009071315130828402,0.9857479131277295
2014-07-21,1,0.00031052280966824763,0.00046751752728025557,-0.0037898283407327323,0.007090881182724934,0.9862831178057719
2014-07-23,0,-8.326402332607148e-05,2.595140713618232e-05,-0.0020389419666954236,0.006736689714387023,0.987062607497683
2014-07-25,1,0.0037769022622129037,0.004439628251411927,-0.0030916602642628802,0.004589951557915209,0.9935014031925102
2014-07-29,1,0.0029224460240751416,0.0034664359463523566,-0.0001267312899442626,0.0056310033603744385,0.9950610748738914
2014-07-31,1,0.0027855027757763993,0.003277986229773177,-0.0002688488864591777,0.004965039196596221,0.9948567320021984
2014-08-04,1,0.0028868554654796082,0.003385408062284149,0.0003192719782481497,0.004965039196596221,0.9964676110831462
2014-08-06,1,0.003273332458906491,0.003831909896594912,-0.0002688488864591777,0.005406624772041854,0.9960211614369441
2014-08-08,1,0.0028971563294118595,0.0033435359717765385,-0.0002688488864591777,0.005406624772041854,0.9959548819242555
2014-08-12,1,0.0029917275378401323,0.003447822648967983,-0.0019577647902255667,0.005865127705313878,0.9947891593124399
2014-08-14,1,0.003144874263083022,0.0036095514027942423,-0.003917835542975394,0.005406624772041854,0.9944264169152226
2014-08-18,1,0.0037126577750811844,0.0042906934432312,-0.0066604311868916095,0.005406624772041854,0.993644194356766
2014-08-20,1,0.00394982753287598,0.004562940101705626,-0.0066604311868916095,0.0036984951856599106,0.9935869586776149
2014-08-22,1,0.0039535853020635165,0.004580509052067646,-0.0066604311868916095,0.0036984951856599106,0.9933920844747405
2014-08-26,1,0.0035538778043832844,0.004032021940623941,-0.0066604311868916095,0.0030827489784190343,0.9929551387565955
2014-08-28,1,0.002725210914506819,0.003059656102530244,-0.0066604311868916095,0.0032706754517964265,0.9933483574797292
2014-09-02,1,0.00327065895851159,0.003708598397325156,-0.0066604311868916095,0.0030827489784190343,0.9928309988365067
2014-09-04,1,0.0022972369432791746,0.0025112725672543903,-0.0066604311868916095,0.0030827489784190343,0.9921308445209849
2014-09-08,1,0.002408359577763771,0.0026717956312964234,-0.005709870874779433,0.003198291957245149,0.9919859686906554
2014-09-10,1,0.002484138884342994,0.002784550772284047,-0.005709870874779433,0.003198291957245149,0.9914915218098982
2014-09-12,1,0.002163691223981551,0.0024211116503759507,-0.011285407491901241,0.003198291957245149,0.9898508166847457
2014-09-16,1,0.001363460346940978,0.0014483777611538537,-0.007701235970694074,0.0029262733588098565,0.9903185841602719
2014-09-18,1,0.00043829104915330024,0.0005460100103737342,-0.010524407862477294,0.004964419194833098,0.989869428313109
2014-09-22,1,0.00020896527847140807,0.0003349612395924135,-0.010524407862477294,0.009707013572236734,0.9889938752920141
2014-09-24,1,0.0011342218095827445,0.0011559402824453814,-0.014689421414774136,0.009707013572236734,0.9872341766300065
2014-09-26,1,0.00010934334418293468,0.00025159070835346225,-0.010524407862477294,0.01794946062556111,0.9855511095435344
2014-09-30,-1,-0.00033123564951930546,-0.00012966875371779162,-0.010524407862477294,0.01794946062556111,0.9854945769423306
2014-10-02,1,0.00035489419389506105,0.0004334749066559327,-0.006222202601297595,0.01289583066457346,0.9869861624813508
2014-10-06,1,0.00036223443361753306,0.0004442788524203266,-0.006222202601297595,0.01666100832673889,0.9866261339535667
2014-10-08,1,0.0003018958003849875,0.00041257612438125085,-0.006222202601297595,0.012734182618498692,0.9873407282688023
2014-10-10,-1,-0.0015573049924387683,-0.0012341061046345914,-0.0033917479420874624,0.012734182618498692,0.9884575875609832
2014-10-14,-1,-0.0013023220321436951,-0.0010285128800641002,-0.0038226771023926673,0.012734182618498692,0.9876700812585035
2014-10-16,-1,-0.0007594389836927883,-0.0005730398599016592,-0.0029490179803466038,0.012527875089278748,0.9883458207693179
2014-10-20,1,0.0002649328953848779,0.0003229194580060604,-0.0029490179803466038,0.010017415437481697,0.9894655899898886
2014-10-22,-1,-0.0004509036498447171,-0.0002963127467267999,-0.0029490179803466038,0.008511154368316188,0.9908644222263895
2014-10-24,1,0.0015566824117502855,0.0016467369723284248,-0.0029490179803466038,0.007294875910868674,0.9935195962737042
2014-10-28,1,0.002213616111631422,0.0024180806065201557,-0.0038226771023926673,0.007294875910868674,0.9931855756927038
2014-10-30,1,0.001999626784634198,0.0021737560463906333,-0.0029490179803466038,0.007294875910868674,0.9934678584779274
2014-11-03,1,0.0019443589795139818,0.0020835099024860606,-0.0036478865941304986,0.006214421661471052,0.9931051715183479
2014-11-05,1,0.001995510831684558,0.0021596549388057766,-0.0017257159490190984,0.0060830624587563525,0.9937320351730516
2014-11-07,1,0.0022709647319641858,0.0024847814590132824,-0.0043302668348225845,0.005730650631220866,0.9926822072100339
2014-11-11,1,0.0017578708684019677,0.0018558709065017067,-0.0043302668348225845,0.003924470350639397,0.9928188693481285
2014-11-13,1,0.0018777152063953343,0.0019959119462633736,-0.006824394001839366,0.003924470350639397,0.9921149104669998
2014-11-17,1,0.0018442191478036057,0.0019457179943304895,-0.009833907349452033,0.0029697766598788923,0.991096245564903
2014-11-19,1,0.0002423547638853291,0.00041139990421186034,-0.008667389612804909,0.005730650631220866,0.9912943845309738
2014-11-21,1,0.0006919273840574603,0.00078847359978495,-0.008667389612804909,0.0059194984078385655,0.9906044088414503
2014-11-25,1,0.00042919041407387277,0.0005644146885472256,-0.008667389612804909,0.0042357514188219045,0.9910229103023095
2014-11-28,1,0.0004147015385573174,0.0005553947230207078,-0.009726084867282242,0.005523113415771738,0.9903126341866708
2014-12-02,-1,-0.0006725454473233649,-0.0003892862820537681,-0.008667389612804909,0.005523113415771738,0.9910649157541237
2014-12-04,-1,-0.00047719852997480175,-0.00022647226597493665,-0.009726084867282242,0.0038602539612093336,0.9904112481880512
2014-12-08,-1,-0.002334932356226756,-0.0018283747891153037,-0.009726084867282242,0.0059447962470201,0.9906535375156496
2014-12-10,-1,-0.0026868861651913626,-0.0021466034902709735,-0.008667389612804909,0.009493148559623065,0.9894670043156159
2014-12-12,-1,-0.002917768461751801,-0.002317234906823995,-0.00893477818842644,0.008149472936557513,0.9901175219083074
2014-12-16,-1,-0.001344881939088196,-0.0011436366252828218,-0.009614213299337883,0.008149472936557513,0.9902183437831761
2014-12-18,-1,-0.0007522199632113803,-0.0005593846577420422,-0.009614213299337883,0.005882508188004972,0.990484674429245
2014-12-22,0,-1.1303097271486164e-05,8.94403286341264e-05,-0.009614213299337883,0.004091378950052988,0.9910618545409384
2014-12-24,0,-7.847302532632531e-05,1.801593173438368e-05,-0.010528250594146832,0.005882508188004972,0.9898522539212941
2014-12-29,-1,-0.00029598106264555114,-0.0001878386291735805,-0.010630508955952462,0.004826271179898792,0.9894215412214902
2014-12-31,-1,-0.000995290830922715,-0.00079940900829919,-0.010630508955952462,0.00740852819629302,0.9896992756981912
2015-01-05,-1,-0.0013878964695436358,-0.0011538709951550243,-0.009962357835485674,0.008965778645124501,0.9880658404340054
2015-01-07,-1,-0.0015122061320062144,-0.0012788905144305246,-0.009614213299337883,0.008778914468079116,0.9889415391059985
2015-01-09,-1,-0.0002531781774287053,-0.00018501060284975887,-0.009614213299337883,0.0104673892324404,0.98724602124338
2015-01-13,-1,-0.00054738894906319,-0.00045761805445227523,-0.008994771879696486,0.0104673892324404,0.9874131748354334
2015-01-15,-1,-0.0013962293876400426,-0.00120324328164535,-0.004885432615387149,0.011174365901486516,0.9872651455324737
2015-01-20,-1,-0.0005518421507544467,-0.0004872633180576021,-0.0032217690410902802,0.0104673892324404,0.98841489079095
2015-01-22,-1,-0.0006623064916611949,-0.0005621525929049517,-0.0008392964289195003,0.011174365901486516,0.9876730671464913
2015-01-26,-1,-0.0007814517252570309,-0.0006871031913059935,-0.0008392964289195003,0.010787651894237612,0.9884562943982194
2015-01-28,-1,-0.001864186730922313,-0.0016409166333239372,0.001539576762563258,0.010787651894237612,0.9883832556604937
2015-01-30,-1,-0.0016620720654444876,-0.0014553372134024868,0.001539576762563258,0.010787651894237612,0.9880124440625736
2015-02-03,1,0.00013345673150300322,0.00013601073902533883,-0.0008955980901364458,0.007495700746004081,0.9909689700790477
2015-02-05,-1,-0.0003223559671836808,-0.0002515600820349154,-0.0008955980901364458,0.00914513212200791,0.9903528172347843
2015-02-09,1,0.0015122530025092088,0.0016647496046764648,-0.004066446484029553,0.007075354750890545,0.9926375875714191
2015-02-11,1,0.0016289407332778603,0.0017927842632142234,-0.004066446484029553,0.007495700746004081,0.9921909499972138
2015-02-13,1,0.00195442508299587,0.0021449934112716235,-0.004066446484029553,0.007075354750890545,0.9925834299154083
2015-02-18,1,0.0023176750423569226,0.002579842713022154,-0.004066446484029553,0.007492570493852985,0.9922071307681243
2015-02-20,1,0.0026652213208849477,0.002944073910451186,-0.004877879178291289,0.007172869730116922,0.9920954202790488
2015-02-24,1,0.0024502266178943453,0.002679089413398437,-0.004873583124647048,0.00778824568368321,0.9916775070443036
2015-02-26,1,0.002755651281247987,0.003032548743538095,-0.00787460126689678,0.00778824568368321,0.9907738139751098
2015-03-02,1,0.0026249880506589137,0.0028879181744803258,-0.004873583124647048,0.009720944253323843,0.9905243300384996
2015-03-04,1,0.002117752419429383,0.002323913725678106,-0.0039114415834857405,0.009720944253323843,0.9908055733943013
2015-03-06,1,0.0012285628614568977,0.001239437745587643,-0.0029217360618694352,0.007974460016921018,0.9913443407493988
2015-03-10,1,0.0003440203490624695,0.000463050246511918,-0.0017174101265121295,0.009720944253323843,0.9922345518850669
2015-03-12,1,0.0009838629159134148,0.0010165333577157143,-0.0017174101265121295,0.008203198962402227,0.9926735998668228
2015-03-16,1,0.0014286049773454214,0.0014927872621929821,-0.0018182669954354249,0.008203198962402227,0.9929323417030916
2015-03-18,1,0.0014856708811073634,0.0015365243667652836,-0.0018182669954354249,0.005276778540975439,0.9936954776348139
2015-03-20,1,0.0019548782635307837,0.002174740926274572,-0.0018182669954354249,0.00503695203346624,0.9930607282961363
2015-03-24,1,0.0028096021572865523,0.00316507619316789,-0.0018182669954354249,0.004862397536543249,0.9935541040187685
2015-03-26,1,0.002058989107476133,0.002306698981379464,-0.001238318317619084,0.00674121808247799,0.9925976567852943
2015-03-30,1,0.002754139297681058,0.003106269878313631,-0.0018609112025692984,0.004360518285077159,0.9931352409858345
2015-04-01,1,0.002451142387534861,0.002756901172800821,-0.004748294066586355,0.004360518285077159,0.9926006215648281
2015-04-06,1,0.0024617614920183026,0.0027781903397627733,-0.004748294066586355,0.005003601135512081,0.9924042864903487
2015-04-08,1,0.0026185413660570252,0.002951544329607407,-0.008989553686338057,0.005003601135512081,0.9913982678530702
2015-04-10,1,0.0027790377744681006,0.0031390299232603005,-0.008989553686338057,0.005639268642102051,0.9913408005680369
2015-04-14,1,0.002676972456536925,0.0030291847916455545,-0.008989553686338057,0.005639268642102051,0.9912937660283656
2015-04-16,1,0.002456772003966406,0.0027460439100687804,-0.008989553686338057,0.005639268642102051,0.991240237974646
2015-04-20,1,0.002005255174567533,0.0022457389847690347,-0.00572329393893994,0.005871247834669689,0.9923648208859173
2015-04-22,1,0.0021426673612928654,0.002397582052752115,-0.00572329393893994,0.004713611052909314,0.9922537429081444
2015-04-24,1,0.0012120474114499973,0.001347373534586672,-0.004193723977083034,0.004296976425359243,0.9943180766241574
2015-04-28,1,0.0009209715728208895,0.000983816924737348,-0.004193723977083034,0.004508865594222566,0.9934310951295026
2015-04-30,1,0.00040406143524507364,0.0004042867300861788,-0.004193723977083034,0.004508865594222566,0.9932723093090148
2015-05-04,1,0.00020858975496297464,0.00027691402081484406,-0.005366910303236924,0.004209473564479413,0.9931770847736459
2015-05-06,-1,-0.0004247676872132082,-0.0002679429255311681,-0.0042699218887031504,0.004209473564479413,0.9940260778470082
2015-05-08,-1,-0.0002010660674810397,-7.5949104376595e-05,-0.005366910303236924,0.003171075352976326,0.993933715694277
2015-05-12,-1,-0.0008120984586029385,-0.0005762656170337926,-0.007432088685769296,0.004209473564479413,0.9929180365139069
2015-05-14,-1,-0.0001477098319508473,-3.402363629818894e-05,-0.007432088685769296,0.0043065548120225505,0.9928271221569852
2015-05-18,1,0.00023545737315437587,0.00028357559591449456,-0.007432088685769296,0.0043065548120225505,0.992351764802688
2015-05-20,0,-6.932458504849538e-05,2.2640916417235432e-05,-0.007432088685769296,0.007515349317995131,0.9914315098519032
2015-05-22,-1,-0.00014395037201520207,-3.141457967586407e-05,-0.007432088685769296,0.007515349317995131,0.9911767209184373
2015-05-27,-1,-0.0004866100692402578,-0.00031065263698133873,-0.007432088685769296,0.005287908374264598,0.9919851812253432
2015-05-29,-1,-0.0014033320918839705,-0.0011022511422298788,-0.006893063597423291,0.005287908374264598,0.992856995882759
2015-06-02,-1,-0.0019445975950030479,-0.0015697673729795133,-0.006893063597423291,0.005979568172293747,0.9921881972488691
2015-06-04,-1,-0.0013991937518017914,-0.001123020915831031,-0.006893063597423291,0.005979568172293747,0.9912759673416114
2015-06-08,-1,-0.0019454814174422192,-0.0015872331735152046,-0.006796766388485684,0.005979568172293747,0.9914099845677631
2015-06-10,-1,-0.0019699074135542663,-0.0015809267642910001,-0.006796766388485684,0.005979568172293747,0.9909981886820459
2015-06-12,-1,-0.0018148804339613658,-0.0014573345310988162,-0.006796766388485684,0.009006154998531187,0.989725042585053
2015-06-16,-1,-0.0018094772588453088,-0.0014528669416851848,-0.005609428403329328,0.008361531171995068,0.9901231801439434
2015-06-18,-1,-0.0014503252358163893,-0.0011174667721869942,-0.005609428403329328,0.0066816418186255114,0.9909142782085447
2015-06-22,-1,-0.002213239646855717,-0.0017466438266898322,-0.005609428403329328,0.00841002255925627,0.9905431399396037
2015-06-24,-1,-0.0027300887836352182,-0.0022052022680604795,-0.0023773675106433956,0.010467752110990361,0.9900023793672889
2015-06-26,-1,-0.0021999410979816384,-0.0017974937783619496,0.0004504286464771996,0.011616410413492168,0.988770469637557
2015-06-30,-1,-0.0029243944784713835,-0.0024245685723617598,0.00155469087295592,0.012315651144783514,0.9877360245962287
2015-07-02,-1,-0.0015354900372602101,-0.001274376481448672,0.00155469087295592,0.011616410413492168,0.9896903067764132
2015-07-07,-1,-0.001339958156451378,-0.0011096948194653559,0.00155469087295592,0.011616410413492168,0.9897556490103978
2015-07-09,-1,-0.0014457342098319463,-0.0012277554195523734,0.00155469087295592,0.010539461963951533,0.9910433665607988
2015-07-13,-1,-0.0004991923286273533,-0.0004008878250711864,0.00155469087295592,0.007919416218486684,0.9924793640189468
2015-07-15,-1,-7.727813109528959e-05,-5.5442914843405216e-05,-0.0014441935760970406,0.007919416218486684,0.9924311938138922
2015-07-17,1,0.00023989430596519984,0.00026087351122161523,-0.001554433700105819,0.00717073066815129,0.992685286422194
2015-07-21,1,0.00039910586955325446,0.000458366513261926,-0.001554433700105819,0.0067280313195229,0.9932319378698181
2015-07-23,1,0.0006922772502395448,0.0007841467363762147,-0.003831661925897291,0.006635615917037411,0.9926655972111538
2015-07-27,1,0.0013114325227152014,0.0014591487175471857,-0.005283751318374064,0.004630916792786214,0.9915941757957657
2015-07-29,1,0.0018280624915846472,0.002051551312702604,-0.005283751318374064,0.003645895675430148,0.9915773255584361
2015-07-31,1,0.0015661136022325965,0.0017252548791209144,-0.005283751318374064,0.003645895675430148,0.9905493547916753
2015-08-04,1,0.0017749929449310776,0.0019859649151854316,-0.007552086189892469,0.0030016823491153906,0.9885804660936995
2015-08-06,1,0.00152002006448768,0.0017018088578200107,-0.007552086189892469,0.004630916792786214,0.9880548885855978
2015-08-10,1,0.0016162794191848496,0.001823960658984255,-0.010608515020270581,0.003758195000096759,0.9867915376357067
2015-08-12,1,0.0013495078635546718,0.0015117442145502103,-0.010608515020270581,0.0075244842343438634,0.9868878973925307
2015-08-14,1,0.001632353347024042,0.001859118803476674,-0.010608515020270581,0.006567095130689064,0.9869992079772286
2015-08-18,1,0.0012843151092624947,0.0014422584424688275,-0.010608515020270581,0.010994127309710859,0.9864867351300329
2015-08-20,1,0.0010532618093253422,0.0012156141038397658,-0.00793817497382133,0.010994127309710859,0.9872823755667085
2015-08-24,1,0.00014060028738014328,0.00016980901212625883,-0.005136307756213387,0.014281495947341566,0.9879140780186292
2015-08-26,1,0.0008245896811007146,0.0009454713681409104,-0.00793817497382133,0.010994127309710859,0.988942822024752
2015-08-28,1,0.0011923384215425316,0.0013748342563849182,-0.008891180420933712,0.007343449088311777,0.988947443758394
2015-09-01,1,0.0003643020631119077,0.0004426623800413362,-0.00504017851082888,0.010994127309710859,0.9890326634420833
2015-09-03,1,0.0009464179687739692,0.0010990449555957106,-0.00504017851082888,0.012536144575429288,0.988511663230551
2015-09-08,1,0.001212913281098888,0.0014123377392835797,-0.00504017851082888,0.012536144575429288,0.9880554800423845
2015-09-10,1,0.0011120679899517601,0.0012738371464401062,-0.00504017851082888,0.014295028187294636,0.9877688771547871
2015-09-14,1,0.001316269223490167,0.001513351955613877,-0.00504017851082888,0.014295028187294636,0.9877980948224805
2015-09-16,1,0.0014201477618795634,0.00157756545464606,-0.008058678420124121,0.01325124752682111,0.9878635829751418
2015-09-18,1,0.0011574282541576934,0.0012852989325214904,-0.005438182624068201,0.01325124752682111,0.9881854248505284
2015-09-22,1,0.000740474957537035,0.0007792273320359592,-0.00345548784800756,0.011383754416204619,0.9890286099860338
2015-09-24,1,0.0009202008925355135,0.0010043867643737916,-0.00345548784800756,0.012330810692311619,0.9883319738671577
2015-09-28,-1,-0.0003566494725952484,-0.00025055283719835407,0.0017439393040110313,0.013902244893403817,0.9859744335299372
2015-09-30,1,0.0012355588749223961,0.001335397699123571,-0.0007042057455766361,0.01291981184503532,0.9877221941901076
2015-10-02,1,0.002132016894130925,0.0023427844350467388,-0.002287952610781127,0.011526347419911457,0.9894252214191531
2015-10-06,1,0.0018369099091450816,0.0020147311305540668,-0.002287952610781127,0.011526347419911457,0.9902960273354791
2015-10-08,1,0.002589022556041231,0.0028736077603164277,-0.002287952610781127,0.006392880202439834,0.9910057357659552
2015-10-12,1,0.0025229055648304487,0.00278289607112156,-0.004402134571661303,0.011526347419911457,0.9896285816172347
2015-10-14,1,0.0020922876440626656,0.002299668011693077,-0.0017949138960334711,0.011526347419911457,0.9898850212639361
2015-10-16,1,0.002138548157741339,0.0023475739969185195,-0.004532834908144956,0.011526347419911457,0.9893125625963063
2015-10-20,1,0.002052478798343026,0.002202234023689336,-0.004532834908144956,0.01291981184503532,0.9885946033301081
2015-10-22,1,0.0015975173869819043,0.0016599298137177673,-0.0023315193896090115,0.013526562696755137,0.9885852850580127
2015-10-26,1,0.0033544472009638003,0.0036448073725599693,-0.0023315193896090115,0.013526562696755137,0.9898425376685076
2015-10-28,1,0.0032114408342321277,0.0034563183854040827,-0.0023315193896090115,0.010907852181727445,0.9894882391552615
2015-10-30,1,0.002984735811279184,0.0032164427255822496,-0.0018448732548076339,0.010907852181727445,0.989667879173898
2015-11-03,1,0.002864234716699208,0.0030753875451773297,-0.0018448732548076339,0.011154682440286248,0.9892504175148348
2015-11-05,1,0.0028106184761479904,0.0030128070633754934,-0.0018448732548076339,0.015243298209986256,0.9877665940973683
2015-11-09,1,0.0029347336078752923,0.003187542420663743,-0.0018448732548076339,0.01288148179663104,0.9887159432375255
2015-11-11,1,0.0031565651213637915,0.003419560527834056,-0.005060101964014699,0.01288148179663104,0.9879736067317355
2015-11-13,1,0.0023123829464131683,0.002424371671978099,-0.005060101964014699,0.01288148179663104,0.9874803047624826
2015-11-17,1,0.0028042331148306833,0.002965121197535302,-0.005060101964014699,0.011923427980387556,0.98798758801677
2015-11-19,1,0.0032782705038571893,0.0034523055577899073,-0.01427443817570251,0.01013363464732175,0.9868327295860314
2015-11-23,1,0.004243660356551363,0.004560715675842653,-0.01427443817570251,0.008966123302339304,0.9884201605440529
2015-11-25,1,0.003930814792052772,0.004208133153893929,-0.00855798965868525,0.005398970992799891,0.989590704690754
2015-11-30,1,0.003362256277617405,0.0035167357485700827,-0.00855798965868525,0.008983873105748606,0.9896870520086899
2015-12-02,1,0.0034858031259570846,0.003701454462097291,-0.007286523048711455,0.005398970992799891,0.9900946571839373
2015-12-04,1,0.004616701165204058,0.004959902729370563,-0.014464067753232345,0.0015964820009799594,0.9872072481017599
2015-12-08,1,0.0042475435940595805,0.004549794707178624,-0.014464067753232345,0.0015964820009799594,0.9872337547886108
2015-12-10,1,0.003395663553608219,0.003573510839971417,-0.017072200160156613,0.0015964820009799594,0.9871552677086237
2015-12-14,1,0.0027271203888834094,0.0028346345889544325,-0.0180368738052665,0.0030399737268712503,0.9861735804707954
2015-12-16,1,0.0032785506391748882,0.0034936587403130073,-0.019879067471181778,0.0015964820009799594,0.9849853068125809
2015-12-18,1,0.0023171778159948725,0.002475954535903418,-0.011263732478616046,0.0030399737268712503,0.9871891715250718
2015-12-22,1,0.002709164791712626,0.002917368243562541,-0.011263732478616046,0.0015964820009799594,0.9862823632005513
2015-12-24,1,0.0025092136865523637,0.0026888530201252354,-0.011263732478616046,0.002118300892839055,0.9858175324116057
2015-12-29,1,0.0025552111482276194,0.0027225236201265397,-0.011263732478616046,0.0004106741646826694,0.9844180356078273
2015-12-31,1,0.002012558107610835,0.0021212827388554425,-0.018679942385107156,0.001674508072230943,0.9845308652400577
2016-01-05,-1,-0.0005604365841233998,-0.0003383833690788309,-0.010510064357880138,0.005310997328375053,0.9868413745355612
2016-01-07,-1,-0.000717734751821251,-0.0004803264992252202,-0.017676866167484744,0.007984475060169798,0.9859915865370589
2016-01-11,-1,-0.0019918073852687856,-0.0015913883702704228,-0.017676866167484744,0.010933360876840376,0.9845546920478184
2016-01-13,-1,-0.003811006502427379,-0.0031612819668702637,-0.010233586842699198,0.010933360876840376,0.986202572977135
2016-01-15,-1,-0.005459571681449588,-0.004521187988646822,-0.0065858189961276355,0.016687357758392127,0.9828691051940092
2016-01-20,-1,-0.005028874696186099,-0.0041931374099333975,-0.008431047177346607,0.019365240421966908,0.9818928838642706
2016-01-22,-1,-0.004108102986825236,-0.0034086209133725167,-0.008431047177346607,0.023260572528973938,0.9807632512335217
2016-01-26,-1,-0.0053128584703202066,-0.0043883276673715565,-0.011992769656246027,0.023260572528973938,0.9799983359081575
2016-01-28,-1,-0.003951920412356749,-0.0032265361656998656,-0.011992769656246027,0.019338542137501375,0.9801304135242774
2016-02-01,-1,-0.004856922875693749,-0.004018656120451418,-0.011689014581266487,0.023260572528973938,0.9783890259798511
2016-02-03,-1,-0.004529600214988049,-0.003738073386900646,-0.0020824549735975993,0.019338542137501375,0.9795219615818127
2016-02-05,-1,-0.004911354086324123,-0.004082744934616172,-0.0020824549735975993,0.019338542137501375,0.979817044173847
2016-02-09,-1,-0.005899855788893469,-0.004990690416348498,-0.003791760063161345,0.019338542137501375,0.9820425522254411
2016-02-11,-1,-0.005411957519712695,-0.004536991446383353,-0.003791760063161345,0.019338542137501375,0.9825561459305916
2016-02-16,-1,-0.002908711491292585,-0.0023153669300283062,-0.007004004851234679,0.012819697511184695,0.9867064982137898
2016-02-18,-1,-0.002852833565889238,-0.002253386989033053,-0.002792726506611375,0.012432554210909792,0.9872494416279953
2016-02-22,-1,-0.002221946592324022,-0.0016259532037226222,-0.007004004851234679,0.011826835687622902,0.9890608476786044
2016-02-24,-1,-0.0017222754486680982,-0.0012622336428766482,-0.005362455126371061,0.011826835687622902,0.9897831410893926
2016-02-26,1,0.00015882291060383277,0.00033246767758915446,-0.006716616189577519,0.008670327401393226,0.9910752733804498
2016-03-01,1,0.0005335409760550294,0.0006770667340464437,-0.005362455126371061,0.007676698445912048,0.9930062676903827
2016-03-03,1,0.0014136499853554673,0.0014171255634370052,-0.006716616189577519,0.007676698445912048,0.9924764661444512
2016-03-07,1,0.0009502497982275299,0.0010012281011454276,-0.006716616189577519,0.007676698445912048,0.99276354307665
2016-03-09,1,1.570317066576358e-05,0.00020666567349886353,-0.005362455126371061,0.008670327401393226,0.992644713015775
2016-03-11,1,0.0006080166733904007,0.0007260406933115804,-0.006397668669855472,0.007676698445912048,0.9928794970302862
2016-03-15,1,0.0008252771996225066,0.0008967871253342225,-0.005851067593112563,0.007684145672277073,0.9928120911096577
2016-03-17,1,0.001047502783329002,0.0011081224764136655,-0.005851067593112563,0.00587690743643294,0.992934111567655
2016-03-21,1,0.0016002875842858512,0.0017347363847855367,-0.005851067593112563,0.007684145672277073,0.9927437178043593
2016-03-23,1,0.0017063440929408337,0.0018653117338182452,-0.007809724416768435,0.006060441343722245,0.9927297702631661
2016-03-28,1,0.001263509468537595,0.0013472435997624213,-0.005851067593112563,0.007252150128577966,0.9930797855802047
2016-03-30,1,0.001746694065499301,0.0018969007025827337,-0.005851067593112563,0.00602850098562379,0.993304464292296
2016-04-01,1,0.0017835501990617825,0.0019434500953163193,-0.005851067593112563,0.0035107770636698464,0.9926415168995117
2016-04-05,1,0.0012840224001383887,0.001369939699267846,-0.005851067593112563,0.00602850098562379,0.9918840757225761
2016-04-07,1,0.0018432115191138617,0.0020339115849563084,-0.007809724416768435,0.0035107770636698464,0.9908141120044377
2016-04-11,1,0.001229326751904785,0.0013088011412117862,-0.00820258178976874,0.00602850098562379,0.9905838162732827
2016-04-13,1,0.0019405804986982684,0.0021707358949608407,-0.008807499058955963,0.00602850098562379,0.9900659050724857
2016-04-15,1,0.0021694353934125763,0.002493555813013925,-0.008807499058955963,0.00602850098562379,0.9904446348939531
2016-04-19,1,0.002788279390865682,0.0032706294657124683,-0.008807499058955963,0.005214476051575364,0.990093059931322
2016-04-21,1,0.002569911048355424,0.0030100661098902354,-0.00959220562270526,0.003371847506193229,0.9902051109339983
2016-04-25,1,0.002898446737178052,0.003380404015128345,-0.00959220562270526,0.0028870445118748212,0.990214669524532
2016-04-27,1,0.0029433859509243685,0.003430641690867692,-0.00959220562270526,0.0036211375111435233,0.9895410537727388
2016-04-29,1,0.0022279882034782514,0.0027050924824810647,-0.00846415064435184,0.0051410347687703695,0.9916059188802242
2016-05-03,1,0.0028044240974106787,0.003345302181172532,-0.006616879950732674,0.0051410347687703695,0.9926283641502934
2016-05-05,1,0.001444333668016434,0.0017715586178072703,-0.004242253174643499,0.0051410347687703695,0.9939421381192162
2016-05-09,1,0.0011885621993610123,0.0014414309910092417,-0.002857745405371763,0.0036211375111435233,0.9946728896978088
2016-05-11,1,0.0014831719032883711,0.0017996282509907275,-0.0014083073335851353,0.0026455575946753565,0.9957433812900434
2016-05-13,1,0.0007894856808194316,0.0009321836561741548,-0.0035099422452235427,0.0026455575946753565,0.994820828786328
2016-05-17,1,0.0005470224297665699,0.0006923915938803587,-0.0017980252221608288,0.0026455575946753565,0.9950221571610197
2016-05-19,1,0.0005025915271208982,0.000646038980754933,-0.0017980252221608288,0.0031475750137196805,0.9949796906977363
2016-05-23,1,0.0008556714951522141,0.0010695461251883673,-0.0017980252221608288,0.005504013907513799,0.9940204874776192
2016-05-25,1,0.0009888828212967524,0.001185815618758825,-0.0023514867765379852,0.005504013907513799,0.9939368103821952
2016-05-27,0,-4.683658609598606e-05,2.105949326261568e-05,-0.005984882508358547,0.0038868615912273996,0.9904373637420362
2016-06-01,0,-2.4705584812246374e-05,4.780798301843748e-05,-0.005984882508358547,0.010403118592344723,0.9885936819699407
2016-06-03,-1,-0.0011018502808412727,-0.0008495604437986731,-0.006224193415534134,0.015193230768311174,0.987160171998675
2016-06-07,-1,-0.0017613441005980156,-0.0013736607652667621,-0.013084358988539161,0.015193230768311174,0.9862072575013979
2016-06-09,-1,-0.0018842981327461224,-0.0014673613333219156,-0.013084358988539161,0.01646978439345461,0.9848105848437178
2016-06-13,-1,-0.0030435570843708954,-0.0024750877395605247,-0.010197634024133899,0.01646978439345461,0.9853825721705005
2016-06-15,-1,-0.002201782456687628,-0.0017516680182964241,-0.010197634024133899,0.015193230768311174,0.9859373986001951
2016-06-17,-1,-0.0025529994471184384,-0.002052818149069873,-0.008994800748418541,0.015193230768311174,0.9860525473923265
2016-06-21,-1,-0.0013208301891588473,-0.0010020170173581254,-0.008994800748418541,0.014668380182333126,0.9862788039009045
2016-06-23,-1,-0.0015389545396988313,-0.0011607420793915513,-0.013084358988539161,0.009525586974100416,0.9860749312973695
2016-06-27,-1,-0.004384743467014333,-0.003681318685961601,-0.007541065125592091,0.010108714850538807,0.9891845430049321
2016-06-29,-1,-0.002813631339853067,-0.0022738366743733146,-0.007541065125592091,0.005758169807240724,0.9912701849392203
2016-07-01,-1,-0.0035883300008861968,-0.002885950528872589,-0.007541065125592091,0.005758169807240724,0.9911863750772949
2016-07-06,-1,-0.004425306849883962,-0.003644573716848866,-0.006992297543541259,0.007571706656816324,0.9908677016714705
2016-07-08,-1,-0.0017984218291568043,-0.0014470619691127325,-0.007541065125592091,0.007399028443620992,0.9918732945708145
2016-07-12,-1,-0.0019489501125506549,-0.0015952660558003627,-0.007541065125592091,0.007399028443620992,0.9916139922705564
2016-07-14,-1,-0.0013352056612985152,-0.0011203963978498076,-0.007541065125592091,0.007399028443620992,0.991826292153538
2016-07-18,-1,-0.00216477539053192,-0.0018358095553899214,-0.009574595889072635,0.007399028443620992,0.9909567004102099
2016-07-20,-1,-0.001001641443963012,-0.000867380361024201,-0.012631523748014429,0.006019040561855574,0.9878526572902026
2016-07-22,-1,-0.0010019309222923248,-0.0009032946304387212,-0.011962964480500575,0.006019040561855574,0.9878723358994298
2016-07-26,-1,-0.0003801371452407603,-0.00037514794518953487,-0.011962964480500575,0.0037137202225324445,0.9880774866396994
2016-07-28,-1,-0.0003484411511901435,-0.00034215850675302194,-0.012842149274562089,0.006019040561855574,0.9872846883680186
2016-08-01,1,4.2179311924712124e-05,6.11645939427634e-05,-0.012842149274562089,0.0034872378042489736,0.9888600447124185
2016-08-03,1,6.91261396555702e-05,0.00012798806963568315,-0.010554931494057191,0.0020102806922913624,0.9898010788921066
2016-08-05,1,9.272832456050478e-05,0.00016227730675378012,-0.010554931494057191,0.003304108790563399,0.9876253392985421
2016-08-09,1,0.0005465719776623428,0.0007163181461080131,-0.012842149274562089,0.003304108790563399,0.9857768821213734
2016-08-11,1,0.00020014071096156243,0.0002915629050556946,-0.014362952944467131,0.003304108790563399,0.9845552245179517
2016-08-15,-1,-0.0010087076864720987,-0.0009574480348244873,-0.011318930609560959,0.005608316816774362,0.9848465641742468
2016-08-17,-1,-0.004363559256794989,-0.003915555108831495,-0.008852788012710893,0.008809048551683091,0.9868825533957936
2016-08-19,-1,-0.003923298633593901,-0.003560233332439931,-0.006742732880268575,0.005862049170558417,0.987767320602987
2016-08-23,-1,-0.0035035815995494855,-0.0031971259767419225,-0.006742732880268575,0.008832301710837397,0.9869882130004605
2016-08-25,-1,-0.0037519959746737256,-0.003402378115456585,-0.005747862192700138,0.007453229458793863,0.9876398514046417
2016-08-29,-1,-0.0035535833776628614,-0.0032543654370969606,-0.0045993612689264884,0.007453229458793863,0.9875241824322012
2016-08-31,-1,-0.003507331548872956,-0.003208975726247481,-0.006224747755040023,0.010326106018818573,0.9865880780484195
2016-09-02,-1,-0.0006412975846587244,-0.0005816149415041314,-0.006224747755040023,0.008135363289621726,0.9896030734960211
2016-09-07,-1,-0.001659831114546401,-0.00158014373460877,-0.006224747755040023,0.006451311892829096,0.9912811633361976
2016-09-09,-1,-0.0026582168833085605,-0.002469716330859981,-0.006011842579005863,0.006451311892829096,0.9917074496329233
2016-09-13,-1,-0.0022200974065712427,-0.002082632357938488,-0.006011842579005863,0.005452703651316686,0.992318571616927
2016-09-15,-1,-0.000843570498726327,-0.0007919538337143666,-0.007996720841126502,0.005452703651316686,0.9924967181208003
2016-09-19,-1,-0.0006585909502582911,-0.0005746768513259981,-0.007996720841126502,0.0062280872662414275,0.9922698180311801
2016-09-21,-1,-0.0003567255781168954,-0.0003082297485316155,-0.007996720841126502,0.005559686602366405,0.9928864869976154
2016-09-23,-1,-0.00026491286978054984,-0.00017751508763554194,-0.007996720841126502,0.006871276828242682,0.9895541038370814
2016-09-27,-1,-0.0007038735044815577,-0.0006651993917135778,-0.010492367181047301,0.006871276828242682,0.9888402474740082
2016-09-29,-1,-0.0007980924183181024,-0.0007522104887464816,-0.007996720841126502,0.006871276828242682,0.9888655079086882
2016-10-03,-1,-0.00036572366696957146,-0.00035179782834934375,-0.007996720841126502,0.007159939083541693,0.9865814728410878
2016-10-05,-1,-0.000735472184569632,-0.0007060387585028105,-0.011277782513942985,0.007159939083541693,0.9853698704936035
2016-10-07,-1,-0.0016281124082322873,-0.0014730290132307544,-0.008551526502974045,0.007159939083541693,0.9858089154321052
2016-10-11,-1,-0.0020710901253876775,-0.0018537655289208319,-0.007333999088667283,0.009105503847122064,0.9851898762019236
2016-10-13,-1,-0.0020299841453540134,-0.0018275771932417292,-0.007333999088667283,0.007420583210471723,0.9854116377737041
2016-10-17,-1,-0.0016295952656808221,-0.0014973922298341627,-0.008551526502974045,0.007420583210471723,0.9842843493696477
2016-10-19,-1,-0.0009910027399948696,-0.0009511692774363587,-0.008551526502974045,0.009505834531524315,0.9840890673501804
2016-10-21,1,0.001384475241595991,0.0016662147301008076,-0.01117303267753814,0.008230818012794306,0.985841300583922
2016-10-25,1,0.0005714267843214875,0.000728696852703303,-0.009925963348460442,0.008887407281585399,0.9864061286294964
2016-10-27,1,0.001185012315395583,0.001431911289789328,-0.009925963348460442,0.008887407281585399,0.986585513880659
2016-10-31,1,0.0024555174737099328,0.002876248533652533,-0.011661226784900978,0.007214440793825418,0.9875538012149967
2016-11-02,1,0.0008642231052814894,0.0010332368382063636,-0.011661226784900978,0.007214440793825418,0.9888483994002157
2016-11-04,1,0.0008350353215315656,0.0010363156944190593,-0.011661226784900978,0.01052569831299299,0.9885176629817465
2016-11-08,1,0.0014623335478092256,0.00173694582988751,-0.011661226784900978,0.008417127073085708,0.989750939807898
2016-11-10,1,0.0017025464399699943,0.0020584353518731694,-0.010030198807086436,0.01052569831299299,0.9897167439165279
2016-11-14,1,0.001014023538103947,0.0013031967040135891,-0.010030198807086436,0.01052569831299299,0.9895437417820963
2016-11-16,1,0.00022925947707075713,0.0002633928169062519,-0.010378899484563234,0.008417127073085708,0.9893329743295685
2016-11-18,1,0.001191528070959295,0.0014499598606587092,-0.01065857710563168,0.006746552753775186,0.9900208274709535
2016-11-22,1,0.0013490110719750592,0.0016488263677859017,-0.012808434268826547,0.007292649764244382,0.9891977603213861
2016-11-25,1,0.0014805477509452001,0.0017438863157215796,-0.013421413341624907,0.005270783458927228,0.9890649728169563
2016-11-29,1,0.0011578911680341576,0.0014433746976360126,-0.010863586716156757,0.005270783458927228,0.990303653352627
2016-12-01,1,0.00044828573774367256,0.0006269129336923586,-0.010787093682308405,0.005270783458927228,0.9904862008420287
2016-12-05,1,0.0012988588097131832,0.0015852657225788429,-0.010787093682308405,0.005270783458927228,0.9900381300850359
2016-12-07,1,0.0013595338456588559,0.0016248658097870647,-0.010787093682308405,0.011268220397393289,0.9892974108711569
2016-12-09,1,0.002360495719203818,0.0027826076674595506,-0.013195008878245167,0.01097814658195698,0.9882921627728156
2016-12-13,1,0.0013513011104430745,0.0016222042989989202,-0.010787093682308405,0.012287615423474908,0.989059226591447
2016-12-15,1,0.0010878910832995234,0.0013347213685128755,-0.007827947104572984,0.012287615423474908,0.9892131039523282
2016-12-19,1,0.0008571699967720445,0.0010839343512430168,-0.0037488536754681353,0.012287615423474908,0.9895978478755842
2016-12-21,1,0.0010746136625837432,0.001362205348861997,-0.0029788240676894206,0.01097814658195698,0.9911375684965765
2016-12-23,1,0.0004851821432316749,0.0006828158099215742,-0.0025960728040495835,0.01097814658195698,0.9913502083623337
2016-12-28,1,0.0007359964780639694,0.0009656192288172877,-0.0029788240676894206,0.01097814658195698,0.9913559437931247
2016-12-30,1,0.0004940741537035456,0.0006996512157985106,-0.0032498841904790984,0.01097814658195698,0.9913286017605342
2017-01-04,1,0.0017249842644711548,0.0020919344579291956,-0.0032498841904790984,0.009735885738217123,0.9922489861240035
2017-01-06,1,0.0018945722181243911,0.002213775419730549,-0.0032498841904790984,0.004715589727960977,0.9929698189624765
2017-01-10,-1,-0.0004285070625184552,-0.0003025550283043309,-0.0029788240676894206,0.004048743126902787,0.9947972085244384
2017-01-12,1,0.0004076420367185021,0.000440527924200755,-0.0029788240676894206,0.004048743126902787,0.9956199525048062
2017-01-17,1,8.614408473806934e-05,0.00015285975911307414,-0.0029092528073449177,0.004048743126902787,0.9957416717240737
2017-01-19,0,-7.561703214747554e-05,1.8044761798020165e-05,-0.0029110800381762824,0.00398004458913808,0.995406411347987
2017-01-23,-1,-0.0003991759187301459,-0.0002512772958550527,-0.002712028692223132,0.004733649903605104,0.9948723801584023
2017-01-25,1,6.97351649825217e-06,0.00011010184453049088,-0.0031766584684718656,0.003986064647686122,0.9950597410524104
2017-01-27,1,0.000739389430683545,0.0008118780614269763,-0.0033346812548072794,0.004733649903605104,0.9944779435450285
2017-01-31,1,7.616160992494358e-05,0.00010691352927233035,-0.0012995060746320629,0.005642144571144565,0.9939666438993601
2017-02-02,1,4.908585676966859e-05,0.00013584382713901277,-0.002712028692223132,0.0050194785919702055,0.9943623759187991
2017-02-06,1,0.00037733013797606324,0.00041116999116174395,-0.0036207310339131608,0.0047347236311404105,0.994294832322831
2017-02-08,1,0.0007481985437363971,0.0007963517289751331,-0.0036207310339131608,0.005645365753750483,0.9937481387343161
2017-02-10,1,0.0006819166109796244,0.0007202733314200934,-0.0036207310339131608,0.007634308278934787,0.9933497442354673
2017-02-14,1,0.0009139433859174751,0.0010181948955881748,-0.003279903021082997,0.008576965637405775,0.9931871367903556
2017-02-16,1,0.000468516468227225,0.0004998022413001894,-0.003279903021082997,0.008576965637405775,0.9927617468256578
2017-02-21,1,0.0009452980884296187,0.0010425230093208556,-0.003279903021082997,0.007948816079636298,0.9931777169598562
2017-02-23,1,0.0006110109789828879,0.0006476059195297811,-0.0017342909462129607,0.007948816079636298,0.9932270958476674
2017-02-27,1,0.0006896614444876749,0.0007480903685555088,-0.00232447587857941,0.006194500470482459,0.9939494429424534
2017-03-01,1,0.0010055548786239998,0.0010872293534464209,-0.00232447587857941,0.005672704255373057,0.9947915959678438
2017-03-03,1,0.0006139292845368916,0.0006234700717684705,-0.0016983715344948795,0.005672704255373057,0.9951539387692168
2017-03-07,1,0.00012429304250729373,0.00020734779916227648,-0.0016983715344948795,0.005830625526649131,0.9950633542697906
2017-03-09,1,0.00045060820475625006,0.0005003135502520137,-0.00232447587857941,0.005672704255373057,0.9953559156158224
2017-03-13,1,0.0008880134613417529,0.0008941468904646423,-0.00232447587857941,0.0044726391458031305,0.9959378707854798
2017-03-15,1,0.0011376815471016983,0.0011766530139118055,-0.0018614027157872494,0.0044726391458031305,0.9960558024045642
2017-03-17,1,0.0019303785009734268,0.0021791362249987643,-0.0018614027157872494,0.0044726391458031305,0.9961345817196092
2017-03-21,1,0.001560228849648562,0.0017168465042206693,-0.0023472271177307925,0.004686897595038936,0.9959705892802495
2017-03-23,1,0.0021093382644881,0.0023709343508189905,-0.0026251599388546253,0.003735942567710316,0.9957798910210889
2017-03-27,1,0.002702422498501614,0.0031131560399218854,-0.0020219942351721552,0.004309622280942651,0.9957134233360876
2017-03-29,1,0.0020030928402433165,0.0022396331490576503,-0.0030897870870761454,0.004309622280942651,0.9954623309432966
2017-03-31,1,0.0015753132355473946,0.0017327938843807015,-0.0030897870870761454,0.004885266877053422,0.9953152140575168
2017-04-04,1,0.0020279484696289272,0.0022846531108988827,-0.0030897870870761454,0.005596296929828406,0.9949551663104454
2017-04-06,1,0.0017146168297094942,0.0019083021777490396,-0.0030897870870761454,0.005596296929828406,0.9947569575721782
2017-04-10,1,0.0010458081837199647,0.0010853544895327463,-0.003552744982317125,0.005596296929828406,0.994658553853761
2017-04-12,1,0.001545333687533969,0.0016935323733507895,-0.0038673635109288014,0.005596296929828406,0.9935055795622927
2017-04-17,1,0.0018471002404901622,0.002032054410642057,-0.0038673635109288014,0.005596296929828406,0.9935020674704458
2017-04-19,1,0.0016108328112674024,0.001757748163473494,-0.0038673635109288014,0.005507346014742647,0.9927259503579358
2017-04-21,1,0.0017560148492054976,0.0019554767910952846,-0.0038673635109288014,0.007624047316059992,0.9926401946113704
2017-04-25,1,0.0015026014937176745,0.0016072999888421555,-0.004412866341501581,0.007494878456887911,0.9921680283707133
2017-04-27,1,0.0007353747208450592,0.000768199585700851,-0.0038673635109288014,0.008528094853451676,0.9919617257866346
2017-05-01,1,0.0015883307202669505,0.0017147336359363094,-0.00464212063192543,0.007494878456887911,0.9919569743183967
2017-05-03,1,0.0018541515654701035,0.002028686993879996,-0.005433061069931135,0.007494878456887911,0.991323348338104
2017-05-05,1,0.0016728715333823158,0.0018615981506874225,-0.004504687659647179,0.007494878456887911,0.9918512620705269
2017-05-09,1,0.0010046254656224099,0.0010556013798763745,-0.004971742340314448,0.007494878456887911,0.9918701640122515
2017-05-11,1,0.0007919366547929395,0.0007925952321493632,-0.004971742340314448,0.0072903628524522,0.9925960577290127
2017-05-15,1,0.0008374114613952013,0.000851247323035641,-0.005433061069931135,0.0065516125979113195,0.992415726982315
2017-05-17,-1,-0.00037872299865094586,-0.00020699723238092315,-0.004971742340314448,0.0065516125979113195,0.9931171752074526
2017-05-19,-1,-0.00019662548305463099,-2.8379341531850632e-05,-0.004971742340314448,0.006614427538542947,0.9930181266428366
2017-05-23,-1,-0.00037223803359162286,-0.0001872312455790979,-0.004971742340314448,0.006276678996472412,0.9930306419917423
2017-05-25,1,1.1891938884204742e-06,0.00016420502199670058,-0.004971742340314448,0.005605751569880115,0.9936381244648946
2017-05-30,1,0.0005020947109107991,0.0005543173316071081,-0.004971742340314448,0.0054791244532570475,0.993618127445151
2017-06-01,1,0.0012578710226983,0.0013377992172804117,-0.004408805336593723,0.0054791244532570475,0.994491763370263
2017-06-05,1,0.000522872247172119,0.0005927261529092792,-0.005118274411166544,0.005901703466247739,0.9937730134482724
2017-06-07,1,0.0009675488778222251,0.001006569214082064,-0.006078867413669447,0.005901703466247739,0.9932464085714247
2017-06-09,1,0.0006094693146544493,0.000637907944830578,-0.004663299326558633,0.0069986484928856,0.992887022742684
2017-06-13,1,0.00036880798766475724,0.0004330354503924664,-0.003143799243580241,0.009438609718769678,0.9929765233021637
2017-06-15,1,0.0005585093711218023,0.0006042940550961241,-0.003143799243580241,0.009438609718769678,0.9930116949463708
2017-06-19,1,0.0010792481471700657,0.0011158684120191695,-0.003143799243580241,0.009438609718769678,0.9931733049713972
2017-06-21,1,0.0008063813461476768,0.0008145706624275709,-0.002699773030848334,0.009438609718769678,0.993785106778953
2017-06-23,1,0.0006045454418975112,0.0006628383689461499,-0.002699773030848334,0.01013572613994048,0.9935641316462129
2017-06-27,1,0.00032195602843835007,0.0003828926869567077,0.0016497643826394403,0.010204892662082205,0.9932144164903917
2017-06-29,1,0.0007619288348190581,0.000768929876738379,0.0016907193762341426,0.010134957945676327,0.9938396240104327
2017-07-03,1,0.0007792227083446557,0.000786148478790193,0.0012357809503024872,0.009461665226150252,0.9930457157901121
2017-07-06,1,0.0002826393317551199,0.00035900444962920497,0.0012357809503024872,0.009461665226150252,0.9933896764686876
2017-07-10,1,0.0008472440955367324,0.000861197473763997,0.0003270879609537575,0.006908093888113499,0.9942453076417834
2017-07-12,1,0.0011021296351129942,0.0011084811740552968,-0.0005933301687293603,0.006908093888113499,0.9942353329510549
2017-07-14,1,0.0012171110239477553,0.00125549223266262,-0.0014095522271074003,0.006908093888113499,0.993457322060074
2017-07-18,1,0.001457677016702975,0.0015141750896865403,-0.003609511184573375,0.006908093888113499,0.9935227210976217
2017-07-20,1,0.0013895362904562556,0.0014306202513517203,-0.006304357504624925,0.007101450381267239,0.9926044768308898
2017-07-24,1,0.001869841393669186,0.0019977200451798474,-0.006304357504624925,0.006956672172652495,0.992719570158081
2017-07-26,1,0.002305642178124136,0.0024867149749915624,-0.006304357504624925,0.006956672172652495,0.9926137575331067
2017-07-28,1,0.002066800759376635,0.002192423245285578,-0.006304357504624925,0.006956672172652495,0.9925500164699752
2017-08-01,1,0.0011648566648740635,0.0011926726269342214,-0.003567520110662812,0.007627827930623805,0.993473444522951
2017-08-03,1,0.0017637967472956726,0.0018989971858521008,-0.003567520110662812,0.008050100607520816,0.9930406260459219
2017-08-07,1,0.0015450727739162416,0.0016571134618624112,-0.003567520110662812,0.008050100607520816,0.992744034309735
2017-08-09,1,0.001377780488175617,0.0014386077788183544,-0.0011514722894147601,0.007749825349636861,0.9931604451456584
2017-08-11,1,0.0007771307971241135,0.0007911430728346113,-0.00085405309185094,0.008050100607520816,0.9932825398354458
2017-08-15,1,0.0010546275160983247,0.0010996880598035904,-0.0022203152208844414,0.007749825349636861,0.9932714272693857
2017-08-17,1,0.000517774813442061,0.0005568288910818127,-0.00085405309185094,0.008050100607520816,0.9936265399403498
2017-08-21,1,0.000987317799780902,0.0010059162408268545,-0.00085405309185094,0.008050100607520816,0.9938050332859669
2017-08-23,1,0.0014603977353703052,0.0015323196761549273,-0.0012606794520985938,0.006932219384917805,0.9945751709572246
2017-08-25,1,0.0013858446490050027,0.0014420222393115305,-0.00440755164337771,0.006932219384917805,0.9935391757007722
2017-08-29,1,0.0012542166400375397,0.0012898293847738032,-0.0022203152208844414,0.007139060151479279,0.9936468900054454
2017-08-31,1,0.0017271461345408497,0.0018139635932436803,-0.0022203152208844414,0.006857117691710419,0.9940163448626884
2017-09-05,1,0.00124402349103655,0.0012774304111244723,-0.0012606794520985938,0.007572196417760825,0.9939953847606998
2017-09-07,1,0.0017414143721390645,0.0018577633259057418,-0.0012606794520985938,0.007572196417760825,0.9941707812388979
2017-09-11,1,0.001863153148848528,0.0019823810359808247,-0.001191118755348519,0.007572196417760825,0.9943976507146912
2017-09-13,1,0.0012940679497724997,0.0013268796723257784,0.00022480850953209063,0.007572196417760825,0.9941713280825558
2017-09-15,1,0.0016746876712306943,0.0017711953823868491,-0.001191118755348519,0.0067799524547286355,0.9945230198915567
2017-09-19,1,0.0016694776188773582,0.001736251724222168,-0.001191118755348519,0.005850727040716734,0.9947504143772637
2017-09-21,1,0.0019521686235364159,0.002067349144303465,-0.0016929827206603695,0.006728130494416565,0.9942791873822415
2017-09-25,1,0.0011274883404519206,0.0011473575532021229,0.00028121601082447016,0.007021749988311871,0.9945627224122018
2017-09-27,1,0.0011922074501074876,0.0011926505200620418,-0.0016929827206603695,0.007021749988311871,0.9941618468359839
2017-09-29,1,0.0014387494873300182,0.0014591173300085006,-0.0016929827206603695,0.006638629171189866,0.9941407480117977
2017-10-03,1,0.0018309693153716106,0.0019039645101417743,-0.004257454056075146,0.005663352552858267,0.9939425043851939
2017-10-05,1,0.002026223650859256,0.0021392141742519605,-0.004257454056075146,0.006638629171189866,0.9935087137557076
2017-10-09,1,0.0016382437948327263,0.0016392322051827142,-0.008351526162295673,0.006638629171189866,0.9930016738135314
2017-10-11,1,0.0012687229276539488,0.0012920979354645466,-0.00715481047574514,0.007192776688433357,0.9931086937013124
