JNU-Tangyin/eata/results/Batch4_SP500/Batch4_SP500-TRV.csv
Date,Action,Predicted_Q25,Predicted_Q75,Actual_Q25,Actual_Q75,RL_Reward
2010-12-14,0,0.0,0.0,-0.0036946427213669294,0.00407910652626308,0.9943835224043878
2010-12-16,0,0.0,0.0,-0.0035582582977341124,0.003518889383637863,0.9945902770490275
2010-12-20,0,0.0,0.0,-0.0041377435419957635,0.002246097391422273,0.9947578919338536
2010-12-22,0,0.0,0.0,-0.0041377435419957635,0.0024051330673139507,0.9946514587488426
2010-12-27,0,0.0,0.0,-0.0027536637416307867,0.004269907727411419,0.9941556797041583
2010-12-29,0,0.0,0.0,-0.0016805958531005112,0.007712727869865651,0.9939285635353887
2010-12-31,0,0.0,0.0,-0.0041377435419957635,0.007938623197957958,0.9930115227665506
2011-01-04,0,0.0,0.0,-0.002326244681158473,0.008484898723918707,0.9927609667256451
2011-01-06,-1,-0.0012900652106624467,-0.001181177429067159,-0.0005830284186434439,0.009579246358110225,0.9926350895690185
2011-01-10,-1,-0.002122441475526724,-0.00191993188280473,-0.0005830284186434439,0.009585633412801248,0.9928024301068045
2011-01-12,-1,-0.0018404172626580203,-0.0016685650216836322,-0.0009887807039643806,0.009585633412801248,0.9927543415450586
2011-01-14,0,0.0,0.0,-0.001955927707076859,0.009585633412801248,0.9929728631113538
2011-01-19,0,0.0,0.0,-0.0008401994249730065,0.009585633412801248,0.9926887449497632
2011-01-21,0,0.0,0.0,-0.0008401994249730065,0.010073893048420806,0.9919813183613067
2011-01-25,0,0.0,0.0,-0.001998675520387526,0.009180091033984476,0.9926716444876843
2011-01-27,-1,-0.0006101367916808099,-0.000533263380988878,-0.002908687924988695,0.009180091033984476,0.9918880694576183
2011-01-31,-1,-0.0014588540793891496,-0.0012347751043831783,-0.002908687924988695,0.009180091033984476,0.992062534226498
2011-02-02,-1,-0.001262040420187062,-0.001065801709267268,-0.00449254893988698,0.008767176540201895,0.9921108795461188
2011-02-04,-1,-0.0005081454241465789,-0.00043666664652452917,-0.00449254893988698,0.006319593844649661,0.9925476302804407
2011-02-08,1,0.00027870233295983297,0.00034977624953141695,-0.004275971443736478,0.005591922682588064,0.9930883025412174
2011-02-10,1,0.0008419115320112365,0.0010233623029092405,-0.004388576707608481,0.005591922682588064,0.9933172348435277
2011-02-14,1,0.000442876286343562,0.0005222120511708542,-0.005932773027258894,0.005420559059247051,0.9934021208953464
2011-02-16,1,0.0008203960639662358,0.0009407391125942633,-0.006532204985462307,0.005420559059247051,0.9929637440083093
2011-02-18,1,0.0017073902345938444,0.0019344583972708354,-0.007200366253107259,0.004797306459330223,0.9927514731190338
2011-02-23,1,0.0010111302587219625,0.001114112087685314,-0.008665037840826437,0.004797306459330223,0.9926017227640805
2011-02-25,1,0.0004960096793294839,0.0005340417647133502,-0.007200366253107259,0.005591922682588064,0.9932690897723695
2011-03-01,0,0.0,0.0,-0.006063149362515542,0.005802955025150677,0.9937048386763466
2011-03-03,0,0.0,0.0,-0.004232224833292893,0.005802955025150677,0.9940651456680875
2011-03-07,0,0.0,0.0,-0.0024489371955883216,0.005802955025150677,0.9941003463961872
2011-03-09,1,0.00021870219191256915,0.00028105384663565164,-0.006340181624390548,0.005993868682884621,0.9934346654119418
2011-03-11,0,0.0,0.0,-0.004078313532805194,0.004385438862241834,0.9941162166284516
2011-03-15,0,0.0,0.0,-0.004642074004252438,0.006167386456536897,0.9931257447594426
2011-03-17,0,0.0,0.0,-0.003885665092278736,0.004500911771426647,0.9936121080365785
2011-03-21,0,0.0,0.0,-0.003885665092278736,0.00390532930204882,0.9940977400649407
2011-03-23,1,0.00037838844668155514,0.0004324505115799175,-0.003885665092278736,0.004500911771426647,0.9933531527800343
2011-03-25,1,0.0008030459699094842,0.0009222396125728382,-0.003885665092278736,0.006331334313082768,0.9917006355751633
2011-03-29,1,0.0008560280906164587,0.00097355407129477,-0.005332548745436264,0.009050859072421839,0.9910565604420101
2011-03-31,1,0.001097081919769238,0.0013003324806073247,-0.005332548745436264,0.013183699840439534,0.9905004383117788
2011-04-04,1,0.0009073455416311875,0.0010493687350187774,-0.005332548745436264,0.013183699840439534,0.9902014508952326
2011-04-06,1,0.0010515455219388833,0.001204172239909598,-0.006725175168714715,0.009510919682922853,0.990403480175445
2011-04-08,1,0.0009067722281819586,0.001059307778354054,-0.006725175168714715,0.009510919682922853,0.9904126042181963
2011-04-12,1,0.0006272409671103892,0.0007088769837307475,-0.006725175168714715,0.007712179295403878,0.9907677125730668
2011-04-14,1,0.0007709874012193252,0.0008524903980597954,-0.008096571149277858,0.008629437590339455,0.9896062538025524
2011-04-18,-1,-0.0003252749683788377,-0.0002225407398855282,-0.006725175168714715,0.009561248389618955,0.9894235656918822
2011-04-20,-1,-0.0002989294230437631,-0.0001808601088803634,-0.005987126485885187,0.008629437590339455,0.9904425790284676
2011-04-25,1,0.0007620432101468849,0.0007645704912806674,-0.008096571149277858,0.0076467958780020075,0.9915426806190951
2011-04-27,0,0.0,0.0,-0.008096571149277858,0.007261655512036175,0.9918499277856135
2011-04-29,0,0.0,0.0,-0.008096571149277858,0.006956912952089059,0.9922125058036719
2011-05-03,0,0.0,0.0,-0.008602898244639137,0.006956912952089059,0.991664378198172
2011-05-05,0,0.0,0.0,-0.007355880740771601,0.006956912952089059,0.9924583381873999
2011-05-09,0,0.0,0.0,-0.007355880740771601,0.006956912952089059,0.9925918450794374
2011-05-11,0,0.0,0.0,-0.007331736210263194,0.006537691579642096,0.9926766428760269
2011-05-13,0,0.0,0.0,-0.007904865741648401,0.0054049540369535635,0.9924341035390185
2011-05-17,0,0.0,0.0,-0.008843365820145348,0.003354226130551416,0.9921814043731199
2011-05-19,0,0.0,0.0,-0.008843365820145348,0.003043933027543892,0.9923435997922
2011-05-23,0,0.0,0.0,-0.007026951027600347,0.004133675141684072,0.9926896744684066
2011-05-25,-1,-9.102755824251346e-05,-5.074134001531813e-05,-0.007904865741648401,0.003043933027543892,0.9926335324382094
2011-05-27,-1,-0.000116438440680802,-9.062054280376124e-05,-0.008502909899705608,0.003043933027543892,0.9921997843658725
2011-06-01,-1,-0.0010370402574516944,-0.0008407467784491423,-0.00779942861167129,0.004309331396699686,0.9922899673479455
2011-06-03,-1,-0.0010336114785864815,-0.000811057782080466,-0.00779942861167129,0.0059319228020004045,0.991602310713586
2011-06-07,-1,-0.00036510757398560095,-0.0001851690664178352,-0.008502909899705608,0.0059319228020004045,0.991200704242359
2011-06-09,-1,-0.0003606948476335352,-0.00020011902054388486,-0.00779942861167129,0.005152777368639278,0.9914970801487909
2011-06-13,-1,-0.0026434339455064073,-0.0022983193642860927,-0.006279450653015908,0.005152777368639278,0.9929747298839687
2011-06-15,-1,-0.0027374575581033287,-0.0022722707188231744,-0.006279450653015908,0.005152777368639278,0.9931315758027112
2011-06-17,-1,-0.002318907637207268,-0.001954360245528284,-0.007341439217985458,0.005152777368639278,0.9923339862244503
2011-06-21,-1,-0.0018636533467990294,-0.0015626709595935313,-0.007341439217985458,0.005152777368639278,0.9923943087418835
2011-06-23,-1,-0.0022737839300714666,-0.0019207068919217755,-0.004803405466700083,0.00658121580177932,0.9922875092687213
2011-06-27,-1,-0.0013743910926406254,-0.0011121751084093453,-0.004803405466700083,0.005152777368639278,0.9923953402312378
2011-06-29,-1,-0.0004060132575659228,-0.00027429307940985234,-0.009451284759946797,0.0027220421319090614,0.992601502448971
2011-07-01,-1,-0.0003789826375329046,-0.00028408989260119094,-0.009527255720461297,0.0024620442399826323,0.992597302923465
2011-07-06,-1,-0.0012134125098217613,-0.0010400669021443836,-0.00935628820307941,0.0024620442399826323,0.9928061679386386
2011-07-08,-1,-0.001305601968762518,-0.0011861806425555405,-0.012913076405903504,0.0016300981471622756,0.99184551201945
2011-07-12,-1,-0.0012668683297244682,-0.0011180327119263461,-0.013733299635816541,0.0024620442399826323,0.985420647885228
2011-07-14,-1,-0.002097604602595966,-0.001975937101215437,-0.014448689637436937,0.0027220421319090614,0.9814914737124439
2011-07-18,-1,-0.001810198689672209,-0.0016187795766416974,-0.013733299635816541,0.004241679042587175,0.9814462503543644
2011-07-20,-1,-0.0016826244097473846,-0.0014892823506946545,-0.013733299635816541,0.003043952993175626,0.981559168765774
2011-07-22,-1,-0.001126595227711903,-0.0009933694017687674,-0.014448689637436937,0.0014928397926509782,0.9795612406918274
2011-07-26,-1,-0.001863064286556772,-0.0016463165028782116,-0.013733299635816541,0.0018889956606470302,0.9802112214993314
2011-07-28,-1,-0.0023454414970202385,-0.002069956406050256,-0.01460669595776893,0.0034897138477595936,0.9796832058631151
2011-08-01,-1,-0.0037453624266288827,-0.0034444241964817577,-0.01460669595776893,0.0051267079046478795,0.9774498853974137
2011-08-03,-1,-0.0036160089241671647,-0.0033099219003881637,-0.01460669595776893,0.005349222941587376,0.9771403555415353
2011-08-05,-1,-0.004186570037826607,-0.0037500139987994294,-0.014652287671554853,0.005349222941587376,0.977206839178004
2011-08-09,-1,-0.00516163210016696,-0.0047178367515643615,-0.007878030595368247,0.005349222941587376,0.9820123755832791
2011-08-11,-1,-0.004510609511222462,-0.0041253424379641265,-0.012361039117993232,0.0047565728849583554,0.9851082136881543
2011-08-15,-1,-0.004868523658065509,-0.00448370700034509,-0.012361039117993232,0.0047565728849583554,0.9852502854437543
2011-08-17,-1,-0.0046646286470689025,-0.004316643807094152,-0.012361039117993232,0.005349222941587376,0.9843624534572736
2011-08-19,-1,-0.005080195150263222,-0.004677567956146085,-0.011487516545140042,0.008707082835395017,0.9850457220345534
2011-08-23,-1,-0.0047056321994654385,-0.004336474578955767,-0.014902352367560523,0.011677942403523801,0.9829772037598963
2011-08-25,-1,-0.005301745768220281,-0.004873081785891704,-0.014723726421962176,0.011677942403523801,0.9839948985778574
2011-08-29,-1,-0.004772563067209156,-0.004398155165337451,-0.014723726421962176,0.01584549693605904,0.9845962927766521
2011-08-31,-1,-0.003338102326832453,-0.00309753209641104,-0.016987042249325054,0.017372708502946185,0.9827059245184274
2011-09-02,-1,-0.0050441645043438,-0.004610604795647134,-0.017972131254992106,0.017372708502946185,0.9814881307366695
2011-09-07,-1,-0.004384999810967502,-0.004035129011582729,-0.017972131254992106,0.018446960912984728,0.9802423489249179
2011-09-09,-1,-0.006039134326328854,-0.005478719488945445,-0.01743625341819707,0.018446960912984728,0.9798672932746536
2011-09-13,-1,-0.006070685003130367,-0.005490524483923586,-0.01743625341819707,0.020436456796268754,0.9785434389824271
2011-09-15,-1,-0.004002751593913085,-0.0037250957918214794,-0.019264202808784325,0.021645399872816752,0.9779750527698299
2011-09-19,-1,-0.003986291266459245,-0.0037065500998624524,-0.019922416346631465,0.021645399872816752,0.9770330974666678
2011-09-21,-1,-0.006303826753272769,-0.005750978648341252,-0.019264202808784325,0.02826035517463727,0.9746192268545733
2011-09-23,-1,-0.006457529992460704,-0.00591309648161551,-0.019264202808784325,0.031131208370332168,0.9719506554177536
2011-09-27,-1,-0.005273891530355227,-0.004864595901385308,-0.019922416346631465,0.031131208370332168,0.9735281452436956
2011-09-29,-1,-0.004878895909585317,-0.004528808209832335,-0.019264202808784325,0.031503354470457275,0.9730982337497501
2011-10-03,-1,-0.007561750415377091,-0.006906033388134319,-0.014729935460218037,0.031503354470457275,0.973637207511397
2011-10-05,-1,-0.0016534913245781764,-0.0016390046887328382,-0.019059921003631526,0.02527308742188962,0.9757789703374679
2011-10-07,0,0.0,0.0,-0.014729935460218037,0.02527308742188962,0.9768928011979365
2011-10-11,0,0.0,0.0,-0.010382853188859982,0.02111269453247783,0.9788489732070417
2011-10-13,0,0.0,0.0,-0.010382853188859982,0.02111269453247783,0.9786153664790709
2011-10-17,0,0.0,0.0,-0.0094841211377572,0.02111269453247783,0.9793843429672133
2011-10-19,-1,-0.00041870156006637213,-0.00023351197503810553,-0.015697882717905055,0.01574830543190171,0.9829785793180758
2011-10-21,1,0.006780605179129052,0.008014529176410087,-0.015697882717905055,0.01036317273874237,0.9850642328274304
2011-10-25,1,0.006069909993487709,0.007211202520981137,-0.015697882717905055,0.01036317273874237,0.9840129013791067
2011-10-27,1,0.005019352624061053,0.005886426784890727,-0.01718623537585151,0.008654557921008159,0.9843894524442953
2011-10-31,1,0.004571124558035797,0.0053768662886782516,-0.015697882717905055,0.009674308724905167,0.9849332389314589
2011-11-02,0,0.0,0.0,-0.015697882717905055,0.009674308724905167,0.984705800131669
2011-11-04,0,0.0,0.0,-0.015697882717905055,0.008654557921008159,0.984711813367487
2011-11-08,0,0.0,0.0,-0.015697882717905055,0.010532608248194804,0.9843664955379964
2011-11-10,0,0.0,0.0,-0.01508158968814839,0.010532608248194804,0.9857691506364852
2011-11-14,0,0.0,0.0,-0.014644759408053052,0.009102272476567886,0.9871308478743044
2011-11-16,0,0.0,0.0,-0.011754066295504058,0.010532608248194804,0.9873760149576928
2011-11-18,0,0.0,0.0,-0.0110970515564406,0.010532608248194804,0.9874440341539464
2011-11-22,1,8.171795941959605e-05,0.00021407422599756801,-0.004198468820590034,0.013080714573686893,0.9875191983114144
2011-11-25,1,9.172851648103726e-05,0.00021416155405151743,-0.0029228065027850623,0.013080714573686893,0.9889817918578641
2011-11-29,1,0.0005609367245034385,0.000750600545206043,-0.004198468820590034,0.01056218407246195,0.9893859867891832
2011-12-01,1,0.0004693776028320834,0.0006375289344785847,-0.004198468820590034,0.01056218407246195,0.9912662464008364
2011-12-05,1,0.00015416029213806675,0.0002650704254976986,-0.00356084460450557,0.01056218407246195,0.9918442418456127
2011-12-07,1,0.0003651485518059542,0.000477891953874888,-0.00356084460450557,0.0090861600136964,0.9925010895909203
2011-12-09,1,0.0005788743010033859,0.0007301388189299657,-0.003129422513069921,0.00867295200712323,0.9927669375136602
2011-12-13,1,0.0008540748048159287,0.0010657022279900912,-0.003113451270409967,0.00867295200712323,0.9927849286059737
2011-12-15,1,0.0010737467448294928,0.0012939922524827937,-0.003512930876525708,0.007219901257153853,0.9928958261516383
2011-12-19,1,0.0006151700307930948,0.0007302275245055557,-0.003113451270409967,0.006851616194633932,0.9932517574555889
2011-12-21,1,0.0011562658984475066,0.0013203123366649792,-0.003512930876525708,0.0060080183634839196,0.9932216552892816
2011-12-23,1,0.0008501075173503755,0.0009925956418143488,-0.004849046052940819,0.006851616194633932,0.9904621678260761
2011-12-28,0,-2.3827450407074255e-05,8.659317866978032e-06,-0.0072949278700574416,0.006851616194633932,0.9901569013006926
2011-12-30,1,0.0008701936028170676,0.0009712630697897017,-0.004849046052940819,0.0060080183634839196,0.9911171498641036
2012-01-04,1,0.000967156543531217,0.0010811956927564408,-0.004293462407718259,0.006851616194633932,0.9907554484813986
2012-01-06,1,0.0016237143847112768,0.0018627040696709944,-0.0072949278700574416,0.006851616194633932,0.9901128434619407
2012-01-10,1,0.0018034293837341981,0.002049268459580432,-0.0072949278700574416,0.00686203568333949,0.9903157702602078
2012-01-12,1,0.0007660481026323892,0.0007993954813090184,-0.007834738159557784,0.00686203568333949,0.989937371388195
2012-01-17,1,0.0007461711838875852,0.0007806782922571901,-0.007834738159557784,0.00686203568333949,0.9900875962547093
2012-01-19,1,0.00025442910117175524,0.00034867325615991427,-0.007834738159557784,0.0041798524418207965,0.9902563374529312
2012-01-23,1,0.0011433621381326904,0.001278484669448644,-0.007834738159557784,0.004176655383306051,0.9917507615660048
2012-01-25,1,0.0008526107308953424,0.0009292673370771404,-0.00682784056426772,0.002978769273947022,0.9941795118790105
2012-01-27,-1,-0.00040298824282718833,-0.00023925878270091244,-0.005702290000767264,0.002978769273947022,0.9945185400288771
2012-01-31,1,0.00037575576162821684,0.000396215930655327,-0.006221348076144106,0.0026178775285971754,0.9942981571514887
2012-02-02,1,8.1704896249679e-06,0.00011340171104411514,-0.006680428698881363,0.0026178775285971754,0.9945006520174837
2012-02-06,1,0.0004261388636679625,0.0004332235088026559,-0.006680428698881363,0.0026178775285971754,0.9940043376491008
2012-02-08,1,0.0009064349313511087,0.000988978146371425,-0.006680428698881363,0.0026178775285971754,0.9939958626992186
2012-02-10,1,0.0005728099282232867,0.0006002375612322207,-0.006221348076144106,0.003172435847362596,0.9940819335635902
2012-02-14,-1,-0.0018121235974806228,-0.0013270699384714413,-0.005702290000767264,0.0071139279377843674,0.9934070404277537
2012-02-16,-1,-0.0018629129196059309,-0.001363021915856715,-0.005702290000767264,0.0071139279377843674,0.9934301037021812
2012-02-21,-1,-0.0012173253117422904,-0.0008417906538484908,-0.0039516308951294266,0.004973873470599053,0.9942023419092718
2012-02-23,-1,-0.001389003029495435,-0.0009911850766055263,-0.00633391920289329,0.004973873470599053,0.9935987547405603
2012-02-27,-1,-0.002929130535310068,-0.0021887700920618695,-0.00431422349055713,0.007933649452285628,0.9927205592741616
2012-02-29,-1,-0.001637006134232187,-0.0012086409585552482,-0.003151048720997905,0.007933649452285628,0.9928018083311672
2012-03-02,-1,-0.0018010344979577796,-0.0013752664266413488,-0.002057800100147006,0.00856807062549344,0.9929011553444655
2012-03-06,-1,-0.0022337878258151794,-0.0017720177556778771,-0.001523996673050159,0.005952166123109065,0.9941142245681273
2012-03-08,-1,-0.0019062357806064458,-0.0014909293623792568,-0.001523996673050159,0.005952166123109065,0.9943603785141443
2012-03-12,-1,-0.002434250630421321,-0.0019167818448251356,-0.005311285704071646,0.004215415094899234,0.9940949419781469
2012-03-14,1,0.00010247131237154852,0.00016543077512029205,-0.005311285704071646,0.004215415094899234,0.9942365872259978
2012-03-16,1,0.000782036036076925,0.0009725553484067124,-0.005877767750538384,0.005537405908433449,0.9927001997854448
2012-03-20,-1,-0.00015048960521392053,-7.214050228146658e-05,-0.006882394274789563,0.007798934388814734,0.9917452254543556
2012-03-22,1,0.00014085402158798795,0.0003588428881181315,-0.005311285704071646,0.01188370425941893,0.9901462239967943
2012-03-26,1,0.0005680015463120612,0.0007384280007977689,-0.005311285704071646,0.010540683347111772,0.9904200819421616
2012-03-28,1,0.0004947118932969304,0.0006375936020844473,-0.002823366320709033,0.014402854125281592,0.9899239855830001
2012-03-30,1,0.0007978488733011628,0.0009653709489583103,-0.005311285704071646,0.014402854125281592,0.9897453543435001
2012-04-03,1,0.0009759669098219347,0.0011721413674774073,-0.005311285704071646,0.014402854125281592,0.9897268670963693
2012-04-05,1,0.0005204387427431514,0.000685406967309679,-0.0041877392911162745,0.014402854125281592,0.9897230073169202
2012-04-10,1,0.0007589614878980105,0.000887984887902447,-0.0006582291126933956,0.014402854125281592,0.9905712225644414
2012-04-12,1,0.00045897142236172255,0.0005652165870019279,-0.00328755658045731,0.011955519844627158,0.9906231614733747
2012-04-16,1,0.0013744267529930102,0.0015682073714968475,-0.002398978655602219,0.008300038775942202,0.9923761026769193
2012-04-18,-1,-0.0006201152559989269,-0.0005549889983537263,-0.00328755658045731,0.006680456750352943,0.9923178962403135
2012-04-20,1,0.0010561857968587065,0.0010924104539757344,-0.0056632428768612,0.00447564989959534,0.9939323148897142
2012-04-24,1,0.0009141831977285245,0.0009243048776004196,-0.0056632428768612,0.00447564989959534,0.9939137042162964
2012-04-26,1,0.0008620695424864153,0.0008726251486732625,-0.0056632428768612,0.0027136836673979452,0.9947153005373328
2012-04-30,1,0.00039632571150060225,0.0004529706704019925,-0.0056632428768612,0.0027136836673979452,0.99491979379217
2012-05-02,1,0.001548042432176643,0.0016601096765718917,-0.007547833856352876,0.002553615153878637,0.9936596747704565
2012-05-04,1,0.0007805139100254866,0.0007926063695769611,-0.008324547323987765,0.002553615153878637,0.9923604934242732
2012-05-08,1,0.0006173647919280225,0.0006266578891929143,-0.008324547323987765,0.005320631607082406,0.9916518039747465
2012-05-10,1,0.0009018299810606662,0.0009408612650479994,-0.008324547323987765,0.004548548014460781,0.9922434630789716
2012-05-14,1,0.0006715423204746997,0.0006781057001327585,-0.00864677135109855,0.005124851487911386,0.9916519318569754
2012-05-16,1,0.0010721325389780373,0.0011841985451703327,-0.008553533754075821,0.006368574871297695,0.9911228473587859
2012-05-18,1,0.0002972392463516052,0.0003269027979150095,-0.004851910857665788,0.006368574871297695,0.9915728298956094
2012-05-22,0,0.0,0.0,-0.004851910857665788,0.006205631156183091,0.9913659503439072
2012-05-24,0,0.0,0.0,-0.006354882195974529,0.006467084083466946,0.9900747532731573
2012-05-29,1,0.0006999319388993737,0.0007544679278992135,-0.006354882195974529,0.006467084083466946,0.9899223576966057
2012-05-31,0,0.0,0.0,-0.004851910857665788,0.006467084083466946,0.9905183616635697
2012-06-04,0,0.0,0.0,-0.0011704758930403906,0.00795225536159487,0.9913462114246379
2012-06-06,0,0.0,0.0,-0.003158603636211142,0.006205631156183091,0.9920757414842019
2012-06-08,0,0.0,0.0,-0.004851910857665788,0.006205631156183091,0.9917878210647143
2012-06-12,0,0.0,0.0,-0.004851910857665788,0.006094836463032346,0.9919122174852171
2012-06-14,1,0.0010755293752780712,0.0012561010171217388,-0.004818778874507041,0.006094836463032346,0.9925091199833416
2012-06-18,1,0.0004052221204432797,0.0004733130726825431,-0.005775150682662346,0.00746342421625106,0.9918906144409702
2012-06-20,0,0.0,0.0,-0.005929683579954095,0.010909366622918283,0.9916561910123861
2012-06-22,0,0.0,0.0,-0.009580014078217274,0.00518868941119968,0.9917220575018869
2012-06-26,0,0.0,0.0,-0.009580014078217274,0.00518868941119968,0.9919038837859868
2012-06-28,0,0.0,0.0,-0.009580014078217274,0.01047313786818259,0.991063959618052
2012-07-02,0,0.0,0.0,-0.009580014078217274,0.008442167776848383,0.9910803202200846
2012-07-05,0,0.0,0.0,-0.009580014078217274,0.01047313786818259,0.9904514030711737
2012-07-09,1,0.0003514661704247087,0.00037676332539319314,-0.00894134438756251,0.010967331526480278,0.9903469846347439
2012-07-11,1,0.00016658220335839135,0.00017241527625458606,-0.007897539592684811,0.010967331526480278,0.9905170718076058
2012-07-13,1,0.0005194771930122382,0.0005624636121218978,-0.007897539592684811,0.01047313786818259,0.9913882583918465
2012-07-17,1,0.0005261942648894772,0.0005575662357670241,-0.005527065190719933,0.008442167776848383,0.9920397896646791
2012-07-19,1,0.0004284389143343894,0.0004488105058704043,-0.004824839931969101,0.007160656870218128,0.9924732324076881
2012-07-23,-1,-0.0006738335949825886,-0.0005367625442943597,-0.0029815399282042652,0.008455712928338214,0.9925932560491216
2012-07-25,-1,-0.0010898501421336406,-0.0009023445679433585,-0.0029815399282042652,0.008455712928338214,0.9927787686230107
2012-07-27,-1,-0.00045684600091738223,-0.0003096441783175436,-0.0032135491795095045,0.007816980838647597,0.9934342601155198
2012-07-31,-1,-0.0007321665498963567,-0.0005588129153161467,-0.0034998174980091865,0.0071651719207147385,0.9938614054632758
2012-08-02,-1,-0.0004652616174506747,-0.00032697247251321185,-0.0034998174980091865,0.005029950093572382,0.994567631144679
2012-08-06,1,0.0001986382150115005,0.0002249614335968109,-0.0034998174980091865,0.004005462033064497,0.9950497547893478
2012-08-08,1,0.00025525845502481087,0.0002764822112347815,-0.0034998174980091865,0.004005462033064497,0.9948021461972736
2012-08-10,1,0.00032403462103473737,0.0003426337170990537,-0.0034998174980091865,0.004005462033064497,0.9947251131042589
2012-08-14,-1,-0.00045726084276837676,-0.0003118464083630263,-0.0023331464711675446,0.008076046076542939,0.9934495465123897
2012-08-16,1,0.00020537442552072906,0.0002262993316220536,-0.0023331464711675446,0.008924263570739934,0.9930661634749058
2012-08-20,1,0.0006230382259672983,0.0006606937754096934,-0.0023331464711675446,0.0051105791883891685,0.9941382448422922
2012-08-22,1,0.0007341520430261645,0.0007573817086488763,-0.002332054155171749,0.0051105791883891685,0.9942705340872185
2012-08-24,1,0.0006219251755797365,0.0006225484766533343,-0.0021844910249676636,0.0033873630443230973,0.9949677214675059
2012-08-28,0,-1.6914256306883928e-05,3.7425804172266214e-05,-0.0017736943424819,0.0033873630443230973,0.9949326412312675
2012-08-30,-1,-0.0005422201639450332,-0.00036087110058360267,-0.0017736943424819,0.0051105791883891685,0.9946333847939717
2012-09-04,-1,-7.314406514187486e-05,-4.410388853328518e-06,-0.002040334250987465,0.0089331671085574,0.9940513270122154
2012-09-06,1,0.00024253870845639532,0.00027603206531235075,-0.002040334250987465,0.0055874878476863815,0.9943758390140938
2012-09-10,0,-4.954088827412498e-05,1.7305853079713245e-05,-0.0016417676016915995,0.0055874878476863815,0.9942981979818022
2012-09-12,1,0.001727504834239299,0.001914311054354158,-0.002336840853048424,0.003944708988102248,0.9958508843743026
2012-09-14,1,0.0020041882538529964,0.002241827559134992,-0.003212639174670751,0.003396327431360594,0.9956915314741318
2012-09-18,1,0.002293036816937711,0.0026050161648357014,-0.003212639174670751,0.0041592767555368735,0.9949308686481055
2012-09-20,1,0.0024442202797080132,0.002726195481932446,-0.002867899464814901,0.009478648673091332,0.9930785339710356
2012-09-24,1,0.0024299164418169865,0.002726763259478143,-0.003237293850477205,0.009478648673091332,0.9927553232424594
2012-09-26,1,0.0019327843770008957,0.002166305354964793,-0.003237293850477205,0.009478648673091332,0.9926424184467972
2012-09-28,1,0.0021674918636442842,0.0024275554742951267,-0.005471575591230861,0.007404760755274131,0.9918987888696295
2012-10-02,1,0.0023418017553677927,0.0026324702233653063,-0.006712797474097006,0.005016752647878578,0.9915754244282229
2012-10-04,1,0.002566847953460876,0.0028766335175760783,-0.007884772475874248,0.004663581051753432,0.9906123168434791
2012-10-08,1,0.002227955927427973,0.002492207903097156,-0.008349271923244578,0.007404760755274131,0.9891755662247986
2012-10-10,1,0.0016436734704039818,0.0017781253927001168,-0.008349271923244578,0.007404760755274131,0.9894234614089863
2012-10-12,1,0.0014842907934038317,0.0015910668217848905,-0.008349271923244578,0.007404760755274131,0.9894087025821487
2012-10-16,1,0.00236436126065354,0.0025964938163353054,-0.008349271923244578,0.0038096801315362213,0.9898981700731214
2012-10-18,1,0.0027668545793149953,0.003022864941144029,-0.008349271923244578,0.0038096801315362213,0.9912518615589357
2012-10-22,1,0.00259787377295529,0.002869694699619175,-0.008349271923244578,0.0038096801315362213,0.9915901331591231
2012-10-24,1,0.0015302277582860113,0.0015842899588319726,-0.008146024639795812,0.004373047530801278,0.991634642895927
2012-10-26,1,0.0010945875838862143,0.001134478088215935,-0.007487476047737217,0.004373047530801278,0.992822331884336
2012-11-01,1,0.00032984179638707466,0.0003786703577275392,-0.005231385691319455,0.004373047530801278,0.9934556422470147
2012-11-05,-1,-0.0001558256011508846,-6.56361218639826e-05,-0.003456389836700394,0.004373047530801278,0.9938733216914148
2012-11-07,-1,-0.0003715004249777211,-0.0003010857819808875,-0.003456389836700394,0.004373047530801278,0.9926246843872746
2012-11-09,-1,-0.0002548556277359645,-0.00021690687565357786,-0.003456389836700394,0.0039620768197896165,0.9926505950121345
2012-11-13,-1,-0.0005856978073750763,-0.0004928036495154252,-0.0018119509074120141,0.0039620768197896165,0.9929764546347576
2012-11-15,-1,-0.0008432095978584839,-0.0007071736937396131,-0.0012269446509138306,0.0036682346425329624,0.993061477627147
2012-11-19,-1,-0.0006224593187405194,-0.0004852589994632402,-0.0012269446509138306,0.003145491677270976,0.9933750991019777
2012-11-21,-1,-0.0001274399533598672,-6.57982432800111e-05,-0.0024900873870146558,0.003145491677270976,0.9930771057382715
2012-11-26,1,0.00036572321332290105,0.00037607005060796313,-0.005273115797121541,0.0022089211393253355,0.9931018619097907
2012-11-28,1,0.0005952005195491721,0.0006429436225326938,-0.005996379166498317,0.0022089211393253355,0.9928030548520761
2012-11-30,-1,-9.437416995711112e-05,-3.719714660072192e-05,-0.006249189430235681,0.0022540573551872757,0.9924783228217912
2012-12-04,-1,-0.0004939940787716149,-0.00037603131297759277,-0.006249189430235681,0.005904864168308366,0.9917943549105086
2012-12-06,1,0.00036157425922244926,0.0003660655876198732,-0.006249189430235681,0.005904864168308366,0.9936308632294696
2012-12-10,1,0.0005247426246825913,0.0005600314341291897,-0.006249189430235681,0.007799834517321068,0.9933022372922092
2012-12-12,1,0.0005271829938300163,0.0005391158774093246,-0.006249189430235681,0.007799834517321068,0.9928777629272442
2012-12-14,-1,-0.00014465721807834517,-3.772616395786646e-05,-0.006249189430235681,0.008139455608142093,0.9924713904653705
2012-12-18,0,-0.00011465284380479673,1.1889850078609671e-05,-0.006249189430235681,0.007799146556798858,0.9929096329893368
2012-12-20,-1,-0.00025720586748260554,-0.0001531789928328715,-0.00248952896439201,0.008139455608142093,0.992367498284116
2012-12-24,-1,-0.0012678862689893555,-0.0010391139308410355,-0.0004101633235774556,0.008139455608142093,0.9924166997673751
2012-12-27,-1,-0.0016471884036766858,-0.001341116391984476,0.0009689206238057131,0.008139455608142093,0.9916944605750481
2012-12-31,-1,-0.0013269101496308825,-0.0011011299538727965,0.0009689206238057131,0.007799146556798858,0.9921930842957032
2013-01-03,-1,-0.0010197936724697658,-0.0008468034327466401,0.0009689206238057131,0.008283316424933358,0.9919770783219679
2013-01-07,-1,-0.0011307967219656833,-0.0009542405390657572,0.0009689206238057131,0.008187413959685766,0.9914333145055357
2013-01-09,-1,-0.0007969823794889674,-0.0006385146748889028,0.0009689206238057131,0.007207749357095914,0.9919168735818085
2013-01-11,-1,-0.000399379348113284,-0.00029592954755927153,-0.0008381702073781997,0.00649492875948446,0.9923810649900311
2013-01-15,1,0.00045822776542442026,0.000509696346844384,-0.0008381702073781997,0.006543575071550342,0.9926943078876547
2013-01-17,1,0.00047721485067030823,0.0005230180911005845,-0.0002721711076779273,0.006543575071550342,0.9927338752977026
2013-01-22,1,0.0001963678359121671,0.00020302427536655516,-0.0030384412121309515,0.005833702259790952,0.9934486502490613
2013-01-24,0,-4.323567227803145e-06,3.368095058738233e-05,-0.0002721711076779273,0.006419694748611299,0.9933181475645454
2013-01-28,-1,-0.0006480361774424527,-0.0005265601911592674,-0.0002721711076779273,0.007961711927066283,0.9922850716271103
2013-01-30,-1,-0.0005010333460709403,-0.0003974593942174871,-0.00035474887352272,0.008427777736492337,0.9921098446698631
2013-02-01,1,0.0006184068164202781,0.0006515727681528126,-0.002401718926673154,0.005288127106702135,0.9937440686962409
2013-02-05,-1,-0.00033636456161899867,-0.00027347890583048984,-0.002401718926673154,0.005288127106702135,0.9941527448881707
2013-02-07,1,0.0005363387067733713,0.0006131004988115954,-0.002401718926673154,0.006115904279258494,0.9944484575057936
2013-02-11,1,0.0007347002765032074,0.0008876890296024427,-0.0006184878174629964,0.006115904279258494,0.9948777514108195
2013-02-13,1,0.0010638938347569847,0.0012083038752088854,-0.0006184878174629964,0.004872192054602488,0.9950823413616365
2013-02-15,1,0.0007657328002898643,0.0009045612969283762,-0.0012552507535448778,0.004872192054602488,0.9949775996045835
2013-02-20,1,0.0005852141178126172,0.0006925821485923764,-0.0003346046023082571,0.007819482039228488,0.9946114891933244
2013-02-22,1,0.0008521483371407407,0.0009780506355353271,-0.0009968830661901522,0.006109787757625577,0.995021726355231
2013-02-26,1,0.0008067326561976479,0.0009370616012874226,-0.0009968830661901522,0.004872192054602488,0.9963065059138203
2013-02-28,1,0.0008263650739299883,0.0009573219578521361,-0.0007801334540938033,0.004872192054602488,0.9965066925315224
2013-03-04,1,0.001078422109441474,0.0012541073871532278,-0.0007801334540938033,0.005495131297511471,0.9964147962180736
2013-03-06,1,0.001207641465033635,0.0014073006671140261,-0.0007801334540938033,0.005495131297511471,0.9964778226351753
2013-03-08,1,0.001349399069746853,0.001562304463121594,-0.0007801334540938033,0.00485659298567223,0.9965468292914021
2013-03-12,1,0.0008481902637523321,0.0009880159388546347,-0.0009968830661901522,0.005702925651840486,0.9960155409809682
2013-03-14,1,0.0015151570141285248,0.0017497882110827606,-0.0009968830661901522,0.006631224293541387,0.9955944257288346
2013-03-18,1,0.001756077228496481,0.0021022731309166594,-0.0015177622425501668,0.007507525936381866,0.9938872245401892
2013-03-20,1,0.002170223038093702,0.002566810127063468,-0.004216377889033828,0.005702925651840486,0.9927968790574202
2013-03-22,1,0.0018302025317357515,0.0021650728561790505,-0.004216377889033828,0.006631224293541387,0.992594577907438
2013-03-26,1,0.0010557600941731781,0.0012441166189540633,-0.005464602615725738,0.007664764513447343,0.9916019741170903
2013-03-28,1,0.0010750298460372918,0.0012512744458922451,-0.005973841089289189,0.006631224293541387,0.9915510625737254
2013-04-02,0,0.0,0.0,-0.005973841089289189,0.006631224293541387,0.9916722724042224
2013-04-04,0,0.0,0.0,-0.005973841089289189,0.004499927905605017,0.9914971161201844
2013-04-08,0,0.0,0.0,-0.005973841089289189,0.0068904093976781,0.9910904427896725
2013-04-10,1,0.0005331376270779409,0.0005709459835070586,-0.005973841089289189,0.009263525923163263,0.9905600777139747
2013-04-12,1,0.0014150707677260523,0.0015511502282602322,-0.007502535024337754,0.008352513242053248,0.9907101987831312
2013-04-16,1,0.0014455820424517497,0.0016223501340739033,-0.005973841089289189,0.008352513242053248,0.9918809763996614
2013-04-18,1,0.0007712557969159267,0.0008662569986586796,-0.003452559425034428,0.008352513242053248,0.9928068807257268
2013-04-22,1,0.0005207767555963649,0.0006009703218062762,-0.005973841089289189,0.004987295853730067,0.9925915724753872
2013-04-24,-1,-0.0001255687656594998,-0.00012180527924172771,-0.007502535024337754,0.003822626679656153,0.9928104801927026
2013-04-26,-1,-0.0006577503322987364,-0.0005812942999967005,-0.005543213830016587,0.003822626679656153,0.9930262161046397
2013-04-30,-1,-0.0006477009898117063,-0.0005665590576436549,-0.005757828092762341,0.0042055721840457755,0.9927694536169891
2013-05-02,-1,-0.00040766834672937213,-0.0003632349808796152,-0.005757828092762341,0.006136132366898934,0.9926800525769317
2013-05-06,-1,-0.0002869927652724362,-0.00027153357173761555,-0.005757828092762341,0.0026073541924349947,0.9932143749527476
2013-05-08,1,0.00019137451010164304,0.00024365233448575595,-0.009529718238868445,0.0008366240383418301,0.9931318926387639
2013-05-10,1,0.00024137946774353825,0.00027288107642830855,-0.007043257974523076,0.0013166981805302885,0.9924861826509308
2013-05-14,1,0.0007398205581473162,0.000872863340975117,-0.010041994136238193,0.0008366240383418301,0.9919857092960964
2013-05-16,1,0.00013140603823964808,0.00017370423406772186,-0.008371127717139864,0.0013166981805302885,0.9915799203238138
2013-05-20,-1,-0.000900781855660582,-0.000776128257886455,-0.007719188356552487,0.006638669922842304,0.9912485540019695
2013-05-22,-1,-0.0017348470868116148,-0.0015035353769389298,-0.008371127717139864,0.006638669922842304,0.9900975925617803
2013-05-24,-1,-0.001658041511399555,-0.001449083421860879,-0.011111766975334444,0.006638669922842304,0.9892537282994814
2013-05-29,-1,-0.0012772336266962231,-0.0010673116326758234,-0.011111766975334444,0.010408800791250353,0.9883429073305623
2013-05-31,-1,-0.0017351449986489744,-0.0014658052308594112,-0.010336064774859807,0.008170868327660515,0.988827920131048
2013-06-04,0,0.0,0.0,-0.014841749816312056,0.011036222188946704,0.987090142909347
2013-06-06,0,0.0,0.0,-0.010336064774859807,0.012055284390116707,0.9873811616337198
2013-06-10,-1,-0.0019921368343257173,-0.0015880144149946179,-0.010336064774859807,0.010672415338281983,0.9880834200994386
2013-06-12,-1,-0.002784753064140291,-0.0023005278032593225,-0.008112560316981652,0.012055284390116707,0.9879228224992229
2013-06-14,0,0.0,0.0,-0.009347445087413076,0.012055284390116707,0.9879772279587444
2013-06-18,0,0.0,0.0,-0.009347445087413076,0.009771311739028406,0.9886486469314966
2013-06-20,-1,-0.0032606816727457234,-0.0028095039287917263,-0.005383352556178383,0.009771311739028406,0.9898646190320345
2013-06-24,-1,-0.0035122048195679184,-0.003037520241097537,-0.0017571868093695492,0.009771311739028406,0.9883400131921086
2013-06-26,-1,-0.001947995004253843,-0.0016835289118794134,-0.0017571868093695492,0.009104187344126359,0.9898041813531473
2013-06-28,-1,-0.002323612879131358,-0.0019845064065569257,-0.001018413280156183,0.009104187344126359,0.9896987009586543
2013-07-02,-1,-0.002207634133146841,-0.0018930450275604861,-0.00042376052077277475,0.009063169595088752,0.9909564857731996
2013-07-05,-1,-0.0016397489084932723,-0.0013947172355450491,-0.001018413280156183,0.009063169595088752,0.9916562836576533
2013-07-09,-1,-0.0011522153771169638,-0.0009797609252600085,-0.004663107419037299,0.009063169595088752,0.9915375294852858
2013-07-11,-1,-0.0007883594221886588,-0.0006686105724638763,-0.004718301433917592,0.0083777358695563,0.9921807170814099
2013-07-15,-1,-0.0006031924423457219,-0.0004980524228411338,-0.0027713570737651905,0.006860214149432799,0.9934019676129368
2013-07-17,-1,-9.219535027199647e-05,-6.817661662365066e-05,-0.004354599098089706,0.003804046668123723,0.9935679635172948
2013-07-19,-1,-0.0003501589109716096,-0.0002739214231807063,-0.004979801155394095,0.0027419919683205765,0.993303986920794
2013-07-23,-1,-0.0012403996482569088,-0.001063535215308354,-0.004979801155394095,0.0022274389387258436,0.9949494724857637
2013-07-25,-1,-0.0008351386593136795,-0.0007111584735058114,-0.00692840932729993,0.0022274389387258436,0.9942341116977866
2013-07-29,-1,-0.0004122094134941987,-0.00034666818608973516,-0.00692840932729993,0.0019582279028664633,0.9945766053563272
2013-07-31,-1,-0.0004161111406625721,-0.0003252439579120316,-0.00692840932729993,0.0019300230943441552,0.9943814387819234
2013-08-02,-1,-0.0002446891223656325,-0.00017445426954095764,-0.00692840932729993,0.0019300230943441552,0.9946068073675219
2013-08-06,-1,-0.0007380452051103071,-0.0006238874237338068,-0.004647810727834943,0.0027419919683205765,0.9947901155099687
2013-08-08,-1,-0.0007933293644167865,-0.0006770876192963626,-0.004647810727834943,0.0027419919683205765,0.9949078182399399
2013-08-12,-1,-0.00037627163572426974,-0.0003314404195591771,-0.004647810727834943,0.004320356104062449,0.9937906632856408
2013-08-14,-1,-0.0004792335833086951,-0.00041907400885495764,-0.004821537069831827,0.0049310987238895005,0.993099996644047
2013-08-16,-1,-0.0010099011325125514,-0.0008822275176317032,-0.004537697476404224,0.0067507025543352495,0.9928591565173798
2013-08-20,-1,-0.0010579143916385246,-0.0009430345857295563,-0.0043883340645806315,0.009310881317447816,0.9925150522272936
2013-08-22,-1,-0.0007578167946059242,-0.0006807249098339518,-0.0043883340645806315,0.009170009637232147,0.9927459111774195
2013-08-26,-1,-0.001002211565006587,-0.0008976119416972522,-0.004456750389992938,0.009170009637232147,0.9924070155751875
2013-08-28,-1,-0.0009020917136259866,-0.0008189185611140742,-0.002671100917998137,0.009170009637232147,0.9926005635252917
2013-08-30,-1,-0.0008746927339589373,-0.0007946307964319445,-0.00493435659058585,0.009170009637232147,0.9925176883931811
2013-09-04,0,-3.194942754058234e-05,2.1833786392994633e-05,-0.00493435659058585,0.006851032231667781,0.9932207177370235
2013-09-06,1,1.2888967794734315e-05,8.94530550968656e-05,-0.0049129441970315,0.00841270324834561,0.992981635858551
2013-09-10,1,0.00016283773790451168,0.0002020423178472909,-0.006169924187660878,0.005814045906819109,0.9932022506649271
2013-09-12,1,0.000388310219784041,0.0004695207765359966,-0.006169924187660878,0.005814045906819109,0.9927996882283114
2013-09-16,1,0.001195759018770809,0.0014121093484518957,-0.006169924187660878,0.0059608066124855206,0.9930325903214573
2013-09-18,1,0.0016494542483290442,0.0019092476533259075,-0.007098927556243252,0.0059608066124855206,0.9922075705744962
2013-09-20,1,0.0015438866109024243,0.0017950750590753973,-0.006169924187660878,0.0059608066124855206,0.9929247636175309
2013-09-24,1,0.0012821030941658526,0.0014776477205059742,-0.005470607893593855,0.0059608066124855206,0.9933277505855416
2013-09-26,1,0.0014447404834913961,0.0016799617592684795,-0.005470607893593855,0.006411325185613791,0.9928023944461859
2013-09-30,1,0.0015054441646345958,0.001793984328995768,-0.004962211714745575,0.006411325185613791,0.9930897787125881
2013-10-02,1,0.001280227112222105,0.0015198931314822255,-0.004962211714745575,0.006411325185613791,0.9930865109011277
2013-10-04,1,0.0016612589324784166,0.001985560645953225,-0.005445414437171362,0.0059608066124855206,0.9932744995712017
2013-10-08,1,0.0008259203387286267,0.0010147447547278676,-0.004414362801206086,0.0059608066124855206,0.9941570746114372
2013-10-10,1,0.0011203198038635966,0.0013210571798731475,-0.0034029646243058185,0.0059608066124855206,0.9949204470602637
2013-10-14,1,0.0011154599446039407,0.0012800970948271717,-0.0034029646243058185,0.005783177111678539,0.9950805303207712
2013-10-16,1,0.001397503652444306,0.001598406936104402,-0.0034029646243058185,0.005783177111678539,0.9951476638994807
2013-10-18,1,0.0014883731161029008,0.0017015345117870142,-0.0034029646243058185,0.005818101451576774,0.9948474587682677
2013-10-22,1,0.001463648645706131,0.0016675829481332953,-0.004414362801206086,0.005818101451576774,0.994493461328652
2013-10-24,1,0.001612467160911421,0.001839041621874073,-0.0034029646243058185,0.005818101451576774,0.9943650519592427
2013-10-28,1,0.0012185139958484155,0.0013515685645518207,-0.002133716610763714,0.007243300341116112,0.9940761776350451
2013-10-30,1,0.0013960525608763285,0.001582181460354716,-0.0016665356802119517,0.007243300341116112,0.9943264346929035
2013-11-01,1,0.0008157224955538844,0.0008798584947334118,-0.002049098124701252,0.007243300341116112,0.9934013231249618
2013-11-05,1,0.0009382768748636409,0.0010328877199743303,-0.0028321732269066227,0.007243300341116112,0.9933116729397103
2013-11-07,1,0.0015278231926304452,0.0017430783348457422,-0.003240038667965952,0.007243300341116112,0.9931185376348879
2013-11-11,1,0.0008748076317448374,0.0009063693558774653,-0.004919638852810192,0.005825285989845715,0.9929544632598725
2013-11-13,1,0.00013107460270866218,0.0002301157262401697,-0.005428603928586695,0.0034269066744967687,0.993384326807439
2013-11-15,1,0.0009616009530027806,0.0010019448712051341,-0.005428603928586695,0.002397842495893093,0.9934522116721698
2013-11-19,1,0.0006596702578198238,0.0006620434528143421,-0.005425610598317395,0.003855809438756458,0.9927841080296639
2013-11-21,1,0.0009903839715013547,0.0010261181023710657,-0.005425610598317395,0.004912983984818859,0.9930301073143889
2013-11-25,1,0.0016779135106741354,0.0018362868876739963,-0.005425610598317395,0.003873954493050378,0.9934382510071597
2013-11-27,1,0.0017069640842308253,0.0018787600327727122,-0.005425610598317395,0.004746972954904548,0.9931683269211676
2013-12-02,1,0.001175526885468073,0.0012864680702031036,-0.004887145474590159,0.005042006381147578,0.9942576573205324
2013-12-04,1,0.0011287405754036798,0.001242967202018067,-0.005425610598317395,0.005042006381147578,0.9937259874479212
2013-12-06,1,0.001361707927537641,0.0015212697101857084,-0.005425610598317395,0.004490724086035966,0.9941543816742232
2013-12-10,1,0.0012374306741818237,0.0013929053770044136,-0.005425610598317395,0.004490724086035966,0.9940918356390416
2013-12-12,1,4.2744579708065645e-05,9.375892378027373e-05,-0.0033974163405407817,0.004490724086035966,0.9944396808863513
2013-12-16,1,0.00036513792703636615,0.0003674141914807442,-0.0033974163405407817,0.004818592920320101,0.9939428259431661
2013-12-18,1,0.0008379750117091881,0.0009113683987157157,-0.0062065995515189955,0.004490724086035966,0.9942656065512839
2013-12-20,1,0.0011157441242170712,0.0012243471683999615,-0.007668535649027905,0.003085251138123761,0.9934980068392707
2013-12-24,1,0.001245982297141086,0.0013801803431955212,-0.010243105144641242,0.00157633501726557,0.9917765391454629
2013-12-27,1,0.0009574057270193054,0.0010137748832460569,-0.010243105144641242,0.0033564039860618524,0.9914730389579247
2013-12-31,1,0.0009860082095425248,0.0010396832020149616,-0.011318579892860442,0.0013125003468646129,0.9911230375261674
2014-01-03,1,0.0005259176463991535,0.0005259263276757682,-0.012690174580565376,0.0013125003468646129,0.9907806091421079
2014-01-07,1,0.00013129906473320423,0.00018331334439172548,-0.012690174580565376,0.0013125003468646129,0.991291426591505
2014-01-09,-1,-0.0004756475399670073,-0.0003261100722289445,-0.012690174580565376,0.002542946423988897,0.9916560769229381
2014-01-13,-1,-0.0012783522443038963,-0.001018521571919518,-0.011169778485142971,0.005770903331773745,0.990906509888226
2014-01-15,-1,-0.0006028849959004557,-0.00043107876955791896,-0.011699938214869548,0.004215184316119803,0.9909171650292575
2014-01-17,-1,-0.00145964343412633,-0.0011688386813066502,-0.011699938214869548,0.007735842477149172,0.9906256941733154
2014-01-22,-1,-0.0022914506623706522,-0.0018970639937591813,-0.010886700728086613,0.007735842477149172,0.9912863617020822
2014-01-24,-1,-0.0035262860619371195,-0.002985935039255792,-0.004199550042025003,0.007735842477149172,0.9922276337912102
2014-01-28,-1,-0.00262943785346498,-0.002216141253502441,-0.004199550042025003,0.0033723667272254013,0.9934024299601216
2014-01-30,-1,-0.00309774900159979,-0.0026202378604191293,-0.0028298153434416725,0.004382845339113408,0.993329780410172
2014-02-03,-1,-0.0032881076105821336,-0.002830893213758596,-0.001494085156949239,0.005659858307501867,0.9932210562822151
2014-02-05,-1,-0.0030392446205879738,-0.0026195320489408717,-0.001494085156949239,0.005659858307501867,0.9932853489989873
2014-02-07,-1,-0.0025027515923277616,-0.0021728795827728837,-0.0028298153434416725,0.005659858307501867,0.9938792637729548
2014-02-11,-1,-0.001153134412361141,-0.0010130206855689292,-0.002834648940241249,0.003359848525203388,0.9956581172729035
2014-02-13,-1,-0.001278405795212997,-0.001118517689557562,-0.002834648940241249,0.0015827748144392846,0.9960661859730573
2014-02-18,-1,-0.0008438353078978369,-0.0007324415195548514,-0.002834648940241249,0.0015827748144392846,0.9961591097321298
2014-02-20,-1,-0.0010285065803390028,-0.0008962107725688682,-0.002834648940241249,0.0015827748144392846,0.9959425545725294
2014-02-24,-1,-0.0014236932166920063,-0.0012276612794128636,-0.0019428215042349936,0.003545356873280862,0.9956075188364926
2014-02-26,-1,-0.0014078689325288263,-0.0012109396030004294,-0.003182559829716646,0.003545356873280862,0.9952875846450362
2014-02-28,-1,-0.0012370808165709515,-0.0010631091288933478,-0.003182559829716646,0.003545356873280862,0.9952188527656219
2014-03-04,-1,-0.0015747914613250444,-0.001326013336191091,-0.003182559829716646,0.003545356873280862,0.99507270174351
2014-03-06,-1,-0.0011020751257381379,-0.0009363696147684979,-0.003182559829716646,0.004150765329286408,0.9949416522868657
2014-03-10,-1,-0.0011383433641750328,-0.0009871837681394338,-0.0023573286273675317,0.004150765329286408,0.9949363842977074
2014-03-12,-1,-0.0011023607429610349,-0.0009735559841262724,-0.0025546443530013894,0.005178021111216877,0.9942392404330372
2014-03-14,-1,-0.001338083520958218,-0.0011878318764513079,-0.0025546443530013894,0.005178021111216877,0.9940409194388331
2014-03-18,-1,-0.0006700032054729048,-0.0006012651120687108,-0.0025546443530013894,0.00406416916140663,0.9946809187249263
2014-03-20,-1,-0.0008004861570990729,-0.000727577589403873,-0.0014510867876124912,0.004918232607577544,0.9945221386416954
2014-03-24,-1,-0.0006077425206641419,-0.0005567357001154087,-0.0025546443530013894,0.004838865145429961,0.9945777405678985
2014-03-26,-1,-0.0008509253434678466,-0.0007680135552754637,-0.0014510867876124912,0.005750638933395936,0.9939321832002643
2014-03-28,-1,-0.0006028514390620444,-0.0005403928397972157,-0.0025506900697140423,0.006843974606966802,0.9935074613702579
2014-04-01,-1,-0.0004539515104966522,-0.00041010324936366046,-0.0025506900697140423,0.006843974606966802,0.9937365946251844
2014-04-03,1,1.1091944361503865e-05,3.86220444659741e-05,-0.0025506900697140423,0.006843974606966802,0.9939802135122752
2014-04-07,1,0.00014429665852271975,0.00020966597869308701,-0.0031898878640649157,0.006843974606966802,0.9936617561343372
2014-04-09,1,0.000521421257739029,0.000626841476308431,-0.003178025014202875,0.006843974606966802,0.9938602709344464
2014-04-11,1,0.0005069092419562635,0.0006380680073919461,-0.0016543947516243136,0.008669364150036584,0.9941488400594768
2014-04-15,1,0.0006766327115909603,0.0008153219311480499,-0.002888975947511257,0.009679852309984763,0.9938828647797566
2014-04-17,1,0.0011597655946647659,0.0013954584445718047,-0.003056738282818507,0.008441953581990787,0.9943436723300081
2014-04-22,1,0.0015431829777696306,0.0018533649452874413,-0.002854350721200923,0.008441953581990787,0.9947495474578096
2014-04-24,1,0.0020855623307723145,0.002471611192610252,-0.002854350721200923,0.004096274383012088,0.9954695162679035
2014-04-28,1,0.0021260225785006658,0.0024756431089967114,-0.0019091671225614382,0.0037660875870226887,0.995931717214233
2014-04-30,1,0.0023352372284612477,0.00270882402406103,-0.0012116252467625935,0.0037660875870226887,0.996370827926744
2014-05-02,1,0.0024772647971825846,0.0028781009908882133,-0.0019091671225614382,0.0037827888332732087,0.9958758728982671
2014-05-06,1,0.0019259299721995737,0.00223714883363468,-0.0012116252467625935,0.006800243479482169,0.996072773395927
2014-05-08,1,0.0019896084456160245,0.0022686710271201567,-0.0019091671225614382,0.004072795353196835,0.9961355740002954
2014-05-12,1,0.0022486765113759917,0.002571188957890047,-0.0019091671225614382,0.003546549111219116,0.996308399037021
2014-05-14,1,0.002767674757828376,0.003190800038812186,-0.001735313978224344,0.0031715374977048863,0.996454485817399
2014-05-16,1,0.0028194931528816147,0.00325681719333648,-0.0012116252467625935,0.0034634661976129886,0.9965998788218617
2014-05-20,1,0.0027384544334297777,0.003168410306780706,-0.001735313978224344,0.0034634661976129886,0.9965518246634881
2014-05-22,1,0.0028947397656252445,0.0033507222235915784,-0.0022057929477774427,0.0034634661976129886,0.9958837593866722
2014-05-27,1,0.0031561921552151822,0.0036584217339626383,-0.0026228167018876305,0.003335985627967541,0.9958421884468952
2014-05-29,1,0.003048648464498728,0.003507263364551101,-0.003012010066837581,0.0031715374977048863,0.9957576114444308
2014-06-02,1,0.002621042785826067,0.0030067700954324525,-0.003012010066837581,0.0031715374977048863,0.9960046100837286
2014-06-04,1,0.002939854658520806,0.003353163143939247,-0.0033976309960738987,0.0031715374977048863,0.9957664925581085
2014-06-06,1,0.002270585882123098,0.0025624269527982496,-0.002976108505563578,0.0025386029233742586,0.9962265580522902
2014-06-10,1,0.002792213868873442,0.0031852816836174737,-0.003377375284042585,0.0021535585357436143,0.9955415665829302
2014-06-12,1,0.0023029396346175104,0.0025961911644086003,-0.004251942535072589,0.0026952429619257973,0.9957315108452034
2014-06-16,1,0.0018445263480329445,0.00204308772624947,-0.004251942535072589,0.0038618451113232636,0.9956284795406493
2014-06-18,1,0.0012436554896404896,0.0013073566079243367,-0.004438226635963714,0.0038618451113232636,0.9949775250836461
2014-06-20,1,0.0011950546908045838,0.001278304704616122,-0.004251942535072589,0.0040425472214423285,0.9952384453253389
2014-06-24,1,0.0005826219305715542,0.0005939937309199308,-0.004438226635963714,0.0040425472214423285,0.993570020629276
2014-06-26,1,0.00037420234840225807,0.0004152193083890188,-0.004549822968918745,0.004548039760697845,0.992912981114128
2014-06-30,1,0.0001771166359550581,0.00023944637116906384,-0.004801473847211895,0.004548039760697845,0.9927123074890057
2014-07-02,1,0.00023556695622117655,0.0002858920822616406,-0.005320176218673665,0.0040425472214423285,0.9927319068711891
2014-07-07,1,0.0005262362339419145,0.0005383892234704765,-0.005320176218673665,0.0040425472214423285,0.9927902799221116
2014-07-09,1,0.0005670099410472505,0.0005839573939867191,-0.00830317934018275,0.0040425472214423285,0.9925451428486177
2014-07-11,1,0.0004790707576244175,0.000488292917594153,-0.00830317934018275,0.004673807722218332,0.9925787984712964
2014-07-15,1,0.0005688712838080182,0.0005835612343627761,-0.00830317934018275,0.0036129208193779218,0.9929071573943828
2014-07-17,1,3.083493925075956e-05,9.341267022444497e-05,-0.003859440701440875,0.005170094412225556,0.9929781190691981
2014-07-21,1,0.0003003012991972973,0.0003273089710617382,-0.003859440701440875,0.005170094412225556,0.9928762695494852
2014-07-23,-1,-0.00038940579634065385,-0.00028252087730706486,-0.0020787455465404252,0.005170094412225556,0.9946013908218467
2014-07-25,-1,-0.0004494685831734914,-0.000330614493529832,-0.0019872136247704223,0.005170094412225556,0.9950641176067472
2014-07-29,-1,-0.0006832916321845531,-0.0005439599716871885,-0.0009599006350419509,0.005932915614569908,0.995161051927928
2014-07-31,-1,-0.0011696379567907732,-0.000962831480652126,-0.0008838199524956378,0.006071548466549681,0.9952048623328071
2014-08-04,-1,-0.0009563521782240886,-0.0007692644696068472,-0.0009599006350419509,0.006071548466549681,0.9953323586339898
2014-08-06,-1,-0.0011119883376976966,-0.0008976083541321631,-0.0009599006350419509,0.0058062207162849246,0.9959264432674991
2014-08-08,-1,-0.000814869677922746,-0.0006499990328885236,-0.0012335150418449994,0.0049971885632806474,0.9960753562598813
2014-08-12,-1,-0.0008400506681749083,-0.0006671557466416581,-0.0020102606990214864,0.004381512624877263,0.9960922765998343
2014-08-14,-1,-0.0006032633628038543,-0.0004571742366291338,-0.00233800544497994,0.0035653151883760087,0.9964142438438067
2014-08-18,-1,-0.000642550735412371,-0.0004871688310549845,-0.00233800544497994,0.0035653151883760087,0.9962303788619775
2014-08-20,-1,-0.000497574496523331,-0.00036880774884661966,-0.00233800544497994,0.004381512624877263,0.9956993739073291
2014-08-22,-1,-0.0005603595857977934,-0.0004229360432628587,-0.00233800544497994,0.0035653151883760087,0.996168338665127
2014-08-26,-1,-0.00046525843622115937,-0.00034500982162286026,-0.003120528145180917,0.0035653151883760087,0.9952764339118695
2014-08-28,-1,-0.0005508884745630077,-0.0004133560592748472,-0.0031382094429103034,0.0035653151883760087,0.9948675642889413
2014-09-02,-1,-0.00030606414901230026,-0.00021722463716645877,-0.004722520377889595,0.002221360285347521,0.9946940392617487
2014-09-04,-1,-0.0005779311167569726,-0.000441129109551464,-0.005704174847047741,0.002221360285347521,0.9944033887435073
2014-09-08,-1,-0.0006799599766213879,-0.0005405419316321218,-0.004722520377889595,0.004452486821728445,0.9939368920510301
2014-09-10,-1,-0.0006706161606115583,-0.0005350266856309811,-0.005704174847047741,0.007711698090265623,0.9933703427773279
2014-09-12,-1,-0.00077426944818341,-0.0006346348992322566,-0.006115223112000766,0.007711698090265623,0.993305689386219
2014-09-16,-1,-0.00034899265679893155,-0.0002711842831641134,-0.006115223112000766,0.0037732265795233128,0.9937194397051574
2014-09-18,1,7.980080628395044e-05,0.00010059992193163362,-0.007240815271310673,0.001994940204612477,0.993306039355608
2014-09-22,-1,-9.480845856708755e-05,-5.8269438019520144e-05,-0.007240815271310673,0.0037732265795233128,0.9926443912895042
2014-09-24,1,0.00014891158278099046,0.00015766909575662698,-0.006115223112000766,0.007711698090265623,0.9925722055589044
2014-09-26,-1,-0.00018059126187713236,-0.00011714324586168621,-0.005629464785128587,0.01023007682477763,0.992418064133866
2014-09-30,-1,-0.0001924455790541184,-0.00014239986947751833,-0.0028499551597137066,0.011285302379943688,0.9918076227055769
2014-10-02,-1,-0.0003621766422486839,-0.00029838878579795006,-0.002244664486910072,0.011285302379943688,0.991764103141513
2014-10-06,1,0.00012577180411564947,0.0001271716030968709,-0.0037137352486927852,0.01023007682477763,0.9919084079105285
2014-10-08,1,0.00019433602514075114,0.00021021097441215546,-0.002244664486910072,0.011285302379943688,0.9921493531376684
2014-10-10,-1,-5.97848855797938e-05,-3.973468264230104e-05,-0.0008109421410482779,0.011285302379943688,0.9920158916223656
2014-10-14,-1,-9.45682221463203e-05,-7.469126315864904e-05,-0.00044311759096592895,0.011285302379943688,0.9920364677831746
2014-10-16,-1,-0.00036583518088765784,-0.00032088748334865066,0.0015286056740264414,0.011285302379943688,0.9927192091914505
2014-10-20,0,-2.713668783901393e-06,4.385282330077258e-06,0.0015286056740264414,0.01023007682477763,0.9931631866626439
2014-10-22,1,0.0004930197417093052,0.0005540208390322108,0.001117565400151193,0.008174597042277153,0.9946098275203871
2014-10-24,1,0.0012289501243468756,0.0014129023751527164,0.001117565400151193,0.005889494579766249,0.9958277372232976
2014-10-28,1,0.0013935110721589512,0.0015805924034715513,-0.0002658303980214015,0.004258602905916021,0.996440307349773
2014-10-30,1,0.0016061896103134483,0.0018338265887139138,0.0005266793231326519,0.004258602905916021,0.9965343001930298
2014-11-03,1,0.0014156267413704478,0.0016150293827052599,-0.000119922083327823,0.004147183153454199,0.9971280783574314
2014-11-05,1,0.0018560726165993482,0.0021169259807087997,-0.00024022144500076968,0.004147183153454199,0.9972933405636316
2014-11-07,1,0.002013960056022093,0.0022951335374959666,-0.00024022144500076968,0.003580587584925482,0.9972235279216431
2014-11-11,1,0.0018082397272187007,0.002045008382906487,-0.0005011609170878117,0.0031887951175450365,0.9966506596285808
2014-11-13,1,0.001888045833035378,0.002135141476721248,-0.001508861275080665,0.0031887951175450365,0.9958737248915234
2014-11-17,1,0.0017405877655103366,0.0019675542105525457,-0.0007228794997070645,0.003075718113647304,0.996219730731871
2014-11-19,1,0.0017243573793734041,0.0019391118739155047,-0.0007228794997070645,0.0046510696649519415,0.995094244923057
2014-11-21,1,0.0019068237114411625,0.002149198831586285,-0.0011136377803506335,0.005492525031929436,0.9948805910200617
2014-11-25,1,0.0017766539270290312,0.0019982132062620383,-0.0011136377803506335,0.0060360042957368805,0.994881882849882
2014-11-28,1,0.0020050618435881818,0.0022578386764456468,-0.0011136377803506335,0.00547664494225037,0.9951358673133681
2014-12-02,1,0.001996169025185998,0.002245183569296743,-0.001953365026811955,0.00547664494225037,0.9946506964847492
2014-12-04,1,0.002232629726027975,0.002528467963750325,-0.0047141924391583215,0.0035538556071128295,0.9939946270832323
2014-12-08,1,0.002210742051362678,0.0024791840481055965,-0.00736438376758995,0.0035538556071128295,0.9929681042112233
2014-12-10,1,0.001778649569472168,0.00199896357016446,-0.005136955603754913,0.00547664494225037,0.9923767596725932
2014-12-12,1,0.0014875780695150418,0.0015804864759750307,-0.004393273612603615,0.00547664494225037,0.9928220789928607
2014-12-16,1,0.0013370948520126302,0.0014183853876310998,-0.006696671426209622,0.00547664494225037,0.9920739206354299
2014-12-18,1,0.001978241067850208,0.0021142620396658912,-0.0071596882077724685,0.004503998903447239,0.991714750170859
2014-12-22,1,0.0015534723792451444,0.0015972414249921863,-0.008113407739784771,0.004685158658049721,0.9903000678830636
2014-12-24,1,0.0015162169213142054,0.0015625666618291935,-0.00922080868935389,0.002817305940973258,0.9900616258064583
2014-12-29,1,0.0013664375709459837,0.0013843898281411422,-0.010279134648666564,0.0022007530874432477,0.9889435477239694
2014-12-31,1,0.0010478463297493136,0.001065535180870192,-0.011123419448682836,0.0022007530874432477,0.9887479343847563
2015-01-05,1,0.0004362731082470149,0.0005156090106293942,-0.009848907739469974,0.014732365740456173,0.9883425760015221
2015-01-07,1,0.0008382335458438021,0.0008552900050538888,-0.009848907739469974,0.008370399930282919,0.9889786474817752
2015-01-09,1,0.0010974886108908607,0.001123960700458539,-0.009848907739469974,0.006405165178076627,0.9897324973357894
2015-01-13,1,0.000821176067137577,0.000826366420398927,-0.009848907739469974,0.008251864768899133,0.9893031484533049
2015-01-15,1,0.0004725786465517774,0.000511183573131976,-0.008263090059742951,0.008251864768899133,0.9901429729926571
2015-01-20,1,0.0009353875576551761,0.0009569809793116761,-0.008263090059742951,0.006652965535981042,0.9914230166034123
2015-01-22,1,0.0015572043059119463,0.0016595909890252543,-0.003848002415896743,0.006405165178076627,0.992966119558514
2015-01-26,1,0.0011080009430959545,0.0011499411833673858,-0.00318220846505452,0.006405165178076627,0.9931380614712583
2015-01-28,1,0.00018678770865501648,0.0002653813762869024,-0.0016694490982385607,0.006652965535981042,0.9937985608133985
2015-01-30,-1,-0.0006637763758969772,-0.00046589234464242807,-0.0016694490982385607,0.006652965535981042,0.9941354373621915
2015-02-03,1,0.00024961640816745484,0.0003464615716492584,-0.0038017553394345182,0.00488474469718571,0.9952847807404614
2015-02-05,1,0.0003353867052034359,0.0004390147266044877,-0.004685878406690084,0.004308401353803721,0.9947054265153175
2015-02-09,0,-5.719252181304353e-05,7.14538944334601e-05,-0.004685878406690084,0.0049760743951068765,0.994231909245646
2015-02-11,1,0.0006697431668970498,0.0006952871360377682,-0.004685878406690084,0.0049760743951068765,0.9935303797978711
2015-02-13,1,0.0004972403582033738,0.0005505943559630527,-0.005118993388022991,0.007180352650895956,0.9921891736458076
2015-02-18,1,0.00041085411419625374,0.00046958654889843113,-0.005118993388022991,0.007438270421862367,0.99183197105529
2015-02-20,1,0.00017119115937855306,0.0002685235608709373,-0.005118993388022991,0.007438270421862367,0.9915049218941309
2015-02-24,0,-0.00014137755921863216,3.6842042699394514e-06,-0.004685878406690084,0.007438270421862367,0.991864720658336
2015-02-26,-1,-0.0003622553526619731,-0.00017092187040004868,-0.005443411101291907,0.006822511130793647,0.9915565661578921
2015-03-02,-1,-0.00016845886572229135,-2.002138875100421e-05,-0.005443411101291907,0.007484230330404061,0.9905892553509789
2015-03-04,-1,-0.0006301649766918034,-0.00042197873606797723,-0.009648290933259918,0.007484230330404061,0.989988915041146
2015-03-06,-1,-0.0011464719745347379,-0.0008671144080345217,-0.007794553951577181,0.007484230330404061,0.9906579960281807
2015-03-10,-1,-0.0016519265279505203,-0.00130388788465068,-0.007262796499017473,0.006181440783193741,0.9916310313799905
2015-03-12,-1,-0.0011276895414749982,-0.0008186091404726607,-0.007262796499017473,0.004135455950641807,0.9929654653521953
2015-03-16,-1,-0.0006991355247844332,-0.0004599105375593267,-0.004619775673900285,0.0033513561722267027,0.9943221388956877
2015-03-18,-1,-0.0001749305094743952,-3.726343035765321e-05,-0.004619775673900285,0.0033513561722267027,0.9942613072660988
2015-03-20,1,3.9791671701045926e-05,0.00012410107717425808,-0.007262796499017473,0.0033513561722267027,0.9928585312886469
2015-03-24,1,8.421846216787149e-05,0.00014248858276137225,-0.007837786635894009,0.0033513561722267027,0.9910357006683337
2015-03-26,-1,-0.0004702769908850199,-0.00034813023424408527,-0.002382745098404017,0.004771130130222746,0.9910929065854113
2015-03-30,1,0.0001878998677589755,0.00024204944777750728,-0.006299776670936808,0.0038503345325731834,0.9920431158044521
2015-04-01,-1,-0.00031448037805234953,-0.0002215284676974808,-0.006299776670936808,0.0038503345325731834,0.9919031513746284
2015-04-06,1,7.327408661288665e-05,0.0001110766014641159,-0.006299776670936808,0.003675863007016034,0.9918900605325212
2015-04-08,-1,-0.0001321742243713961,-7.516557314199033e-05,-0.00354895162647274,0.003675863007016034,0.9920473141558032
2015-04-10,0,-3.159143829071308e-05,1.1250973470972508e-05,-0.00354895162647274,0.005849377131362632,0.99128370400048
2015-04-14,-1,-9.691208993184666e-05,-4.224031633560805e-05,-0.0064746240930132135,0.005849377131362632,0.9904435701248752
2015-04-16,1,0.00013721645937759153,0.00016268784698402513,-0.0064746240930132135,0.0071779635111977255,0.9903299867660683
2015-04-20,-1,-0.0004323167979549209,-0.0003478145636313386,-0.005526525947955031,0.005491389164040656,0.9918620197703429
2015-04-22,-1,-0.0014081857539435482,-0.0012055249572107427,-0.003403007220189647,0.005491389164040656,0.9934051618550871
2015-04-24,-1,-0.0007832769204622233,-0.0006653103337065982,-0.005506025906261456,0.004755143671556463,0.9941741798911485
2015-04-28,-1,-0.0008521124821748661,-0.0007273408619929697,-0.005506025906261456,0.005399925937293787,0.9937300215527559
2015-04-30,-1,-0.0014141309052822027,-0.0012308666887837088,-0.003964165128447475,0.005399925937293787,0.9943314567096586
2015-05-04,-1,-0.001012339224062407,-0.0008878627627174726,-0.005506025906261456,0.004755143671556463,0.994674919148083
2015-05-06,-1,-0.0013002894497560619,-0.0011213292880300567,-0.0060947716527417544,0.005273474206302163,0.9940639681457356
2015-05-08,-1,-0.001014620926433891,-0.0008558122219430491,-0.00818531720262929,0.003400438746310807,0.9939803686706794
2015-05-12,-1,-0.001492501317399315,-0.0012788244927778455,-0.007029016699393271,0.004755143671556463,0.9940645252573646
2015-05-14,-1,-0.00077057744431652,-0.0006773207320521804,-0.007029016699393271,0.004755143671556463,0.9938283517836853
2015-05-18,-1,-0.0006169714943150146,-0.0005443241058405964,-0.007107185751646459,0.005256531178275259,0.9933745091120589
2015-05-20,-1,-0.0004631992226149178,-0.0004116343290054591,-0.007107185751646459,0.006854654161290453,0.992610193899507
2015-05-22,-1,-0.0006335904268112248,-0.0005665272027920682,-0.00818531720262929,0.006854654161290453,0.9917814108057877
2015-05-27,-1,-0.0007933553274015378,-0.0006950909853199701,-0.00818531720262929,0.006143911333878684,0.9921305509545729
2015-05-29,-1,-0.0013308800272504458,-0.001152902931739733,-0.00818531720262929,0.006143911333878684,0.9921319960193475
2015-06-02,-1,-0.0013191389013914527,-0.0011565014766935335,-0.009190819701371809,0.006143911333878684,0.991242253283591
2015-06-04,-1,-0.0011467030766435576,-0.0010087227245380768,-0.009190819701371809,0.006220928768710588,0.990552712407445
2015-06-08,-1,-0.0016387852002278207,-0.0014436000316622726,-0.006652602527703516,0.007708908164824205,0.9908564158722157
2015-06-10,-1,-0.0013434011214645747,-0.0011730835985884146,-0.0075821297750145724,0.007708908164824205,0.9904944902861821
2015-06-12,-1,-0.0010900965497500665,-0.0009670414230164036,-0.0075821297750145724,0.00972430836380223,0.9901035502761756
2015-06-16,-1,-0.0006213870597252144,-0.0005850769813901623,-0.004646837816604124,0.00972430836380223,0.9907585277208008
2015-06-18,-1,-0.0003545247519276864,-0.00033146106045159524,-0.004996330736639947,0.008694220645025704,0.991249348207443
2015-06-22,-1,-0.0010159380878909446,-0.0008906671758045366,-0.003251452216500291,0.00972430836380223,0.9913744104509128
2015-06-24,-1,-0.0014836967094601912,-0.0012893687681767413,-0.0029933264606076615,0.00972430836380223,0.9913300690549973
2015-06-26,-1,-0.0011400027578221039,-0.0010219729764450217,-0.0012593266858097636,0.00972430836380223,0.9917078555671405
2015-06-30,-1,-0.0010838633300292912,-0.0009839123929132473,-0.00038995371514564806,0.00972430836380223,0.992386514572305
2015-07-02,-1,-0.0008290674278550135,-0.0007449903570087461,-0.0009443489540981659,0.008694220645025704,0.993713293031422
2015-07-07,-1,-0.00021968037849527308,-0.00020837112862675638,-0.0009384384074592061,0.008009907060123334,0.9941251222744747
2015-07-09,-1,-0.0002984441230710227,-0.000297848831630955,-0.0029755948206907816,0.007757420955091803,0.9948550209864162
2015-07-13,1,0.00018353356403286698,0.0002510523513118467,-0.0029755948206907816,0.003642384140740063,0.9959635910127662
2015-07-15,1,0.00021929783852788227,0.00029191234524751305,-0.003251452216500291,0.003642384140740063,0.9957404448801532
2015-07-17,1,0.00028047139339105727,0.0003574609810521464,-0.0029755948206907816,0.00524546561584309,0.9952962326884015
2015-07-21,1,0.0007666217841811861,0.0009134754366679652,-0.0009384384074592061,0.003642384140740063,0.9963601649609115
2015-07-23,1,0.00078417754147996,0.0009330006355163081,-0.003762067516073196,0.003246185230926335,0.995681911970615
2015-07-27,1,0.001053915071510589,0.0012409188919958103,-0.005259689238974485,0.003246185230926335,0.9923839857508547
2015-07-29,1,0.0007621405559764102,0.0008808444690471614,-0.005634779937562388,0.0015717811155142231,0.9911277508986297
2015-07-31,1,0.000515648274175089,0.0005899405086630293,-0.00677502521724743,0.004194029926673405,0.9902485152106074
2015-08-04,1,0.0010395134198964429,0.0012279650371905234,-0.009781365073246555,0.0015717811155142231,0.9890803842810505
2015-08-06,1,0.0009401238405645614,0.0011254930781592837,-0.009781365073246555,0.005112246535177608,0.9889440638284985
2015-08-10,1,0.000995894379664593,0.0011953017093452377,-0.011364524643458433,0.008829612215235039,0.9873454652311805
2015-08-12,1,0.001075925579477929,0.0012789511943548078,-0.012349931280806288,0.008829612215235039,0.9867488670707925
2015-08-14,1,0.0013000242893032082,0.0015238834262742702,-0.012349931280806288,0.004884230304599413,0.9873191114700466
2015-08-18,1,0.0011054623057948295,0.001281672346753328,-0.012349931280806288,0.011307878929240301,0.9862689176290625
2015-08-20,1,0.0010167520261416861,0.0012253962120035544,-0.012856326143984171,0.011307878929240301,0.9861764071128676
2015-08-24,1,0.00019614565896096059,0.00025374846276406213,-0.010755668636408828,0.011307878929240301,0.9882840063266527
2015-08-26,1,0.00037480468406121215,0.00047691738636271975,-0.010109833952362507,0.009074576794319666,0.989784689034869
2015-08-28,0,-1.711550678122972e-06,3.5086398406234824e-05,-0.009506989798803177,0.009074576794319666,0.9899782110802527
2015-09-01,-1,-0.0004608999645023641,-0.00044461637772509957,-0.003916732320635562,0.009074576794319666,0.9911007781608252
2015-09-03,-1,-6.933308194510243e-05,-2.9419334479463804e-05,-0.009165889882134601,0.009074576794319666,0.9907100110111527
2015-09-08,1,0.0002877599975782307,0.00039412314759655696,-0.007893687776797026,0.009074576794319666,0.9912480683589321
2015-09-10,-1,-9.168977570451391e-05,-6.667190315698022e-05,-0.003778796662369936,0.010463152894421655,0.9910610626316362
2015-09-14,-1,-0.0004416844094299552,-0.0003940947843346464,-0.003778796662369936,0.010463152894421655,0.9908640998771279
2015-09-16,1,0.0003804947727702563,0.0004546806278054948,-0.005859184822938759,0.008723097360115312,0.9918034384478578
2015-09-18,-1,-0.0002300507817052738,-0.00021943694393754026,-0.00427148806495228,0.009408714591808595,0.9913260149694318
2015-09-22,-1,-0.0006592270123413931,-0.0005721718975740134,-0.0026535765402232415,0.010686716087836353,0.9909909371841247
2015-09-24,-1,-0.0005520474791902433,-0.00048420223488896693,-0.0020794814769850654,0.01499123226726901,0.9896105764611473
2015-09-28,-1,-0.0005103778313037283,-0.00045134069688964175,-0.0006308451641282877,0.01499123226726901,0.9903026261837281
2015-09-30,-1,-0.00024364437050117374,-0.0002305264409836791,-0.0006308451641282877,0.01499123226726901,0.9899702161271127
2015-10-02,1,0.00014948155178023148,0.0001670408453703357,-0.0006308451641282877,0.011821191133585159,0.9909429532841264
2015-10-06,-1,-7.09103406409008e-05,-6.86053829041591e-05,-0.0006308451641282877,0.009474319560130477,0.991622422689513
2015-10-08,1,0.0005451936004515653,0.0006293741682970632,-0.0010869257521515362,0.008749739032136362,0.9925946974983777
2015-10-12,1,0.0006029395872479408,0.0006976269334328677,-0.0017823740288669151,0.008749739032136362,0.9925010516528329
2015-10-14,1,0.00017603557409314293,0.00020251163853949558,-0.0005081603708299279,0.009420046454812911,0.992225790148706
2015-10-16,1,0.0008674130514345218,0.0009898716371209346,-0.0017823740288669151,0.007791448828452193,0.9927832401925548
2015-10-20,1,0.0011788041377555386,0.0013194532122835427,-0.0017823740288669151,0.0076077929333215255,0.9936599589415359
2015-10-22,1,0.0016907793885954131,0.0018881524066779705,-0.0017823740288669151,0.006130227043068853,0.9942092931379353
2015-10-26,1,0.0015909927380814387,0.0017720190770170396,-0.001891840478658224,0.007155453174770532,0.9940007303698005
2015-10-28,1,0.0015443912431525124,0.0016871043940342519,-0.0024804775861319277,0.00433335627144659,0.9939541338240714
2015-10-30,1,0.001307961914568138,0.0014442183602333134,-0.0023999166825990374,0.00433335627144659,0.9944917645844026
2015-11-03,1,0.0014242239062725117,0.0015701929797179018,-0.0025185128671105523,0.00433335627144659,0.994086525983155
2015-11-05,1,0.001422443613564725,0.0015695389383857809,-0.003456146718177277,0.007268329904283706,0.99160770894551
2015-11-09,1,0.0014051428030885818,0.0015728608716294072,-0.004476486823186505,0.007268329904283706,0.9913814195528149
2015-11-11,1,0.001387556917324562,0.0015218259342416754,-0.006254302875571627,0.003984129405701896,0.9911471068783821
2015-11-13,1,0.0007114477795343498,0.0007383069654781411,-0.006254302875571627,0.007268329904283706,0.9913713046439236
2015-11-17,1,0.000747905185921822,0.0007645437795181683,-0.006254302875571627,0.01015897131814047,0.9903467935279918
2015-11-19,1,0.0010431555265976139,0.0010855099284018072,-0.010825754798438272,0.007703825488286083,0.9891751534993906
2015-11-23,1,0.0013127449736806355,0.0014051297073101833,-0.010825754798438272,0.01015897131814047,0.9886081688150666
2015-11-25,1,0.0012967808374123883,0.0014076095994480858,-0.010825754798438272,0.01015897131814047,0.9888137933207115
2015-11-30,1,0.001042000923637364,0.0010996730167644171,-0.010825754798438272,0.011682067336618768,0.988397138470358
2015-12-02,1,0.0012783190612235683,0.001396167495363323,-0.011083497587255613,0.011682067336618768,0.9882585044180301
2015-12-04,1,0.001478561727622374,0.0016191184263042928,-0.011083497587255613,0.008408910810881446,0.9894496999617616
2015-12-08,1,0.0008681758187673883,0.0009296222538297124,-0.012004944792408418,0.008408910810881446,0.9884006923795347
2015-12-10,1,0.0009277443612471833,0.0010391399383703824,-0.011443908435900013,0.00855360034023362,0.9885394655738429
2015-12-14,1,0.0009096122261141736,0.0010068983542669309,-0.0126201983980485,0.008446780177964866,0.9882258648403462
2015-12-16,1,0.0016927823319975298,0.0019070872694198374,-0.014101875937432288,0.007403221291309244,0.988359770976905
2015-12-18,1,0.00048524800883962844,0.0005417590451598235,-0.014101875937432288,0.007403221291309244,0.9890685571352186
2015-12-22,1,0.0010831011066574179,0.0012062772676644364,-0.014101875937432288,0.006332327515803874,0.989373123190348
2015-12-24,1,0.0010522476881214997,0.0011789877036707706,-0.014101875937432288,0.0065968040968748375,0.988606119883966
2015-12-29,1,0.001295041952296357,0.0014404015815149686,-0.014101875937432288,0.0065968040968748375,0.9886885090643932
2015-12-31,1,0.0006982173583326876,0.0007630158844805351,-0.014101875937432288,0.007829530653487626,0.9885513902903007
2016-01-05,1,0.0004771363742255372,0.000521260255192408,-0.01094412541381355,0.008251785929856495,0.9891856753434208
2016-01-07,-1,-0.0002002368526190613,-0.00017814052065827992,-0.009443445883282888,0.008251785929856495,0.9901356977181499
2016-01-11,1,5.2824534316914425e-05,6.336656568187292e-05,-0.009443445883282888,0.008251785929856495,0.9902645276387153
2016-01-13,-1,-0.0007036041124559101,-0.0005920598064632506,-0.009443445883282888,0.006737555855664461,0.9906958241913564
2016-01-15,-1,-0.0010257455538505234,-0.0008405223482260889,-0.009159916530234185,0.006737555855664461,0.9901798433576812
2016-01-20,-1,-0.0015108069396596515,-0.0012708497104473098,-0.007158285927700411,0.008890282791057635,0.9904436919008021
2016-01-22,-1,-0.0018147743128376684,-0.0015228296629821577,-0.006614298767660067,0.011286678348338651,0.9901604773399876
2016-01-26,-1,-0.002303199575112454,-0.0019156525053448735,-0.006614298767660067,0.008890282791057635,0.9902509360572428
2016-01-28,-1,-0.0017760642599802777,-0.0014683122147540217,-0.0070897809934911925,0.007489519160348268,0.9903610145382165
2016-02-01,-1,-0.0013039504623586818,-0.0010574130464690457,-0.007726309411648091,0.007489519160348268,0.9900674033250684
2016-02-03,-1,-0.0012219133748776552,-0.0009760127076153188,-0.0070897809934911925,0.006030521330740357,0.9907018401696414
2016-02-05,-1,-0.0018035727383691215,-0.0014863166996070675,-0.006614298767660067,0.005918946684623437,0.9911294845340096
2016-02-09,-1,-0.0010502561299537167,-0.0008596388974647496,-0.004467807875538135,0.005918946684623437,0.991082054685422
2016-02-11,-1,-0.002441235400992961,-0.002045191654070205,-0.0031743384663001062,0.00837603287087654,0.990460211192487
2016-02-16,-1,-0.001771131051689624,-0.001440182552154287,-0.004467807875538135,0.007899297401358236,0.9917247007916945
2016-02-18,-1,-0.0016020182255329241,-0.001287216134596099,-0.004467807875538135,0.007899297401358236,0.9917675453983409
2016-02-22,-1,-0.0014610202632518176,-0.0011588418208683835,-0.0013606756650823431,0.0068241219458591755,0.9925043564794318
2016-02-24,-1,-0.0015070897740147903,-0.0012018587226499179,-0.0008194344353496168,0.0068241219458591755,0.993301586196541
2016-02-26,-1,-0.0013932280926076028,-0.0011394866766921037,-0.0008194344353496168,0.006866773094452522,0.9934760229227492
2016-03-01,-1,-0.0008419530920587487,-0.00063751664636252,-8.313352925190777e-05,0.006866773094452522,0.9947589782586012
2016-03-03,-1,-0.0007083795373310012,-0.000555238176038943,-8.313352925190777e-05,0.006866773094452522,0.9944212339764023
2016-03-07,-1,-0.000671456617240745,-0.0005230534707998891,-0.0008194344353496168,0.006866773094452522,0.9941136561505021
2016-03-09,-1,-0.0008771483421377553,-0.0006805496270311663,-0.0023702452557917936,0.006866773094452522,0.9939293376180433
2016-03-11,1,0.0003300083776825503,0.0003430961305005639,-0.0040075634998940094,0.006449523170759197,0.994555580705286
2016-03-15,1,0.0007638738415203474,0.0008445230185654407,-0.0022679543804484904,0.006449523170759197,0.9950018940889284
2016-03-17,1,0.0013837091443975277,0.0015911154095355163,-0.0040075634998940094,0.006027976862555768,0.9951583072724377
2016-03-21,1,0.0012244171966970798,0.001403860113770522,-0.0040075634998940094,0.006027976862555768,0.9951121093439791
2016-03-23,1,0.0014698095995681715,0.0017061345270719926,-0.004529373314816777,0.006027976862555768,0.9919658847832554
2016-03-28,1,0.0011402711117812921,0.0013024741357829529,-0.004676801474703059,0.006027976862555768,0.9914055977577579
2016-03-30,1,0.0014755876039703499,0.0016974133369921682,-0.004676801474703059,0.004157089807591195,0.9912291152955817
2016-04-01,1,0.00155820909223072,0.0017875102173379367,-0.004159446975134959,0.004272955909981176,0.9912727938011676
2016-04-05,1,0.0009668674811093999,0.0011067053251888031,-0.004159446975134959,0.006452826065953559,0.991345913586333
2016-04-07,1,0.0008264368045583087,0.0009648015878715884,-0.004159446975134959,0.0067773951487241114,0.991429858805306
2016-04-11,1,0.000583274098706434,0.0006598189988715043,-0.004159446975134959,0.0067773951487241114,0.9916371307171481
2016-04-13,1,0.0010322817774760802,0.0011768302921214867,-0.004159446975134959,0.007177291409601069,0.9912388773025224
2016-04-15,1,0.001290683128147255,0.0014993533072567358,-0.004011400096766007,0.006251758003624344,0.9915575499422743
2016-04-19,1,0.001162116684462051,0.0013528774989577503,-0.004159446975134959,0.006251758003624344,0.9906664024529217
2016-04-21,-1,-9.911319653404868e-05,-8.275656486495268e-05,-0.0041285867736451185,0.007284287018853935,0.993193300573298
2016-04-25,1,0.0002241080727824387,0.0002805754206298511,-0.004118003676075185,0.007284287018853935,0.9933096847207954
2016-04-27,1,8.092620276508099e-05,0.00012045538623984982,-0.003979512082673749,0.008274759360542602,0.9927475328958855
2016-04-29,1,0.0004353648293075963,0.0005387902595928463,-0.003979512082673749,0.008274759360542602,0.993094815358426
2016-05-03,1,9.605492424936226e-05,0.00012013331940463728,-0.002985737851601847,0.006591998250981396,0.9933921384441268
2016-05-05,1,5.884676275311641e-06,7.139306253958148e-06,-0.0026812745371241876,0.006020995081000164,0.9939677480053845
2016-05-09,1,0.00013392427887862167,0.00015659241135622195,-0.00256560278791528,0.006020995081000164,0.9940676837338488
2016-05-11,1,0.0005148007379982464,0.000624203359816415,-0.002683059254335158,0.0053251697993358365,0.994702266065927
2016-05-13,1,0.00021205632935165642,0.0002228069577770502,-0.0036463114933886283,0.0029164019752607132,0.9944194137999888
2016-05-17,1,0.00013311680645750211,0.00017349156565897835,-0.003687765486684152,0.0029164019752607132,0.9949097146574856
2016-05-19,1,3.62195968244594e-05,5.960789352329882e-05,-0.003687765486684152,0.0029164019752607132,0.9950326877242179
2016-05-23,1,0.00043877251094496286,0.0005376777967933425,-0.0032538351503127493,0.0029164019752607132,0.9957001545801353
2016-05-25,1,0.00046080032225946014,0.000529979804410324,-0.003687765486684152,0.0029164019752607132,0.995303242053696
2016-05-27,1,0.00039099659709942536,0.0004398024170372615,-0.006169925322492118,0.001279284217046493,0.9939742429410066
2016-06-01,1,0.000291923982903404,0.0002925328748993139,-0.006169925322492118,0.003316191864507833,0.9915050262088566
2016-06-03,1,0.00032440260916604676,0.0003328288934870513,-0.006169925322492118,0.007130392469865366,0.9906085943120524
2016-06-07,-1,-5.440146276243968e-05,-4.0647766083478005e-06,-0.006169925322492118,0.007130392469865366,0.990825738283113
2016-06-09,0,-1.8745483082377185e-05,3.098679613610625e-05,-0.006710454119417346,0.007130392469865366,0.9902217909749905
2016-06-13,-1,-0.0006255730797359238,-0.00048185461392680586,-0.006169925322492118,0.007130392469865366,0.9907371470994147
2016-06-15,-1,-0.000952025250862985,-0.000763243576756117,-0.0027058250723809114,0.007130392469865366,0.990801952100748
2016-06-17,-1,-0.0009293669709261504,-0.0007425612709603703,-0.0027058250723809114,0.006379578639478301,0.9911276646428522
2016-06-21,-1,-0.000688583311380205,-0.0005427166186473085,-0.003617232465237987,0.005205778326675677,0.9914600674240702
2016-06-23,-1,-0.00012521485096616614,-6.321586517714795e-05,-0.002561654446315756,0.003975686631088831,0.9923491305530169
2016-06-27,-1,-0.0007498171534083412,-0.0006210960356900666,-0.0014717999369489988,0.003975686631088831,0.9936001480204466
2016-06-29,1,0.0003144515823412408,0.0003371338405534231,-0.001816699092268064,0.0028415934488299844,0.9954331942503113
2016-07-01,1,0.0004838375957169365,0.0004938479723741692,-0.002561654446315756,0.0028415934488299844,0.9955833481603743
2016-07-06,1,5.726577675517453e-05,0.00014055925477827222,-0.002561654446315756,0.003975686631088831,0.9952938520659885
2016-07-08,1,0.000277826809787293,0.0002983669389377096,-0.0012553468550121642,0.004032161384936176,0.9956867632043286
2016-07-12,1,0.00034228986937557204,0.0003460551981993959,-0.002561654446315756,0.004032161384936176,0.9955061214048547
2016-07-14,1,0.0004864432902214752,0.0005064012620335191,-0.002561654446315756,0.003268097162634243,0.9957138440158169
2016-07-18,1,0.0001370968496886254,0.00016457762824951172,-0.0016322030430951917,0.003268097162634243,0.9961786764769721
2016-07-20,-1,-8.248256892788743e-05,-1.987004617142588e-05,-0.0016322030430951917,0.0037033451165875905,0.9955665587164558
2016-07-22,1,0.0003096296852792967,0.00031758428682222535,-0.0017552509928681367,0.0034952613692975556,0.9955950631070757
2016-07-26,1,0.00020216947779973875,0.00021679504680711045,-0.003134526770395858,0.0034952613692975556,0.9953986837393268
2016-07-28,1,0.00027982800644860194,0.00028316897927148994,-0.0027948121952854218,0.0038498637143424877,0.9959594595284621
2016-08-01,1,0.00013034212792142587,0.0001460187383073659,-0.0027948121952854218,0.0038498637143424877,0.995968000488425
2016-08-03,1,0.0005476090157865412,0.000612182381106965,-0.0027948121952854218,0.0034952613692975556,0.9963221562375354
2016-08-05,1,0.0006339605913161909,0.0007123937647743841,-0.0029861165744553718,0.0034952613692975556,0.9962913855781663
2016-08-09,1,0.0006442937116281327,0.0007403516398994765,-0.0029861165744553718,0.0037676223171907944,0.996092340573618
2016-08-11,1,0.000710635978862778,0.0008141724647010027,-0.004598422291023876,0.0037676223171907944,0.9943612213242033
2016-08-15,1,0.0006909382092640209,0.0007908331926213804,-0.005130313426658682,0.003868883870256857,0.9935376379264571
2016-08-17,1,0.0005946279327346548,0.0006845846752494154,-0.004888605708968591,0.004121767030836217,0.9935280352230844
2016-08-19,1,0.0006841960359749357,0.0007976710184396385,-0.004888605708968591,0.004121767030836217,0.9935481665668319
2016-08-23,1,0.0005424985183491037,0.000639101366848698,-0.004888605708968591,0.004471418514908825,0.9933478835433477
2016-08-25,1,0.000613957903799245,0.0007032943439176818,-0.005130313426658682,0.0048303685174708915,0.9928109822340178
2016-08-29,1,0.0005989658603714727,0.0006689503524912852,-0.00656198410331996,0.004128802497403543,0.9928337279130389
2016-08-31,1,0.0006215727263880328,0.0006963260596936228,-0.010160920789129732,0.0044162537842571984,0.9921911343817351
2016-09-02,1,0.0007670976198978294,0.0008758074325517916,-0.011150609810309362,0.005426143660620745,0.9915860093197676
2016-09-07,1,0.0007315700956912199,0.0008371125812936002,-0.011150609810309362,0.0062039790702726975,0.991388383300585
2016-09-09,-1,-2.9665841149257975e-05,-2.6484900200197593e-05,-0.006991320376379987,0.0069116650902496,0.9925619432790803
2016-09-13,-1,-0.0009489105411698758,-0.0007724997657201771,-0.006988522574421905,0.0062039790702726975,0.9928209768338211
2016-09-15,-1,-0.0005384521750423252,-0.00042654266520900303,-0.006988522574421905,0.0062039790702726975,0.9928879437897533
2016-09-19,-1,-0.000694296314574014,-0.0005555796496070245,-0.006988522574421905,0.0062039790702726975,0.9931326580152866
2016-09-21,-1,-0.00043040492991085644,-0.00032840461185143765,-0.006988522574421905,0.0062039790702726975,0.9931819570351926
2016-09-23,-1,-0.0007124556680222079,-0.0005723326625965894,-0.009903782652501065,0.005487521779488189,0.9907865568276633
2016-09-27,-1,-0.0008550023807633903,-0.000701880441434817,-0.006988522574421905,0.006140079225985154,0.9911786730904908
2016-09-29,-1,-0.0009973562003957907,-0.0008286611365220429,-0.006351180823285304,0.006140079225985154,0.9915342343820467
2016-10-03,-1,-0.001054237412792727,-0.0008892873152409676,-0.0033899971012859033,0.0056558763301952095,0.9921800291486738
2016-10-05,-1,-0.0009523523040440055,-0.0008067876583428867,-0.0062147526094712855,0.004178250775101147,0.9917456576327508
2016-10-07,-1,-0.0009169798799590575,-0.0007509953069900224,-0.007988959597133184,0.002253461621508803,0.9919256108883363
2016-10-11,-1,-0.0011306063152525015,-0.0009358586040523383,-0.0062147526094712855,0.004494763118303455,0.9910303795834665
2016-10-13,-1,-0.0005940410557396373,-0.0004839313348385112,-0.00799033516410513,0.004494763118303455,0.9899927085127945
2016-10-17,-1,-0.0004145489632520017,-0.0003432551252139613,-0.00799033516410513,0.006605413359802133,0.9888482767809716
2016-10-19,-1,-0.00012360646590765345,-9.134920821759281e-05,-0.00799033516410513,0.0061636146333643735,0.9890184882215166
2016-10-21,-1,-0.0015361635266102052,-0.0013455775311608938,-0.0048116539433710245,0.0061636146333643735,0.9921149259159688
2016-10-25,-1,-0.0014093080369331065,-0.0012320392800394887,-0.0048116539433710245,0.0058225098259435115,0.9921617896616239
2016-10-27,-1,-0.0015999924453249414,-0.0014015618852464646,-0.0033238560512093263,0.005975818986347978,0.9918685114179066
2016-10-31,-1,-0.0015842351872759953,-0.0013850095034226638,-0.0033238560512093263,0.005975818986347978,0.991911952371806
2016-11-02,-1,-0.0022051334029742865,-0.0019237162114694435,-0.0018804551386283567,0.0061636146333643735,0.9916271813991722
2016-11-04,-1,-0.0024820305000291688,-0.0021585912712048638,-0.001106571685700631,0.0061636146333643735,0.9916102014548815
2016-11-08,-1,-0.00183428174922206,-0.0015879079979370088,-0.001106571685700631,0.006586856849091421,0.9926103012505881
2016-11-10,-1,-0.0013703877341639322,-0.0011872903796334407,-0.00010751048909220438,0.006226176088087386,0.993918837849895
2016-11-14,-1,-0.0006876067113117934,-0.0005932306602221963,-0.00010751048909220438,0.006181232292294234,0.994464375132845
2016-11-16,-1,-0.001502779378137045,-0.0012695344983281595,0.00023162325685536106,0.006181232292294234,0.9938607059734537
2016-11-18,-1,-0.0004047935150500325,-0.0003757887449235378,0.0009874792438415792,0.0072030967669301895,0.9942106252412136
2016-11-22,1,2.5253423475223025e-05,7.640267402524083e-05,0.0011906044152275386,0.0072030967669301895,0.9944455121028335
2016-11-25,1,0.0002670706529485796,0.0003502552514612416,0.00018691604186479478,0.0072030967669301895,0.994859414941761
2016-11-29,1,0.000278580474006688,0.00035676244893995894,0.00018691604186479478,0.0072030967669301895,0.9949683666514862
2016-12-01,1,0.0006217314502581333,0.0007463492575683014,0.0006771508426712306,0.005961132387967591,0.9961111271526
2016-12-05,1,0.0008320035531584058,0.000994440829158573,-0.000286602085038788,0.005961132387967591,0.995382313944379
2016-12-07,1,0.0011179438473111398,0.0013021849047858069,-0.001777642898182733,0.003554192723597745,0.9952667498383769
2016-12-09,1,0.0013415428243181444,0.0015507959220233008,-0.004097599088990747,0.0013552178868116167,0.9949502627173882
2016-12-13,1,0.0017983513128279715,0.002066555365808634,-0.005944722885677947,0.0011056595900733332,0.9948367420492323
2016-12-15,1,0.001621077251961576,0.001872075284943429,-0.004097599088990747,0.0019325367925260813,0.9954575732914216
2016-12-19,1,0.0018506960688136978,0.0021293837338677364,-0.00482394647067797,0.0019325367925260813,0.9950951569574312
2016-12-21,1,0.001879665152821879,0.002151381418468128,-0.00482394647067797,0.0012273122814805307,0.9951136673789184
2016-12-23,1,0.0018959434397725133,0.0021832825041631443,-0.005944722885677947,0.0019325367925260813,0.994649932148011
2016-12-28,1,0.0019420940945529984,0.0022424641042186255,-0.005944722885677947,0.002802900116738648,0.9946602594131189
2016-12-30,1,0.0019443567853652485,0.0022398602868482923,-0.005944722885677947,0.002802900116738648,0.9943775693281486
2017-01-04,1,0.001557600983208836,0.001806672796703952,-0.0056592569231118635,0.003604364449209014,0.9945467777045323
2017-01-06,1,0.0010869157172965934,0.0012695150028931726,-0.004728791149822608,0.003604364449209014,0.9954389123955579
2017-01-10,1,0.000737609028782088,0.0008614782087093092,-0.0018604148127365863,0.003604364449209014,0.995962407137509
2017-01-12,1,0.0006581388003519313,0.0007720848290518351,-0.00042394784118491175,0.004707859357483697,0.9958049743860967
2017-01-17,1,0.0006610100058048097,0.0007621764264992918,-0.00042394784118491175,0.005096453851860075,0.9958012645343198
2017-01-19,1,0.0008865746163816343,0.001032572853262044,-0.00018879543802183,0.006289628102508894,0.9959493564146957
2017-01-23,1,0.0009729250452970167,0.0011393728487683742,-0.00042394784118491175,0.006289628102508894,0.9958150990229957
2017-01-25,1,0.0009143718566267714,0.0010753807422447473,-0.00018879543802183,0.00485911791491328,0.9964291326440889
2017-01-27,1,0.0010194073920091959,0.0011958039841483438,-0.0007851626394279696,0.00485911791491328,0.9964288084459426
2017-01-31,1,0.000946497367394118,0.0011110118394239963,-0.0003092003707695159,0.006289628102508894,0.9956788578522985
2017-02-02,1,0.0004460994432163409,0.0004926244768829285,-0.0007851626394279696,0.00485911791491328,0.9960770089518397
2017-02-06,1,0.0004424407501370744,0.0004859325450722355,-0.0015739263880111955,0.00485911791491328,0.9953428557267762
2017-02-08,1,0.0005075801853895099,0.0005709030505976129,-0.0021937915102822588,0.00562143461578701,0.9947430823519784
2017-02-10,1,0.0008480328019615652,0.0009544507573499921,-0.0031690123330839603,0.0046814615384742925,0.9948642197284043
2017-02-14,1,0.001012519549798951,0.0011514954305715853,-0.0031690123330839603,0.004246748171167072,0.9948751756705674
2017-02-16,1,0.0011664921340371437,0.0013133045614290252,-0.0031690123330839603,0.003387594676163377,0.9951470024704635
2017-02-21,1,0.0009607913528583516,0.0010705485934884157,-0.004189140652062292,0.003387594676163377,0.9946694463435927
2017-02-23,1,0.0010093833288201156,0.0011162292537357922,-0.00549075028709747,0.0030777927489116547,0.9944474350599986
2017-02-27,1,0.0008168764053318441,0.0008866048105310411,-0.00549075028709747,0.0030777927489116547,0.9943750866302111
2017-03-01,1,0.0013688621743559563,0.001510717239876573,-0.00566809820160896,0.0030777927489116547,0.9945645394039526
2017-03-03,1,0.0012234872632367242,0.0013617822633672412,-0.00566809820160896,0.003406134876286864,0.9946573810315288
2017-03-07,1,0.0007790841098079001,0.0008483947026862125,-0.00549075028709747,0.003406134876286864,0.995384518617968
2017-03-09,1,0.0008219034267697313,0.0009095578142496496,-0.0045843681392151074,0.0030777927489116547,0.9957541188245751
2017-03-13,1,0.0008031793356686596,0.0008835569820580554,-0.004108244199175657,0.0030777927489116547,0.9958465018695729
2017-03-15,1,0.0011172171323820474,0.0012541475259700095,-0.004108244199175657,0.002564024564417716,0.9960204463439095
2017-03-17,1,0.00016059481093444174,0.0002308669344881469,-0.0045843681392151074,0.002564024564417716,0.99534954155746
2017-03-21,-1,-0.00019595748154718496,-8.752590507849064e-05,-0.004108244199175657,0.002564024564417716,0.9953355019056878
2017-03-23,-1,-0.00048440501352372964,-0.0003347540023790651,-0.004108244199175657,0.002292754443921228,0.99507881386869
2017-03-27,-1,-0.0005379737600474464,-0.000381850752984763,-0.0034387179188054445,0.0046663718555036825,0.9944278691377305
2017-03-29,-1,-0.000994733466750628,-0.0007671891939166576,-0.0031039713504291393,0.004533123218830161,0.9948288704667969
2017-03-31,-1,-0.001204377440738583,-0.0009376194821222647,-0.003412938857445693,0.0032874005025600125,0.9949288792684382
2017-04-04,-1,-0.0009620964856916401,-0.0007402500259326874,-0.003982335024101963,0.00422593328563762,0.9945679062973376
2017-04-06,-1,-0.0009737986869171984,-0.000751766121526609,-0.003982335024101963,0.004463865467674223,0.9945518113939384
2017-04-10,-1,-0.0004460694690911243,-0.00031590598341705466,-0.004761442171422092,0.0038180690021897084,0.9946446459584141
2017-04-12,-1,-0.0006688635363376756,-0.0004931552674002479,-0.004761442171422092,0.004463865467674223,0.9944829878414274
2017-04-17,-1,-0.000503274253063935,-0.0003527565832492182,-0.003982335024101963,0.0038180690021897084,0.9952594549220146
2017-04-19,-1,-0.0009661623038048818,-0.000764350046084575,-0.0031009427741755385,0.0038180690021897084,0.9955544178898167
2017-04-21,-1,-0.001177901262282773,-0.0009607154054609722,-0.0027007002554401797,0.0043517664877912605,0.9959274988467198
2017-04-25,-1,-0.0006985502488069712,-0.0005376933594868259,-0.0027007002554401797,0.0038180690021897084,0.9965425690795606
2017-04-27,-1,-0.00019808869718303298,-0.00011959468871285399,-0.0027007002554401797,0.0038180690021897084,0.9960506618455979
2017-05-01,-1,-0.0005122523613739765,-0.00040009554947976485,-0.0015298432026557953,0.0038180690021897084,0.9963381767626717
2017-05-03,-1,-0.0001622214261522509,-0.00012041957371546167,-0.0008690988733264207,0.00461374873025699,0.9962038646614892
2017-05-05,1,7.69339745096981e-05,7.970485968629944e-05,-0.0014305547548528806,0.00461374873025699,0.996254153416166
2017-05-09,-1,-7.516032583505117e-05,-7.460573135118482e-05,-0.0014305547548528806,0.00461374873025699,0.9960296365195812
2017-05-11,0,-2.380270779571099e-06,3.350073316928456e-06,-0.001056787418513623,0.00461374873025699,0.9957213113219385
2017-05-15,1,1.2635128014821932e-05,2.7276988810489564e-05,-0.0005498371760075925,0.00461374873025699,0.995549340405793
2017-05-17,1,0.0002863271182401749,0.0003509112840986927,-5.957112785902293e-05,0.007410819588690444,0.9948209358055611
2017-05-19,1,0.0003042583835988938,0.0003649421065970215,-5.957112785902293e-05,0.007410819588690444,0.9945133782921131
2017-05-23,1,0.00041364708795086453,0.00048591738710020214,-0.0006938032676369044,0.005374952956308328,0.9946617113464217
2017-05-25,1,0.0010584737591058401,0.0012223289693666828,-0.002020188594677249,0.003907882506059651,0.9951866439388839
2017-05-30,1,0.0006191385972067391,0.0006919080354715708,-0.002643207385469186,0.003907882506059651,0.9948184276352785
2017-06-01,1,0.0007464933754717169,0.0008150577129141795,-0.004318578165322125,0.003444620179264322,0.9947371613958307
2017-06-05,1,0.0005297762094747197,0.000553303810104068,-0.004318578165322125,0.0035706384454541047,0.9945615522056042
2017-06-07,1,2.8985340295984406e-06,5.032485268637756e-05,-0.0026886356313111657,0.0035706384454541047,0.9947644342890681
2017-06-09,1,0.0005725726010057204,0.0006019898681076792,-0.004607599341527116,0.0035706384454541047,0.9945676588582782
2017-06-13,1,0.0006622276662797905,0.0007069468364707366,-0.005230527699593645,0.0033769894812018006,0.9944984588367225
2017-06-15,1,0.0012231263390237918,0.0013403175332493088,-0.005230527699593645,0.0025190960001785917,0.9954729785497445
2017-06-19,1,0.0008205539254071523,0.0008761267056994627,-0.005185723757335741,0.0025190960001785917,0.9955921023729074
2017-06-21,1,0.0008661080147949466,0.0009342505442174638,-0.005590272998908046,0.0025190960001785917,0.9947424120034395
2017-06-23,1,0.0005544968636378555,0.0005815758715361377,-0.005590272998908046,0.004206495908427713,0.9944708647196575
2017-06-27,1,0.0004278275871336028,0.00043499167645502255,-0.006197851649739088,0.005092429717286739,0.9937780030076426
2017-06-29,1,0.00024924530441386645,0.00027178087231774246,-0.005590272998908046,0.006653366007144425,0.9938753894161909
2017-07-03,1,0.0004161045109512531,0.00042376240815745635,-0.005590272998908046,0.007517921926439446,0.9934969653881484
2017-07-06,1,0.00037798795071434984,0.0003857126783259889,-0.004172592951336473,0.007517921926439446,0.9934755612297497
2017-07-10,1,0.0003319841649849798,0.00033703504069276845,-0.004172592951336473,0.007040402729399226,0.9940028566456517
2017-07-12,1,0.0003724351891025411,0.0004032428115902307,-0.0023844872028474557,0.007692860226931681,0.9936820086603424
2017-07-14,1,0.00041351995972916067,0.00044568863211443476,-0.004172592951336473,0.007692860226931681,0.99304770767366
2017-07-18,1,0.0004603857869871086,0.0005084423384394794,-0.0035794803320474827,0.007692860226931681,0.9932475976307021
2017-07-20,1,0.00016197581770069317,0.0001652613899187173,-0.0035794803320474827,0.007324672864564235,0.9936165741048202
2017-07-24,1,0.0009236818236684469,0.0010671405604256259,-0.0035794803320474827,0.006565131864060486,0.9940870275849796
2017-07-26,1,0.0007646068404866546,0.000876840096620415,-0.0035794803320474827,0.005181107825618289,0.9946994327671138
2017-07-28,1,0.000726344607671928,0.000803557275634481,-0.003979762896580551,0.005181107825618289,0.9942780217776054
2017-08-01,1,0.0011049647480808793,0.001226929156774029,-0.005296239997589595,0.002696724215965957,0.9934692396455019
2017-08-03,1,0.0011823643132227992,0.001316660506572164,-0.007585720480837216,0.002141846210005331,0.9930871303672099
2017-08-07,1,0.0011254826878816342,0.001261158649913986,-0.010055535257037215,0.002141846210005331,0.9910437958128326
2017-08-09,1,0.0013361346764869575,0.0014992171671036813,-0.01083289781335087,0.002141846210005331,0.9896339211163109
2017-08-11,1,0.0007288956105717965,0.0007824655888240958,-0.010055535257037215,0.003630638121114413,0.987652294662547
2017-08-15,1,0.0007509411259981973,0.0008003398478999857,-0.010055535257037215,0.002696724215965957,0.9874045170101916
2017-08-17,1,0.00047193530797736674,0.0004851046099625863,-0.0110480825045661,0.003425265944344219,0.9872228519030368
2017-08-21,1,0.00011731968784989654,0.00016231644873840252,-0.0110480825045661,0.003425265944344219,0.987601104377184
2017-08-23,0,-3.815278199073907e-05,2.3856988015233724e-05,-0.0110480825045661,0.006418361160984558,0.9873014903189246
2017-08-25,-1,-0.00015134155123281304,-7.58627816681153e-05,-0.009957203378609185,0.005413840794407817,0.9878165412060642
2017-08-29,-1,-0.001165988059871373,-0.0009697096912031132,-0.008378587949377021,0.005413840794407817,0.989187169618477
2017-08-31,-1,-0.001494914801352678,-0.0012726497422370516,-0.004563826468969724,0.005413840794407817,0.9895380877153753
2017-09-05,-1,-0.00318015507670364,-0.00276561322730752,-0.0014398231175202754,0.006258921681065367,0.9903262244649457
2017-09-07,-1,-0.00298200053548036,-0.0025989059103687043,-0.000901312946530652,0.005413840794407817,0.9918724389185237
2017-09-11,-1,-0.0013076585831335074,-0.0010940615503606224,-0.0010095393348191542,0.004661024739400362,0.9957499186891399
