JNU-Tangyin/eata/results/Batch4_SP500/Batch4_SP500-CF.csv
Date,Action,Predicted_Q25,Predicted_Q75,Actual_Q25,Actual_Q75,RL_Reward
2010-12-14,0,-0.00011542999854174051,0.0,-0.004396211867595872,0.0192261027772449,0.9840970260099859
2010-12-16,-1,-0.0010150704487561714,-0.00033747177892280125,-0.004396211867595872,0.020761866698599613,0.9844064005558841
2010-12-20,0,0.0,0.0,-0.006516408690737803,0.020761866698599613,0.9820426310590442
2010-12-22,0,0.0,0.0,-0.011942016053793377,0.016640929856548085,0.9807703219630998
2010-12-27,1,0.0027356448887739778,0.002898858424238031,-0.012332939518595036,0.013863656093347864,0.9822221367474825
2010-12-29,1,0.002864582407060753,0.003000417945389822,-0.011251949411430855,0.013863656093347864,0.98234746892717
2010-12-31,1,0.001262609981800873,0.0016662695681423038,-0.009792462255058476,0.009734618321289135,0.983495251520766
2011-01-04,1,0.001635995000272738,0.001908549640742667,-0.008705899452235578,0.022525841919871954,0.9809184119605268
2011-01-06,1,0.0018722308419691796,0.0021488835532692875,-0.012332939518595036,0.022525841919871954,0.9807358598644031
2011-01-10,1,0.002267927988087043,0.0024167950897416987,-0.008705899452235578,0.02491730212238281,0.9806257372859346
2011-01-12,1,0.003420640857443376,0.003438604278342585,-0.01105109278309182,0.02491730212238281,0.9807316650622186
2011-01-14,1,0.0032299937101663238,0.0033538414444840665,-0.01105109278309182,0.022525841919871954,0.9815164060534745
2011-01-19,1,0.001577659952056606,0.0018731871749228157,-0.01105109278309182,0.013404106855593147,0.9829994862042042
2011-01-21,0,-0.00020351306148510303,0.0002686472946513052,-0.00850863942118868,0.02159942263783077,0.9810964765712115
2011-01-25,-1,-0.0010216448350135444,-0.00045423264798892657,-0.007172431234734822,0.02159942263783077,0.9788358313260371
2011-01-27,0,0.0,0.0,-0.005056500593460992,0.02159942263783077,0.97824632734921
2011-01-31,0,-8.822206923578659e-06,0.00036342970295690055,-0.012916557081740537,0.02159942263783077,0.9770356262464441
2011-02-02,1,0.0021624771523071984,0.0023125475933612393,-0.015125119268634355,0.01899000632788148,0.9780691442998469
2011-02-04,1,0.0018425523640628917,0.0019846170977900215,-0.03295011009992159,0.01899000632788148,0.9750360964328367
2011-02-08,1,0.002775277909018975,0.0028007574693613693,-0.03295011009992159,0.011804939807285928,0.9748676066030636
2011-02-10,0,0.0,0.0,-0.03295011009992159,0.011297295704082458,0.9759337462111887
2011-02-14,1,0.0038194868245608987,0.003916429274131283,-0.03295011009992159,0.010754565603598084,0.9749002800904777
2011-02-16,0,0.0,0.0,-0.02274171059081476,0.017303568224053927,0.9769190268532688
2011-02-18,-1,-0.0009897095766420161,-0.0004915255667874631,-0.0190564912649681,0.016568178229781197,0.9805945033508338
2011-02-23,-1,-0.003360504186583163,-0.00244941921189957,-0.0190564912649681,0.016568178229781197,0.980981627773426
2011-02-25,-1,-0.001829837805558256,-0.00107918802659418,-0.0190564912649681,0.016568178229781197,0.9804915623614227
2011-03-01,-1,-0.00240360070205586,-0.0016538134814624433,-0.0190564912649681,0.016568178229781197,0.9800937370717866
2011-03-03,1,0.0003606090366095922,0.0006461586714981335,-0.0190564912649681,0.017883702048870482,0.9796967644616256
2011-03-07,-1,-0.0020407014166368078,-0.001583762365598157,-0.011196068539759645,0.020862879305123566,0.98134450933551
2011-03-09,-1,-0.0026760753886744936,-0.0021414130242462465,-0.011196068539759645,0.020862879305123566,0.9805255524958617
2011-03-11,-1,-0.00236116490631965,-0.0018947739223572587,-0.008855436223070468,0.020862879305123566,0.9819657936232883
2011-03-15,-1,-0.002948937854363895,-0.002409462147228065,-0.01302708146043904,0.020862879305123566,0.9808941574678324
2011-03-17,-1,-0.001771998056005523,-0.0013507556530598828,-0.01302708146043904,0.01896595899223075,0.9827417049493267
2011-03-21,-1,-0.0017962780153249333,-0.0014309968468722376,-0.014528154198130628,0.021267353093384248,0.9810040958929424
2011-03-23,-1,-0.0029641350806457745,-0.002412204525130494,-0.012011187732223807,0.01896595899223075,0.9825903020630412
2011-03-25,0,0.0,0.0,-0.012011187732223807,0.01896595899223075,0.9830337003583014
2011-03-29,0,0.0,0.0,-0.009465773863296932,0.01896595899223075,0.9844932081720019
2011-03-31,0,0.0,0.0,-0.009465773863296932,0.015455825474692502,0.9860273726769472
2011-04-04,1,0.7330899790078241,0.7411756091172172,-0.013064965047819784,0.009691049251554885,0.5746115667053933
2011-04-06,1,0.0023005238552227325,0.00248095347437373,-0.013064965047819784,0.004032329820103129,0.9843246620266689
2011-04-08,0,0.0,0.0,-0.013064965047819784,0.01563805477434087,0.9808249405414265
2011-04-12,0,0.0,0.0,-0.013064965047819784,0.01563805477434087,0.98061077037268
2011-04-14,0,0.0,0.0,-0.015453809988241488,0.01563805477434087,0.9795411436388928
2011-04-18,0,0.0,0.0,-0.013064965047819784,0.011377119422117998,0.9812272739316397
2011-04-20,-1,-0.0019770627165629417,-0.0015587629192121055,-0.011888282430926106,0.012499470201025396,0.9803471082868913
2011-04-25,-1,-0.0006988402449250853,-0.00039552660856119145,-0.015453809988241488,0.012499470201025396,0.9784773744242422
2011-04-27,0,-0.00010162923417954864,5.1555777775699806e-05,-0.015453809988241488,0.021828041391481482,0.9773007523845644
2011-04-29,1,0.0007625791968514104,0.000872799079837302,-0.015453809988241488,0.031045424276191485,0.9763218698918399
2011-05-03,-1,-0.0034646381037790755,-0.0028675765457449264,-0.012223777176002324,0.031045424276191485,0.9780510903080725
2011-05-05,-1,-0.0038584676573419968,-0.003169477130956861,-0.009688165001514005,0.031045424276191485,0.977782591415593
2011-05-09,-1,-0.001080874373221952,-0.0006510264007634253,-0.012223777176002324,0.01127620874850281,0.9813414588341044
2011-05-11,-1,-0.0021036343478877018,-0.0016262138610444112,-0.009517118948888428,0.018158257033913723,0.9805467554152892
2011-05-13,-1,-0.002393917474385352,-0.001951754985238503,-0.010527256858219399,0.018158257033913723,0.9803634378788727
2011-05-17,-1,-0.0029048069221164594,-0.002406765536713821,-0.015104764192941522,0.02885433176969866,0.97779228929652
2011-05-19,1,0.0010672091676106252,0.001146661584481229,-0.018033311944458952,0.01767741954623436,0.9759725721064267
2011-05-23,1,0.0027925604944454493,0.0031007875975979635,-0.017362223192338898,0.020929203646011536,0.9760914656612918
2011-05-25,1,0.0027933682752322433,0.003068938141549172,-0.0232598760981825,0.015195989334231774,0.9763890596821502
2011-05-27,1,0.0036797686410304812,0.004064890654192733,-0.0232598760981825,0.015195989334231774,0.9761998049721385
2011-06-01,1,0.002155947292894614,0.0023863440472433224,-0.017635686522329608,0.019027519742275095,0.9773009440077008
2011-06-03,1,0.0032515749194862694,0.0035977175924765594,-0.0232598760981825,0.019027519742275095,0.974586902573238
2011-06-07,1,0.002869983605507226,0.0032538099280225207,-0.019034431988922327,0.021494020174145034,0.9750506698955481
2011-06-09,1,0.005181404448740266,0.005933052868694215,-0.019034431988922327,0.021272093044235045,0.9754982988449096
2011-06-13,1,0.00284729444923661,0.003178919706043684,-0.027554703681160926,0.021272093044235045,0.9750898570658316
2011-06-15,0,0.0,0.0,-0.019034431988922327,0.019567354219985147,0.9771586357617583
2011-06-17,0,0.0,0.0,-0.015438894640656337,0.021272093044235045,0.9788582397227996
2011-06-21,0,0.0,0.0,-0.015438894640656337,0.021272093044235045,0.9807458152295991
2011-06-23,0,0.0,0.0,-0.008167745322619277,0.023010023305629568,0.9807019038157913
2011-06-27,0,0.0,0.0,-0.005201072121457712,0.021272093044235045,0.9823716215720764
2011-06-29,0,0.0,0.0,-0.008167745322619277,0.020072688597146657,0.9821435843824727
2011-07-01,0,0.0,0.0,-0.005201072121457712,0.020072688597146657,0.983692955508088
2011-07-06,0,0.0,0.0,-0.00868573267208897,0.019034549505389138,0.9830031993083636
2011-07-08,0,0.0,0.0,-0.018460842556466336,0.01841592001619756,0.9791298640288966
2011-07-12,0,0.0,0.0,-0.018460842556466336,0.020262351848210347,0.9745270219664678
2011-07-14,0,0.0,0.0,-0.018460842556466336,0.025452753354079545,0.9707096820004467
2011-07-18,1,0.002384062619726293,0.002567325380693253,-0.009898501360660162,0.02416478834175513,0.9717094775010165
2011-07-20,1,0.0038465676211046525,0.004293325201620404,-0.013615474360951037,0.02416478834175513,0.9717563764709758
2011-07-22,1,0.0037899806222508464,0.004189495244949131,-0.02224870558310315,0.020348378081058292,0.9708251194380978
2011-07-26,1,0.003715622470796923,0.004148449628473635,-0.02224870558310315,0.02706159609465389,0.9678584203894199
2011-07-28,1,0.002440145046625589,0.0025552537331336106,-0.02040322525928556,0.02706159609465389,0.9681830497028419
2011-08-01,1,0.0017420271379600294,0.0017544161568036785,-0.013050166573319585,0.03516382578417032,0.9663181072032616
2011-08-03,1,0.001111334689023509,0.001203845460037721,-0.013050166573319585,0.03516382578417032,0.9661568648582044
2011-08-05,-1,-0.0008530202822343525,-0.000518488809829033,-0.005203778912174094,0.030915747667849647,0.9715202845895365
2011-08-09,1,0.0007386956613141731,0.0008347099616460136,-0.005203778912174094,0.02571710167690233,0.9766880789032601
2011-08-11,1,0.0031623405033398494,0.0033328332498693733,-0.011389206727353766,0.024425246401683493,0.9799908904604423
2011-08-15,0,0.0,0.0,-0.014129556733373547,0.02177695169335244,0.9803210176694015
2011-08-17,1,0.0038734854115456546,0.004194258532675935,-0.017661473870504794,0.015888900720762232,0.9799940629488721
2011-08-19,1,0.004417072828028111,0.004749220830350825,-0.014129556733373547,0.015888900720762232,0.9817904295670804
2011-08-23,1,0.006774152661806156,0.00751663318281606,-0.020915607204438226,0.0072301387573568115,0.9777226259303351
2011-08-25,1,0.005274484291614628,0.005870525391360739,-0.024878112441052723,0.0072301387573568115,0.977110781583982
2011-08-29,1,0.007136377291440454,0.00795401364439131,-0.024878112441052723,0.0072301387573568115,0.9768916340906519
2011-08-31,1,0.005577286781094571,0.006155482161749435,-0.02726629834983891,0.0032154306360336468,0.9746766798668144
2011-09-02,1,0.004512577174990254,0.004859199235139927,-0.03078894067827384,0.0032154306360336468,0.9697219175934486
2011-09-07,1,0.004666891781865567,0.005018070893914241,-0.03078894067827384,0.011168316861462555,0.9669425120700339
2011-09-09,1,0.003810283393885951,0.004013277576106293,-0.043732515863277505,0.015367116899766964,0.9631336578716391
2011-09-13,1,0.002955854649265616,0.003047470559632382,-0.043732515863277505,0.0298832174615035,0.9606612362630519
2011-09-15,1,0.003110536877209436,0.0032918006392789016,-0.043732515863277505,0.0298832174615035,0.9608103377772249
2011-09-19,1,0.0027083029310561602,0.002832508899130155,-0.043732515863277505,0.0298832174615035,0.958658985767606
2011-09-21,-1,-0.0013381592304155623,-0.0009934174808757922,-0.03442557536375726,0.0298832174615035,0.9624025262742214
2011-09-23,0,0.0,0.0,-0.029462126654228808,0.041547212025716006,0.9613085004908145
2011-09-27,0,0.0,0.0,-0.029462126654228808,0.03839920665330082,0.9621188542587668
2011-09-29,-1,-0.0035715279723959976,-0.0029397069640438563,-0.016172983920038048,0.040036544597045115,0.9628428254403518
2011-10-03,-1,-0.008040936797597686,-0.0068431820729792335,-0.009607255001101071,0.040036544597045115,0.9639890383432552
2011-10-05,-1,-0.004886243495941668,-0.003992097904665882,-0.01689801650090306,0.040036544597045115,0.9660102494865932
2011-10-07,-1,-0.004477405349292439,-0.00363185090386942,-0.009607255001101071,0.037964253838546264,0.9703001975677397
2011-10-11,-1,-0.00035267912498320234,-5.842631908157278e-05,-0.009607255001101071,0.02720325143321448,0.9747341133836088
2011-10-13,-1,-0.0009419551692919917,-0.0007181447114420109,-0.01145182000772163,0.02720325143321448,0.9725438405941843
2011-10-17,-1,-0.001201292946810374,-0.0009760409297956117,-0.008233519871885607,0.02720325143321448,0.9736555178460966
2011-10-19,-1,-0.0010509112679929758,-0.0008867130073915706,-0.008794256074099224,0.02720325143321448,0.9753719212998466
2011-10-21,1,0.00020237315719131085,0.0002916015573213813,-0.01090023029534805,0.02350959235637453,0.9728969915849202
2011-10-25,1,0.0014852133717125526,0.0015806929583705377,-0.015034359591334496,0.021304945733555666,0.9738705126943651
2011-10-27,1,0.002778119486765059,0.002989041110218378,-0.025542692078615675,0.01494983879661117,0.972763406991948
2011-10-31,1,0.002389975148931758,0.0026378456097891304,-0.017317032531253745,0.018962292545364717,0.9727712060006299
2011-11-02,1,0.0030572519138537535,0.003341242993448051,-0.018595596912177464,0.018962292545364717,0.9731724424824076
2011-11-04,1,0.003504302089828318,0.0038110198200893754,-0.02937838522138684,0.01494983879661117,0.9722868794338599
2011-11-08,1,0.002304262994343347,0.0023070706176716426,-0.02937838522138684,0.018962292545364717,0.9711553750307157
2011-11-10,1,0.0020113567892600954,0.002088496024513448,-0.02923265031398575,0.01352999316639036,0.9729613169209416
2011-11-14,1,0.0016839169008274664,0.0017062250428894162,-0.0334924568247381,0.003561656987094388,0.9720268483985779
2011-11-16,1,0.0008315364503675706,0.0009462815034597387,-0.03443842902996522,0.0038918537599625025,0.9718965593376827
2011-11-18,-1,-0.0012046348886782308,-0.0009051689830915723,-0.0334924568247381,0.0011316831828887927,0.978183388832678
2011-11-22,-1,-0.002892133139056837,-0.002284843823783151,-0.0334924568247381,0.0016401591963175724,0.9765391579022429
2011-11-25,-1,-0.005096599923922049,-0.004263850690588821,-0.018595596912177464,0.015565263374223487,0.977126053428389
2011-11-29,-1,-0.0034381460303010364,-0.002862102615864402,-0.025197990370869797,0.010287516022536032,0.9786279072790196
2011-12-01,-1,-0.002846075960488445,-0.002326907958313583,-0.017812633683496237,0.010287516022536032,0.9813688310367583
2011-12-05,-1,-0.004065441312909569,-0.0034254113666808807,-0.005858107136687084,0.01596807834708386,0.9784195037700589
2011-12-07,-1,-0.0023721742249559604,-0.0019475082346341963,-0.011747720443443077,0.01169484835370332,0.9803915815640144
2011-12-09,-1,-0.002942591108025818,-0.002511429780944854,-0.004170676123492907,0.01596807834708386,0.9789689817379024
2011-12-13,-1,-0.004003528499414436,-0.0034803829723881524,-0.0006340563568506663,0.01596807834708386,0.9799477140085564
2011-12-15,0,0.0,0.0,0.0005265835391740385,0.028539000456340162,0.9816428907782163
2011-12-19,0,0.0,0.0,0.0018196059747001428,0.028539000456340162,0.9794174560804372
2011-12-21,0,0.0,0.0,-0.0007360721749784777,0.025677720936001364,0.9807432756026226
2011-12-23,0,0.0,0.0,-0.0055174530110040955,0.025677720936001364,0.9800499321215248
2011-12-28,0,0.0,0.0,-0.0055174530110040955,0.028339769247909277,0.9783903562743091
2011-12-30,0,0.0,0.0,-0.007456964658580549,0.028339769247909277,0.9785441338561154
2012-01-04,0,0.0,0.0,-0.008776222068824302,0.026841088579932323,0.9806368418227718
2012-01-06,0,0.0,0.0,-0.006895800111139076,0.026841088579932323,0.9803019150315664
2012-01-10,0,0.0,0.0,-0.006895800111139076,0.0246022625863867,0.9822493130108712
2012-01-12,0,0.0,0.0,-0.012112156998348054,0.0246022625863867,0.9803681770482525
2012-01-17,0,0.0,0.0,-0.01555229171852014,0.021255475775070747,0.9804748164978703
2012-01-19,1,0.0036085775918971944,0.004213381080986201,-0.015156080348866029,0.01509514357557929,0.9820267838365706
2012-01-23,1,0.005048033162379439,0.005931170625431143,-0.015156080348866029,0.018681461417345363,0.9820166272547446
2012-01-25,1,0.00611033758733783,0.007164422979011678,-0.015156080348866029,0.013185531866671697,0.9845120179261484
2012-01-27,0,0.0,0.0,-0.015156080348866029,0.013185531866671697,0.984167544882509
2012-01-31,0,0.0,0.0,-0.018362080904361814,0.013829192631673665,0.9829110501166588
2012-02-02,0,0.0,0.0,-0.018362080904361814,0.013829192631673665,0.9839710747195357
2012-02-06,0,0.0,0.0,-0.02100703413165078,0.012204646174416996,0.9802488895690612
2012-02-08,0,0.0,0.0,-0.02100703413165078,0.016920284426478683,0.9768850462224533
2012-02-10,0,0.0,0.0,-0.019606550738801076,0.016920284426478683,0.9778188067222465
2012-02-14,0,0.0,0.0,-0.018362080904361814,0.016920284426478683,0.9791523479968197
2012-02-16,1,0.0017296483958452206,0.0017645344210249307,-0.008475217307203367,0.017010445988332602,0.9799716438785594
2012-02-21,1,0.003930130660126584,0.00435050437834175,-0.008825373827495177,0.013859246485624973,0.9820166288975234
2012-02-23,1,0.0028703125212618205,0.00299766744281594,-0.018610894033417442,0.013859246485624973,0.9807889946910171
2012-02-27,1,0.0001762535836188953,0.0006138439119780473,-0.009071979145030072,0.013859246485624973,0.9812421007260882
2012-02-29,1,0.0013213457154299816,0.0014420204109850117,-0.009071979145030072,0.012579445509656983,0.9818017218981837
2012-03-02,1,0.0015722116814793495,0.0016405745773182402,-0.019455140209716303,0.012579445509656983,0.9810531598613427
2012-03-06,1,7.602105928260509e-05,0.00018708766329281993,-0.004311940730744704,0.017056216159622578,0.9847037158035166
2012-03-08,1,0.0023985509440563883,0.002578671692909089,-0.005801117508734965,0.008114778196963171,0.9881532537815265
2012-03-12,1,0.0009370411027055368,0.0010028352956321003,-0.009538125077136804,0.007902766656206095,0.9875746460406581
2012-03-14,1,0.0008300945988663185,0.000938614920526235,-0.009538125077136804,0.015994135075732274,0.9853623293269279
2012-03-16,1,0.0023769927805422832,0.002585275408640729,-0.01881083677450469,0.012280135493486744,0.9843454084627163
2012-03-20,1,0.0024951412119964206,0.002748477228951886,-0.01881083677450469,0.016158286111111857,0.9836466443559169
2012-03-22,1,0.0022258246936695757,0.0024978108134224974,-0.015140008650403039,0.016158286111111857,0.9848417603362377
2012-03-26,1,0.002335241564547359,0.0026326116255627227,-0.01891526699819887,0.007435542656671417,0.985074804716735
2012-03-28,0,0.0,0.0,-0.015140008650403039,0.016158286111111857,0.9838425957272993
2012-03-30,0,0.0,0.0,-0.015140008650403039,0.01720113523222256,0.9831998545066777
2012-04-03,1,0.0025193966618079723,0.0028784626627488324,-0.015140008650403039,0.01720113523222256,0.9828497708773469
2012-04-05,1,0.0033956644308556086,0.003809945005641382,-0.01903500720175615,0.01720113523222256,0.9792663088558944
2012-04-10,1,0.0023492884559992958,0.0026401497535326053,-0.0134251894813853,0.01720113523222256,0.981023466059855
2012-04-12,1,0.003354211651239967,0.0037329254122229517,-0.01758654252157321,0.00629594697018592,0.9800303056956265
2012-04-16,1,0.0010149294935900034,0.0010850678583031606,-0.018767989753490893,0.00629594697018592,0.9803906363085824
2012-04-18,1,0.0013162379526729985,0.001365688363497613,-0.01973321445689462,0.004096597303796481,0.9798004233445244
2012-04-20,-1,-0.0004292454070892104,-3.4553804798718004e-05,-0.023717949364929682,0.005710095751607856,0.9781367979245915
2012-04-24,-1,-0.001176077246351801,-0.0007149537009961883,-0.025628114062913637,0.01282558974940237,0.9754561096076031
2012-04-26,1,0.0013220721276000743,0.001463088759663985,-0.025628114062913637,0.01282558974940237,0.9759019264447543
2012-04-30,0,0.0,0.0,-0.02092081635502512,0.01282558974940237,0.9763109489515038
2012-05-02,0,0.0,0.0,-0.02092081635502512,0.0011791725738553383,0.9774261839642726
2012-05-04,0,-0.0002194408059099219,6.219830956276698e-05,-0.02092081635502512,0.0011791725738553383,0.9783229699977578
2012-05-08,-1,-0.005822396612152958,-0.004508664454537119,-0.02092081635502512,0.01382354195007982,0.9772094193382908
2012-05-10,0,0.0,0.0,-0.016042074637593204,0.019686678328059586,0.976633447775385
2012-05-14,0,0.0,0.0,-0.016042074637593204,0.019686678328059586,0.9765973899275613
2012-05-16,0,0.0,0.0,-0.017421748328840206,0.019686678328059586,0.9767235471558711
2012-05-18,0,0.0,0.0,-0.014630858966368263,0.02758273597687173,0.9773893764708519
2012-05-22,0,0.0,0.0,-0.01064925369715318,0.02758273597687173,0.978362888061459
2012-05-24,0,0.0,0.0,-0.014630858966368263,0.017447494081988226,0.9784295927774617
2012-05-29,0,0.0,0.0,-0.014630858966368263,0.02597430059437774,0.9777894003828721
2012-05-31,-1,-0.004210463467488672,-0.003221275941616666,-0.014630858966368263,0.02597430059437774,0.9777070975253265
2012-06-04,-1,-0.005360348862466293,-0.004584117548339545,-0.0034430316376356587,0.02597430059437774,0.9785501940641237
2012-06-06,0,0.0,0.0,-0.0034430316376356587,0.02597430059437774,0.9812887886085425
2012-06-08,0,0.0,0.0,-0.003923289638859566,0.02177581009415111,0.9822362423646409
2012-06-12,0,0.0,0.0,-0.003923289638859566,0.021783202005415843,0.9819750941308936
2012-06-14,0,-0.003909617406357864,0.0,-0.0035289707493737204,0.021783202005415843,0.9838441173516749
2012-06-18,-1,-0.001637758482307905,-0.0014370876715472077,-0.0035289707493737204,0.020889510505459653,0.9824736429246753
2012-06-20,1,0.0005342308196786751,0.0005738855985734791,-0.0035289707493737204,0.019472093778776393,0.9847787165903252
2012-06-22,-1,-5.521578413696218e-05,-2.6066539859968623e-06,-0.004781727767118091,0.019472093778776393,0.9852175607119965
2012-06-26,1,0.002209866044239753,0.0025009808233938287,-0.007738296825536853,0.013920577142761188,0.9869595405278244
2012-06-28,1,0.0029424368297911695,0.003387013093681855,-0.007738296825536853,0.018123016004749214,0.9857654702107442
2012-07-02,1,0.003367589560428544,0.0038801249988918984,-0.012829255273131519,0.013920577142761188,0.9853118125272667
2012-07-05,1,0.00357285184218031,0.0040195693502894595,-0.012829255273131519,0.009795577854116095,0.9859096309855878
2012-07-09,1,0.0024798247553317787,0.002749475156177364,-0.00972319118768398,0.013920577142761188,0.9854395026614663
2012-07-11,1,0.0021000124601813974,0.002292875946684076,-0.00682522140377455,0.012709055493988304,0.9868214276991341
2012-07-13,1,0.0029257780567446146,0.0033131800624945614,-0.00972319118768398,0.014039579790562024,0.9852563014233818
2012-07-17,1,0.004371367744326586,0.004980489982976276,-0.00972319118768398,0.00943122779817576,0.9865659876585026
2012-07-19,1,0.004377973263114067,0.005006496843768698,-0.006570134141363266,0.013717430009808901,0.9864129373876824
2012-07-23,1,0.0029783638377223996,0.003366589399973535,-0.0051753883905524415,0.013717430009808901,0.9876457634990867
2012-07-25,1,0.0029578618442607715,0.003373027439628696,-0.0051753883905524415,0.013717430009808901,0.9875457702965809
2012-07-27,0,0.0,0.0,-0.006570134141363266,0.011721670804868009,0.9869364513059188
2012-07-31,0,0.0,0.0,-0.00509108311117192,0.011721670804868009,0.9874537195527142
2012-08-02,0,0.0,0.0,-0.005622315599282489,0.011721670804868009,0.986705071834515
2012-08-06,0,0.0,0.0,-0.00869063735603047,0.011721670804868009,0.9876071183497719
2012-08-08,1,0.002926325917701065,0.003308445984312244,-0.00869063735603047,0.016526230566469177,0.9873787376733809
2012-08-10,1,0.0030184482336760386,0.003406722484760127,-0.00869063735603047,0.012611042672887771,0.9886752716866812
2012-08-14,1,0.0030114738548926157,0.0033880262021093272,-0.00869063735603047,0.0158101421976626,0.9880308198620905
2012-08-16,1,0.00730554779097654,0.008275475449217622,-0.00869063735603047,0.014927472669560052,0.9874329407527848
2012-08-20,1,0.006366104965644427,0.007133529293238311,-0.011467526699715326,0.014927472669560052,0.9868034329337259
2012-08-22,0,0.0,0.0,-0.011430526771330373,0.014927472669560052,0.9867976482869216
2012-08-24,0,0.0,0.0,-0.009313742627537137,0.014927472669560052,0.9879117484998206
2012-08-28,0,0.0,0.0,-0.011232564748677211,0.014927472669560052,0.98750821360831
2012-08-30,0,0.0,0.0,-0.009313742627537137,0.01595082715026359,0.9871765506611595
2012-09-04,0,0.0,0.0,-0.009357119028179754,0.014927472669560052,0.9874963266468851
2012-09-06,0,0.0,0.0,-0.009663998232365077,0.013944483989689015,0.9881638849716007
2012-09-10,1,0.0038046552076789553,0.004217396664455565,-0.009663998232365077,0.013944483989689015,0.9879102397554161
2012-09-12,1,0.004431807730815256,0.0048428464587433545,-0.011362693950605065,0.011084008688561344,0.9873386308549142
2012-09-14,1,0.004814070747755373,0.005290826596071272,-0.012376204715571005,0.008572010740621753,0.9876059549387329
2012-09-18,1,0.005847240659050925,0.00645874123738345,-0.011362693950605065,0.009776931903458241,0.987727804130725
2012-09-20,0,0.0,0.0,-0.011362693950605065,0.009776931903458241,0.9884256784435645
2012-09-24,1,0.004793402467888323,0.005480506599824315,-0.013358177440788118,0.0108257684809168,0.9870994556349849
2012-09-26,1,0.00285423144318344,0.003097331766459113,-0.017643688715056467,0.0108257684809168,0.9866630199123525
2012-09-28,1,0.003702537087264923,0.0040787241133828965,-0.017643688715056467,0.007010598450836098,0.9869629611860499
2012-10-02,0,0.0,0.0,-0.017643688715056467,0.007622216763928712,0.9875237983362768
2012-10-04,0,0.0,0.0,-0.019957847705568233,0.007622216763928712,0.9844635769858521
2012-10-08,-1,-0.0005854667098780298,-0.00017285379824874786,-0.020229415725303353,0.007622216763928712,0.9846372761750735
2012-10-10,-1,-0.0020506981285132405,-0.0014201425875847243,-0.020229415725303353,0.007622216763928712,0.9841836528869661
2012-10-12,-1,-0.0022354226328690145,-0.0016240261918839074,-0.020229415725303353,0.007622216763928712,0.9848996089935284
2012-10-16,-1,-0.0009216332294487079,-0.0005340299906802274,-0.020229415725303353,0.005923526999468518,0.9853448901685108
2012-10-18,-1,-0.0009282912056547772,-0.0005826090016216514,-0.012805509941692748,0.005923526999468518,0.9846460929535762
2012-10-22,-1,-0.0015147741524503139,-0.0010655635146634285,-0.007657968709757934,0.006194011204759096,0.985525654456218
2012-10-24,-1,-0.0041864411972810135,-0.0033075936644207837,-0.0071556067386373285,0.007874746833409054,0.9847405771550514
2012-10-26,-1,-0.003052839475871566,-0.002402061115718772,-0.0037604945482151214,0.007874746833409054,0.9853238829377967
2012-11-01,0,0.0,0.0,-0.0037604945482151214,0.007874746833409054,0.9862983690465076
2012-11-05,0,0.0,0.0,-0.0037604945482151214,0.007874746833409054,0.9887815766208505
2012-11-07,0,0.0,0.0,-0.0026078241218793763,0.007874746833409054,0.9898267980133211
2012-11-09,-1,-0.004171115542651961,-0.0034347173450084514,-0.000887303953555272,0.007874746833409054,0.9891780110082324
2012-11-13,-1,-0.003505310163497235,-0.002899683060688618,-0.0026078241218793763,0.01145367509300603,0.9877022678047885
2012-11-15,-1,-0.004334458933672144,-0.0036041463994167197,-0.0012414595017775712,0.01425639038007161,0.9851958055019195
2012-11-19,0,0.0,0.0,-0.0035755363648831417,0.01145367509300603,0.9888429396114282
2012-11-21,-1,-0.001624416236025417,-0.0012772519007726928,-0.004430250025503385,0.008336883930870153,0.9891258438678404
2012-11-26,-1,-0.0011585723519911442,-0.0008926215219910972,-0.004430250025503385,0.00663917033522925,0.9888771376683677
2012-11-28,-1,-0.000511520048958539,-0.0003749169453686252,-0.004496878657476097,0.00663917033522925,0.9886548069206542
2012-11-30,0,-0.00010707464649888315,2.2739567718801684e-05,-0.007229607410364461,0.00663917033522925,0.9887185179192982
2012-12-04,-1,-0.0005976672671190717,-0.00039307517578681664,-0.005224197979145925,0.00663917033522925,0.9893505016200801
2012-12-06,0,0.0,0.0,-0.005224197979145925,0.009422642794918742,0.9881891438566056
2012-12-10,0,0.0,0.0,-0.007229607410364461,0.016685567976806807,0.9862253452256385
2012-12-12,-1,-0.00046701802934417746,-0.0003575942402264479,-0.005224197979145925,0.015567999207164996,0.9878451276640029
2012-12-14,-1,-0.0011869684736996074,-0.0009502122072479141,-0.005224197979145925,0.009050119871704804,0.9898679914518042
2012-12-18,-1,-0.0016389459596036758,-0.001342638803979611,-0.005224197979145925,0.009050119871704804,0.9897923334131332
2012-12-20,-1,-0.0012652175565173356,-0.001051725998988637,-0.004001568716399832,0.015679821820697284,0.9886316647163816
2012-12-24,-1,-0.0025593525475995924,-0.002136820120405564,-0.003749386090845289,0.015679821820697284,0.9890266489285836
2012-12-27,-1,-0.0026584992717079777,-0.0022217546618233876,-0.003991825864735232,0.01702550792455594,0.9881480620681725
2012-12-31,-1,-0.0012466393579236871,-0.0010511148644373972,-0.0024857683781880505,0.01547775760084634,0.9891465130027455
2013-01-03,-1,-0.0008099814359671916,-0.0006870359303951707,-0.0024857683781880505,0.012772819602074312,0.9900376029818486
2013-01-07,1,2.311997158644439e-05,4.899725413530569e-05,-0.004856225715808231,0.008731957193399763,0.9910615712525518
2013-01-09,1,0.0009386230226199402,0.0010265231941604161,-0.004856225715808231,0.00652518096860525,0.9931926979815907
2013-01-11,1,0.0018494826197978358,0.0021494914697248093,-0.004856225715808231,0.0044639679871836275,0.9938073188913984
2013-01-15,1,0.001400604492650915,0.0016218984820548193,-0.0058132593871113416,0.0044639679871836275,0.9924102638418263
2013-01-17,1,0.0013632202435409412,0.0015752595107373691,-0.0058132593871113416,0.0044639679871836275,0.9922782418170315
2013-01-22,1,0.00186146239420165,0.0020706712333044327,-0.006312295875204791,0.003737629643590705,0.9903934255566031
2013-01-24,1,0.0021057373924175827,0.002336765025442891,-0.009586723136472783,0.003506284882222584,0.9893477869668733
2013-01-28,1,0.001826625760250619,0.001978993374504228,-0.01129384866695999,0.0007585387682090208,0.988974564490741
2013-01-30,1,0.0023233247381810106,0.0025513287866167312,-0.01129384866695999,0.0007585387682090208,0.9878416402020974
2013-02-01,1,0.002824014412666121,0.0032007487848567362,-0.01129384866695999,0.0007307596582942203,0.9876417275753383
2013-02-05,1,0.002113474750588055,0.002368436861566482,-0.01129384866695999,0.003422947552478183,0.9885602036720678
2013-02-07,1,0.002208694161522874,0.002522121231623656,-0.01129384866695999,0.00414715045503843,0.988263102427924
2013-02-11,1,0.002804464970868935,0.003261076803659774,-0.01129384866695999,0.005041533921206532,0.9879280033757805
2013-02-13,0,0.0,0.0,-0.01067264196683823,0.005041533921206532,0.9889842160010754
2013-02-15,0,0.0,0.0,-0.01067264196683823,0.005041533921206532,0.9887302868280057
2013-02-20,0,0.0,0.0,-0.01067264196683823,0.003966210963782876,0.9903242460004499
2013-02-22,-1,-0.0013907033948251887,-0.0012480476204069124,-0.009267492671943047,0.003966210963782876,0.9909082166362307
2013-02-26,-1,-0.0016247232768638233,-0.0015072533737826833,-0.007384107198357958,0.005041533921206532,0.9913754972415316
2013-02-28,-1,-0.0006424302890666837,-0.0006413548764221536,-0.008322191957721912,0.0034178386775001357,0.9921788059446552
2013-03-04,-1,-0.0005410473992138183,-0.0005069933790069318,-0.008945749305518506,0.0027392854713820416,0.9915628633128813
2013-03-06,-1,-0.0008031549615388112,-0.0007555944603637307,-0.008945749305518506,0.003966210963782876,0.9909734694378156
2013-03-08,-1,-1.1634303441724263e-05,-1.4624064572019993e-06,-0.008945749305518506,0.0008104345696442613,0.9919470811244584
2013-03-12,-1,-0.0006282863668150615,-0.0005399646921758026,-0.008945749305518506,0.001095176266041058,0.9923529594262932
2013-03-14,-1,-0.0007692882912743719,-0.0006954239395926339,-0.010111754118618803,0.001095176266041058,0.9908279069761774
2013-03-18,-1,-0.0011496152863595857,-0.0010140468457314664,-0.013542371533022644,0.002328505951064033,0.9892218555395766
2013-03-20,-1,-0.0022600649333822265,-0.001991847914649591,-0.013542371533022644,0.006846615236391109,0.9881687863787737
2013-03-22,-1,-0.003521741787472177,-0.0030564708499650844,-0.010219013993120729,0.006846615236391109,0.988181934427723
2013-03-26,-1,-0.003260232266010096,-0.002831518726355322,-0.00955664400101325,0.007034942630110625,0.9863520202922538
2013-03-28,-1,-0.0032352711835015695,-0.00287437431607595,-0.015529169050992865,0.0075258995300468414,0.9843122475423599
2013-04-02,0,0.0,0.0,-0.012562969796494532,0.009945438744360529,0.9843611036292907
2013-04-04,0,0.0,0.0,-0.014513163791822522,0.0075258995300468414,0.9844497339483355
2013-04-08,0,0.0,0.0,-0.014513163791822522,0.009291038853909868,0.9839780313090013
2013-04-10,-1,-0.0032079845499556232,-0.002747900200188902,-0.014513163791822522,0.012746258252652638,0.98280897360512
2013-04-12,0,0.0,0.0,-0.007260683583174609,0.01701597052299732,0.9843442615920506
2013-04-16,0,0.0,0.0,-0.007260683583174609,0.01701597052299732,0.9854433397485584
2013-04-18,0,0.0,0.0,-0.007260683583174609,0.012746258252652638,0.9872162752846141
2013-04-22,-1,-0.005254846989708039,-0.004658951059137194,-0.003936663863477177,0.012746258252652638,0.98542952467244
2013-04-24,0,0.0,0.0,-0.012597612221196769,0.007380346218472333,0.9890702190112203
2013-04-26,0,0.0,0.0,-0.011569482962236904,0.005811719562679138,0.9909703794096073
2013-04-30,0,0.0,0.0,-0.0037500772920617334,0.007378402474510464,0.9904760799181468
2013-05-02,0,0.0,0.0,-0.0037500772920617334,0.007378402474510464,0.990313324991779
2013-05-06,0,0.0,0.0,-0.0037500772920617334,0.007378402474510464,0.9901048298909428
2013-05-08,0,0.0,0.0,-0.011384825454132021,0.0056838124645714715,0.9904767176074643
2013-05-10,0,0.0,0.0,-0.011384825454132021,0.0056838124645714715,0.9910298021250673
2013-05-14,0,0.0,0.0,-0.01204363969688212,0.005173771061311743,0.9895181852529358
2013-05-16,0,0.0,0.0,-0.011384825454132021,0.006179892535179471,0.9895101926846683
2013-05-20,-1,-0.0020929324740936593,-0.0019260356406125042,-0.011384825454132021,0.008866642686334464,0.98844894371801
2013-05-22,-1,-0.002701058626147703,-0.0024698980319436074,-0.011384825454132021,0.008866642686334464,0.9875501524327246
2013-05-24,-1,-0.002491695033228788,-0.0023043084609199547,-0.01332002611454848,0.008866642686334464,0.9861933573864806
2013-05-29,-1,-0.000236744274011044,-0.00015647225809992625,-0.01332002611454848,0.006528670738046252,0.9872848520523304
2013-05-31,-1,-0.0006269203018008753,-0.0005483437034826174,-0.014073813712695032,0.006528670738046252,0.9869515522484332
2013-06-04,1,0.0005032201966912956,0.0007770657881658862,-0.014073813712695032,0.006528670738046252,0.9868507189642118
2013-06-06,1,0.0008777235617639437,0.0012354920251095504,-0.01264773048023934,0.008278500385458812,0.9867248624279977
2013-06-10,1,0.0008532772061828178,0.001195651221752415,-0.01264773048023934,0.009759061934673817,0.9857857689571722
2013-06-12,-1,-0.0009779637879358568,-0.0008688548561922412,-0.00837253014265936,0.011579574539410217,0.9862888962711431
2013-06-14,-1,-0.0003809939505950747,-0.00011009315138251472,-0.008732520240732976,0.009759061934673817,0.9860884104212086
2013-06-18,1,0.0006410329563262351,0.0010752125796277049,-0.011662325711139314,0.009759061934673817,0.985521904351065
2013-06-20,1,0.00030936025330980874,0.0007190315496395005,-0.008732520240732976,0.009759061934673817,0.9867467329079831
2013-06-24,-1,-0.0005152893638916725,-0.0001853987551883136,-0.00837253014265936,0.009759061934673817,0.9880833064183998
2013-06-26,0,-0.00012088462530049035,0.0002737928416410298,-0.00762519624429712,0.008403184982011036,0.9886556160202815
2013-06-28,-1,-0.001021661414260548,-0.0007516419255872624,-0.0069165661146027915,0.01023803813897184,0.9847974074830927
2013-07-02,-1,-0.0007205255947330934,-0.00046953907265058687,-0.0069731842643664605,0.009479833736003123,0.9841805068458636
2013-07-05,1,0.0002532916390993985,0.0006469754416032064,-0.007654974881537761,0.00688452487050412,0.9846221728022445
2013-07-09,1,0.0008937389602377257,0.001301617288958627,-0.009817253944423912,0.004976047468836273,0.9849623003036986
2013-07-11,1,0.0021009145546553414,0.002655520353320587,-0.009817253944423912,0.004976047468836273,0.9860674136933627
2013-07-15,1,0.0008719775390537615,0.0011554074579700625,-0.009817253944423912,0.004976047468836273,0.9861149492535897
2013-07-17,1,0.00017623980121763251,0.00031630261042219393,-0.009054415296636214,0.0027233987749145684,0.9873844447559892
2013-07-19,-1,-5.677182390171384e-05,-6.2792411079354955e-06,-0.011182243558635738,0.0027233987749145684,0.9865423049130946
2013-07-23,0,-7.360503204633002e-06,0.0001074170070436769,-0.011182243558635738,0.005527546124593065,0.986622102214482
2013-07-25,0,-0.00010015135392638471,2.9432281971460096e-06,-0.011182243558635738,0.01012286275749418,0.9855148643636855
2013-07-29,1,0.0034373142613526595,0.004026027474152677,-0.011182243558635738,0.01012286275749418,0.9893297578973321
2013-07-31,1,0.002867728485929072,0.0034292429068277517,-0.013580934509435885,0.01012286275749418,0.9892179536370409
2013-08-02,1,0.002467355662891018,0.0029746819883656383,-0.01129241856607279,0.01012286275749418,0.9898590739116152
2013-08-06,1,0.0016415244145061376,0.0020118123219035238,-0.007955180312361367,0.01012286275749418,0.9907941667398653
2013-08-08,1,0.0019881746982673464,0.0023939815521508744,-0.007955180312361367,0.009028538451529816,0.9909098570858543
2013-08-12,1,0.0012746838802385994,0.0015346815258401234,-0.003995240183716741,0.008945443061774565,0.9914441099531323
2013-08-14,1,0.0006772920307647687,0.0008275721755811936,-0.003995240183716741,0.008945443061774565,0.9907255498757133
2013-08-16,1,0.0006808185763208177,0.0008339934304703063,-0.0028594094300292026,0.008945443061774565,0.9901753235988249
2013-08-20,1,0.00044542221466193455,0.0005378935418986927,-0.00040841946284417844,0.010764929296693605,0.9892565576472051
2013-08-22,1,0.0010746557471201016,0.0012062338510494867,-0.0028594094300292026,0.008945443061774565,0.9902849628432632
2013-08-26,1,0.0019237747918069675,0.0022075339404227868,-0.0028594094300292026,0.008438430485007899,0.9909277574474626
2013-08-28,1,0.0006851981622714328,0.0008004891660085642,-0.00171616775861552,0.008945443061774565,0.9908422599871188
2013-08-30,1,0.0008998435268263278,0.0010587339645740407,-0.00171616775861552,0.008945443061774565,0.9908030365305335
2013-09-04,1,0.0003787238582683513,0.0003804081128375117,-0.00171616775861552,0.009687262498284116,0.9903723395865963
2013-09-06,1,5.016626757741631e-05,0.00014285850278419345,-0.0031849607160851817,0.010931293380405892,0.9892579968408932
2013-09-10,1,0.0007083436669136684,0.0007156939917811629,-0.00792022637264716,0.010931293380405892,0.9883323061347046
2013-09-12,1,1.01466516935226e-05,0.0001015237621122165,-0.00792022637264716,0.010931293380405892,0.9888084266273343
2013-09-16,1,0.001857080413416192,0.0020915976462896847,-0.008509942102516675,0.008096285694944777,0.9895368801122569
2013-09-18,1,0.0026858763922916313,0.003014674786168425,-0.008509942102516675,0.008096285694944777,0.9896326139119838
2013-09-20,1,0.0028487709827455005,0.003203534188201347,-0.008509942102516675,0.009081919820434426,0.9890977020259223
2013-09-24,1,0.0024592540835822055,0.002732275389876248,-0.008509942102516675,0.009081919820434426,0.9893011265508883
2013-09-26,1,0.003188726594191531,0.003575131143894025,-0.010035151987978776,0.004693415255682884,0.9892982548726257
2013-09-30,1,0.0032225833562070406,0.003655742189288464,-0.010035151987978776,0.009081919820434426,0.9878408914272818
2013-10-02,1,0.003708797380284586,0.004242054863013867,-0.010057245133389955,0.004693415255682884,0.9874793893039908
2013-10-04,1,0.0038019039065897487,0.004324729324486252,-0.010057245133389955,0.003094930495887996,0.9882129124798622
2013-10-08,1,0.0024799807049448452,0.0028054149760068144,-0.010057245133389955,0.004693415255682884,0.9884563142597947
2013-10-10,1,0.002181730589152017,0.0024716009588475014,-0.005798270307050114,0.008163555687450084,0.9884850692641197
2013-10-14,1,0.0018442085339543338,0.0020632811191756226,-0.004234539894792316,0.010789846332410837,0.987396059722161
2013-10-16,1,0.0020062100839998813,0.0022226950693300463,-0.005568570351268513,0.006451332809648275,0.9875980928991405
2013-10-18,1,0.003323979868980871,0.0037790595495462466,-0.005568570351268513,0.005404093727632173,0.9882742543768648
2013-10-22,1,0.00309774549884142,0.0034918386118887104,-0.00986727953118679,0.005404093727632173,0.9872129266694992
2013-10-24,1,0.002498096347105387,0.002837713922503089,-0.00523350651651963,0.005404093727632173,0.988761210978371
2013-10-28,1,0.0034386178866527258,0.003888957144142465,-0.007517186969892954,0.0032910809307801596,0.9899765663205441
2013-10-30,1,0.0031371059032117344,0.0035519320679136403,-0.004919200060656223,0.005404093727632173,0.9905796713367471
2013-11-01,1,0.0019809840060491216,0.0021460722300019434,-0.004919200060656223,0.005404093727632173,0.9910543295071433
2013-11-05,1,0.0011976227021764892,0.0012674524971911269,-0.004919200060656223,0.005404093727632173,0.9879967432582736
2013-11-07,1,0.0014834508916833668,0.0016265892090409186,-0.007517186969892954,0.004347758244946464,0.9877275228587867
2013-11-11,1,0.0022916004669572532,0.0025002937953791417,-0.00800909943209109,0.002810996339657949,0.9886629850612655
2013-11-13,1,0.001143096409317456,0.0011607157648375354,-0.00800909943209109,0.002810996339657949,0.9888800765255163
2013-11-15,1,0.0011929820000193957,0.0012055545442073436,-0.00800909943209109,0.002810996339657949,0.9888514045363513
2013-11-19,0,-0.00013591556238761783,8.103813262270098e-05,-0.007219192875696745,0.003473574977983441,0.9893953442670752
2013-11-21,-1,-0.0002924909671247485,-5.3929314219739615e-05,-0.007219192875696745,0.003473574977983441,0.9894327739731634
2013-11-25,-1,-0.00025254927778807284,-4.4479592338217476e-05,-0.006643482094364352,0.0042456138484911945,0.989108487121246
2013-11-27,1,0.0005190844638659291,0.0005964232128819485,-0.006717049378798325,0.004160263280450263,0.9889679783126887
2013-12-02,1,0.001055411636618155,0.0010829306256221795,-0.006717049378798325,0.004532234714608002,0.9887785602816477
2013-12-04,1,0.003148527368910897,0.0034247873871544156,-0.006622376656584848,0.0033506666796421993,0.9933213595686923
2013-12-06,1,0.0023579003450232066,0.002505310013129344,-0.006622376656584848,0.004532234714608002,0.9937171825740951
2013-12-10,1,0.001801477026542024,0.0018698346131170178,-0.006238196792521978,0.005551947883940279,0.9928098247417402
2013-12-12,1,0.0008059558996778909,0.0008948392554507681,-0.002257854808372582,0.008146021449013248,0.9921180370978558
2013-12-16,1,0.0006247350008531554,0.0007486833249775193,-0.002257854808372582,0.011788245023179695,0.9916695299213516
2013-12-18,1,0.002041466432388321,0.002268257001966924,-0.002266598622591024,0.007633540791955358,0.9923841838090454
2013-12-20,1,0.0015382448601482198,0.001644950935548754,-0.006264428235177305,0.007633540791955358,0.9914668751802251
2013-12-24,1,0.0016318874105285379,0.0017238414844613593,-0.00782354887785245,0.005551947883940279,0.9899454832153929
2013-12-27,1,0.0011768736271634498,0.001183573096049267,-0.00782354887785245,0.007633540791955358,0.9895443969633534
2013-12-31,1,0.0013987204418142093,0.0014344255617261856,-0.010836096189720246,0.011734676196805231,0.988094869977333
2014-01-03,1,0.0009376185053266621,0.0009744381595688312,-0.011928656129964514,0.011734676196805231,0.987114169874272
2014-01-07,1,0.0003874119851941552,0.0005108059088035796,-0.010836096189720246,0.012714509224477916,0.9872952820947662
2014-01-09,1,0.0013421063411659065,0.001361526919993955,-0.010836096189720246,0.011602375375346034,0.9878101690050609
2014-01-13,1,0.0016565757911505762,0.0016670096432152704,-0.010836096189720246,0.009997879037920293,0.9885419118025902
2014-01-15,1,0.0022642424468590707,0.0023974644410712526,-0.010836096189720246,0.009966667092208224,0.9879474658974136
2014-01-17,1,0.0020600025214798797,0.002181177205541263,-0.012727679978591856,0.009966667092208224,0.9874566612826028
2014-01-22,1,0.0008281235132658979,0.000902101722660418,-0.010591981562783452,0.012714509224477916,0.9856153073331022
2014-01-24,-1,-0.0003824102774113707,-0.00016428704960401279,-0.007510878159544866,0.012714509224477916,0.9872863601242255
2014-01-28,0,-0.0001485995148022215,3.558584653676818e-05,-0.007510878159544866,0.011508739538209824,0.9878062596285994
2014-01-30,-1,-0.0004061935800321133,-0.00019753927867435122,-0.005862002988862115,0.011508739538209824,0.9881958922559791
2014-02-03,-1,-0.0010084904292890157,-0.0007473232956391494,-0.001805357928977796,0.01284547420600899,0.9880711190301515
2014-02-05,-1,-0.0011851464258474111,-0.0008806191810343154,0.000247246575717054,0.014716951974438475,0.9874252023603939
2014-02-07,0,-0.00010518107388458338,3.880144277279091e-05,-0.001805357928977796,0.013146859717264078,0.9880549316249857
2014-02-11,0,-7.774345013283624e-05,2.7336676818549756e-05,-0.002283706872206148,0.013146859717264078,0.9870479045169337
2014-02-13,0,-6.187456516625268e-05,3.851787469753571e-05,-0.002283706872206148,0.013146859717264078,0.9871412112085176
2014-02-18,-1,-0.0007628862609232581,-0.0005764568154594678,-0.0019626176833123623,0.01397296076979312,0.9871526793446049
2014-02-20,1,0.001163699651476097,0.0012346737085094477,-0.005948871227145831,0.00981623435514883,0.9900635088588282
2014-02-24,1,0.0011502293757684632,0.0012049969989792759,-0.005948871227145831,0.01085187462955832,0.989774849271595
2014-02-26,1,0.0013717414275228718,0.0014731747084218408,-0.0075009193069440865,0.01085187462955832,0.9890794824737122
2014-02-28,1,0.002082236518216247,0.0022891985160055387,-0.0075009193069440865,0.012159328454686251,0.9893303870680316
2014-03-04,1,0.0020803928518981054,0.0022279310214336026,-0.0075009193069440865,0.012159328454686251,0.9888677654573718
2014-03-06,1,0.002449044504756811,0.0026258124310369543,-0.00982782470244189,0.011314661058642992,0.9885631746728059
2014-03-10,1,0.002240419125665241,0.0023763860832832625,-0.012873687386095897,0.010369736858701701,0.988023689383803
2014-03-12,1,0.0014466485441610984,0.001490842154253008,-0.010012634245381784,0.010447060591809356,0.9893656607068426
2014-03-14,1,0.001400804039102467,0.0014750524168269758,-0.012873687386095897,0.010447060591809356,0.9867560246737768
2014-03-18,1,0.0016306580611882135,0.0017291611003275582,-0.012873687386095897,0.010447060591809356,0.9870524749359981
2014-03-20,1,0.0007114877380381073,0.0007737667848170535,-0.015102624675242534,0.011314661058642992,0.985371109562894
2014-03-24,1,0.0013839031850056034,0.0014530534321790943,-0.015102624675242534,0.011314661058642992,0.9857444795414335
2014-03-26,1,0.000990801411273108,0.0009946054144222079,-0.015102624675242534,0.011314661058642992,0.9858582710910777
2014-03-28,1,0.0014355392758918046,0.0014718767618102137,-0.015102624675242534,0.006643091808671436,0.986718589556048
2014-04-01,1,0.0018764988856049079,0.0019145951416901414,-0.015102624675242534,0.005266748158614759,0.9876717879840997
2014-04-03,1,0.0009814373422335106,0.001050081018039349,-0.01338445706192476,0.0054973105602782206,0.9881071411218604
2014-04-07,1,0.0006650318847938393,0.0007008377618855105,-0.006447406992158276,0.0054973105602782206,0.9892040858833236
2014-04-09,1,0.0006860245448982247,0.0007447809376527653,-0.01217609764108244,0.005457695393524713,0.9888758888578107
2014-04-11,-1,-0.0015372016992952304,-0.0012263496479873437,-0.006447406992158276,0.005542275405934971,0.9896107324864082
2014-04-15,-1,-0.0016259479953816534,-0.001269205844673839,-0.006447406992158276,0.005542275405934971,0.9887479810080858
2014-04-17,-1,-0.0015632830341099971,-0.0012079943006632374,-0.006447406992158276,0.005542275405934971,0.9891641556373528
2014-04-22,-1,-0.0018510152159523538,-0.0014495802020043848,-0.0060484629973907595,0.005855365430086559,0.9881095752151312
2014-04-24,-1,-0.0019456322612867538,-0.0015499982561975937,-0.004363949676605865,0.005855365430086559,0.9886656386767011
2014-04-28,-1,-0.001785748680586207,-0.0014088941269378358,-0.004363949676605865,0.006923745339966685,0.9884888543826408
2014-04-30,1,0.00023032797039436228,0.00024561192212643886,-0.007122557678727757,0.005855365430086559,0.9881092561037316
2014-05-02,-1,-0.0004659277242398056,-0.00033795855333499904,-0.004363949676605865,0.005736519929826035,0.9885364758170193
2014-05-06,-1,-0.0008316840697238807,-0.0006333306408765583,-0.004188755254524195,0.005736519929826035,0.9887747461871289
2014-05-08,-1,-0.0016470107618273722,-0.0013186772834034109,-0.0036829212233920293,0.005277727607174935,0.9893129711602213
2014-05-12,-1,-0.0015638987337534978,-0.0012501905526024226,-0.0036829212233920293,0.004224718844349488,0.9913758936437694
2014-05-14,-1,-0.0005219602488220304,-0.0003400502042787,-0.005651898500727908,0.0030682510689345127,0.9919023652302902
2014-05-16,-1,-0.0017128837453537853,-0.0013876762315666396,-0.004015608364976158,0.0030682510689345127,0.9927984583604029
2014-05-20,-1,-0.0005193091509648564,-0.0003580479803258606,-0.004015608364976158,0.004224718844349488,0.9932563631941831
2014-05-22,-1,-0.000982747660339598,-0.0007609575058084676,-0.003095975298533032,0.005763373945381868,0.9930231762201804
2014-05-27,-1,-0.0004635099531228419,-0.0003146298033851243,-0.004469347091999077,0.004224718844349488,0.9928211510153797
2014-05-29,-1,-0.0013944319695361647,-0.001126738424847644,-0.003095975298533032,0.004224718844349488,0.9936715932904082
2014-06-02,-1,-0.0012867823383455154,-0.00101719242479963,-0.003960255799290045,0.002594276273211664,0.9939637640936063
2014-06-04,-1,-0.000358426176285406,-0.00027061272352228304,-0.003960255799290045,0.004341096027439901,0.9932117811070226
2014-06-06,1,0.00013225186799686243,0.00013614098135363869,-0.005519870086954792,0.004523458199802263,0.9924973616849931
2014-06-10,1,5.272304170050651e-05,7.707233025180021e-05,-0.005656051687261967,0.008712998538527444,0.9921029467108483
2014-06-12,-1,-0.001204932137500731,-0.0010617396441824625,-0.003446149630184937,0.008712998538527444,0.9927775188846485
2014-06-16,-1,-0.0009161103661264644,-0.0007832778882258336,-0.003373594872583408,0.008322988474173796,0.9930763388214648
2014-06-18,-1,-0.0011361332874763952,-0.000905535459486918,-0.003373594872583408,0.008322988474173796,0.9924293336476996
2014-06-20,-1,-0.0006969436928517473,-0.0005305025845737355,-0.003373594872583408,0.007106184296425135,0.9925830616573054
2014-06-24,-1,-0.0017817026871760405,-0.0014671022697571757,-0.003373594872583408,0.007106184296425135,0.992638118197828
2014-06-26,-1,-0.0023848374656511894,-0.0019485007608216422,-0.005373334078363914,0.008505238014213864,0.9919589610725212
2014-06-30,-1,-0.0024419589106578227,-0.0020104976474208565,-0.003736150156701562,0.009385023333568426,0.9915330743205633
2014-07-02,-1,-0.0012612301841507007,-0.0010149444651417513,-0.006743717539616428,0.008505238014213864,0.9920548607864572
2014-07-07,-1,-0.002018602216637545,-0.0016570620641427614,-0.003736150156701562,0.00908604681370082,0.9921378543506613
2014-07-09,-1,-0.001927788862816326,-0.0015761540038287166,-0.003736150156701562,0.00908604681370082,0.9919016769367618
2014-07-11,-1,-0.003298698597822348,-0.002729428043811843,-0.0028210012411759256,0.009385023333568426,0.989446577975995
2014-07-15,-1,-0.001330568175323258,-0.001110847952989766,-0.0028210012411759256,0.009385023333568426,0.9906421588037991
2014-07-17,1,0.0003269313011836723,0.00033674867332874237,-0.006469971097341592,0.0072997872295874535,0.9918727551992265
2014-07-21,1,0.0006498819897492161,0.0006942170845219884,-0.006469971097341592,0.009403660945584091,0.9904404086665742
2014-07-23,1,0.0011891658538548166,0.0013711755122555252,-0.0028299724077991426,0.009403660945584091,0.9908912179049965
2014-07-25,1,0.001791838518749137,0.0021141740294895327,-0.0028299724077991426,0.009096261951654347,0.9910846367605792
2014-07-29,1,0.0028124489428571755,0.0033395395331102884,-0.0028299724077991426,0.007370476244045849,0.9914381663925577
2014-07-31,1,0.0021177469778882385,0.002557501739002027,-0.0008448375366556217,0.007370476244045849,0.992394451448205
2014-08-04,1,0.0017340217147571756,0.0020402298151889963,-0.004971519153519111,0.005454771703914637,0.9917892973459489
2014-08-06,1,0.0015419932780171093,0.0017896440452257168,-0.004559595588504837,0.004861203877842257,0.9923707002449907
2014-08-08,1,0.0007983884481744733,0.0009713704468276454,-0.0035085160482083086,0.003835043819481561,0.9943234637621503
2014-08-12,1,0.0006974402627076028,0.0008268854999930082,-0.004559595588504837,0.003835043819481561,0.9939405525241414
2014-08-14,1,0.0007668418935059991,0.0009187670700489387,-0.0035085160482083086,0.0034940843476409136,0.9942670091863307
2014-08-18,1,0.0021711880513158133,0.0024973962609405524,-0.0035085160482083086,0.0034940843476409136,0.9952922923430201
2014-08-20,1,0.0027547140506843613,0.0032166707056221185,-0.0035085160482083086,0.005008665701374867,0.9947011428229772
2014-08-22,1,0.0033337662003104264,0.003956443809424099,-0.004559595588504837,0.004013533160741506,0.9941461856219131
2014-08-26,1,0.0027786869597611697,0.0032503851106428054,-0.004559595588504837,0.0060069024277902335,0.9917081676265347
2014-08-28,1,0.0023605679960527204,0.002710087235231938,-0.004737439700427978,0.007853163494190896,0.9903826312177192
2014-09-02,1,0.002101888257597843,0.002446224670099904,-0.0035677974188493555,0.007853163494190896,0.9913665366491279
2014-09-04,1,0.0004366910140903086,0.0004603003798754712,-0.0035677974188493555,0.009948344601588669,0.9887008857697367
2014-09-08,1,0.00045354411001469273,0.000453887368667123,-0.004805429013798157,0.009948344601588669,0.9884510118112692
2014-09-10,1,0.000336168155967621,0.0003398334480964241,-0.004805429013798157,0.011557737116448072,0.9868000406151005
2014-09-12,1,0.000101337984120202,0.00013845810478598262,-0.007401376677230105,0.011557737116448072,0.9844770652469899
2014-09-16,1,0.0005192526531696054,0.0005243568489696557,-0.00909367232483046,0.011557737116448072,0.9826832861003315
2014-09-18,1,0.0013571969407686123,0.0014755950567001202,-0.00909367232483046,0.007586050726931869,0.983115765151898
2014-09-22,1,0.0009412243575520588,0.0010331725852690131,-0.011134345666478753,0.011650155036447554,0.9816672217142438
2014-09-24,1,0.003018842472854056,0.003364564079887023,-0.011134345666478753,0.008247620399031593,0.9833132104183976
2014-09-26,1,0.003650571957675904,0.004075631407354138,-0.011134345666478753,0.008247620399031593,0.9838689830566106
2014-09-30,1,0.0034612952066426545,0.0038364211565861577,-0.018843578770905988,0.014831160524973373,0.9820004607949314
2014-10-02,1,0.002952685721610367,0.003258351665918075,-0.013054854235314911,0.0087993527018476,0.9840525698812808
2014-10-06,1,0.00300937393530532,0.003374922542319816,-0.01580633260163795,0.0087993527018476,0.9839912617210635
2014-10-08,1,0.003234832020147668,0.0035582474326084825,-0.01580633260163795,0.0066357832820652185,0.9851781865452044
2014-10-10,1,0.0016651738428175764,0.0018342080857826023,-0.012042050113869014,0.0066357832820652185,0.9871129759666148
2014-10-14,-1,-0.0004601754627720055,-0.00034285945441484765,-0.00907225140299198,0.013693403471801924,0.9864218085858975
2014-10-16,-1,-5.6331854845598754e-05,-5.606884181167234e-06,-0.00907225140299198,0.013693403471801924,0.9866419252393449
2014-10-20,-1,-0.0014289706014188883,-0.0011782885263209525,-0.004915605007369626,0.014065658942191167,0.9879651181798867
2014-10-22,-1,-0.0002744119047155848,-0.00017362901276955236,-0.004915605007369626,0.009974706213997389,0.9888636046957461
2014-10-24,1,0.0006111318543676352,0.0006157161265729299,-0.004915605007369626,0.009974706213997389,0.9888841643631503
2014-10-28,1,0.0005870366920567217,0.0005916831663301434,-0.005447504484046535,0.00755978694924609,0.9898313187273138
2014-10-30,1,9.291924617925375e-05,0.0001691899103609158,-0.005447504484046535,0.005615137813826352,0.9899674938566847
2014-11-03,-1,-0.0011674017089960582,-0.0008864196246871191,-0.004031388495986731,0.005615137813826352,0.9906710145259794
2014-11-05,-1,-0.001299173346283615,-0.0010279281808149095,-0.0038054068293754345,0.007118446802234056,0.9911695446099532
2014-11-07,-1,-0.001354552920735269,-0.0011098272954363358,-0.004031388495986731,0.007118446802234056,0.9905777277376879
2014-11-11,1,0.001176691019761219,0.0012499336001863288,-0.0075972269769527465,0.003906231812937839,0.9910427768067244
2014-11-13,1,0.0007004042844344096,0.0007329847274069949,-0.012302550014878937,0.003906231812937839,0.9906009255841516
2014-11-17,1,0.0010253554074353176,0.0010306249706104047,-0.012302550014878937,0.0036171556253949983,0.9910378256735793
2014-11-19,1,0.0010988814603261226,0.0011008186472662223,-0.012302550014878937,0.003906231812937839,0.9895486116957831
2014-11-21,1,0.0021120573918848987,0.00227542318467625,-0.012302550014878937,0.004766460673076341,0.9883674981896132
2014-11-25,1,0.001018274657260414,0.001025779426313179,-0.011574068437052847,0.007480845681466317,0.9877320610910798
2014-11-28,1,0.0003075886878942269,0.0003941813114330628,-0.007505344326073594,0.007480845681466317,0.9882340640482762
2014-12-02,0,-0.00015813727591189861,1.4582355461231159e-05,-0.007505344326073594,0.007480845681466317,0.9884655872675475
2014-12-04,1,0.00026905845997370363,0.00037047961513815716,-0.007505344326073594,0.011843581272858223,0.9875547331061723
2014-12-08,1,4.897568156095837e-06,7.889194013023873e-05,-0.004243926474112482,0.01992257518780046,0.9862978407703971
2014-12-10,-1,-0.0016810735718582176,-0.0014188775480908666,-0.0032963363995592633,0.01992257518780046,0.987152339313233
2014-12-12,-1,-0.002280245536962924,-0.0019474543318050482,-0.0032096138921080416,0.01992257518780046,0.9870150679848543
2014-12-16,-1,-0.0021647843241972206,-0.0018505992546238989,-0.003250348317316228,0.01992257518780046,0.9858706760737196
2014-12-18,-1,-0.00032345213573796964,-0.00024053816370227195,-0.003250348317316228,0.01992257518780046,0.9858801503867435
2014-12-22,1,0.0008374784018330405,0.0008559465246145738,-0.0034293521897238903,0.019229765558693174,0.9871894067013663
2014-12-24,1,0.00153646461336216,0.0016610715139111847,-0.0034293521897238903,0.017152753033950592,0.9881994271398246
2014-12-29,1,0.0011449099574543206,0.0012195437735167671,-0.0034293521897238903,0.017152753033950592,0.9874861548464291
2014-12-31,1,0.0004596250463539124,0.0005203358603583616,-0.0034293521897238903,0.018817198479827633,0.9864265305794525
2015-01-05,1,0.0010075511650456189,0.0010143052459958978,-0.0037453427869324814,0.01706379920498062,0.9868860039365022
2015-01-07,1,0.00247721582218225,0.0026692671145063336,-0.006506679251085046,0.009886743604950631,0.9882661522688111
2015-01-09,1,0.0037021991601542724,0.004128124072640618,-0.010469546015181252,0.008037495743716438,0.9882674523112512
2015-01-13,1,0.003802016129040949,0.004238727718334907,-0.010469546015181252,0.008037495743716438,0.9883340928896777
2015-01-15,1,0.002404611338389338,0.002640870933146849,-0.005916957535729722,0.009600700769574005,0.9897456401084556
2015-01-20,1,0.004129447073203551,0.0046077846660632716,-0.009163696250275705,0.007111633520937837,0.9903016315079314
2015-01-22,1,0.004463259120474105,0.004990403383402725,-0.009163696250275705,0.008037495743716438,0.9896444073606799
2015-01-26,1,0.0036690645391333635,0.004054167938190119,-0.008533331897534975,0.009600700769574005,0.9902383765159403
2015-01-28,1,0.0030409383948573304,0.0033187279507036274,-0.008533331897534975,0.009600700769574005,0.9904144203396871
2015-01-30,1,0.0032151969149142447,0.003496460226440118,-0.008533331897534975,0.009600700769574005,0.9906242551904201
2015-02-03,1,0.002411423394789728,0.0025653913142154247,-0.008533331897534975,0.009600700769574005,0.9905046286242093
2015-02-05,1,0.002005212345357427,0.0020899714075526417,-0.008533331897534975,0.005788800756630552,0.9903084196406058
2015-02-09,1,0.0017665034981870662,0.0018468248173689717,-0.008533331897534975,0.012857174636937297,0.988130430194822
2015-02-11,1,0.002115294261055428,0.0022792359962240053,-0.008533331897534975,0.012857174636937297,0.9876210088650001
2015-02-13,1,0.0019945115212202727,0.002103547331905277,-0.008533331897534975,0.006208285740111428,0.9883926544470958
2015-02-18,1,0.002626009582764186,0.0029396538761039996,-0.00855942146410555,0.01335849594274033,0.987864589283791
2015-02-20,1,0.0043158373784356234,0.004891941502910371,-0.012882874132763834,0.0028728865145735065,0.9876401660888232
2015-02-24,1,0.0046708566033148565,0.005299023886624369,-0.012882874132763834,0.0028728865145735065,0.9873529718142293
2015-02-26,1,0.0036334501867236173,0.004095910826738481,-0.00855942146410555,0.0028728865145735065,0.9886554464896624
2015-03-02,1,0.003830428443342043,0.0042919145454358935,-0.013208613827770171,0.0028728865145735065,0.9880998436634524
2015-03-04,1,0.0033957880828756034,0.003850750139176259,-0.013208613827770171,0.0028728865145735065,0.9882172399721427
2015-03-06,1,0.0015587534163198948,0.001664009738788608,-0.012612510325429344,0.003896074543595978,0.9893799918135652
2015-03-10,-1,-0.0002351805279942157,-3.116637273881519e-05,-0.00855942146410555,0.003896074543595978,0.9915820486856404
2015-03-12,-1,-0.00042613347264333363,-0.00020303183906893532,-0.00625776884391987,0.0028826979961077428,0.9920763864607274
2015-03-16,-1,-0.0009668726580080423,-0.0006316591274451651,-0.007306093967326153,0.002257953512425246,0.9920347344601478
2015-03-18,-1,-0.00037693083417811627,-0.000149579548231892,-0.004620464826670499,0.004953419113894117,0.9916211724376183
2015-03-20,-1,-0.000618850547424091,-0.0003950080040642877,-0.0057279061102115105,0.004953419113894117,0.9916564071785485
2015-03-24,0,-0.00016292706914438335,1.4598730566359143e-05,-0.006295456083257238,0.002257953512425246,0.9920671856369206
2015-03-26,-1,-0.000512430926306795,-0.0002839951467597902,-0.006295456083257238,0.009316758466976625,0.9909330752947517
2015-03-30,-1,-0.0013442382544224347,-0.0009914683157748027,-0.006295456083257238,0.006233028089890335,0.9912774813957057
2015-04-01,-1,-0.002630915714236944,-0.0021027452416765994,-0.006295456083257238,0.012825424022723598,0.9911886924889141
2015-04-06,-1,-0.0034348708857909597,-0.0027861019308415757,-0.0057279061102115105,0.013481379904692463,0.9904836929884148
2015-04-08,-1,-0.0016300150625813549,-0.0013042369418998154,-0.006295456083257238,0.014625809743407167,0.9902324703208562
2015-04-10,-1,-0.0018291923510999413,-0.0014736321690117652,-0.006295456083257238,0.015395908164932985,0.9875081060352547
2015-04-14,-1,-0.0018670202354553666,-0.0015309165611542839,-0.00875772889820089,0.015395908164932985,0.9866736054209608
2015-04-16,-1,-0.00038014158879765095,-0.0002269195244267733,-0.00875772889820089,0.014625809743407167,0.9878885132797297
2015-04-20,-1,-0.000602204096251033,-0.00046257338267259736,-0.007585968063591949,0.014625809743407167,0.9881349575146718
2015-04-22,-1,-0.001456706398492266,-0.001176719193251143,-0.004565503524805871,0.014625809743407167,0.9878024363518121
2015-04-24,-1,-0.0007408893266565117,-0.0005097997081565266,-0.004565503524805871,0.013318264841983934,0.9878538950662297
2015-04-28,-1,-0.0017171477672235662,-0.0013706190758423686,-0.004004659395602187,0.013318264841983934,0.9880473786202338
2015-04-30,-1,-0.0017132922287283984,-0.0013762017908137483,-0.004004659395602187,0.012840665814190133,0.9884140972699141
2015-05-04,-1,-0.001469343559740026,-0.001117775527709631,-0.004004659395602187,0.00955473203202287,0.9891433918721483
2015-05-06,-1,-0.002518376296001211,-0.001958479530080328,-0.004004659395602187,0.008479508471271515,0.9893015653370183
2015-05-08,-1,-0.00098115887178788,-0.000566639699938809,-0.006263158183211155,0.007994870266135648,0.9921809174683339
2015-05-12,-1,-0.00218188240093761,-0.0016209675547167752,-0.0022726869794660364,0.008114368653917847,0.9919995088252601
2015-05-14,-1,-0.0012995887296692766,-0.0009181189142707074,-0.004140746631861536,0.008114368653917847,0.9922252611530558
2015-05-18,0,-0.00014499543065233907,3.2423119036462285e-05,-0.004140746631861536,0.008479508471271515,0.9922461623824214
2015-05-20,1,0.0005359613569514657,0.0006040858977820944,-0.0062822807543639215,0.008843731352116194,0.9915217280768344
2015-05-22,1,0.0013274107562253803,0.001330427168932655,-0.008444134917342846,0.00809058979095629,0.991480399129602
2015-05-27,1,0.001158360572958855,0.0011847712791994633,-0.00885376930426491,0.00809058979095629,0.9911794694340661
2015-05-29,1,0.0007001959945851971,0.0007574365577403889,-0.008506022921657232,0.008843731352116194,0.9913896513074655
2015-06-02,1,0.0018157331660306078,0.0019955062206228986,-0.00885376930426491,0.011035050308928445,0.9893756471207276
2015-06-04,1,0.0020573863570990903,0.002308764406103295,-0.008576798337711815,0.01297480625005692,0.989211784398928
2015-06-08,1,0.001798524566949782,0.0020266380225315165,-0.01050861726649254,0.01297480625005692,0.9878805330223199
2015-06-10,1,0.0016534350334580705,0.0017852766340180873,-0.013513195877309389,0.011293880654672612,0.9865105648416052
2015-06-12,1,0.0019790411795061248,0.002253957566585459,-0.013513195877309389,0.01297480625005692,0.9865340308233382
2015-06-16,1,0.00265358892014977,0.0030420633082594217,-0.013513195877309389,0.01297480625005692,0.9861622335211366
2015-06-18,1,0.0024219103126725504,0.002754815466670195,-0.010286422487387195,0.01297480625005692,0.9825042267376384
2015-06-22,1,0.0021654047934218427,0.002444880391774066,-0.015581441038040038,0.011293880654672612,0.9802099577473318
2015-06-24,1,0.0018262676692459153,0.0020872990322870523,-0.01712813648333836,0.011293880654672612,0.9798330242501756
2015-06-26,1,0.001895140300515079,0.0021343888647593536,-0.022321044612603848,0.009821442749102982,0.9778695280230145
2015-06-30,1,0.0020070145888962613,0.0022489507357474634,-0.022321044612603848,0.009378144186088587,0.9796820261843444
2015-07-02,1,0.0018906212415947918,0.0020961531193844332,-0.022321044612603848,0.007074856214322126,0.9804951703822656
2015-07-07,1,0.000674887779087849,0.0007290699852350799,-0.0177828581114824,0.009378144186088587,0.9812561754225587
2015-07-09,1,0.00013717924862617907,0.00013793861320215463,-0.01041864952245739,0.010861648681050986,0.9813913583644469
2015-07-13,1,0.0004833951404093364,0.0004929700271050488,-0.0177828581114824,0.011621773551085963,0.977642567532625
2015-07-15,1,0.0011325866601838838,0.001306847022831494,-0.02255320734287364,0.019104537794805317,0.9720058254323424
2015-07-17,1,0.005014035293815961,0.005724781656119818,-0.02255320734287364,0.019104537794805317,0.974931556705758
2015-07-21,1,0.0021620480829797435,0.00245797276226455,-0.012111469832679703,0.019104537794805317,0.9784642318453295
2015-07-23,1,0.0015587347530919393,0.0018054924658151474,-0.0163119802381391,0.019104537794805317,0.9778901622810496
2015-07-27,-1,-0.0006770211536184884,-0.0005966434509737336,-0.016480853375502078,0.019104537794805317,0.9762311458714236
2015-07-29,-1,-0.0009448498011345864,-0.0007968321851752724,-0.016480853375502078,0.019104537794805317,0.9763181884963931
2015-07-31,-1,-0.0012925834440747086,-0.0010773424506244475,-0.016480853375502078,0.023192637679572456,0.9746666748808334
2015-08-04,-1,-0.0006336775078391349,-0.0004885442797774249,-0.024542758698747554,0.019104537794805317,0.9738675316579801
2015-08-06,1,0.0006998298207268531,0.0007185942778743151,-0.024542758698747554,0.016100701176570295,0.9737744094780127
2015-08-10,-1,-0.00020405847876435205,-0.00012547026292330978,-0.024542758698747554,0.016100701176570295,0.9761026282739955
2015-08-12,0,-2.6135312606076326e-05,5.666500587680646e-05,-0.016480853375502078,0.010473325443532955,0.9821256887616601
2015-08-14,1,0.001205198237175312,0.0012994974133719822,-0.024542758698747554,0.0037839035865273314,0.9812330020704781
2015-08-18,1,0.0009320657038254026,0.0009813437253790734,-0.024542758698747554,0.007538526401713055,0.9810681952475216
2015-08-20,-1,-0.0005467269011384128,-0.0003974678803860818,-0.02557405999624459,0.007538526401713055,0.9808869423318609
2015-08-24,-1,-0.0038511688760097286,-0.0032780680610400006,-0.013235010087454077,0.007538526401713055,0.9846516821526642
2015-08-26,-1,-0.004135376648798842,-0.0035062082990061742,-0.026528069359133932,0.003895609473863808,0.98107612084472
2015-08-28,-1,-0.0030615719355481675,-0.0025783922002949175,-0.029186776889079474,0.00021964170266475808,0.9803264546303323
2015-09-01,-1,-0.0046745625283220234,-0.003999763545930328,-0.026528069359133932,0.005449529055488043,0.9814438121654395
2015-09-03,-1,-0.0035184744704028705,-0.002966605908683302,-0.026528069359133932,0.0013965400045337772,0.9807557627243748
2015-09-08,-1,-0.0029198871688656623,-0.002493948146901159,-0.01964521417205508,0.004812754518391189,0.9804100423772222
2015-09-10,-1,-0.003620458664986369,-0.0030830586213516885,-0.01964521417205508,0.013208633921288298,0.9774862671793008
2015-09-14,-1,-0.005537986690932257,-0.004760049110073511,-0.01964521417205508,0.013208633921288298,0.9773541213348853
2015-09-16,-1,-0.004225795373007214,-0.0036550803978452062,-0.01964521417205508,0.014437575439023196,0.9761733051723545
2015-09-18,-1,-0.006507030642727474,-0.005632679978621692,-0.014092800419096892,0.016238375370869938,0.9761456632379315
2015-09-22,-1,-0.007112175183831113,-0.006167878247568378,-0.017143328206363072,0.016238375370869938,0.9752693562483169
2015-09-24,-1,-0.009896271393284223,-0.008671318935215933,-0.0036396848171487612,0.019660960393558604,0.9752579986106127
2015-09-28,-1,-0.011467090620362615,-0.010071390478094777,-0.0036396848171487612,0.019660960393558604,0.9755146938528544
2015-09-30,-1,-0.009280395608453096,-0.008245556005921582,-0.00992156628890024,0.019660960393558604,0.9763334210894806
2015-10-02,-1,-0.007657061476570576,-0.006778277579261851,-0.016633704931923822,0.014608901223229545,0.9794100825691745
2015-10-06,-1,-0.00545754707473378,-0.0048477777841137455,-0.016633704931923822,0.014608901223229545,0.9807951002877722
2015-10-08,-1,-0.0026412662183355373,-0.0023839285527239877,-0.018489008682617082,0.013508488448560478,0.9797810642694912
2015-10-12,-1,-0.003758178874377762,-0.0033915380426609455,-0.016633704931923822,0.014608901223229545,0.9798328313447657
2015-10-14,-1,-0.0014306705199956526,-0.0013950546018169268,-0.017515368985467086,0.009719289493630615,0.980730584988406
2015-10-16,-1,-0.0013540621351633073,-0.0013345918665316147,-0.01634893689948963,0.009719289493630615,0.9810384644692303
2015-10-20,-1,-0.0018667117001581932,-0.0017646833887411248,-0.012184146671624494,0.015023201945145797,0.9805502307134171
2015-10-22,-1,-0.00029391787517558563,-0.0001781826655040524,-0.017515368985467086,0.009210857498016662,0.97921651220737
2015-10-26,-1,-0.0005499641494153737,-0.00046375693410170827,-0.017515368985467086,0.015023201945145797,0.9765897262160715
2015-10-28,-1,-0.0010442387615525032,-0.0010354968325114629,-0.012184146671624494,0.018321638461713533,0.977371272333699
2015-10-30,-1,-0.001518548890418267,-0.0015040669852886142,-0.009666988641996901,0.02067321536630018,0.9773265248044378
2015-11-03,-1,-0.0008232516172361681,-0.0007673911135340096,-0.012184146671624494,0.018321638461713533,0.9778774421727298
2015-11-05,-1,-0.003710008542748954,-0.003453171568368611,-0.012184146671624494,0.018321638461713533,0.9801228565433233
2015-11-09,-1,-0.002404720088134138,-0.002313459584649528,-0.02522496141496914,0.017760006329044675,0.9798308129170185
2015-11-11,-1,-0.002517131447648285,-0.002417720007299266,-0.02522496141496914,0.018321638461713533,0.9787709396998258
2015-11-13,-1,-0.0022746735864129304,-0.002184622093060916,-0.026758350545671692,0.017760006329044675,0.9779456854055851
2015-11-17,-1,-0.0008369141022058456,-0.000718955629274647,-0.026758350545671692,0.017760006329044675,0.9776468575653277
2015-11-19,-1,-0.0023775620622374424,-0.0023221506439310433,-0.02566148173162631,0.017760006329044675,0.9801124469867833
2015-11-23,-1,-0.0030590333822234747,-0.0029415205886231094,-0.024855050221964364,0.017760006329044675,0.9821822603817281
2015-11-25,-1,-0.0032468303483776037,-0.003054199567284332,-0.024855050221964364,0.017932497019725616,0.980927997081204
2015-11-30,-1,-0.0028184193621704694,-0.0026501688143793704,-0.024855050221964364,0.01583276813921211,0.9806709091039599
2015-12-02,-1,-0.00292520403260551,-0.0027907227380006786,-0.02566148173162631,0.01583276813921211,0.9801132920595107
2015-12-04,-1,-0.0030650729204421715,-0.002925039978703907,-0.02566148173162631,0.010900313838245261,0.9808960826925845
2015-12-08,-1,-0.0025322707577103113,-0.002385577650147695,-0.02566148173162631,0.010900313838245261,0.9769112130745321
2015-12-10,-1,-0.0033397112143146875,-0.0032589607013144353,-0.027903447620931596,0.00909629487971178,0.9772067296959682
2015-12-14,-1,-0.005336375502559299,-0.004991309893107018,-0.02581739770551351,0.00909629487971178,0.9787136226090623
2015-12-16,-1,-0.004788243161079574,-0.004426620761155933,-0.03156573171237642,0.004323088170299007,0.9778109719435555
2015-12-18,-1,-0.004234609761185271,-0.00395343745752132,-0.03421450285867905,-0.004533749711874458,0.9749890161389071
2015-12-22,-1,-0.0029469241344037924,-0.002829767518767844,-0.03421450285867905,-0.0050037825205963265,0.9741251272675201
2015-12-24,-1,-0.0017586886567584152,-0.0016776260699893244,-0.03615902315304201,-0.0050037825205963265,0.9725045628093704
2015-12-29,-1,-0.0011883537877264922,-0.0009324632776237196,-0.03615902315304201,0.0043256395733559366,0.9723833268325451
2015-12-31,-1,-0.0028675359132928104,-0.002860118283559117,-0.035664343004658865,0.008245507106967752,0.9738435404066468
2016-01-05,-1,-0.003470437503231845,-0.003423761160202552,-0.035664343004658865,0.011568682427768134,0.9733441253123264
2016-01-07,-1,-0.007012504169094618,-0.006631096547530234,-0.027640434234562646,0.01830970457061306,0.9780548525646069
2016-01-11,-1,-0.008331511746561354,-0.007811016519240796,-0.027640434234562646,0.01830970457061306,0.9759511058485126
2016-01-13,-1,-0.009325649191725035,-0.008647194634866113,-0.027640434234562646,0.0195897973449097,0.9741660313135749
2016-01-15,-1,-0.0118287588912667,-0.010751659375966479,-0.023390913310048268,0.02305981140889716,0.9725500416276338
2016-01-20,-1,-0.014192052141419288,-0.012870872685974293,-0.013227257720601158,0.03160359918990088,0.9681336874272904
2016-01-22,-1,-0.011459666591310447,-0.01052074448592117,-0.02082101219521014,0.02305981140889716,0.9688246675928837
2016-01-26,-1,-0.012500177577249545,-0.011379780609195755,-0.02082101219521014,0.0195897973449097,0.9707200065008156
2016-01-28,-1,-0.009710453886053056,-0.009016833975047232,-0.02082101219521014,0.034293358917025216,0.9678860367452233
2016-02-01,-1,-0.009265106881378972,-0.008655414837110062,-0.02082101219521014,0.03930111699135955,0.9662008327024749
2016-02-03,-1,-0.008772448506143034,-0.008218599935475458,-0.02082101219521014,0.042105037219609384,0.9645865240603757
2016-02-05,-1,-0.00925483729894096,-0.008577194604191103,-0.026824915175221467,0.04327297090727653,0.9611786282142689
2016-02-09,-1,-0.01001609660234904,-0.009305476306741091,-0.026824915175221467,0.04327297090727653,0.9625295791427062
2016-02-11,-1,-0.009528184838610952,-0.008794570230416205,-0.040309016641144564,0.04350575775369052,0.9606556503182009
2016-02-16,-1,-0.0063093114234876995,-0.00593065979294834,-0.041751182157416473,0.04350575775369052,0.9628482246613249
2016-02-18,-1,-0.003939741345933995,-0.0036705871285008943,-0.041751182157416473,0.042105037219609384,0.9658577358890389
2016-02-22,-1,-0.005779514633396831,-0.005207936234035578,-0.041751182157416473,0.042105037219609384,0.9679398198295796
2016-02-24,-1,-0.007169056506409318,-0.006482686033310168,-0.034586649978757655,0.042105037219609384,0.9673162498787323
2016-02-26,-1,-0.0016866845040247535,-0.0016242009959988991,-0.034586649978757655,0.018185361167133315,0.9712401735445323
2016-03-01,1,0.0008856027300149772,0.0014114599142757123,-0.034586649978757655,0.007268886237268452,0.9730795902161834
2016-03-03,1,0.0025031701058557047,0.003400259281634679,-0.031488028834043634,0.007268886237268452,0.9747044126802288
2016-03-07,1,0.00273703128812243,0.0035780353891128737,-0.031488028834043634,0.003965482595868612,0.9765047248923328
2016-03-09,1,0.0024573778534475654,0.0033609749062811093,-0.029285437697994982,0.0025889296654159405,0.9771563937248819
2016-03-11,1,0.0031065274631479393,0.004102437122248271,-0.028378572842871094,0.006022178590173184,0.980913640623651
2016-03-15,1,0.0012886273409613968,0.002036681071891703,-0.026751249871152495,0.013567124397710989,0.9829125965976165
2016-03-17,1,0.0038141639468049727,0.004984172589584334,-0.026751249871152495,0.012807216387363964,0.9824524170308034
2016-03-21,1,0.004021840621844016,0.005212457037875221,-0.026751249871152495,0.013297475658082984,0.9792242965668322
2016-03-23,1,0.002068589419302618,0.0029970239192280428,-0.020054203203786966,0.01575530606667311,0.980011188939522
2016-03-28,1,0.0007011797507583237,0.00140690843905861,-0.020054203203786966,0.01575530606667311,0.9800077043418361
2016-03-30,1,0.0018402906848383627,0.002768132918879883,-0.020054203203786966,0.016725077163149693,0.9796303226348011
2016-04-01,1,0.0006121132525638894,0.0012001101835669528,-0.021693799418806864,0.01567889264668893,0.9789961568697509
2016-04-05,-1,-0.0007747619565815341,-0.000290942963187168,-0.018595107576663567,0.01567889264668893,0.9790173503460659
2016-04-07,-1,-0.0016602571639808285,-0.0012969548890866334,-0.018595107576663567,0.01567889264668893,0.9774632437571447
2016-04-11,1,0.0002170839685403823,0.0008658367254494939,-0.019319033679993217,0.01470705996981244,0.9784624507595595
2016-04-13,1,0.0026080796929215328,0.0036675549568359746,-0.022435910831130307,0.014015919150840057,0.978751788872652
2016-04-15,1,0.0016841454871802993,0.002507691207634801,-0.030428802201975372,0.011691180001678044,0.9770677049221171
2016-04-19,1,0.004536772707223769,0.005672174192828,-0.030428802201975372,0.014339176182998917,0.9783544989760938
2016-04-21,1,0.005594314008826659,0.00689971968891947,-0.030428802201975372,0.00959670790349378,0.9794951593845734
2016-04-25,1,0.005033292590611926,0.00631205065239512,-0.022798794908286527,0.014339176182998917,0.9793623106335854
2016-04-27,1,0.00539288885379313,0.006661713806761851,-0.03467927094121513,0.014341237763398827,0.9730238081160617
2016-04-29,1,0.004711783427552761,0.005878659190406937,-0.03585096265389463,0.00959670790349378,0.9720931683097058
2016-05-03,1,0.002387855323830548,0.0031395632663068296,-0.022798794908286527,0.008588597526856466,0.9747511810153023
2016-05-05,1,0.0017548443565327551,0.0024447759030615723,-0.018985742692995917,0.013593339106806226,0.976018297934222
2016-05-09,1,0.0005441537505191418,0.0009670310165200981,-0.018650549194107167,0.02338788945588765,0.9718697814216196
2016-05-11,1,0.0003455452343982923,0.0008311958771113246,-0.021111275084422433,0.02338788945588765,0.9703350182976478
2016-05-13,-1,-0.0014729643797663841,-0.0012037144745452864,-0.019444908494009816,0.02338788945588765,0.971398278108634
2016-05-17,1,0.001377862336634754,0.002099765968131431,-0.022535292781174367,0.014854794477331214,0.9719578468389446
2016-05-19,1,0.0015604063913901402,0.0023509829725205022,-0.022535292781174367,0.02338788945588765,0.9716132077417704
2016-05-23,1,0.003109503464001463,0.00409132384520428,-0.02431921079405746,0.014854794477331214,0.9714398076317788
2016-05-25,1,0.002381473903044515,0.0031812199882854763,-0.021463565528389447,0.014854794477331214,0.9769250516669057
2016-05-27,-1,-0.00036924290680593035,-1.530250549699151e-05,-0.02431921079405746,0.014854794477331214,0.9733917681980453
2016-06-01,-1,-0.003006971375031203,-0.00275662751927992,-0.02431921079405746,0.022623572602201814,0.972120878393993
2016-06-03,-1,-0.0026347536269032486,-0.0023367861721858155,-0.02431921079405746,0.014464682656988923,0.9732827156934533
2016-06-07,1,0.0013393487324344076,0.0014805680419775341,-0.027669770643720174,0.005964643114096618,0.9757135791328864
2016-06-09,-1,-0.001481489851503719,-0.0012656627088896018,-0.021463565528389447,0.009600110120856622,0.9767133309149342
2016-06-13,-1,-0.004896719324492082,-0.004135836401220502,-0.01612936537604092,0.014464682656988923,0.9759843840602667
2016-06-15,-1,-0.0055443751225741356,-0.004759355531395825,-0.011403253456653063,0.025412958510468642,0.9735936853492171
2016-06-17,-1,-0.004882571632089249,-0.004148378846969972,-0.014174691227603193,0.023384912315781034,0.9740491930239004
2016-06-21,-1,-0.005641756377341609,-0.004873949023707869,-0.011821285363292543,0.023384912315781034,0.9732590981359482
2016-06-23,-1,-0.005166602876094545,-0.0044504553620422285,-0.01859056644005224,0.014903668940906232,0.9727559280325565
2016-06-27,-1,-0.011429923010023338,-0.009975264226855348,-0.010901122481755832,0.020091752279747438,0.9767991752186289
2016-06-29,-1,-0.009828232786759619,-0.008562548071481744,-0.015194388631683476,0.011471851741972811,0.9787722432894931
2016-07-01,-1,-0.011035917340062342,-0.009540300973653788,-0.015194388631683476,0.011471851741972811,0.978935638695688
2016-07-06,-1,-0.01077808861166267,-0.009362490992958855,-0.012798220883886062,0.011471851741972811,0.9795157256655905
2016-07-08,-1,-0.007040752983748979,-0.006198477428882359,-0.015194388631683476,0.011471851741972811,0.9768339093199521
2016-07-12,-1,-0.0027754672131398324,-0.002627458888432378,-0.018950574906664196,0.011471851741972811,0.9752826917654244
2016-07-14,-1,-0.0005050603690086033,-0.0004141744306765977,-0.02602730488845478,0.0067455169446310696,0.9761130598517204
2016-07-18,-1,-0.001789921623195459,-0.0016234906745459354,-0.02602730488845478,0.009106581691913107,0.9751530800422543
2016-07-20,-1,-0.000966945281391512,-0.0008312701918774172,-0.01755329862561367,0.009106581691913107,0.9769699836743145
2016-07-22,-1,-0.0018481443656843883,-0.001741143012291507,-0.017450444875106972,0.013873612731566894,0.9774456984933583
2016-07-26,-1,-0.0007282311401770313,-0.00045085389039595497,-0.017450444875106972,0.029528331345833807,0.9753553727112041
2016-07-28,-1,-0.0015655696933255618,-0.001342051227427733,-0.014014394359969219,0.029528331345833807,0.9751717367665974
2016-08-01,-1,-0.0023096601143742755,-0.0022537692198168592,-0.013851594026211103,0.03109567909530126,0.9728579096867388
2016-08-03,-1,-0.0017020188824987178,-0.001525623023074444,-0.013851594026211103,0.033499508067739575,0.9709556548121975
2016-08-05,-1,-0.005157390229931917,-0.004812935961020767,-0.011584491224082904,0.033499508067739575,0.9749083352266676
2016-08-09,-1,-0.0035715846936188425,-0.0035041048627490303,-0.010533261145721642,0.029826071196462918,0.9793586285910022
2016-08-11,-1,-0.002823144364029854,-0.0027830702535635984,-0.010533261145721642,0.019908432185920796,0.9796317023914184
2016-08-15,-1,-0.002110590166144005,-0.0020956799898093517,-0.01223091047761904,0.01773215229651727,0.978176622787332
2016-08-17,-1,-0.0024260475560800407,-0.002341623369065705,-0.01223091047761904,0.01773215229651727,0.9782519535426399
2016-08-19,-1,-0.0024525202831216703,-0.0023853241429489325,-0.011923479555358218,0.01773215229651727,0.9794160987376584
2016-08-23,1,0.0006234037586283891,0.0009715983079240584,-0.01446230794592036,0.009247891503238544,0.9817767684397622
2016-08-25,-1,-0.0012353862718714435,-0.0012118838862374226,-0.01446230794592036,0.009833520072678298,0.982264856758823
2016-08-29,-1,-0.0005811955673737013,-0.0005811316812325547,-0.01446230794592036,0.009273806913175503,0.9840320482453905
2016-08-31,1,0.001513229476011171,0.0018617905507063454,-0.01446230794592036,0.010589410552622896,0.9838164653205289
2016-09-02,1,0.0022003992315944424,0.0027194371569953953,-0.012229660004496039,0.009122809389200745,0.9845502780163452
2016-09-07,1,0.0016502901933207529,0.002089240701304577,-0.012229660004496039,0.010589410552622896,0.9844810707522337
2016-09-09,1,0.00263086953147136,0.0033786912294273635,-0.012229660004496039,0.009122809389200745,0.9851064673335617
2016-09-13,1,0.00186948598785695,0.0025607862893506647,-0.012229660004496039,0.008057082999486782,0.9878444627451899
2016-09-15,1,0.0016692599434815288,0.0022789117021205815,-0.014627993316920902,0.008057082999486782,0.9865555768561386
2016-09-19,1,0.0017091623340455444,0.0023771659921040847,-0.01622663736469817,0.009122809389200745,0.985307572278494
2016-09-21,1,0.0006787248720037593,0.0011775519969079338,-0.010224942805739039,0.011872463081316287,0.9835801020530238
2016-09-23,-1,-0.00039311091018388346,-0.00011223036403722934,-0.006323425566943308,0.02149232212423077,0.9814443326550758
2016-09-27,0,-0.0002372596795831458,2.1388429810936522e-05,-0.010224942805739039,0.02149232212423077,0.9806265524025289
2016-09-29,1,0.0016961685469807327,0.002191314340923325,-0.01807107437707212,0.015485107203604402,0.9816010153123753
2016-10-03,1,0.001305748516913663,0.001693437929788481,-0.021097199538797202,0.015485107203604402,0.9809544108209293
2016-10-05,1,0.0011188987006332197,0.0013486187935969525,-0.021097199538797202,0.018124929368288453,0.9799335912974231
2016-10-07,1,0.0008750412475930265,0.0011827018472391555,-0.021097199538797202,0.024277733225592003,0.9767277870329582
2016-10-11,1,5.991879732872963e-05,0.00023819767622389773,-0.021097199538797202,0.030650973314815755,0.9752093009122669
2016-10-13,1,0.0003349704594977789,0.0006505598180661986,-0.01092498870369175,0.034939235540584423,0.9713883824482467
2016-10-17,-1,-0.00026596589243979714,-3.502521784732996e-05,-0.0022141382528149036,0.034939235540584423,0.9715377815213108
2016-10-19,1,0.0010909979119613788,0.0013687389294681938,-0.013258308213576148,0.027002242210815975,0.9736960306310659
2016-10-21,1,0.003648320570019746,0.004260427345212146,-0.013258308213576148,0.024105784156865644,0.9732839570598362
2016-10-25,1,0.0038686158868490093,0.0045894247045625,-0.013258308213576148,0.02626578873962519,0.970905440408211
2016-10-27,1,0.0048586399675504995,0.005975213813735281,-0.012803735268040038,0.02626578873962519,0.9731764204653666
2016-10-31,1,0.0028954903203369884,0.003603371148109422,-0.012803735268040038,0.02626578873962519,0.9719016138691615
2016-11-02,1,0.0032543868148317704,0.003923334064935659,-0.012803735268040038,0.02626578873962519,0.9710478303280369
2016-11-04,1,0.0004977698669968688,0.0007347260301691251,-0.012645837924239275,0.02626578873962519,0.9747513151141481
2016-11-08,1,0.002956351959862414,0.003574683319176205,-0.012645837924239275,0.02626578873962519,0.9754681316611179
2016-11-10,1,0.006288455457332309,0.0072661937116481334,-0.012645837924239275,0.02239282801176304,0.9789826564292176
2016-11-14,1,0.007922072497013318,0.009140595782620218,-0.013258308213576148,0.01979105460802971,0.9749601218753787
2016-11-16,1,0.0037931835840658372,0.0041050119742654136,-0.012645837924239275,0.01987536880396739,0.9761076972622657
2016-11-18,1,0.00638170042628247,0.007108874811617033,-0.014543267212572654,0.01987536880396739,0.9765577928207682
2016-11-22,1,0.005268773038633413,0.005826405287638715,-0.012031187280757256,0.01987536880396739,0.9792109788949555
2016-11-25,1,0.00479294623653701,0.005232938339388037,-0.012031187280757256,0.022589055555033148,0.9770326450443182
2016-11-29,1,0.004054658756543334,0.004492442617450448,-0.010151683342747993,0.02580034566116412,0.9769206663109171
2016-12-01,1,0.006595727676535153,0.007469215631647624,-0.010879337896540615,0.022589055555033148,0.9793607419007363
2016-12-05,1,0.007610802018695389,0.008772049925126691,-0.010151683342747993,0.02580034566116412,0.9789349696624765
2016-12-07,1,0.008831552983743744,0.010133912342444956,-0.010151683342747993,0.022589055555033148,0.9805334489190439
2016-12-09,1,0.009409312211760484,0.010689900156106956,-0.011211263157121973,0.021131083730509162,0.9795654466177733
2016-12-13,1,0.004903313007575579,0.005455576462296151,-0.004832317905511808,0.02580034566116412,0.9813681468668077
2016-12-15,1,0.005493155326525104,0.006171107892941164,-0.010803311206951173,0.02580034566116412,0.980220866253586
2016-12-19,1,0.003942435677449094,0.004303994082847398,-0.010803311206951173,0.021131083730509162,0.9817449585940546
2016-12-21,1,0.004162869133615908,0.004526363517975087,-0.010803311206951173,0.03220420916189937,0.9791360342922514
2016-12-23,1,0.006231669544854687,0.006863263351893132,-0.010803311206951173,0.03220420916189937,0.9794533790961008
2016-12-28,1,0.005640844606125553,0.00601573943258721,-0.010064973115723774,0.01720649169855805,0.9808446444133699
2016-12-30,1,0.005071336024736848,0.00536481768717543,-0.010612894593130705,0.01720649169855805,0.9796783921705624
2017-01-04,1,0.006484747775072668,0.0069655590706084285,-0.015850996153092763,0.01720649169855805,0.9783509289154035
2017-01-06,1,0.007289233629629209,0.007952248401430499,-0.015850996153092763,0.014695022808975368,0.9780227488935676
2017-01-10,1,0.006130301827621221,0.006632881403306222,-0.015744933105690223,0.014695022808975368,0.978721240452947
2017-01-12,1,0.007331512748735435,0.007948685312253553,-0.015744933105690223,0.01388917030981586,0.9777526963506673
2017-01-17,1,0.006663734004519976,0.007347004947229363,-0.011187627570468832,0.025881325597542082,0.979318916695455
2017-01-19,1,0.005179840850109893,0.0055968983699742686,-0.013885909625673962,0.025881325597542082,0.9768382985684207
2017-01-23,1,0.00872342423596097,0.009661501499752659,-0.013885909625673962,0.010614096534761981,0.9782083125664137
2017-01-25,1,0.010469515904553101,0.011713115957895474,-0.022519062286618718,0.003146035973910241,0.9758473738565433
2017-01-27,1,0.010061386785782658,0.011227569073224404,-0.022616963321145864,0.003803523353633118,0.9756305769092881
2017-01-31,1,0.008068860754391309,0.008919711980483552,-0.020958041225677296,0.012586558673930612,0.9778086109049179
2017-02-02,1,0.0076105421346166265,0.008338696193634355,-0.01972751902863667,0.003803523353633118,0.9784795299826298
2017-02-06,1,0.0063559412387378614,0.006808145946509605,-0.020557312695964808,0.003803523353633118,0.9780659610170723
2017-02-08,1,0.005354440290205313,0.005663731813371195,-0.020557312695964808,0.0010615445213157772,0.9778945709840986
2017-02-10,1,0.005526176643899462,0.005799169814837817,-0.020557312695964808,0.0006816626047205254,0.9798724948198088
2017-02-14,1,0.004907384658161424,0.005015079053076346,-0.020958041225677296,0.0006816626047205254,0.980406705827224
2017-02-16,1,0.0006709469786893632,0.0011230428019098845,-0.019604820744791075,0.0035268573616251617,0.9854126862959622
2017-02-21,1,0.000877293880580333,0.0012970505280904317,-0.020557312695964808,0.0035268573616251617,0.983259077809911
2017-02-23,-1,-0.0008636850526125435,-0.00033726729810601213,-0.01923602696525099,0.005587236890548523,0.9861587159845139
2017-02-27,-1,-0.0016876171283400016,-0.0010524297055737987,-0.018564979238801873,0.0034134435951898886,0.9874707580715499
2017-03-01,-1,-0.0005344610345938969,-7.416072080391784e-05,-0.018564979238801873,0.005587236890548523,0.9857313643317471
2017-03-03,-1,-0.0034550448926984768,-0.002567668420468672,-0.012890294781822846,0.005587236890548523,0.9856438192685785
2017-03-07,-1,-0.005416999508920218,-0.004245694492634967,-0.012890294781822846,0.009496129798349032,0.9837580325275703
2017-03-09,-1,-0.0074671717281089385,-0.006009687315351506,-0.011766702060372721,0.020277231820438356,0.9822755669151197
2017-03-13,-1,-0.008157763166404847,-0.006575287850287767,-0.011766702060372721,0.020277231820438356,0.9819572075115165
2017-03-15,-1,-0.007690520285636174,-0.0062838919461007635,-0.011766702060372721,0.020277231820438356,0.9821484627642767
2017-03-17,-1,-0.005420571931214098,-0.004421552574487552,-0.018025612395901162,0.014020967710961263,0.9819603747550715
2017-03-21,-1,-0.005670062791669369,-0.004602889633667805,-0.016154328446820396,0.007070467129217516,0.9840587494453118
2017-03-23,-1,-0.007065686570704393,-0.00575216702633293,-0.018749160023307596,0.0045072382023821946,0.9841982930850546
2017-03-27,-1,-0.008079176301617095,-0.006597356714509896,-0.018749160023307596,0.016952587027912837,0.9816918635959466
2017-03-29,-1,-0.005358420013819113,-0.004246079409876872,-0.018749160023307596,0.0076422845311778335,0.9837643496117224
2017-03-31,-1,-0.009640344370247675,-0.007871410714927467,-0.018749160023307596,0.0076422845311778335,0.984496773838454
2017-04-04,-1,-0.008810643673840882,-0.007234257436381956,-0.018749160023307596,0.0012785764760132813,0.986032370060218
2017-04-06,-1,-0.005204483895593398,-0.0042914072393497975,-0.018749160023307596,0.0076422845311778335,0.9818703003551159
2017-04-10,-1,-0.004150724061110549,-0.0034308376532826003,-0.022171455608048115,0.0012785764760132813,0.9811416886283407
2017-04-12,-1,-0.006655602919602886,-0.005586305309707048,-0.018749160023307596,0.006500678202220375,0.9821158073349353
2017-04-17,-1,-0.006616581080485936,-0.005669936724714119,-0.016154328446820396,0.009412786596641794,0.9808778544114986
2017-04-19,-1,-0.008305366314848659,-0.007129025541739276,-0.017013736082133114,0.012864438338370041,0.9802330793759214
2017-04-21,-1,-0.00907748775538822,-0.007821756924489009,-0.015265075581316187,0.020630405144007043,0.9784587610195536
2017-04-25,-1,-0.008062048955587318,-0.006847124119404124,-0.015265075581316187,0.014754580204920683,0.9802360242501443
2017-04-27,-1,-0.006811977157642675,-0.005833738835286503,-0.015985031069981216,0.014754580204920683,0.9801627778138038
2017-05-01,-1,-0.007976716464468627,-0.006853048445357278,-0.015265075581316187,0.014754580204920683,0.9810876593045008
2017-05-03,-1,-0.008752599374119385,-0.007619060013056027,-0.015265075581316187,0.014754580204920683,0.9805875587816205
2017-05-05,-1,-0.003192160604491473,-0.0027897653777821246,-0.015985031069981216,0.005448058604724746,0.9848424350479693
2017-05-09,-1,-0.006527849355372068,-0.005577858824412318,-0.015265075581316187,0.005448058604724746,0.9861576718671716
2017-05-11,-1,-0.0066302125219595736,-0.005685114211812778,-0.013090262403038655,0.01340475757112058,0.9847557149465626
2017-05-15,-1,-0.006096293717399243,-0.005191207411364831,-0.010166954097686441,0.01340475757112058,0.984530493988688
2017-05-17,-1,-0.006047886590871371,-0.0051885049499767995,-0.013634114630620576,0.008107190605416602,0.9837144616240237
2017-05-19,-1,-0.0028379951563173317,-0.0024761169283125956,-0.013634114630620576,0.018691975904612874,0.9828527793853155
2017-05-23,-1,-0.001421962296661547,-0.0012870341479358268,-0.01890816264355126,0.008107190605416602,0.98178621625521
2017-05-25,-1,-0.0026638789407687907,-0.002378472396171746,-0.01890816264355126,0.018691975904612874,0.9815812637027502
2017-05-30,-1,-0.0016117838067599994,-0.0015492649105499036,-0.020438744587256766,0.018691975904612874,0.9811266904216914
2017-06-01,-1,-0.0023532598474960914,-0.002236074962944304,-0.018170221091129046,0.018691975904612874,0.9818396033265243
2017-06-05,-1,-0.0037889122777216224,-0.0034707670697015224,-0.009552001653978091,0.02171489331056535,0.9792070064311383
2017-06-07,-1,-0.0022835094040526754,-0.002258448451304738,-0.018170221091129046,0.02171489331056535,0.9776504806504414
2017-06-09,-1,-0.0015497408460180572,-0.001523869788311832,-0.018170221091129046,0.023940287629749292,0.9760504544909098
2017-06-13,0,-0.00011052662940608883,1.4614006592353975e-05,-0.018172494788869495,0.02047399391731924,0.9772553535728729
2017-06-15,-1,-0.0003875840681527845,-6.89681812009931e-05,-0.017248682643735823,0.02128342850983794,0.9792695856522419
2017-06-19,1,0.002780072113053827,0.0036124713104750553,-0.017248682643735823,0.013260473655185564,0.9815731739607548
2017-06-21,1,0.0009694603002240274,0.001579810571176871,-0.00795040564060855,0.0195916771305592,0.9815935274042707
2017-06-23,1,0.0016585383273112595,0.0022937123817779815,-0.011343810169567306,0.013260473655185564,0.9813137240726919
2017-06-27,1,0.0013594205279352106,0.001992418279049755,-0.011343810169567306,0.013260473655185564,0.9801942364296551
2017-06-29,1,0.002364966608457057,0.0031300953169577928,-0.011343810169567306,0.013260473655185564,0.9805728256003187
2017-07-03,1,0.004791473365389752,0.0058515805536273335,-0.011343810169567306,0.010599673800382115,0.9822206921613807
2017-07-06,1,0.0033502642165008385,0.004292759606179662,-0.00795040564060855,0.011534531342818946,0.9814217718566488
2017-07-10,1,0.0071445988077962165,0.008650164290850752,-0.008874992207414684,0.010894195469526856,0.9809741365549511
2017-07-12,1,0.004493689456262206,0.005459486054883797,-0.007768328281237212,0.012393172685922486,0.9822976054574617
2017-07-14,1,0.005687437423594334,0.006846384305859227,-0.00996472630086375,0.01088588758141663,0.9804315926995477
2017-07-18,1,0.004323984657906201,0.005150177452067275,-0.010573872843095834,0.01088588758141663,0.9805286677858426
2017-07-20,1,0.006416858488318057,0.007496073799853564,-0.014613012449914501,0.0035473985882619836,0.9793929499794543
2017-07-24,1,0.005749048598631165,0.006793874704147275,-0.010573872843095834,0.005437251795991551,0.9812149994073094
2017-07-26,1,0.00317110724773806,0.003783298786423107,-0.009779306929025235,0.005437251795991551,0.9840562341884155
2017-07-28,1,0.0028416422474057913,0.0033521169556743496,-0.009779306929025235,0.0038842382535272525,0.9843291869779787
2017-08-01,1,0.0025351891813035063,0.002934235768970762,-0.009779306929025235,0.0028495964014629044,0.984704681589389
2017-08-03,1,0.004658237054583937,0.00534313752212923,-0.008895963695454043,0.0028495964014629044,0.9874258720790793
2017-08-07,1,0.005738043312053624,0.006512232659001152,-0.009779306929025235,0.0028495964014629044,0.9862433543591038
2017-08-09,1,0.005810962505234163,0.006626279141116154,-0.00847185618766707,0.0035463472261055722,0.9838303620476205
2017-08-11,1,0.00423259898615769,0.004860226539882406,-0.005065962544239296,0.005982036549917227,0.9869860233743486
2017-08-15,1,0.0037670980551490416,0.004317704146558811,-0.003900112234473918,0.005982036549917227,0.9871662193939972
2017-08-17,1,0.002061547091099698,0.002371494941913665,-0.0030254544744544457,0.009161149134024556,0.9886026724416515
2017-08-21,1,0.003267643436504851,0.003871467511117467,-0.0019907727248748433,0.013247912061351223,0.9856746031098845
2017-08-23,1,0.0018632957212358582,0.0021603141883732224,-0.0019907727248748433,0.015633001931148492,0.9844420642987652
2017-08-25,1,0.0018081682314085524,0.0020880664041270517,-0.0030254544744544457,0.017109090134328705,0.9827562156375557
2017-08-29,1,0.001894118745645438,0.002221130217544732,-0.0030254544744544457,0.017109090134328705,0.9815657508137068
2017-08-31,1,0.002261107906835218,0.0026532290793060236,-0.0045667131758532886,0.017109090134328705,0.9810264733750604
2017-09-05,1,0.0014956976172974066,0.0016831047806915213,-0.0030254544744544457,0.015633001931148492,0.9834332769027134
2017-09-07,1,0.004021316571745132,0.004441923348537581,-0.0045667131758532886,0.011656662299313308,0.9872982608130444
2017-09-11,1,0.0038549729705840948,0.004162850269958773,-0.007392010458139176,0.01002254781369774,0.9862988620611958
2017-09-13,1,0.002851011865768645,0.0029591388013108203,-0.007392010458139176,0.012487175681216225,0.9862451965580619
2017-09-15,1,0.004691100006261951,0.0051538344683882895,-0.007392010458139176,0.014227197075235067,0.9852143836656202
2017-09-19,1,0.007640528763745795,0.008487992733336589,-0.007392010458139176,0.010006378828669307,0.9878029519949905
2017-09-21,1,0.007193450285819408,0.007903635209872136,-0.007392010458139176,0.007559319981707847,0.9878371502141395
2017-09-25,1,0.0057838028394061915,0.00617461332407003,-0.007392010458139176,0.007559319981707847,0.9884773129914323
2017-09-27,1,0.006900202956278931,0.007700279335752676,-0.0052270430485026305,0.010006378828669307,0.9883411082737912
2017-09-29,1,0.0058667178799270605,0.006430412663885009,-0.006626624131639872,0.008380862604214008,0.9880127828499545
2017-10-03,1,0.005627635872169436,0.00612566934328001,-0.006626624131639872,0.01343407270869889,0.9878564763775283
2017-10-05,1,0.005337388854474437,0.005831993513759298,-0.0049719142730028625,0.014135989399074282,0.9883847193814002
2017-10-09,1,0.004101323397612579,0.004398427608426134,-0.0002775361651075237,0.01593316162046786,0.9892068200616402
2017-10-11,1,0.004968933662322527,0.0054749196001634415,-0.0049719142730028625,0.0167841528542496,0.9857086535308274
2017-10-13,1,0.00697254149048087,0.007764556189912396,-0.0068477102253615245,0.01400595302381951,0.9860728015225061
2017-10-17,1,0.006207278213040305,0.006815456141672067,-0.010203053825261717,0.01400595302381951,0.9837530312861993
2017-10-19,1,0.004911373079704519,0.005325558162786165,-0.0068477102253615245,0.01593316162046786,0.9840157651050871
2017-10-23,1,0.003881889800362153,0.004075827501424227,-0.0068477102253615245,0.01400595302381951,0.9845656201605312
2017-10-25,1,0.004313324562444063,0.004483756775850118,-0.0068477102253615245,0.01400595302381951,0.9850242906463846
2017-10-27,1,0.0032651036799572,0.003275018987117406,-0.006770515415877792,0.01400595302381951,0.9853315890784499
2017-10-31,1,0.004492335297219066,0.004735687469484004,-0.006770515415877792,0.01374394273848719,0.9851170406657337
2017-11-02,1,0.005534610657537427,0.006002165043866946,-0.006770515415877792,0.015017094389216131,0.9849158427222005
