JNU-Tangyin/eata/results/Batch4_SP500/Batch4_SP500-FISV.csv
Date,Action,Predicted_Q25,Predicted_Q75,Actual_Q25,Actual_Q75,RL_Reward
2010-12-14,0,0.0,0.0,-0.004636528919274893,0.008536582633687166,0.9920716710649828
2010-12-16,1,0.0020803222275404465,0.002132191456613903,-0.004636528919274893,0.008536582633687166,0.9918483805032952
2010-12-20,1,0.0015695176794052654,0.0016136400827233312,-0.004636528919274893,0.009085918483181927,0.9923345645012344
2010-12-22,1,0.00218022728960388,0.0022874505062018525,-0.0023031916308097603,0.008630261443589565,0.9929522949817124
2010-12-27,1,0.0018262945146535784,0.0018665805586319739,-0.0011431247867964031,0.009683904230541643,0.992723080626792
2010-12-29,1,0.0019026351470818527,0.001958812369901043,-0.0011431247867964031,0.009683904230541643,0.9925177380822943
2010-12-31,1,0.001192620684868776,0.0012358624827716,-0.0011431247867964031,0.009683904230541643,0.9916904377202138
2011-01-04,1,0.00017302408329831521,0.0003971803373529864,-0.0011431247867964031,0.009683904230541643,0.9919484542507558
2011-01-06,1,0.0006313328145058138,0.0007893003315163601,-0.0034931121802939656,0.009683904230541643,0.9905297748267586
2011-01-10,1,0.0014031935808262218,0.0014076743239227825,-0.0020095187980176377,0.01111811104597229,0.9903026642415759
2011-01-12,1,0.0022239435127760594,0.0023012909515546668,-0.00358364335880305,0.010167263093014715,0.9903459068721062
2011-01-14,0,0.0,0.0,-0.00358364335880305,0.007722448987139018,0.9911673916578987
2011-01-19,0,0.0,0.0,-0.0020095187980176377,0.006636985505430516,0.9917927050582269
2011-01-21,1,0.0005520057070091372,0.0005536661720250673,-0.0019998415263285003,0.008522757167264614,0.9911437071367689
2011-01-25,0,0.0,0.0,-0.005614703316045698,0.006636985505430516,0.9904862361856941
2011-01-27,0,0.0,0.0,-0.005614703316045698,0.008522757167264614,0.9894812451232546
2011-01-31,0,0.0,0.0,-0.005614703316045698,0.007985462327472813,0.9898624927747469
2011-02-02,0,0.0,0.0,-0.004569507804412095,0.005865465419181699,0.9907680127188486
2011-02-04,1,0.0011279842749918403,0.0011688498049943485,-0.006088412433812742,0.005865465419181699,0.9911297846843212
2011-02-08,0,0.0,0.0,-0.006088412433812742,0.005865465419181699,0.9909609511759572
2011-02-10,0,0.0,0.0,-0.010914708584623829,0.005865465419181699,0.9898346355799073
2011-02-14,0,0.0,0.0,-0.013787000290133727,0.00506307518633816,0.9886560695913743
2011-02-16,0,0.0,0.0,-0.013787000290133727,0.00746546291015167,0.9880713937782184
2011-02-18,0,0.0,0.0,-0.013787000290133727,0.010462028593419454,0.9876104618893407
2011-02-23,0,0.0,0.0,-0.0102928446799441,0.010462028593419454,0.9889394447473283
2011-02-25,-1,-0.022483644242386795,-0.02154092207360912,-0.0102928446799441,0.010015705066308903,0.9791139776673214
2011-03-01,0,0.0,0.0,-0.005921664845518168,0.011518906608048149,0.9894039774354427
2011-03-03,0,0.0,0.0,-0.005704917660030509,0.011518906608048149,0.989446303546961
2011-03-07,-1,-0.0019219965659402084,-0.0016817752735520668,-0.0018056898762969136,0.011518906608048149,0.9902568653533396
2011-03-09,0,0.0,0.0,-0.003874303250159511,0.011387344613808838,0.9900887254471472
2011-03-11,0,0.0,0.0,-0.003874303250159511,0.010015705066308903,0.9918383717505267
2011-03-15,0,0.0,0.0,-0.0018056898762969136,0.010015705066308903,0.9926738016122275
2011-03-17,0,0.0,0.0,-0.0010044428488904511,0.00834611597731121,0.9930872547729008
2011-03-21,-1,-0.05997589143919689,-0.05282306279467911,-0.0019225651354649739,0.007166651815395015,0.94548225661653
2011-03-23,-1,-0.0021975768253985613,-0.0019448445248716785,-0.0017718974796233572,0.00863948588222251,0.9911493909088404
2011-03-25,-1,-0.0019027906858341613,-0.0016917653815418186,-0.0028209560907854923,0.007943145375743943,0.9920021144846487
2011-03-29,-1,-0.001789031933099967,-0.0016009664464215314,-0.0013039065006639572,0.007943145375743943,0.9921442488821939
2011-03-31,0,0.0,0.0,-0.003069661836755383,0.007943145375743943,0.9909115305272913
2011-04-04,0,0.0,0.0,-0.003069661836755383,0.008240560265531091,0.9903261035178997
2011-04-06,-1,-0.00022721913278381516,-1.7956136561592074e-05,-0.0046065112851093855,0.007943145375743943,0.991332115613148
2011-04-08,0,0.0,0.0,-0.003206205337300164,0.007943145375743943,0.9915410867811656
2011-04-12,0,0.0,0.0,-0.003206205337300164,0.008240560265531091,0.9911615309228797
2011-04-14,0,0.0,0.0,-0.005085713837893096,0.008953923873303857,0.9908443197060677
2011-04-18,0,0.0,0.0,-0.005085713837893096,0.008240560265531091,0.9914889963905064
2011-04-20,0,0.0,0.0,-0.005085713837893096,0.007438156126696927,0.9915800972196538
2011-04-25,0,0.0,0.0,-0.005624047684683756,0.007438156126696927,0.9912434950093922
2011-04-27,0,0.0,0.0,-0.005624047684683756,0.0067171184628963924,0.991806729315481
2011-04-29,0,0.0,0.0,-0.005085713837893096,0.0070616365448903495,0.9934867152924005
2011-05-03,0,0.0,0.0,-0.005624047684683756,0.0070616365448903495,0.9927134533265618
2011-05-05,0,0.0,0.0,-0.005624047684683756,0.0070616365448903495,0.9921716233456866
2011-05-09,0,-0.00016125279752089955,0.0,-0.005624047684683756,0.007824365127884127,0.991683128159887
2011-05-11,0,0.0,0.0,-0.005624047684683756,0.0070651355300828675,0.9918881652545668
2011-05-13,0,0.0,0.0,-0.006615834775166829,0.006982824131782224,0.9915839839896079
2011-05-17,0,0.0,0.0,-0.007226796577197246,0.0070651355300828675,0.9907890753482216
2011-05-19,0,0.0,0.0,-0.007226796577197246,0.006659504326286814,0.9917673498864091
2011-05-23,0,0.0,0.0,-0.004183878201892483,0.006659504326286814,0.9919490188489146
2011-05-25,0,0.0,0.0,-0.00662866482657869,0.006659504326286814,0.9916535588957699
2011-05-27,0,0.0,0.0,-0.007427153882370177,0.006514346232125763,0.9914566562916199
2011-06-01,0,0.0,0.0,-0.00662866482657869,0.006514346232125763,0.9924979800400392
2011-06-03,0,0.0,0.0,-0.004183878201892483,0.008056443924646415,0.9921246462077687
2011-06-07,0,0.0,0.0,-0.004183878201892483,0.008056443924646415,0.9922634938270177
2011-06-09,0,0.0,0.0,-0.004187906221938182,0.008056443924646415,0.9921157926112572
2011-06-13,0,0.0,0.0,-0.007318803764601258,0.008056443924646415,0.9916465419874793
2011-06-15,0,0.0,0.0,-0.007318803764601258,0.007461826016707592,0.9925388588772017
2011-06-17,-1,-0.0001197250265451948,-2.860279856332638e-05,-0.009840190951865231,0.007461826016707592,0.9911967160010209
2011-06-21,1,0.0002828748358293811,0.00029521644424548274,-0.01029274458876606,0.008095872934489576,0.990010674572977
2011-06-23,-1,-0.0012814569432032707,-0.0010522251295625642,-0.01029274458876606,0.008938637982053212,0.9888893856681302
2011-06-27,-1,-0.00100820657046203,-0.0008368949315179224,-0.01029274458876606,0.008938637982053212,0.9893621698253455
2011-06-29,-1,-0.0007082859268590797,-0.0005674983361484542,-0.01029274458876606,0.008255216661481766,0.9898991816779611
2011-07-01,1,0.0007122979484372897,0.0007698032269658195,-0.011757848481314906,0.002467002240588845,0.989828755305183
2011-07-06,1,0.0014231722380340826,0.0015974644875103427,-0.013787247516315826,0.0008022595826940693,0.987969265292628
2011-07-08,1,0.0014062274237743961,0.0016012910274857794,-0.014877406303193452,0.0008022595826940693,0.9867438590527092
2011-07-12,1,0.0002892441826476607,0.0003129070488231981,-0.01438456155119071,0.0024818508480671632,0.9838245221225335
2011-07-14,0,0.0,0.0,-0.017403173152609315,0.006566682841939316,0.9816506773009924
2011-07-18,0,0.0,0.0,-0.01438456155119071,0.006566682841939316,0.9825710915342073
2011-07-20,0,0.0,0.0,-0.013331227045902264,0.004288109885142126,0.9835275618132182
2011-07-22,0,0.0,0.0,-0.017403173152609315,0.001457577468953905,0.9820098697223248
2011-07-26,-1,-0.0005554780811378734,-0.0005450359248254032,-0.017403173152609315,0.006566682841939316,0.9805106360894061
2011-07-28,-1,-0.000989869776933944,-0.0008971654235432025,-0.017403173152609315,0.007299804672940667,0.9795718977360875
2011-08-01,-1,-0.0015462886657330562,-0.0013945620393256285,-0.016921816280427122,0.01401752738168623,0.9786306328416114
2011-08-03,-1,-0.002439815886850291,-0.0021612153413613213,-0.013436497825780807,0.01401752738168623,0.9801128931241438
2011-08-05,-1,-0.003610292159774933,-0.0031738967763190904,-0.013436497825780807,0.01401752738168623,0.9802979318540835
2011-08-09,-1,-0.005138006174841329,-0.004515922905623524,-0.013436497825780807,0.01401752738168623,0.9825064831991226
2011-08-11,0,0.0,0.0,-0.01706005160535448,0.010405909963592728,0.9829585396288355
2011-08-15,0,0.0,0.0,-0.01706005160535448,0.010405909963592728,0.982784489757341
2011-08-17,0,0.0,0.0,-0.01706005160535448,0.015897503702842066,0.9816278995431669
2011-08-19,0,0.0,0.0,-0.013208956542880962,0.015897503702842066,0.9835613980587277
2011-08-23,0,0.0,0.0,-0.01706005160535448,0.011004486237206545,0.9835646033279151
2011-08-25,0,0.0,0.0,-0.019467646953761356,0.011004486237206545,0.982599004621618
2011-08-29,0,0.0,0.0,-0.019467646953761356,0.011088733737520926,0.9823976397700817
2011-08-31,-1,-0.0021123478683235486,-0.001903714155423586,-0.020305774835459495,0.009720474612908295,0.9818396543468856
2011-09-02,0,0.0,0.0,-0.019467646953761356,0.009720474612908295,0.983165993998978
2011-09-07,-1,-0.0022976529800303527,-0.002066073639006281,-0.013646814153147419,0.009720474612908295,0.9830716166459126
2011-09-09,0,0.0,0.0,-0.007214361102672999,0.013251342420632393,0.9849911560012307
2011-09-13,0,0.0,0.0,-0.007214361102672999,0.017239168404114835,0.9842102467117151
2011-09-15,0,0.0,0.0,-0.007214361102672999,0.014349715470487408,0.9847971429064172
2011-09-19,0,0.0,0.0,-0.006066911454481761,0.020559695028844353,0.9843958063148561
2011-09-21,0,0.0,0.0,-0.004130632989476736,0.020559695028844353,0.9850389385289552
2011-09-23,0,0.0,0.0,-0.0020200924222433204,0.020559695028844353,0.9858274279800361
2011-09-27,0,0.0,0.0,-0.004130632989476736,0.013819470375143365,0.9866093732766128
2011-09-29,0,0.0,0.0,-0.0020200924222433204,0.0161889836092093,0.984859668828718
2011-10-03,0,0.0,0.0,-0.004130632989476736,0.0161889836092093,0.9836466508622453
2011-10-05,0,0.0,0.0,-0.00649244070155186,0.013819470375143365,0.9844891211437576
2011-10-07,0,0.0,0.0,-0.00649244070155186,0.0161889836092093,0.9837088647375054
2011-10-11,0,0.0,0.0,-0.00649244070155186,0.014367535161147992,0.9842724753251001
2011-10-13,-1,-0.0022292310664715695,-0.0021640176748492605,-0.00887617219693124,0.01370327436985096,0.9831890899146646
2011-10-17,-1,-0.0016255057296216376,-0.001605748352249388,-0.00887617219693124,0.01370327436985096,0.983436272428978
2011-10-19,-1,-0.0013478881890118836,-0.001269353330660973,-0.009747493800798989,0.01312884657137019,0.9835953662568788
2011-10-21,0,-9.802983334546893e-05,0.0001396071080834206,-0.014412307697053966,0.010125523696345014,0.984383550170682
2011-10-25,-1,-0.0009880859635283503,-0.0008692965039366896,-0.013189308431840243,0.010125523696345014,0.9846062837331108
2011-10-27,1,0.005677728332421668,0.006683421920426405,-0.015663864586665025,0.004468306314211683,0.9842210252622193
2011-10-31,1,0.004096787832283597,0.004895998473619646,-0.013189308431840243,0.006775898441631461,0.9856204396464554
2011-11-02,1,0.0009574905258627394,0.0011888511009049384,-0.0108850028352721,0.010438791803839633,0.9862093712946878
2011-11-04,0,0.0,0.0,-0.0108850028352721,0.006775898441631461,0.9874302320239713
2011-11-08,0,0.0,0.0,-0.0108850028352721,0.004497242540157599,0.9881242854749491
2011-11-10,0,0.0,0.0,-0.010686153758927775,0.005294590621780772,0.9882194606059428
2011-11-14,0,0.0,0.0,-0.012163451965486453,0.0029540132366741977,0.9883907892122098
2011-11-16,0,0.0,0.0,-0.010686153758927775,0.0014324518463121555,0.9894043442322277
2011-11-18,0,0.0,0.0,-0.010686153758927775,0.0027829781709060165,0.9890746398943792
2011-11-22,0,0.0,0.0,-0.005630826351495428,0.003576869920424236,0.9885745214029685
2011-11-25,0,0.0,0.0,-0.0039868925209383,0.003953112981724463,0.9892498348049454
2011-11-29,0,0.0,0.0,-0.004596219809928446,0.003953112981724463,0.9900426232176874
2011-12-01,1,0.002023794127330757,0.002487526591047697,-0.0060546210244274284,0.003953112981724463,0.9917678946486617
2011-12-05,1,0.0019436128350991538,0.002408392453460524,-0.007243825694384763,0.0035600831587077114,0.9913168911928594
2011-12-07,1,0.0016891188559220343,0.0020597844967487604,-0.007243825694384763,0.004738254881049276,0.9907903005082507
2011-12-09,1,0.002235515481052792,0.0026890316406443797,-0.0059829601830670605,0.005094999527770529,0.9923588288251977
2011-12-13,1,0.00214329503441812,0.0026342607609471627,-0.005102515115997056,0.008984524785307969,0.992165182489235
2011-12-15,1,0.0018521571488482461,0.0022774731821607456,-0.0043070479991510644,0.008984524785307969,0.9920381522857865
2011-12-19,1,0.0016517140396421896,0.002057263475160442,-0.003322186091522087,0.009530829604823675,0.9920988070273313
2011-12-21,1,0.0018952714307946842,0.0022928811150227683,-0.003322186091522087,0.009171468819001783,0.9936348452825119
2011-12-23,1,0.002002633986281228,0.002365150858111763,-0.003322186091522087,0.009171468819001783,0.9934365270198179
2011-12-28,1,0.0012789592239955988,0.0014935553366395742,-0.003128172083868526,0.009171468819001783,0.9937355191592865
2011-12-30,1,0.0008524056785700464,0.0009342806971020853,-0.003128172083868526,0.008984524785307969,0.9937233108153719
2012-01-04,1,0.0007580348578312287,0.0008642872772027862,-0.0024860940047934004,0.009171468819001783,0.9929668115347347
2012-01-06,1,0.0011832425940903996,0.0013538508284100799,-0.0024860940047934004,0.009336701423829686,0.9912230946890663
2012-01-10,1,0.0011538991400336979,0.0012617365344550963,-0.0035136328828436697,0.009245904882955817,0.9913627078390052
2012-01-12,1,0.001035934897231422,0.001039938585240858,-0.004145206506097504,0.007654464357927238,0.9921007279464394
2012-01-17,1,0.001549742237409237,0.0016795495964806104,-0.0035631644831368215,0.008251801786102832,0.9919853456539887
2012-01-19,1,0.001795231238610799,0.0019376839349173963,-0.0049649926615697865,0.00687332303146607,0.9918441157310013
2012-01-23,0,0.0,0.0,-0.0049649926615697865,0.00687332303146607,0.9918518760982185
2012-01-25,1,0.0019360042036278748,0.0021686001063563895,-0.0049649926615697865,0.007149363709876939,0.9915498017577168
2012-01-27,0,0.0,0.0,-0.006118793471711845,0.008753888494118163,0.99105405722197
2012-01-31,1,0.0019481885518268342,0.0021160210904076922,-0.0046784015770243124,0.008753888494118163,0.9911677054120658
2012-02-02,1,0.0010835267705440526,0.0011071600821825267,-0.004381912554431096,0.007149363709876939,0.9920606967224666
2012-02-06,1,0.0019209536613248818,0.0020200379572383378,-0.004381912554431096,0.006406485593905175,0.9941651618352486
2012-02-08,1,0.0020859780752410595,0.002257148941644867,-0.0038666772241914794,0.008753888494118163,0.9934969670375563
2012-02-10,1,0.001676055693184232,0.0017778537663661505,-0.0021666616137746967,0.008753888494118163,0.9940463142717599
2012-02-14,1,0.0012329991279606883,0.0012431767684623098,-0.0021666616137746967,0.008753888494118163,0.9940359206906275
2012-02-16,1,0.00041566478332011173,0.0005679868924007298,-0.0021666616137746967,0.006934348087120476,0.9945958831381125
2012-02-21,1,0.0008667442793127264,0.0009135121978684436,-0.0036086865861574492,0.006934348087120476,0.9945261785416815
2012-02-23,1,0.0005817867276228164,0.0006920887308273796,-0.0036086865861574492,0.006157518068313535,0.9948190622009345
2012-02-27,1,0.00041615792080641864,0.0005646868651259639,-0.0025340492009663235,0.006157518068313535,0.9952301529408877
2012-02-29,1,0.0007630866459440392,0.0007930582565752656,-0.0031632455452098524,0.006157518068313535,0.9950731785746112
2012-03-02,1,0.0007509233930706873,0.0007775939800709283,-0.002908674202562017,0.004350715055884899,0.9953990256712275
2012-03-06,1,0.0008817666873046982,0.000894463626319134,-0.0027423692584248394,0.006992828239661339,0.994979403092421
2012-03-08,1,0.0015319365604539224,0.0016500308907039947,-0.002908674202562017,0.003590240265188442,0.9954940076254112
2012-03-12,1,0.0016772667477840569,0.0018254870891016388,-0.0036398227986051412,0.0033413521767114273,0.9941712650420784
2012-03-14,1,0.0019069550998382506,0.0020774622766483244,-0.0036398227986051412,0.0033413521767114273,0.9937936133270949
2012-03-16,1,0.0020441226479295024,0.0022578581489472987,-0.0036398227986051412,0.003569750562365391,0.9934571643018453
2012-03-20,1,0.00171931114042738,0.0018692844107393424,-0.0048424198352341845,0.005352810027167975,0.9924974960950571
2012-03-22,1,0.002238761840000023,0.002525471067422931,-0.007364225827715983,0.005352810027167975,0.992121448564887
2012-03-26,1,0.001793538058230104,0.001980543514592803,-0.007364225827715983,0.002949178321724984,0.9925620620761514
2012-03-28,0,0.0,0.0,-0.007364225827715983,0.0056374680008570675,0.9923176486966153
2012-03-30,0,0.0,0.0,-0.007364225827715983,0.009126980072778193,0.9918438951532561
2012-04-03,1,0.0013323889458116086,0.0014467966483667552,-0.008371898899296007,0.0070489384615535795,0.9919828960382507
2012-04-05,0,0.0,0.0,-0.00934078908916873,0.0070489384615535795,0.9908926638134351
2012-04-10,0,0.0,0.0,-0.008022279416415229,0.0070489384615535795,0.9914309738876619
2012-04-12,0,0.0,0.0,-0.008022279416415229,0.0036052541378830518,0.9921977375496318
2012-04-16,0,0.0,0.0,-0.007768762574777724,0.003127537791623991,0.9923534905196584
2012-04-18,0,0.0,0.0,-0.007247686000089057,0.0027899395396386306,0.9935804780614724
2012-04-20,0,0.0,0.0,-0.008247137806429345,0.002306604364140581,0.9930511766849495
2012-04-24,0,0.0,0.0,-0.008247137806429345,0.0038193103898107213,0.9919130967211809
2012-04-26,0,0.0,0.0,-0.008247137806429345,0.0038162908838970883,0.9920968765333618
2012-04-30,0,0.0,0.0,-0.008247137806429345,0.0038162908838970883,0.9922988986171599
2012-05-02,-1,-1.0,-1.0,-0.008247137806429345,0.0038162908838970883,0.5004253959832126
2012-05-04,-1,-0.00014723684305121702,-9.009396893758489e-05,-0.007768762574777724,0.004598434314305135,0.9917445045702612
2012-05-08,0,0.0,0.0,-0.0048837045803351,0.008032699525201805,0.990921891895692
2012-05-10,0,0.0,0.0,-0.004446326648012859,0.00961121317359392,0.9908027519219286
2012-05-14,0,0.0,0.0,-0.004844884012227282,0.009832414788635953,0.9903250810797316
2012-05-16,-1,-0.0017626433929627298,-0.0014109375689719654,-0.00929811776980979,0.010867377342891373,0.988760657693092
2012-05-18,-1,-0.0025043223366671254,-0.0020569763294414267,-0.0017990761833823461,0.011372515229112616,0.9881420381382962
2012-05-22,-1,-0.0019097717781735599,-0.0015207909676961905,-0.0017990761833823461,0.010867377342891373,0.9892288710333506
2012-05-24,-1,-0.001634879665613972,-0.0012769063612483977,-0.007712711197690534,0.01114874729110918,0.9880524347122539
2012-05-29,0,0.0,0.0,-0.00929811776980979,0.01114874729110918,0.988138212551145
2012-05-31,-1,-0.000786240926618261,-0.000623952822640502,-0.008917812023117148,0.011985021405267884,0.987901455652252
2012-06-04,-1,-0.000937831655340647,-0.0007579060753655144,-0.007598005008671589,0.012908131175906251,0.9877937310537198
2012-06-06,-1,-0.0007279045693949239,-0.000524705838619738,-0.007598005008671589,0.010062317254965283,0.9892419689002726
2012-06-08,0,0.0,0.0,-0.008917812023117148,0.010062317254965283,0.9893035460568358
2012-06-12,0,0.0,0.0,-0.008917812023117148,0.007737040317554469,0.9888643242626154
2012-06-14,0,0.0,0.0,-0.007598005008671589,0.0064638437531042495,0.9895679098865313
2012-06-18,0,0.0,0.0,-0.0072740120884425725,0.0062784587108004565,0.9905562283746816
2012-06-20,0,0.0,0.0,-0.0072740120884425725,0.006346666529586896,0.9901294493719653
2012-06-22,0,0.0,0.0,-0.0072740120884425725,0.005506096589304789,0.9908496533581008
2012-06-26,0,0.0,0.0,-0.006750658345110386,0.005506096589304789,0.9911683784538879
2012-06-28,0,0.0,0.0,-0.006168809332508024,0.006346666529586896,0.9900827791707698
2012-07-02,1,0.0007874430636095525,0.0008247686878408437,-0.006750658345110386,0.004245822447245978,0.9903670449297362
2012-07-05,0,0.0,0.0,-0.007571796936592181,0.002828377940190846,0.989366777488805
2012-07-09,0,0.0,0.0,-0.006784328408820379,0.006346666529586896,0.9887970377898183
2012-07-11,0,0.0,0.0,-0.006750658345110386,0.007666308317940361,0.9895200717978738
2012-07-13,0,0.0,0.0,-0.006168809332508024,0.003933485941959864,0.989982340850802
2012-07-17,0,0.0,0.0,-0.006168809332508024,0.010663768523834815,0.9894683895789703
2012-07-19,1,0.001641056354531649,0.001727421097989299,-0.006090870021939166,0.006798139741520142,0.9893325919308299
2012-07-23,1,0.001706113551736152,0.0017976265195307588,-0.004179254971432386,0.006798139741520142,0.9900803122743764
2012-07-25,1,0.0015356868269229005,0.0015990986929397591,-0.0033502884396060667,0.006798139741520142,0.9903589242870643
2012-07-27,0,0.0,0.0,-0.0033502884396060667,0.0048557435572219,0.9927675323308834
2012-07-31,1,5.8554306955755216e-06,1.431487865552998e-05,-0.004269687646577307,0.0048557435572219,0.9937335688878929
2012-08-02,-1,-0.0004579099402103235,-0.0003929848056245952,-0.002749319942937475,0.005552230783955291,0.9941615077194411
2012-08-06,1,7.396322614165438e-06,9.600596423726897e-06,-0.002749319942937475,0.005552230783955291,0.9947063454408702
2012-08-08,0,0.0,0.0,-0.0025236505338744877,0.005552230783955291,0.9944186352112114
2012-08-10,0,0.0,0.0,-0.003910742114802416,0.005552230783955291,0.9943037800379656
2012-08-14,1,0.0005090023749827147,0.0005686703564201959,-0.004885368339733553,0.0048557435572219,0.9947134606881559
2012-08-16,0,0.0,0.0,-0.005149970090292605,0.0023777749785601167,0.994800084858941
2012-08-20,0,0.0,0.0,-0.004725011593003203,0.0028504233907300715,0.995126898828164
2012-08-22,1,8.157374999882834e-05,8.25888062741715e-05,-0.003910742114802416,0.0059158186730748795,0.9945429100434915
2012-08-24,1,0.00045281719105888063,0.0005218240806502028,-0.003910742114802416,0.007161711055034815,0.9943089023885835
2012-08-28,0,0.0,0.0,-0.0032821210455583117,0.007161711055034815,0.9940021744153748
2012-08-30,0,0.0,0.0,-0.0010224440216371703,0.007161711055034815,0.9943740141141566
2012-09-04,0,0.0,0.0,-0.003101196909902391,0.005237323942020954,0.9945661059000774
2012-09-06,0,0.0,0.0,-0.003101196909902391,0.004971591984602224,0.9949863256666717
2012-09-10,0,0.0,0.0,-0.003101196909902391,0.005660353077032414,0.9947667974562805
2012-09-12,0,0.0,0.0007240809915277956,-0.004182239186035441,0.005660353077032414,0.9942808405271062
2012-09-14,0,0.0,0.0,-0.003101196909902391,0.006432677339531273,0.9936428477923334
2012-09-18,0,0.0,0.0,-0.003101196909902391,0.008815208047745026,0.9924917114515894
2012-09-20,0,0.0,0.0,-0.003101196909902391,0.006108428225385883,0.9933466987004739
2012-09-24,1,0.0005257112072132739,0.0005818426046969238,-0.0042084558798891865,0.005660353077032414,0.9936592705241091
2012-09-26,1,0.0006222922515386997,0.0006491847596424087,-0.0042084558798891865,0.005660353077032414,0.9939121033447957
2012-09-28,1,0.0006623373796301971,0.0006724726541186663,-0.0042084558798891865,0.004970828910626106,0.9942670641668541
2012-10-02,1,0.00048810675491450236,0.0005037976489259779,-0.005116539124609797,0.005660353077032414,0.9938768090524751
2012-10-04,1,0.0005706945835627877,0.0005888926999082141,-0.005282565351977252,0.004623021801666058,0.9939203373240321
2012-10-08,0,0.0,0.0,-0.005907060716457121,0.004978090821659624,0.9932739509604859
2012-10-10,0,0.0,0.0,-0.005282565351977252,0.004978090821659624,0.9938467821722053
2012-10-12,-1,-7.642938561619315e-05,-2.2901525632592604e-06,-0.005282565351977252,0.003559084049644154,0.9943876003309942
2012-10-16,1,0.0005966292417351675,0.0006126199861252716,-0.005907060716457121,0.0019103212191328217,0.9947473441747093
2012-10-18,1,0.0005526288001006453,0.000570162700383068,-0.005907060716457121,0.0029670135680700347,0.9941962936810829
2012-10-22,1,0.000547327143183314,0.000568615196686217,-0.005282565351977252,0.004453254002147831,0.994080301724224
2012-10-24,0,-2.6229132403582302e-05,5.04590800999621e-05,-0.002787934577490945,0.00550535562449518,0.994045450352715
2012-10-26,1,0.00041394655936286234,0.0004275661129848423,-0.003783076313591789,0.006361998012397386,0.9938493896571284
2012-11-01,1,0.0006193362514827704,0.0006660605158678054,-0.0023213879681857163,0.007633051565595319,0.9936247916722531
2012-11-05,1,0.0002986602903437315,0.0003007283002668669,-0.0013161190269706411,0.009131113410498692,0.9934129242382981
2012-11-07,1,0.0002740051875228398,0.00028406911134045624,-0.0007894138795918151,0.009361328673051362,0.9932065789551447
2012-11-09,1,0.0002093018216763784,0.00021265099934048568,-0.0007475299719364898,0.009361328673051362,0.9935663360599826
2012-11-13,1,0.00023460897947670696,0.00024227685638658294,-0.0007475299719364898,0.009361328673051362,0.9930887514746041
2012-11-15,-1,-0.0002876595401759023,-0.00022346444250767234,-0.0010432837282321086,0.009361328673051362,0.9934465977214975
2012-11-19,-1,-0.0002120787878019127,-0.0001471407353778723,-0.0010432837282321086,0.009361328673051362,0.9932810159593095
2012-11-21,1,0.0003269771866506259,0.00033302654615650933,-0.0016899198269753515,0.008218992209597159,0.9928747107754095
2012-11-26,1,0.0007009795386471729,0.000791813308485115,-0.0032687871418020046,0.0072522727444439185,0.9931732114232525
2012-11-28,1,0.0009387987099522344,0.0010654885485895259,-0.0034054995775412407,0.0072522727444439185,0.993068912123932
2012-11-30,1,0.0011599798349078603,0.0013003970655165998,-0.004230125123848291,0.006735656585762315,0.9931867658235772
2012-12-04,1,0.0011380948147926386,0.0012548093463597228,-0.005618328410771988,0.006735656585762315,0.9919595662967641
2012-12-06,1,0.0015770770752283657,0.0017544657990230961,-0.005618328410771988,0.0065340800190623015,0.9929312973791325
2012-12-10,1,0.0016095570397293229,0.0017956793781665,-0.005618328410771988,0.006735656585762315,0.9923501516341514
2012-12-12,1,0.0013253992850361998,0.0014609092690796737,-0.00451809138095763,0.0065340800190623015,0.9925864549845488
2012-12-14,1,0.0009682014874765951,0.0010384321832391768,-0.006737902607025462,0.0065340800190623015,0.991413085799238
2012-12-18,1,0.0010832740754313926,0.0011574650800101024,-0.006737902607025462,0.006363593972494433,0.9918166474199324
2012-12-20,1,0.0014207456375375997,0.0016048449738902254,-0.003603672174532612,0.006103616837432936,0.9927795620781706
2012-12-24,1,0.0011014363511120168,0.0011981871515907613,-0.0064645105099090956,0.006103616837432936,0.9922242467959859
2012-12-27,1,0.0004551455142019908,0.0005045534230273198,-0.003512541475493823,0.006103616837432936,0.9924939896210553
2012-12-31,1,0.0006190108572016803,0.0006337769620998498,-0.001384120779067568,0.005705627482910923,0.9930662112479358
2013-01-03,1,0.001039185485444676,0.0011027304109748669,-0.001384120779067568,0.005705627482910923,0.993855804822996
2013-01-07,1,0.0010330893884184461,0.0010790392750179808,-0.003512541475493823,0.005705627482910923,0.9929323322917702
2013-01-09,1,0.0014851433983778743,0.0016072188790881106,-0.006077110899479849,0.004658544912009399,0.993130439469849
2013-01-11,1,0.001423231860933676,0.0015513549512454108,-0.006077110899479849,0.005705627482910923,0.9930971635214803
2013-01-15,1,0.0007747372956100426,0.0007983921968062794,-0.004877454431212783,0.005705627482910923,0.9944305030491231
2013-01-17,1,0.00046182897238444815,0.0004873072597610629,-0.005147174029980422,0.005705627482910923,0.9941598422310812
2013-01-22,1,0.0007495934483247894,0.0007665638745653833,-0.005147174029980422,0.004754049439843782,0.9941548975942835
2013-01-24,0,-1.8176902179434576e-05,7.905285135795389e-05,-0.004571985862097974,0.005823558929661009,0.993953097246358
2013-01-28,1,0.00016041722609755614,0.00022835416047220782,-0.005147174029980422,0.0070917972503763615,0.9931242013262479
2013-01-30,1,0.0004400702739745921,0.0004563468252094736,-0.005147174029980422,0.008890430710068412,0.992327599512836
2013-02-01,1,0.0006689497666691158,0.0006994194502276472,-0.005147174029980422,0.008890430710068412,0.9921032932588671
2013-02-05,1,0.000333249152709566,0.0003717866220399275,-0.005147174029980422,0.00896999250988728,0.9918938956834247
2013-02-07,-1,-0.0001752449857383659,-7.086967620711931e-05,-0.004265174100339992,0.00896999250988728,0.9919544179170834
2013-02-11,0,-4.153052196364073e-05,5.400789378129107e-05,-0.004265174100339992,0.00896999250988728,0.9925131985086184
2013-02-13,-1,-9.592933423608528e-05,-1.4657507714900889e-07,-0.004265174100339992,0.00896999250988728,0.9923417334111747
2013-02-15,1,0.0004688884941512862,0.00047024173671750513,-0.004312794313627963,0.00803655965762082,0.9927500561539738
2013-02-20,1,6.627211231773666e-05,0.0001175618515868455,-0.0014350915845474021,0.008321398119696696,0.9925672883098259
2013-02-22,0,-7.65493744169552e-05,1.7883694243732168e-07,-0.0014350915845474021,0.008280138568718523,0.9930034128112933
2013-02-26,1,0.0003062053389573023,0.00032392967482261476,-0.0012805334181186167,0.008280138568718523,0.9935391292928462
2013-02-28,1,0.0005049417522768945,0.0005064387237722424,-0.0028371652151441187,0.008280138568718523,0.993443975946775
2013-03-04,1,0.000835991375446481,0.0008886653436828595,-0.0028371652151441187,0.00770764262091791,0.9942295885715705
2013-03-06,1,0.0008396404105160202,0.0008974384125844718,-0.0028371652151441187,0.005614716670216013,0.9947281086587408
2013-03-08,1,0.0006178661336442969,0.0006321564825425138,-0.004568511814731141,0.005709662824241306,0.993796600801335
2013-03-12,1,0.0007074589532550812,0.0007165095122579422,-0.004568511814731141,0.008280138568718523,0.9923989911766989
2013-03-14,1,0.001089809903237986,0.0011825407122768544,-0.00508595342029437,0.008280138568718523,0.9923127655538609
2013-03-18,1,0.0009031999346501118,0.0009628099069192624,-0.005519323740339474,0.00921994430443848,0.990454245205122
2013-03-20,1,0.001004776761058259,0.0010739094390242506,-0.008477158715977415,0.00921994430443848,0.9898700314258616
2013-03-22,1,0.0009362073221586168,0.0009737808026680811,-0.008477158715977415,0.009504167851680666,0.9897217857777645
2013-03-26,1,0.0010418679635618526,0.0010965160318027476,-0.008477158715977415,0.010251171534254165,0.9895800445110315
2013-03-28,1,0.0015999380306397843,0.0017289064499202956,-0.008477158715977415,0.009468805814624642,0.990123228531393
2013-04-02,1,0.0008957888945704541,0.0009118904303313509,-0.006866432765255416,0.009468805814624642,0.9901617299559429
2013-04-04,1,0.0003165543776636335,0.000355945965196782,-0.007550168791068161,0.009468805814624642,0.9883378609659752
2013-04-08,1,0.00023745434135891678,0.0002878418126350112,-0.0065634427525871775,0.008258948948200267,0.989153986944857
2013-04-10,1,0.0009845698530697566,0.0010196994944712463,-0.0065634427525871775,0.00857244320865399,0.9895236889913106
2013-04-12,1,0.00015028370718973263,0.0002389349211998651,-0.004231204822884554,0.00857244320865399,0.9893593829683898
2013-04-16,1,0.00045368248877733866,0.0004984931167917629,-0.0018955891638470597,0.007981998431973478,0.9913218487773916
2013-04-18,-1,-0.00010240152959419425,-1.0157838722458243e-05,-0.000695752219557438,0.007981998431973478,0.9910484243840462
2013-04-22,1,0.00040795267124953984,0.0004366480987611243,-0.0018955891638470597,0.007981998431973478,0.9910021622067224
2013-04-24,1,0.0007350540222302554,0.0007513805413456316,-0.00349568622226349,0.006436158927335482,0.9914079736166036
2013-04-26,1,0.0007295371739367508,0.0007603800108982604,-0.006422197441751027,0.005834234861722085,0.9911310682737617
2013-04-30,1,0.000963526166158316,0.001034158073510559,-0.007228474076924081,0.005834234861722085,0.9899833927075211
2013-05-02,0,0.0,0.0,-0.006422197441751027,0.0064886515852895016,0.991512634276823
2013-05-06,1,0.00020447815717764516,0.00021073611601313575,-0.007415572089155862,0.0064886515852895016,0.9914237680750011
2013-05-08,0,0.0,0.0,-0.008576661881896142,0.004720633865927169,0.9918870433990261
2013-05-10,0,0.0,0.0,-0.008576661881896142,0.004720633865927169,0.9916688557109644
2013-05-14,0,0.0,0.0,-0.008897806223478383,0.0036571402801246246,0.9914150974232467
2013-05-16,1,0.0007457416133346025,0.0007844032196584501,-0.008897806223478383,0.004398387008665768,0.990599968875571
2013-05-20,1,0.0008903302983431276,0.0009373414968174276,-0.008897806223478383,0.008198951751355345,0.9908348818508291
2013-05-22,1,0.0005176324643071246,0.0005315207053602527,-0.010328402868666972,0.008198951751355345,0.9899027187518081
2013-05-24,1,7.42219129019904e-05,0.00014236804827024374,-0.01080004565442735,0.008198951751355345,0.9898131069907998
2013-05-29,1,0.00021581955055851188,0.00024791773743683377,-0.010328402868666972,0.008198951751355345,0.9906801002484662
2013-05-31,1,7.435094407661183e-05,0.00011675925734337682,-0.008897806223478383,0.009015577855242238,0.9907028868623715
2013-06-04,1,7.012327593828751e-05,9.144776444788005e-05,-0.0076418871740741336,0.009015577855242238,0.9909027290456549
2013-06-06,-1,-0.00015420730821824057,-0.00010627597382809403,-0.005906651170138258,0.011470998263508472,0.9904992853156356
2013-06-10,-1,-0.0004067720741604454,-0.000284645412811564,-0.005906651170138258,0.0106845174813105,0.9908527438572149
2013-06-12,0,0.0,0.0,-0.005134301285725822,0.0106845174813105,0.99049797878066
2013-06-14,0,0.0,0.0,-0.0022898282378692896,0.009676102120235874,0.9919869787085338
2013-06-18,0,0.0,0.0,-0.002986383323962392,0.00922733307274479,0.9927711353892849
2013-06-20,0,0.0,0.0,-0.0010015609197036985,0.00922733307274479,0.9937860578189974
2013-06-24,0,0.0,0.0,-0.0010015609197036985,0.00922733307274479,0.9943117707187963
2013-06-26,0,0.0,0.0,-0.0010015609197036985,0.007997146457250224,0.9946100263142302
2013-06-28,1,0.0006152360948267617,0.0007091915907311228,-0.0010015609197036985,0.007261470157541884,0.9956785116890525
2013-07-02,0,0.0,0.0,-2.4516203303731496e-05,0.007997146457250224,0.9937420437446843
2013-07-05,0,0.0,0.0,-2.4516203303731496e-05,0.007261470157541884,0.9939435544190217
2013-07-09,0,0.0,0.0,0.00045495071618195844,0.007997146457250224,0.992919382314451
2013-07-11,0,0.0,0.0,0.00045495071618195844,0.006774030298343173,0.9936598712677559
2013-07-15,0,0.0,0.0,0.0005730499079010699,0.006774030298343173,0.9936152799701435
2013-07-17,0,0.0,0.0,0.0008196582096524328,0.006774030298343173,0.9934703015634118
2013-07-19,0,0.0,0.0,0.0004432477540495982,0.004951017422792109,0.9929902530838367
2013-07-23,0,0.0,0.0,0.0004432477540495982,0.004951017422792109,0.9928958507166195
2013-07-25,0,0.0,0.0,-0.0012731909887413904,0.004951017422792109,0.9925021607614504
2013-07-29,0,0.0,0.0,-0.0015519604157435355,0.004951017422792109,0.9922460333708599
2013-07-31,0,0.0,0.0,-0.00532224845328863,0.003820419916373249,0.9929963704562984
2013-08-02,0,0.0,0.0,-0.00532224845328863,0.0034813586773707102,0.9938687823204282
2013-08-06,1,0.001883215993883727,0.002011587080729672,-0.00532224845328863,0.0029687971281927906,0.9944157115072912
2013-08-08,1,0.0015458617839069053,0.001680462287433734,-0.00532224845328863,0.0034813586773707102,0.9940984396266708
2013-08-12,1,0.0019574581288393936,0.002128234710496335,-0.00532224845328863,0.0038798139178713147,0.9936757427269366
2013-08-14,1,0.0017398862220330087,0.001873224356859134,-0.005659798167958263,0.005526704658043597,0.9931448926439651
2013-08-16,1,0.0013167640928768943,0.0013997646905903297,-0.0035098221120469474,0.00834701216322479,0.9936894646418785
2013-08-20,1,0.0013972044613555052,0.0015157703729900384,-0.0014259144447811743,0.008727119592814803,0.9934750578756743
2013-08-22,1,0.00111257506918537,0.001169025289116218,-0.001461157224353096,0.008727119592814803,0.9935481126414002
2013-08-26,1,0.0007529418550805726,0.0007621293943629198,-0.001461157224353096,0.008933327044017069,0.9930551818439365
2013-08-28,0,-5.68010806813128e-05,5.7135209575471006e-05,-0.0016934365510107366,0.008933327044017069,0.9938292147734922
2013-08-30,1,0.000522487358677447,0.0005269071503059238,-0.0016934365510107366,0.008933327044017069,0.9939061869810227
2013-09-04,1,0.0006770761756399422,0.0006785103037315284,-0.004056182365671397,0.008933327044017069,0.9935106152589233
2013-09-06,1,0.00022587741464182587,0.00028009503867362366,-0.0053781189037896615,0.008755607601443652,0.9928884377866521
2013-09-10,1,3.536406085814965e-05,0.000142633071682973,-0.008865106914698872,0.007250704299054633,0.9923777478507975
2013-09-12,1,0.00032316299435972747,0.00036583644400001023,-0.007698491656084229,0.007250704299054633,0.9921638115796679
2013-09-16,1,0.0008591271044753047,0.0009193026449783085,-0.007698491656084229,0.00733843212187462,0.9917024038192882
2013-09-18,1,0.0012004868409813065,0.001298086652426687,-0.007698491656084229,0.00733843212187462,0.9913288197004816
2013-09-20,1,0.001037982166163357,0.0011311208294644125,-0.0053781189037896615,0.00733843212187462,0.9916742283109194
2013-09-24,1,0.0008643333706756416,0.0008820316483043654,-0.004333527234022238,0.007417031250685895,0.991864495940195
2013-09-26,1,0.0005152946156011147,0.0005380927528502699,-0.0049788938581332865,0.007417031250685895,0.9917908191397795
2013-09-30,1,0.0008597004475738826,0.0009167607301981031,-0.0049788938581332865,0.007417031250685895,0.9915648732248185
2013-10-02,1,0.0010580262946660315,0.0011486972528062418,-0.005197789787959801,0.006875934651450665,0.9919449493297184
2013-10-04,1,0.0008361544211519388,0.000900231898473116,-0.004243596778410737,0.0067638237896052045,0.992658417350079
2013-10-08,0,-3.2879897522675004e-05,2.9048693634617514e-05,-0.0023452565724301276,0.0067638237896052045,0.9933817602943134
2013-10-10,1,0.0007403430335819847,0.0007915145740677652,-0.003975869753088155,0.006375575336966113,0.9937560542807576
2013-10-14,1,0.00099460833772606,0.0010613742063047985,-0.003975869753088155,0.006098857721449753,0.993747120485463
2013-10-16,1,0.0010796855514388119,0.0011328788032028475,-0.002679513880136828,0.006098857721449753,0.9940821653362584
2013-10-18,1,0.0011406955995168604,0.0011864808955974427,-0.002679513880136828,0.0067638237896052045,0.993768242207028
2013-10-22,1,0.001406721946678517,0.0014681557816702247,-0.00395324084539146,0.006098857721449753,0.9938156772774442
2013-10-24,1,0.0008830253140310646,0.0009029431523857876,-0.00395324084539146,0.006997213328831409,0.9931851584532899
2013-10-28,1,0.0008810338563739666,0.000916623573279317,-0.004175710055320654,0.006467239726876821,0.9932677602472739
2013-10-30,1,0.0004629823640962951,0.0005429352766194965,-0.00395324084539146,0.007231083920048487,0.9935068240725466
2013-11-01,1,9.290072882025028e-05,0.00022494644882227043,-0.00395324084539146,0.008602023436663955,0.9928559321176875
2013-11-05,1,0.0001307798777096473,0.00024266722698084667,-0.005851560287067549,0.008602023436663955,0.9923019872570357
2013-11-07,1,6.18398059110414e-05,8.245575326461283e-05,-0.005851560287067549,0.010864016686121896,0.9915275281776187
2013-11-11,0,-7.040281080786411e-05,0.00012723048334314045,-0.005851560287067549,0.008602023436663955,0.9925304626971599
2013-11-13,1,0.00012640939548239777,0.0003203296633040244,-0.006690756880306826,0.008602023436663955,0.9923289623094447
2013-11-15,1,0.0005931338167879755,0.0007197661559075928,-0.006690756880306826,0.008602023436663955,0.9921553103837065
2013-11-19,1,0.0006619621769787477,0.0007825128753431241,-0.006690756880306826,0.01101818168234713,0.9919296708774645
2013-11-21,1,0.0005944769642546768,0.0007416798302376116,-0.005819652340969235,0.00985895440995198,0.9923936435416013
2013-11-25,1,0.0006539177332260319,0.0007564760140730315,-0.004274779555954457,0.00985895440995198,0.9922044122263173
2013-11-27,1,0.0009101259201966107,0.000982213152268233,-0.005103916371617474,0.00985895440995198,0.9919754323717184
2013-12-02,1,0.0011197400351410996,0.0011450882453171783,-0.0037564687017574445,0.009707201370812367,0.992537875829002
2013-12-04,1,0.00041580690792343615,0.0005292126471304218,-0.002931876117536387,0.009707201370812367,0.9926459415191676
2013-12-06,1,0.0007732382017670545,0.000855371404696351,-0.0017456460639656613,0.008973929563230454,0.994058764713082
2013-12-10,1,0.0007320081621288611,0.0008112800809170861,-0.0019647305946869863,0.008973929563230454,0.9938000986953626
2013-12-12,1,0.0007993472216098073,0.0008738970782757281,-0.002931876117536387,0.006399243293170004,0.993729960248172
2013-12-16,1,0.0011541865823216607,0.0011791385712608432,-0.0031984155064731525,0.006399243293170004,0.9937849086888262
2013-12-18,1,0.001330074490986711,0.001347637351597081,-0.0037564687017574445,0.005386097203357931,0.9939845187555928
2013-12-20,1,0.0021703984285820323,0.002311713138352706,-0.0034747944450274912,0.005386097203357931,0.9932732986106138
2013-12-24,1,0.0025193973373238295,0.002741936481342796,-0.005740273143192802,0.0050699574795223384,0.9917318629540199
2013-12-27,1,0.0029050842963900645,0.003221139437017004,-0.007536379291204836,0.0050699574795223384,0.9910479308821909
2013-12-31,1,0.0029995635958067297,0.003329851868950469,-0.009158621209941717,0.0050699574795223384,0.9902077458256674
2014-01-03,1,0.001956260009203095,0.002161588795914774,-0.010269248313139802,0.0050699574795223384,0.9893549683696705
2014-01-07,1,0.0020914210768412994,0.0022988191203919244,-0.010269248313139802,0.006516267706635482,0.9885180813289165
2014-01-09,1,0.0017645499608375736,0.0019015806032745008,-0.011434735931949899,0.007731138591432886,0.9878243531679777
2014-01-13,1,0.0010900352074855674,0.001131308514168934,-0.010269248313139802,0.010175539204054831,0.9880368454507877
2014-01-15,1,0.0011606391288193603,0.0012033491840381817,-0.010269248313139802,0.007731138591432886,0.9883197246000147
2014-01-17,1,0.000746268042760355,0.0007646428758925895,-0.010269248313139802,0.01111946273461418,0.988140086922455
2014-01-22,1,0.000734589380179712,0.0007980738753791885,-0.010269248313139802,0.007731138591432886,0.9891464232186233
2014-01-24,-1,-0.00041391281872264003,-0.00021243298736335896,-0.008327131750567516,0.007731138591432886,0.9904207636341419
2014-01-28,0,-0.00011481612270113756,4.713936213734715e-05,-0.0028187507048416352,0.005917438410842108,0.9915219962179529
2014-01-30,0,-9.428174071999347e-05,5.667021696764582e-05,-0.0007867889404142693,0.005703490109585792,0.9921569253475422
2014-02-03,-1,-0.001245568071235522,-0.0009806019951529039,0.0002257295848683361,0.006286160177115848,0.9919751811312086
2014-02-05,-1,-0.0005623221721790629,-0.0003773928283052774,-0.0007867889404142693,0.006184225293624781,0.9925261191546895
2014-02-07,-1,-0.0007383325554010634,-0.000544846175109839,-0.0007867889404142693,0.005703490109585792,0.9933690856754316
2014-02-11,-1,-0.0003301302658995527,-0.00020707553808748161,-0.00043115543773041795,0.0044832168698674965,0.9945772905248319
2014-02-13,-1,-0.00032717840217661787,-0.00018375199707281825,-0.0013347082695484398,0.0034136457034523683,0.9939628480449785
2014-02-18,1,6.877035459051137e-05,0.00016790792564954564,-0.0013347082695484398,0.0038820245331623424,0.9937740736669576
2014-02-20,0,-0.00011484442140312112,2.183477423808595e-05,-0.0026158687858474656,0.004771983742376504,0.9934430345363285
2014-02-24,0,-2.1447675591695773e-05,0.00011061552954961119,-0.005916252763901203,0.004771983742376504,0.9921874616083729
2014-02-26,1,3.6658361753321757e-05,0.00016246223283847646,-0.008222857646222763,0.004771983742376504,0.9915618415588644
2014-02-28,0,-3.049159256273326e-05,0.00012117382849853559,-0.008222857646222763,0.004771983742376504,0.9912534129555102
2014-03-04,0,-2.71205648767999e-05,0.0001731347788822156,-0.006903999738887602,0.005889204395136424,0.9917343225813059
2014-03-06,0,-0.00013413589142729154,5.853244688964034e-05,-0.005140016502392981,0.005961003008476205,0.9924176406292767
2014-03-10,1,9.762878125918868e-05,0.000235032841739143,-0.008769504618209883,0.005961003008476205,0.9914214292705942
2014-03-12,1,0.0002008595080598144,0.00031011004804830784,-0.008769504618209883,0.006087803524429019,0.9909379435142219
2014-03-14,-1,-0.0006055526636144331,-0.0004105572188001721,-0.011341313502836192,0.006087803524429019,0.9904148229060343
2014-03-18,1,0.0003741643522982331,0.00042949262480580623,-0.011341313502836192,0.007271267006878923,0.9903305618077785
2014-03-20,1,0.00013516013666197877,0.0002332738598203405,-0.011341313502836192,0.008676850483625403,0.9897288131603732
2014-03-24,-1,-0.0009294540304114255,-0.0007216709692798361,-0.007201155445129238,0.008676850483625403,0.9908317682291035
2014-03-26,-1,-0.0018851856367234157,-0.0015392952866659648,-0.007201155445129238,0.008676850483625403,0.9909550313308465
2014-03-28,-1,-0.0018937241204996984,-0.0015390957860407437,-0.008031499621639328,0.009185482855279283,0.9901642863904865
2014-04-01,-1,-0.0011317776701853795,-0.0008572915820477342,-0.008031499621639328,0.009600913079868842,0.9880877725296218
2014-04-03,-1,-0.0011177532314884811,-0.0008271979894852264,-0.008031499621639328,0.011311311002276997,0.9878586966253403
2014-04-07,-1,-0.001750647599022048,-0.0014109634925497784,-0.004287776263767266,0.011311311002276997,0.9884382267137365
2014-04-09,-1,-0.0010433750630263298,-0.0008157833744254141,-0.004287776263767266,0.011311311002276997,0.9889465148335213
2014-04-11,-1,-0.0020863716880647415,-0.00175914015373647,-0.0027955599611441265,0.011311311002276997,0.9893945410478747
2014-04-15,-1,-0.0012642449856874443,-0.0010390625827802454,-0.005754553797553115,0.010126997523942232,0.9899779008310615
2014-04-17,-1,-0.0002554199085276538,-0.00016073991597087117,-0.007268681766216039,0.00440927648048361,0.9904121834657967
2014-04-22,-1,-0.0007274388576785184,-0.0005680803632918329,-0.008328975117008985,0.00750274159105132,0.9899900940792923
2014-04-24,-1,-0.0007792176024318841,-0.0006330992339114887,-0.006171249269223597,0.00750274159105132,0.9903191982416011
2014-04-28,-1,-0.0006798048281546621,-0.0005479545640482891,-0.003977899190983611,0.007320679111815058,0.9909820599429962
2014-04-30,1,0.001366901788915521,0.0014511400170792279,-0.005077430761076394,0.00618248014229034,0.9938921266591033
2014-05-02,1,0.0019966642344537225,0.0021978620230154993,-0.005077430761076394,0.005496924878718515,0.993912570012356
2014-05-06,1,0.0018536539913156396,0.0020310465253465687,-0.005077430761076394,0.00618248014229034,0.9936649023362746
2014-05-08,1,0.00187271351531984,0.002063715839264678,-0.005077430761076394,0.00618248014229034,0.9937796845560493
2014-05-12,1,0.0020214406741395465,0.002253413681759792,-0.005077430761076394,0.005496924878718515,0.9941834074581212
2014-05-14,1,0.0015845727689330813,0.001782927030295128,-0.005340714654638862,0.005496924878718515,0.9940963421441555
2014-05-16,1,0.0011071405166652403,0.0012528761572904727,-0.005340714654638862,0.006066318839591477,0.9944872791430865
2014-05-20,1,0.0011056504236904242,0.0012681995079561787,-0.0034852320933864184,0.006066318839591477,0.9949354161764401
2014-05-22,1,0.0011882329088436483,0.0013690336824543265,-0.0034852320933864184,0.006066318839591477,0.9948645466022688
2014-05-27,1,0.001768800381889704,0.0020398467830074736,-0.0051889998592078495,0.004909383211594762,0.9949754417065415
2014-05-29,1,0.0014975999151159622,0.0016982131403146718,-0.0036900278671099275,0.004909383211594762,0.9950183274814475
2014-06-02,1,0.0016374258442577315,0.0018669095700419509,-0.004420137474716716,0.003809098007931416,0.9950070356751931
2014-06-04,1,0.001833821563397711,0.002094490777170723,-0.005955101975809389,0.003809098007931416,0.9944022330852629
2014-06-06,1,0.0016436140179464749,0.0018366069114920947,-0.005955101975809389,0.004169840548725707,0.9940731056621894
2014-06-10,1,0.001515595880280992,0.0017031325970017883,-0.004420137474716716,0.004169840548725707,0.9944973219231202
2014-06-12,1,0.0006225830328234955,0.000671683508807842,-0.002223822475972065,0.005370697044778787,0.9954548934055544
2014-06-16,1,0.0009283048526549877,0.0010545725857161814,-0.0011591293937060734,0.005382202641167592,0.9956411397702312
2014-06-18,1,0.0006305815619537567,0.0006497871292435806,-0.0015018420203018793,0.004825099656360539,0.995886320437862
2014-06-20,1,0.000799451553488365,0.0008508910287723286,-0.0021163081236267164,0.005382202641167592,0.9951317465575873
2014-06-24,1,0.0005303161251163233,0.0005398568256738668,-0.001962820324798155,0.005382202641167592,0.9952948392402838
2014-06-26,0,-0.00010244786472732141,4.933005892426265e-05,-0.0021889308511525347,0.005382202641167592,0.9954946782656118
2014-06-30,1,0.00015548180928972382,0.00023493427960359734,-0.0021889308511525347,0.005382202641167592,0.9954765456037307
2014-07-02,1,7.30821115310494e-05,0.0001882793824864369,-0.0021889308511525347,0.004825099656360539,0.9957829236662797
2014-07-07,1,0.00017497444035869276,0.00027044885110888515,-0.0021889308511525347,0.003469343776122362,0.9960544213657562
2014-07-09,1,0.00037550144885564545,0.00043202790721963826,-0.0035568124832253867,0.004825099656360539,0.9952790429917842
2014-07-11,1,0.0008218856277847335,0.0008498826642415285,-0.003914275869831658,0.005137846126930817,0.9946443104963103
2014-07-15,1,0.0011993960536098012,0.0012803974363091903,-0.003914275869831658,0.003425348022382301,0.9946681214849056
2014-07-17,1,0.0012654684036502075,0.0013666203724692343,-0.003914275869831658,0.006078862240116262,0.9942905148840018
2014-07-21,1,0.0016191942261975585,0.0017658952830555213,-0.003914275869831658,0.006078862240116262,0.9944076201147717
2014-07-23,1,0.0014974205751879795,0.0016407566906051728,-0.002756578141604577,0.006325963564797745,0.9943361786430445
2014-07-25,1,0.0020517293469806885,0.002308633706662378,-0.002756578141604577,0.006050091816045961,0.9945907537527834
2014-07-29,1,0.0015909112847058819,0.0017634074676782356,-0.0016540485402573347,0.006050091816045961,0.9946564444105758
2014-07-31,1,0.0010915616785622138,0.001194619508960123,-0.0016540485402573347,0.006050091816045961,0.9950686136465956
2014-08-04,1,0.000857467736662297,0.0009258800283090499,-0.0012818081391160288,0.006050091816045961,0.9951778476553943
2014-08-06,1,0.0001344099176026145,0.00020930038689489616,-0.00019423810116097758,0.006022589804792991,0.9953217858548109
2014-08-08,1,0.000648891073624058,0.0006774228670101581,-0.00019423810116097758,0.0059506869697206685,0.995939839694701
2014-08-12,1,0.000655964775828968,0.0006838393717403577,-0.00019423810116097758,0.0059506869697206685,0.9956815426361114
2014-08-14,1,0.0003338611011234621,0.00040823599995373837,-0.0012818081391160288,0.005664962426429842,0.9959313675973336
2014-08-18,1,0.0005522440301400806,0.000636564720989525,-0.0012818081391160288,0.00462976719611287,0.9967090161399035
2014-08-20,1,0.0009515623983024446,0.000988256706891171,-0.0012818081391160288,0.0033445981530646355,0.9969518838055483
2014-08-22,1,0.001279122331046815,0.0013301791049536722,-0.001541276973935029,0.0033445981530646355,0.9964656081979507
2014-08-26,1,0.0014180391444774236,0.0015007798896705727,-0.0025333858064273142,0.0033445981530646355,0.9956850616862329
2014-08-28,1,0.000746378044180464,0.0008018378954117863,-0.002787952570308004,0.0047900095853599615,0.9945287614679162
2014-09-02,1,0.0010218906301698754,0.0010293654242267353,-0.002787952570308004,0.0047900095853599615,0.9945622023310802
2014-09-04,1,0.00034751225508857555,0.0005060600912237403,-0.005014937114375886,0.003251941177697939,0.9946620578965707
2014-09-08,1,0.0007754720182139334,0.0008486135576383329,-0.005638831386391025,0.003251941177697939,0.9939157160490141
2014-09-10,1,0.001065240850837522,0.0010656147210434863,-0.005638831386391025,0.0034258088701673716,0.9922242094625741
2014-09-12,1,0.00046545788757804384,0.0005560147575624805,-0.010298709426507159,0.0034258088701673716,0.9910978789386627
2014-09-16,1,0.00026796326708666954,0.00040141389052654946,-0.010298709426507159,0.005480253551236813,0.9903386367556515
2014-09-18,1,0.00034444693942120087,0.0004666795427236838,-0.011734788505951166,0.0034258088701673716,0.9896275202887299
2014-09-22,1,0.0012574632693387955,0.0013834096636586627,-0.010313609365751054,0.006429189790457947,0.9893286768592836
2014-09-24,1,0.0017941721868640398,0.0020145217270754762,-0.010313609365751054,0.006429189790457947,0.9888388034402331
2014-09-26,1,0.0011140272504382698,0.0012411309281852526,-0.009131359893329942,0.012752172606350575,0.9889515823734802
2014-09-30,1,0.0012141692395599055,0.001352547249176799,-0.009131359893329942,0.014282919295051582,0.9882678920129426
2014-10-02,1,0.0010654627825845437,0.0011837987212166613,-0.009131359893329942,0.014282919295051582,0.9877547587125122
2014-10-06,1,0.0007563165063865192,0.000790811303737602,-0.006524062781581916,0.014282919295051582,0.9880169582325132
2014-10-08,1,0.000495759074828806,0.0005285985015656039,-0.006164952169614689,0.013498074970625136,0.9892966401936802
2014-10-10,-1,-0.0008351644229514312,-0.0006385407063279526,-0.0016760074915420226,0.013498074970625136,0.9898744195781747
2014-10-14,-1,-0.0008574202039388575,-0.0006570087105097222,-0.0010636191897608822,0.013498074970625136,0.9901902203924684
2014-10-16,-1,-0.0013521409820380567,-0.0011204508003874103,0.0009443648149943597,0.013498074970625136,0.9904106512820258
2014-10-20,-1,-0.000600858745310628,-0.0004581510374802758,-0.0007132086817079464,0.01306809243429048,0.9914611394029771
2014-10-22,1,0.00018020490041991107,0.00022982863001346364,-0.00021172468756407276,0.011167624523186166,0.9931526056896279
2014-10-24,1,0.001275116264767914,0.0013727799044306558,-0.001778027794010895,0.0077789494134821195,0.9945262301344926
2014-10-28,1,0.0019709501707818756,0.0021712909438622832,-0.0023072339370234906,0.0076174088456079665,0.9948832856504641
2014-10-30,1,0.00245290145142759,0.002698749756681129,-0.0023072339370234906,0.0076174088456079665,0.995167166277698
2014-11-03,1,0.0024266625445313376,0.002617422952301631,-0.003441013516985918,0.006223506320124354,0.9952683367120686
2014-11-05,1,0.0023688466934260926,0.002544238118687296,-0.003441013516985918,0.003808249319204534,0.995625303216975
2014-11-07,1,0.0021460036531655187,0.002311616862669917,-0.003441013516985918,0.006019628013330414,0.995455127252124
2014-11-11,1,0.002222889506271265,0.002401504785828716,-0.004114396449352738,0.003808249319204534,0.9948716082829827
2014-11-13,1,0.0021481744037276334,0.0022970504803603476,-0.004703676616030635,0.003808249319204534,0.9937696685641105
2014-11-17,1,0.0020193513107329957,0.002175299048863064,-0.004703676616030635,0.006019628013330414,0.9935512011547352
2014-11-19,1,0.0019251124212717914,0.002046275676318367,-0.004703676616030635,0.0073262853148412755,0.9918714985336836
2014-11-21,1,0.001682838045909802,0.0017819560232152389,-0.004680593206715128,0.008182291556712669,0.9913227382920233
2014-11-25,1,0.0018020105553174068,0.001913647009707074,-0.00517168724692986,0.008508895566503154,0.9911226355910163
2014-11-28,1,0.0021539761751332,0.0023091583464114633,-0.00517168724692986,0.007560065123202019,0.9911881454923863
2014-12-02,1,0.001952299451945819,0.002083576752567528,-0.00589632014721794,0.007560065123202019,0.9904430501838268
2014-12-04,1,0.001834338751238679,0.001966026703694923,-0.005934149979896518,0.007560065123202019,0.9900149351717272
2014-12-08,1,0.0016481258403536938,0.0017516840053466817,-0.00517168724692986,0.00908318548131546,0.9901667708678783
2014-12-10,1,0.0011121932368478012,0.0011617288210752862,-0.00498901687820406,0.010237995673068578,0.9902189240265066
2014-12-12,1,0.00035134548457147277,0.00040810330271793876,-0.004861592099739603,0.010237995673068578,0.9915278715989049
2014-12-16,1,0.0005577197135234956,0.0005841408882750233,-0.00498901687820406,0.010237995673068578,0.9916919796110092
2014-12-18,1,0.0017950624368071565,0.0019115018119835554,-0.00498901687820406,0.004885188608458316,0.992454696400893
2014-12-22,1,0.0017030097766419477,0.0017842160905279332,-0.0049995556528006635,0.004885188608458316,0.9921475691060434
2014-12-24,1,0.0015813703559367297,0.0016316788468064866,-0.004861592099739603,0.004065255951149587,0.9925996447874391
2014-12-29,1,0.001185036683946328,0.0011920499170652733,-0.00558464645239937,0.004065255951149587,0.9919041644581335
2014-12-31,1,0.0003641151252824873,0.0004669761783059142,-0.00558464645239937,0.007778197701142391,0.9914364072572481
2015-01-05,-1,-0.0003054191629172714,-0.00012676463135730175,-0.0035443959077826287,0.013729726539046522,0.9909095455376153
2015-01-07,1,0.00033163131232822105,0.00041917206838400526,-0.0035443959077826287,0.014900011977452483,0.9899795761912751
2015-01-09,1,0.0011273262932632725,0.00116118034314133,-0.00558464645239937,0.014179833797355833,0.9907174977528566
2015-01-13,1,0.0012715061349922719,0.0013429364611235132,-0.00558464645239937,0.014179833797355833,0.9903372861952904
2015-01-15,1,0.0009328026148609613,0.0009530015785353505,-0.0027268878994204902,0.014179833797355833,0.9901279887099551
2015-01-20,1,0.0014793698363262326,0.0015729776373104784,-0.0027268878994204902,0.013637156348943705,0.9910510679998359
2015-01-22,1,0.0015403224589888636,0.0016344164883702094,-0.00045383617953333866,0.012777266928914675,0.9922278526987177
2015-01-26,1,0.0017593212859695038,0.0018860281340871176,-0.002120539164465094,0.012777266928914675,0.9922734637585532
2015-01-28,1,0.0011843148148668863,0.0012472312672476104,-0.0017822716681480796,0.012777266928914675,0.9929097058614252
2015-01-30,1,0.001014392476508849,0.0010576593120810848,-0.0017822716681480796,0.010822085669431027,0.9936112021046861
2015-02-03,1,0.0016543720483716505,0.0017726725864829326,-0.0031009262603651417,0.005398404844458595,0.9941451678541375
2015-02-05,1,0.0024825601405060412,0.0026945106780841446,-0.003644327839881277,0.0029855263592164444,0.9950102942211515
2015-02-09,1,0.002108636749929167,0.002272511924888349,-0.003644327839881277,0.0033743259214545733,0.9944835059498695
2015-02-11,1,0.002478656639010933,0.0026967278394670023,-0.003644327839881277,0.0033743259214545733,0.9942486200521685
2015-02-13,1,0.002498143777588596,0.0026977459834108667,-0.004897387332236191,0.003173109008202327,0.9932756817990572
2015-02-18,1,0.00252263233301754,0.002736379501184262,-0.004897387332236191,0.004155823063851656,0.9925825849149333
2015-02-20,1,0.002093476733202269,0.002212239598013625,-0.004897387332236191,0.005160907712636786,0.9927516584716624
2015-02-24,1,0.001970477920992874,0.0020741217214378708,-0.005792780037107271,0.005160907712636786,0.9924376628331326
2015-02-26,1,0.0016224497740821198,0.0016597766306973866,-0.00678017477140078,0.007748799881148845,0.9914573979976871
2015-03-02,1,0.0015532487371128435,0.0015808778102548964,-0.005792780037107271,0.007748799881148845,0.991474446752693
2015-03-04,1,0.0010731494280836514,0.0011010414835084248,-0.004483157116423759,0.007748799881148845,0.9918898625511806
2015-03-06,1,0.00011311018605084826,0.00030156468830217485,-0.0019880828625444885,0.007748799881148845,0.9921394482580509
2015-03-10,-1,-0.0004344072290150409,-0.00016876042775843198,-0.0019880828625444885,0.008870582363136939,0.9924305596822789
2015-03-12,-1,-0.0004032504514316339,-0.00010752759435585528,-0.004701394443057904,0.005121197642683221,0.9927153317344701
2015-03-16,0,-7.963003759347967e-05,0.00015764833353476592,-0.0041808630831990535,0.002948397078466281,0.993737755850617
2015-03-18,1,0.0005638810092254325,0.0006947245118092773,-0.0041808630831990535,0.0027424140464123873,0.9941700509173791
2015-03-20,1,0.0010600896918041337,0.0010942447664532028,-0.004827008257046126,0.0027424140464123873,0.9929730885692518
2015-03-24,1,0.0008837215464066695,0.0009083485882354116,-0.0041808630831990535,0.004875675023523118,0.9931393475538315
2015-03-26,1,0.0006371406446483365,0.0006651241701888129,-0.0041808630831990535,0.004875675023523118,0.9938333283092707
2015-03-30,1,0.0012517685185430333,0.0013188393490506571,-0.0041808630831990535,0.004875675023523118,0.9942920726138028
2015-04-01,1,0.001171976129250852,0.001225485281836964,-0.006111288737136175,0.004875675023523118,0.993291727933076
2015-04-06,1,0.0010298700489214368,0.0010525190840251213,-0.006111288737136175,0.0050379691247138874,0.9927017460824777
2015-04-08,1,0.0011177609223230927,0.0011603286751773944,-0.006714832876925839,0.0050379691247138874,0.992005282275973
2015-04-10,1,0.0006921478824913949,0.0006954631971958917,-0.004734570390550625,0.006243933566067148,0.9921946420713884
2015-04-14,1,0.000396798671486341,0.00043783362924266513,-0.0036915382965215034,0.006243933566067148,0.9923514064416626
2015-04-16,1,0.0003298489292895675,0.0003798210221190126,-0.0036552774555132753,0.00881035281440698,0.9921437794608424
2015-04-20,0,-2.2896517232424756e-05,7.727879865417655e-05,-0.0022306309895418677,0.006596627155774056,0.9929799144469617
2015-04-22,1,0.0002557101147385647,0.0003183988296810626,-0.0035316012996616463,0.006596627155774056,0.9931637328976606
2015-04-24,1,0.0005111848680848792,0.0005283690807077594,-0.003170347880097931,0.005368789271553648,0.9936165138008777
2015-04-28,1,0.0004479334655235641,0.0004800028447162355,-0.004440385988543013,0.006596627155774056,0.9928471753251205
2015-04-30,-1,-0.00041959915051433986,-0.0002769093442892241,-0.003170347880097931,0.006596627155774056,0.9935881353020893
2015-05-04,-1,-0.00016628883203533717,-4.7106688238359254e-05,-0.003170347880097931,0.0053183533783422434,0.9940160102723536
2015-05-06,-1,-0.000482868448772387,-0.000298211160980658,-0.003170347880097931,0.0053183533783422434,0.9943330930781119
2015-05-08,-1,-0.0004454186772971852,-0.00023091785246532551,-0.004440385988543013,0.0032480733960140503,0.9947757549009764
2015-05-12,-1,-0.0005556678897085449,-0.0003308614352824185,-0.004679175369057759,0.0053183533783422434,0.9940019672366092
2015-05-14,1,0.0003954188036811992,0.0004474970154237357,-0.006106475657831976,0.0053183533783422434,0.993717847311581
2015-05-18,1,0.0006475935791055149,0.0006598867888452886,-0.00787053913022763,0.005577395909810582,0.9928105720532
2015-05-20,1,0.000494359676804712,0.0005238796677081665,-0.00787053913022763,0.008049758130722501,0.9919910266018918
2015-05-22,1,0.00011950554553100091,0.00020605475738332468,-0.00787053913022763,0.011678465209305069,0.9904633884146099
2015-05-27,-1,-0.0002586146835218384,-9.511785173468726e-05,-0.00787053913022763,0.00959977069400246,0.9909834494803461
2015-05-29,-1,-0.0009391602077007189,-0.0006679473497566795,-0.005261504779655576,0.00959977069400246,0.991227612192484
2015-06-02,-1,-0.0006602375816915273,-0.00044452716110661916,-0.007927649271719186,0.00959977069400246,0.9902711761220293
2015-06-04,-1,-0.0005643198217066779,-0.00038116209683703947,-0.005261504779655576,0.010134883990027606,0.9906186349604208
2015-06-08,-1,-0.0008781866216789313,-0.0006558703789195535,-0.0040631519495859005,0.010134883990027606,0.9902812962576452
2015-06-10,-1,-0.0007708029364894588,-0.0005502771086833499,-0.005001323701669607,0.009889754491366542,0.9897414731865959
2015-06-12,-1,-0.0005510819802381332,-0.00038262299777326456,-0.0033063357285849576,0.012713577412244305,0.9889228065557509
2015-06-16,-1,-0.0004075830730248827,-0.00026229157312885595,-0.0025748554797042703,0.009889754491366542,0.9897801704212956
2015-06-18,1,0.0004231878506904969,0.0004607773175107768,-0.0025748554797042703,0.009754638402425629,0.9904310981038241
2015-06-22,1,0.0011400179905596904,0.001152790314444202,-0.0033063357285849576,0.007924683376207367,0.9918539724280843
2015-06-24,1,0.0005818688390745333,0.0006518684119634444,-0.0025748554797042703,0.007924683376207367,0.9914652992957772
2015-06-26,1,0.0009495686071364238,0.0009573207791081968,-0.00812514778638337,0.007924683376207367,0.9906010473096208
2015-06-30,1,0.0006340748342864326,0.0006607738908777649,-0.004279875555235083,0.009409308079778564,0.990417805495633
2015-07-02,1,0.0007626095153542096,0.0007901557042330541,-0.007939659027536343,0.007924683376207367,0.99074576716583
2015-07-07,1,0.001276031535906069,0.0013943905783278532,-0.007939659027536343,0.007465872635005133,0.9909741871436774
2015-07-09,1,0.00124623608650373,0.001379589356961591,-0.007939659027536343,0.007465872635005133,0.9912216576209357
2015-07-13,1,0.0021037918086541816,0.002354303332978015,-0.007939659027536343,0.006888531854743137,0.9918026197184102
2015-07-15,1,0.0020334766455257737,0.00227143073471024,-0.008388880503482209,0.006888531854743137,0.9913840683588264
2015-07-17,1,0.002221765036615772,0.0024803423493536996,-0.008388880503482209,0.006888531854743137,0.9917353894258502
2015-07-21,1,0.0018440392044726836,0.00204018997844721,-0.007939659027536343,0.006888531854743137,0.992037975531537
2015-07-23,1,0.0015984460687011068,0.0017627959981059613,-0.007939659027536343,0.006142048583676137,0.9918436940722684
2015-07-27,1,0.0010082259411906703,0.0010567385780636332,-0.008388880503482209,0.006142048583676137,0.9886069438438018
2015-07-29,1,0.0015343403811690528,0.0016548379727547476,-0.010511120993765465,0.0055676708642858124,0.9865866109226809
2015-07-31,1,0.001002777348325503,0.0010289099093908907,-0.010511120993765465,0.006216435862580857,0.9859734899402742
2015-08-04,1,0.0015177153931621818,0.0016395750332315866,-0.016552088706593977,0.006216435862580857,0.9841664784505237
2015-08-06,1,0.001246924959330288,0.001339681839610335,-0.015640638449602715,0.0066217846891378305,0.9838364393014113
2015-08-10,1,0.0018349955957298512,0.002030989293573024,-0.016695043644298392,0.0066217846891378305,0.9824862942459709
2015-08-12,1,0.001783612356873475,0.00197762100072605,-0.01699880256830017,0.007716481971185261,0.9819030561920201
2015-08-14,1,0.0018878442047157537,0.0020773794942163214,-0.01699880256830017,0.007221979622038061,0.9816888640937758
2015-08-18,1,0.0017172461328958037,0.0018575262302195216,-0.01699880256830017,0.011509346491504941,0.9808956704396602
2015-08-20,1,0.0012998864447236627,0.0014073996775022688,-0.01699880256830017,0.011509346491504941,0.9812557566819466
2015-08-24,-1,-0.0011136999489642862,-0.0009243814797648269,-0.016561195328273045,0.015465954111023852,0.9833162780871515
2015-08-26,1,9.857440072410349e-05,0.00014177723601190568,-0.013377195013943985,0.013260014286356378,0.9862734162202285
2015-08-28,1,0.0008009429361528948,0.0008513298998025541,-0.01699880256830017,0.010325092873207327,0.9857583190475697
2015-09-01,-1,-0.0008040931569768584,-0.0006367234694946064,-0.010547557809065203,0.013260014286356378,0.9863855643945072
2015-09-03,1,2.843376756927392e-05,0.00010796800611032203,-0.010547557809065203,0.010980863280175286,0.98742574621259
2015-09-08,1,0.00025863078680304105,0.0003135910944632943,-0.010151685822586857,0.010980863280175286,0.9887005873669525
2015-09-10,-1,-0.00015725475867416408,-4.301465937081464e-05,-0.0012998907007157091,0.012901404324682435,0.9882425584774917
2015-09-14,-1,-0.00032579890509292425,-0.00020095706976904518,0.0024400847092596444,0.012901404324682435,0.9881205255664076
2015-09-16,1,0.000379982501056299,0.00041812688976037074,-0.007594771375638,0.01278549376580724,0.9887973854730009
2015-09-18,1,7.800319331984195e-05,0.0001497301934662342,-0.0009224977839343068,0.01278549376580724,0.9889254800985582
2015-09-22,-1,-0.0005259354700986566,-0.0003459029494929946,0.0011643294621635747,0.010980863280175286,0.9897328861391157
2015-09-24,1,5.65516827256622e-05,0.00015346774094014692,7.103868617122861e-05,0.011017185862811078,0.9896254598334132
2015-09-28,-1,-0.0010777781379803847,-0.0008459587230927861,0.00027649722360617893,0.012901404324682435,0.9902970000055806
2015-09-30,-1,-0.00011575729593258803,-1.6952551081781428e-05,-0.0014118179295595063,0.012340214160299843,0.9912477964315459
2015-10-02,1,0.0003192878408187722,0.00037266105618073426,-0.0020993056786493447,0.012340214160299843,0.992105275578963
2015-10-06,1,0.0004820673764180857,0.0005030928406144707,-0.0020993056786493447,0.010618769984250952,0.9925854403432085
2015-10-08,1,0.0014045651353259024,0.0015104848811032668,-0.0020993056786493447,0.008906007291467621,0.9942595760186942
2015-10-12,1,0.001549515165917281,0.0016631531003067892,-0.002398660464042326,0.00422277130389121,0.9941957990365536
2015-10-14,1,0.0009010990262079331,0.0009131379537735574,-0.0013805191802401624,0.009133528659956897,0.9946433481720105
2015-10-16,1,0.0011293948995060258,0.0011713272340075705,-0.002398660464042326,0.00422277130389121,0.9939463768894437
2015-10-20,1,0.0011689255875243641,0.0011974413303993646,-0.002398660464042326,0.0048533393406788175,0.9937002576546544
2015-10-22,1,0.0015882369498520874,0.001672769519640468,-0.0020993056786493447,0.0051977568335396405,0.9943741160402431
2015-10-26,1,0.0016915898806988692,0.0017785033455276949,-0.002919945103712211,0.0031976129366081763,0.994733799334813
2015-10-28,1,0.0017193192900073532,0.0017908703803078496,-0.005644890517582877,0.0022402702496772675,0.9947508232904874
2015-10-30,1,0.0016786481576100327,0.0017555206846607654,-0.005644890517582877,0.003692333286462212,0.9947241885168253
2015-11-03,1,0.0012470527593763953,0.0012595129176061082,-0.005644890517582877,0.004837038398534095,0.9942686167943483
2015-11-05,1,0.0012414284561267478,0.0012521074836176962,-0.007283432787940712,0.005583196094880372,0.9923546706226575
2015-11-09,1,0.0012382766301438847,0.0012900476152513845,-0.009348098090471274,0.005583196094880372,0.9922973875808749
2015-11-11,1,0.0020641331564537537,0.0022845171727723552,-0.01068270470556976,0.0049276167328082005,0.9917855374552775
2015-11-13,1,0.0011797952044874762,0.0012607479068859684,-0.009353921213543136,0.005583196094880372,0.9911097618914061
2015-11-17,1,0.0014329054714367203,0.0015423382366737395,-0.009353921213543136,0.005254758272645661,0.9913316401337721
2015-11-19,1,0.001264942146536438,0.0013027276779425927,-0.01144589764306831,0.0049276167328082005,0.9904458048162715
2015-11-23,1,0.001195241944133223,0.0012402187727643716,-0.01144589764306831,0.005529193709106277,0.9901195883277816
2015-11-25,1,0.0010376733910780916,0.0010793758669004638,-0.010099644781826102,0.005631007614259731,0.9902666666684075
2015-11-30,1,0.0010813582808419139,0.0011132739562710148,-0.010099644781826102,0.007040244140811482,0.9900690478740208
2015-12-02,1,0.001329371664046505,0.0014420969725135544,-0.013617085603861056,0.005631007614259731,0.9896784030956537
2015-12-04,1,0.0011769097131254715,0.0012673853951164393,-0.013617085603861056,0.005385538079342649,0.9903762357717744
2015-12-08,1,0.0010327044425411636,0.0011173185640602173,-0.013617085603861056,0.005385538079342649,0.9898713690896581
2015-12-10,1,0.000531488869086931,0.0005354621939169712,-0.011811868095975106,0.005385538079342649,0.9903063789141727
2015-12-14,1,0.0002732073712990898,0.0003134014354249702,-0.011811868095975106,0.005385538079342649,0.9901160670925779
2015-12-16,0,-9.345928824846075e-05,1.7111898626273592e-05,-0.013617085603861056,0.005631007614259731,0.9884286705271275
2015-12-18,-1,-0.0002873290404438508,-0.00020197830156551787,-0.011811868095975106,0.00706123644882688,0.9885555534502768
2015-12-22,0,-7.192798037339835e-05,4.829065589199332e-06,-0.011811868095975106,0.00860939514297558,0.9879517548208254
2015-12-24,1,6.461081571302487e-05,0.00011151210142983063,-0.013349709422363668,0.011812823233477205,0.9870281098134376
2015-12-29,1,0.0002030090130429385,0.000245107663835316,-0.013349709422363668,0.00925622178699039,0.9867761827109521
2015-12-31,-1,-0.00031200170076582537,-0.00023427248341533193,-0.010653237366126743,0.014209664317379408,0.9862416865965999
2016-01-05,-1,-0.0008236223886898273,-0.0006822315799607348,-0.010653237366126743,0.01641321527648955,0.9859339897672034
2016-01-07,-1,-0.0011300357723500395,-0.0009678960826775751,-0.01131881247103193,0.018415829065824382,0.984896135907208
2016-01-11,-1,-0.001112460780137896,-0.0009616845798023801,-0.014204371884340181,0.018415829065824382,0.9839215527714593
2016-01-13,-1,-0.0017283452485148283,-0.0014803061952681914,-0.011855794904702715,0.018415829065824382,0.9850952510092331
2016-01-15,-1,-0.002768274050575904,-0.002300932972896968,-0.010572917139927444,0.015933293140535584,0.9854442126549073
2016-01-20,-1,-0.00165381390085266,-0.001369638415997923,-0.010572917139927444,0.015372133876027434,0.9856107001742135
2016-01-22,-1,-0.0006660851102107523,-0.000524382240458114,-0.010572917139927444,0.01410533346331427,0.9863866680121776
2016-01-26,-1,-0.0014237577512261359,-0.0011365733191269333,-0.008189747148885637,0.014105163090575057,0.9867176469729134
2016-01-28,-1,-0.0010898040356178943,-0.0008798297880919183,-0.008368741293442566,0.014105163090575057,0.9862672447570608
2016-02-01,-1,-0.00011488174321766693,-2.4953257512158546e-05,-0.011855794904702715,0.014105163090575057,0.9859229418247195
2016-02-03,-1,-0.00017970277348451966,-7.249038656287273e-05,-0.010861654256328799,0.013293390234425778,0.986991249997427
2016-02-05,-1,-0.0004438165169660633,-0.0002929202807355257,-0.008285992854352756,0.012289010506328689,0.9884897501622055
2016-02-09,-1,-0.000800540752412282,-0.0006363686344267082,-0.007506969688093222,0.012289010506328689,0.9893178928750157
2016-02-11,-1,-0.0011191670379848582,-0.000903701674656675,-0.006418129270563796,0.013293390234425778,0.989201951590524
2016-02-16,-1,-0.000490518249139549,-0.0003405882500857851,-0.006418129270563796,0.011489839003102721,0.9904288847836522
2016-02-18,1,0.00022429213712582365,0.00027402757968907087,-0.006418129270563796,0.011254770654792353,0.9906310486950299
2016-02-22,1,8.175245724904422e-06,0.00012736995067876136,-0.007506969688093222,0.009888849645438213,0.9904280250491835
2016-02-24,1,0.00036244909881987387,0.0004131080070647283,-0.006470077091933006,0.007689399246904697,0.9908820217347659
2016-02-26,1,0.00045507442764744483,0.000474399121805449,-0.005555615345015464,0.006707003570821731,0.9917533942384826
2016-03-01,1,0.0005273673451042875,0.0005383168290592925,-0.005080146189330455,0.006707003570821731,0.9931038960570696
2016-03-03,1,0.0006190540006460693,0.000662551917157867,-0.0031992260918097923,0.007254585407701444,0.9931514440117525
2016-03-07,1,0.0005638380353693154,0.0006143582336834579,-0.005080146189330455,0.007254585407701444,0.9923593041571755
2016-03-09,1,0.00029140754460414616,0.0002994312303285861,-0.005080146189330455,0.007732015099517206,0.9918898459526936
2016-03-11,1,0.0007677059480902589,0.0008352234902312518,-0.005804360868505014,0.007254585407701444,0.9924808389363866
2016-03-15,1,0.0009923407514467438,0.0011010773730458284,-0.005804360868505014,0.007254585407701444,0.9925961501762798
2016-03-17,1,0.0014981226139264055,0.0016955956265065392,-0.006403444615676353,0.004683169491476439,0.9930314642219471
2016-03-21,1,0.0015578691032989496,0.001775930276337173,-0.005583015574018713,0.004683169491476439,0.9934937835854118
2016-03-23,1,0.0016661123367553315,0.0019122248426844631,-0.007598193213653754,0.004683169491476439,0.9925916999250108
2016-03-28,1,0.0014636731873800778,0.0016810145002353683,-0.007598193213653754,0.005598918047063851,0.9925890391034095
2016-03-30,1,0.0018908146073521887,0.0021507740652172,-0.007598193213653754,0.004683169491476439,0.9934454508606738
2016-04-01,1,0.0021724690057874493,0.0024718873126589793,-0.008799603782913749,0.0019547112419297176,0.9927748943618137
2016-04-05,1,0.0015145030446140108,0.0017159284102828557,-0.006495326045129022,0.0034278704397870483,0.9935050621043736
2016-04-07,1,0.0014678014098063815,0.0016780379853439755,-0.006212726464340942,0.0029561948555172426,0.9945040904002674
2016-04-11,1,0.0011258021806827968,0.0012583697079889362,-0.0046484211902448076,0.005600613238707565,0.9929334680995048
2016-04-13,1,0.0013785255535184848,0.001561323207162089,-0.0046484211902448076,0.008812912340272944,0.9921136203953735
2016-04-15,1,0.0013627958544799982,0.001558835455906457,-0.004679048333395697,0.008812912340272944,0.9916653701746521
2016-04-19,1,0.0015086955484442314,0.0017165502286067493,-0.006895796234882354,0.00503076646507097,0.9915096267743659
2016-04-21,1,0.0008071774122552316,0.0009080379738428939,-0.006387640751625458,0.00503076646507097,0.9920178049745084
2016-04-25,1,0.0010038240659362729,0.0011423262252375716,-0.006387640751625458,0.0045099456169953814,0.9920248193524025
2016-04-27,1,0.00102526658326814,0.001160164911243198,-0.006387640751625458,0.007250449796046179,0.9907702636239157
2016-04-29,1,0.0005609597416149034,0.0006273042373090986,-0.004518363504694869,0.008645349050110586,0.9910988412376719
2016-05-03,1,0.0006583750008758783,0.0007242496136218387,-0.004146171893327342,0.006949577049040917,0.9917082993371121
2016-05-05,1,0.0006165232077902007,0.0006584530205132211,-0.005564580779373093,0.007326402133435275,0.9912869613004794
2016-05-09,1,0.0015725560223188461,0.0017351743169639832,-0.005564580779373093,0.005751043151716319,0.9931182792278895
2016-05-11,1,0.0019113156178365651,0.0021186033899213354,-0.005564580779373093,0.005751043151716319,0.9936972945468309
2016-05-13,1,0.0011581200756968276,0.0012278898787584616,-0.005905586265522973,0.005751043151716319,0.9935474469544467
2016-05-17,1,0.0011122408948957192,0.0011958889282010516,-0.005564580779373093,0.005751043151716319,0.9942052317363019
2016-05-19,1,0.0007344130691533577,0.0007669694366428902,-0.004113742626788274,0.005751043151716319,0.9938081644862019
2016-05-23,1,0.0008352760142523011,0.0008960892737652437,-0.0017542407326496525,0.005876651513181105,0.9940316596316009
2016-05-25,1,0.0008357452652945211,0.0008549950602323086,-0.0022270436946649026,0.005876651513181105,0.9943741908123808
2016-05-27,1,0.000702335114334119,0.0007185537391708986,-0.007365681869457752,0.005407365417895427,0.9932592084727414
2016-06-01,1,0.0004948491854781417,0.0005663396077466306,-0.007365681869457752,0.007329287310306722,0.9917523122003217
2016-06-03,1,0.0003331485761129231,0.00043446798336709154,-0.007365681869457752,0.008493385214273032,0.9912814134637319
2016-06-07,1,9.483309034505398e-05,0.00023639084003095474,-0.007365681869457752,0.008493385214273032,0.9910421237457613
2016-06-09,1,0.00025214040297372685,0.00039554967476932546,-0.007365681869457752,0.009527630352985155,0.990799314436815
2016-06-13,0,-7.053752614114624e-05,9.822536795090484e-05,-0.0035766265308419037,0.009527630352985155,0.9912408559010472
2016-06-15,1,0.00031781829656600796,0.0004098604737088926,-0.0035766265308419037,0.009527630352985155,0.9911660214670689
2016-06-17,-1,-0.00023400034445061663,-6.952550135348631e-05,-0.0020686524189663935,0.009527630352985155,0.9920866065954849
2016-06-21,0,-0.00016153400172010145,6.208172915844626e-06,-0.0020686524189663935,0.007019362173356392,0.9922813975919391
2016-06-23,1,0.00046554245273668776,0.0005103317424185432,-0.0020686524189663935,0.005142691756590638,0.9926206561504957
2016-06-27,-1,-0.0005402541209187413,-0.00037682217289839923,-0.0010421461690761258,0.0052643181970528025,0.9936894184778693
2016-06-29,1,0.0006106659984309317,0.0006452295712355928,-0.0013574591982783632,0.005043753738114758,0.9949884291005241
2016-07-01,1,0.0006772277082572396,0.000747684788542336,-0.0020686524189663935,0.004831718049656231,0.9958609479695437
2016-07-06,1,0.00038841944726130404,0.0005201760823436274,-0.0027220863400185076,0.004783760652167647,0.9937681546981206
2016-07-08,1,0.0010653636393801883,0.0010660530158080653,-0.0032945181004766766,0.004783760652167647,0.9935664074574179
2016-07-12,1,0.0014098754445321777,0.0014859420022004667,-0.004843969120648129,0.003764075433941627,0.993165885103336
2016-07-14,1,0.0016446318405404074,0.0017770887463195557,-0.007832294323442391,0.0026201320184673837,0.9927416393602769
2016-07-18,1,0.0014809625401031366,0.00159582722769057,-0.007832294323442391,0.0026201320184673837,0.9927310665597238
2016-07-20,1,0.001478672809013481,0.0015851098571951266,-0.008350263276633478,0.0026932823315095134,0.9916191572573714
2016-07-22,1,0.001354843493947752,0.0014453558696924849,-0.007832294323442391,0.0007003083236059235,0.9920880491564863
2016-07-26,1,0.0011762072549876099,0.0012200237012856296,-0.007832294323442391,0.002173890150686139,0.9918449434509738
2016-07-28,1,0.0008709362057559911,0.0008836151101596589,-0.00788830783328415,0.0021726084708700924,0.9918780789374748
2016-08-01,1,0.0005933499483808836,0.0006450909915699692,-0.00788830783328415,0.0029217978285523984,0.9919141863634761
2016-08-03,-1,-0.0009956856712827736,-0.0007807876442524201,-0.0037137101506642335,0.0029217978285523984,0.9945367619044712
2016-08-05,-1,-0.0007014680206721231,-0.0005288483538125114,-0.003412293173804199,0.0032862642619988407,0.9945789476036492
2016-08-09,-1,-0.0006946371736675489,-0.0005523957412052654,-0.004204065939728841,0.0032862642619988407,0.9947101512224013
2016-08-11,-1,-0.0010508807720849243,-0.0008612612142169038,-0.00565591350712961,0.0032862642619988407,0.9938027532639376
2016-08-15,-1,-0.0012607945824281983,-0.0010431885224239845,-0.006685089741384468,0.004576658159240046,0.9926639240303022
2016-08-17,-1,-0.001530016856344143,-0.0012659291347859578,-0.006685089741384468,0.004576658159240046,0.9927264675355829
2016-08-19,-1,-0.0011452389954198713,-0.0009665996986085564,-0.007488540734313764,0.004576658159240046,0.9924263663368718
2016-08-23,-1,-0.00032817598569018203,-0.0002664483231590028,-0.007488540734313764,0.004576658159240046,0.9920323263157489
2016-08-25,-1,-0.001230379280407807,-0.001022182302988882,-0.007488540734313764,0.005721190519465026,0.9919629775247946
2016-08-29,-1,-0.0013439328798110087,-0.0011081637950600535,-0.008576616669482654,0.005721190519465026,0.9916488965867523
2016-08-31,-1,-0.001586953987603334,-0.0013118766253818036,-0.008576616669482654,0.005721190519465026,0.9915888642063259
2016-09-02,-1,-0.0010477620042892049,-0.0008439558473290835,-0.008576616669482654,0.0030089372063903355,0.9919447245500036
2016-09-07,-1,-0.001646047576170406,-0.0013617576954891332,-0.00878853984829719,0.004715728312617109,0.991701082371793
2016-09-09,-1,-0.0024800665387359733,-0.0021153692530672544,-0.008330329652906344,0.008111710225791085,0.992005941653067
2016-09-13,-1,-0.0033052159439631076,-0.002804137932432208,-0.008330329652906344,0.006223278626255122,0.9923764750734044
2016-09-15,-1,-0.002984168067385971,-0.0025287029801198484,-0.007462105010379245,0.006223278626255122,0.9929755821078476
2016-09-19,-1,-0.0031854327306053403,-0.00271082991955739,-0.005874551762308245,0.006223278626255122,0.9930087140394622
2016-09-21,-1,-0.002704915225988632,-0.0022599638491128237,-0.005874551762308245,0.004093545303397833,0.9941985838520517
2016-09-23,-1,-0.0026552345866053414,-0.0022316514175124897,-0.004959971057385948,0.003379414035827504,0.99498392506808
2016-09-27,-1,-0.0027300402985725764,-0.0023083591243226787,-0.004959971057385948,0.0038819308070401747,0.994546022261608
2016-09-29,-1,-0.0019133352037756888,-0.0016656892474224202,-0.005652872386931828,0.0038819308070401747,0.9929643828424467
2016-10-03,-1,-0.0011044535944338845,-0.000978322353402074,-0.005652872386931828,0.006223278626255122,0.9921260509668411
2016-10-05,-1,-0.0012623632769079582,-0.0011026787118997065,-0.003926816869043474,0.0038819308070401747,0.9927591604301278
2016-10-07,-1,-0.0012685419624675334,-0.0011011462607813818,-0.003926816869043474,0.0028578796156179145,0.9934752819158136
2016-10-11,-1,-0.0015589518773364377,-0.0013446811895980542,-0.0027730489497315406,0.004013398127444629,0.9932000441077954
2016-10-13,-1,-0.001394917908297492,-0.0012011257482011117,-0.003103172901115767,0.0033302242720041576,0.9933439324552538
2016-10-17,-1,-0.001029787569295377,-0.0009021486670693806,-0.004362364853770744,0.0040774433323322486,0.9930376513573619
2016-10-19,-1,-0.0008613686359097866,-0.000765525900566564,-0.004362364853770744,0.008964692205211611,0.9916731810072557
2016-10-21,-1,-0.0009292823496008914,-0.0008351047158749042,-0.00452675060258486,0.013756498990284107,0.9906495544950159
2016-10-25,-1,-0.0007855298867781467,-0.000712120630874342,-0.0024203647386308374,0.011815959410827862,0.9907106862238836
2016-10-27,-1,-0.0014245727712316747,-0.0012835668161492904,-0.002235662942515762,0.012646490214123118,0.9914617924923711
2016-10-31,-1,-0.0007973324853846218,-0.000740822689308802,-0.0036233181756170478,0.01130380223359841,0.9923592676687383
2016-11-02,-1,-0.0009582926708201914,-0.0008659117959912443,-0.005626546147722883,0.01130380223359841,0.9911097473947391
2016-11-04,-1,-0.00107989163758106,-0.0009769235387300042,-0.004578565031855126,0.01130380223359841,0.9911140519875481
2016-11-08,-1,-0.0006359945361159864,-0.0005708216901591036,-0.004578565031855126,0.01130380223359841,0.9914698773138404
2016-11-10,-1,-0.0005562646911344026,-0.0005136851225727668,-0.003794504956096966,0.01130380223359841,0.9918901063486228
2016-11-14,-1,-0.00043608505531756494,-0.0004127255663331931,-0.003495678639661945,0.012153599384194526,0.9918044805926882
2016-11-16,-1,-7.011495296832415e-05,-4.8465288415819796e-05,-0.003495678639661945,0.011193914810566141,0.9927814320501397
2016-11-18,1,0.0007494897577639684,0.0008939609725640478,-0.0025376479744323352,0.008945058349157204,0.9938253638324419
2016-11-22,1,0.001560370909708925,0.0018480355272891139,-0.003495678639661945,0.005166055677874972,0.9934812120796037
2016-11-25,1,0.0017630603376536489,0.002074987791254901,-0.003896202061803451,0.0031484080422144577,0.9935823919056338
2016-11-29,1,0.0017411846437114715,0.002065021057325794,-0.003896202061803451,0.0031484080422144577,0.9935454727742995
2016-12-01,1,0.001064070402934694,0.0013066948852141762,-0.002594710234592308,0.0031484080422144577,0.9947960883400421
2016-12-05,1,0.0012305367925373322,0.0015020106229327187,-0.002594710234592308,0.010403919566680846,0.9939069131032925
2016-12-07,1,0.0015369237920301714,0.0018470097239184184,-0.0013463992001104942,0.01028843939628274,0.9942211026220902
2016-12-09,1,0.0016872100436925842,0.0020306409762590964,-0.0028240468762538956,0.01028843939628274,0.9935003104727324
2016-12-13,1,0.0019972385520664482,0.0023771516697344086,-0.0028240468762538956,0.008574096453524574,0.9937226046008539
2016-12-15,1,0.0023857239329871573,0.0028253554470416813,-0.0028240468762538956,0.008058733808190449,0.9939876660253861
2016-12-19,1,0.002387050912199093,0.0028240632276846003,-0.0050960517607825315,0.008058733808190449,0.9934919032795525
2016-12-21,1,0.002626669388952553,0.0030894973701561853,-0.007049967522737106,0.004728757143948567,0.9938510949265333
2016-12-23,1,0.001813858699456632,0.002085194350519127,-0.0041026632505446305,0.004158798458775359,0.9944049833036652
2016-12-28,1,0.0016752923187607375,0.0019386539157087374,-0.004034051932741889,0.004158798458775359,0.9945695382864653
2016-12-30,1,0.0012715491475747706,0.0014648289238351183,-0.004034051932741889,0.004158798458775359,0.9947390705540666
2017-01-04,1,0.0017712808858575942,0.0020173818419229493,-0.00642573712935726,0.00208843330216213,0.9944618812312698
2017-01-06,1,0.00193077981934255,0.0021892247813273535,-0.00642573712935726,0.00208843330216213,0.9944279708536453
2017-01-10,1,0.00146763258951051,0.0016600218016158013,-0.004607533521090062,0.0024545877269173087,0.9946624372376087
2017-01-12,1,0.0017149387054983306,0.001933953658947988,-0.004607533521090062,0.00208843330216213,0.9939960004576329
2017-01-17,1,0.0021113033791795768,0.002405943047302692,-0.004607533521090062,0.00208843330216213,0.9936944166659631
2017-01-19,1,0.001636966250972611,0.0018491933064360845,-0.003746571289234755,0.0038721793924556217,0.9942338535214265
2017-01-23,1,0.0014358688197071818,0.0016237480843869444,-0.0018798611221788612,0.00705502458329761,0.9944463672547913
2017-01-25,1,0.001365131092787712,0.0015379463248796795,-0.0006410099511289418,0.009454769732634935,0.9936931681160278
2017-01-27,1,0.0013993989151034746,0.0015963100652073338,-0.0006410099511289418,0.010103431380918997,0.9932314391137754
2017-01-31,1,0.0010111185923970143,0.0011356417386940115,-0.00011685556594390634,0.01200688902642409,0.99273688270757
2017-02-02,1,1.5437134021514164e-05,6.258560422900262e-05,-0.00011685556594390634,0.01200688902642409,0.9927043231780303
2017-02-06,1,0.00018487650870385578,0.00022670328594426786,-0.0020815198664461522,0.010162642167547004,0.9931655132507896
2017-02-08,1,0.0004599165841747871,0.00046097241433834687,-0.0008379806851693821,0.009454769732634935,0.9938303941231789
2017-02-10,1,0.0006026606629152656,0.000607929331912014,-0.0008104915357192362,0.008761827288248612,0.9944880154942068
2017-02-14,1,0.0010375413463638355,0.0011327273133136483,-0.0014748980329106795,0.007663492982146481,0.9947408537594083
2017-02-16,1,0.0011476591501201612,0.001251546437405505,-0.0019967520850008385,0.006764650727109267,0.9947611222282103
2017-02-21,1,0.001226528344718556,0.0013298355161996938,-0.0040312821472607285,0.005744204598385365,0.9943348369409389
2017-02-23,1,0.0015635025891306972,0.0016937772989632552,-0.0040312821472607285,0.004336463557546267,0.994953094722956
2017-02-27,1,0.0015829423334887329,0.0017124378585021607,-0.003914350796139438,0.0028580386182371796,0.9955354359028518
2017-03-01,1,0.0017698902259109233,0.0019189572917231853,-0.003914350796139438,0.002438619248976522,0.9962005696396765
2017-03-03,1,0.0017314141090362916,0.0018771660699481972,-0.003932301731261305,0.001373688896965705,0.9963373426048436
2017-03-07,1,0.0013659373768686342,0.0014497311554937374,-0.00345652325319991,0.002438619248976522,0.9966324343201964
2017-03-09,1,0.0014067874246086836,0.0015006671935129227,-0.00345652325319991,0.0018314672197524973,0.9967878763844366
2017-03-13,1,0.0013793449373760607,0.0014675697465013197,-0.00345652325319991,0.0014491864514996071,0.9970981401678305
2017-03-15,1,0.0012192898962121615,0.001281235138600083,-0.00345652325319991,0.0014491864514996071,0.9971590022738896
2017-03-17,1,0.0010564326632973129,0.0010832639012079543,-0.003921686348659176,0.0014491864514996071,0.9968035292460802
2017-03-21,1,0.0006872117542254915,0.0007025310749563342,-0.0022889124448643816,0.001664813002612345,0.9975040519837293
2017-03-23,1,0.00010009482100694874,0.0003073456441520856,-0.0012061372948611751,0.002659880758541682,0.9969282398296817
2017-03-27,1,0.00018461309948444252,0.00035759594454085503,-8.529211924641176e-05,0.0028503874879102424,0.9966772794300168
2017-03-29,1,0.0001647191800751767,0.00034358886904624277,-0.0008397237049772933,0.0029196717898332305,0.9966399053496892
2017-03-31,-1,-0.00044817233028352475,-0.00017644931271685314,-0.0008397237049772933,0.0029196717898332305,0.9964408286728388
2017-04-04,0,-7.752402678781441e-05,0.00012869095446200465,-0.001023342794975746,0.002908192674312268,0.9965039633894652
2017-04-06,-1,-0.00026637911061899743,-2.933504517945828e-05,-0.0016576486112572107,0.0036144937646241807,0.995770873962281
2017-04-10,-1,-0.00028298624339344325,-4.651946956111966e-05,-0.0016576486112572107,0.0036144937646241807,0.9958056339826272
2017-04-12,1,0.000262321772210871,0.00037727854281096717,-0.0016576486112572107,0.005131160078955157,0.9955840299163977
2017-04-17,1,0.0006194814067079492,0.0006713244540708724,-0.0013793222520191574,0.005131160078955157,0.9958216399009611
2017-04-19,1,0.0009282052547320266,0.0009539572183089825,-0.0025039088816126752,0.005131160078955157,0.9950851176171245
2017-04-21,1,0.0015183650509070822,0.0016386109911758256,-0.0025039088816126752,0.005169369581790348,0.995136940939569
2017-04-25,1,0.0016694763844567154,0.0017890897228721896,-0.0025039088816126752,0.005169369581790348,0.9947874763378532
2017-04-27,1,0.0009662595957763432,0.0010039541161446087,-0.0025039088816126752,0.005908349498656037,0.994383235608514
2017-05-01,1,0.0005946939328434394,0.0006769012216882181,-0.002422567325329611,0.005908349498656037,0.9945227223515506
2017-05-03,1,0.000480708690370207,0.0005593034352373133,-0.0015197734079341137,0.006426670135205027,0.9945284755324301
2017-05-05,1,0.0008226747079701972,0.0008673717373620682,-0.0014971989318967294,0.005504324568235896,0.9950733235799476
2017-05-09,1,0.0008624346736984685,0.0008843535573297375,-0.0023548438972174584,0.005544065427826144,0.9945864765019807
2017-05-11,1,0.0009947596860290842,0.001007305651823133,-0.0038843162890108683,0.005544065427826144,0.9940574332102021
2017-05-15,1,0.0011971790604213871,0.0012322340370238148,-0.0038843162890108683,0.005544065427826144,0.9940218022518196
2017-05-17,1,0.000813253995436428,0.0008141005228281062,-0.0007964781441108043,0.006222164563569847,0.9944706294324815
2017-05-19,1,0.0009734086484964908,0.0009894324897773846,-0.0023548438972174584,0.005544065427826144,0.9945254869952992
2017-05-23,1,0.0011601031591923412,0.0011819599979467337,-0.0037282164964694553,0.005544065427826144,0.9946844879480687
2017-05-25,1,0.0014473090731753216,0.0014844035384298385,-0.003949684106539785,0.004595237650615672,0.995081681690232
2017-05-30,1,0.0017095620746760312,0.0018190707884515663,-0.005048663669557269,0.004595237650615672,0.9944841519862745
2017-06-01,1,0.0018877050058969398,0.0020402996194104272,-0.00669954678950045,0.004595237650615672,0.993321485023153
2017-06-05,1,0.0015003004717843206,0.0015711277639131756,-0.007446380272419821,0.0055390942916559655,0.9929410939248495
2017-06-07,1,0.0014488433516017453,0.0015294364757253698,-0.00669954678950045,0.00602669433171331,0.9929770424111393
2017-06-09,1,0.0009195034038225071,0.000944486128452158,-0.004559060895845494,0.006279052169886728,0.9936538810709703
2017-06-13,1,0.0010555479859782123,0.001075676410160674,-0.005000358139015726,0.006279052169886728,0.9933144208844471
2017-06-15,1,0.0010562170534891653,0.0010601716225050292,-0.005000358139015726,0.00602669433171331,0.993396718512141
2017-06-19,1,0.0008021964627848299,0.0008346063107502757,-0.004559060895845494,0.006585522138389367,0.9932649816883966
2017-06-21,1,0.0006119558196158168,0.0006781342888754974,-0.00396877979879643,0.006513721123561948,0.9934456855959792
2017-06-23,1,0.00016182826480337073,0.0002949896589474781,-0.00396877979879643,0.006513721123561948,0.9934934370648926
2017-06-27,-1,-0.0008732214293180253,-0.0005942343263806796,-0.0015915228675182369,0.006513721123561948,0.9938835424956481
2017-06-29,-1,-0.0011189965843522085,-0.0008236305181036979,-0.0015915228675182369,0.005698702666837831,0.9950117128572266
2017-07-03,-1,-0.001159410735091773,-0.0008702237075799982,-0.0014121720724132526,0.006505838989150771,0.9944122885363922
2017-07-06,-1,-0.0006524217983039153,-0.0004773900726677516,-0.0014121720724132526,0.005696075288700773,0.993156847204696
2017-07-10,-1,-0.00041605136300394485,-0.0002745807437206351,-0.0015915228675182369,0.005696075288700773,0.9928979070952826
2017-07-12,-1,-0.00021950315168874594,-0.00011169192945241583,-0.0019277833125822793,0.005078442352111729,0.9934890867430008
2017-07-14,-1,-0.00011864084736688498,-3.207298403613181e-05,-0.0027067112173355806,0.005078442352111729,0.9932169941437984
2017-07-18,1,0.00038369441016693933,0.0003867927653806358,-0.0027067112173355806,0.005329167491497772,0.9931585905252113
2017-07-20,1,0.0005749044513948654,0.0006029887538485239,-0.004479276544330796,0.004989048181805748,0.9920459113291556
2017-07-24,1,0.0007832571850070883,0.0008486295994621727,-0.005878233297356637,0.004989048181805748,0.9918548900648338
2017-07-26,1,0.0008669430863238493,0.0009454722457729562,-0.005878233297356637,0.005427892777782826,0.9911874658470599
2017-07-28,1,0.0006204953052484702,0.000657799377656266,-0.005436725635664158,0.006160712812056607,0.9909725643684318
2017-08-01,1,0.0011389547721252086,0.0012482887108415442,-0.005436725635664158,0.004437000255797895,0.9918917873994902
2017-08-03,1,0.0002211498434539227,0.0002286832329160245,-0.004332107323766637,0.004437000255797895,0.9936429506808285
2017-08-07,1,0.00017720829569436696,0.0001944363076670786,-0.005364396334780519,0.004085936455780922,0.9936366231637697
2017-08-09,0,-9.846550200527364e-06,2.897295174128682e-05,-0.005364396334780519,0.004255407181948025,0.9935492022228831
2017-08-11,-1,-0.0003407081637149003,-0.0002476231675112674,-0.004184606010134738,0.004694994099642182,0.993214026245869
2017-08-15,0,-6.591834910176186e-05,7.138192344034104e-07,-0.004861821986307685,0.004085936455780922,0.9936916582642759
2017-08-17,-1,-0.0008867264599979943,-0.0007186910642455148,-0.00405872846606002,0.004085936455780922,0.9947469524687074
2017-08-21,-1,-0.0009562881195270202,-0.0007819295708536603,-0.0036197210762738815,0.004255407181948025,0.994471682738481
2017-08-23,-1,-0.0007910696647466761,-0.000627980246524746,-0.0030380418100420495,0.004085936455780922,0.9953386461798573
2017-08-25,-1,-0.0008046275758790444,-0.000638161518130214,-0.0027553086860693694,0.004255407181948025,0.994923111592407
2017-08-29,-1,-0.000685263622559437,-0.0005327145669848912,-0.0027553086860693694,0.005110806241271169,0.9947471155127632
2017-08-31,-1,-0.0005510553829627556,-0.00041607473327281964,-0.0027553086860693694,0.006113088523514398,0.994751963685244
2017-09-05,-1,-0.001030481340072682,-0.0008354068732042536,-0.0012224085362345742,0.006113088523514398,0.9952943299159365
2017-09-07,-1,-0.0007824773897552442,-0.0006218177124696886,-0.001523144274708863,0.006113088523514398,0.9956164904409772
2017-09-11,-1,-0.0004978228800628548,-0.000369386876771901,-0.0021348554535426324,0.004497652693202398,0.9958256745687993
2017-09-13,-1,-0.0003618387337896091,-0.00026899798651944403,-0.0021348554535426324,0.004497652693202398,0.9955794208633609
2017-09-15,-1,-0.00022389339633575972,-0.00015880240940382151,-0.0013615410352281294,0.004007025653335277,0.9957391722044113
2017-09-19,1,1.585061761626048e-05,5.093043543993212e-05,-0.0013615410352281294,0.0030313584171498776,0.9961883837815936
2017-09-21,-1,-0.000219425259463374,-0.00014705954756938217,-0.0008228991699903061,0.003550400030180261,0.9959727786603659
2017-09-25,1,0.00014345299212579148,0.00018204846723231293,-0.0013615410352281294,0.0034132586520713814,0.9964194681351193
2017-09-27,1,0.0005231221104421022,0.0005471151199251341,-0.0023313105818872143,0.0034132586520713814,0.996300925877787
2017-09-29,1,0.0005589506802517684,0.000581743544045239,-0.0023313105818872143,0.003550400030180261,0.9959421202905694
2017-10-03,1,0.0004973622102938651,0.0005107471159885171,-0.0037479952053105616,0.003550400030180261,0.9957015020268596
2017-10-05,1,0.00046278338653192325,0.0004900011991032998,-0.004532810936834255,0.004256541450686688,0.9940188545115163
2017-10-09,1,1.3742125745967775e-05,5.8927543087018756e-05,-0.0037479952053105616,0.0057266572143716095,0.9941074293169678
2017-10-11,1,4.901152222253438e-06,3.895139773631417e-05,-0.0037479952053105616,0.005978279986477816,0.9936460647142427
2017-10-13,1,0.0002027320084998827,0.0002062092175524775,-0.004532810936834255,0.005978279986477816,0.9935092317317615
2017-10-17,1,0.00028690434152730095,0.000321424067290179,-0.0037996763583433893,0.0065721503427623815,0.9931751119569039
2017-10-19,1,0.00041475110085545576,0.00046561351520740384,-0.004917787725452898,0.007217343699143961,0.9926874707783229
2017-10-23,1,0.0005269267253194387,0.0005984547164337384,-0.0057709945410507795,0.0068118431728013875,0.9927105455684766
2017-10-25,1,0.0005643736025843591,0.0006424885817405139,-0.0057709945410507795,0.006353139658631013,0.9929679976875926
2017-10-27,1,0.0008021964005006555,0.0009076145450810534,-0.0057709945410507795,0.00412262457657597,0.9934757641046188
2017-10-31,1,0.00047038846127059894,0.0005106869376143035,-0.004839677163208778,0.00412262457657597,0.9936818837805126
2017-11-02,1,0.00018189787368979186,0.0001986231548404969,-0.004839677163208778,0.00412262457657597,0.9941086193391868
2017-11-06,1,0.0004203837647826388,0.0004766090457514392,-0.006402934950421496,0.0044506653391333155,0.9933775272090173
2017-11-08,1,0.0005744814094433692,0.0006478742792130637,-0.004981397091467291,0.0036920488420940046,0.9940374805057273
2017-11-10,1,0.00044914253485695054,0.0005070287436219256,-0.0029252405364347182,0.004198074518395706,0.9942144194518375
2017-11-14,1,0.0006493479180057898,0.00072730323825285,-0.004469103124086977,0.0034574216145246608,0.9943936165697396
2017-11-16,1,0.00042331887407993403,0.000451756579683437,-0.004469103124086977,0.0034574216145246608,0.9941184963538716
2017-11-20,1,8.083114334344333e-05,0.00010714209732648312,-0.0033208750970679757,0.0034574216145246608,0.9944029846682878
2017-11-22,-1,-9.232923014560634e-05,-4.265817119059677e-05,-0.004429486687651002,0.0034574216145246608,0.9940603544703426
2017-11-27,0,-4.19395471589379e-07,3.641644386658189e-05,-0.004429486687651002,0.004198074518395706,0.993708087950507
2017-11-29,1,0.00017070842338353122,0.00017976992896024708,-0.004429486687651002,0.004198074518395706,0.9936875916614041
2017-12-01,1,0.000456432875814813,0.000488806006417283,-0.005071260662740611,0.0038427896068262404,0.9944758427639572
2017-12-05,1,0.0005158010161779741,0.0005554238649820907,-0.004429486687651002,0.004198074518395706,0.9946307432534227
