JNU-Tangyin/eata/results/Batch4_SP500/Batch4_SP500-BLK.csv
Date,Action,Predicted_Q25,Predicted_Q75,Actual_Q25,Actual_Q75,RL_Reward
2010-12-14,0,0.0,0.0037031331241231965,-0.008105140428049284,0.01188140488701244,0.9919250841151378
2010-12-16,1,0.004164335632235374,0.004654501985664669,-0.0035476527761867044,0.012231111808277295,0.9910446845084943
2010-12-20,0,0.0,0.0,-0.008894943447155567,0.010677647718699012,0.9897665491692434
2010-12-22,0,0.0,0.0,-0.008894943447155567,0.010616798882491705,0.9904624043564298
2010-12-27,0,0.0,0.0,-0.004768053508611873,0.011587082730018218,0.9899522036178217
2010-12-29,0,0.0,0.0,-0.004768053508611873,0.011587082730018218,0.9894397807736918
2010-12-31,0,0.0,0.0,-0.004768053508611873,0.011587082730018218,0.9880763591225491
2011-01-04,0,0.0,0.0,-0.008894943447155567,0.012556779092773314,0.9865549243747676
2011-01-06,1,0.0016490807497795015,0.00174643568098317,-0.009337007256347207,0.012556779092773314,0.987147591349508
2011-01-10,0,0.0,0.0,-0.006249074021261101,0.012879832000967342,0.9866472599832252
2011-01-12,0,0.0,0.0,-0.006249074021261101,0.012697285492345424,0.9869991341229791
2011-01-14,0,0.0,0.0,-0.006249074021261101,0.012020181579029059,0.9872642958777571
2011-01-19,0,0.0,0.0,-0.0020675056536089446,0.012020181579029059,0.9888884839484784
2011-01-21,-1,-0.0006076598958216458,-0.00029791690467505,-0.002080121027641441,0.011000519117342488,0.9889092922193703
2011-01-25,1,0.0014022400636608135,0.0016584097367624534,-0.006249074021261101,0.009927708034080693,0.987842005179824
2011-01-27,1,0.0028114253565700922,0.0028388394677157256,-0.006249074021261101,0.013506241714033886,0.9865886380885246
2011-01-31,1,0.0015897277461031107,0.0017666143824181621,-0.006249074021261101,0.011000519117342488,0.9885343521570162
2011-02-02,1,0.0009080876037192732,0.0011900916036698772,-0.006249074021261101,0.011000519117342488,0.9875884530881904
2011-02-04,1,0.001288167037127092,0.001408204010702239,-0.01261436136162823,0.011000519117342488,0.9862436098648871
2011-02-08,1,0.002696683158695848,0.0027870807243311887,-0.01261436136162823,0.008403912969077453,0.9865936733623091
2011-02-10,1,0.0040117554246015315,0.004412351355942857,-0.01373911979405298,0.008403912969077453,0.9844410665157141
2011-02-14,1,0.003858463665129443,0.004136082326968802,-0.014998942132868608,0.003024784387375897,0.9836048791958473
2011-02-16,1,0.003842610361654359,0.004131636762205854,-0.01691834423642936,0.004773799926682391,0.9812716528496103
2011-02-18,1,0.004037383886716707,0.004363734281886853,-0.01691834423642936,0.00436963236989445,0.9816246678109015
2011-02-23,1,0.0015810415282404135,0.0015982799045454784,-0.013228294381734172,0.00436963236989445,0.9846104811937548
2011-02-25,1,0.003370687357096137,0.0036256080048740853,-0.013228294381734172,0.00436963236989445,0.9850386198625767
2011-03-01,1,0.0026593702763358304,0.0028173971200944766,-0.013228294381734172,0.00436963236989445,0.9854573521399458
2011-03-03,1,0.004087917083753429,0.004474300789746641,-0.01090214756065054,0.008410399739704331,0.9841706950595954
2011-03-07,1,0.00257767954393838,0.002818692803864014,-0.0074307175803828155,0.008410399739704331,0.9863281496232994
2011-03-09,1,0.002021483530822793,0.0021702056400670095,-0.007269240121605252,0.008410399739704331,0.9863218764467672
2011-03-11,1,9.651795494671698e-05,0.0002106236610581375,-0.007269240121605252,0.008410399739704331,0.9876327356309568
2011-03-15,-1,-0.0023060185110128075,-0.0018140830249018943,-0.006408919833668248,0.008410399739704331,0.9888382204302895
2011-03-17,-1,-0.003208865307608292,-0.0025804630488697796,-0.006299933660069474,0.00726247034882167,0.9913139926357951
2011-03-21,-1,-0.0026534355138762957,-0.0020995633736799954,-0.0067865485419811335,0.0013810057566711422,0.9914013496483576
2011-03-23,-1,-0.0035103973906948846,-0.002844725228979038,-0.006299933660069474,0.008025406056926272,0.9907085305380887
2011-03-25,-1,-0.0018293497897495037,-0.0014066086836090636,-0.0067865485419811335,0.007239979117584329,0.9903651529200522
2011-03-29,-1,-0.0034779695113996275,-0.0027745247078742818,-0.0067865485419811335,0.008025406056926272,0.9896502202919406
2011-03-31,1,0.0013250514591142994,0.00137128657967139,-0.007834463906028375,0.005423149096689931,0.9918872996070175
2011-04-04,-1,-0.00043369035631874364,-5.5345456797591336e-05,-0.007834463906028375,0.000833950041656816,0.9928931706727734
2011-04-06,1,8.034845565878354e-06,0.0002495425103574908,-0.008975637330330806,0.0009870987236926094,0.9924301200155405
2011-04-08,-1,-0.0006765246555494283,-0.0003737544573600268,-0.007799949849026412,0.00559881197254135,0.9921262431835474
2011-04-12,-1,-0.0019354940849612653,-0.0014231987147312448,-0.008975637330330806,0.007013696899309219,0.9912260260239875
2011-04-14,-1,-0.0025157612800983994,-0.0019293168787767974,-0.008975637330330806,0.007185420917162088,0.9907370237351748
2011-04-18,-1,-0.004502937014059658,-0.0035943411120669174,-0.008975637330330806,0.007185420917162088,0.9906583348961442
2011-04-20,-1,-0.003669413601224069,-0.002873132264449566,-0.008975637330330806,0.007526421014540435,0.9895619552006647
2011-04-25,0,0.0,0.0,-0.00972954861858887,0.006819847956650385,0.9901436563378103
2011-04-27,0,0.0,0.0,-0.00972954861858887,0.006819847956650385,0.9898057349654721
2011-04-29,0,0.0,0.0,-0.008448914699013314,0.01123128280182506,0.9894709681538879
2011-05-03,-1,-0.0010465392301001759,-0.0008024808721550064,-0.009456083049902496,0.012724304175088403,0.9873360432195014
2011-05-05,0,0.0,0.0,-0.009456083049902496,0.012724304175088403,0.9864167651972697
2011-05-09,-1,-0.0005407860444061594,-0.0004110472356825623,-0.012348324558593199,0.01123128280182506,0.9858837625110201
2011-05-11,0,0.0,0.0,-0.009456083049902496,0.012634799450351598,0.9863137656103661
2011-05-13,0,0.0,0.0,-0.012348324558593199,0.013954256946588285,0.9846060161057335
2011-05-17,-1,-0.0014690663542256837,-0.0012196303213041623,-0.017971561063496545,0.014628307698188842,0.9828959536959216
2011-05-19,1,0.00018365234027241872,0.0002627932934647065,-0.017971561063496545,0.012634799450351598,0.9843246469896136
2011-05-23,-1,-0.0004885586486925724,-0.00034740096293055885,-0.013961835183910552,0.012634799450351598,0.9841579170956324
2011-05-25,-1,-0.0004166169190208926,-0.0002790697946732489,-0.014471775244633632,0.011713215914685837,0.9843692473533535
2011-05-27,1,0.0007327491002068945,0.0007450660447303643,-0.01938140120382603,0.011713215914685837,0.9842222093973547
2011-06-01,1,0.00031351393279134505,0.00037988111593356867,-0.01099471200951638,0.01224627210237395,0.985688610003508
2011-06-03,-1,-0.0009689662856758971,-0.00076532240215539,-0.008591822063953942,0.013872627570101588,0.9857947424833483
2011-06-07,-1,-0.001553036032270987,-0.0013140667448391543,-0.008591822063953942,0.013872627570101588,0.9868282865282912
2011-06-09,-1,-9.112884783696201e-05,-8.552135406730049e-05,-0.009449647372642448,0.014055803670981437,0.9862997026451245
2011-06-13,-1,-0.0019965279997765048,-0.0016809106528863499,-0.010901282512219942,0.012254147450624057,0.9858261570842014
2011-06-15,-1,-0.0023995767753771523,-0.002055041102508639,-0.010901282512219942,0.011173722541526659,0.9872235395878715
2011-06-17,-1,-0.0013635301529931576,-0.0012008921540760042,-0.014580408819274243,0.01189358182556735,0.9861627164607858
2011-06-21,1,5.2829964767574076e-05,0.00010682061924877553,-0.014580408819274243,0.012814556739681786,0.9859258716430821
2011-06-23,-1,-0.0012289369933640344,-0.001086401652818403,-0.014580408819274243,0.014055803670981437,0.9856276102268618
2011-06-27,-1,-0.001264302212046101,-0.0011168819441221482,-0.011271050962168187,0.012814556739681786,0.9863098094704619
2011-06-29,-1,-0.00046069467173040084,-0.0003687485240685895,-0.014580408819274243,0.008666333775209938,0.9852757618552302
2011-07-01,0,0.0,0.0,-0.014580408819274243,0.008666333775209938,0.9854087477642339
2011-07-06,0,0.0,0.0,-0.015096138854818421,0.008666333775209938,0.984798006309723
2011-07-08,-1,-0.0014903793651714896,-0.0013826143935370169,-0.016691635594687296,0.005158137671838934,0.9833101038696944
2011-07-12,-1,-0.0029108491724529266,-0.002901439170848876,-0.016691635594687296,0.008666333775209938,0.9776471923636665
2011-07-14,-1,-0.002689927094252193,-0.0026495449520473513,-0.02208498620748593,0.013703638621474399,0.9716667671959567
2011-07-18,-1,-0.001650588882186688,-0.0015730043582668476,-0.01309668901787637,0.01786059042157398,0.9718124874438279
2011-07-20,-1,-0.0009607022074584865,-0.0009360992171513034,-0.02229843126254375,0.005162195520995881,0.971778468548909
2011-07-22,0,0.0,0.0,-0.028351013682184643,-0.0003892798536284886,0.9695125364527807
2011-07-26,0,0.0,0.0,-0.028351013682184643,0.009003988793120027,0.9678976899326672
2011-07-28,0,0.0,0.0,-0.02584748912703245,0.020839875697146782,0.9675663170922094
2011-08-01,0,0.0,0.0,-0.02584748912703245,0.025726319937067733,0.9657185257259716
2011-08-03,-1,-0.0032972845072561266,-0.0029364735999657843,-0.02584748912703245,0.025726319937067733,0.9665194838060854
2011-08-05,-1,-0.0012082685295358993,-0.001154229565213509,-0.02584748912703245,0.025726319937067733,0.9669207433935225
2011-08-09,-1,-0.002384338436798317,-0.0022181649047599943,-0.02347258455251866,0.025726319937067733,0.9723373278282259
2011-08-11,0,0.0,0.0,-0.02347258455251866,0.01742720600844304,0.9767024191774621
2011-08-15,-1,-0.0032083934255379455,-0.002797292857261823,-0.02347258455251866,0.00786643223021878,0.9786227864827015
2011-08-17,-1,-0.0029594862511766505,-0.002600222976520624,-0.02021075468752689,0.01788505956221213,0.9769688017670803
2011-08-19,-1,-0.004292781404655991,-0.003774066216270117,-0.02021075468752689,0.01788505956221213,0.977711663572404
2011-08-23,-1,-0.002865886328398132,-0.002592345218910067,-0.024642211200546254,0.011713221247474065,0.9780021997138018
2011-08-25,0,0.0,0.0,-0.02021075468752689,0.011713221247474065,0.9785834803676134
2011-08-29,0,0.0,0.0,-0.02021075468752689,0.011568220768355538,0.9798691820944764
2011-08-31,0,0.0,0.0,-0.023906843984097564,0.015281199759351407,0.9786089751778847
2011-09-02,-1,-0.002585050495301325,-0.0023565405554346153,-0.024509732539385508,0.015281199759351407,0.9781599095807921
2011-09-07,-1,-0.0027757559607097786,-0.002522850365955905,-0.024509732539385508,0.018792437049696735,0.9781690405941008
2011-09-09,-1,-0.0035250892484293573,-0.0031768297156348725,-0.02446223486776384,0.018792437049696735,0.9786101219329288
2011-09-13,-1,-0.003144283387968024,-0.0028660367944361373,-0.02446223486776384,0.020156233982331163,0.9758937195092179
2011-09-15,-1,-0.0025817629003751065,-0.0024642689540097787,-0.02446223486776384,0.01938022913912631,0.9769611108041206
2011-09-19,-1,-0.0027737741905623685,-0.0026752147572605637,-0.02446223486776384,0.01938022913912631,0.9765473675049205
2011-09-21,-1,-0.005845398450434636,-0.00535209564588035,-0.02446223486776384,0.020156233982331163,0.9749648695090267
2011-09-23,-1,-0.005576451910998702,-0.0051040073355956336,-0.02446223486776384,0.021140957924818696,0.9744989276093623
2011-09-27,-1,-0.00403390342842424,-0.0037202014956117073,-0.025695281917754276,0.021140957924818696,0.9735121868717657
2011-09-29,-1,-0.003148366831997649,-0.0030114720738422755,-0.02446223486776384,0.02339613094695095,0.9696532310262252
2011-10-03,0,0.0,0.0,-0.017710052328435196,0.02339613094695095,0.9697773197202889
2011-10-05,-1,-0.0017091113253877787,-0.001636084996250606,-0.027541924729559887,0.022950693217529503,0.9682997562786023
2011-10-07,-1,-0.0016511504245568204,-0.0015537639068664692,-0.019604192811862473,0.024669397294997217,0.9682783837114769
2011-10-11,-1,-0.00032764006604066125,-0.00019879326586527267,-0.019604192811862473,0.022329586377969647,0.9699105186230713
2011-10-13,-1,-0.0006435003131706312,-0.0005714520900244481,-0.03618951794919201,0.024669397294997217,0.9665078146175482
2011-10-17,-1,-0.0004279261478057619,-0.0003263894578922518,-0.01908860947236815,0.026857877133614372,0.9671809046486007
2011-10-19,0,0.0,0.0,-0.01467472232671065,0.024669397294997217,0.9691075854882297
2011-10-21,0,0.0,0.0,-0.014899872755016797,0.024669397294997217,0.9701934739642015
2011-10-25,-1,-0.004963300641687493,-0.0046784779360381674,-0.012202356521512768,0.024669397294997217,0.9721459005551243
2011-10-27,1,0.0027374590899379063,0.003281490634092943,-0.019336935974100775,0.017547947200410616,0.9763590763739086
2011-10-31,1,0.0011428517297693047,0.0014993895359616007,-0.012202356521512768,0.020585645955244255,0.9772197612854441
2011-11-02,1,0.0006592184498933575,0.0009233458122130617,-0.012202356521512768,0.020585645955244255,0.9767893343958072
2011-11-04,0,0.0,0.0,-0.012202356521512768,0.021531912114741703,0.9758624997758707
2011-11-08,0,0.0,0.0,-0.016283348572170883,0.019648428193305766,0.9765088940542103
2011-11-10,1,0.0019229556701475295,0.0023815703810538924,-0.016283348572170883,0.019648428193305766,0.978152265176816
2011-11-14,1,0.002236532624649967,0.002706921744933633,-0.017112407468132872,0.011442863157999562,0.9781928996528159
2011-11-16,1,0.0019985684439930646,0.002437287597581223,-0.016283348572170883,0.008035246318295153,0.97986187941327
2011-11-18,1,0.002105458686045415,0.002601652745861,-0.017112407468132872,0.010921731032912132,0.9786703999168511
2011-11-22,0,0.0,0.0,-0.01675633629970701,0.018858025396599,0.9774526252951412
2011-11-25,0,0.0,0.0,-0.0116969164241445,0.020210667688159097,0.9774619023809232
2011-11-29,0,0.0,0.0,-0.0116969164241445,0.015286471490102283,0.9800017337191425
2011-12-01,1,0.0024054095982514604,0.0029030365766327722,-0.008456075209967896,0.015286471490102283,0.9838442617863423
2011-12-05,1,0.00350612342797232,0.004121300053294643,-0.008456075209967896,0.015286471490102283,0.9849134059765184
2011-12-07,1,0.0031862704270503653,0.0037387986909636056,-0.007388133986144747,0.015286471490102283,0.9853862748328207
2011-12-09,0,0.0,0.0,-0.0066561437940095124,0.015286471490102283,0.988018477692732
2011-12-13,0,0.0,0.0,-0.0038327535783872183,0.01667338347459498,0.9883665900403538
2011-12-15,1,0.0032107911185763685,0.003746207701711384,-0.0032713981127563017,0.01667338347459498,0.9889643820807525
2011-12-19,0,0.0,0.0,-0.0027633034482455587,0.01667338347459498,0.9904339026248351
2011-12-21,0,0.0,0.0,-0.0032713981127563017,0.015400302422295434,0.9907571867928211
2011-12-23,-1,-0.0014644782189585268,-0.0008809372493932038,-0.0036572389406008925,0.015434572115228036,0.9913552154841402
2011-12-28,0,0.0,0.0,-0.0028397723949317413,0.015434572115228036,0.9914098958583161
2011-12-30,0,0.0,0.0,-0.0036572389406008925,0.007324584349864998,0.9911057289676201
2012-01-04,1,0.005611008112355698,0.006305518759888445,-0.0028397723949317413,0.004951369397864759,0.9906215164407723
2012-01-06,0,0.0,0.0,-0.002168901111913748,0.009869588189158406,0.9903438629884967
2012-01-10,0,0.0,0.0,-0.0028978862824265007,0.006161794742056386,0.9910427921107953
2012-01-12,0,0.0,0.0,-0.0028978862824265007,0.004951369397864759,0.9920404504236042
2012-01-17,0,0.0,0.0,-0.00383158060308517,0.006161794742056386,0.9915320387081421
2012-01-19,0,0.0,0.0,-0.004303002184241737,0.009346427058587303,0.9904307637831911
2012-01-23,0,0.0,0.0,-0.004303002184241737,0.009346427058587303,0.9912061841122326
2012-01-25,0,0.0,0.0,-0.004935146814429383,0.009346427058587303,0.9911483340938753
2012-01-27,0,0.0,0.0,-0.005365642518935057,0.009767073232812605,0.9906343983562931
2012-01-31,1,0.0013568330023786524,0.0015025969849849045,-0.00400804188336789,0.009767073232812605,0.9921140866165155
2012-02-02,1,0.0008313294657737415,0.000848967586679718,-0.00400804188336789,0.009767073232812605,0.9920611342036316
2012-02-06,1,0.0016558521854349428,0.0017444573101644445,-0.005365642518935057,0.005268686196539189,0.9921983511640379
2012-02-08,1,0.001671240928850373,0.001824559519633105,-0.005786094472656229,0.009767073232812605,0.9914108113790379
2012-02-10,1,0.0015511778370837378,0.0016668939741203254,-0.00657594876563781,0.009767073232812605,0.9907959223713628
2012-02-14,1,0.00024015558600871327,0.00043519588469938144,-0.00848667085334498,0.010517615544281902,0.9892253766601351
2012-02-16,1,0.0006811762226004491,0.0007698622243668997,-0.00657594876563781,0.010517615544281902,0.9892591763606672
2012-02-21,1,0.0008289779856451575,0.0008415314650304095,-0.006642608475693666,0.007397190546441491,0.9897818682624998
2012-02-23,1,0.0011055206777653708,0.0011403729579323233,-0.00980803620597661,0.004272335591453339,0.9896693927500548
2012-02-27,-1,-0.0002542675242755301,-1.0557342021878498e-05,-0.00980803620597661,0.008477690959089913,0.9890853516642244
2012-02-29,1,0.0010244142454607227,0.0010329437207365533,-0.00980803620597661,0.008477690959089913,0.9883813614510667
2012-03-02,1,0.0003200559020558643,0.0004222815220675458,-0.010382547170265643,0.014379296984984632,0.9867875682939526
2012-03-06,-1,-0.00033606575857910315,-0.00015985955985299235,-0.00895612164522063,0.014379296984984632,0.9877598640862937
2012-03-08,0,-6.391247997685406e-05,7.94696597533897e-05,-0.00980803620597661,0.01120977804615576,0.9877632505427703
2012-03-12,-1,-0.0006707732941400988,-0.0004282154218402473,-0.011936550658941173,0.01120977804615576,0.9869458987690933
2012-03-14,1,0.00036465237587058415,0.0004707918103924107,-0.010558887725828471,0.01120977804615576,0.9882184256875985
2012-03-16,1,0.0015522019702638736,0.0016456081785053743,-0.013486038424774619,0.007737227855046365,0.9880745114808451
2012-03-20,1,0.0003680889741035959,0.00047481560177788074,-0.014376734233520469,0.01120977804615576,0.9866319558276208
2012-03-22,1,0.0017013987475510812,0.0019829147026066227,-0.015548842492437724,0.01120977804615576,0.9862829630504187
2012-03-26,1,0.0011492965154083616,0.0011944890870256746,-0.016340282709697958,0.007267695949673131,0.9864830049594225
2012-03-28,1,0.0007461368153827647,0.0008682653419015798,-0.016340282709697958,0.009898622655681037,0.9861359495856546
2012-03-30,1,0.0011625555571926818,0.0013319214788458605,-0.016340282709697958,0.008955964387704324,0.9876659559286933
2012-04-03,1,0.001323395119253379,0.0014968914948379876,-0.016340282709697958,0.008955964387704324,0.9870520517710268
2012-04-05,1,0.0015682229097626742,0.0017909023227330528,-0.018462851748180638,0.00358269313722855,0.9865420940288723
2012-04-10,1,0.0005005270236479053,0.0006046137117302576,-0.011314714502051331,0.004841349844803296,0.9881847259198928
2012-04-12,1,0.0007510251435587656,0.0008629739178849319,-0.013057337606443509,0.0022900093500287867,0.988473894457995
2012-04-16,1,0.0002386939004141921,0.000275163566143886,-0.013057337606443509,0.001262882789231659,0.9887764852965905
2012-04-18,-1,-0.0009091133676316645,-0.0007798655528362436,-0.010386858524678426,0.0008856610296989294,0.9908771139661461
2012-04-20,-1,-0.002186345017323934,-0.0018752453769049391,-0.010386858524678426,0.0008856610296989294,0.9918296942512975
2012-04-24,-1,-0.002304856976551019,-0.0020588817926150624,-0.011474558432606662,0.00016616406935522556,0.990898365383615
2012-04-26,-1,-0.0022010956430614016,-0.0020097156682751353,-0.011474558432606662,0.00016616406935522556,0.9899540353736922
2012-04-30,-1,-0.002109844107787257,-0.001990034651343146,-0.011474558432606662,0.002417000779005344,0.988741772358319
2012-05-02,-1,-0.002737369108251571,-0.0025370565075898493,-0.013442213121626327,0.002417000779005344,0.9882779242421429
2012-05-04,-1,-0.0034579935713594974,-0.0031635836794823686,-0.013442213121626327,0.002417000779005344,0.988497225954069
2012-05-08,-1,-0.0044264156632545845,-0.00400827733051216,-0.013442213121626327,0.005987729433339105,0.9871716710413406
2012-05-10,-1,-0.005107262167248586,-0.004585614143405229,-0.013442213121626327,0.009459688226447601,0.9861920520420081
2012-05-14,-1,-0.005877941037593672,-0.00524609818954721,-0.011412953676394933,0.009459688226447601,0.9862392557591362
2012-05-16,-1,-0.005302666138237455,-0.004799985373351671,-0.011412953676394933,0.009459688226447601,0.9862851506789581
2012-05-18,-1,-0.005486846948137894,-0.0049982656702796885,-0.01309252117569298,0.01218789164410722,0.9845858384908058
2012-05-22,-1,-0.007296340666753262,-0.006571258530928779,-0.007124638807438519,0.015760238017129353,0.9847150926418338
2012-05-24,-1,-0.004924416207341065,-0.004500626748453747,-0.00988669164445653,0.009459688226447601,0.9864908144419811
2012-05-29,-1,-0.004637424341422692,-0.00419227322068139,-0.01309252117569298,0.008104758089599921,0.9863982862171181
2012-05-31,-1,-0.005470402451836304,-0.004920356605718433,-0.010888776862392091,0.008104758089599921,0.9869352176571297
2012-06-04,-1,-0.0059102704143676,-0.005300919299087228,-0.007458667213417039,0.009459688226447601,0.9863812368809539
2012-06-06,-1,-0.004387635173435579,-0.003918362467605236,-0.010888776862392091,0.009459688226447601,0.9871451073159777
2012-06-08,-1,-0.003554127977701253,-0.00315872640887937,-0.010888776862392091,0.006584285421646028,0.9882654510244717
2012-06-12,-1,-0.0031049766202010417,-0.002780865226838551,-0.007458667213417039,0.009402723901048597,0.9879837140988716
2012-06-14,-1,-0.0033630637359716815,-0.00298771767480143,-0.011076850127773829,0.010991326647642595,0.9867674810284058
2012-06-18,-1,-0.0031066126278044767,-0.002778240199956152,-0.004781110973673231,0.009402723901048597,0.9884787074452596
2012-06-20,-1,-0.002770118585940174,-0.002479464717847635,-0.007373875542850544,0.008085771487220816,0.9889010899405847
2012-06-22,-1,-0.004158404791642098,-0.0036680527245813014,-0.011076850127773829,0.008085771487220816,0.9879023744578853
2012-06-26,-1,-0.004429232157331858,-0.00392205833746025,-0.011076850127773829,0.006918544818813141,0.98904917434303
2012-06-28,-1,-0.0034439597332044537,-0.0030997823096631716,-0.007689101719615074,0.009402723901048597,0.9873884725242597
2012-07-02,-1,-0.003202963667451437,-0.002882263436002186,-0.0107223281696642,0.008310622957273162,0.9879264135276339
2012-07-05,-1,-0.0016977128586714223,-0.001484257519165465,-0.007480264555239391,0.0065765198866322705,0.9894758453351703
2012-07-09,-1,-0.0020370561930339584,-0.0018544771036347932,-0.007480264555239391,0.008310622957273162,0.9883259106743157
2012-07-11,-1,-0.0011465418805917138,-0.001083751402018033,-0.007480264555239391,0.006174779872912474,0.9888420100786001
2012-07-13,-1,-0.0007444610476832383,-0.000737628490382944,-0.0063194804062727565,0.006174779872912474,0.9900018582138129
2012-07-17,-1,-0.00025818946181541195,-0.00015747362330122865,-0.007480264555239391,0.006174779872912474,0.9896230701005453
2012-07-19,-1,-0.0002744070136939576,-0.00018216946572474418,-0.007480264555239391,0.006526794646558188,0.9890187448623078
2012-07-23,-1,-0.0017232356937653445,-0.0016549726829906655,-0.0027015742451632382,0.007062318439090539,0.9910363863701457
2012-07-25,-1,-0.0022610998057856434,-0.002128036764857187,-0.00244800277452126,0.007062318439090539,0.9914124200075172
2012-07-27,-1,-0.0008149909220806293,-0.0008136774177716104,-0.0029982390139931614,0.006526794646558188,0.9931537601569975
2012-07-31,-1,-0.0013217518938076502,-0.001232884876248686,-0.0029982390139931614,0.006526794646558188,0.9933805464146779
2012-08-02,-1,-0.0010895783845542046,-0.001075570376346158,-0.0030975793228132423,0.006526794646558188,0.9932087967095866
2012-08-06,0,-3.887661886859241e-05,0.00014303780054239154,-0.0030975793228132423,0.006383474589532842,0.994493924226198
2012-08-08,1,0.0006720504176425351,0.0009856148120310926,-0.0044313047155617995,0.006526794646558188,0.9936161908440854
2012-08-10,1,0.0007428842581744884,0.0010424887973110608,-0.0055510114495962316,0.006934586057420221,0.9924020300117523
2012-08-14,1,0.0002488097926376668,0.0004560904088315831,-0.005502686110235463,0.006934586057420221,0.9926534697847299
2012-08-16,1,0.00147486437535977,0.001926616892391477,-0.005502686110235463,0.006441361764534676,0.9921443210404948
2012-08-20,1,0.0013933839091343572,0.0017909832978219478,-0.005502686110235463,0.005628868196420117,0.9924461360930292
2012-08-22,1,0.001740153139187783,0.0022315352516178643,-0.005502686110235463,0.005628868196420117,0.9924162479700827
2012-08-24,1,0.0023598678932912104,0.0029461762365543464,-0.006290245144355798,0.004281632536585068,0.9920024108212839
2012-08-28,1,0.0024424780025288535,0.0030308180209569833,-0.006466744185643465,0.00330000849882796,0.991209769560231
2012-08-30,1,0.0013146173313128703,0.0016763868515624575,-0.005502686110235463,0.004281632536585068,0.9915488610247116
2012-09-04,1,0.0019080917151608032,0.0023866773043781644,-0.006437945916179427,0.00676426591291713,0.9903479685586513
2012-09-06,1,0.002362370115310211,0.002873697155608676,-0.006437945916179427,0.009114982566146117,0.9900377831302216
2012-09-10,1,0.0006154294948112093,0.0008978347145928038,-0.004201134047030942,0.009774333578119666,0.9907595044668506
2012-09-12,1,0.0006452743219015608,0.0008648317862030427,-0.00439716015821534,0.009774333578119666,0.9906161306141772
2012-09-14,0,0.0,0.0,-0.00806937758274148,0.007390385961570822,0.9914340965566912
2012-09-18,0,0.0,0.0,-0.00806937758274148,0.009774333578119666,0.9900144593160151
2012-09-20,1,0.004241589575492397,0.005043780114045838,-0.00806937758274148,0.009774333578119666,0.989956243190682
2012-09-24,1,0.003491471205506182,0.004155927217350605,-0.007261008285019326,0.009774333578119666,0.9903199341164975
2012-09-26,1,0.0013830890615565724,0.001656152000527769,-0.006033423063421724,0.009774333578119666,0.9909170168047596
2012-09-28,1,0.0016197679504324227,0.00191532249952162,-0.006033423063421724,0.007390385961570822,0.9915593858396673
2012-10-02,1,0.0011596908923664126,0.0013651702501344997,-0.0049077598455747095,0.008576414979676567,0.9920187547166098
2012-10-04,1,0.002111505539928068,0.0024067014230492794,-0.0049077598455747095,0.004887780205819424,0.9932990307396176
2012-10-08,0,0.0,0.0,-0.006033423063421724,0.002692124995742837,0.9938413597444928
2012-10-10,0,0.0,0.0,-0.006033423063421724,0.002692124995742837,0.9935208746314305
2012-10-12,1,0.0007186756886955677,0.0007558431067006538,-0.0044873073613966065,0.004887780205819424,0.993770447466593
2012-10-16,1,0.0022129457968577296,0.002465803666168112,-0.0049077598455747095,0.00196099068882572,0.9941195358975639
2012-10-18,1,0.0025706120078978897,0.0029101082771244976,-0.0049077598455747095,0.00196099068882572,0.9932631133978082
2012-10-22,1,0.0019201399057488617,0.0021235710241164253,-0.003341273761622071,0.0038169199985844645,0.9933493757234377
2012-10-24,1,0.0007790582228493352,0.0007906499669183137,-0.0018057476911163715,0.00913404224388719,0.9934996928060433
2012-10-26,1,0.0010864038254439173,0.001164169050132034,-0.0018057476911163715,0.00946198538360479,0.9928428697577911
2012-11-01,1,0.0017923259315564283,0.001999630071690586,-0.004024101831367932,0.00913404224388719,0.9927228674519495
2012-11-05,1,0.001543767563643733,0.0017025815694385728,-0.007733274298642122,0.00913404224388719,0.9914200039929733
2012-11-07,1,0.0014723190816349674,0.0016132676977266233,-0.007731109888826741,0.007719012884705078,0.9917960226367685
2012-11-09,1,0.0007083579918216259,0.0007433984025318132,-0.002609694401197081,0.007719012884705078,0.9922062852576595
2012-11-13,0,0.0,0.0,-0.002047347067534666,0.007753890478476553,0.9912892999315264
2012-11-15,0,0.0,0.0,5.5838277241284403e-05,0.007753890478476553,0.9916276048473857
2012-11-19,0,0.0,0.0,0.00012238196005603843,0.007753890478476553,0.991484140564145
2012-11-21,0,0.0,0.0,-0.0008534211692723476,0.007753890478476553,0.9911401183177142
2012-11-26,0,0.0,0.0,-0.0008534211692723476,0.0069202184190013845,0.9912503758345328
2012-11-28,0,0.0,0.0,-0.005290519110901667,0.006743492351735985,0.9914730024157845
2012-11-30,0,0.0,0.0,-0.0050134959100015825,0.006743492351735985,0.9913795738849119
2012-12-04,0,0.0,0.0,0.0017672572331344678,0.00779484788323398,0.991255388314686
2012-12-06,0,0.0,0.0,-0.00027176010332255745,0.012295304819723421,0.9907254001651076
2012-12-10,0,0.0,0.0,-0.002416242998362095,0.012295304819723421,0.9903350643818295
2012-12-12,1,0.0021983693923189837,0.0024025406432470198,-0.002416242998362095,0.012295304819723421,0.9909634322522481
2012-12-14,0,0.0,0.0,-0.002416242998362095,0.012295304819723421,0.9898803797773036
2012-12-18,1,0.00252716517969404,0.002585443471318928,-0.004251932532753123,0.012295304819723421,0.989503259263107
2012-12-20,0,0.0,0.0,-0.002506949334903752,0.011306273382682685,0.9887419808774447
2012-12-24,1,0.001980994448899838,0.0020793642345583365,-0.0023993171815211286,0.011306273382682685,0.9899596300625599
2012-12-27,1,0.0014745995407867462,0.0014781643005905662,-0.0023993171815211286,0.011306273382682685,0.9899218138532668
2012-12-31,1,0.0018383167405301108,0.0019307543483336243,-0.002016666486314085,0.013067544696019923,0.9901611421508792
2013-01-03,1,0.002724794808375351,0.0029336385814137294,-0.0029455708432264685,0.010986715862674917,0.9912987244663433
2013-01-07,1,0.0031405575972651843,0.003406973815783498,-0.004201155082230223,0.010986715862674917,0.9910348503989899
2013-01-09,1,0.0023821410540469986,0.0025281127864832005,-0.004201155082230223,0.010986715862674917,0.9912545610646157
2013-01-11,1,0.003360402903043874,0.0036738664787963017,-0.004201155082230223,0.006323451172569376,0.9921106475829491
2013-01-15,1,0.0036045146906747753,0.003952044799776695,-0.004201155082230223,0.009477363728308479,0.9913478975473673
2013-01-17,0,0.0,0.0,-0.004249581061402362,0.00938327414310953,0.9927251921054151
2013-01-22,0,0.0,0.0,-0.005187920657699638,0.005476946385067794,0.9925268527856626
2013-01-24,0,0.0,0.0,-0.007021672012472403,0.0073877913683459305,0.9912341763527281
2013-01-28,0,0.0,0.0,-0.0087619579001848,0.0073877913683459305,0.9906134364242853
2013-01-30,1,0.004428065581631224,0.004804335768164747,-0.0087619579001848,0.0073877913683459305,0.98964122761433
2013-02-01,0,0.0,0.0,-0.010297409700298764,0.013262920676018527,0.9889498495960245
2013-02-05,1,0.004024179965663517,0.004339528547668472,-0.008885853867025742,0.01352936210779078,0.9888542773856327
2013-02-07,1,0.0033777871881461594,0.003582204515873726,-0.006773988064641425,0.01352936210779078,0.9889600122441481
2013-02-11,1,0.0038226685066184733,0.004154176779202802,-0.006773988064641425,0.01352936210779078,0.9887867172639664
2013-02-13,1,0.003977825879304719,0.004314769436331929,-0.006773988064641425,0.013968220755280201,0.9887649124320999
2013-02-15,0,0.0,0.0,-0.005557588373333934,0.013968220755280201,0.9893108064904064
2013-02-20,0,0.0,0.0,-0.005557588373333934,0.017495583587621603,0.9890850174751067
2013-02-22,0,0.0,0.0,-0.005557588373333934,0.013968220755280201,0.9895384493809856
2013-02-26,0,0.0,0.0,-0.005250302058044247,0.017495583587621603,0.9889648721321839
2013-02-28,1,0.0020096673344981906,0.002111322617888855,-0.005332272212130143,0.013968220755280201,0.9898637228875059
2013-03-04,1,0.002679538154986557,0.002713681259448214,-0.005332272212130143,0.013968220755280201,0.9896668590329093
2013-03-06,1,0.003920676973442153,0.004236382273335906,-0.006132737427083357,0.009818194362155544,0.988483535021158
2013-03-08,1,0.003385084365335144,0.0035163044463416395,-0.007367771168768085,0.012353125288262691,0.987428945798052
2013-03-12,1,0.003320892575966601,0.003396765660722832,-0.007367771168768085,0.01723624796966148,0.9859353776558903
2013-03-14,1,0.004111858187155098,0.004323996259579174,-0.007367771168768085,0.015382082158683773,0.9859720076810986
2013-03-18,1,0.003771472404326977,0.0039881567891017974,-0.009897302848298725,0.015382082158683773,0.9842170531885601
2013-03-20,1,0.0036753024692082604,0.0038863235782035225,-0.02139779499647518,0.013578236053902456,0.9830334030910964
2013-03-22,1,0.002618146178555403,0.0026631633801865984,-0.01674151802823229,0.015382082158683773,0.9835789554873807
2013-03-26,1,0.0028962695522772326,0.0029592986484355053,-0.01674151802823229,0.015382082158683773,0.9831935611826168
2013-03-28,1,0.0026473200873243833,0.002688315334141855,-0.01674151802823229,0.017954293243017644,0.9828726444230367
2013-04-02,1,0.002440379558039085,0.002443680559331911,-0.010078168055770418,0.017296216381592597,0.9833252061395166
2013-04-04,1,0.0014358517923587744,0.0015513808318632668,-0.009997434723698228,0.017296216381592597,0.9844041405643363
2013-04-08,1,0.0006310592797136128,0.0008804916817917308,-0.0044617173376981754,0.01875047901502893,0.9840081478315996
2013-04-10,1,0.0019910511885498526,0.002082246297156908,-0.0044617173376981754,0.014134947237367275,0.985805150032301
2013-04-12,1,0.0018857622960844014,0.0020134971715396457,-0.0055163780697936905,0.014134947237367275,0.9862217153753957
2013-04-16,1,0.0016116213494138038,0.0017519196610427422,-0.0036487089748472863,0.01715236125117425,0.9873628510315543
2013-04-18,1,0.00016753755217966543,0.00045953402003238465,-0.00021134792614960912,0.017289177983855025,0.9878233895252002
2013-04-22,1,0.0005628112162022874,0.0008150503910213774,-0.0036487089748472863,0.017289177983855025,0.9877384563695274
2013-04-24,1,0.0016648643828607737,0.0017702773788911277,-0.005383228193986263,0.016878462332830142,0.9884111154831507
2013-04-26,1,0.001706520200181965,0.0018352783624525665,-0.0059761199246334525,0.012528061445716346,0.9887979489628058
2013-04-30,1,0.0005336350174362363,0.0008333855821650673,-0.006598958075258595,0.012573667023276605,0.9880432323764916
2013-05-02,1,0.000673892206144812,0.0009608260304425023,-0.006598958075258595,0.012573667023276605,0.9881379602178876
2013-05-06,1,0.0020214650701407917,0.0021310376393833793,-0.0077407161632615535,0.008784516028196153,0.9897158930134309
2013-05-08,1,0.002097195664681951,0.002169725716730714,-0.010003232481663203,0.008784516028196153,0.9879858713197635
2013-05-10,1,0.001932907896961037,0.0020437014240708793,-0.010003232481663203,0.011627227857313424,0.986393218559671
2013-05-14,1,0.003067007006226742,0.003127915829439713,-0.01674136727156812,0.007783668474629199,0.9849751392093089
2013-05-16,1,0.003178125951259816,0.003250812576858021,-0.01674136727156812,0.007783668474629199,0.9853423613597629
2013-05-20,1,0.0030917571509524685,0.00311411915648852,-0.01674136727156812,0.007783668474629199,0.9855266044444108
2013-05-22,1,0.0007999478841121126,0.0010779418749148634,-0.01877276980964296,0.005434801948794132,0.9828924774047691
2013-05-24,1,0.0017642718695995382,0.001898991756433722,-0.01877276980964296,0.005434801948794132,0.9818424253210725
2013-05-29,0,0.0,0.0,-0.01877276980964296,0.008824838390827948,0.981357600067456
2013-05-31,0,0.0,0.0,-0.0201830538454483,0.014854458049215001,0.9801250988572835
2013-06-04,0,0.0,0.0,-0.0201830538454483,0.014854458049215001,0.9803570525176415
2013-06-06,0,0.0,0.0,-0.014507484330964437,0.014854458049215001,0.9816733374137995
2013-06-10,0,0.0,0.0,-0.014507484330964437,0.014854458049215001,0.9826412880426919
2013-06-12,1,0.00025032910234448595,0.0003091961756245482,-0.010489304444356421,0.020080739523173657,0.9836439842891433
2013-06-14,0,0.0,0.0,-0.007612009832811062,0.020080739523173657,0.9846378271865658
2013-06-18,1,0.0008910560186349626,0.0009136277858401038,-0.007612009832811062,0.015903913158857013,0.9848257580763529
2013-06-20,0,0.0,0.0,-0.003513650701693673,0.020080739523173657,0.9877716662555021
2013-06-24,0,0.0,0.0,-0.0014200266560820038,0.020080739523173657,0.9879179627883169
2013-06-26,-1,-0.0019616149752970185,-0.0015482425093440821,-0.0030382016474558597,0.01571393822406754,0.9896469150889686
2013-06-28,0,0.0,0.0,-0.0030382016474558597,0.009546987974675108,0.9916953792400982
2013-07-02,0,0.0,0.0,-0.0026786838095439426,0.009546987974675108,0.9917717101698116
2013-07-05,0,0.0,0.0,-0.001875081806651636,0.0124750157770365,0.9916457219298845
2013-07-09,-1,-0.0006906970919992494,-0.0004904826158523077,-0.003232365474906777,0.007801966193968784,0.9925983258005596
2013-07-11,1,7.373230494771413e-05,0.00018471224813233468,-0.003742198985597655,0.00530683782082797,0.9927611664863536
2013-07-15,-1,-0.0004065951958382015,-0.00020867748449156112,-0.004318999400258615,0.006707254626575232,0.9921122551256495
2013-07-17,0,-2.0125680808561397e-07,0.0001398599810177572,-0.0050690795967011995,0.005935690049755176,0.9923133718465568
2013-07-19,1,0.0005637627835126801,0.0007270859588296267,-0.008426824267127668,0.004777436257009164,0.9923786096742356
2013-07-23,1,0.00134448490023169,0.0013759271165919079,-0.008579302970819202,0.0039036411502343087,0.992490605208644
2013-07-25,1,0.0012487301612295137,0.0012831946278424136,-0.009408929096678302,0.004777436257009164,0.9915870674209646
2013-07-29,1,0.001174757383406336,0.0012185982339341177,-0.008579302970819202,0.0032534997875844247,0.9922718707021221
2013-07-31,1,0.0007868583136260256,0.0008065817704150107,-0.009408929096678302,0.0032534997875844247,0.9906420537911839
2013-08-02,1,0.0012915186846370638,0.0013399534784433588,-0.009408929096678302,0.0026990669648523113,0.9909829230924511
2013-08-06,1,0.0013606669338333992,0.0014631815834138867,-0.009408929096678302,0.004617711978632376,0.9905256647211867
2013-08-08,1,0.0005387848545740436,0.0005526653072066664,-0.009408929096678302,0.004617711978632376,0.9906994122828099
2013-08-12,1,0.0006546336913695127,0.0006735185594765308,-0.009408929096678302,0.006055042974621302,0.9905536987339403
2013-08-14,0,-2.9730566051901913e-05,7.391078285885625e-05,-0.01133288945986935,0.004921681474018418,0.9902597898597938
2013-08-16,-1,-0.0007468020110795582,-0.0005946662943702812,-0.007130199859934035,0.008855630631757379,0.9894372131107857
2013-08-20,-1,-0.001370727155844566,-0.0011386594240073216,-0.0020984423640146386,0.010065980299300392,0.9885641605865507
2013-08-22,-1,-0.0010276249560726937,-0.0008232045507664459,-0.0020984423640146386,0.010065980299300392,0.9883388596382363
2013-08-26,-1,-0.001506201028278678,-0.0011926215251988584,-0.009710399985990137,0.010065980299300392,0.98770621934423
2013-08-28,-1,-0.0033123113484127675,-0.0027971333174996197,-0.008456891637315419,0.010065980299300392,0.9884585109386047
2013-08-30,-1,-0.0022851197192960684,-0.0019639026890761148,-0.008456891637315419,0.010065980299300392,0.9887717824870595
2013-09-04,-1,-0.001294885160164977,-0.0011041547749999741,-0.008456891637315419,0.009030969137764673,0.9897898543018602
2013-09-06,-1,-0.002651778331377863,-0.0022557604664345168,-0.006831674638555139,0.009030969137764673,0.9897587705399508
2013-09-10,-1,-0.0029375982117595015,-0.002426972289657283,-0.009710399985990137,0.008036578901973318,0.9895956383435537
2013-09-12,-1,-0.003065475934873588,-0.0025783044187812163,-0.008456891637315419,0.010562381567531096,0.9875875511891277
2013-09-16,-1,-0.0010214949237191003,-0.0008147650606038877,-0.008456891637315419,0.009693307598321904,0.9887366837497535
2013-09-18,1,0.0002783668578365857,0.0003006052505711217,-0.008456891637315419,0.009693307598321904,0.9884021678879079
2013-09-20,1,0.0003099203302586776,0.000314999686093286,-0.006831674638555139,0.010835834275524429,0.9882134032763726
2013-09-24,-1,-0.0008068964162559998,-0.0006434949942518252,-0.0026487423607648194,0.012618087691302387,0.9883592358549851
2013-09-26,1,5.899741160658327e-05,6.512156987631472e-05,-0.0026487423607648194,0.013555504243054645,0.9881711079399468
2013-09-30,1,1.1359347092834384e-05,3.445155537393064e-05,-0.0007879523087827548,0.013555504243054645,0.9883119697888331
2013-10-02,1,6.827416767732875e-05,9.588831446178037e-05,-0.0014782333996500273,0.013555504243054645,0.9880134497933263
2013-10-04,1,0.0006761242946325478,0.000839747005363423,-0.0027881651234502865,0.013555504243054645,0.9875647833277456
2013-10-08,-1,-0.0003749716680478174,-0.0003432363870079924,-0.0004382866978561952,0.013555504243054645,0.9885263415803859
2013-10-10,1,0.0015507645849280635,0.0018696812313379269,-0.0017626104414805335,0.010835834275524429,0.9899677467833314
2013-10-14,1,0.0019317377646295535,0.0022668623080084813,-0.0017626104414805335,0.01114830645944185,0.9900216110026719
2013-10-16,1,0.00279974601780368,0.0032405575367884963,-0.006518112097653074,0.010489688230118421,0.9903805394146379
2013-10-18,1,0.0045639596923726985,0.0052272253820877905,-0.006518112097653074,0.009698069497123981,0.9909338052242026
2013-10-22,1,0.0047503519985719585,0.0053979975942376425,-0.006518112097653074,0.006069792370391552,0.9909827227078543
2013-10-24,1,0.00449353968444468,0.005077594833830629,-0.006518112097653074,0.006069792370391552,0.9909767848679619
2013-10-28,1,0.0033416498992743316,0.0037158603732327378,-0.0077736407958514,0.006069792370391552,0.9908602131182281
2013-10-30,1,0.004095626579851923,0.004685143345333672,-0.0057895548534143155,0.009698069497123981,0.9909031237457243
2013-11-01,1,0.002872127632157974,0.0031955448742711848,-0.0057895548534143155,0.008191102813571676,0.9912232205935844
2013-11-05,1,0.002510739643824662,0.0027804743683780045,-0.008069853656770062,0.008191102813571676,0.9903471503341531
2013-11-07,1,0.0021238078761665457,0.002386431409241876,-0.006577053809077503,0.00885502070477802,0.9908989412568074
2013-11-11,1,0.0007138915559139944,0.0007273257888615061,-0.008017450181489392,0.006383548871825215,0.9908002781962837
2013-11-13,1,0.00010402006430924762,0.0003140469984000083,-0.008017450181489392,0.006383548871825215,0.9906298142151005
2013-11-15,1,0.0015227539814364358,0.001556247689499139,-0.008017450181489392,0.009001275053404825,0.9890753624114736
2013-11-19,1,0.0010008787652079736,0.001052807609180248,-0.008017450181489392,0.01396066316323003,0.9880162447636498
2013-11-21,1,0.0009462657297868405,0.0010109913845507555,-0.007003112372742105,0.015105530353336866,0.9881383644431154
2013-11-25,1,0.0005146369675289308,0.0006382782125424345,-0.006563063416120658,0.015105530353336866,0.9883329078185427
2013-11-27,1,0.001759031142088132,0.0018368098808234808,-0.006563063416120658,0.010397328644815206,0.9889398899259054
2013-12-02,1,0.001739223705545269,0.0018569121611310033,-0.0047535409861253495,0.007400291226313921,0.9899333796051738
2013-12-04,1,0.0006948379624113518,0.0007176815665843217,-0.0047535409861253495,0.008108330921831882,0.990441556808742
2013-12-06,1,0.0012790873636702,0.0013492688448022141,-0.0029706731777343967,0.005585338030938678,0.9914090317007461
2013-12-10,1,0.0014227580825939329,0.0015754450303931925,-0.002486653940477042,0.005585338030938678,0.9918479471026024
2013-12-12,1,0.001086220471091021,0.0012268087127831292,-0.0028229044568901275,0.005585338030938678,0.9916240571224418
2013-12-16,1,0.0025946780138675855,0.0029324037146713005,-0.0028229044568901275,0.005080292547729117,0.9927036510803788
2013-12-18,1,0.002936748272903175,0.0033024187480992333,-0.0027551548418400917,0.005080292547729117,0.9931770772092282
2013-12-20,1,0.0032810482864539235,0.0036788683000802142,-0.002486653940477042,0.006649801049620383,0.9934718214467171
2013-12-24,1,0.003678867329089762,0.004160114368050477,-0.0034033829546735736,0.006649801049620383,0.9898863209609734
2013-12-27,1,0.0033926042634190813,0.0038163124848071325,-0.005311266365162292,0.0076865831143665036,0.9891666264850819
2013-12-31,1,0.0028386604290327458,0.0031388416414901503,-0.010718057099694561,0.010018467604459172,0.9877707732558035
2014-01-03,1,0.0023975272995617257,0.0026332462883450728,-0.015131843912253091,0.010018467604459172,0.9852411960543785
2014-01-07,1,0.0024850050658880942,0.002721077474454124,-0.015131843912253091,0.011916329035824177,0.9850366222920959
2014-01-09,1,0.001767180592736433,0.0018477964521523066,-0.015131843912253091,0.013926672086147562,0.9838415337993814
2014-01-13,1,0.00020867517252380082,0.0003462781654196437,-0.011506857846776523,0.014280200110227648,0.9845485341404406
2014-01-15,1,0.0008903485031874151,0.0009470614881926323,-0.011506857846776523,0.014280200110227648,0.9851089601261231
2014-01-17,1,0.0012990773406557723,0.0013053142503530052,-0.011506857846776523,0.012773115641624871,0.9853532034461715
2014-01-22,1,0.0010606787895832645,0.0011703312916329146,-0.015131843912253091,0.011916329035824177,0.9854016715736356
2014-01-24,-1,-0.0016004403101100456,-0.0011796486967974068,-0.006637058114987706,0.012122185467977727,0.9878645341046718
2014-01-28,-1,-0.0012123817475147298,-0.0008697832214316156,-0.008064063955697084,0.01180082028319971,0.9882763191960467
2014-01-30,-1,-0.0015921065610295163,-0.00116367613713106,-0.006005371634083163,0.01180082028319971,0.9885606801739877
2014-02-03,-1,-0.0037317379217221454,-0.00308768194107572,-0.005136985984080969,0.012426589383751468,0.9893620702532984
2014-02-05,-1,-0.0037562611715232365,-0.003080922926701488,-0.005136985984080969,0.013264291293107125,0.9892472687044651
2014-02-07,-1,-0.0016654653185700968,-0.001297783885760586,-0.005896983351577091,0.01025340833234839,0.9911320566456459
2014-02-11,-1,-0.0005393311943946189,-0.0003470252875329285,-0.005896983351577091,0.0049624642014353,0.9918831030265003
2014-02-13,-1,-0.0008228495450068869,-0.0005845880282880645,-0.008064063955697084,0.003195297709475942,0.9902954159940149
2014-02-18,-1,-0.0012430338474595584,-0.0009149167944382183,-0.008064063955697084,0.008486844151701098,0.9900981484384274
2014-02-20,-1,-0.0020805729587637517,-0.001649353749093253,-0.008064063955697084,0.009045978142309926,0.9900932259624206
2014-02-24,-1,-0.0021277905972614244,-0.0016722855051404554,-0.008064063955697084,0.008120478579320045,0.9904868634442642
2014-02-26,-1,-0.0028915040579727542,-0.0023446511724229033,-0.004245148857260584,0.009045978142309926,0.9895749443322335
2014-02-28,-1,-0.0020193874025892407,-0.0015751452616565716,-0.007821773708359916,0.009045978142309926,0.9902167421439401
2014-03-04,-1,-0.0026903782661475127,-0.0020958367110064727,-0.0026375932019816763,0.009045978142309926,0.9906878229855838
2014-03-06,-1,-0.001080648517291872,-0.0007739103504356426,-0.007821773708359916,0.008120478579320045,0.9911634007154404
2014-03-10,-1,-0.0011452824511050796,-0.0008595244706096249,-0.009633349195722476,0.008120478579320045,0.9898586789827829
2014-03-12,-1,-0.000535230647081577,-0.0003707897278522237,-0.009633349195722476,0.009045978142309926,0.9888786427970297
2014-03-14,-1,-0.0013977602538346094,-0.001205089071505446,-0.008894677549257308,0.009045978142309926,0.9884978480042249
2014-03-18,-1,-0.00029482215537270757,-0.00026040773981234495,-0.008894677549257308,0.009396579517139216,0.9883446474813224
2014-03-20,-1,-0.00023992688925731585,-0.00021719618132374536,-0.007899807375057714,0.012241372625062592,0.9873960731440903
2014-03-24,1,8.291976948589718e-05,0.00011116463689780376,-0.008303281196957842,0.012241372625062592,0.9869345659315144
2014-03-26,1,0.0007407678241867124,0.000839272279459623,-0.00973793245713864,0.008746972317791,0.9872171466887069
2014-03-28,1,0.000744082809715848,0.0008237067714889229,-0.010899040833721684,0.007700959254434518,0.9874368290414244
2014-04-01,1,0.0012745673798130663,0.0014090701800009064,-0.010899040833721684,0.006901352908280863,0.9878840709922259
2014-04-03,1,0.0006126948954746786,0.0006210546055606548,-0.008690317322485524,0.006901352908280863,0.9884336283199141
2014-04-07,-1,-0.0003787170282229189,-0.00030472151238951925,-0.007394747671117288,0.006901352908280863,0.9899432845255048
2014-04-09,-1,-9.502806363488893e-05,-3.1133224858529096e-05,-0.007394747671117288,0.006901352908280863,0.9904072111715234
2014-04-11,-1,-0.0016412091485574726,-0.0014260718379956712,-0.006570093679162208,0.0074328611894153174,0.9919859585765555
2014-04-15,-1,-0.0007523927573382181,-0.0006360782824662143,-0.006570093679162208,0.00656882164638176,0.9928718715889987
2014-04-17,1,0.0003068473435477051,0.00032182971116530176,-0.006941267757226562,0.005092810632840856,0.9936695007808476
2014-04-22,1,0.0001394842120290072,0.00015780295252018435,-0.006941267757226562,0.004696721302894232,0.9938201852323398
2014-04-24,-1,-2.160376740978729e-05,-2.0985288178244336e-05,-0.006570093679162208,0.00533677170393994,0.9938815450442978
2014-04-28,-1,-0.0008659351364477236,-0.0007514185329182149,-0.0042013713388168415,0.00656882164638176,0.993867199101355
2014-04-30,-1,-0.0011146927363557995,-0.000925313275770979,-0.005691452849042048,0.006745991073426577,0.9932979464731033
2014-05-02,-1,-0.0010713241407026392,-0.0009130770219389764,-0.0042013713388168415,0.006745991073426577,0.9933342511067773
2014-05-06,-1,-0.0016135555208801073,-0.0013769104804840669,-0.0007604206898513071,0.007664259454611208,0.9925946366294934
2014-05-08,-1,-0.0016859829427837507,-0.001392995688786985,-0.0029363256656166456,0.007664259454611208,0.9926641403916501
2014-05-12,-1,-0.00016467138069139656,-0.000130066034043562,-0.0029363256656166456,0.007308400188125808,0.9936717278520799
2014-05-14,-1,-0.00014725670942754266,-0.00014435915155381116,-0.004042435268764121,0.007308400188125808,0.993183633643824
2014-05-16,-1,-0.0003094570786150032,-0.00030294463221620737,-0.0008293737660786508,0.007308400188125808,0.993868273443074
2014-05-20,-1,-0.0002787751049058352,-0.0002541854754785785,0.00014024657271203682,0.009250640384569936,0.9928759767667762
2014-05-22,1,0.00023768589582877727,0.0003338841359112431,-0.00242412935710549,0.00848040368043333,0.9935428520881984
2014-05-27,1,0.0007306537305577564,0.0008942225711390298,-0.002799812039131063,0.007308400188125808,0.9938720289912025
2014-05-29,1,0.0006509301959399816,0.0007901636676420514,-0.002799812039131063,0.004513203482902522,0.9945372864097681
2014-06-02,1,0.0009612429770363323,0.0011602842115641142,-0.002799812039131063,0.007179715790897075,0.9941260353396247
2014-06-04,1,0.001439529290344832,0.0016969084202362538,-0.002799812039131063,0.006428203036500811,0.9942513183265913
2014-06-06,1,0.0012422269087961689,0.0014115517899118202,-0.0037674971574876755,0.005514243537562406,0.9943676573600891
2014-06-10,1,0.0016216838231903079,0.0018806481854202384,-0.005319872516942058,0.006428203036500811,0.9935947608073556
2014-06-12,1,0.001247345626896518,0.0014828619066562887,-0.0037674971574876755,0.0065136127981846445,0.9936067374294801
2014-06-16,1,0.001747435465090703,0.0020965327872464615,-0.0037674971574876755,0.008018123055400476,0.9930047796167643
2014-06-18,1,0.0017243438928600872,0.0019379235383330045,-0.005319872516942058,0.0059608191050859365,0.9930739011798618
2014-06-20,1,0.0014897072276755887,0.0016740178130429772,-0.005956655530282479,0.0065136127981846445,0.9926978331448307
2014-06-24,1,0.0013977198961288182,0.001579764313718745,-0.007105508281961995,0.0065136127981846445,0.9926539346531488
2014-06-26,0,-8.273393301738469e-05,5.0025341511885865e-05,-0.007538777822535386,0.0065136127981846445,0.9922262693352466
2014-06-30,1,0.0005652162992736997,0.0006066214796707492,-0.007538777822535386,0.005542713458123684,0.9923924687298421
2014-07-02,1,0.0014347652512196121,0.0015750238172623219,-0.007756634011990752,0.004963774467815896,0.9913420905630757
2014-07-07,1,0.0016326387544880962,0.0018330430885513714,-0.007756634011990752,0.005131612937364591,0.9914414413596948
2014-07-09,1,0.0014920360652848517,0.0016675043894050507,-0.007756634011990752,0.005131612937364591,0.9911437226733141
2014-07-11,1,0.0012086673126977371,0.0013543759129112268,-0.007165876394702003,0.0052018507716856295,0.9912794928871711
2014-07-15,1,0.0014662308191656774,0.0016040309586316708,-0.007165876394702003,0.0052018507716856295,0.9916843696536897
2014-07-17,1,0.0008648867060365161,0.0009348017686845098,-0.006224928190970596,0.006450219079225758,0.9924814132078041
2014-07-21,1,0.0005627615908140775,0.0005708092544058839,-0.004643535428673405,0.006450219079225758,0.9924771156204325
2014-07-23,1,0.0007322127645845787,0.0007969346037928753,-0.003640368986108164,0.007092197944822325,0.9923248636228815
2014-07-25,1,0.0006907384746088816,0.0007643622562951322,-0.0015300245940930409,0.007092197944822325,0.9925384669993923
2014-07-29,1,0.0008627438036000887,0.0009865309832428786,0.0004454371854432526,0.009737923411882746,0.9916851071913791
2014-07-31,-1,-0.0005481336330390141,-0.0004753195366187737,-0.0015300245940930409,0.009737923411882746,0.9915114344848429
2014-08-04,-1,-0.00041000509034997367,-0.0003563813762055268,-0.0015300245940930409,0.009737923411882746,0.9915642015159634
2014-08-06,-1,-0.0016252977820343665,-0.0013458741930695707,0.0007071582177104705,0.008397723507412021,0.9917248187017893
2014-08-08,-1,-0.0007166761644612806,-0.0005773225181587599,0.0007071582177104705,0.007428970596709192,0.9929141687490198
2014-08-12,-1,-0.0003535037903676617,-0.00025591035899970397,-0.0009145358175059571,0.006931593255370214,0.9927918712905304
2014-08-14,1,0.00020823102799671396,0.0002315179689993818,-0.0017669366455443747,0.006086264085196147,0.9932668965957474
2014-08-18,1,0.001150394759345882,0.0012941614314185604,-0.004362799494627303,0.005277521242398291,0.9937864310315011
2014-08-20,1,0.001742620339376153,0.0019740735763915628,-0.004362799494627303,0.004911039173147018,0.9938691061922519
2014-08-22,1,0.002233385553471144,0.0025694987396869765,-0.005792092405687967,0.00487284743160676,0.9930761865380378
2014-08-26,1,0.003208608865941034,0.003656329927465258,-0.006777689537996698,0.004438571071303437,0.9932276073331135
2014-08-28,1,0.0014989798477211438,0.0016465951206089363,-0.005792092405687967,0.00487284743160676,0.9915667218651215
2014-09-02,1,0.0015058002439475864,0.0016826340245501962,-0.007230916317834702,0.004438571071303437,0.9909371515960843
2014-09-04,1,0.0008717210013622699,0.00088003913408338,-0.008823477675977227,0.0038794498658405443,0.9903887038179662
2014-09-08,1,0.0012059647723052702,0.001294269710113075,-0.008823477675977227,0.004438571071303437,0.9899004034609736
2014-09-10,1,0.0012427385634276016,0.0013797556726024781,-0.008957536385963104,0.0062843319178306,0.9886906627868225
2014-09-12,1,0.0012051572552292987,0.001331857423729307,-0.013761675253208497,0.0062843319178306,0.9864159609768308
2014-09-16,1,0.0008289000132747388,0.000876261926135969,-0.015619198079763596,0.00968024801911471,0.9857403465092146
2014-09-18,1,0.0009383724406992235,0.0009684193550521569,-0.015619198079763596,0.00968024801911471,0.9858898683032458
2014-09-22,1,0.0004340667000205312,0.00045592661785701853,-0.015619198079763596,0.011047452894208592,0.9857326104700541
2014-09-24,1,0.00035072029789539444,0.00039344501102095165,-0.015619198079763596,0.011047452894208592,0.9852826209388066
2014-09-26,1,0.0006753159558301242,0.0006934948521811742,-0.013761675253208497,0.011047452894208592,0.9870857144671239
2014-09-30,1,0.0001996268576221027,0.0002564240315157914,-0.011575920156325104,0.012408656402007485,0.9874130140811559
2014-10-02,0,-6.0665590116624785e-05,7.618408255064609e-06,-0.008627564647421891,0.012408656402007485,0.9876291430142967
2014-10-06,0,-6.300301358687333e-05,2.229304487456042e-05,-0.008627564647421891,0.014614396117927598,0.9868249664339009
2014-10-08,-1,-0.0005185609463506023,-0.00035338255557730303,-0.007098442077817744,0.012408656402007485,0.9879411620780486
2014-10-10,-1,-0.002222808106712734,-0.0018517804112050216,0.0007117355688814556,0.012408656402007485,0.98838516798457
2014-10-14,-1,-0.002212550367263129,-0.0018625239176858275,0.0007117355688814556,0.012408656402007485,0.9894361636146259
2014-10-16,-1,-0.0015871625579102874,-0.0013294706489870808,-0.002582700326543425,0.011839307411369512,0.990329778134168
2014-10-20,-1,-0.0013675198625014069,-0.0011350286756910111,-0.0022883445088467554,0.010132597792980431,0.9914909227901529
2014-10-22,-1,-0.00105139354068965,-0.0008605133125813814,-0.0022883445088467554,0.00895146827382875,0.9926522715140971
2014-10-24,1,8.980508752477183e-05,0.00012595510352160087,-0.0022883445088467554,0.008498027988079313,0.9928992313211523
2014-10-28,1,0.0006315054655145273,0.0006781514510581876,-0.0022883445088467554,0.007987594647006904,0.9935344292258396
2014-10-30,1,0.0009466338434341972,0.0010368816587930719,-0.0022883445088467554,0.007987594647006904,0.9939138312801814
2014-11-03,1,0.0010521166772934146,0.001121129973549549,-0.0022883445088467554,0.005074011384188455,0.9947568015707391
2014-11-05,1,0.0014386768776565159,0.0015582169883073878,-0.0022883445088467554,0.003620437096049179,0.9949712119981696
2014-11-07,1,0.002377652557671529,0.002675762695410834,-0.0022883445088467554,0.0034194553911385656,0.9952200203926065
2014-11-11,1,0.002177665901798115,0.0024365247421211673,-0.002790182172337766,0.0034194553911385656,0.9943831572572531
2014-11-13,1,0.001809896034502555,0.0020071215281817706,-0.003007135241894179,0.0034194553911385656,0.9925219610791881
2014-11-17,1,0.0015628415883363893,0.0017180932993747428,-0.005239746202438828,0.0034194553911385656,0.9921806076150407
2014-11-19,1,0.0017344707455933975,0.0019307015581477129,-0.0050461778612899315,0.005640428045810283,0.9895819150153766
2014-11-21,1,0.002590825270563665,0.00290957705107546,-0.0050461778612899315,0.0037656407227987005,0.9906244659351463
2014-11-25,1,0.002564141979130543,0.0028715934822248577,-0.0050461778612899315,0.005187227103734525,0.9903223783782832
2014-11-28,1,0.0026564099110754765,0.002970025646055492,-0.0050461778612899315,0.004842240939932218,0.9901214410630016
2014-12-02,1,0.0021345106143674914,0.0023562114953956667,-0.0050461778612899315,0.004842240939932218,0.9898379550491498
2014-12-04,1,0.002762203802289384,0.0030972207765526255,-0.007735619518742217,0.00303681699497484,0.9884310651009311
2014-12-08,1,0.0025805782099104137,0.002853120254225512,-0.009822160383219551,0.00303681699497484,0.9873222157178302
2014-12-10,1,0.001982717311998926,0.002175253312005114,-0.009665207846552108,0.004842240939932218,0.9874881779885867
2014-12-12,1,0.0003319527775776309,0.00036893906618867817,-0.006773427135301905,0.004842240939932218,0.989711368186352
2014-12-16,-1,-0.0002650256016431297,-0.0001477943869156984,-0.0073255856707757794,0.004842240939932218,0.9896402809580294
2014-12-18,1,0.0017324898104428897,0.0018553988740747935,-0.0073255856707757794,0.0031826113222895407,0.9912036534027592
2014-12-22,1,0.001248018390715891,0.0012521884879014764,-0.0073255856707757794,0.008401330627126202,0.9896297153100605
2014-12-24,1,0.0013476015041620922,0.0013502295038873367,-0.010122222193132172,0.006893219966719359,0.9890025431898232
2014-12-29,1,0.0009927296667290371,0.0010405395447006323,-0.01324743709315766,0.006893219966719359,0.9874456920240501
2014-12-31,1,0.0004897428431708381,0.0005820725299139693,-0.015583550592136555,0.006893219966719359,0.9872820218206055
2015-01-05,-1,-0.0004406670925852143,-0.0002528203438678444,-0.012776579483155328,0.01257801514051077,0.9870466589169078
2015-01-07,0,-0.00011085148950727675,1.8706173740465164e-05,-0.010122222193132172,0.01257801514051077,0.9873887803346459
2015-01-09,1,7.747173053621915e-05,0.00016447385994323657,-0.0073255856707757794,0.01136413878731899,0.9878141267614341
2015-01-13,1,0.00017256053338393488,0.00022465436770001447,-0.007192442544732459,0.015558595629358029,0.9868398532941798
2015-01-15,-1,-0.0003531639437392891,-0.00024357425440273313,-0.0047652589635006366,0.015558595629358029,0.986779527656437
2015-01-20,1,0.0005696439118066095,0.0006235281896854292,-0.006234753995320988,0.013915949580502504,0.9870608916604788
2015-01-22,1,0.0013507822155166779,0.001464578743601226,-0.006234753995320988,0.011922008605704318,0.988804831322036
2015-01-26,1,0.0009944314512003562,0.0010580697237369046,-0.0047652589635006366,0.011922008605704318,0.9896150223942247
2015-01-28,1,1.8014969053043437e-06,4.968887991141328e-05,-0.0030026010125845156,0.011922008605704318,0.9909161011563137
2015-01-30,-1,-0.0004385549003920699,-0.0003410061911718612,-0.0030026010125845156,0.013462168489083574,0.990991256857974
2015-02-03,1,0.0005528772312345434,0.0005569124177172648,-0.005880972818756366,0.01039761078044098,0.9916584870794363
2015-02-05,1,0.0009311074885387688,0.0009784276670546134,-0.005967509353579005,0.005862399762872585,0.992330412950291
2015-02-09,1,0.0009636794900215269,0.001006371117607136,-0.006703837937587646,0.0034364903827142843,0.9916788202471208
2015-02-11,1,0.0018362652092068325,0.002020461615602269,-0.006703837937587646,0.0049053793556140994,0.9913795796352127
2015-02-13,1,0.0019139740725574966,0.002071763703208939,-0.006703837937587646,0.0049053793556140994,0.9909911479206029
2015-02-18,1,0.001980720949814814,0.002149576846696295,-0.0061769836913777455,0.0049053793556140994,0.9914187481662486
2015-02-20,1,0.002218430924705602,0.002442523525459686,-0.007899051515195071,0.007012420849071897,0.9895712597653968
2015-02-24,1,0.0018886131878183246,0.0020236253978949507,-0.01155794910719734,0.007012420849071897,0.9884329476758226
2015-02-26,1,0.0012385096447561504,0.0012526897828112472,-0.012086414996802793,0.007012420849071897,0.9880615284082054
2015-03-02,1,0.0013449509498642085,0.0013838170410088878,-0.012086414996802793,0.007012420849071897,0.9882205864467533
2015-03-04,1,0.0004289082911184708,0.0005100530782618497,-0.01155794910719734,0.007012420849071897,0.9887152386861956
2015-03-06,-1,-0.0011010024464569758,-0.0007596323581544142,-0.009549457210613928,0.009654700499828103,0.989135715562477
2015-03-10,-1,-0.002299938358635257,-0.0018013849147354938,-0.006839322736586364,0.009654700499828103,0.9897383094611426
2015-03-12,-1,-0.0010369383105883838,-0.0006985094055955662,-0.006839322736586364,0.006030044748171285,0.991126595984448
2015-03-16,-1,-0.0005720613257193368,-0.00029010846171760205,-0.006839322736586364,0.006030044748171285,0.991470363253113
2015-03-18,-1,-0.00024056259864915785,-1.8674862002973766e-06,-0.009549457210613928,0.00569927020332713,0.990996128912826
2015-03-20,1,0.00028643332351885943,0.00042305401649176896,-0.009549457210613928,0.00569927020332713,0.9916386945115836
2015-03-24,-1,-0.0005205070278324642,-0.00030785573306889075,-0.0059775919373819195,0.00606821822881942,0.9923258306190523
2015-03-26,-1,-0.0010866438829172593,-0.0008251799173647875,-0.005679718410291432,0.006919047826456167,0.9925674851764728
2015-03-30,-1,-0.0001998187056606175,-6.955826718445506e-05,-0.005679718410291432,0.006919047826456167,0.9927669763321191
2015-04-01,-1,-0.0004978954433131262,-0.00035804073533638256,-0.005679718410291432,0.006919047826456167,0.9916041818203991
2015-04-06,1,0.0003364448165954529,0.00034386240148297605,-0.005679718410291432,0.006919047826456167,0.9915132732356823
2015-04-08,1,0.0005120467498156853,0.0005231547667706877,-0.0072909279351599885,0.006919047826456167,0.9909153345205335
2015-04-10,1,0.000262435027916628,0.00029746317117829895,-0.0072909279351599885,0.008706199396150215,0.9905544620312958
2015-04-14,1,0.0004970098791301839,0.0005152043279233343,-0.0072909279351599885,0.006919047826456167,0.9904024980245097
2015-04-16,1,0.0002167269538773292,0.0002735269033945295,-0.007132303471114341,0.007860697136792364,0.9905425839508755
2015-04-20,1,0.0004835912705080659,0.0005066205682113136,-0.006354754082729462,0.006342848022946066,0.9918501321996938
2015-04-22,1,0.0004784629391667216,0.000505342487482244,-0.006354754082729462,0.006342848022946066,0.9922511829847378
2015-04-24,1,0.0008394840785708175,0.0009235972561708397,-0.006354754082729462,0.004884709928010034,0.9922378653139934
2015-04-28,1,0.0010563738180707828,0.001148726507195454,-0.007132303471114341,0.004884709928010034,0.9921954883243886
2015-04-30,1,3.0415792005202523e-05,4.554723231160627e-05,-0.006354754082729462,0.004884709928010034,0.9937087642677623
2015-05-04,1,0.0007316828892209908,0.0008223369306363995,-0.006354754082729462,0.001311384010109975,0.9939756386531232
2015-05-06,-1,-0.0002904376645351371,-0.00021815921401356612,-0.005638952478654491,0.0027548216342182063,0.9940864452004633
2015-05-08,-1,-0.0006729631441894385,-0.0004733964702193544,-0.006334217160742158,0.0001673468375392044,0.9945806573158666
2015-05-12,-1,-0.0015235982555177642,-0.0012010202292486848,-0.005317830498294422,0.001311384010109975,0.9948170814691477
2015-05-14,1,0.00040356868491980293,0.000421552255097709,-0.005865695546225341,0.001311384010109975,0.9945036288744098
2015-05-18,1,0.000415685530097399,0.0004458724853376152,-0.005865695546225341,0.0035972190325710674,0.9941529502385532
2015-05-20,1,0.0004687916626229205,0.0005180119823196986,-0.005865695546225341,0.004507600758347127,0.9938176654035903
2015-05-22,1,0.0002553607912790316,0.000274531397299885,-0.005700747437370878,0.004507600758347127,0.9938744512099068
2015-05-27,0,-2.7516742914962593e-05,1.6454113864792393e-05,-0.005700747437370878,0.0035972190325710674,0.9940461974231299
2015-05-29,-1,-0.0009462670063647103,-0.0007453590188054151,-0.005700747437370878,0.004507600758347127,0.993713947804917
2015-06-02,-1,-0.0010639347704049912,-0.0008614709725182406,-0.007629045379033885,0.004507600758347127,0.9923527666915186
2015-06-04,-1,-0.001618744458147577,-0.001349965825787985,-0.006071400958606033,0.004443228099292467,0.9930209549302357
2015-06-08,-1,-0.0021463332145923303,-0.00180872220258761,-0.00619242485099232,0.004443228099292467,0.9930689246639662
2015-06-10,-1,-0.0021813196202180654,-0.0018183738011077896,-0.007992117056192747,0.004443228099292467,0.9919536387683905
2015-06-12,-1,-0.002119972106630439,-0.0017843218988326645,-0.00619242485099232,0.006129155489319032,0.9913101788419215
2015-06-16,-1,-0.0010135431652985066,-0.0008680534054298867,-0.00619242485099232,0.007794023510970761,0.9913914316960271
2015-06-18,-1,-0.0008761602839818591,-0.0007334041237013559,-0.00619242485099232,0.007794023510970761,0.9907714148671816
2015-06-22,-1,-0.001681750971485236,-0.0013942014575194788,-0.00619242485099232,0.007794023510970761,0.9906758704704491
2015-06-24,-1,-0.002263150708656711,-0.00188652945849214,-0.00619242485099232,0.007794023510970761,0.9909080990229827
2015-06-26,-1,-0.0017922995757437819,-0.0015200694912999746,-0.008166761848745426,0.005041752912759699,0.9906392184593278
2015-06-30,-1,-0.002140137329223391,-0.0018541686669307465,-0.00619242485099232,0.007794023510970761,0.9915410930670974
2015-07-02,-1,-0.0021030874642077374,-0.0018301524978502882,-0.007254693068005498,0.007794023510970761,0.9917007735333657
2015-07-07,-1,-0.0018682019676559615,-0.001662009210081733,-0.006857610856304401,0.007794023510970761,0.9915883002222045
2015-07-09,-1,-0.001959528231689305,-0.0017702973791895297,-0.005567926552609514,0.006983237329041294,0.9926557911900693
2015-07-13,-1,-0.0010866768663596715,-0.0010098104385838254,-0.005567926552609514,0.0030303780579622303,0.9928770331528095
2015-07-15,-1,-0.000863351609603946,-0.0008107900201875233,-0.007554296309897581,0.000996547251355341,0.9923940450041772
2015-07-17,0,-4.8153936641334315e-05,8.222918481552916e-06,-0.007554296309897581,-0.001959421256740785,0.9926959004606851
2015-07-21,-1,-0.0003329876781012584,-0.00032639816022980977,-0.007554296309897581,0.0022449472075982196,0.9929058001295545
2015-07-23,-1,-0.0006831981314078053,-0.0006563818666935604,-0.010152492430946458,0.0022449472075982196,0.9920416889787731
2015-07-27,-1,-0.0022856701269380547,-0.0020502369351699055,-0.01067517984876699,0.0022449472075982196,0.9913432181921489
2015-07-29,-1,-0.001652165885479484,-0.0014727865612056317,-0.015458768357636385,-0.00048254700798022027,0.9896302846992516
2015-07-31,-1,-0.0023301411278604926,-0.002035917933510642,-0.015458768357636385,0.004411846010682195,0.9879247784369534
2015-08-04,-1,-0.0021105608875963302,-0.00189716235588848,-0.01728782609611245,0.004411846010682195,0.9857124066158603
2015-08-06,-1,-0.0015591112578851381,-0.0014320739107657366,-0.01728782609611245,0.006056927831154815,0.9849288735076701
2015-08-10,-1,-0.0009824699385049727,-0.0009363979837531571,-0.01939707244933451,0.006056927831154815,0.9833044968767354
2015-08-12,-1,-0.0015751846475800448,-0.00146794749065818,-0.01939707244933451,0.008725091726077779,0.983090302861156
2015-08-14,-1,-0.0017957250803899664,-0.0016309356893876652,-0.01939707244933451,0.008571543284278803,0.9829871252069808
2015-08-18,-1,-0.0019614538192473134,-0.0017536298022164437,-0.01939707244933451,0.016028617027058965,0.9811498775731167
2015-08-20,-1,-0.0026232782323071645,-0.0023642655174908925,-0.016607079924721845,0.016028617027058965,0.9822457390124666
2015-08-24,-1,-0.004276060121220838,-0.0038071483697024178,-0.015171218408327039,0.016028617027058965,0.9830805298140598
2015-08-26,-1,-0.003516412707842212,-0.0031579975238766357,-0.011592177584967544,0.014604362862256196,0.9848510493266118
2015-08-28,-1,-0.0024023663746866155,-0.002186506387245342,-0.016607079924721845,0.012140614479555976,0.9851721155289251
2015-09-01,-1,-0.0037296149188478234,-0.0033626081993631367,-0.008909547615580432,0.013686322216254333,0.986788519561124
2015-09-03,-1,-0.0027458061087659727,-0.002511827745450484,-0.008909547615580432,0.01391755846695317,0.986580317561503
2015-09-08,-1,-0.0026759545329606903,-0.002456994303551663,-0.007777786861180488,0.01391755846695317,0.9869567995582543
2015-09-10,-1,-0.0025988912538054323,-0.002385331143840125,-0.0066964339292994255,0.014648103879659428,0.9869057420647056
2015-09-14,-1,-0.0024562595000014098,-0.0022637711423670543,-0.0067673159498380245,0.014648103879659428,0.9872748427054464
2015-09-16,-1,-0.0009735671017082073,-0.0009717465950655177,-0.0067673159498380245,0.011911679681121633,0.98791716319732
2015-09-18,-1,-0.0010261501932051042,-0.0010108388671387575,-0.005521891529478546,0.014085287601014742,0.9872065818149461
2015-09-22,-1,-0.0018515497119954453,-0.0017218995170371339,-0.005521891529478546,0.014085287601014742,0.9887454916857222
2015-09-24,-1,-0.0017565974563725547,-0.0016661886059153679,-0.005521891529478546,0.01780785800286787,0.9863761198537122
2015-09-28,-1,-0.0026282450214333355,-0.002422041682695256,-0.005521891529478546,0.017997515449026672,0.986756028902267
2015-09-30,-1,-0.001776396041873135,-0.0017011172969062793,-0.005521891529478546,0.023778809228006625,0.9858471164755
2015-10-02,-1,-0.0012576902633668935,-0.001232589556687127,-0.004840736040054675,0.017997515449026672,0.9863696614412216
2015-10-06,0,-3.6487876933340645e-05,0.00012889884823625176,-0.004840736040054675,0.016032207299318594,0.9873318323933525
2015-10-08,1,0.0005548521573694995,0.0008012365266693701,-0.00460764717152198,0.01224166284254795,0.9886037310213333
2015-10-12,1,0.0004135703725791659,0.0006446384159056915,-0.00460764717152198,0.01224166284254795,0.9879698564664069
2015-10-14,1,0.0010394007208744769,0.0013506725797570991,-0.00460764717152198,0.010416077687906575,0.9892334074472414
2015-10-16,1,0.0018516632284101637,0.0022763989333623646,-0.007630664569302818,0.00809568203364895,0.9892036947288761
2015-10-20,1,0.0015452861718093273,0.0019225602789829184,-0.00594310795132157,0.010416077687906575,0.9886636146540644
2015-10-22,1,0.002251815718343436,0.0027155388380433795,-0.00460764717152198,0.010416077687906575,0.9903119654398106
2015-10-26,1,0.0022164792868926584,0.002651597517056491,-0.0042783365599222715,0.009594039427587468,0.9912877787116172
2015-10-28,1,0.0028141940428848414,0.0033079360736471197,-0.004583622635009988,0.009594039427587468,0.991641510552872
2015-10-30,1,0.0033448853055689075,0.003918798605687527,-0.0056885641724737975,0.009708101558186594,0.9909614114335051
2015-11-03,1,0.0037479119710506687,0.004364404170959934,-0.0064382842783875785,0.004666530281834877,0.9902620223389873
2015-11-05,1,0.0037962199790420913,0.004436450094047642,-0.007343491194686931,0.009708101558186594,0.9886715511976791
2015-11-09,1,0.0033726475122664275,0.003974766514152391,-0.009221320201981976,0.009708101558186594,0.9882728294484902
2015-11-11,1,0.003402626165832266,0.004001237861822738,-0.012787878465733538,0.009708101558186594,0.9876156628433465
2015-11-13,1,0.0027940326691341913,0.003301400222626495,-0.013058599584355556,0.009708101558186594,0.9851965192508996
2015-11-17,1,0.003584155393776994,0.0041903446755918216,-0.013058599584355556,0.009708101558186594,0.9847214459677956
2015-11-19,1,0.0037045402975785027,0.00428501126101633,-0.015429844512963926,0.005668999181345166,0.9840677111475501
2015-11-23,1,0.00387382055764718,0.004469768691802241,-0.015429844512963926,0.011181372735544346,0.983428078821832
2015-11-25,1,0.0035495809798799954,0.004087621266541591,-0.013058599584355556,0.013236748939481558,0.9832227024248898
2015-11-30,1,0.003602177632856097,0.004116719273983452,-0.013058599584355556,0.013260604844367339,0.9836567743948316
2015-12-02,1,0.003503489629711775,0.0040423794311132254,-0.013058599584355556,0.013260604844367339,0.983899097235295
2015-12-04,1,0.0036652826677425637,0.004234241345076573,-0.013058599584355556,0.006495708009578826,0.9846676767899532
2015-12-08,1,0.0030705864690287153,0.0036031878405303423,-0.011664836204560575,0.006495708009578826,0.9838215064053943
2015-12-10,1,0.002567380424120097,0.0030166099411504253,-0.013981467400023456,0.006495708009578826,0.9833351621277752
2015-12-14,1,0.00021736231497392533,0.00033061633157459156,-0.013981467400023456,0.013260604844367339,0.9849902062505757
2015-12-16,1,0.0007971249905530059,0.0009355206186860423,-0.022637560293478506,0.013260604844367339,0.9836852661978428
2015-12-18,1,0.00014409970350494784,0.00021286367265837538,-0.013981467400023456,0.013260604844367339,0.9843632195731031
2015-12-22,1,0.0007611896097988902,0.0008946521393327705,-0.013981467400023456,0.006260465471184694,0.983474590697038
2015-12-24,1,0.0011306289242874186,0.0012930653388602484,-0.022637560293478506,0.006260465471184694,0.9817357987789802
2015-12-29,1,0.0016196726943698732,0.0018486536295241164,-0.022637560293478506,0.004325536875419483,0.9814405203139439
2015-12-31,1,0.0014495036182690982,0.0016669690981706052,-0.022637560293478506,0.011440792080916064,0.9793477025763421
2016-01-05,1,0.0005478225295803788,0.0006041286867539053,-0.026043873126513656,0.011440792080916064,0.9784782749329646
2016-01-07,-1,-0.0010127236631333782,-0.0008841488179477435,-0.020520348185806336,0.017243147787994413,0.9789277400372504
2016-01-11,-1,-0.0017180869265538408,-0.0015107162218884883,-0.021384441340831933,0.017243147787994413,0.9779229113830615
2016-01-13,-1,-0.0026529140445879385,-0.002284892660334978,-0.015669268254541423,0.01468581099500655,0.9789213437342991
2016-01-15,-1,-0.004545311495444675,-0.0038703732744253933,-0.010965692766732099,0.026676112902577653,0.978515400237827
2016-01-20,-1,-0.004771310759957044,-0.004090286279775751,-0.012809997822378372,0.026676112902577653,0.9774253485757441
2016-01-22,-1,-0.0033301019978996173,-0.0028584402211676236,-0.012809997822378372,0.019152681495500583,0.9789690085218559
2016-01-26,-1,-0.004505715486705296,-0.003812345218124082,-0.012809997822378372,0.014562999554032577,0.9814033094132758
2016-01-28,-1,-0.004189151701106338,-0.0035615282130024325,-0.012809997822378372,0.017480876625005,0.9809962024641153
2016-02-01,-1,-0.002798288813331943,-0.002336068148745334,-0.012809997822378372,0.017480876625005,0.9818377163176563
2016-02-03,-1,-0.003623288609420868,-0.0030653835459459678,-0.011296576812113168,0.017480876625005,0.9828208716162349
2016-02-05,-1,-0.0032697137419929025,-0.002750831802580096,-0.00742968752777729,0.014562999554032577,0.9844490652830881
2016-02-09,-1,-0.003805203950797909,-0.003287251524828495,-0.00742968752777729,0.017480876625005,0.9846363890541963
2016-02-11,-1,-0.004084652097068675,-0.0035125432950869158,-0.0072108780476259115,0.019906594469197226,0.9833084547292139
2016-02-16,-1,-0.00222964288275925,-0.0018518778282728744,-0.010315058049493626,0.013973217583286356,0.9864546782256498
2016-02-18,-1,-0.002379480630304603,-0.001962977459417684,-0.0072108780476259115,0.01425053380154688,0.9865554044072762
2016-02-22,-1,-0.0028494306968742215,-0.0023406834816521263,-0.0072108780476259115,0.01425053380154688,0.9868880104515063
2016-02-24,-1,-0.0036026851640913885,-0.0030201805361221275,-0.005601819572529977,0.01425053380154688,0.9876485553030524
2016-02-26,-1,-0.0025717475425257007,-0.0021429808083363354,-0.0072108780476259115,0.010104208148483984,0.9878940619615731
2016-03-01,-1,-0.0011664383601698914,-0.0009466431196521305,-0.006568998942730038,0.008971707653537522,0.9890711024341728
2016-03-03,-1,-0.000799629198579228,-0.0006495553208021654,-0.005206861107301862,0.008126866644527353,0.9898407574934366
2016-03-07,-1,-0.0006627067432846955,-0.0005133645389579663,-0.010315058049493626,0.006283191985934533,0.9894007215619147
2016-03-09,-1,-0.00013163929900780025,-7.569459603433553e-05,-0.010315058049493626,0.00610840735368843,0.9898216097626681
2016-03-11,1,0.0012553463814822178,0.0014184541208777856,-0.006771640833997568,0.00610840735368843,0.9917520235951106
2016-03-15,1,0.0005999033931253512,0.000655637391751961,-0.00346902189167657,0.008126866644527353,0.9904546383434107
2016-03-17,1,0.0015550073960701547,0.0017788112634934887,-0.00346902189167657,0.008206474731880012,0.990643488597493
2016-03-21,1,0.0016054161115551346,0.0018434015276499796,-0.00346902189167657,0.009137465965903752,0.9899571504764453
2016-03-23,1,0.0017544869784321673,0.002056916009104769,-0.003685821706746873,0.009137465965903752,0.9899167030652998
2016-03-28,1,0.0018108634856116048,0.0021475112524632313,-0.0029957269453149415,0.009137465965903752,0.9906269530716
2016-03-30,1,0.0024428752936423185,0.0028936575442111666,-0.0029957269453149415,0.008439485598822878,0.9910185027339758
2016-04-01,1,0.002508064672931,0.002962955909738812,-0.007153540612647452,0.008439485598822878,0.989686112371769
2016-04-05,1,0.0015805585063316681,0.0018765605316446807,-0.0054561620747166865,0.011004639116415547,0.9891859975406538
2016-04-07,1,0.0011379663741936446,0.0013803561989318563,-0.0054561620747166865,0.011004639116415547,0.9900420482628413
2016-04-11,1,0.001236925929346863,0.0014602629313411164,-0.0054561620747166865,0.011998991808705672,0.9899197907286799
2016-04-13,1,0.0028098990697923306,0.00328707604815036,-0.007153540612647452,0.00877093649625292,0.9905725916199152
2016-04-15,1,0.003695278291198506,0.004313659679771297,-0.008258731179685596,0.006229324270460676,0.9901453408417139
2016-04-19,1,0.00436977608566589,0.005096024939118504,-0.008890463890215094,0.006229324270460676,0.9897979850476354
2016-04-21,1,0.004226258566076089,0.0049219673851901655,-0.008890463890215094,0.00753399199227172,0.9894514042644379
2016-04-25,1,0.0042640556344883,0.004976581116090943,-0.008890463890215094,0.010150023800950933,0.9894777585864758
2016-04-27,1,0.004330864543513793,0.005030474531065956,-0.008890463890215094,0.011639872774469984,0.9886355504228341
2016-04-29,1,0.003581738476527206,0.004189699201433686,-0.008334132495395347,0.011639872774469984,0.9901405844495983
2016-05-03,1,0.0030468759439254197,0.003530808264606584,-0.0046124071030949655,0.010150023800950933,0.9911850120864756
2016-05-05,1,0.002607526331727973,0.0030155489356782934,-0.005678947176544771,0.010150023800950933,0.9909862027523857
2016-05-09,1,0.0016585815916885618,0.001822727275850788,-0.008266809996354041,0.008495850541494303,0.9908502711468747
2016-05-11,1,0.001973215533235856,0.0022295326231777605,-0.007039470954741549,0.007628230029599572,0.9919709456719666
2016-05-13,1,0.001080888937411641,0.0011723241967029874,-0.007209657567169821,0.007628230029599572,0.9913318697107115
2016-05-17,1,0.0014859298042736693,0.001671014471759445,-0.007209657567169821,0.005981749762994563,0.9915210169114956
2016-05-19,1,0.0018346622892987411,0.0020957600839032575,-0.006689210091722557,0.005892669974315843,0.9921838435450986
2016-05-23,1,0.002244037145674762,0.002584748924809078,-0.006689210091722557,0.005892669974315843,0.9915836106151444
2016-05-25,1,0.0027573078033368043,0.0031502610050152292,-0.006689210091722557,0.0040646928175189735,0.9912072768896607
2016-05-27,1,0.0023275274126541598,0.0026325130445864226,-0.008600689275009624,0.002423518232259987,0.9862581823469625
2016-06-01,1,0.001544392610998545,0.0016667577779632516,-0.008600689275009624,0.0072180890641491795,0.984414084269756
2016-06-03,1,0.0008098401043912536,0.0008198751691587561,-0.007216027407297064,0.009072078872523266,0.9843570640561339
2016-06-07,1,0.0004753307772924621,0.0005408427221212318,-0.008626938082090552,0.008804839506487108,0.9844229942872958
2016-06-09,0,-0.00013162587113416254,5.222819058682863e-05,-0.008626938082090552,0.014672822746786307,0.9835225448091162
2016-06-13,-1,-0.001550255660644022,-0.0011768406289221643,-0.0031437412828570393,0.01768540858628491,0.9834828715048717
2016-06-15,-1,-0.0016523719877121923,-0.0012973095376687131,-0.0031437412828570393,0.01768540858628491,0.9837414461727065
2016-06-17,-1,-0.0016247825214032302,-0.0012674353555823536,-0.0031437412828570393,0.01768540858628491,0.9837334302865338
2016-06-21,-1,-0.0012731482169447326,-0.0009529085256618526,-0.003427866774067386,0.014672822746786307,0.9842366649348455
2016-06-23,1,4.846496619266463e-06,0.00012157327079496358,-0.003427866774067386,0.010864176693769118,0.9851988698943932
2016-06-27,-1,-0.003430291747101724,-0.002874394646681176,-0.0030699250737333335,0.010864176693769118,0.9890973368907678
2016-06-29,-1,-0.0017345509565448176,-0.0013986722538644678,-0.0030699250737333335,0.007240620885599385,0.9920983504187602
2016-07-01,-1,-0.002003362060528295,-0.0015934607210082597,-0.001327491634257431,0.00697853122944433,0.9922007665962562
2016-07-06,-1,-0.0026826969361905357,-0.002175043061849009,-0.001327491634257431,0.00697853122944433,0.9923723052567613
2016-07-08,-1,-0.0009683181219340767,-0.000749423819891445,-0.0014222001313275467,0.00697853122944433,0.9932647949627432
2016-07-12,-1,-0.00013567393981365778,-1.7576793118694522e-05,-0.0036474377978760178,0.004918148240412285,0.9944952103944656
2016-07-14,-1,-0.0003674133299621268,-0.0002200521838925706,-0.0036474377978760178,0.004918148240412285,0.9943797673367653
2016-07-18,-1,-0.0006703560418698885,-0.00045723863842100964,-0.0036474377978760178,0.006220377647410081,0.9941136341142681
2016-07-20,-1,-0.00037459518125218777,-0.00021661412651464415,-0.004664244847880906,0.006220377647410081,0.9938239802649507
2016-07-22,1,0.0001048744247725265,0.00018048176469762675,-0.004664244847880906,0.004272653455661314,0.9941040783512625
2016-07-26,0,-2.9462287223627976e-05,6.234073357277883e-05,-0.0038220133989866046,0.004272653455661314,0.9942153047473571
2016-07-28,1,0.0001236038845569447,0.0001881095837602572,-0.005389684483470916,0.0039615446709895625,0.9938939454072924
2016-08-01,1,0.0004151524770477275,0.000443152568737046,-0.005389684483470916,0.00430569137731733,0.9938377499824551
2016-08-03,1,0.0007431698800112429,0.0007960195661890479,-0.006537476513765764,0.00617127082630228,0.9934527339627635
2016-08-05,1,0.0008648753536965471,0.0009111714254163852,-0.006537476513765764,0.004856918011526992,0.9945443363740122
2016-08-09,1,0.0006884104122419614,0.0007395192371559667,-0.0031114507437473137,0.005407197401326943,0.994867118518513
2016-08-11,1,0.0005744749417044843,0.0006086797043795011,-0.003840382966844188,0.005407197401326943,0.9937050159892815
2016-08-15,1,0.0006482644801164031,0.0006775854144084423,-0.0066549357510634136,0.005407197401326943,0.9925960452752828
2016-08-17,1,0.00047432557262638115,0.00047923044445330855,-0.003840382966844188,0.005407197401326943,0.9927934962150183
2016-08-19,1,0.0006678769410170813,0.0007027445383891212,-0.003840382966844188,0.005549566383711357,0.9927370404501888
2016-08-23,1,0.0006571845358762392,0.0006925206888071529,-0.0060626222965958045,0.00617127082630228,0.9919717024995489
2016-08-25,1,6.458979258418067e-05,0.00012962596563247876,-0.0060626222965958045,0.007097059888324928,0.9909509424188095
2016-08-29,1,5.462934026649694e-05,0.00014975417227579692,-0.006707108682890392,0.005549566383711357,0.9908479060580172
2016-08-31,1,8.882335726256781e-05,0.00016704032942653146,-0.007662007295271797,0.005295208490461263,0.9909126967750029
2016-09-02,1,0.0006863047394978217,0.0007349532015118224,-0.008021251436781174,0.006440685498282923,0.9901044120705946
2016-09-07,1,0.0009101260665184104,0.001022683844814466,-0.011490958911996628,0.007017990967621542,0.9898113896339156
2016-09-09,1,0.0004616115639489816,0.0005385440125162926,-0.007750356575507103,0.007017990967621542,0.991130766683345
2016-09-13,1,0.00037584387791638157,0.0004394040526960331,-0.007750356575507103,0.005630012629291883,0.9917191430128965
2016-09-15,1,0.00063405040450651,0.0007303189025811635,-0.007750356575507103,0.004697759145076666,0.9919974520361906
2016-09-19,1,0.0008717830802163249,0.0010122238652251463,-0.007750356575507103,0.004890194301522873,0.9914033375986209
2016-09-21,1,0.0006457228540395721,0.0007169632049049161,-0.010944605927425006,0.004741347151458099,0.9915378030600908
2016-09-23,1,0.0003570596461262142,0.00038642379357035043,-0.010488833496125467,0.003379206960789521,0.9920818034115849
2016-09-27,-1,-4.09584963297909e-05,-7.887595294106707e-06,-0.01014033335133337,0.0019746233405203263,0.9924440916970196
2016-09-29,-1,-0.0002445628706198718,-0.000196980192528579,-0.007746884854313314,0.0019746233405203263,0.9929096132991507
2016-10-03,-1,-0.00011160518811650017,-7.522288586231301e-05,-0.007746884854313314,0.0019746233405203263,0.9936034560819569
2016-10-05,-1,-0.0005074806565632213,-0.00040368488596059413,-0.006912819413246267,0.0005739273796572522,0.9942637697566666
2016-10-07,-1,-0.0005315674508835116,-0.0004297376392956818,-0.006912819413246267,0.004479101758987727,0.9934406775360825
2016-10-11,-1,-0.0008494244542966596,-0.0007150529914133118,-0.006912819413246267,0.00482519332096029,0.9924568654608873
2016-10-13,-1,-0.0009715363423937161,-0.0008316789536710453,-0.006912819413246267,0.00901885750522126,0.989720430636505
2016-10-17,-1,-0.00011130750964686545,-0.0001080338104138907,-0.007746884854313314,0.007161727322183866,0.9895629584556874
2016-10-19,-1,-0.00019165472373646036,-0.0001827339239465805,-0.007746884854313314,0.007161727322183866,0.9895619864692659
2016-10-21,-1,-0.000706137273925233,-0.0006362657697950845,-0.005220208610441603,0.008270874918140284,0.9898491736948936
2016-10-25,-1,-0.001187505361332211,-0.0010449666111769626,-0.004162575331177913,0.008270874918140284,0.9898827367272256
2016-10-27,-1,-0.0012435233493014205,-0.0010946718461689784,-0.004133678528250723,0.008270874918140284,0.9898950998771995
2016-10-31,-1,-0.001171900339229476,-0.0010288727661401903,-0.005053656914005457,0.008270874918140284,0.9895762571490483
2016-11-02,-1,-0.0019082076556769514,-0.0016346088757788688,-0.004133678528250723,0.011416053834681233,0.9884116537075304
2016-11-04,-1,-0.0016113870065117913,-0.0013542648406125405,-0.005877179948664669,0.008705674782014597,0.9885541037182534
2016-11-08,-1,-0.0009626218917092837,-0.0007892299163768078,-0.004133678528250723,0.008705674782014597,0.9901226863849707
2016-11-10,1,0.0007459583628376521,0.0007946778651549221,-0.004477028152223465,0.007306660610141971,0.9916389463615534
2016-11-14,1,0.001055517468481241,0.0011776767745976574,-0.004133678528250723,0.0065713325963599935,0.9921167347602666
2016-11-16,-1,-0.0014967806309919515,-0.001128579289553754,-0.0017691581919355005,0.008442503123960688,0.9916225106675163
2016-11-18,0,-9.139142903671481e-05,3.098931020051874e-05,-0.004169938180564888,0.0065713325963599935,0.9922569640582904
2016-11-22,1,9.799029998878864e-05,0.00017924545821490232,-0.005120293691405478,0.008442503123960688,0.9909679977879935
2016-11-25,-1,-0.0002605314330837365,-0.00010989395044136945,-0.006857550789305466,0.008442503123960688,0.9901458704417095
2016-11-29,-1,-0.0002881261255463672,-0.00017383985137933846,-0.006857550789305466,0.008442503123960688,0.9897421305163032
2016-12-01,1,0.0010256556624490365,0.0011313337777425982,-0.006857550789305466,0.006548121660065625,0.9903162882096647
2016-12-05,1,0.0006524882773538499,0.0006962162422445234,-0.00567668433583281,0.006939082157206935,0.990748686584288
2016-12-07,1,0.0011460585249797556,0.0012662302334839354,-0.006857550789305466,0.004962324114581875,0.9908030813813999
2016-12-09,1,0.0018550038562036792,0.002075737911909736,-0.007968260273224517,0.0045527439538988225,0.9916592410746992
2016-12-13,1,0.002235050797340302,0.0025194543429262924,-0.007968260273224517,0.004181693988899736,0.9913816688130792
2016-12-15,1,0.0021825013801439054,0.002451373006612044,-0.01023599527269416,0.0031173941767180923,0.9914744574157549
2016-12-19,1,0.0018547363477461592,0.002084627086902706,-0.01023599527269416,0.004181693988899736,0.991789785346531
2016-12-21,1,0.002275997915252518,0.0025829721967403725,-0.009091953753319096,0.004181693988899736,0.9924348442730795
2016-12-23,1,0.0016435655945233902,0.001864067942280047,-0.007426214976763724,0.005585058710260249,0.9925961516077696
2016-12-28,1,0.0014598189968044275,0.0016852385479432107,-0.009091953753319096,0.005585058710260249,0.9917997546329383
2016-12-30,1,0.001160623635886035,0.0013173961815417154,-0.009091953753319096,0.005585058710260249,0.9919934107581555
2017-01-04,1,0.0015225341454506358,0.0017193406356103046,-0.009091953753319096,0.0032517503323708737,0.9921964830738991
2017-01-06,1,0.0014368906736683083,0.0016365150093093162,-0.007426214976763724,0.004236037335793414,0.9920568087680824
2017-01-10,1,0.001084086197677947,0.0012328826763534063,-0.006382303463492019,0.004236037335793414,0.9922823030739366
2017-01-12,1,0.0009842056971126696,0.00112779928131865,-0.0042801100650826365,0.009262750986909127,0.991755845982092
2017-01-17,1,0.0007200352208839746,0.0008291162373548743,-0.003310330328146528,0.009262750986909127,0.992035847957506
2017-01-19,1,0.0007426814182307639,0.0008361852595633423,-0.003310330328146528,0.010712618034987971,0.9913662078422572
2017-01-23,1,0.0009869724661132123,0.00113668342116048,-0.003310330328146528,0.009262750986909127,0.9917266403621323
2017-01-25,1,0.001710617555249649,0.001950646925904031,-0.003310330328146528,0.0045047283459021085,0.9926384351339412
2017-01-27,1,0.000741080989239484,0.0008570014709657794,-0.0028413948487509577,0.005465685171139809,0.9942849890609228
2017-01-31,1,0.0006188292452265718,0.0007163419344779737,-0.002953309182230712,0.00843525917903171,0.9927460478096497
2017-02-02,-1,-6.323686817363372e-05,-2.542134533513622e-05,-0.003728780455908241,0.00843525917903171,0.9921454588673705
2017-02-06,1,0.0003044690776687729,0.0003047440683425363,-0.006014672729941634,0.005465685171139809,0.9923698104039106
2017-02-08,1,0.00024914409703206627,0.0002602606266619283,-0.004323831685288215,0.005465685171139809,0.9926205766295908
2017-02-10,1,0.0008804256770976422,0.000984457527933618,-0.004323831685288215,0.0020344598215126385,0.993512921413645
2017-02-14,1,0.001047031957029023,0.0011819611835249594,-0.004607491571232654,0.0020344598215126385,0.9931024095420883
2017-02-16,1,0.0012718213034279024,0.0014156658002851515,-0.006077397179997113,0.0020344598215126385,0.9930523619084276
2017-02-21,1,0.0009671867630714617,0.0010517490019942965,-0.00630984774037082,0.000995954591195704,0.9926341055063075
2017-02-23,1,0.0007925101782591473,0.0008293947713285382,-0.00630984774037082,0.0008116154787551654,0.9927525365380052
2017-02-27,1,0.0008756591568368324,0.0009329486917843246,-0.00630984774037082,0.0008116154787551654,0.9929124444895409
2017-03-01,1,0.0012048269527241465,0.0012938095040930496,-0.0060363070685223565,0.0008116154787551654,0.993584327048628
2017-03-03,1,0.0005647547193442002,0.0005682210270478498,-0.004607491571232654,0.0013142224970444827,0.9944185406047973
2017-03-07,-1,-0.000166285900047582,-5.2851406782176546e-05,-0.003457811813363923,0.0013142224970444827,0.9948049016671429
2017-03-09,-1,-0.0004804425377440537,-0.00031627145187897735,-0.003457811813363923,0.00232810859866969,0.9944674427851311
2017-03-13,-1,-0.00024976230578407384,-0.00013051773914508658,-0.003457811813363923,0.00468843288207761,0.9943227938863961
2017-03-15,-1,-0.00015951862724376874,-4.1015523486186514e-05,-0.003969074133301815,0.00232810859866969,0.9946024367020408
2017-03-17,-1,-0.0010738547036392757,-0.00081470559016583,-0.003969074133301815,0.002431515532316205,0.9948141554431978
2017-03-21,-1,-0.0019697491209604073,-0.0015895615564681168,-0.003457811813363923,0.002431515532316205,0.994794825027267
2017-03-23,-1,-0.002141687770983794,-0.001731194798466522,-0.003969074133301815,0.0058426622653195105,0.9939624663411301
2017-03-27,-1,-0.002131330919947956,-0.0017297887184820504,-0.003969074133301815,0.008672890793555738,0.9926521498571539
2017-03-29,-1,-0.002021091598040631,-0.0016186229152153333,-0.003969074133301815,0.0058426622653195105,0.9930630095265475
2017-03-31,-1,-0.00138436442287574,-0.0010886871651301362,-0.0051754053128550605,0.004798400198458367,0.9929973948818517
2017-04-04,-1,-0.0013311418042060651,-0.0010657637217003362,-0.0051754053128550605,0.004798400198458367,0.9929210646185206
2017-04-06,-1,-8.56189156153072e-05,-4.996926471622059e-05,-0.0051754053128550605,0.004170126605346056,0.9932829873680451
2017-04-10,-1,-4.3854137073801925e-05,-7.302788842621547e-06,-0.0052866454910952005,0.003933074929991864,0.9931245303115512
2017-04-12,-1,-0.0006729763427819288,-0.0005395306644395148,-0.004291022485588767,0.0041501506231625285,0.9934144428923051
2017-04-17,-1,-0.0002935438845068595,-0.00022245812127377163,-0.003717632772980554,0.004671721090388191,0.9934832522446247
2017-04-19,-1,-0.0007880564427337944,-0.0006595242737109748,-0.003717632772980554,0.004794372252838119,0.9930264642772827
2017-04-21,-1,-0.0007470221052534409,-0.0006228851383422876,-0.0028116420064764596,0.005206073524348678,0.9927746444373808
2017-04-25,-1,-0.0002491778389134299,-0.00016167809527991694,-0.0028116420064764596,0.005206073524348678,0.9938475698360721
2017-04-27,1,0.00029900619005563523,0.00030822384014188986,-0.0028116420064764596,0.006288915539668983,0.9929352939560783
2017-05-01,-1,-0.0004470446532844873,-0.0003567347904572823,-0.0006051734694123834,0.006288915539668983,0.9936667965349121
2017-05-03,-1,-0.00011485607443658184,-8.353652062904425e-05,-0.0005640657788117617,0.008173330028867911,0.9931451118596906
2017-05-05,1,0.00019429713113716847,0.0002355207909580049,-0.0005640657788117617,0.008173330028867911,0.993240092706782
2017-05-09,1,0.00013825512851390847,0.00018871272326356046,-0.0001772007843207986,0.008173330028867911,0.9935938285114875
2017-05-11,1,0.0003468432505678949,0.00042991439425566955,-0.0001772007843207986,0.008435432447322278,0.9934446759702572
2017-05-15,1,0.0006407478959089951,0.0007476599209858585,-0.0004633390102838808,0.0076130244441353955,0.994204671378222
2017-05-17,1,0.0004011284206223032,0.0004899901200681822,-0.00016786999722986885,0.0076130244441353955,0.9950136584802765
2017-05-19,1,0.0007416538141696093,0.000846711382379565,-0.0004633390102838808,0.006342815230835974,0.9951769352689774
2017-05-23,1,0.0006954739887024534,0.0007763664817281967,-0.000603889533017926,0.0053863836599396175,0.9946019984758953
2017-05-25,1,0.0012672484013652927,0.0014201384624171393,-0.0010015542701170754,0.005343148396378053,0.9954583536338124
2017-05-30,1,0.0014907930124063375,0.0016946117985396562,-0.001801862194858578,0.0058188288599908475,0.9949549589122388
2017-06-01,1,0.001754632700557413,0.001982405422419963,-0.0038480770771397543,0.005343148396378053,0.9946340436091569
2017-06-05,1,0.001613064881280188,0.001804202303440466,-0.0038480770771397543,0.006152059126792095,0.9939853579625291
2017-06-07,1,0.001450480295167502,0.001609738293553883,-0.004809745535658499,0.006152059126792095,0.993600796991875
2017-06-09,1,0.0015373191454969468,0.0016913649134862381,-0.004809745535658499,0.007692916403316371,0.9928825399298905
2017-06-13,1,0.0016170329306703104,0.0017878134991241767,-0.00660829876283579,0.008101111365885122,0.9921569837906625
2017-06-15,1,0.0017471386452853305,0.0019346573128950929,-0.00660829876283579,0.008101111365885122,0.9921009734034585
2017-06-19,1,0.0024183549916484666,0.002732035214565726,-0.008376410373498353,0.0074175207054034496,0.9914316031504168
2017-06-21,1,0.0014585741417621984,0.0015873403045556871,-0.004254135388173211,0.0074175207054034496,0.9923290983651928
2017-06-23,1,0.0013786357381812967,0.0014882802679107511,-0.00297775306767227,0.0074175207054034496,0.992588197904577
2017-06-27,1,0.0012153941218575066,0.001289785727802878,-0.0012281935272166482,0.007262039314857176,0.9928448498507042
2017-06-29,1,0.0014676931022400274,0.001592932514430765,-0.0023579493570121714,0.006231072615148615,0.9927210877956626
2017-07-03,1,0.0016226080166976894,0.0017511626004669974,-0.0016251122835854157,0.006243770489082042,0.9930402675589174
2017-07-06,1,0.0015794251563096898,0.0017358194126941093,-0.0016251122835854157,0.006243770489082042,0.9930144225452242
2017-07-10,1,0.0022559880088359793,0.0025066664483765107,-0.0016251122835854157,0.005461559887647507,0.9940297748785558
2017-07-12,1,0.0023088133491530748,0.0025932604117304475,-0.000823349284085282,0.00544318941317927,0.9947371445307135
2017-07-14,1,0.002399082901861558,0.002683182898667263,-0.0016251122835854157,0.0039329792953484615,0.9938071033799224
2017-07-18,1,0.0016487318254601508,0.001832545211426494,-0.000823349284085282,0.004077438109824644,0.99514505724619
2017-07-20,1,0.001629625993222275,0.0018090611484112716,-0.0029537134919607796,0.004077438109824644,0.9941531669883005
2017-07-24,1,0.002110033282690083,0.0023779224009648522,-0.0046796833777596435,0.004077438109824644,0.993627341613397
2017-07-26,1,0.0019932281811663333,0.0022065400261443106,-0.00789183019919549,0.004077438109824644,0.9928151994805412
2017-07-28,1,0.0010880704698123986,0.0011551106969251291,-0.005779031138994861,0.004077438109824644,0.9937267549069326
2017-08-01,1,0.0013795193000513963,0.001475131714341629,-0.005779031138994861,0.0024624059408090704,0.9938251180605907
2017-08-03,1,0.0010226115671097507,0.0010700755561752141,-0.004930314387516662,0.0038579086635247666,0.9940276163119145
2017-08-07,1,0.0012029823385632898,0.0012862148563212794,-0.005779031138994861,0.005217977517708185,0.9928402056954978
2017-08-09,1,0.0010797588623749892,0.0011212569791860878,-0.005779031138994861,0.004997878981616912,0.9927170755288223
2017-08-11,1,4.764933328441014e-05,0.000163940555595104,-0.004930314387516662,0.005401534646139543,0.9929365218011245
2017-08-15,1,0.00024002948560403393,0.00033962105748313497,-0.005600322373343867,0.005401534646139543,0.9924966448168687
2017-08-17,-1,-0.000557207562393607,-0.0003599716303143069,-0.004930314387516662,0.0066459846990481386,0.9931182643979134
2017-08-21,-1,-0.0007879217763834079,-0.0005795111622893493,-0.0038660171393393376,0.006781026692091842,0.9930494749247518
2017-08-23,-1,-0.00046049465416594856,-0.00030473228442695854,-0.0016426335901405266,0.0066459846990481386,0.9939964459785234
2017-08-25,-1,-0.0008253231360045413,-0.0006127044661736984,-0.0006335238903476132,0.0066459846990481386,0.9936621576906394
2017-08-29,-1,-0.0009289039015432951,-0.0007144951717527511,4.62403149240253e-05,0.006781026692091842,0.9930093041751857
2017-08-31,-1,-0.0005290404292432073,-0.0003677263082460004,4.62403149240253e-05,0.006931542986639732,0.9927766736596413
2017-09-05,-1,-0.0012459971639185753,-0.0009809449685498901,0.0013594511714474864,0.006931542986639732,0.9932053203928033
2017-09-07,-1,-0.0012162601043085013,-0.0009569482921248499,0.0018200045917535594,0.009576815281160042,0.9920356189539357
2017-09-11,-1,-0.0008642143121641078,-0.0006165393604088232,4.62403149240253e-05,0.0076404154211772565,0.9934258307604215
2017-09-13,-1,-0.0008719754206821499,-0.0006148187126736623,0.0013594511714474864,0.0076404154211772565,0.9929994142754437
2017-09-15,-1,-0.0001738375248100795,-3.862859666563728e-05,0.0010061487336831783,0.010419256482634075,0.9925089085403406
2017-09-19,1,0.0001474076791911325,0.00023777114303595072,-0.001175813594294301,0.010419256482634075,0.9925407548309231
2017-09-21,-1,-0.00029988562771765255,-0.00012026340647098969,-0.001530733170247666,0.010419256482634075,0.9923870736413986
2017-09-25,0,-5.0220378920243236e-05,9.830410827468404e-05,-0.0018980214934786591,0.010419256482634075,0.9926755883237282
2017-09-27,0,-0.00016143015693494383,6.005589459551761e-06,-0.0018980214934786591,0.008443406003312925,0.9929477206302869
2017-09-29,1,0.00017980510367571857,0.0003247228860902078,-0.0018980214934786591,0.007237600485002834,0.99331731284406
2017-10-03,1,0.0004110236735566092,0.0005251159825147966,-0.0034882103110750896,0.007237600485002834,0.9931907010844463
2017-10-05,1,0.001545263839209139,0.0015922979932912764,-0.0036227644838234046,0.005539391982081815,0.9936206135876061
2017-10-09,1,0.0009361959884701815,0.0009923212598063232,-0.0047696217832022105,0.007135846757197316,0.9932552604734586
2017-10-11,1,0.001901764449833284,0.002008778998162473,-0.004792858265773576,0.004374066723442027,0.9936579798796973
