JNU-Tangyin/eata/results/Batch4_SP500/Batch4_SP500-FITB.csv
Date,Action,Predicted_Q25,Predicted_Q75,Actual_Q25,Actual_Q75,RL_Reward
2010-12-14,0,0.0,0.0,-0.010838508433347792,0.011690123984929121,0.987990421688557
2010-12-16,1,0.006377128392112208,0.007325134800991272,-0.008972503784139742,0.014728350729586566,0.9881493314508291
2010-12-20,1,0.006402884068184001,0.007284151382624249,-0.01131976050842138,0.014728350729586566,0.9865354705377948
2010-12-22,1,0.008982739060096922,0.010322599941808844,-0.016875259205288904,0.014728350729586566,0.9843441021164291
2010-12-27,1,0.008715704621968605,0.009988565610031516,-0.016875259205288904,0.009845248187855631,0.9851414983641457
2010-12-29,1,0.007547634183976496,0.008537051626019485,-0.01131976050842138,0.010884723430391686,0.9871538457498966
2010-12-31,1,0.007647626362769184,0.008706745910438704,-0.011812393582784946,0.014599628643557174,0.9870023105082615
2011-01-04,1,0.006023605193241217,0.006685024612468633,-0.011812393582784946,0.015228260290341002,0.9853229075845418
2011-01-06,1,0.005476566768398167,0.006060418559143043,-0.009649328989000774,0.014599628643557174,0.9863736434669769
2011-01-10,1,0.0044844766342023844,0.00490874017944692,-0.006886337370792154,0.014599628643557174,0.9870264498815617
2011-01-12,1,0.004086905905639858,0.004324973199407973,-0.009649328989000774,0.011051359950643165,0.9863065794209749
2011-01-14,0,0.0,0.0,-0.00705054839558001,0.011051359950643165,0.9873236760745597
2011-01-19,0,0.0,0.0,-0.00404343889619571,0.011051359950643165,0.9880282112300298
2011-01-21,0,0.0,0.0,-0.005054776091989197,0.007899974841285004,0.9893935708125963
2011-01-25,0,0.0,0.0,-0.005054776091989197,0.007899974841285004,0.9888040208701433
2011-01-27,1,0.002638722612388737,0.002753996893138662,-0.007505688351752478,0.004250451416480342,0.9876709838945329
2011-01-31,1,0.001971069235204314,0.0020149037291683383,-0.00756534697968674,0.0022734185556898133,0.9868084030231
2011-02-02,1,0.0037946481296989537,0.004075951525737288,-0.00756534697968674,0.0022734185556898133,0.987134998608829
2011-02-04,0,0.0,0.0,-0.014827497550330315,0.0022734185556898133,0.987350234389643
2011-02-08,0,0.0,0.0,-0.014827497550330315,0.007312707765519991,0.9865778170936507
2011-02-10,1,0.00010469928135896546,0.0001189884543237049,-0.01310444846191514,0.008616865388706891,0.9865764035825267
2011-02-14,1,0.003449140933179177,0.00360034711152076,-0.014827497550330315,0.002378142378537324,0.9848827401571868
2011-02-16,0,0.0,0.0,-0.014827497550330315,0.008616865388706891,0.9847803405077319
2011-02-18,1,0.0011465281409436699,0.0013058482987513816,-0.01310444846191514,0.012958888643279005,0.9849960799169418
2011-02-23,-1,-0.000937538345963812,-0.0005277624989000924,-0.01264014822214934,0.012958888643279005,0.9864792445129009
2011-02-25,-1,-0.001048411173102115,-0.0005915623768298448,-0.01264014822214934,0.008616865388706891,0.9877132307438493
2011-03-01,-1,-0.0024680350068842748,-0.0018880662079761858,-0.01222606509492401,0.011266228323365126,0.9890984649914748
2011-03-03,-1,-0.0019438470841963299,-0.001438196690701615,-0.01222606509492401,0.008236019874579708,0.9894600135344686
2011-03-07,0,0.0,0.0,-0.005944271899420087,0.008236019874579708,0.9904511544759171
2011-03-09,-1,-0.0032356138114621024,-0.0025879158855289302,-0.006448536670861733,0.008120882706828831,0.9906060500763496
2011-03-11,-1,-0.0028604673864141713,-0.0022896596523209376,-0.00949225450348372,0.006144519162484734,0.9909504011153295
2011-03-15,-1,-0.004402386789614672,-0.003595145604141352,-0.006448536670861733,0.006144519162484734,0.9917246656597289
2011-03-17,-1,-0.0025823601171300788,-0.0020698445869866983,-0.0052553649186115655,0.005258129243478113,0.9935160360794796
2011-03-21,-1,-0.0021650886441571563,-0.001683849908349023,-0.006448536670861733,0.005258129243478113,0.9929754310111784
2011-03-23,0,0.0,0.0,-0.006448536670861733,0.005258129243478113,0.9924508393679563
2011-03-25,0,0.0,0.0,-0.012073169291682034,0.0042055352880727625,0.9912840574395511
2011-03-29,0,0.0,0.0,-0.012073169291682034,0.006144519162484734,0.9905564179011707
2011-03-31,-1,-0.0016978353762947306,-0.0013728747931260206,-0.012073169291682034,0.007464113071932885,0.9907306966732617
2011-04-04,-1,-0.001873065876988853,-0.0015059891170582699,-0.01233367525080864,0.008515707398263683,0.9890835349689941
2011-04-06,-1,-0.0010994376255564807,-0.0008665419965290085,-0.014805663026582077,0.004821886857382428,0.987744853301092
2011-04-08,-1,-0.002431487145542848,-0.0020104391764514153,-0.015114645023525063,0.008515707398263683,0.9879202060036837
2011-04-12,-1,-0.003524083037106763,-0.002900417523111225,-0.015114645023525063,0.009713200892035912,0.9872702408617169
2011-04-14,-1,-0.0036168045098235713,-0.0029737083212068235,-0.01676138303352815,0.009713200892035912,0.9867312883301435
2011-04-18,-1,-0.004950277288234892,-0.004079038569146378,-0.015114645023525063,0.01028107176008047,0.9869709999400084
2011-04-20,-1,-0.005604780066154946,-0.004654739766772897,-0.015114645023525063,0.01028107176008047,0.9862463131255278
2011-04-25,-1,-0.006585947375837762,-0.005530996709487139,-0.01676138303352815,0.01028107176008047,0.9854625442283157
2011-04-27,-1,-0.0034999217997098804,-0.0029619714481472137,-0.01676138303352815,0.009054500778988749,0.9858335436855649
2011-04-29,-1,-0.004063881750207632,-0.003436156609138326,-0.01676138303352815,0.011127641336031342,0.9852664729664447
2011-05-03,-1,-0.0017518060428165557,-0.001525677863148599,-0.01764609896789311,0.010144778763063021,0.9842119997120475
2011-05-05,-1,-0.0027400886322078493,-0.0024510392380368913,-0.012901634762272234,0.010144778763063021,0.9855612819099362
2011-05-09,-1,-0.0031901843355463845,-0.002813261043711388,-0.013572290382048088,0.010144778763063021,0.9852182692557698
2011-05-11,-1,-0.0033497317069866666,-0.002931150628054234,-0.010762544055179383,0.009650722661427528,0.9860403647837985
2011-05-13,-1,-0.0038913723847181633,-0.0034280202656439417,-0.0028229894915011784,0.009650722661427528,0.9863046914974446
2011-05-17,-1,-0.0020176052989119547,-0.001839711258260639,-0.007873404166820797,0.009650722661427528,0.9870660868571695
2011-05-19,-1,-0.0014580836002562288,-0.0013517469767700648,-0.007873404166820797,0.010144778763063021,0.9869474344190771
2011-05-23,-1,-0.002838804301647787,-0.002568345030116134,-0.0014214576020230118,0.010144778763063021,0.9879434678683557
2011-05-25,-1,-0.002194158465275946,-0.0019965616180776,-0.007873404166820797,0.009684844362410773,0.9872409862908116
2011-05-27,-1,-0.0012124915141519014,-0.001135530043310307,-0.007873404166820797,0.008548036010408506,0.9879210473553183
2011-06-01,-1,-0.0026261684248903845,-0.002377646001983415,-0.00405712115246493,0.010021477710843767,0.9888453559997263
2011-06-03,-1,-0.002453259042426176,-0.002212246554365629,-0.00405712115246493,0.011845399434233678,0.9881092542333102
2011-06-07,-1,-0.0021893500823520233,-0.0020170484009703776,-0.005091627776645696,0.010021477710843767,0.988800698926879
2011-06-09,-1,-0.0015897298844311989,-0.001513663296240043,-0.007873404166820797,0.012418598886204564,0.9869393367041275
2011-06-13,0,0.0,0.0,-0.014278880353252213,0.012418598886204564,0.9855289333050634
2011-06-15,0,0.0,0.0,-0.014278880353252213,0.011670302033592164,0.9856599136437743
2011-06-17,-1,-0.0010637877663076012,-0.0009855779239253612,-0.014278880353252213,0.010021477710843767,0.9864632575532822
2011-06-21,-1,-0.0009256015776668351,-0.0008394122475544681,-0.014278880353252213,0.011670302033592164,0.9855765259264812
2011-06-23,-1,-0.002691021248287913,-0.002581655909597951,-0.006815805612552849,0.01367310756576564,0.9852662807479807
2011-06-27,-1,-0.00044395716598000874,-0.00027949128918717235,-0.007696719934228399,0.015437827573800487,0.985735077076284
2011-06-29,1,0.0006198187515410934,0.00092395657296734,-0.012325358881669796,0.013067409122292374,0.9866272204925207
2011-07-01,1,0.0013289796609990993,0.0017325456385890812,-0.012325358881669796,0.011111602718838496,0.9867878877357303
2011-07-06,1,0.0005646654592939466,0.0008455910779181294,-0.012325358881669796,0.013067409122292374,0.9848992080843133
2011-07-08,1,0.0008047384245813644,0.0011464641104691697,-0.012325358881669796,0.011111602718838496,0.9835368079596049
2011-07-12,-1,-0.0002552668996505652,-5.613725407346219e-05,-0.01078880007734335,0.013067409122292374,0.978201869623793
2011-07-14,0,0.0,0.0,-0.011964431443026564,0.01550274660078433,0.9722912243661317
2011-07-18,-1,-0.0010531746812954543,-0.00104609731162995,-0.02063094055892288,0.017753923017458387,0.9683078745288637
2011-07-20,1,0.00024033606612318143,0.0005511599487894161,-0.02063094055892288,0.016510925566504343,0.9685792387076162
2011-07-22,1,0.0007005368580559821,0.0009059384513845335,-0.03718057259482379,0.015088414117132982,0.9655807211539021
2011-07-26,1,0.0011384030790928435,0.001418647057031824,-0.03718057259482379,0.016510925566504343,0.963695361917874
2011-07-28,1,0.00012560792004398183,0.00021748826326591927,-0.03891324050507552,0.02256294137273361,0.9616801747030969
2011-08-01,0,0.0,0.0,-0.03891324050507552,0.037569847094539414,0.9586565341840504
2011-08-03,0,0.0,0.0,-0.03391095553079787,0.037569847094539414,0.960827586631896
2011-08-05,-1,-0.003447182596526244,-0.0030897037368921424,-0.0370905232569814,0.037569847094539414,0.9601849731777007
2011-08-09,-1,-0.005604523362350565,-0.005019132866367438,-0.03391095553079787,0.037569847094539414,0.963062046421077
2011-08-11,0,0.0,0.0,-0.03201755537313971,0.03257968952030488,0.9669662745909408
2011-08-15,0,0.0,0.0,-0.03201755537313971,0.03257968952030488,0.9688276866288719
2011-08-17,-1,-0.0032498264257982907,-0.003009109895768434,-0.03201755537313971,0.03257968952030488,0.9680999167216214
2011-08-19,-1,-0.0061790334737915065,-0.005619745426163772,-0.021716182994512674,0.03257968952030488,0.9708390911072063
2011-08-23,-1,-0.003529710493605576,-0.003283691364023279,-0.030869004141815485,0.02151537526749254,0.9714533023732161
2011-08-25,-1,-0.004053448361685141,-0.0037728713775225294,-0.021716182994512674,0.019808479251143506,0.9727491884231676
2011-08-29,-1,-0.0007549799610080772,-0.0005979040414492126,-0.021716182994512674,0.016113686567450367,0.9729443281409985
2011-08-31,-1,-0.0007575379891744746,-0.000656379626596495,-0.030869004141815485,0.019808479251143506,0.9705087446988254
2011-09-02,-1,-0.004045039653626302,-0.0037530207069996326,-0.02993533070513314,0.019808479251143506,0.9723269031112435
2011-09-07,-1,-0.00041679046131342973,-0.00025082214371286804,-0.02993533070513314,0.019808479251143506,0.9719954232447259
2011-09-09,-1,-0.0030139396894211024,-0.0028520368456979297,-0.02148384034918887,0.027917470966306552,0.9705637154835136
2011-09-13,-1,-0.0008585275226628679,-0.0007819388143577243,-0.02148384034918887,0.027917470966306552,0.9711737305983916
2011-09-15,-1,-0.00029006877971029084,-0.00019316187695083033,-0.0256707957385119,0.03671797790244772,0.968940610884471
2011-09-19,-1,-0.0002661261712466243,-9.374517465795347e-05,-0.03088143930882325,0.03671797790244772,0.9665218243722338
2011-09-21,-1,-0.0025668173612842403,-0.0024429560904594095,-0.03088143930882325,0.038935321753258235,0.9648183821307049
2011-09-23,-1,-0.001497182631355312,-0.0014621714951384892,-0.03088143930882325,0.047615246337919595,0.9622619166134905
2011-09-27,-1,-0.00032543283516515796,-0.00022271398526862502,-0.03088143930882325,0.038935321753258235,0.963230231737029
2011-09-29,0,-2.515120532648233e-06,0.0001462147127302789,-0.027409134342185223,0.041913780075617336,0.963433480113411
2011-10-03,-1,-0.0020621494852933616,-0.001956260889529898,-0.02433766002552174,0.041913780075617336,0.9642954937013783
2011-10-05,1,0.0005435482501679022,0.0007171556681595249,-0.024938963014964156,0.03918108320416026,0.9645074156328767
2011-10-07,1,0.0008137289422018526,0.0010780769492118648,-0.02433766002552174,0.037304112252258985,0.9682064143579076
2011-10-11,1,0.0020319099170547604,0.0024824133860311087,-0.02433766002552174,0.03217047420541801,0.9687546911288436
2011-10-13,1,0.00215812678648952,0.0025332407188984616,-0.024938963014964156,0.02739311791821722,0.9684823847202145
2011-10-17,1,0.0008223660409017677,0.0010549297339349133,-0.02464073234286287,0.02739311791821722,0.9697320520904239
2011-10-19,1,0.001450758544260033,0.0018125049115967791,-0.016901219476501222,0.024532465059831924,0.9745762755547112
2011-10-21,1,0.003405200830878723,0.003941724590008391,-0.016901219476501222,0.020955115129516443,0.9781815739383996
2011-10-25,1,0.003500189243686688,0.004060099514623527,-0.01716032416255773,0.019689695480901385,0.9783606265249443
2011-10-27,1,0.005348320882921706,0.006136221511428081,-0.02464073234286287,0.014420052660741924,0.9789865349587212
2011-10-31,0,0.0,0.0,-0.017430611297571896,0.016309639191607734,0.9788468535640611
2011-11-02,0,0.0,0.0,-0.01433192099553704,0.016309639191607734,0.9789011848496073
2011-11-04,0,0.0,0.0,-0.01433192099553704,0.019689695480901385,0.9772121245678255
2011-11-08,0,0.0,0.0,-0.015844797191294224,0.014172644776266083,0.9779185739345331
2011-11-10,0,0.0,0.0,-0.015844797191294224,0.014172644776266083,0.9781915893986516
2011-11-14,0,0.0,0.0,-0.01992679019278827,0.009243101590804551,0.9777640211820929
2011-11-16,0,0.0,0.0,-0.01992679019278827,0.014271157498998282,0.9770767257538022
2011-11-18,0,0.0,0.0,-0.01992679019278827,0.014271157498998282,0.9767691541795147
2011-11-22,1,0.003587358788627406,0.004192653993292756,-0.019068688393556903,0.025847955151881572,0.97693903473935
2011-11-25,1,0.0023681252404682456,0.0027617796800524248,-0.014006785750673878,0.030777463350849413,0.9767301725670724
2011-11-29,1,0.002846041968303852,0.003284130263412843,-0.014763872508831774,0.025847955151881572,0.9778242964623715
2011-12-01,1,0.0040426771923942305,0.004559979868487298,-0.015801798847577854,0.025015791766891678,0.9801726784340872
2011-12-05,1,0.0053372684092144905,0.006022719785285265,-0.015801798847577854,0.025015791766891678,0.9808032056244036
2011-12-07,1,0.004919992218648571,0.005542944327943257,-0.013679314763420734,0.026749546223231183,0.980692764023438
2011-12-09,1,0.0054967265925653895,0.006233044986692339,-0.010260265439276243,0.026749546223231183,0.982701892059523
2011-12-13,1,0.004514631739428558,0.005182761223612187,-0.007062079183808189,0.026749546223231183,0.9849570649889984
2011-12-15,1,0.004581758234401175,0.005265126240440654,-0.007062079183808189,0.026749546223231183,0.9844078744348367
2011-12-19,1,0.0038569099913333747,0.004411622757662714,-0.007062079183808189,0.026749546223231183,0.9846326563700497
2011-12-21,1,0.005158605135361044,0.0058637989947163596,-0.0087485177922221,0.01965595088213135,0.9844153098109951
2011-12-23,1,0.005103199950111646,0.005765974452830148,-0.0087485177922221,0.01521195128166943,0.9861620448907447
2011-12-28,1,0.0031507980654789268,0.0034648359114088597,-0.008869720788080012,0.01521195128166943,0.9857956708314937
2011-12-30,1,0.002678733634686616,0.002901759185123404,-0.008869720788080012,0.012216221175132568,0.9867092360903544
2012-01-04,1,0.00268659545488347,0.0027985319316370777,-0.008869720788080012,0.010361206871829651,0.987453836567518
2012-01-06,1,0.003919879908738257,0.004237285396642945,-0.008973322612508921,0.010361206871829651,0.9870856388016882
2012-01-10,1,0.004265317034969876,0.00461841881259382,-0.008973322612508921,0.007635020999417454,0.9887383676133017
2012-01-12,1,0.0021370957322832448,0.002230429894769357,-0.012885015110914808,0.007635020999417454,0.9882346847007284
2012-01-17,1,0.0029928004558372424,0.003121932501827373,-0.012885015110914808,0.007635020999417454,0.9886050347625888
2012-01-19,1,0.0021795245967921894,0.0022001745606828227,-0.00866227721594596,0.010303223209282671,0.9885001810007233
2012-01-23,1,0.0022898470482883506,0.002396313002521666,-0.006799139446966882,0.010303223209282671,0.9900532942100629
2012-01-25,1,0.0022851583382701626,0.002393462298924928,-0.00866227721594596,0.011293909823154168,0.9882451241249866
2012-01-27,-1,-0.00047716582568925123,-5.936828726928016e-06,-0.00866227721594596,0.010303223209282671,0.989000066822725
2012-01-31,1,8.152935552196581e-05,0.00040576680755110336,-0.006799139446966882,0.010303223209282671,0.989805516747937
2012-02-02,-1,-0.0008998630486507532,-0.00034092491904456077,-0.007523169047756123,0.00887073465145302,0.9898581567037987
2012-02-06,0,-6.411564870900492e-06,0.0003654072559961599,-0.013134177457340492,0.00799882649852616,0.9890777579899208
2012-02-08,1,0.0001485432467343195,0.00048132754955384105,-0.013134177457340492,0.01154506778381896,0.9874717195847705
2012-02-10,-1,-0.0010438258744478208,-0.0005445298472166623,-0.01351476315386298,0.012737815898363265,0.9867491137885582
2012-02-14,-1,-0.0026098039005264975,-0.0017191712539743717,-0.009283507108623168,0.014197437542673741,0.9851207994126586
2012-02-16,-1,-0.002201555532922008,-0.0013633110132205413,-0.010526764524691647,0.01336246624075846,0.9855341966254209
2012-02-21,-1,-0.001637828572838152,-0.0009573377210108881,-0.010526764524691647,0.01336246624075846,0.9860190170581836
2012-02-23,-1,-0.0016526547305250922,-0.0009776253283980837,-0.01117061526183408,0.012223761988773068,0.9866737052271654
2012-02-27,-1,-0.0036221314109263596,-0.002609114390049138,-0.009889830508731285,0.012223761988773068,0.9861102891371452
2012-02-29,-1,-0.0016414196688021427,-0.0010499682814065251,-0.01117061526183408,0.012223761988773068,0.985317119861401
2012-03-02,-1,-0.0016888078059739402,-0.0011076124300764593,-0.01117061526183408,0.012223761988773068,0.9857734380882754
2012-03-06,-1,-0.0029673366121128757,-0.0022455341758440893,-0.006142242048273688,0.01336246624075846,0.9856587106911927
2012-03-08,-1,-0.0013122074216878677,-0.000836373253442936,-0.00756285597074443,0.011452361990739394,0.9874792404687628
2012-03-12,-1,-0.001793066102285609,-0.0011222058322614067,-0.009889830508731285,0.010100337734721302,0.986837752143861
2012-03-14,1,0.0008494086913796664,0.0010843709959890348,-0.009889830508731285,0.011452361990739394,0.9874853500780281
2012-03-16,1,0.0009479860523131012,0.00098180298370259,-0.012383023501333495,0.010100337734721302,0.9866422537974314
2012-03-20,1,0.0011076001097088883,0.0011931557939965601,-0.014928435306140578,0.010100337734721302,0.9857245424233274
2012-03-22,1,0.0012893629695297992,0.001296231357462327,-0.015690431248538073,0.012343485039158537,0.9849537703255982
2012-03-26,1,0.000988732177575695,0.0010316907536558322,-0.015690431248538073,0.011460083115371451,0.9845619049248326
2012-03-28,1,0.0002674069391620181,0.00031011206033375056,-0.011008739921813488,0.015576622842521577,0.9844282032598791
2012-03-30,1,0.0002692365704815483,0.00035669045473799666,-0.011821056858296219,0.015576622842521577,0.9841583076513845
2012-04-03,1,0.0016338227615206456,0.001830121675636486,-0.011821056858296219,0.012816878486713945,0.9855269068147741
2012-04-05,1,0.0011449088081520085,0.001362027322265259,-0.015746621240733654,0.012816878486713945,0.98461189060112
2012-04-10,-1,-0.0008096444539596122,-0.000730906633213323,-0.011466342819465479,0.015576622842521577,0.9846175898188118
2012-04-12,1,0.00058005369723955,0.0006987827088371567,-0.012863421535790944,0.01253392615544513,0.9854876157186842
2012-04-16,-1,-0.0002265445563561698,-0.0002159474500474306,-0.012863421535790944,0.01253392615544513,0.98572317255233
2012-04-18,-1,-0.0014471693219517882,-0.0012317400818987125,-0.012651884950148944,0.010589802082112309,0.9866449005652544
2012-04-20,-1,-0.0028174847491227424,-0.002376596789060879,-0.012651884950148944,0.00592041244437538,0.9878260906258559
2012-04-24,-1,-0.002753058998698603,-0.0023257061816051305,-0.012651884950148944,0.004693944763564971,0.988189956428649
2012-04-26,-1,-0.0011654818737120566,-0.0009610402016252675,-0.012651884950148944,0.004693944763564971,0.9892502008503545
2012-04-30,-1,-0.0006114372793519094,-0.0005371340809996537,-0.012651884950148944,0.004693944763564971,0.9896151775454137
2012-05-02,-1,-0.0002776284399251804,-0.00022047767572609905,-0.013681581392529413,0.004693944763564971,0.9887217514491236
2012-05-04,-1,-0.000880638085824024,-0.0007245504617149895,-0.016408607356595828,0.004693944763564971,0.9859183665195073
2012-05-08,-1,-0.0017022228983935212,-0.001371286609247225,-0.016408607356595828,0.006191339309451939,0.9856843048685224
2012-05-10,-1,-0.001960205029277331,-0.001573647098076991,-0.014608115108153082,0.006411217952158366,0.9859928953232244
2012-05-14,-1,-0.003250567950024692,-0.0026981470957462552,-0.014064741672083898,0.00940500580104128,0.9856547936550507
2012-05-16,-1,-0.0026234385967472632,-0.002235114169370003,-0.008919304224895225,0.010701652555233435,0.9849754822313617
2012-05-18,-1,-0.0031254998489308817,-0.0027208798546982885,-0.008919304224895225,0.010947108859464018,0.9846219110805187
2012-05-22,-1,-0.0032280850834634535,-0.002784028868476015,-0.008919304224895225,0.011635250768901954,0.9843418781367882
2012-05-24,-1,-0.002524556253298354,-0.0021889254126828506,-0.008919304224895225,0.012326185071328514,0.984000402625981
2012-05-29,-1,-0.0019508404064051746,-0.0016996634795433158,-0.01712371608807819,0.012326185071328514,0.9816684618086695
2012-05-31,-1,-0.001437129534586939,-0.0013083870626102146,-0.008919304224895225,0.012326185071328514,0.9824714181687055
2012-06-04,-1,-0.004392571151239234,-0.003936545722989928,-0.002095612839680575,0.014153153242145798,0.9838646436437035
2012-06-06,-1,-0.002583012971773874,-0.0023387654830350083,-0.0059688290093193215,0.012326185071328514,0.9868818441328959
2012-06-08,-1,-0.0017441891408992495,-0.0016005250059709646,-0.0059688290093193215,0.01179474216259557,0.9880771423272767
2012-06-12,-1,-0.001724237159540626,-0.0015678267726809939,-0.0059688290093193215,0.012319226362163715,0.9876448740364353
2012-06-14,-1,-0.001934860756639525,-0.0017146338881696326,-0.005405229744948056,0.012319226362163715,0.9874029436367513
2012-06-18,-1,-0.002047412866418284,-0.0018210818356314688,-0.005222888349640569,0.014834246975367577,0.9876520384868804
2012-06-20,-1,-0.0015727761602477345,-0.0013662979385659136,-0.005405229744948056,0.01325383566749834,0.9878884502493733
2012-06-22,-1,-0.0015290240131951515,-0.001305274239203456,-0.006827140190657009,0.009358342108321671,0.9881692668149867
2012-06-26,-1,-0.0019945342068354265,-0.001740636677143591,-0.005405229744948056,0.009741090428496536,0.9897384435321439
2012-06-28,-1,-0.0012511449761591351,-0.001086097355233399,-0.005405229744948056,0.014937625372382263,0.9885968333032598
2012-07-02,-1,-0.0006375664052243931,-0.000558078701726769,-0.00984205860566242,0.008634925328050304,0.9890649486411384
2012-07-05,-1,-0.0012286603260904326,-0.0010543785570568014,-0.00984205860566242,0.008634925328050304,0.9890334731520498
2012-07-09,-1,-0.0015468034280332692,-0.001326895766125596,-0.00984205860566242,0.014937625372382263,0.9876362844720836
2012-07-11,-1,-0.0005105569596791306,-0.00046320937466689746,-0.008909162234096211,0.014463234440695909,0.9881457567585517
2012-07-13,1,0.00032551000999910093,0.0003981627032034566,-0.008909162234096211,0.008634925328050304,0.9895258984511076
2012-07-17,1,0.0008235857656481854,0.0009614277086498391,-0.008909162234096211,0.005457446700310935,0.9903294970406319
2012-07-19,1,0.0004941407054893728,0.0005596823795554692,-0.006972937018788073,0.005457446700310935,0.990703999709648
2012-07-23,-1,-2.3518100423267535e-05,-2.2890051069983213e-05,-0.0028501225351344616,0.005457446700310935,0.9913096345087636
2012-07-25,1,0.0003019008683745354,0.00033822736955779433,-0.0028501225351344616,0.005457446700310935,0.9907626375395987
2012-07-27,0,-1.0420224718247644e-05,5.434127247809552e-05,-0.005265335079528859,0.004893434392816534,0.9912561296976429
2012-07-31,-1,-0.0002437044177325252,-0.0002213049403355813,-0.002113902030907862,0.005377461822639322,0.9922260056466699
2012-08-02,-1,-0.0003260777343789956,-0.0003128006185387108,-0.002086224499746693,0.00813999341440282,0.9919427202191107
2012-08-06,1,0.0011512976872409646,0.0013821515480680797,-0.002086224499746693,0.005377461822639322,0.9939316991656458
2012-08-08,1,0.0016886941073668868,0.001971508506330851,-0.0022325901339609526,0.005351665663777698,0.994121718566906
2012-08-10,1,0.0017335945873911145,0.0020478124248717753,-0.0032061868442937336,0.007409966971395111,0.9931832534922349
2012-08-14,1,0.0014236503417408698,0.0016450983304460531,-0.0022238611692857015,0.007409966971395111,0.9930877562027485
2012-08-16,1,0.0017190495515022881,0.001994351973855694,-0.0022238611692857015,0.011243721660513175,0.9917903880243953
2012-08-20,1,0.0017499035839266157,0.0020116476039078275,-0.003413606585596473,0.011243721660513175,0.9915390425956242
2012-08-22,1,0.0023386917531310544,0.002662779622777465,-0.003825611108660331,0.009760165725176488,0.9925024766735012
2012-08-24,1,0.0027369739375120504,0.0032251470507926572,-0.0027828349835992646,0.007409966971395111,0.9934287397890975
2012-08-28,1,0.0028612570321227626,0.0033712591693840707,-0.00577457638029212,0.006792498010491478,0.9923985463732613
2012-08-30,1,0.0024116612193837215,0.0028035729815059805,-0.00577457638029212,0.006562535092344062,0.9928439198785712
2012-09-04,1,0.00295823581311443,0.003476797850445075,-0.003825611108660331,0.006562535092344062,0.9927862266203279
2012-09-06,1,0.0027814201122831725,0.003251971379447678,-0.002699848780178415,0.009070276970734238,0.9923455316654971
2012-09-10,1,0.0030036854001010546,0.003490227579617035,-0.002086250092489121,0.006562535092344062,0.9931167122625292
2012-09-12,1,0.002781689017370535,0.0031890106705165567,-0.002699848780178415,0.006448372228496318,0.9927101924632851
2012-09-14,1,0.0033137444799001005,0.0037802514262004804,-0.003825611108660331,0.0020745938263347133,0.9916375518580339
2012-09-18,1,0.0033705623962736186,0.0038608668209727864,-0.004151069900285777,0.004762776513019262,0.9908921373025436
2012-09-20,1,0.0032800986997909305,0.003757591786427491,-0.003646489579190143,0.005969672603227179,0.9910178054910938
2012-09-24,1,0.003540779841475973,0.004070457069531985,-0.00671522938498537,0.004955802580392127,0.9906208756972253
2012-09-26,1,0.0021827785174656344,0.002476673805249412,-0.0068376340614523055,0.004955802580392127,0.9905303804896489
2012-09-28,1,0.002533667951859037,0.0028878799584555292,-0.0076742385330307705,0.004519724178381889,0.9900207845817922
2012-10-02,1,0.002459966555136716,0.002790168946112844,-0.0076742385330307705,0.004519724178381889,0.990437385134842
2012-10-04,1,0.0027604092958908484,0.003092881045758864,-0.008688096199313877,0.00223868625175232,0.9905692036584703
2012-10-08,1,0.0023137976221286566,0.0025605622141655388,-0.010775119854615392,0.0031765963926490303,0.9885910888346217
2012-10-10,1,0.0018568913609968121,0.0020239991967310874,-0.010775119854615392,0.004519724178381889,0.9887343666989803
2012-10-12,1,0.0007787568580972814,0.0008086851783238268,-0.010775119854615392,0.004839198229520532,0.9899319566725197
2012-10-16,1,0.0005273191572147536,0.0005461333469107182,-0.010775119854615392,0.004839198229520532,0.9901128063964946
2012-10-18,1,0.0006655385960136173,0.0006905301281575731,-0.010775119854615392,0.005493332092299469,0.9889561476478006
2012-10-22,1,0.0003367910757010211,0.0003661240093841394,-0.010775119854615392,0.007429001052466059,0.9888746693036272
2012-10-24,-1,-0.0022194135691966663,-0.0017412201982147358,-0.010370835440246471,0.00835226338312679,0.988814758066459
2012-10-26,-1,-0.0014805469330159012,-0.001208521259175263,-0.011114119136775834,0.00835226338312679,0.9885724711702946
2012-11-01,-1,-0.0010483811196375069,-0.0008534018615042438,-0.011114119136775834,0.00835226338312679,0.9888698766168411
2012-11-05,-1,-0.001794663291835629,-0.0014800809629587665,-0.012557786365348352,0.00835226338312679,0.9879970755394613
2012-11-07,-1,-0.002221095154999131,-0.0018761884871636549,-0.011114119136775834,0.00835226338312679,0.9895263759851124
2012-11-09,-1,-0.002221304399997543,-0.0018619637619500175,-0.011114119136775834,0.009655042145281935,0.9892680642695485
2012-11-13,-1,-0.0025400108427018936,-0.0021615830822024466,-0.004231745072768496,0.009655042145281935,0.9897384438072936
2012-11-15,-1,-0.002236358027281496,-0.0018935477349820594,-0.008227371641049698,0.008257398789651637,0.9905472489383365
2012-11-19,-1,-0.0024639340523716705,-0.0020702030662524433,-0.008227371641049698,0.00970226026468398,0.9897330721456177
2012-11-21,-1,-0.0020546432564043323,-0.0017085049625614752,-0.009049957318614235,0.013018546475396738,0.989345968600129
2012-11-26,-1,-0.0014111854146377854,-0.0011779878286349943,-0.007798111610142807,0.009362827526555888,0.9907638123549801
2012-11-28,-1,-0.001512556623390168,-0.0012526749563753982,-0.005849229309939134,0.008163987659415855,0.9912591688294059
2012-11-30,-1,-0.0019418089392977255,-0.0016206858679686166,-0.006357114028593296,0.013018546475396738,0.9903101456051973
2012-12-04,-1,-0.002642830723703901,-0.0022340561769059915,-0.005460295191374246,0.013962576538658553,0.989413197592167
2012-12-06,-1,-0.001980233238617959,-0.0016899681634505938,-0.006228838240665006,0.013018546475396738,0.9898669036791498
2012-12-10,-1,-0.0012835173951512972,-0.0010922691434291057,-0.007139089020503091,0.008163987659415855,0.9903120033050896
2012-12-12,-1,-0.0015949043775966944,-0.0013568028871960276,-0.007798111610142807,0.013034135068658134,0.9891451895875171
2012-12-14,-1,-0.002562007563063127,-0.002187536828896019,-0.007197345274911926,0.013034135068658134,0.9893312095823736
2012-12-18,-1,-0.0006550215140644689,-0.0005201427365562241,-0.007197345274911926,0.009991040573686258,0.9888304431853333
2012-12-20,-1,-0.0003442668668400444,-0.000287041401485447,-0.006228838240665006,0.007765802228236535,0.9891483540870984
2012-12-24,-1,-0.0012704810452716757,-0.0010526494118885117,-0.007197345274911926,0.007765802228236535,0.9889945795637779
2012-12-27,-1,-0.0011611793007506653,-0.0009456413598234862,-0.007787390305481892,0.007765802228236535,0.9889998183363822
2012-12-31,-1,-0.0006063198241695099,-0.0004694685023934102,-0.007787390305481892,0.006003338786549181,0.9894308134574645
2013-01-03,1,0.00041278335086434974,0.0004354964890499582,-0.007197345274911926,0.006003338786549181,0.991018583870022
2013-01-07,1,0.00033394924718993643,0.0003397694031043089,-0.007787390305481892,0.007765802228236535,0.9897325423955011
2013-01-09,-1,-0.00023476542539393907,-0.00015557761959098505,-0.007364228032654462,0.007765802228236535,0.9896412146428814
2013-01-11,1,1.6717530064752368e-05,5.7069094221885155e-05,-0.0067752456882847105,0.007619639873887673,0.9905666953129798
2013-01-15,0,-4.649188378036005e-07,4.471215914484509e-05,-0.0067752456882847105,0.007619639873887673,0.9896278305663075
2013-01-17,1,0.0020494604758338098,0.002306047688676333,-0.0067752456882847105,0.005534173403340082,0.9922384281638355
2013-01-22,1,0.0020697609975353958,0.0023299670376532647,-0.007394676936213055,0.0039771878446275225,0.9917499903053855
2013-01-24,1,0.0017783389828909617,0.002003229383530661,-0.007461335322057644,0.005024765615754377,0.9909992780791711
2013-01-28,1,0.001535426456230317,0.0017490846483302611,-0.007461335322057644,0.005024765615754377,0.9909029927614528
2013-01-30,1,0.0017195340002729331,0.0019491925267968804,-0.007461335322057644,0.007850280953906136,0.9904670466624075
2013-02-01,1,0.0018922342550468513,0.0021439484892523805,-0.007461335322057644,0.007850280953906136,0.9905505990217737
2013-02-05,1,0.00214635251516144,0.002439518942216341,-0.0067752456882847105,0.00554255269244747,0.992119339028668
2013-02-07,1,0.0020212452318629833,0.002301088751709956,-0.005861208507345152,0.007850280953906136,0.9920188193983942
2013-02-11,1,0.0024890534050075975,0.0028897460002815624,-0.005734628027565711,0.006991602739912176,0.9921732146938884
2013-02-13,1,0.0016081839093958425,0.001870571565395782,-0.005121630207007269,0.007879022046298078,0.9934103471029294
2013-02-15,1,0.0014912443023321123,0.0017502903499246388,-0.005734628027565711,0.009032201857939497,0.9926704894489797
2013-02-20,1,0.0012765575345991941,0.001507703034833845,-0.0007785376451306252,0.009032201857939497,0.9934354090570645
2013-02-22,1,0.0009048144813312563,0.0010423197147819752,-0.002136871762563935,0.007879022046298078,0.9939506323766663
2013-02-26,1,0.0007083853987440216,0.0008399257592381856,-0.0007785376451306252,0.007879022046298078,0.9946212198193007
2013-02-28,1,0.0011541779792412555,0.001339615875040678,-0.0027444395013221873,0.004456808744270738,0.9949831883687423
2013-03-04,1,0.0020198680524376005,0.0023784830447741868,-0.003970739618961398,0.0036730710809400463,0.9947744465111735
2013-03-06,1,0.0018694776025661194,0.002201312357110889,-0.005194295396664193,0.0036730710809400463,0.9941527801803189
2013-03-08,1,0.0022310423770018203,0.0025937546293884036,-0.005194295396664193,0.0036730710809400463,0.9941348945360482
2013-03-12,1,0.0014813749624007513,0.00169678068780829,-0.003970739618961398,0.005445403347001919,0.993734696355816
2013-03-14,1,0.001414110713396175,0.0015669215032100231,-0.005621906235094062,0.0059117898182384256,0.9924331061111117
2013-03-18,1,0.0017825419694812977,0.0019942219013745262,-0.005935207562879236,0.004362100015740097,0.9920828856722798
2013-03-20,1,0.001506889332820432,0.0016640569125370816,-0.009415674443669432,0.005190298926699779,0.9907161273901809
2013-03-22,1,0.0006197822372875141,0.0006205267419181348,-0.009465503401994802,0.008316420265618548,0.9894894060021683
2013-03-26,1,0.0006885979292323887,0.0006966005612734474,-0.009465503401994802,0.012747846856229301,0.988455389283053
2013-03-28,1,0.0005164924799382607,0.0005396211099458222,-0.009465503401994802,0.012747846856229301,0.9882718343992408
2013-04-02,-1,-0.00016544283205143287,-3.5080392333274913e-05,-0.005405995608478055,0.012747846856229301,0.9879741965651604
2013-04-04,-1,-0.0009238301348547964,-0.000678634394210339,-0.005405995608478055,0.012747846856229301,0.987248691099978
2013-04-08,-1,-0.0002363978616788105,-8.081631252741068e-05,-0.005405995608478055,0.013611443163537136,0.9870192607806819
2013-04-10,0,-0.00010397722772161402,6.63261997652553e-05,-0.005405995608478055,0.012488694463140998,0.9874067299734838
2013-04-12,-1,-0.0003895155634003072,-0.00019103990252189592,-0.003168117282669964,0.01194738655840119,0.9885315500506894
2013-04-16,-1,-0.0005296511049812712,-0.0003515167286319654,-0.0011328558104404197,0.01194738655840119,0.9892848340728801
2013-04-18,-1,-0.0007454422116727194,-0.000547745934766723,-0.0011328558104404197,0.01194738655840119,0.9900012495388741
2013-04-22,-1,-0.00021114066142936355,-7.914363227194584e-05,0.002991305036512181,0.01194738655840119,0.9910917843198275
2013-04-24,1,0.0006142525972711644,0.0006514425862891648,-0.0029579505843819985,0.011737968071379765,0.9916811399627293
2013-04-26,1,0.00022245069841811974,0.0003089393793213027,-0.0011328558104404197,0.011737968071379765,0.99146642140178
2013-04-30,1,0.00016692944153292113,0.00031803938977990637,-0.0011328558104404197,0.010321232627273646,0.9916833460256268
2013-05-02,-1,-0.0002056955792773303,-2.8159234658558358e-05,-0.0011328558104404197,0.010321232627273646,0.9916494012006074
2013-05-06,1,0.0007465865851776786,0.000798135806632804,-0.0029579505843819985,0.008588430751754557,0.9923147044727184
2013-05-08,1,0.0011083025301814862,0.001113800213273084,-0.003712409052332959,0.008588430751754557,0.9915788826036491
2013-05-10,1,0.0007050237303694931,0.0008094872724660362,-0.003712409052332959,0.009794760228528654,0.9907669074002909
2013-05-14,1,0.0017550157510572957,0.0018778516702702582,-0.006600180752334823,0.009561932103199519,0.9906779886359326
2013-05-16,1,0.0017127228338877534,0.0018166660595796728,-0.008620810723009426,0.00865845454996848,0.9905713088640127
2013-05-20,1,0.0020486344054666764,0.002173433317693217,-0.008620810723009426,0.007393914109663599,0.9910636160690401
2013-05-22,1,0.0012901854906539828,0.0013252855043035176,-0.01228373063356923,0.007393914109663599,0.9903941703240439
2013-05-24,1,0.0017062229369762848,0.0018131838744706917,-0.013664188869161143,0.006284640225841267,0.9898773483422403
2013-05-29,1,0.002302444712607942,0.0025013508528267565,-0.013664188869161143,0.006284640225841267,0.9890716914414313
2013-05-31,1,0.0016746050333528327,0.0017817159063026789,-0.012178958042474937,0.007692426298704234,0.9895895152163973
2013-06-04,1,0.0009487219984329047,0.0009601181318488067,-0.008620810723009426,0.010064216628828596,0.9894745382473242
2013-06-06,1,0.001366920256888253,0.001409561964265691,-0.006361269653230062,0.010064216628828596,0.9899688185014577
2013-06-10,1,0.001861473547409941,0.0019548951785732347,-0.006361269653230062,0.00984620424807769,0.9904192647058723
2013-06-12,1,0.002324773502958861,0.0025585599938703,-0.0051035096607131986,0.00984620424807769,0.9912044996843025
2013-06-14,1,0.0023993265453332007,0.002648922572326196,-0.004579718806394328,0.00984620424807769,0.991507848836172
2013-06-18,1,0.0022940593348987916,0.002513228990251811,-0.0051035096607131986,0.00984620424807769,0.9911782178241809
2013-06-20,1,0.0011005718192793105,0.0011439787232988457,-0.0031967288574092276,0.00984620424807769,0.9927114068251257
2013-06-24,1,0.0007504388444875494,0.0007553901706174112,-0.0009254491191370432,0.011165805017659704,0.9926659456022229
2013-06-26,1,0.0015381537796412196,0.0016577597503462304,-0.0022703632055548657,0.00984620424807769,0.9931033281680546
2013-06-28,1,0.001716978575535396,0.0018679174607883916,-0.0027848836557846945,0.009513526649810655,0.9931590558786425
2013-07-02,1,0.00218969887900604,0.002390989477285108,-0.0027848836557846945,0.00735810419412896,0.9939473004865812
2013-07-05,1,0.002386211590586683,0.002616161910330995,-0.0013054139086587301,0.00735810419412896,0.9941391891318759
2013-07-09,1,0.0023701969213037735,0.00252805606370635,-0.0029763954348698152,0.005167095896510243,0.9938509305549158
2013-07-11,1,0.002085732627338522,0.002193292575858128,-0.005901383308113531,0.005167095896510243,0.9934980079200403
2013-07-15,1,0.0019393378104926285,0.0019979576919421705,-0.005901383308113531,0.004250336614645243,0.9936533979517349
2013-07-17,1,0.0018311613945805245,0.0018721096180389447,-0.005997835200054936,0.0038045615280893055,0.9937436639516753
2013-07-19,1,0.001561061426984253,0.0015884343086063355,-0.005997835200054936,0.004250336614645243,0.9934813225178105
2013-07-23,1,0.002215144926146103,0.0022914827714560094,-0.007380801336641857,0.0028826483075380057,0.9937342741581153
2013-07-25,1,0.0020606893680951643,0.0021370428288073136,-0.006923260024835883,0.0028826483075380057,0.9937626621659775
2013-07-29,1,0.0016220107826046704,0.0016220989012653178,-0.006923260024835883,0.0028826483075380057,0.9937380761571271
2013-07-31,1,0.0014523114349020462,0.0014960829099622773,-0.007380801336641857,0.0028826483075380057,0.9921543003909503
2013-08-02,1,0.001885323022937388,0.001964345696639835,-0.007380801336641857,0.002289619901357354,0.9926177322084189
2013-08-06,1,0.0013718324124258633,0.0013890079058557873,-0.006923260024835883,0.002621887883692881,0.993691237042884
2013-08-08,1,0.0012601676456692698,0.0012639719877810358,-0.0057833720290738615,0.0026553185534955877,0.9935590388546127
2013-08-12,1,0.0010981307547838215,0.0011188059602048335,-0.0057833720290738615,0.0026553185534955877,0.9932914773788455
2013-08-14,1,0.00045305750947922805,0.0005715942215771699,-0.00527784940831924,0.0031291881549801795,0.9934884554389318
2013-08-16,1,0.0004758804951180893,0.0005852519529332726,-0.005565540029281014,0.0031291881549801795,0.9934636115387553
2013-08-20,1,4.463875027117391e-05,0.0002147010454035889,-0.005013995095423714,0.003911333623610116,0.993676872138759
2013-08-22,0,-4.976012471641399e-05,0.00015152375705155868,-0.005013995095423714,0.003377144197151752,0.9940584180281764
2013-08-26,-1,-0.0008743892545350541,-0.0005536393790902263,-0.005565540029281014,0.003377144197151752,0.9938371724146472
2013-08-28,-1,-0.0014497193157077988,-0.001109973287434585,-0.005565540029281014,0.003911333623610116,0.9941976099562202
2013-08-30,-1,-0.0013628393211436768,-0.0010673942209974646,-0.005141880016494909,0.003911333623610116,0.9944690958667004
2013-09-04,-1,-0.0014609306484960898,-0.0011377083616124057,-0.00597702977639359,0.004739440032919502,0.9936561475274704
2013-09-06,-1,-0.0017235938107466576,-0.0013287692428543166,-0.00597702977639359,0.004739440032919502,0.9936744928047085
2013-09-10,-1,-0.0027144656533648706,-0.0022048627841316708,-0.008536973472328365,0.003911333623610116,0.9926634294784815
2013-09-12,-1,-0.002477773687446379,-0.002004137100422576,-0.008536973472328365,0.007127495954378352,0.9910731362433547
2013-09-16,-1,-0.002083603601195595,-0.0017259415931380959,-0.008536973472328365,0.007171809701622761,0.9909510825723911
2013-09-18,-1,-0.0018540559216069208,-0.0015126065568863765,-0.010243467331239094,0.010825290036763212,0.9902627970783798
2013-09-20,-1,-0.0019611473251993023,-0.0016235052515409668,-0.010243467331239094,0.014107858301343472,0.9881939716253496
2013-09-24,-1,-0.0027172548816662223,-0.002295947224889498,-0.004791755875717064,0.014107858301343472,0.9883164858090759
2013-09-26,-1,-0.001994881400889591,-0.0016915912950798673,-0.005695834434298479,0.012440092337113712,0.9893249414241031
2013-09-30,-1,-0.0017629361365343026,-0.001505606855368023,-0.005695834434298479,0.012440092337113712,0.9890670397959498
2013-10-02,-1,-0.0017510849255333056,-0.001501362504482737,-0.003756009587930968,0.011630977903093611,0.9898803793110618
2013-10-04,-1,-0.0012166205599391975,-0.0010470726816030464,-0.005695834434298479,0.008396944168228915,0.9900660552324462
2013-10-08,-1,-0.002400105234064605,-0.0021020448459045265,-0.003756009587930968,0.014865984302629334,0.9904823902547861
2013-10-10,-1,-0.0008331878440307875,-0.0007507392968253012,-0.003756009587930968,0.0060937984566678625,0.9924437047424329
2013-10-14,-1,-0.0010704073219731393,-0.0009372946106084142,-0.005695834434298479,0.008405772534753338,0.9900237672640827
2013-10-16,-1,-0.0003650484266340718,-0.0003229997650509082,-0.005695834434298479,0.008663536747775048,0.9897732752631022
2013-10-18,1,0.001162437048002144,0.0012978818408270142,-0.005695834434298479,0.005312055764740977,0.991398282505678
2013-10-22,1,0.0007295508765095966,0.0007709326819179097,-0.005695834434298479,0.003567027703286887,0.9915366789951368
2013-10-24,1,0.0002077539923684203,0.0002551508555264244,-0.004122001977659485,0.005312055764740977,0.9911879317970952
2013-10-28,1,0.0006808340868933594,0.0007107321388695404,-0.004122001977659485,0.00709351910428902,0.9909165307260157
2013-10-30,1,0.00088523577996899,0.0009741161811205077,-0.005349724262569625,0.00709351910428902,0.9901706324525598
2013-11-01,1,0.00026672845277021974,0.00027951286944064344,-0.006018349553383433,0.00709351910428902,0.990276607970215
2013-11-05,1,0.0006134774973459449,0.0006465819895092784,-0.006018349553383433,0.005437292816881418,0.9905649050111285
2013-11-07,1,0.00028080971474393713,0.00028459857468220097,-0.006018349553383433,0.00709351910428902,0.9893797616445669
2013-11-11,1,0.0008091544871070731,0.000825619594785047,-0.005603451312400832,0.005437292816881418,0.9918717969318557
2013-11-13,1,0.0006968320943102862,0.0007158256491797867,-0.005603451312400832,0.004700243211956151,0.9927154355756385
2013-11-15,1,0.0007326949590243253,0.0007528498317978118,-0.006018349553383433,0.004700243211956151,0.9921512639708973
2013-11-19,1,0.0006456554984185838,0.0006827037160955541,-0.006614141602444598,0.007005919344847273,0.9913289020409851
2013-11-21,1,0.0016770858566822204,0.0018766584778177227,-0.006614141602444598,0.007769281727539942,0.9915185780079019
2013-11-25,1,0.001791707873527574,0.0020190465800721796,-0.006614141602444598,0.006738965892839817,0.9918638670958844
2013-11-27,1,0.001666720696017416,0.0018825635259951475,-0.006018349553383433,0.006738965892839817,0.9922657956116455
2013-12-02,1,0.0012443978096423032,0.0013967308080698208,-0.005552951901796777,0.006738965892839817,0.9927420273707114
2013-12-04,1,0.0009905052931596333,0.0011179299424059728,-0.005113195095692415,0.006738965892839817,0.9930955116453725
2013-12-06,1,0.0017546625091238357,0.001983820378785311,-0.005113195095692415,0.005625515847852453,0.9945946622134932
2013-12-10,1,0.0015936603184909508,0.0018102795979488108,-0.0014258654231431,0.006738965892839817,0.9944709376866212
2013-12-12,1,0.00160766002150724,0.001855769313480774,-0.0014258654231431,0.007327798719249467,0.9939486341296228
2013-12-16,1,0.0015892227511316772,0.001819066552540768,0.0010739419404918174,0.007327798719249467,0.9943848770439299
2013-12-18,1,0.0018374929495094659,0.0020832143883491535,0.0010739419404918174,0.007185540575901224,0.9948157239220317
2013-12-20,1,0.002076876806710589,0.0023504974747157337,0.0010739419404918174,0.007151434909394494,0.9949249069393197
2013-12-24,1,0.0024437202555121816,0.002811198610349633,-0.0061796390914453814,0.006049353419909373,0.9937249738020718
2013-12-27,1,0.0020801101012114646,0.0023629034797693,-0.00793408973219853,0.008139814629271509,0.9932055257311521
2013-12-31,1,0.0021201412401733897,0.0023914658474870933,-0.009001904874255635,0.008565205768913496,0.9919742370213909
2014-01-03,1,0.0018543810673800772,0.0020923937796487623,-0.009559732470770554,0.008565205768913496,0.9904793111193047
2014-01-07,1,0.0018267390721120112,0.0020557757621768747,-0.009559732470770554,0.008565205768913496,0.9904171494241132
2014-01-09,1,0.0021258123258490235,0.0023996092625548707,-0.009559732470770554,0.008775065102039563,0.9899843439179646
2014-01-13,1,0.0017799356128788755,0.0020039457947837033,-0.009277492115485043,0.008148393537451427,0.9905996956253159
2014-01-15,1,0.0021924625498662177,0.002484310616344104,-0.009277492115485043,0.008148393537451427,0.9907959760001941
2014-01-17,1,0.001908228176062614,0.002126813090373006,-0.009007312686521583,0.008048296599900234,0.9914589835702488
2014-01-22,1,0.001835654865633159,0.0019808140539589094,-0.009559732470770554,0.005537465704907949,0.9911516138616152
2014-01-24,1,0.0010018690806726598,0.0010226262982880323,-0.0025789285739105175,0.007958190119901575,0.9920322732764053
2014-01-28,1,0.0010383227647913886,0.0010677411080407347,-0.00011698910258674358,0.0055083834235950535,0.9927695017705471
2014-01-30,1,0.0009839793129721793,0.0010113068137453341,-0.00011698910258674358,0.0046899089134442955,0.9940638454943709
2014-02-03,1,8.583898805319962e-05,0.00017410134668444457,0.0007115912417953831,0.0055083834235950535,0.9940740472893114
2014-02-05,1,0.00015341911945428958,0.00024011960703179382,0.0007115912417953831,0.007961049755961548,0.993704922497991
2014-02-07,1,0.0005945295309831177,0.000634965733236834,0.0010402457631594937,0.007961049755961548,0.9940849926011526
2014-02-11,1,0.0011080189035448805,0.0011477964891539673,-0.00011698910258674358,0.005496817051775505,0.9943794938475407
2014-02-13,1,0.0008492000732599584,0.000871177058839045,-0.001693680209301994,0.004549840076356363,0.9942257631086868
2014-02-18,1,0.0003610619778378205,0.00046082289597455285,-0.001693680209301994,0.007937984663648609,0.9934361886798513
2014-02-20,1,5.506659745069996e-05,0.00019456203731950427,-0.0002301859006360494,0.008705721013418091,0.9929906666702091
2014-02-24,1,0.000266982379168946,0.0003972832663759662,-0.0005508430984596166,0.008705721013418091,0.9935783146070643
2014-02-26,1,4.446694639410366e-05,0.00021306926165996754,-0.0021400134257861876,0.008705721013418091,0.9933884731856907
2014-02-28,0,-3.969064278196681e-05,0.00010028577038658404,-0.003573814126386217,0.008705721013418091,0.9916617948987101
2014-03-04,-1,-0.0005000624881367826,-0.0002423888075054082,-0.0021400134257861876,0.008614303985849493,0.9922314602870369
2014-03-06,1,0.00031657761812886283,0.00044287079946428974,-0.0021400134257861876,0.007645258509061683,0.9928008833481748
2014-03-10,1,0.0008271609231157259,0.0008762152130641176,-0.004119003323579905,0.006112837019038709,0.9921154150925395
2014-03-12,1,0.0005299437571808101,0.0006088710157589881,-0.003573814126386217,0.0072299078768343315,0.9921046191860758
2014-03-14,1,0.0005629645633158885,0.0005991699858477644,-0.005322982668504868,0.0072299078768343315,0.9901971948449362
2014-03-18,1,0.0010410551135950114,0.0011327429086927187,-0.005322982668504868,0.005329266678883585,0.9910285051208376
2014-03-20,1,0.0012734160876500707,0.0013876896545322558,-0.01116761540323408,0.005329266678883585,0.989630186113202
2014-03-24,1,0.0014764665761582165,0.0015788730621167028,-0.01116761540323408,0.006009870878270337,0.9884817663933376
2014-03-26,1,0.0012006057022616837,0.0012537772103478767,-0.01116761540323408,0.007130916046457529,0.9882463292629661
2014-03-28,1,0.0003602427555958318,0.00043261497091427113,-0.01158543277703974,0.006009870878270337,0.9888612268644781
2014-04-01,1,0.000862708349080476,0.0008658111152191545,-0.01158543277703974,0.005815062580740434,0.989085812122736
2014-04-03,1,0.0005556977087633682,0.0006079379711639328,-0.011886038277700845,0.006542516843476251,0.9883622007524072
2014-04-07,-1,-8.515612864811156e-05,-7.509812918835707e-07,-0.011828502035954229,0.006542516843476251,0.9891336001042239
2014-04-09,-1,-0.00011225979108801375,-1.573673225140819e-05,-0.011828502035954229,0.00654649115386782,0.9883244683659018
2014-04-11,-1,-0.0018726453514926818,-0.0015739849831100299,-0.011125505316837899,0.00789990811948244,0.9897823076804066
2014-04-15,-1,-0.0016932166867644834,-0.001430802599452827,-0.011828502035954229,0.00789990811948244,0.9892800068179595
2014-04-17,-1,-0.002745122729316621,-0.0024070336653259907,-0.011828502035954229,0.00654649115386782,0.9911154756403519
2014-04-22,-1,-0.002499519536735466,-0.0021985124322433064,-0.011828502035954229,0.00654649115386782,0.9915076729220147
2014-04-24,-1,-0.002662158329608432,-0.0023356485426542454,-0.011828502035954229,0.006882599563056837,0.9910778972065016
2014-04-28,-1,-0.003510075635916287,-0.0030680499855852607,-0.006568967592762209,0.00796407132839452,0.9910089018518718
2014-04-30,-1,-0.0034751851729328304,-0.003021870397741506,-0.006568967592762209,0.00796407132839452,0.9914705905134192
2014-05-02,-1,-0.0029659972906027916,-0.0026030372108247725,-0.005595628796024829,0.00796407132839452,0.9913653309413987
2014-05-06,-1,-0.003444530945940916,-0.0030239106151578356,-0.004951047432417116,0.00922941343904964,0.9913222761457029
2014-05-08,-1,-0.0029790578619709246,-0.0026040021170369854,-0.004747152823659128,0.00796407132839452,0.9918481065137141
2014-05-12,-1,-0.002464639296795315,-0.002128600804011869,-0.004747152823659128,0.00796407132839452,0.9919311110046323
2014-05-14,-1,-0.0029879330444698895,-0.0026074103544158067,-0.004747152823659128,0.00796407132839452,0.9922587903820578
2014-05-16,-1,-0.003295888313581529,-0.0029079621019877976,-0.004661713548946766,0.00796407132839452,0.9921661507518946
2014-05-20,-1,-0.0030249740682146576,-0.002669097030025384,-0.0046263870419199354,0.008706212153055856,0.9918065505488838
2014-05-22,-1,-0.0025196854208557606,-0.0022154230653476923,-0.0046263870419199354,0.0070569543013835655,0.9926013570662995
2014-05-27,-1,-0.0020087521010058156,-0.001773858949667661,-0.0046263870419199354,0.006658324662969558,0.993498239459606
2014-05-29,-1,-0.002233744440839769,-0.001965637907646322,-0.0046263870419199354,0.006658324662969558,0.993296439944874
2014-06-02,-1,-0.0013833110329660803,-0.001223684480683538,-0.0046263870419199354,0.004360382265984172,0.9942090636580772
2014-06-04,-1,-0.0010864846159138097,-0.000984446566754098,-0.0046263870419199354,0.004360382265984172,0.994267204704424
2014-06-06,-1,-0.0007045097106537508,-0.0006474651620974449,-0.0046263870419199354,0.0038765489864925227,0.9942626117611754
2014-06-10,-1,-0.000252952942374902,-0.00023235154339620151,-0.004990740416060548,0.0038765489864925227,0.9945477291088678
2014-06-12,-1,-0.0005778131562522409,-0.0005602793671249039,-0.0039473468309968495,0.004459435486812785,0.9939090802610193
2014-06-16,-1,-0.0005125135299542185,-0.0004950034846553741,-0.0028971176191675456,0.0060781915390722184,0.9938250929366536
2014-06-18,-1,-0.0005579308964124804,-0.0005358026489587919,-0.00638092509703564,0.004459435486812785,0.9914609714183373
2014-06-20,-1,-0.00028198096927871885,-0.0002595512611115235,-0.00638092509703564,0.005949022588308924,0.9910388978607059
2014-06-24,-1,-0.0005384580548418488,-0.0004726268018166587,-0.00638092509703564,0.00830608796860068,0.9907990410832923
2014-06-26,-1,-0.0013779455417623648,-0.0011582019371083078,-0.0035892585220524253,0.008511815426997946,0.9899811684537176
2014-06-30,-1,-0.001150162716230778,-0.0009717248455849703,-0.006883139613999436,0.008511815426997946,0.989362278116371
2014-07-02,-1,-0.000761418006008318,-0.0006533052810064445,-0.007862136453860873,0.00830608796860068,0.9892441964749924
2014-07-07,-1,-0.00019380982528169823,-0.00017323965489775175,-0.01038172136450106,0.005923503085764267,0.988687514463914
2014-07-09,-1,-0.00014876010308767775,-0.000139408711038404,-0.01399651994068287,0.0052707165097121604,0.9884870130134367
2014-07-11,-1,-0.00012094967718300273,-0.00011942215269053584,-0.010437667976759431,0.005121676019896814,0.9888750819006478
2014-07-15,1,0.00012022388952015272,0.00013113789018662345,-0.010437667976759431,0.004000840553613243,0.9895371774985665
2014-07-17,-1,-0.0020651456631402276,-0.0018393464220813093,-0.007061232266079122,0.005121676019896814,0.9920665134136625
2014-07-21,-1,-0.0015048663428738225,-0.0013503019274754694,-0.007061232266079122,0.005121676019896814,0.9920106059156162
2014-07-23,-1,-0.0011063372992323763,-0.0010042712127211013,-0.007061232266079122,0.004828028982396646,0.9921840484481822
2014-07-25,1,2.334536710675499e-05,7.070213845314686e-05,-0.007061232266079122,0.004220035878984371,0.9926039995161549
2014-07-29,-1,-0.0006450798764918746,-0.0006363104172982728,-0.00367861767946249,0.006056619489627758,0.993265365476132
2014-07-31,-1,-0.0006913002756910888,-0.0006578910068976331,-0.00367861767946249,0.006056619489627758,0.9938335447340596
2014-08-04,-1,-0.0012877922501634805,-0.0012385720602841256,-0.0027628455359241153,0.006609045890027493,0.9941812266185054
2014-08-06,-1,-0.0017444227193297438,-0.0016246307298280766,-0.0027628455359241153,0.006609045890027493,0.9945979196367005
2014-08-08,-1,-0.0011490763765231843,-0.0011338475333274255,-0.002460796740065882,0.006056619489627758,0.9954775122632757
2014-08-12,-1,-0.001133386724235191,-0.0009892328284746088,-0.002460796740065882,0.006609045890027493,0.9947880042036036
2014-08-14,-1,-0.0007813863634159137,-0.0005954173609735237,-0.002460796740065882,0.006609045890027493,0.9949525776635011
2014-08-18,-1,-0.0004746535055030923,-0.0002547077440585195,-0.002460796740065882,0.006056619489627758,0.9955458474893157
2014-08-20,-1,-0.00046989670974947753,-0.0002858145507393197,-0.0013514329341865583,0.007045713229031029,0.9948778229327835
2014-08-22,1,0.0002234340467514096,0.00047317808457502026,-0.00443168347990033,0.006155847022861285,0.9950115485754191
2014-08-26,1,0.0008442812279839328,0.0012424949053343967,-0.0051095383113997994,0.005401365447420248,0.9946092359693319
2014-08-28,0,-1.7854784676071063e-05,0.00020632651174063191,-0.0051095383113997994,0.005401365447420248,0.9942179102536964
2014-09-02,1,0.0005563587877798921,0.0008298866076574295,-0.005911842048025537,0.0021975877982260486,0.9939975817054846
2014-09-04,1,3.1202649358319615e-05,8.686138335400499e-05,-0.00638049937173428,0.0021975877982260486,0.9937313426623735
2014-09-08,1,0.00015649290513096632,0.00024301534872774987,-0.00658272930632256,0.0041440646395335835,0.9929274334328871
2014-09-10,-1,-9.861073191481369e-05,-7.087375344640987e-05,-0.007080656646271036,0.0041440646395335835,0.992132754808728
2014-09-12,1,0.00025693476987061843,0.00032487397982738903,-0.010010284974252588,0.002191871461986859,0.990847623069309
2014-09-16,1,7.39868703399448e-05,0.00011764146624408065,-0.010010284974252588,0.0007306315627818228,0.9908283989925353
2014-09-18,1,0.0003331383823815894,0.00034330647304041807,-0.012642572292235704,-0.0008647403652812152,0.9877553264148067
2014-09-22,1,5.460626286216423e-05,0.00010920381488254002,-0.012642572292235704,0.0007306315627818228,0.9868133212644264
2014-09-24,-1,-9.786563894285155e-05,-1.9703372255005207e-05,-0.011504858852794111,0.0030336628638572777,0.9861574279708781
2014-09-26,-1,-0.0008253059354667813,-0.0006363315443105723,-0.010010284974252588,0.009008156456715773,0.9862800166336742
2014-09-30,-1,-0.0007990452567510435,-0.0006438430262746516,-0.010010284974252588,0.012385454350858471,0.9857550189174736
2014-10-02,-1,-0.0008655541138478086,-0.0007280934722349734,-0.009369035880827777,0.012385454350858471,0.9856465535271843
2014-10-06,-1,-0.0010388527005617838,-0.0008520212155398249,-0.009369035880827777,0.012395466986328625,0.985882070398166
2014-10-08,-1,-0.0007816598820655378,-0.000593184964520023,-0.007952268536078116,0.012395466986328625,0.9863823454426384
2014-10-10,-1,-0.0015365616273393242,-0.0012698256323771411,-0.0034686142600154307,0.012395466986328625,0.9870267744571569
2014-10-14,-1,-0.0014817456096521753,-0.0012470231847285832,-0.0016555423686120576,0.012395466986328625,0.9870187772783972
2014-10-16,-1,-0.0035089986602663166,-0.0030577079642733467,0.0007668892765402893,0.012395466986328625,0.9890585977576318
2014-10-20,-1,-0.002316151505118461,-0.0019969622166827643,-0.0016555423686120576,0.008279825316149899,0.9913364216316106
2014-10-22,-1,-0.000965564692684402,-0.0008386021128649585,-0.0019842698334361676,0.007523688342697048,0.9928592601940344
2014-10-24,-1,-0.0002966043362382773,-0.00025438830401015795,-0.0023460727759312258,0.007186723047945088,0.9933626777263722
2014-10-28,1,0.0006861950293651868,0.0007938916701214438,-0.0041731085201330426,0.007186723047945088,0.9937780821201165
2014-10-30,1,0.0009486974023030245,0.0011064659525646713,-0.006637570512786902,0.006189062976754061,0.9936730790387837
2014-11-03,1,0.0010381914746691722,0.0011893350130257959,-0.007417882161333547,0.006189062976754061,0.9930533869121537
2014-11-05,1,0.0013841674184493441,0.001568270300958144,-0.006637570512786902,0.006189062976754061,0.9938808033221476
2014-11-07,1,0.0011924731687806569,0.0014123529964000514,-0.0041731085201330426,0.007186723047945088,0.9935597026588778
2014-11-11,1,0.0013475059054144363,0.0015891354673510986,-0.006637570512786902,0.007186723047945088,0.9920862861570178
2014-11-13,1,0.0013240439657642702,0.0015565395252817664,-0.007633758079100769,0.004987043540983051,0.991713471253878
2014-11-17,1,0.0011636801450331828,0.0013679730788051883,-0.00851271609453674,0.004987043540983051,0.9909641238989394
2014-11-19,1,0.0010071987967712375,0.0011937496935830634,-0.007493136125572616,0.008175990317367019,0.9895932788614987
2014-11-21,1,0.0011997878448039873,0.0014161042518676013,-0.007493136125572616,0.008175990317367019,0.9898934390642892
2014-11-25,1,0.0015245781739519943,0.001793122051118934,-0.007493136125572616,0.008175990317367019,0.9897800287462176
2014-11-28,1,0.0013403818216713348,0.0015822651628287412,-0.0025461596645368428,0.008175990317367019,0.9902016954451877
2014-12-02,1,0.00116727215471432,0.0013902751271338723,-0.0025461596645368428,0.005286326171850965,0.9905742889939615
2014-12-04,1,0.0017797844650612213,0.002118073555445878,-0.009882842767174757,0.004082299138249157,0.9889001159287323
2014-12-08,1,0.0011542273767850518,0.0013039516655680232,-0.014552851888629108,0.004082299138249157,0.9875663423885912
2014-12-10,1,0.0005523026887964399,0.0006436834271666187,-0.014552851888629108,0.00606937780792481,0.986904891499816
2014-12-12,1,0.0001449203488235697,0.00020894696817072168,-0.014552851888629108,0.00606937780792481,0.9867146223751407
2014-12-16,0,-6.772189382605657e-05,6.876466470491797e-06,-0.01471003037251354,0.00606937780792481,0.9865244966551401
2014-12-18,1,0.001042882374942572,0.0012230305925367176,-0.01471003037251354,0.004082299138249157,0.986776333182639
2014-12-22,1,0.000837668495474606,0.000975577649231937,-0.01554161424220026,0.00606937780792481,0.9845574077844678
2014-12-24,1,0.0009285974946555971,0.001036042975402102,-0.01554161424220026,0.00606937780792481,0.9841632601389526
2014-12-29,1,0.0006850418762851321,0.0007383629357941791,-0.01852237181826601,0.00606937780792481,0.9823128203295072
2014-12-31,1,0.0002842709275317118,0.000294237088348276,-0.01852237181826601,0.011857562899186212,0.9822536278463118
2015-01-05,-1,-0.0010221621396936662,-0.0008720363018400086,-0.01554161424220026,0.014920218980385242,0.981859961165887
2015-01-07,-1,-0.0019103869364225723,-0.0016688103183360526,-0.01470554848834374,0.015328647221899683,0.9833818241558061
2015-01-09,-1,-0.0017081187588668223,-0.0015043695518323216,-0.013675454033544062,0.014850360503777605,0.9848021527375908
2015-01-13,-1,-0.0023012370894829933,-0.002038344598627204,-0.012366446263058845,0.014850360503777605,0.9854241466997279
2015-01-15,-1,-0.0029582587332809144,-0.0026394277102927987,-0.00987830126536755,0.015328647221899683,0.9849592782416348
2015-01-20,-1,-0.002490457352084089,-0.00222634425795112,-0.010222926625343486,0.014850360503777605,0.9849289901080631
2015-01-22,-1,-0.0027304488281974593,-0.0024356239525245506,-0.006261242910363132,0.014145552852765824,0.9864632672778211
2015-01-26,-1,-0.0020645417575417633,-0.0018690348688613354,-0.005191345693384536,0.013941951591767811,0.9874626647626356
2015-01-28,-1,-0.0032734226132364033,-0.002933829610736058,-0.00054157171318383,0.013941951591767811,0.988388048657093
2015-01-30,-1,-0.00293616914366599,-0.002633139107823334,-0.00054157171318383,0.011666533816105999,0.989079158399095
2015-02-03,-1,-0.0008303709826299961,-0.0007826907466890891,-0.0038139392649109345,0.008284875805648692,0.9921945540776541
2015-02-05,1,8.658354259951799e-05,0.0001747960530249688,-0.0038139392649109345,0.007374626109681612,0.9930785744324512
2015-02-09,1,0.0002400886246695258,0.00034546614987939725,-0.0038139392649109345,0.005700514580839112,0.9930454234066243
2015-02-11,1,0.0006355784810323657,0.0008321073016791772,-0.00338727515758971,0.007374626109681612,0.992817779481169
2015-02-13,1,0.0013740227551579643,0.0016542853037088863,-0.004375721485929859,0.007374626109681612,0.9932289209640794
2015-02-18,1,0.001214663353278553,0.0014568123107132117,-0.00338727515758971,0.005700514580839112,0.9945533211496315
2015-02-20,1,0.0014317087266111253,0.0016774529774662142,-0.00338727515758971,0.005700514580839112,0.9943203000343387
2015-02-24,1,0.0012414925529408748,0.001441522071994212,-0.0045120336913006785,0.0033589763856424685,0.9939553081609955
2015-02-26,1,0.0010778483928544737,0.0012361072644245423,-0.006355851020374479,0.007374626109681612,0.9924331007752667
2015-03-02,1,0.0013357290985379178,0.0015373973025372039,-0.008594259448214112,0.00742072033509838,0.9921003138169638
2015-03-04,1,0.001244183778343446,0.0014565357843102837,-0.008594259448214112,0.00742072033509838,0.9921249500312456
2015-03-06,1,0.0011340849469403125,0.0012861554702500047,-0.008594259448214112,0.004768206399380149,0.9922768748393728
2015-03-10,1,0.0004196955937631703,0.0004613078382418852,-0.006355851020374479,0.008176682449199054,0.992649494087209
2015-03-12,-1,-0.0022439738330348328,-0.0018829434397096148,-0.007938434492855098,0.005909789180854597,0.9927312247376491
2015-03-16,-1,-0.0015541595276929196,-0.0013263975940390825,-0.008216693456895907,0.005909789180854597,0.9926504406521083
2015-03-18,-1,-0.0012282885858117799,-0.0010892078117600043,-0.008216693456895907,0.008048953742700222,0.9919613494200018
2015-03-20,-1,-0.0003598319786906533,-0.00033749359727354954,-0.009510158045470484,0.006286695945484732,0.9915967486397944
2015-03-24,-1,-0.00042258161716568834,-0.0004196049529144107,-0.008216693456895907,0.008403360518815732,0.9903097955071509
2015-03-26,-1,-0.0002503134549400886,-0.0002076731782365858,-0.007889889209573866,0.008048953742700222,0.99151142864668
2015-03-30,-1,-0.00019941625459442289,-0.00013540133610452312,-0.005470607665142232,0.008403360518815732,0.9916674869380311
2015-04-01,0,-4.047361907575118e-05,6.30321654406116e-05,-0.0041605325953395335,0.00847531191194892,0.9916222316180393
2015-04-06,1,7.458182294338075e-05,0.00018811066846216107,-0.0041605325953395335,0.01017717822609738,0.9907432487800734
2015-04-08,1,0.00030330452406227145,0.00045769906026286555,-0.005255498639785468,0.00895891783908721,0.9907807552238264
2015-04-10,1,0.0003812931557429224,0.0005558650910696619,-0.004918478465909714,0.010288967764500624,0.9905662344212225
2015-04-14,1,0.0003020542315360507,0.0004601865189729736,-0.004088829586887279,0.010288967764500624,0.9911004456795242
2015-04-16,1,0.0007117071475132283,0.0009067624708809626,-0.004088829586887279,0.010644110284177461,0.9910539269844526
2015-04-20,1,0.0004006880425474939,0.0005725714917263704,-0.004088829586887279,0.010644110284177461,0.9911006171407006
2015-04-22,1,0.0015727184762026896,0.0019263507847169796,-0.004918478465909714,0.009999841571173899,0.9911114972458682
2015-04-24,1,0.001204462484887728,0.0015027710204186795,-0.004088829586887279,0.009999841571173899,0.9916001368953353
2015-04-28,1,0.0014895994609063104,0.0018089580648166762,-0.0043918676825884595,0.009999841571173899,0.9915404427626372
2015-04-30,1,0.0018929326033125225,0.0022872578432511052,-0.004918478465909714,0.009448837269539066,0.991360749124903
2015-05-04,1,0.003081123016868409,0.0036523257361878833,-0.006948177187837338,0.008220061191401208,0.9910610998431938
2015-05-06,1,0.0020579841073150905,0.002443047754879429,-0.006948177187837338,0.009567218109431345,0.991032632615512
2015-05-08,1,0.0020214349198948633,0.0023897989876316677,-0.0053908864038474365,0.009567218109431345,0.9906100102196096
2015-05-12,1,0.0017319169838139583,0.0020124726713177253,-0.0053908864038474365,0.010755771884374939,0.9899880768316585
2015-05-14,1,0.002749336859467587,0.0032373300579269324,-0.006679455610721349,0.00996800590295555,0.9900739434645682
2015-05-18,1,0.0026424905872087998,0.0031193058499413466,-0.004817633823884121,0.00996800590295555,0.9908395447418247
2015-05-20,1,0.002792766793665608,0.0033325228157684568,-0.004817633823884121,0.009177138408878814,0.9919203406471304
2015-05-22,1,0.0029815551316380844,0.0035454461688234178,-0.004817633823884121,0.00996800590295555,0.9905394062309988
2015-05-27,1,0.0029955074198005226,0.003531771178115885,-0.006539081412166648,0.009840514862876147,0.9906200748766789
2015-05-29,1,0.0017511821788842676,0.002060642995512055,-0.006214395274542199,0.009840514862876147,0.9910038755920564
2015-06-02,1,0.0012716349477291044,0.0014353997277589685,-0.006214395274542199,0.00836667861174371,0.9906172188064342
2015-06-04,1,0.0010172520367190785,0.0011120677663902807,-0.006214395274542199,0.00836667861174371,0.9905455156355383
2015-06-08,1,0.001184548565465082,0.0012643229405303784,-0.006863658143519144,0.005220677313879783,0.990980919369131
2015-06-10,1,0.001248530675028509,0.001275699425279656,-0.008361720370649719,0.003594444304675052,0.9909035487376303
2015-06-12,1,0.0010811080662029996,0.001090000724444267,-0.008361720370649719,0.00835575196532245,0.990402721410225
2015-06-16,1,0.0007724368801279689,0.0008150039984203376,-0.008361720370649719,0.00835575196532245,0.9903813707404407
2015-06-18,1,0.000799947913514951,0.000839974297382722,-0.008361720370649719,0.00653009567140534,0.9906454395298915
2015-06-22,1,0.0010888157535247933,0.001177323552926271,-0.008361720370649719,0.007596971699498627,0.9914947389156754
2015-06-24,1,0.0006617451626524154,0.0007899794938533219,-0.01014226331480363,0.007596971699498627,0.9911360198396391
2015-06-26,1,0.0009818558944678303,0.0009896239720646083,-0.01109375926295434,0.007596971699498627,0.9906570086633356
2015-06-30,1,0.0004324434253052705,0.00046756236699111895,-0.01014226331480363,0.009262003305431737,0.9913636355450565
2015-07-02,1,0.0005919635177567984,0.0006187983362037232,-0.00832576210062142,0.007596971699498627,0.9923710068122267
2015-07-07,1,0.00023244149927274623,0.0003049994645574815,-0.00471480932696016,0.007596971699498627,0.9929517062413513
2015-07-09,1,0.00048817199185901416,0.0004993076290457086,-0.004242038805138902,0.007569045835269567,0.9933696209728256
2015-07-13,1,0.0009538560955469141,0.0009821542173665781,-0.004584630509913637,0.006032107967960225,0.9929057568757629
2015-07-15,1,0.0007555428209281188,0.0008272569500079148,-0.00832576210062142,0.0053025110646224205,0.9907722586430546
2015-07-17,1,0.0005152787544311244,0.0005458853153170093,-0.006093418629048018,0.008047510149072654,0.9905467296898947
2015-07-21,1,0.0008504539331347192,0.0009273049008715623,-0.006093418629048018,0.00478053120971967,0.9913916847602999
2015-07-23,1,0.0006346983467584551,0.0006905464564037118,-0.00764230517801807,0.00478053120971967,0.9904789611131016
2015-07-27,-1,-0.001441083137080421,-0.0013057233836841291,-0.011812010189131405,0.00478053120971967,0.987059593308752
2015-07-29,-1,-0.0006923679737387831,-0.0006484017514259747,-0.02351249887605917,0.00478053120971967,0.9839987623906742
2015-07-31,1,0.00043504878944731703,0.0005100983206299375,-0.02351249887605917,0.008047510149072654,0.9823725819062475
2015-08-04,1,0.000743691250953309,0.0007709914757284244,-0.024677429700239055,0.008047510149072654,0.9803089018830374
2015-08-06,1,0.0007160753693015872,0.0007590828585440741,-0.024677429700239055,0.009443720013441563,0.9800645748821234
2015-08-10,1,0.0013466966812419863,0.0013826774338017282,-0.024677429700239055,0.009443720013441563,0.9793559185856822
2015-08-12,1,0.00020979970447474938,0.00028268307851686254,-0.01692229327654652,0.009443720013441563,0.9811369882922392
2015-08-14,1,0.000514300813211299,0.000588368967925309,-0.01692229327654652,0.006262477966073408,0.9819160946937778
2015-08-18,1,0.00040573898467469155,0.0004998853042077652,-0.01692229327654652,0.008724921898672782,0.9813863260154281
2015-08-20,-1,-0.0011771859416980497,-0.0009202355489704997,-0.024773538457964678,0.008724921898672782,0.9801032529108386
2015-08-24,-1,-0.0027924955391076195,-0.0025212710594270773,-0.015070611694515247,0.010834478054533605,0.9824096293993894
2015-08-26,-1,-0.001598391242721596,-0.001292447029190554,-0.008890082784966384,0.008724921898672782,0.986194826206634
2015-08-28,-1,-0.0016793391479261912,-0.001576255492117966,-0.015070611694515247,0.008724921898672782,0.9854433554907966
2015-09-01,-1,-0.0016180068367557133,-0.0013201145387387986,-0.008890082784966384,0.010834478054533605,0.986598455698175
2015-09-03,-1,-0.0010486682656049356,-0.0008149985401901478,-0.014591068178615855,0.006714398512639181,0.9869637800224095
2015-09-08,-1,-0.00043394231356428195,-0.00033699854127272773,-0.010878727063338105,0.006714398512639181,0.9875559637878295
2015-09-10,-1,-0.0013732368940348562,-0.001135042452765886,-0.010878727063338105,0.006853102779827942,0.987441942133462
2015-09-14,-1,-0.0023949744936587435,-0.00222573271716988,-0.010878727063338105,0.006853102779827942,0.9869689479737296
2015-09-16,-1,-0.000810969045736386,-0.0006691821761693644,-0.014980104723528806,0.005006321804479656,0.986908924579144
2015-09-18,-1,-0.0015160872394372148,-0.0012756719268150578,-0.009401925802040086,0.007818189726333455,0.9883581595329017
2015-09-22,-1,-0.0014988101104475827,-0.0012663919447010912,-0.009401925802040086,0.005006321804479656,0.9893548027829159
2015-09-24,-1,-0.0009703295186556664,-0.0008355785219513068,-0.009554294211197877,0.007818189726333455,0.9870107167410329
2015-09-28,-1,-0.001909475160761972,-0.0016423908927933378,-0.009401925802040086,0.007818189726333455,0.9883003959923733
2015-09-30,-1,-0.0009766004923367807,-0.0008296026995139155,-0.009554294211197877,0.009677687980911311,0.9863438483104129
2015-10-02,-1,-0.0002907392531809683,-0.0001925954684721144,-0.009745618313072165,0.009677687980911311,0.985720771730169
2015-10-06,-1,-0.0002546095705585017,-0.0001827385458507543,-0.009745618313072165,0.009677687980911311,0.9860079598487406
2015-10-08,1,0.00014945538541993753,0.0001836575068370927,-0.009745618313072165,0.01843511134405408,0.985473806967725
2015-10-12,-1,-0.00012813010406515407,-4.3585487867358285e-05,-0.009745618313072165,0.02191499010707232,0.9842256840395035
2015-10-14,-1,-0.0008833138583733844,-0.0007159538535526861,-0.009745618313072165,0.02191499010707232,0.9844452561016986
2015-10-16,0,-3.829778100562979e-05,1.3043018788998911e-05,-0.010581609305323914,0.01843511134405408,0.9839949367952046
2015-10-20,-1,-0.0006702371558884478,-0.0005074505126862164,-0.010581609305323914,0.01843511134405408,0.9842730349503489
2015-10-22,-1,-0.00044152181404275736,-0.00032834002328060335,-0.009886772551645927,0.01843511134405408,0.9853346305884471
2015-10-26,-1,-0.00023995996463342428,-0.0001366326796983629,-0.009886772551645927,0.012447698996762712,0.9859626053283247
2015-10-28,1,0.0011299989035463856,0.001226116205120576,-0.008292666005664525,0.009358136413835911,0.9887195553806862
2015-10-30,1,0.00012930174600493585,0.0001406358095038336,-0.0028962517440738553,0.009358136413835911,0.9898147034096278
2015-11-03,1,0.0005738480498889654,0.0006264457417076943,-0.004887116910306943,0.009358136413835911,0.989847931810123
2015-11-05,1,0.0012309722746911428,0.0013786464711821671,-0.008542598096770798,0.009358136413835911,0.9890274808886064
2015-11-09,1,0.0017782208651197506,0.0020001575640862467,-0.012826566012745986,0.006239591092958378,0.9883854219886656
2015-11-11,1,0.001756535392457999,0.002036512562554017,-0.012886715894188275,0.006239591092958378,0.9880380569133927
2015-11-13,1,0.0006082112056489501,0.0006964094231047066,-0.012826566012745986,0.007548423764570995,0.9884046168539142
2015-11-17,1,0.0007289006016294414,0.0008027154754251808,-0.012826566012745986,0.015252447559411502,0.9864198980416687
2015-11-19,1,0.0010199246515867752,0.0011292457188600115,-0.013129003370580488,0.010440183860617581,0.9851529309592952
2015-11-23,1,0.0012075149117125236,0.001349693121519854,-0.013129003370580488,0.011329623168751442,0.9853207909935541
2015-11-25,1,0.0011507659157321696,0.0012724139190438404,-0.013129003370580488,0.015252447559411502,0.984429065417205
2015-11-30,1,0.0009778637088005296,0.0010634673524464637,-0.013129003370580488,0.015252447559411502,0.984370487420117
2015-12-02,1,0.0013221152346122485,0.0014890576922852454,-0.013129003370580488,0.011329623168751442,0.9848534603684757
2015-12-04,1,0.0021643907808802897,0.0024496324821043935,-0.014594164644688604,0.00784490353394895,0.9853597890703696
2015-12-08,1,0.0005579088194737856,0.000621971928822735,-0.015575627232768645,0.00784490353394895,0.9854761462697855
2015-12-10,1,0.001256919745782424,0.0014341339913527982,-0.01731166604368291,0.006335067339926743,0.9854073571208664
2015-12-14,1,0.0007947973451273007,0.0008903161629167568,-0.019308378525868627,0.005647466207591623,0.9838678134051266
2015-12-16,1,0.0010263741363236265,0.0011851763693999321,-0.026219826361570612,0.003677742629116287,0.983782557303499
2015-12-18,-1,-0.0003171515713329716,-0.0003035492400882556,-0.018010980387875835,0.003677742629116287,0.9848713591811648
2015-12-22,1,0.0002507486953728601,0.0002883853585938227,-0.02239169096771555,0.0029667449470549175,0.9825376486436239
2015-12-24,1,0.0006863727237601822,0.0008309876844909664,-0.028029495396861975,0.001867480706987767,0.9799542628740916
2015-12-29,1,0.0006477594691398006,0.0007865480700585999,-0.028029495396861975,0.0065595991405706456,0.9792102264396877
2015-12-31,1,0.000663882934660074,0.0008451899916221715,-0.028029495396861975,0.010414554500648533,0.9793295567818574
2016-01-05,-1,-0.0001825612609423446,-0.0001685818798896295,-0.027507068657857216,0.010414554500648533,0.9795136546968295
2016-01-07,-1,-0.0010784666352834853,-0.000981887132485326,-0.02221754872138063,0.01141963840718985,0.9806970836323874
2016-01-11,-1,-0.001664553131330156,-0.0015190642128201134,-0.027507068657857216,0.01141963840718985,0.9802611666438918
2016-01-13,-1,-0.003522423108930233,-0.0031223175435758565,-0.027507068657857216,0.01141963840718985,0.9805213075486005
2016-01-15,-1,-0.003846672369982722,-0.0033413942966392706,-0.02221754872138063,0.012694131961882453,0.9770674698087108
2016-01-20,-1,-0.004021305571044589,-0.0034921669630381567,-0.019320799843434117,0.012694131961882453,0.9773966014905197
2016-01-22,-1,-0.004811290015020139,-0.004252938342239311,-0.013876759991675376,0.013020772097512113,0.9782167435499817
2016-01-26,-1,-0.006941959774942212,-0.006118098951840265,-0.013876759991675376,0.01141963840718985,0.9798763463262893
2016-01-28,-1,-0.005637816089715587,-0.0050070668043786315,-0.013876759991675376,0.015231846045800473,0.9790912797439325
2016-02-01,-1,-0.004717464085333166,-0.004227968783466815,-0.019320799843434117,0.018667623722247638,0.9760768890677001
2016-02-03,-1,-0.004887471619363391,-0.004351815223049024,-0.013876759991675376,0.023037571359897643,0.9749607939938321
2016-02-05,-1,-0.005140665423481424,-0.004570986534289956,-0.012401616379137259,0.023037571359897643,0.9750595227811
2016-02-09,-1,-0.004862807898445776,-0.004355306238531599,-0.012401616379137259,0.023037571359897643,0.9757588778618065
2016-02-11,-1,-0.006960270428464282,-0.006118737905955678,-0.006668236169667191,0.025008352139083267,0.974709046678687
2016-02-16,-1,-0.0023894010804461894,-0.002085599080772599,-0.007469180972763025,0.02092506374333599,0.9815336525534013
2016-02-18,-1,-0.0037927247297242124,-0.003332675578691916,-0.005918224982989346,0.02092506374333599,0.9810556301936705
2016-02-22,-1,-0.0025771152363745775,-0.002238160878350612,-0.005918224982989346,0.020910423972333232,0.9817920202639585
2016-02-24,-1,-0.00292172448955922,-0.002578363809548574,-0.005918224982989346,0.020910423972333232,0.9828691047150732
2016-02-26,-1,-0.0016943940160019113,-0.0014964775684503367,-0.006339212946412314,0.017115808126185687,0.9850046179155479
2016-03-01,-1,-0.0003208565787117896,-0.00029749953887952104,-0.006339212946412314,0.015750535102396396,0.9875809095851259
2016-03-03,1,0.0012145973921577034,0.001418324954861477,-0.007239008997674611,0.00878003836018804,0.9886406692983467
2016-03-07,1,0.001198062186718822,0.001383579818835602,-0.010003483472588656,0.007021396965223439,0.9884963014797838
2016-03-09,1,0.00013819827813942213,0.00014172034126932928,-0.010003483472588656,0.007021396965223439,0.9888448638258287
2016-03-11,1,0.0022419650711084016,0.0025522115883931133,-0.010003483472588656,0.006936902753130718,0.9898389307997428
2016-03-15,1,0.0016095146313408995,0.001832036026291829,-0.010003483472588656,0.00878003836018804,0.9880471119918371
2016-03-17,1,0.0013467504199928843,0.001520118618436246,-0.007239008997674611,0.010269576845563974,0.9883875632904868
2016-03-21,1,0.002282853600224359,0.0026019697967544545,-0.007239008997674611,0.010269576845563974,0.9883796589767431
2016-03-23,1,0.0024135070479739075,0.0028187629299766138,-0.00413593797741592,0.011252054173913437,0.9882403054320684
2016-03-28,1,0.0015383970093045501,0.0017375889361610154,-0.003746428622572224,0.011252054173913437,0.9880533539283678
2016-03-30,1,0.0016181152201606506,0.0018609900012399583,-0.0030781250787957205,0.012251975587741439,0.9890838079573401
2016-04-01,1,0.0020796606012470596,0.002414105117270373,-0.003746428622572224,0.012251975587741439,0.9887573034239774
2016-04-05,1,0.002071202473975384,0.002472887254202659,-0.003746428622572224,0.012251975587741439,0.9885736123820315
2016-04-07,1,0.001457578335690106,0.001763878916425059,-0.003746428622572224,0.012251975587741439,0.9879798014735539
2016-04-11,1,0.0016361350392993263,0.0019139034078718342,-0.005770443771833176,0.012251975587741439,0.9881049547365479
2016-04-13,1,0.003752511310612979,0.004323274523756342,-0.005770443771833176,0.008702774933382744,0.9891661098696468
2016-04-15,1,0.004265477179087287,0.004943128754896223,-0.008869662702820653,0.007621219403187705,0.9883134306692525
2016-04-19,1,0.005211216576177093,0.006013358877345529,-0.008869662702820653,0.007621219403187705,0.9874083905729842
2016-04-21,1,0.00578182402717573,0.006654935267937475,-0.008869662702820653,0.005554289063391824,0.9850819097251832
2016-04-25,1,0.005909326940214976,0.006803724288949839,-0.008869662702820653,0.007664080212847353,0.9849072659144736
2016-04-27,1,0.006138211010300493,0.007057679067215082,-0.008869662702820653,0.009097822118336976,0.984295006291432
2016-04-29,1,0.005692507219464914,0.006583768072153072,-0.008299632856555696,0.01328858052165552,0.9849082818880082
2016-05-03,1,0.004442282950864721,0.005054790947837997,-0.007795478603107016,0.01328858052165552,0.9861837868122504
2016-05-05,1,0.0036384654674029328,0.0041603706332092325,-0.007795478603107016,0.013760965308882748,0.9862266026030573
2016-05-09,1,0.003054134916516231,0.0034760602813090377,-0.007795478603107016,0.016088796799956884,0.9855144757299302
2016-05-11,1,0.004232655805533458,0.004910357462204069,-0.008758505828985854,0.013760965308882748,0.9858470953408671
2016-05-13,1,0.0026747260609018475,0.003039930512480191,-0.010482028430465768,0.013760965308882748,0.9861688259770156
2016-05-17,1,0.00321675813137996,0.0036943196810120234,-0.010841753481157162,0.01328858052165552,0.9859290583483341
2016-05-19,1,0.004131535652381094,0.004761281125027323,-0.010841753481157162,0.01328858052165552,0.9870971040323017
2016-05-23,1,0.003997005329317354,0.00460153295235333,-0.010841753481157162,0.01328858052165552,0.9873926532623374
2016-05-25,1,0.004889030992312873,0.0055725904059107,-0.010841753481157162,0.011773034549987857,0.986969356802696
2016-05-27,1,0.004124181969828324,0.004737035329431729,-0.011792710012398181,0.010629666253046325,0.9803572269519968
2016-06-01,1,0.003850961078443048,0.004354459267872878,-0.011792710012398181,0.015940155662119416,0.978633260473305
2016-06-03,1,0.003460310711860037,0.003940384888050834,-0.010841753481157162,0.01974541953426353,0.9788447316915965
2016-06-07,1,0.002547240374398096,0.0027549624876237557,-0.011792710012398181,0.013312014164246001,0.9781735124089788
2016-06-09,1,0.0023111603196220368,0.0025558953914822315,-0.010841753481157162,0.018173496526417518,0.9780239528621042
2016-06-13,1,0.0013003435251250598,0.0013650662351865506,-0.009179234864052416,0.020540129237319415,0.9774482870019281
2016-06-15,0,-1.115151823456468e-06,0.0001666981073122504,-0.0018663991072386157,0.02427274698727928,0.9774362382979053
2016-06-17,-1,-0.00036009585163913427,-8.457465588157856e-05,-0.0010756695193278598,0.02427274698727928,0.9781757088589426
2016-06-21,1,1.9571201466843445e-05,0.00022490498086989914,-0.0022980807873497124,0.02427274698727928,0.9787287922796526
2016-06-23,1,0.0012986300985150835,0.0013436007046543576,-0.006217116126221492,0.019116847367310872,0.979909558111964
2016-06-27,-1,-0.003103086520735967,-0.0025251911810368474,-0.0010855067559210438,0.019116847367310872,0.9852847968532124
2016-06-29,-1,-0.0014839338084976414,-0.001074683604317723,-0.0010855067559210438,0.013391286770250137,0.9879888927957252
2016-07-01,-1,-0.0015569563108631921,-0.0011091831212309397,-0.0010855067559210438,0.011307428744294218,0.9890860568565172
2016-07-06,-1,-0.0039040421090914975,-0.0030880955599775816,-0.0010855067559210438,0.013391286770250137,0.9886702622533381
2016-07-08,-1,-0.0016046580454249163,-0.0012666733993788942,-0.0020014790148897457,0.013391286770250137,0.9892256544633827
2016-07-12,-1,-0.0012523082569458784,-0.0008972066992464328,-0.005043344894033328,0.010239804272402613,0.9909106228122782
2016-07-14,1,7.437417184816703e-05,0.0002338646616783462,-0.006217116126221492,0.008220615535035659,0.9912436946862726
2016-07-18,-1,-0.0006730619300797887,-0.0003606696275424271,-0.0068347883811137825,0.010239804272402613,0.9907576466539543
2016-07-20,-1,-0.0003960529778540453,-0.00016231328195396818,-0.0068347883811137825,0.010239804272402613,0.9903955201542655
2016-07-22,1,0.00024556326720251724,0.00033170231699226156,-0.005249235645664091,0.009150448604642081,0.9909471235330067
2016-07-26,1,0.0007060692076307652,0.0007354892688304316,-0.005511822692567866,0.006214784260865061,0.991238040718658
2016-07-28,1,0.0010265242192865943,0.0010955399177144088,-0.005511822692567866,0.0060498879615472016,0.9914326890268825
2016-08-01,1,0.0001706667874762998,0.00024655428632427105,-0.004834272137207953,0.006370285282814984,0.9916341791019175
2016-08-03,1,0.001205946548547436,0.0013338957764430167,-0.0038762231721449565,0.006370285282814984,0.9923522464057078
2016-08-05,1,0.00184311359598525,0.002024358727678018,-0.003963752187779548,0.005774012461870849,0.9939616705980298
2016-08-09,1,0.0012232818636883566,0.0013089767703075542,-0.003963752187779548,0.006370285282814984,0.9935684254292046
2016-08-11,1,0.0011796019803012917,0.001276463438271232,-0.003963752187779548,0.006019066824192081,0.9939365871157727
2016-08-15,1,0.001386713999249938,0.0014917458278032403,-0.0024389641589665917,0.006019066824192081,0.9945050440463976
2016-08-17,1,0.0012230272304139356,0.0012912320412853191,-0.0008965124639172055,0.007253052171852507,0.9941938151659897
2016-08-19,1,0.001030756797752319,0.0010412026143238994,-0.0036632694692683414,0.007451117364169614,0.9936450950420633
2016-08-23,1,0.0008229913482663976,0.0008398021136188744,-0.0008965124639172055,0.007451117364169614,0.993719843445211
2016-08-25,1,0.00043949454870024146,0.0005449017335926014,0.0003635565664802923,0.007451117364169614,0.993839407920893
2016-08-29,1,0.0001976645794708936,0.00035752997881681415,-0.0009737320775167251,0.007739011949883874,0.9925758966705972
2016-08-31,1,0.0008268188851021011,0.0008976602066812668,-0.006636041424195228,0.007451117364169614,0.9923376565176697
2016-09-02,1,0.0014092002364561743,0.0015210074177178794,-0.006204006113615501,0.007739011949883874,0.9920587172971991
2016-09-07,1,0.0012633549891424738,0.001365476736765289,-0.004265266466238615,0.00831807705113172,0.9921620314108366
2016-09-09,1,0.0013020385429445285,0.0014504069619432894,-0.002781804797345325,0.00831807705113172,0.9927539569449635
2016-09-13,1,0.001851606463790473,0.0021035448697248136,-0.004265266466238615,0.007641079883008746,0.9926259041319836
2016-09-15,1,0.002011120592185942,0.002290476978342242,-0.006204006113615501,0.0058011418212127845,0.991416594895907
2016-09-19,1,0.002077554827629057,0.002377981910685506,-0.009293155452695684,0.0050760527313834574,0.991316265538439
2016-09-21,1,0.0018417092103987622,0.0020796397370700164,-0.009293155452695684,0.0071399478280587585,0.9894168911498697
2016-09-23,1,0.0019352235069293104,0.0021502793128187385,-0.009293155452695684,0.011329082096494268,0.9881876044237223
2016-09-27,1,0.0013970083939620595,0.001482711074742731,-0.006204006113615501,0.009496591556374726,0.9895777505685166
2016-09-29,1,0.0005246607585637922,0.0005724835844416593,-0.0016584902982807654,0.011449662811724517,0.9896573695469671
2016-10-03,1,0.000800363065071543,0.0008036698943833789,-0.0016584902982807654,0.010076722952964337,0.9896438257110768
2016-10-05,1,0.0008097321224757613,0.000844105340974292,-0.004214111759811633,0.007465646031525794,0.9897979971299632
2016-10-07,1,0.0009051441925507788,0.0009052280047315805,-0.009669109079254723,0.007465646031525794,0.9889657137345232
2016-10-11,1,0.0008955494800944963,0.0009879551191239043,-0.009669109079254723,0.010481978322832866,0.9876668459124107
2016-10-13,1,9.225422204469058e-05,0.000140673956056938,-0.009344085588639346,0.019836896594737967,0.9845432980672297
2016-10-17,1,0.00033177576952046365,0.0003349360266607407,-0.003368481574556669,0.031195290598013847,0.9822339708322229
2016-10-19,1,0.001631345939365463,0.001804503185208307,-0.009344085588639346,0.025962295993263447,0.982763437846077
2016-10-21,1,0.002433704026660314,0.0027193822611708248,-0.009344085588639346,0.023651318948120354,0.983174997223079
2016-10-25,1,0.0022290701772017026,0.002459662095322876,-0.009344085588639346,0.023651318948120354,0.982734512857244
2016-10-27,1,0.002790806916868,0.003097513294508019,-0.009344085588639346,0.023651318948120354,0.9833923520790214
2016-10-31,1,0.0024004551992133174,0.002634488548917087,-0.009389038507961934,0.023651318948120354,0.9824125913123467
2016-11-02,1,0.0018277440272796534,0.00194698695852951,-0.006591919173810449,0.026297163452269273,0.9811469779593542
2016-11-04,1,0.0010150048474530736,0.0010272488910408161,-0.0011308972826572054,0.026297163452269273,0.9804898653573003
2016-11-08,1,0.001590568332906427,0.0016766130223074098,0.004402297939984848,0.02216711663251356,0.9821814611549812
2016-11-10,1,0.0038996822856695664,0.004286108541224498,-0.0005384374552667681,0.016155041446631335,0.9867404761247484
2016-11-14,1,0.006403354260434689,0.007101947543447202,-0.003928269839062036,0.012371155327988412,0.9892530348524728
2016-11-16,1,0.003763848128710362,0.003888864366415096,-0.0005384374552667681,0.010887155308006158,0.9900197574305403
2016-11-18,1,0.0050114316067412555,0.00539623055370455,-0.003928269839062036,0.010887155308006158,0.9901941573149226
2016-11-22,1,0.0055093684065173724,0.005951942192407996,-0.004125235059039856,0.012093719765962095,0.9895107223439833
2016-11-25,1,0.005004320966591055,0.00529591258522074,-0.0034014650849975383,0.012093719765962095,0.9893708818987393
2016-11-29,1,0.004200330184683037,0.0044092888487030964,-0.0034014650849975383,0.012093719765962095,0.9899098935648285
2016-12-01,1,0.005521406637186211,0.005950061582947766,-0.0059528063849735545,0.008856382242913977,0.9902016241579377
2016-12-05,1,0.00531042726222963,0.005744360701250173,-0.0034014650849975383,0.009428174685657596,0.9910935117843577
2016-12-07,1,0.005432232419122869,0.005865120513306985,-0.0059528063849735545,0.009428174685657596,0.9895682841384941
2016-12-09,1,0.005338496711324763,0.005740415701451208,-0.006324339264240704,0.009428174685657596,0.9897628234035566
2016-12-13,1,0.004933621779015198,0.005275598060664645,-0.004731487983062405,0.009428174685657596,0.990023836859463
2016-12-15,1,0.005107524245266601,0.005483128001801833,-0.008659881634926191,0.009630109015573532,0.9873298394775584
2016-12-19,1,0.004944338484504818,0.005311117544605097,-0.008211655324707669,0.00961528384205995,0.9876825392238235
2016-12-21,1,0.004777527200844119,0.0050912111116234865,-0.008211655324707669,0.00961528384205995,0.9884302867772604
2016-12-23,1,0.004577149730375939,0.004872399543659181,-0.008211655324707669,0.011529586556874203,0.988560733959991
2016-12-28,1,0.004541964195190785,0.0048845636619108046,-0.008210991865045964,0.011529586556874203,0.9887932678607425
2016-12-30,1,0.0038931403190613193,0.00411460870359037,-0.00977904393002108,0.011529586556874203,0.9885152327689233
2017-01-04,1,0.003933273486759917,0.00413182201705592,-0.01180226813002233,0.009356549598747672,0.9882035720100141
2017-01-06,1,0.0033003446644925714,0.003435489160753949,-0.009409673653555517,0.011529586556874203,0.9888027554562059
2017-01-10,1,0.003170185966991491,0.0032829540724089645,-0.01180226813002233,0.009668607141462785,0.9876299577944115
2017-01-12,1,0.002764370974813545,0.002813908719779779,-0.01180226813002233,0.011529586556874203,0.9872675569271029
2017-01-17,1,0.0013788084663088783,0.001514100195346591,-0.010425501802355717,0.011529586556874203,0.9882257285326517
2017-01-19,1,0.0011954065474674798,0.0013648744221731214,-0.009073874969821835,0.010417608705677909,0.9893343863497309
2017-01-23,1,0.0016334806100005267,0.001748266564944981,-0.009073874969821835,0.009297947857730686,0.9899834047888857
2017-01-25,1,0.0019700865514906845,0.002023898432718833,-0.009073874969821835,0.008769406734038981,0.9901375609971834
2017-01-27,1,0.0013744701707135189,0.0015148279934724302,-0.0062791828586721415,0.009075025069953623,0.9905698604496205
2017-01-31,1,0.0003070169325421579,0.0005875860324283758,-0.0030830454207720435,0.009373728160859207,0.9893666486738402
2017-02-02,-1,-0.000493297754182706,-0.00014201045017024118,-0.0030830454207720435,0.009373728160859207,0.9881834818869296
2017-02-06,1,0.0006267508361435523,0.0008273342663278426,-0.005638576979765389,0.008794666835081823,0.9888451815486619
2017-02-08,-1,-0.0004102316759883834,-9.569116632252407e-05,-0.0030830454207720435,0.008794666835081823,0.9902728912131648
2017-02-10,1,7.791590653692779e-06,0.0002791316103168683,-0.005638576979765389,0.0037997681570277842,0.9905090438514248
2017-02-14,1,0.0012711809668164258,0.0013913999045028556,-0.0074701697400206,0.0011798132076993504,0.9908998468301379
2017-02-16,1,0.0009751525939767271,0.001126281437268998,-0.00853592151126991,0.0017181893055905682,0.990179658415776
2017-02-21,1,0.0005450818643753992,0.0007653218481060396,-0.010885607141584252,0.0009012291122460928,0.9877657748565517
2017-02-23,-1,-0.000669928414415398,-0.00030120678981138214,-0.010885607141584252,0.0037997681570277842,0.9879229727446684
2017-02-27,-1,-0.0007516528812188139,-0.000369335136477363,-0.010885607141584252,0.0009012291122460928,0.98806052711752
2017-03-01,1,0.000979779429917261,0.0011389405716667575,-0.010885607141584252,0.0009012291122460928,0.9883880556073977
2017-03-03,0,-0.0003207200628328776,5.715041643752352e-06,-0.010885607141584252,0.0010960808202895057,0.9889666017608251
2017-03-07,-1,-0.00148089365227415,-0.0009735275224245477,-0.008746644937614087,0.0028754243484725604,0.9898634331399507
2017-03-09,-1,-0.0025551533654428996,-0.001857691010046943,-0.011225445357518016,0.003669691825176804,0.9892261178358277
2017-03-13,-1,-0.0038107144984054426,-0.0029408207168830094,-0.009101241880188009,0.003669691825176804,0.9899414375133057
2017-03-15,-1,-0.003781614490211377,-0.0029828523586516885,-0.009111762487779038,0.003669691825176804,0.9899093626492936
2017-03-17,-1,-0.0034489835660694358,-0.0027531980450222655,-0.009503883891084574,0.003993507296329934,0.9889335385285941
2017-03-21,-1,-0.005965640818085292,-0.004967222232166834,-0.009503883891084574,0.008461524878651046,0.9905696180352174
2017-03-23,-1,-0.0053539299228345955,-0.0044695239243102095,-0.012925731956007425,0.009058613027523588,0.9891383294112278
2017-03-27,-1,-0.00590616302161767,-0.004957698275731932,-0.012925731956007425,0.013343903132594653,0.9873162235306022
2017-03-29,-1,-0.005723265199803127,-0.004788338865104205,-0.012925731956007425,0.009058613027523588,0.9881546792092006
2017-03-31,-1,-0.005569589816319144,-0.004616826323559718,-0.012918137299513627,0.009058613027523588,0.9889808687584286
2017-04-04,-1,-0.005621385140254516,-0.004669167091619181,-0.01324781024586158,0.010783458742863558,0.9882129306083509
2017-04-06,-1,-0.003984094527262217,-0.0033750806044912183,-0.012918137299513627,0.008904763385785547,0.9886370664563809
2017-04-10,-1,-0.0035943343745317583,-0.003145801094710388,-0.012918137299513627,0.008904763385785547,0.9884433317888085
2017-04-12,-1,-0.004464439981644697,-0.003914565015522687,-0.012678763550715802,0.008904763385785547,0.9886994315231146
2017-04-17,-1,-0.003427229421700175,-0.0030560682729963793,-0.011750799543531995,0.008904763385785547,0.9887630114193975
2017-04-19,-1,-0.0031120995394720327,-0.0028163819758647295,-0.011750799543531995,0.010571370477054098,0.9871739779026671
2017-04-21,-1,-0.0020711197583375652,-0.0018620906072836603,-0.009557855259959547,0.010571370477054098,0.9881585889248831
2017-04-25,-1,-0.002352604236544352,-0.0020582584265686,-0.00857184001058475,0.010571370477054098,0.9888862322314091
2017-04-27,-1,-0.0020166728794964745,-0.0018201858977758493,-0.00857184001058475,0.010571370477054098,0.9889189625973213
2017-05-01,-1,-0.0020209522849423097,-0.0018075702549330617,-0.008600491178936295,0.009151608563812412,0.9894306099747445
2017-05-03,-1,-0.0016611251246920749,-0.0015280756954862943,-0.008600491178936295,0.009151608563812412,0.989332252352343
2017-05-05,-1,-0.0011358579499677927,-0.0010763912155509858,-0.009119525287622422,0.009151608563812412,0.9889682601115475
2017-05-09,-1,-0.0009905018577988488,-0.0009510460207347167,-0.009119525287622422,0.010665855503797488,0.9887267943404423
2017-05-11,-1,-0.0010699334697182494,-0.0010414046980984195,-0.009119525287622422,0.012749321203903066,0.9869201210724627
2017-05-15,-1,-0.0006421292638208009,-0.0006126642892170066,-0.008600491178936295,0.01130958901562883,0.9879454119045785
2017-05-17,-1,-0.0018460583192554776,-0.0017558130511071994,-0.005077464274333486,0.01130958901562883,0.9896708199531232
2017-05-19,-1,-0.0010850341401307203,-0.0010777090899857663,-0.005077464274333486,0.010154177099290854,0.9904549764961825
2017-05-23,-1,-0.0005853116499471854,-0.0005369409154404859,-0.007133740226779381,0.006635732433819875,0.9914866647033292
2017-05-25,-1,-0.0010406632530899095,-0.0010188962124443365,-0.008600491178936295,0.006635732433819875,0.9906031365644983
2017-05-30,-1,-0.0011639544115952004,-0.0011605518057708289,-0.0045947443858158354,0.010121875424617802,0.9903592386319694
2017-06-01,-1,-0.001232599491859318,-0.001188556479111173,-0.0035089728408408782,0.010910644184079922,0.9895787872621886
2017-06-05,-1,-0.0014790355157553226,-0.0014276586256653726,-0.0035089728408408782,0.012241309734866925,0.9892374123764124
2017-06-07,-1,-0.001169331196194495,-0.001150626685705811,-0.003986847487280621,0.01214440471084777,0.9896172401295724
2017-06-09,-1,-0.0005794529104038446,-0.0005708356888011027,-0.004293250626354759,0.007333605370443175,0.991942394305642
2017-06-13,-1,-0.0004072645862721507,-0.000395437354094097,-0.004707774731119989,0.007333605370443175,0.9921556610692632
2017-06-15,1,0.00029434153760771696,0.00044213864691692255,-0.005388926155115572,0.006589655914544211,0.9920961852893205
2017-06-19,1,0.000537674925746327,0.0007391292271059238,-0.005933814812963044,0.006589655914544211,0.9915580084389117
2017-06-21,1,0.00029317724473387134,0.00044056516663983536,-0.006268026108277635,0.006589655914544211,0.9913129072917196
2017-06-23,-1,-0.001018046590894031,-0.000958598202593913,-0.004707774731119989,0.009881541235233483,0.990807820584174
2017-06-27,-1,-0.0004427433363712206,-0.00043628264567902584,-0.005388926155115572,0.007557759965529781,0.9906981210550313
2017-06-29,1,0.001082816538727594,0.001340440307131568,-0.005388926155115572,0.006263771213318193,0.9920341457459256
2017-07-03,1,0.0010008557866165145,0.0011814519007114254,-0.005388926155115572,0.007230360035075929,0.9923017918021954
2017-07-06,1,0.0012497695959988787,0.001506576021074021,-0.005388926155115572,0.007230360035075929,0.9925568447595693
2017-07-10,1,0.0018987387387034093,0.0023472043100924173,-0.005562748851134874,0.008475086504374028,0.9921670089298232
2017-07-12,1,0.0016887088246435096,0.0021077103825948244,-0.006136028654882361,0.009273310599522041,0.9914735318255973
2017-07-14,1,0.0017565576062712346,0.0021724267646276935,-0.010499556480163964,0.009273310599522041,0.9901304904225935
2017-07-18,1,0.0014295857397646956,0.0018015302381626697,-0.006697805252680246,0.010839326439874248,0.9893957910726778
2017-07-20,1,0.0011987297678140215,0.0015523458473683538,-0.007832628918796419,0.010839326439874248,0.9886163468599233
2017-07-24,1,0.0032893540893648085,0.004000168478373542,-0.007832628918796419,0.009488228965199024,0.9897840250601719
2017-07-26,1,0.0025933027211477,0.0030954884641509126,-0.005897024255375174,0.010839326439874248,0.990086443226446
2017-07-28,1,0.0026667177122759074,0.003153460310154166,-0.006785903394295687,0.010839326439874248,0.9898016580148662
2017-08-01,1,0.003278989559449495,0.0038561645406038373,-0.007832628918796419,0.009651108981001057,0.9892261383669323
2017-08-03,1,0.002818719363551435,0.0032901921141325254,-0.007832628918796419,0.009651108981001057,0.9891757105443291
2017-08-07,1,0.002681148300275233,0.003092629475147157,-0.010499556480163964,0.00972779186159142,0.988322546568044
2017-08-09,1,0.00286711702578915,0.0032873273275025395,-0.01077889837466904,0.004348853678418371,0.9876887377454278
2017-08-11,1,0.0007924186568216713,0.0008042331956055773,-0.006785903394295687,0.00972779186159142,0.9889942957095572
2017-08-15,1,0.0017165156224345662,0.001834799412492427,-0.006785903394295687,0.006646786462906462,0.9894238888802024
2017-08-17,1,0.0005589119464428608,0.0006254451352589943,-0.005034148465735738,0.008335969410833824,0.9905557149749059
2017-08-21,1,0.0005290551512165692,0.0005781160551177327,-0.0038656869870716645,0.010921011823983194,0.9897423150304476
2017-08-23,1,0.0014117465583354063,0.001517048064756181,-0.0038656869870716645,0.00972779186159142,0.9901584538435316
2017-08-25,1,0.0012531384854115727,0.0013332488941989226,-0.006284592093648344,0.009025485445967006,0.9900616759444538
