JNU-Tangyin/eata/results/Batch4_SP500/Batch4_SP500-CMI.csv
Date,Action,Predicted_Q25,Predicted_Q75,Actual_Q25,Actual_Q75,RL_Reward
2010-12-14,0,0.0,0.0,-0.0017852888990852818,0.005928234613359774,0.9933735612210353
2010-12-16,0,0.0,0.0,-0.0030670771348540885,0.009929337635516898,0.9929446256348367
2010-12-20,0,0.0,0.0,-0.0030670771348540885,0.0101082897541157,0.9921120507572055
2010-12-22,0,0.0,0.0,-0.0050441350626974175,0.005656429065576331,0.9902166204323806
2010-12-27,0,0.0,0.0,-0.003187294017660686,0.009813339856580094,0.9899101099209479
2010-12-29,0,0.0,0.0,-0.003187294017660686,0.010575713060655615,0.988748815750475
2010-12-31,1,0.002385440794900583,0.002573145995215462,-0.007901184839336679,0.010575713060655615,0.9871578820371366
2011-01-04,0,0.0,0.0,-0.008944982260556218,0.010575713060655615,0.9864788125208761
2011-01-06,1,0.0018680931081927663,0.0019125579719480809,-0.003797504643127913,0.010575713060655615,0.987609389625317
2011-01-10,1,0.0025922545134075582,0.002704713326662258,-0.0035352264914005325,0.010575713060655615,0.987600435094961
2011-01-12,0,0.0,0.0,-0.00510683442861282,0.010575713060655615,0.9867884213951664
2011-01-14,0,0.0,0.0,-0.00510683442861282,0.012208017570189975,0.9863623944873458
2011-01-19,-1,-0.0007164228348879934,-0.00021811364778693068,-0.00638723407454257,0.011323167877583161,0.9870102176880082
2011-01-21,-1,-0.0021775910883480775,-0.0015339116268431685,-0.00510683442861282,0.011323167877583161,0.9881975779161067
2011-01-25,-1,-0.0004357069037329419,-9.818662239573141e-05,-0.009562966297404217,0.009221221374892166,0.985416084384662
2011-01-27,0,0.0,0.0,-0.009562966297404217,0.009221221374892166,0.9857709268565403
2011-01-31,0,0.0,0.0,-0.01183514356764346,0.009221221374892166,0.9868583357284872
2011-02-02,0,0.0,0.0,-0.01183514356764346,0.009227142387737685,0.9858464064438416
2011-02-04,0,0.0,0.0,-0.014074612336632307,0.00564854295755599,0.9851126474149604
2011-02-08,0,0.0,0.0,-0.014074612336632307,0.0041934639029388,0.985899310494465
2011-02-10,0,0.0,0.0,-0.014326521520948068,0.0041934639029388,0.9855008421509478
2011-02-14,0,0.0,0.0,-0.014326521520948068,0.0038302508290113503,0.9847808212554342
2011-02-16,0,0.0,0.0,-0.013938139514352889,0.004803338859153031,0.9848804816738707
2011-02-18,0,-0.00011431427296566062,0.000172759863788133,-0.012427385237920377,0.005561920101630919,0.9848469383028501
2011-02-23,-1,-0.0018451773949462891,-0.001332302233056656,-0.01183514356764346,0.009855286815111507,0.9880391769734427
2011-02-25,-1,-0.0014836153656316723,-0.0009928412080196115,-0.01183514356764346,0.009855286815111507,0.9880101194887762
2011-03-01,-1,-0.0018671509789326963,-0.0013979239412959467,-0.00886328053359188,0.010538236792863356,0.9872936293896202
2011-03-03,-1,-0.0006383611558736747,-0.0002925473630158446,-0.00886328053359188,0.010538236792863356,0.9887510066052655
2011-03-07,-1,-0.002863424324217179,-0.002236757065437461,-0.0014308434381938755,0.01179301981185065,0.9888358302972461
2011-03-09,-1,-0.002360665218236257,-0.001812718627229579,-0.00472186678859861,0.01179301981185065,0.9890859784705823
2011-03-11,-1,-0.003599686906797822,-0.0028532305291162105,-0.00472186678859861,0.01179301981185065,0.988931237844662
2011-03-15,-1,-0.003200602035832093,-0.0025039853203660126,-0.006784738011925439,0.010538236792863356,0.9897041780892547
2011-03-17,-1,-0.002970392284112589,-0.002338624948323714,-0.005591949032312283,0.009881030811864628,0.9903949272291815
2011-03-21,-1,-0.0028913730882226866,-0.002322861444319384,-0.006784738011925439,0.007974277850131368,0.9909368767605132
2011-03-23,-1,-0.0029222795163860657,-0.0023447957817947142,-0.005591949032312283,0.01179301981185065,0.9890427574420763
2011-03-25,-1,-0.0025610916858997933,-0.002006486974852637,-0.006362423293787763,0.009309926576667248,0.9895652541095629
2011-03-29,-1,-0.0012263761344362724,-0.0008807245072383293,-0.006362423293787763,0.01600043903409603,0.9862507283813114
2011-03-31,1,0.0002985831631668342,0.0003970877696269397,-0.007886829472775721,0.01665349099024723,0.9854672893625135
2011-04-04,-1,-0.0004071442742905946,-0.0001530617852621485,-0.012088766154072516,0.010637744668880043,0.9848475182466581
2011-04-06,-1,-0.00027762797958929295,-8.20388744397489e-05,-0.014056506465759209,0.02125570202412388,0.9824012788919859
2011-04-08,-1,-0.0012528939073548372,-0.0009091440333741955,-0.014056506465759209,0.02125570202412388,0.9823396608921481
2011-04-12,-1,-0.0028104192254438864,-0.0022448838762139335,-0.012308334251905625,0.02125570202412388,0.9814257195453159
2011-04-14,-1,-0.002548467479311093,-0.00204266504957451,-0.016782547190751385,0.02125570202412388,0.9804145155180692
2011-04-18,-1,-0.003562830017716152,-0.0029419074063200615,-0.016782547190751385,0.02125570202412388,0.979839667172543
2011-04-20,-1,-0.0009841759713569483,-0.0007089207721301606,-0.016782547190751385,0.01314156201807488,0.9809386901446676
2011-04-25,-1,-0.001483639097916209,-0.0011238641994435023,-0.022112895382069737,0.01314156201807488,0.9794065171248902
2011-04-27,1,0.0018664914143993088,0.0020356834640784093,-0.022112895382069737,0.011786911987487967,0.9817371978796746
2011-04-29,1,0.0026173185537458686,0.0028833421265710554,-0.022112895382069737,0.008192408485642573,0.98242360077294
2011-05-03,1,0.0007936547199482685,0.0008354729903535794,-0.025814933792113907,0.008192408485642573,0.982255469921055
2011-05-05,1,0.0008519509853124039,0.0008992053614230947,-0.022112895382069737,0.008192408485642573,0.983031513329453
2011-05-09,1,0.001962710985471874,0.0022210581598571632,-0.022112895382069737,0.007856471644774782,0.9823329064511097
2011-05-11,1,0.0006991133815458466,0.0007947937237351708,-0.022112895382069737,0.007856471644774782,0.9821852362151735
2011-05-13,-1,-0.0003593358479091038,-0.00032975105675001434,-0.022935447052178506,0.007856471644774782,0.9817727348274116
2011-05-17,-1,-0.001085902673578098,-0.0010129835191463495,-0.022935447052178506,0.010779101464884595,0.980454080408444
2011-05-19,-1,-3.7363540747422725e-05,-5.24239628863525e-06,-0.022935447052178506,0.0071364098305315,0.9811760408784164
2011-05-23,-1,-0.0017691973501406074,-0.0016020827762229326,-0.014823233987990021,0.00814503156717929,0.9812886068554305
2011-05-25,-1,-0.0012885143246663712,-0.0011734855817938583,-0.015172960055486379,0.00814503156717929,0.9813021932968344
2011-05-27,-1,-0.0008819795319592237,-0.0008482602930845729,-0.01656550813578771,0.008162328104299444,0.9808550276295254
2011-06-01,-1,-0.0030395078176849205,-0.0027188952337388167,-0.015172960055486379,0.013635440129948825,0.9808109599661771
2011-06-03,-1,-0.0019284094607439966,-0.0017678554104561379,-0.014416423046333782,0.02378153017288211,0.979818889263285
2011-06-07,-1,-0.0017332174037474964,-0.0016110577033272935,-0.015193948721514253,0.02378153017288211,0.9797469162358583
2011-06-09,-1,-0.0026602409021876444,-0.002446783356130042,-0.015193948721514253,0.02378153017288211,0.9800584657840344
2011-06-13,-1,-0.0038122152438887446,-0.003446253228674826,-0.015193948721514253,0.02378153017288211,0.9806045252664457
2011-06-15,-1,-0.005579245323657175,-0.004900422956419121,-0.012347302328613093,0.023255535769059997,0.9814168908085905
2011-06-17,0,0.0,0.0,-0.012347302328613093,0.023255535769059997,0.9826799362302839
2011-06-21,0,0.0,0.0,-0.012347302328613093,0.023255535769059997,0.9833254027000822
2011-06-23,0,0.0,0.0,-0.011339594205692308,0.02011153533430743,0.9844563988189532
2011-06-27,0,0.0,0.0,-0.008326160737309666,0.023410956451874222,0.9837012187024015
2011-06-29,0,0.0,0.0,-0.011339594205692308,0.02011153533430743,0.9832779561770975
2011-07-01,0,0.0,0.0,-0.011339594205692308,0.008435038771577155,0.9853948714241173
2011-07-06,0,0.0,0.0,-0.011339594205692308,0.010537299489507636,0.9833775020596979
2011-07-08,0,0.0,0.0,-0.011339594205692308,0.0032841584118185403,0.9807615688254931
2011-07-12,0,0.0,0.0,-0.011339594205692308,0.011544124776535394,0.9736179718752518
2011-07-14,0,0.0,0.0,-0.01822243574866213,0.011787343240590649,0.9696609323099207
2011-07-18,0,0.0,0.0,-0.017562693001588196,0.02515387440259388,0.9680974374622252
2011-07-20,0,0.0,0.0,-0.029262793940128044,0.01960195214871382,0.9674736539605969
2011-07-22,-1,-0.001150065401136594,-0.0009519533987244738,-0.04204387838519022,0.01960195214871382,0.9623801036517279
2011-07-26,-1,-0.003944729661666466,-0.003521083989420735,-0.04204387838519022,0.01960195214871382,0.962537046804596
2011-07-28,-1,-0.004287968691508417,-0.003724487307377027,-0.04204387838519022,0.02515387440259388,0.9623404070362697
2011-08-01,-1,-0.004422698265692201,-0.003868917074195077,-0.04204387838519022,0.028444883954290342,0.959614567171578
2011-08-03,-1,-0.004040569361140162,-0.003530452883843859,-0.029783852727515832,0.028444883954290342,0.9611666246259132
2011-08-05,-1,-0.006579674620015143,-0.005844195222153594,-0.029783852727515832,0.028444883954290342,0.9622315385042356
2011-08-09,-1,-0.00011032162914011926,-2.323517863796678e-05,-0.023932552912786762,0.028444883954290342,0.9675772038298542
2011-08-11,1,0.0007463148004904839,0.0008266030467079812,-0.02122638096480023,0.027690775421663864,0.9719041712825696
2011-08-15,1,0.001959109854340187,0.0022072874447397525,-0.02122638096480023,0.02783481692041384,0.9704797320664748
2011-08-17,1,0.00047056344555782817,0.0005272370926447474,-0.017698990553453323,0.030203537240049035,0.9700342054257383
2011-08-19,-1,-0.0035264241882170585,-0.003178037737988146,-0.013043820199419569,0.030203537240049035,0.9754773058104995
2011-08-23,-1,-0.0011284286496934454,-0.001049989863757131,-0.017698990553453323,0.02783481692041384,0.9758145541663409
2011-08-25,-1,-0.0010356715642883874,-0.0009623280334651723,-0.02122638096480023,0.022896811166204227,0.9741285565991448
2011-08-29,1,0.0027074315765443675,0.0031148724194573615,-0.02122638096480023,0.022814183471035237,0.9738642290927425
2011-08-31,1,0.0025947280259427863,0.0029836573825314924,-0.02443697135356443,0.022814183471035237,0.9717785078746523
2011-09-02,-1,-0.0003693458671349185,-0.00032318336238398534,-0.022417591714844403,0.022814183471035237,0.9726556331006594
2011-09-07,1,0.0035287166883437235,0.003988964883746849,-0.022417591714844403,0.02969993636219685,0.9713213679957348
2011-09-09,1,0.002302992611175851,0.0025425690231434526,-0.01636068791733263,0.02969993636219685,0.9720966309170239
2011-09-13,1,0.004391606962883576,0.0050223770186078286,-0.013211749344134684,0.02969993636219685,0.9730137551315027
2011-09-15,1,0.004917324072365174,0.005595757633704559,-0.013211749344134684,0.021225342679923858,0.974764619589569
2011-09-19,1,0.0073719335285025445,0.008460765331979907,-0.028170682823021972,0.02344189043712028,0.9720347688010738
2011-09-21,1,0.005193136950276303,0.006009487513007304,-0.014688969997665958,0.02344189043712028,0.9729718359068853
2011-09-23,1,0.002780136950900446,0.0031972417105342234,-0.0063027865592762385,0.026225243500406573,0.9749611572047242
2011-09-27,1,0.0021848765107616514,0.0028025675929220324,-0.014688969997665958,0.023131335282912783,0.9731179091336501
2011-09-29,1,0.0009939057804745186,0.0012616478738955977,-0.0037922489904916087,0.028834503233883698,0.9719744445683953
2011-10-03,-1,-0.0010529625277043843,-0.0009881974621975182,-0.0009140851129073501,0.028834503233883698,0.9720991946869553
2011-10-05,1,0.0017087927654987137,0.0019204086376065836,-0.009880144182604265,0.023131335282912783,0.9743339558911879
2011-10-07,1,0.0012112463215650882,0.0012942296901168543,-0.009880144182604265,0.026569198334520497,0.9729019497672253
2011-10-11,1,0.003819174948718201,0.004298303381701719,-0.025415120473282652,0.023131335282912783,0.9747497559335462
2011-10-13,1,0.0032790793783237858,0.0036198869714196003,-0.03278230597326733,0.023131335282912783,0.9721382179042761
2011-10-17,1,0.002091038124232198,0.0023131939181882917,-0.025415120473282652,0.017764798656194195,0.974606152833072
2011-10-19,1,0.0013244610469934498,0.0014064437593217184,-0.014848959487541388,0.01766774137037408,0.9758783436692782
2011-10-21,1,0.0021247935405726793,0.0022317176531853975,-0.025415120473282652,0.012255187102067246,0.9756267584743352
2011-10-25,1,0.004732731999242423,0.005216631919192025,-0.025101563210375953,0.010520376901019233,0.9778087833581012
2011-10-27,1,0.005520639277942843,0.006083903849807413,-0.03070473487700231,0.007655195500938277,0.9787217951077841
2011-10-31,1,0.00466710331719333,0.004923007854481539,-0.024984073668907734,0.007655195500938277,0.9774059809090049
2011-11-02,1,0.004477515541252388,0.0046470030349977775,-0.022196963019996324,0.007655195500938277,0.9761822725227836
2011-11-04,1,0.005316742033461251,0.005543798967080078,-0.022196963019996324,0.006796879666191341,0.9772213550024391
2011-11-08,1,0.00460300290549866,0.004738773252683616,-0.021898731790325664,0.007655195500938277,0.9773574450164159
2011-11-10,1,0.003951395349894134,0.004081169109574122,-0.021898731790325664,0.007828048477130433,0.977537636155905
2011-11-14,1,0.004457472500697322,0.004659305935273455,-0.028533348461241576,-0.00018268215847156428,0.9745244415634655
2011-11-16,1,0.0029707238651825564,0.0030238153461081647,-0.028533348461241576,-0.00018268215847156428,0.9747371638570337
2011-11-18,1,0.0018721880175741248,0.002000216457764769,-0.02355295770640606,0.0012753484236930864,0.9764534252955013
2011-11-22,1,0.002272534134995122,0.0023042857583050976,-0.02213573543897384,0.0066455983874532075,0.9753274763866389
2011-11-25,0,-1.0711226637249386e-06,0.0002705261328434602,-0.021898731790325664,0.010366977029949067,0.9775943063230935
2011-11-29,-1,-0.0008322454979603699,-0.0004574775863245629,-0.020020264851754094,0.0066455983874532075,0.980615665266138
2011-12-01,0,-8.546582121606396e-05,0.0002780909358117737,-0.020020264851754094,0.0066455983874532075,0.9836240915802897
2011-12-05,-1,-0.0005279422559963953,-0.00012851439302994402,-0.020020264851754094,0.011043273478600409,0.9816974769292687
2011-12-07,-1,-0.0013042727210468776,-0.0007853575873107874,-0.01756127457293717,0.013079347641856828,0.9815331220275709
2011-12-09,-1,-0.0005653834642675257,-0.0001772642959817915,-0.013504357624292489,0.01679706498247219,0.98178487677113
2011-12-13,-1,-0.003271895033683808,-0.0025662541304293292,-0.010849848903266068,0.01679706498247219,0.9841118116408142
2011-12-15,-1,-0.0027207110582242785,-0.002140191213331594,-0.010849848903266068,0.01793156397300102,0.9837945055056868
2011-12-19,-1,-0.004201085578610521,-0.003394688015569152,-0.004718118566574054,0.02604976192496282,0.9810416141705087
2011-12-21,-1,-0.0028789655847701046,-0.0022054220760787243,-0.003750566258057659,0.02214284003938548,0.984394151297716
2011-12-23,-1,-0.001870485855864191,-0.0013385715887794612,-0.003750566258057659,0.02214284003938548,0.9837413811451927
2011-12-28,0,-0.00037516222417901136,1.9364745041207995e-06,-0.006937357109024006,0.02214284003938548,0.9836651422972529
2011-12-30,-1,-0.0012509344892940313,-0.0007873177665598942,-0.007944289343062537,0.02214284003938548,0.9835759035665885
2012-01-04,1,0.0019084485848685048,0.0020355656125223866,-0.007944289343062537,0.02214284003938548,0.9820515023424246
2012-01-06,1,0.002370194155142343,0.0023786763234393683,-0.006937357109024006,0.022190502103760085,0.9809204326770217
2012-01-10,1,0.002305774408635871,0.0024211487128028703,-0.006937357109024006,0.01818116814330026,0.9830728728913987
2012-01-12,-1,-0.0005657908363334125,-7.948097616599053e-05,-0.007183048771178631,0.01818116814330026,0.9825603321954326
2012-01-17,1,0.0002808309382994451,0.0005607880807087167,-0.007183048771178631,0.020382616057007582,0.9823868216307103
2012-01-19,1,0.0005801938372735502,0.0008723416390472956,-0.007183048771178631,0.016578690678410772,0.9843714122208947
2012-01-23,1,0.0016424419668174533,0.0016900276103143377,-0.007785786816033511,0.016578690678410772,0.9839550204863888
2012-01-25,1,0.002930630817761622,0.0030705442682039123,-0.007785786816033511,0.01447931213543099,0.9845716243715836
2012-01-27,1,0.0006734765563489499,0.0009140361498556294,-0.007534435713583259,0.01447931213543099,0.9858421715227976
2012-01-31,1,0.0015077777423203324,0.0015342292605920154,-0.006638545677861235,0.01447931213543099,0.9863070274184417
2012-02-02,1,0.003915977464086629,0.004194829229296309,-0.007534435713583259,0.009237153813952518,0.988367180219375
2012-02-06,1,0.0046779331437778165,0.005110064953734723,-0.007785786816033511,0.007387531701820586,0.9888173111558156
2012-02-08,1,0.004436949794888542,0.004882112985611078,-0.007785786816033511,0.01102763165625423,0.9880093614499964
2012-02-10,1,0.004396862038589919,0.004811051561330926,-0.008905243336854227,0.009237153813952518,0.9876075182542847
2012-02-14,1,0.0031448891521803413,0.0032642228170375906,-0.008100589652071314,0.009237153813952518,0.986500852463509
2012-02-16,1,0.00240198528221935,0.0024947424367709908,-0.008100589652071314,0.009237153813952518,0.9864727169087677
2012-02-21,1,0.002364136179413041,0.0024144776757758896,-0.008905243336854227,0.007387531701820586,0.9854154751649724
2012-02-23,1,0.0010480543935016736,0.0013017040040459995,-0.009925751809224205,0.007387531701820586,0.9846131070041182
2012-02-27,-1,-0.0006522102700497101,-0.00011114628474054333,-0.009925751809224205,0.013540749214369275,0.9836171633383436
2012-02-29,0,-0.00021478810242230354,5.470852279649489e-05,-0.013203202307713303,0.013540749214369275,0.9817993225349549
2012-03-02,-1,-0.0005374352089292365,-0.00023238772807939346,-0.011374761601275197,0.015479306651234346,0.9822062304116743
2012-03-06,0,-0.0001111179005861028,4.180410272313284e-05,-0.011374761601275197,0.015479306651234346,0.9830884432940574
2012-03-08,1,0.0011930462902144043,0.0012088195780082806,-0.012543684185857792,0.012219223923461434,0.9832054567299326
2012-03-12,-1,-0.0003682615831793162,-0.00013454052197960228,-0.018542473638473608,0.012219223923461434,0.9826936551870009
2012-03-14,1,0.0009659417703195897,0.0010825523007830917,-0.018542473638473608,0.012219223923461434,0.9837951425868956
2012-03-16,1,0.002414060395768018,0.0025552837000140847,-0.020138549735655306,0.005618768455904068,0.9838250115475351
2012-03-20,1,0.002946302837710867,0.003086865610995906,-0.01589643881284392,0.012219223923461434,0.9847287236677926
2012-03-22,1,0.0025003366628684716,0.002728976087143168,-0.015825156136288165,0.012219223923461434,0.9850477043985404
2012-03-26,1,0.0025276149108540737,0.002687225627905839,-0.015825156136288165,0.011022523973534043,0.9851294108964181
2012-03-28,1,0.0017193600328832487,0.0018539581573795963,-0.012631937357251547,0.011022523973534043,0.9869916930149305
2012-03-30,1,0.0025209303239100735,0.0028168784522135384,-0.015825156136288165,0.011022523973534043,0.9856329719514733
2012-04-03,0,0.0,0.0,-0.017278666880358354,0.011022523973534043,0.9847606921798739
2012-04-05,0,0.0,0.0,-0.01767533662543308,0.011022523973534043,0.9841564008443492
2012-04-10,0,0.0,0.0,-0.017278666880358354,0.01199722048118341,0.984374826561687
2012-04-12,0,0.0,0.0,-0.017278666880358354,0.011022523973534043,0.9857728844021894
2012-04-16,0,0.0,0.0,-0.01746148859576581,0.011022523973534043,0.985099653893275
2012-04-18,0,0.0,0.0,-0.018866936343182907,0.009064335532324209,0.9848117805394249
2012-04-20,0,0.0,0.0,-0.02132708067791144,0.006379076131046079,0.9840704606243161
2012-04-24,-1,-0.0035912785622174257,-0.002941320010565626,-0.02132708067791144,0.009422480518720579,0.9841502100278389
2012-04-26,0,0.0,0.0,-0.02132708067791144,0.007346154639425274,0.9832959783642524
2012-04-30,-1,-0.0002690806874812281,-0.0001079252559936844,-0.01939767696332909,0.007346154639425274,0.9836745316426576
2012-05-02,0,0.0,0.0,-0.020464705387871242,0.0056869675046143115,0.9841180777367374
2012-05-04,0,0.0,0.0,-0.020464705387871242,0.0056869675046143115,0.983794488023499
2012-05-08,0,0.0,0.0,-0.020464705387871242,0.006081921213772425,0.9830244736739223
2012-05-10,0,0.0,0.0,-0.020464705387871242,0.008961014692476465,0.9824659535822012
2012-05-14,0,0.0,0.0,-0.020464705387871242,0.014951671670566075,0.9796495538442169
2012-05-16,0,0.0,0.0,-0.020464705387871242,0.014951671670566075,0.9792847802991984
2012-05-18,-1,-0.007522293333307389,-0.006432470696178305,-0.02016649801127545,0.016195791371910996,0.9809191144453608
2012-05-22,0,0.0,0.0,-0.02016649801127545,0.016195791371910996,0.9804534193236912
2012-05-24,0,0.0,0.0,-0.020464705387871242,0.016195791371910996,0.9787813203578605
2012-05-29,0,0.0,0.0,-0.020464705387871242,0.009338310960781573,0.9800375120716291
2012-05-31,0,0.0,0.0,-0.014646834967217382,0.016195791371910996,0.9806225198945876
2012-06-04,-1,-0.008135875234308145,-0.006983279634751103,-0.009402303547914704,0.016895680303459556,0.9801384862629305
2012-06-06,-1,-0.0065223422084392775,-0.005573508210595812,-0.009402303547914704,0.016895680303459556,0.9809391792003916
2012-06-08,-1,-0.00649071622682108,-0.005534848016386601,-0.012144187685376635,0.016895680303459556,0.9807696167297678
2012-06-12,-1,-0.00506913139732172,-0.004372728425540232,-0.017225776542092223,0.012331635049258083,0.9792089458318585
2012-06-14,0,0.0,0.0,-0.012144187685376635,0.019529643709275915,0.9763571239720753
2012-06-18,0,0.0,0.0,-0.01546220791314837,0.019529643709275915,0.9761815375186587
2012-06-20,-1,-0.0056705972416375705,-0.004894185054638558,-0.01477529179470655,0.014434597077497634,0.9773608661256485
2012-06-22,-1,-0.008398025943186338,-0.007310805896311636,-0.012459493307033708,0.01643152580262374,0.9769634079391855
2012-06-26,-1,-0.0064647262242607225,-0.0057224629425947325,-0.012459493307033708,0.01643152580262374,0.976886448919099
2012-06-28,-1,-0.004087628101415022,-0.0037030008947970816,-0.012459493307033708,0.02401579160083468,0.9753087234301494
2012-07-02,-1,-0.0029258322764857893,-0.0027768797881634532,-0.02316774525831075,0.02401579160083468,0.9741491210400172
2012-07-05,-1,-0.0010277989016648842,-0.0010103020450249072,-0.02346032824920465,0.019549595202402483,0.9746567370921126
2012-07-09,-1,-0.0023496497980043515,-0.0022082043082381174,-0.02316774525831075,0.02401579160083468,0.9740749980244388
2012-07-11,-1,-0.00794472188150719,-0.007191515950350166,-0.00696338110819044,0.027056968601795038,0.9764908286344175
2012-07-13,-1,-0.0053832459561756,-0.004942235272803228,-0.00696338110819044,0.019549595202402483,0.9801838577942216
2012-07-17,-1,-0.0060454166574205725,-0.005528778492027482,-0.0060828204521388325,0.019549595202402483,0.9806960039932021
2012-07-19,-1,-0.004896097315989766,-0.004508853988152938,-0.0060828204521388325,0.021103987082410403,0.981360811311041
2012-07-23,-1,-0.005444605062324813,-0.00499456481347462,-0.004944652812362669,0.021103987082410403,0.9829014691836435
2012-07-25,-1,-0.0035377239255671325,-0.003287565261293483,-0.004944652812362669,0.021103987082410403,0.9833953788240969
2012-07-27,-1,-0.0014713770787609477,-0.0014227099036603573,-0.006185939950429309,0.007291929736511343,0.9867080920196192
2012-07-31,1,0.0005656025066012805,0.0008764290298422748,-0.008236976811535086,0.0029788359590636852,0.9893662254483312
2012-08-02,1,0.000170408924546511,0.0003931062536152998,-0.008236976811535086,0.0029788359590636852,0.9901063965199933
2012-08-06,1,0.002464137599685754,0.0031217095751233993,-0.011459801124167604,0.0029788359590636852,0.9900973382848426
2012-08-08,0,0.0,0.0,-0.011459801124167604,0.0029788359590636852,0.9903923929901562
2012-08-10,0,0.0,0.0,-0.01310919636178917,0.00465887233535126,0.9879319755902685
2012-08-14,0,0.0,0.0,-0.01310919636178917,0.008087503512610027,0.9877483148806169
2012-08-16,0,0.0,0.0,-0.01310919636178917,0.010200265666931517,0.9867941183000937
2012-08-20,0,0.0,0.0,-0.01547383292477613,0.010200265666931517,0.9855018788135519
2012-08-22,0,0.0,0.0,-0.017162578507190822,0.010200265666931517,0.9849985358733641
2012-08-24,0,0.0,0.0,-0.017162578507190822,0.010200265666931517,0.9848036458446174
2012-08-28,0,0.0,0.0,-0.019071573390079657,0.010200265666931517,0.9848522758199989
2012-08-30,0,0.0,0.0,-0.012328090334398571,0.010200265666931517,0.9858196681721798
2012-09-04,0,0.0,0.0,-0.009299597922636479,0.007003361102016061,0.9868158093354469
2012-09-06,0,0.0,0.0,-0.01066720767347176,0.007003361102016061,0.987094664966532
2012-09-10,1,0.0030147743646866637,0.0037349688548870543,-0.009299597922636479,0.0035069771696885086,0.9888707545148929
2012-09-12,0,0.0,0.0,-0.012600823929888075,0.0011179394559632985,0.9878571580030648
2012-09-14,0,0.0,0.0,-0.014283773201909492,0.0010850538485437714,0.9885916090406907
2012-09-18,0,0.0,0.0,-0.012600823929888075,0.0025070495903766325,0.9881437822335468
2012-09-20,0,0.0,0.0,-0.01066720767347176,0.008580276600691305,0.9883801072279476
2012-09-24,0,0.0,0.0,-0.012268383337268485,0.011344270281177782,0.9878127676483993
2012-09-26,1,0.000466647761169369,0.0007138723797779945,-0.012230343716350258,0.011344270281177782,0.9888291864399571
2012-09-28,1,0.0007229168855899116,0.0010226680828102294,-0.012230343716350258,0.012450215441863687,0.9884484967449061
2012-10-02,1,0.00028102188872762047,0.0004858037400866671,-0.012230343716350258,0.01560562960149808,0.9859315642449185
2012-10-04,0,0.0,0.0,-0.005075319643582163,0.013991061792792425,0.9860164706967371
2012-10-08,0,0.0,0.0,-0.012665116600164627,0.013991061792792425,0.9838346018750017
2012-10-10,0,0.0,0.0,-0.005075319643582163,0.013991061792792425,0.9851136308464539
2012-10-12,0,0.0,0.0,-0.0048317166198416014,0.016550736362952005,0.9850332140150616
2012-10-16,0,0.0,0.0,-0.011896267908024716,0.011694265875381093,0.98533395001016
2012-10-18,0,0.0,0.0,-0.011896267908024716,0.013815237811624925,0.9842994654686138
2012-10-22,0,0.0,0.0,-0.007699467439332001,0.010513330634560584,0.9853439555973176
2012-10-24,0,0.0,0.0,-0.0035139841381908836,0.013181014771234956,0.9852965184632234
2012-10-26,0,0.0,0.0,-0.0035139841381908836,0.010513330634560584,0.986123486957489
2012-11-01,0,0.0,0.0,-0.007699467439332001,0.00961829924940881,0.9880029644053148
2012-11-05,0,0.0,0.0,-0.008949236560728204,0.00644677487641729,0.9886864862430615
2012-11-07,0,0.0,0.0,-0.008256961461394355,0.006592298381197828,0.9885108901066509
2012-11-09,0,0.0,0.0,-0.00679832466481335,0.013020296305529044,0.9881836804892998
2012-11-13,1,0.1759466358644307,0.18634470467007136,-0.003319079967878496,0.013020296305529044,0.849682393006013
2012-11-15,-1,-0.0009561765068043012,-0.0007382142293437632,-0.0026680972741240467,0.013020296305529044,0.989443450076068
2012-11-19,1,0.00037941483663738894,0.00042917061417350143,-0.004126869214062072,0.013020296305529044,0.990023543433486
2012-11-21,1,0.0008737423970876789,0.0010510685686697108,-0.004126869214062072,0.013020296305529044,0.9900512450302558
2012-11-26,0,0.0,0.0,-0.005536941975637365,0.009017417253623653,0.9901036069575624
2012-11-28,1,0.002321330086209747,0.0026770009898306594,-0.005536941975637365,0.009017417253623653,0.9898562615632283
2012-11-30,1,0.0008529264883783437,0.000939235633119306,-0.005536941975637365,0.013371380750793697,0.9894472960259207
2012-12-04,-1,-0.001902858608520263,-0.0014748605438591764,-0.004126869214062072,0.016856036080180808,0.9871749040912382
2012-12-06,1,0.00040231499534451354,0.0004531336987782017,-0.004126869214062072,0.013371380750793697,0.9890703851916062
2012-12-10,1,0.0006424320911398745,0.000716342671671139,-0.005536941975637365,0.010238545085948118,0.988926595792741
2012-12-12,1,0.0011078471385808132,0.0011160004150850688,-0.0070742891154559635,0.007235870598916526,0.9887808849279924
2012-12-14,0,0.0,0.0,-0.0070742891154559635,0.007462568371352839,0.9891253487639469
2012-12-18,0,0.0,0.0,-0.0070742891154559635,0.007462568371352839,0.9896903440611781
2012-12-20,1,0.0024182235322464203,0.002711120177521554,-0.006613596358953224,0.009553486079662743,0.989658028446655
2012-12-24,1,0.002351573818192197,0.0026490129812590394,-0.004613002431370973,0.009553486079662743,0.9898466952735658
2012-12-27,1,0.0024138822894440083,0.0026988386960304376,-0.0067952034369053605,0.012419910147427334,0.9891541975940634
2012-12-31,1,0.003701617129224409,0.004192763598356724,-0.004928118557898055,0.009553486079662743,0.9900401115177518
2013-01-03,1,0.004954616692196177,0.005690098308454556,-0.005982539707363753,0.009553486079662743,0.9908822094117162
2013-01-07,1,0.003586677229879479,0.004171786299750211,-0.004918525803984087,0.009553486079662743,0.9921187671484599
2013-01-09,1,0.003833276070673503,0.004473306527631318,-0.004918525803984087,0.009553486079662743,0.9916967733681972
2013-01-11,1,0.0035936200730161917,0.004242182936355069,-0.002355041143576494,0.009553486079662743,0.9929814056201247
2013-01-15,1,0.004164249633954974,0.004888367151234384,-0.002355041143576494,0.009291840189164421,0.992601897468219
2013-01-17,1,0.005195925413173232,0.005980754774211127,-0.0029898339161664933,0.0052983580905315575,0.9925284808399258
2013-01-22,1,0.005291380394808683,0.006044989527193035,-0.00425193596096844,0.004103855875076787,0.9905962421975207
2013-01-24,1,0.003999502196093433,0.004518528241844465,-0.004918525803984087,0.004103855875076787,0.9906015970016051
2013-01-28,1,0.004212937317671044,0.004779908936661444,-0.004918525803984087,0.004103855875076787,0.9899634815704901
2013-01-30,1,0.003634644688461036,0.004119051727692338,-0.003632296006681592,0.0052983580905315575,0.989864265301063
2013-02-01,1,0.004463459914465365,0.005023935251741054,-0.007306813649597781,0.004103855875076787,0.9891889720864256
2013-02-05,1,0.004086914904370888,0.004601464024449144,-0.007306813649597781,0.004103855875076787,0.9889643611971966
2013-02-07,1,0.0038069760243087704,0.00433362708863127,-0.003908282698428273,0.004103855875076787,0.9901445837412606
2013-02-11,1,0.004117427753437695,0.004657205726723288,-0.007306813649597781,0.00371574854419045,0.9894291756536094
2013-02-13,1,0.003515010608939107,0.0039506767255037024,-0.007436220596875053,0.00371574854419045,0.9893054650635423
2013-02-15,1,0.0032684791200994095,0.0036436732173349565,-0.008066493508743909,0.003532790093185189,0.9889789653945845
2013-02-20,1,0.0010391449496099723,0.001071659531201747,-0.008066493508743909,0.005246767127046572,0.9905610057309729
2013-02-22,1,0.0009425202714534167,0.0009785961870314031,-0.008066493508743909,0.005246767127046572,0.9904174410342759
2013-02-26,1,0.0009576253845124899,0.0009970382810670698,-0.008066493508743909,0.00457489449496764,0.9911422446660427
2013-02-28,1,0.001157300271433733,0.0011972610620379145,-0.008066493508743909,0.00697365559883696,0.9910440762422871
2013-03-04,1,0.000705655263303467,0.0008146431488003204,-0.008443904348475244,0.00697365559883696,0.9902076125482
2013-03-06,0,-6.846078169893627e-05,0.00012436759300361736,-0.008443904348475244,0.00697365559883696,0.9905317201780486
2013-03-08,1,0.0003884107748322236,0.0005924980544603931,-0.009186685641303994,0.0063955109047774406,0.9910089935799042
2013-03-12,-1,-0.00047422730829543066,-0.000130040678490683,-0.009186685641303994,0.008151206489662713,0.9894082236318517
2013-03-14,-1,-0.000472348339538863,-0.00018926154617743371,-0.00926703060446276,0.008151206489662713,0.9894311059341907
2013-03-18,-1,-0.0009906178440055953,-0.0006857953843770299,-0.01005078117481395,0.011023907090851099,0.9861480654792089
2013-03-20,-1,-0.001181339784008259,-0.0008633025363704407,-0.012469519874277362,0.009008289194614303,0.9849179786265231
2013-03-22,-1,-0.0026086808931036153,-0.002088940330912186,-0.01005078117481395,0.010755897944445193,0.9849540661737574
2013-03-26,-1,-0.0024816809778790668,-0.0020085022588154904,-0.00926703060446276,0.01377267550410678,0.9845053673229227
2013-03-28,0,-8.309919220076474e-05,6.174693135355331e-06,-0.00926703060446276,0.01377267550410678,0.9845309209602808
2013-04-02,-1,-0.0012721601494208692,-0.001055281786980709,-0.00926703060446276,0.015337747236572526,0.982307657219692
2013-04-04,-1,-0.0013249455889417152,-0.001049266359637429,-0.012035698041106857,0.01855030110046144,0.980892545277949
2013-04-08,-1,-0.0022561083083720065,-0.0018240066206689821,-0.01139655474847917,0.018935331124035712,0.9790697531937594
2013-04-10,-1,-0.000740277524631409,-0.00048690511852561417,-0.01139655474847917,0.01855030110046144,0.9797350316385486
2013-04-12,-1,-0.0023997480220509185,-0.0018733772389242986,-0.011025513159405892,0.01855030110046144,0.9796040746985114
2013-04-16,-1,-0.003914339333543102,-0.0032699271612701953,-0.008561419118384473,0.01855030110046144,0.9819432533553144
2013-04-18,-1,-0.006013667684141421,-0.005105036058703386,-0.00396274479510781,0.01855030110046144,0.982870520638647
2013-04-22,-1,-0.00523912743007428,-0.004430062066398382,-0.00396274479510781,0.01855030110046144,0.9823311919225091
2013-04-24,-1,-0.004040886721391909,-0.003401438063512917,-0.0071611454439928935,0.018384721540924923,0.9834575948064356
2013-04-26,-1,-0.004909601018002226,-0.004126910644966435,-0.005714341593301048,0.01806779512865654,0.9845092280544808
2013-04-30,-1,-0.0063896791611281235,-0.005417779053273557,-0.004921307447915941,0.015571569131732924,0.9865791160022988
2013-05-02,-1,-0.005115452069299621,-0.004345802462843466,-0.003480452207788384,0.015200611219853229,0.9884270493677867
2013-05-06,-1,-0.0029357951732763158,-0.0024767288369278283,-0.004921307447915941,0.01295247805621854,0.9912555638888209
2013-05-08,-1,-0.001214183277349513,-0.0009841665204154883,-0.005714341593301048,0.009078270734367748,0.9919975170642971
2013-05-10,-1,-0.0013507934060299684,-0.0011159184016598625,-0.004921307447915941,0.010557971389117425,0.99170274526181
2013-05-14,-1,-0.0006620615561172193,-0.0005481194647003512,-0.006527388460203586,0.008747030341399346,0.9915999022376375
2013-05-16,-1,-0.0011163147965086132,-0.0009257718740523571,-0.010031059159763317,0.010557971389117425,0.9897786939368654
2013-05-20,1,0.00010897273242256497,0.00017036522320782352,-0.010031059159763317,0.008747030341399346,0.990816155995494
2013-05-22,-1,-9.020136582975978e-05,-1.3398714379609419e-05,-0.011309658178084034,0.008747030341399346,0.9895896244446212
2013-05-24,-1,-0.0004202710298419285,-0.0003114786193586197,-0.014563817540499735,0.008747030341399346,0.987311436142494
2013-05-29,1,0.001024089147217571,0.0011587083199738593,-0.014563817540499735,0.010491875783612695,0.9867818018159312
2013-05-31,1,0.001460558958343592,0.0016262897990427943,-0.014563817540499735,0.010347957895353792,0.9868901520468754
2013-06-04,1,0.0010931647681112079,0.001221505523333579,-0.014563817540499735,0.010855556481227002,0.986823774167518
2013-06-06,1,0.00041544055310478793,0.0004344580354769841,-0.012445412291533328,0.010855556481227002,0.9869916050375408
2013-06-10,1,0.0010211555429211633,0.001133238163662736,-0.012445412291533328,0.012005222003103484,0.9865769339782124
2013-06-12,1,0.00039331623443450816,0.0004798865712513081,-0.011621976617182374,0.013961915339924023,0.98689855396733
2013-06-14,1,0.0007140910314488374,0.0008770587479880809,-0.0037746802156145426,0.013961915339924023,0.9880795018031854
2013-06-18,1,0.0009659440887337826,0.0011495945475748501,-0.011203683121301558,0.013961915339924023,0.9879207145737321
2013-06-20,-1,-0.00022661982395834958,-0.0001840750680094173,-0.0008530458900121243,0.013961915339924023,0.9891400230830829
2013-06-24,-1,-0.001936461446101061,-0.0017655738854422682,-0.0008335555292602894,0.013961915339924023,0.9909531053114454
2013-06-26,-1,-0.0009152761226450663,-0.0008884072336005643,-0.0011198564864464745,0.011507787593500515,0.9915327678760919
2013-06-28,-1,-0.00012211538173097897,-2.6979688646359664e-05,-0.001604032010587932,0.010666348042229459,0.9918698460279469
2013-07-02,1,0.0005152291645805489,0.0006985697537940088,-0.0015455609283324273,0.014265358868850535,0.9910670593801605
2013-07-05,1,0.0011253839909709093,0.0013961275962501144,-4.3027743374369175e-06,0.014032209704772378,0.9920536903462637
2013-07-09,1,0.0017172706834628808,0.0020646079116752656,-0.0026707110814481153,0.010666348042229459,0.9924276701833744
2013-07-11,1,0.00217692297167021,0.0025907924782741718,-0.0026707110814481153,0.01026771749019901,0.9928662651351571
2013-07-15,1,0.0020542062615614308,0.0023738185687839043,-0.0026707110814481153,0.01026771749019901,0.9929390751044924
2013-07-17,1,0.0018490491286357728,0.0021230518415646413,-0.0014754161767332023,0.012605890886345382,0.9929858263437785
2013-07-19,1,0.002296004569014793,0.002645093850653039,-0.0026707110814481153,0.012605890886345382,0.9922941005874428
2013-07-23,1,0.002287516934500288,0.002670867002809677,-0.0032541137426147686,0.012605890886345382,0.9919661894100511
2013-07-25,1,0.0018296638326480534,0.0021157301469036044,-0.002224894059966729,0.013622750426833507,0.9914049108196632
2013-07-29,1,0.00199076743740877,0.0023241860143245847,-0.003228276744687345,0.013622750426833507,0.9909511498722168
2013-07-31,1,0.0032390631439494022,0.0037591946956438763,-0.005137244987130133,0.0075760618865420935,0.9910040232777243
2013-08-02,1,0.0033358566518287983,0.003851905318424306,-0.005137244987130133,0.005649990272347879,0.9912627579222678
2013-08-06,1,0.002578155849701492,0.002947457776344202,-0.002852604474805184,0.008750967526590124,0.9909687735886269
2013-08-08,1,0.002549658956839962,0.0028895837394888107,-0.0032840118135181616,0.0063737983227163285,0.9911646089557907
2013-08-12,1,0.0034260428526406983,0.0038784212036008297,-0.0032840118135181616,0.008999100194868086,0.9899971961128698
2013-08-14,1,0.003257464252405644,0.003633125432219389,-0.0032840118135181616,0.0063737983227163285,0.9905192350854705
2013-08-16,1,0.0026860336585168344,0.002969957597652995,-0.002243472416243668,0.0063737983227163285,0.9916300359936776
2013-08-20,1,0.0025265656610916104,0.0028370872532239035,-0.002126951600379551,0.008995861136082927,0.9910962409818915
2013-08-22,1,0.0026855792655166373,0.0029417956653507863,-0.003263077886053436,0.008521980345184664,0.9915738432919523
2013-08-26,1,0.002199435940595587,0.0024053677405582227,-0.002126951600379551,0.008521980345184664,0.9920284265618659
2013-08-28,1,0.0016494600765465887,0.0017610586028646246,-0.0017740396269353225,0.008521980345184664,0.9928975867691561
2013-08-30,1,0.0023522425483225745,0.002635766093160028,-0.003217146371563257,0.008521980345184664,0.9927718112267552
2013-09-04,1,0.003423848642411806,0.00381997219179618,-0.003217146371563257,0.006884217297819403,0.9932197993529442
2013-09-06,1,0.0022929137155104666,0.0024762927618131557,-0.0048872621271541985,0.011114165188931342,0.9919615754586294
2013-09-10,1,0.0022813885716734,0.002335703252687597,-0.005554225008380313,0.00489249290936385,0.9919567164383216
2013-09-12,1,0.0026276129402319024,0.002756452068917405,-0.005554225008380313,0.006302475539734496,0.9908348032235453
2013-09-16,1,0.0029566966568862277,0.0031753463604499987,-0.005554225008380313,0.011114165188931342,0.9901585555885833
2013-09-18,1,0.002757850820852503,0.0029197901789419787,-0.005554225008380313,0.0071090080673583,0.9906934682834817
2013-09-20,1,0.0023070527185580433,0.002344896694599399,-0.005546378182223101,0.0071090080673583,0.9906623554653439
2013-09-24,1,0.0015916556039138855,0.0016029549540974891,-0.0048872621271541985,0.009708302354206003,0.9907204848191706
2013-09-26,1,0.002301841423782664,0.0023921989659138653,-0.006653194112450075,0.01157925472138452,0.9892499949366831
2013-09-30,1,0.0024632724712831838,0.002652270771056416,-0.01187328632905484,0.01157925472138452,0.9887325000542649
2013-10-02,1,0.0029388701694234216,0.0031620278487580885,-0.015714802665725947,0.009708302354206003,0.9857347701670348
2013-10-04,1,0.0023388775318282234,0.0024839965054790653,-0.013473378405670658,0.012772254502677655,0.9862546666777618
2013-10-08,1,0.0007846667217451753,0.0008497932797686604,-0.006651585649449203,0.01345980158377606,0.9866689315477022
2013-10-10,1,0.0018214222896471952,0.001963624686823536,-0.01278736291182115,0.012772254502677655,0.9866108865127493
2013-10-14,1,0.0021962933515628997,0.002367499967261675,-0.01278736291182115,0.012929888464195419,0.9865662242678989
2013-10-16,1,0.0014394642412134922,0.0014728975170824694,-0.007877801644872624,0.012929888464195419,0.9866407447704341
2013-10-18,1,0.002119188241547242,0.0022380444770602518,-0.007877801644872624,0.011507840864393113,0.987246062878896
2013-10-22,1,0.003174165116805892,0.003502012096992288,-0.01712588595903205,0.011507840864393113,0.98660694310885
2013-10-24,1,0.00278992464370849,0.0030007777753718375,-0.011385701802422493,0.00895626279444267,0.9876427192199171
2013-10-28,1,0.0014403309872759742,0.0014479863826612526,-0.005866013138580381,0.009226823541160487,0.9882883860487399
2013-10-30,1,0.0015620607213494841,0.0015945594356795343,-0.0008491436870203557,0.011507840864393113,0.991418881488355
2013-11-01,1,0.0015938763278012785,0.0016255124783514387,-0.002375971681369208,0.008316787679115978,0.9922678726432895
2013-11-05,1,0.002346279118382458,0.002405101681507477,-0.005384795807038754,0.0061137273560376475,0.9915825193790543
2013-11-07,1,0.001256461950891372,0.0013238662620083967,-0.003695079987487901,0.006878929911311329,0.9927664257882008
2013-11-11,1,0.00044586959903332294,0.0006653835048687515,-0.002375971681369208,0.007506029920595499,0.9927698892039956
2013-11-13,0,-5.115960165684354e-06,0.0003367632123534368,-0.007968533354102022,0.006878929911311329,0.9920162937978211
2013-11-15,0,-4.523264956298129e-05,0.00027588252466552443,-0.007968533354102022,0.0072393694130574275,0.9911742906709061
2013-11-19,-1,-0.00041563183149681657,-7.080039367713504e-05,-0.003468677022107105,0.00870140948999289,0.9911236718834822
2013-11-21,-1,-0.0006651062440947984,-0.00031145335749881695,0.00039272350009819245,0.008711671048537584,0.9910218849074012
2013-11-25,1,7.135538508366054e-05,0.00031040229002386353,0.00039272350009819245,0.008711671048537584,0.9913082369866982
2013-11-27,1,0.0010354747302615001,0.001137166642126331,-0.0006162233490225919,0.007242789932572325,0.9921145026614844
2013-12-02,1,0.0011580629422486216,0.0012347654684914044,0.0005005562459449861,0.00772451939627649,0.9921471062793492
2013-12-04,1,0.00032418285366531146,0.0004663373420858903,0.0010804383228894322,0.00772451939627649,0.9922724351267923
2013-12-06,1,0.0002770663188400751,0.0004444610463771523,0.0005005562459449861,0.008475939712097945,0.9922191598743836
2013-12-10,1,0.0016271217721404898,0.0016488430465125112,-0.003336416147997785,0.006812735144840537,0.9928016230103274
2013-12-12,0,-4.596678573763591e-05,0.00014431483486028191,-0.003336416147997785,0.006812735144840537,0.992884463993847
2013-12-16,1,0.0006460159348286197,0.0007762789735073922,-0.003336416147997785,0.006754154003132278,0.9938072972182865
2013-12-18,1,0.001700753428481978,0.0017157759203481001,-0.003336416147997785,0.005654092647556789,0.9946859177132696
2013-12-20,1,0.0019173027081938626,0.0019738748619879992,-0.004302779659830752,0.00494383097399214,0.9939132490731761
2013-12-24,1,0.0023812813134920126,0.002494375727782412,-0.010045959031508775,0.003503730711535766,0.9907722222535529
2013-12-27,1,0.002212708698530818,0.002261474820928372,-0.010045959031508775,0.004450940244556944,0.9898052733006382
2013-12-31,1,0.002582573451709566,0.00268258195876723,-0.010045959031508775,0.0013547444427777075,0.9896818490993153
2014-01-03,1,0.0021380005317793976,0.0022331581864855404,-0.011330860403279018,-0.00014255359896263873,0.9888925709859496
2014-01-07,1,0.0021810423476953506,0.0023028062560795904,-0.011330860403279018,0.0008061822422953579,0.9884726497631103
2014-01-09,1,0.00027463310304021594,0.00032090989248140375,-0.011330860403279018,0.005409155971874091,0.9869853388722806
2014-01-13,-1,-0.0004305634262020279,-0.0002863787979725873,-0.010118107853346842,0.01009705976696205,0.9866224937283635
2014-01-15,1,0.0003904770438498883,0.00039481774769621267,-0.010118107853346842,0.01941521140212489,0.9851453247408795
2014-01-17,-1,-0.0002840343643586671,-0.00015100516744390678,-0.010118107853346842,0.01941521140212489,0.9845574704325858
2014-01-22,-1,-0.0010966497604033261,-0.000858912344488059,-0.010232791009928351,0.01941521140212489,0.98377135142746
2014-01-24,-1,-0.0029421616285833802,-0.0024853252232591144,-0.0013541114525707732,0.02141552099853403,0.9844669236047109
2014-01-28,-1,-0.0012472077322018215,-0.0010540070880083988,-0.0012922001987182266,0.019552383853563532,0.9860919165293267
2014-01-30,-1,-0.0018708823619743523,-0.0015853529641324054,-0.0029799536718958385,0.019552383853563532,0.9855639422771358
2014-02-03,-1,-0.0020640068228681987,-0.0018128887294248514,0.0007398309447402018,0.019617582743328855,0.9852004101928626
2014-02-05,-1,-0.0011620031928641153,-0.00102495191167388,-0.002706848060076719,0.018815898650389833,0.9864097667764333
2014-02-07,1,0.0004800982075053614,0.0005394944841491283,-0.003594469674668755,0.013686569190235968,0.9890699806001175
2014-02-11,1,0.0009348399688551212,0.0010784993700021913,-0.003594469674668755,0.00954775977638657,0.9902083317815942
2014-02-13,1,0.001895080322051508,0.002146369769248292,-0.007452022925113745,0.00707650918844675,0.9906225837810454
2014-02-18,1,0.001726648351601716,0.0019584386188915026,-0.007452022925113745,0.006345082373258637,0.9899722340327379
2014-02-20,1,0.0015294911100935263,0.0017289685128312857,-0.004821575039644722,0.0056304730165485616,0.9914494280236665
2014-02-24,1,0.0021222609253679628,0.0023895548545388697,-0.007452022925113745,0.004583705778226675,0.9915993280687377
2014-02-26,1,0.002202028978163236,0.0025142872277738757,-0.007452022925113745,0.005543615327907277,0.9910559466052268
2014-02-28,1,0.0018411172537366022,0.0020780421162297563,-0.007452022925113745,0.005659849919573991,0.9909257398003553
2014-03-04,1,0.0013365402312469883,0.0014443818348498854,-0.004303701535243475,0.005659849919573991,0.9919245011134525
2014-03-06,1,0.001677667535263323,0.0018800347973321769,-0.004303701535243475,0.005543615327907277,0.9921951396420875
2014-03-10,1,0.0016397390930618116,0.0018631864776712144,-0.007452022925113745,0.005543615327907277,0.991389708212193
2014-03-12,1,0.001570752484661202,0.0017604407244256638,-0.004058645130243682,0.00956870447469974,0.9909262857291624
2014-03-14,1,0.0008497491752004779,0.0009817259186598124,-0.00526506877874432,0.00956870447469974,0.9902851533299707
2014-03-18,1,0.0015059923819926676,0.0017278501198555883,-0.011299348857741448,0.008366741955120152,0.9905759358703033
2014-03-20,1,0.001939579810015508,0.0022330548220258367,-0.011299348857741448,0.009720029602177598,0.9894618970784397
2014-03-24,1,0.0010794475560035313,0.0012020656593575252,-0.004436193587874503,0.009720029602177598,0.9902593431295412
2014-03-26,1,0.00021107281887664073,0.00032712199052649523,-0.0028190172192220325,0.009289791208193923,0.9901684409898424
2014-03-28,1,0.001366537038019445,0.0014479581932862358,-0.012822524475696869,0.008366741955120152,0.989657653162385
2014-04-01,1,0.001972620610723782,0.0021939315449202275,-0.012822524475696869,0.008366741955120152,0.9888726417945468
2014-04-03,1,0.001311799726060569,0.0013763433433877992,-0.012822524475696869,0.008366741955120152,0.9884814582238793
2014-04-07,1,0.0005233421808201263,0.0005498978029069489,-0.010980125374592711,0.008366741955120152,0.9891436734964252
2014-04-09,1,0.0015064746041611482,0.0016506899331378523,-0.010980125374592711,0.00794108877442734,0.989489544774881
2014-04-11,1,4.505805463745819e-05,0.00010387508292946082,-0.004988375482654474,0.009063072459638406,0.9897471144575287
2014-04-15,1,2.198704739743391e-05,0.0001115619828571676,-0.004988375482654474,0.008486094151467737,0.9901020616881226
2014-04-17,1,0.00040749830461543786,0.0004652220408859957,-0.00887206281429299,0.005069389533687652,0.9910022378704697
2014-04-22,1,0.0005231101127363391,0.0005557319717383532,-0.011583874814475615,0.005069389533687652,0.9901623369343091
2014-04-24,1,0.0012896112211398835,0.00138567123087746,-0.011583874814475615,0.005069389533687652,0.9900302005813671
2014-04-28,1,0.000654492003198313,0.0006641457412257506,-0.004988375482654474,0.009946000235661265,0.9904127738515571
2014-04-30,1,0.0009058892632409886,0.0009138956650840928,-0.004988375482654474,0.008251426987889773,0.9922257370361742
2014-05-02,1,0.0007431661315487801,0.0007675171752888547,-0.00495058335198808,0.008251426987889773,0.9924608535423505
2014-05-06,1,0.0006144378276142222,0.0006207283617306235,-0.0004380109626356992,0.008251426987889773,0.9932012539417445
2014-05-08,1,0.000721401516153346,0.0007629667474442556,-0.0004380109626356992,0.009946000235661265,0.992495982514326
2014-05-12,1,0.0016290098521511572,0.001751798127815766,0.0006716757496462157,0.008050956736618325,0.9939475778877175
2014-05-14,1,0.0012533661826134497,0.0013676830509407796,-0.0004380109626356992,0.008050956736618325,0.9925745441414394
2014-05-16,1,0.001123829792004429,0.0012197660953339432,0.0014208425336708177,0.008545662660277394,0.9927873509464433
2014-05-20,1,0.0006535022034158896,0.0007040046211363405,0.0014208425336708177,0.008545662660277394,0.9929512701226978
2014-05-22,1,0.0006955951442609559,0.0007478161452550077,0.0014771900750285957,0.008573965401894462,0.9931450476135989
2014-05-27,1,0.0015578228889180762,0.0017381517405445155,-0.0004251498967496039,0.006054645355716201,0.993952833289453
2014-05-29,1,0.0013215627834522715,0.0014460855184048774,-0.0051296085369620615,0.006054645355716201,0.9930292321368083
2014-06-02,1,0.0015256460203770736,0.001684931321987675,-0.0051296085369620615,0.006054645355716201,0.9928142954354116
2014-06-04,1,0.0012852544370063135,0.001392545163719167,-0.0051296085369620615,0.006054645355716201,0.9925621653902621
2014-06-06,1,0.0019815512498422352,0.0021475706261804652,-0.006576460507543042,0.004558451565977493,0.9922226630510402
2014-06-10,1,0.002040135020154368,0.0022273015297435595,-0.007402621095748497,0.004130892630860427,0.9917856104797069
2014-06-12,1,0.0009011455007612613,0.0009314150691532311,-0.006576460507543042,0.004130892630860427,0.9931858918119733
2014-06-16,1,0.000918137159006859,0.0009210624053395775,-0.006576460507543042,0.0016767934744897428,0.9933611610301208
2014-06-18,0,-0.00021655549983205997,1.7506632409144615e-06,-0.007402621095748497,0.0016767934744897428,0.9926310961126313
2014-06-20,1,0.00032709398238588047,0.00044685358634246816,-0.007402621095748497,0.0018185984399756718,0.9925570792666415
2014-06-24,-1,-0.0005659415740747848,-0.0003195861632765589,-0.005894713530658383,0.0026804024698711647,0.9928320253134847
2014-06-26,-1,-0.0014721032558232183,-0.0010679334765198057,-0.005894713530658383,0.0018185984399756718,0.9928906005602742
2014-06-30,-1,-0.001419065866250832,-0.0010466745423852052,-0.011110602241690613,0.0018185984399756718,0.9909714186373283
2014-07-02,-1,-0.000492827681444766,-0.00031446643832500754,-0.01251152069130064,0.0018185984399756718,0.9894843570605838
2014-07-07,-1,-0.00014332704646994687,-1.326567652052519e-05,-0.01251152069130064,0.0018185984399756718,0.9905712214276972
2014-07-09,1,0.0001344038716778342,0.00018089518646108063,-0.01251152069130064,0.0018185984399756718,0.9906876511168095
2014-07-11,-1,-0.00011732634587502955,-5.061636065624862e-05,-0.0067523980175220495,0.003276156225603876,0.9909095131458987
2014-07-15,-1,-0.0003776674575423738,-0.00026909411943519594,-0.00685779061049289,0.0038251728178042878,0.9908938338172707
2014-07-17,-1,-6.345996905588646e-05,-2.689998901533381e-05,-0.005254337655748492,0.0038233376586150544,0.9920645466301635
2014-07-21,1,0.00018148748705170494,0.0001957624032841351,-0.0058162124353768165,0.0038233376586150544,0.9916531809477304
2014-07-23,1,0.00010382610720245834,0.0001313882794009753,-0.0058162124353768165,0.006959972544698051,0.9905033464084035
2014-07-25,-1,-0.00040735679489765534,-0.0003166765229969557,-0.0068747547103840435,0.006959972544698051,0.9909406365651083
2014-07-29,-1,-0.0017314672302649304,-0.0014858934400907406,-0.005605017536574488,0.006959972544698051,0.9927663823860264
2014-07-31,-1,-0.0027509851820971465,-0.002369491441655738,-0.00471495872010394,0.007320782544910594,0.9934710743248049
2014-08-04,-1,-0.002377821316312314,-0.002040991996018263,-0.005267958733563447,0.00671420064982331,0.993676175705177
2014-08-06,-1,-0.0031603278024534566,-0.0026896469383468733,-0.005267958733563447,0.00671420064982331,0.9936632568249882
2014-08-08,-1,-0.0022560362602709987,-0.0019219067789548595,-0.005605017536574488,0.0038233376586150544,0.9943458752217453
2014-08-12,-1,-0.0023505223604237116,-0.002017707942905923,-0.006427213216396169,0.0035137707989747087,0.994416207346311
2014-08-14,-1,-0.00233423176410913,-0.0019895507319492136,-0.006707440986055847,-4.965762448116929e-05,0.9945065163412572
2014-08-18,-1,-0.00214983245690286,-0.0018379149064476153,-0.006427213216396169,-0.0013149396416552552,0.9950208088793807
2014-08-20,-1,-0.0006172624927617272,-0.0005108807702455365,-0.006427213216396169,-0.00138213325250818,0.9954791981771504
2014-08-22,-1,-0.0009232498916783767,-0.000803797148557432,-0.006018969856497781,-0.00138213325250818,0.9954281868975761
2014-08-26,-1,-0.0011355940712773284,-0.0009944855164921965,-0.0061053036727539926,-0.0024811953570501415,0.9952643065016303
2014-08-28,-1,-0.001303068618460159,-0.0011049679560243384,-0.006852911364700476,-0.0024811953570501415,0.9951690808838629
2014-09-02,-1,-0.0010579941828243703,-0.0009187694405966511,-0.007051993176414177,-0.002842547759654841,0.9948050531530376
2014-09-04,-1,-0.0017130972706080817,-0.0014498110376979325,-0.00706630498808512,-0.002842547759654841,0.9943330672685734
2014-09-08,-1,-0.0018927993061053443,-0.0016162310196045728,-0.00706630498808512,0.0005175684536548794,0.9935100527169255
2014-09-10,-1,-0.0018274399685220487,-0.0015864506713012577,-0.007407499837227982,0.006077702082469763,0.9898374323272868
2014-09-12,-1,-0.002059669935886023,-0.0017945856737948771,-0.009202987621906161,0.006077702082469763,0.9881233445914286
2014-09-16,-1,-0.001781425396294935,-0.001571683057981953,-0.011348089863300017,0.008285356973609683,0.9863408363237408
2014-09-18,-1,-0.002182907484370355,-0.0018957562568515784,-0.011348089863300017,0.00938042089881632,0.985723694381519
2014-09-22,-1,-0.002572128738045053,-0.0022891994785638825,-0.009202987621906161,0.00938042089881632,0.9861549234916196
2014-09-24,-1,-0.0028406868713899656,-0.0025273465335345522,-0.011288288039812452,0.014972905145117786,0.9841013178665223
2014-09-26,-1,-0.002996148779325812,-0.0026442814684723977,-0.009978007017161498,0.016063081695964387,0.9826073481885448
2014-09-30,-1,-0.002776840532735621,-0.002483592631151852,-0.015023203120654615,0.0174010474971644,0.9790692525189324
2014-10-02,-1,-0.0018819072811350887,-0.0017127351057962602,-0.015023203120654615,0.0174010474971644,0.9801009123245001
2014-10-06,-1,-0.0014632441992307782,-0.0013244221559372872,-0.015023203120654615,0.0174010474971644,0.9806378149763022
2014-10-08,-1,-0.0014318698703936622,-0.001289059676667847,-0.015023203120654615,0.016463032573487562,0.9826950606672888
2014-10-10,-1,-0.0030823846093055336,-0.00272829894352194,-0.004932904932107744,0.01680342429780044,0.9834087830696063
2014-10-14,-1,-0.002711465330313287,-0.0024099457617543724,-0.0014378996320420544,0.016463032573487562,0.9849770361170647
2014-10-16,-1,-0.0014299810479469226,-0.001310931880455969,-0.004932904932107744,0.012234174792447598,0.9861743241446719
2014-10-20,-1,-0.0015384842238920602,-0.0014122868708064385,-0.004932904932107744,0.012234174792447598,0.9861245253906249
2014-10-22,-1,-0.0012274414026366867,-0.0011478853575233032,-0.004932904932107744,0.00759184547357682,0.9880659642543089
2014-10-24,-1,-0.00011355850418207447,-5.316445944857827e-05,-0.004932904932107744,0.006993249654151417,0.988400869355531
2014-10-28,1,0.0017015843257964173,0.0020521022038690606,-0.0033468953636981843,0.006374367141353043,0.9918165650187337
2014-10-30,1,0.001502739188995895,0.0018313291162282757,-0.004932904932107744,0.006374367141353043,0.9906492903531157
2014-11-03,1,0.001112545707860129,0.0013435400353381394,-0.0033468953636981843,0.005758630768985362,0.9912012319646325
2014-11-05,1,0.0013516568072513254,0.001633657411102918,-0.0033468953636981843,0.005758630768985362,0.991422311663837
2014-11-07,1,0.0014914765622270278,0.0017958445351023953,-0.0033863876392875598,0.005758630768985362,0.9911138060925143
2014-11-11,1,0.0018243259935499993,0.0021919789281787186,-0.006121514934438975,0.0058866881558725555,0.988939200459162
2014-11-13,1,0.0013655222993086576,0.001652270538308065,-0.006121514934438975,0.0058866881558725555,0.9886460703614992
2014-11-17,1,0.0014113390021204268,0.0016990883423232874,-0.012063674078622532,0.0058866881558725555,0.9879142602459596
2014-11-19,1,0.001060521709152372,0.001293591966427897,-0.006454578598326866,0.008943177772531632,0.9868213310759595
2014-11-21,1,0.001960843356469476,0.0023118687443973943,-0.008156718806027792,0.008943177772531632,0.9873316661430093
2014-11-25,1,0.002237758607725707,0.00264483883308969,-0.008156718806027792,0.007210839956682617,0.9877419920893038
2014-11-28,1,0.0015440634085887518,0.0018450414003047945,-0.004825654524286922,0.007210839956682617,0.988995513728897
2014-12-02,1,0.0016335177182229207,0.001934710033134452,-0.008156718806027792,0.007210839956682617,0.9882912172100226
2014-12-04,1,0.0020701398844070688,0.0024249506094603046,-0.01318643163198838,0.007210839956682617,0.9875380638074505
2014-12-08,1,0.0017932005277450816,0.0021076681732383057,-0.008156718806027792,0.0068980977389194315,0.9885739381564616
2014-12-10,1,0.0014107618320925257,0.0016937499752355239,-0.008156718806027792,0.007709040018707979,0.9890689768201155
2014-12-12,1,0.0009195057495871324,0.0011379708949140065,-0.007571251505990003,0.007709040018707979,0.9893100932897521
2014-12-16,1,0.0004004097201128658,0.0005287319315254325,-0.006706445806507911,0.009145334516724144,0.9894687957479485
2014-12-18,1,0.000960503859530023,0.001098956313828218,-0.006706445806507911,0.006063334666114388,0.990750330469991
2014-12-22,1,0.000791695094525953,0.0008699951720195193,-0.006445376768092952,0.0077012485021545445,0.9900750322384386
2014-12-24,1,0.0007254334414050222,0.0008164219198044299,-0.007571251505990003,0.009657759380320749,0.9890270762256016
2014-12-29,1,0.0006896542159774071,0.0007585315101121998,-0.008929718454788542,0.009657759380320749,0.9871620675645768
2014-12-31,1,0.0004543921740618285,0.0005198791902034264,-0.008929718454788542,0.009657759380320749,0.9866591814065784
2015-01-05,1,8.216748627973608e-06,1.9985035730830105e-05,-0.007571251505990003,0.014724802521278798,0.9869380149764011
2015-01-07,1,0.00046102350699767943,0.0005157712040596617,-0.009673845577063052,0.014724802521278798,0.9849108360853307
2015-01-09,1,0.00030460861783288755,0.00034024973594020747,-0.010220686741606262,0.009657759380320749,0.9852933291649998
2015-01-13,1,0.0006250091741541184,0.0007591071270511031,-0.010220686741606262,0.009657759380320749,0.9859145056502794
2015-01-15,1,0.00024070721784489175,0.00029156263284840425,-0.010220686741606262,0.01469423678361966,0.9851625308452774
2015-01-20,1,0.00037327023663222877,0.00042886681304273445,-0.010220686741606262,0.01469423678361966,0.9853675153670539
2015-01-22,1,0.0012748584117096423,0.001464392841337659,-0.010220686741606262,0.011488737480141469,0.986490586204526
2015-01-26,1,0.0011941138828000203,0.0013620684245994083,-0.00984908530078226,0.009269566713570395,0.9872191142780118
2015-01-28,1,0.00011810356207567727,0.00013758530970690895,-0.007596222099479024,0.009269566713570395,0.9889776161195653
2015-01-30,-1,-0.00029979549992840916,-0.00025700694931796067,-0.0020598772147942834,0.009269566713570395,0.9899121407942413
2015-02-03,1,0.0005653675881726478,0.0006167710279483575,-0.007596222099479024,0.008486341593006489,0.9911056669323969
2015-02-05,-1,-0.0004233854446531721,-0.0003416597786171737,-0.007633747539053912,0.008486341593006489,0.9922321407973974
2015-02-09,-1,-0.0012293617865450847,-0.001061792205538683,-0.0020598772147942834,0.008486341593006489,0.9920559938181336
2015-02-11,-1,-0.0009973482842598903,-0.0008589819214943094,-0.006564099930822209,0.009269566713570395,0.9912402675193018
2015-02-13,-1,-0.0005425823470452615,-0.00043062193898756,-0.006564099930822209,0.008486341593006489,0.992166640138994
2015-02-18,-1,-0.0006414768010888326,-0.0005072797442630653,-0.007633747539053912,0.008219590908266612,0.9915837294589492
2015-02-20,-1,-0.00020188182484780903,-0.0001172607544863375,-0.010192727233009777,0.007220465480928028,0.9913096668809556
2015-02-24,-1,-0.0009185047789776199,-0.00073321460475183,-0.010192727233009777,0.007220465480928028,0.9914410500185902
2015-02-26,-1,-0.0007400616155290947,-0.0005858283686736294,-0.011955853680344481,0.007220465480928028,0.9908996435937121
2015-03-02,-1,-0.00026135503928253817,-0.00017582901906006956,-0.011955853680344481,0.007220465480928028,0.9901217033194991
2015-03-04,-1,-0.00012913642040976504,-7.292555854911906e-05,-0.011966530587891037,0.0054565543778288305,0.9901615353764719
2015-03-06,-1,-0.0016670819281505464,-0.0013572230876968717,-0.010948912694954153,0.007120533400730782,0.9908959240216522
2015-03-10,-1,-0.0018979542534685759,-0.0015731896442679233,-0.010948912694954153,0.007120533400730782,0.9911265970719124
2015-03-12,-1,-0.0007523001120115849,-0.0006102006760451894,-0.010948912694954153,0.007120533400730782,0.9911658890754274
2015-03-16,-1,-0.001312969790522776,-0.00107769293013349,-0.010948912694954153,0.0054565543778288305,0.9915613556199947
2015-03-18,-1,-0.0010552661767304467,-0.0008470756066592325,-0.008768205903227765,0.005194510193755971,0.9919671913744953
2015-03-20,-1,-0.0010362521975003235,-0.0008771074867432965,-0.008768205903227765,0.005194510193755971,0.9917355979492233
2015-03-24,-1,-0.00026654008683194713,-0.0002661977590266831,-0.008768205903227765,0.0065375258353004805,0.9912000212599906
2015-03-26,-1,-0.0008161591304217807,-0.0007280965754889804,-0.006949211094717709,0.0065375258353004805,0.991833537333831
2015-03-30,-1,-4.9174704127324156e-05,-4.753937470546962e-05,-0.008768205903227765,0.0065375258353004805,0.9912999363182294
2015-04-01,-1,-0.0007433720808960856,-0.0006703337170681754,-0.006195076570728398,0.0065375258353004805,0.9920017111656557
2015-04-06,-1,-0.00032892006473267843,-0.0003035509845370941,-0.006195076570728398,0.0065375258353004805,0.9914301210611556
2015-04-08,-1,-0.000873186774429299,-0.0007924348856309665,-0.004539420251782878,0.0065375258353004805,0.9916522640174459
2015-04-10,-1,-0.0005444080127328985,-0.0004867694425513007,-0.0036360200146891685,0.006025384121074078,0.9923780290335735
2015-04-14,-1,-0.0004701037209229801,-0.0004260199228521289,-0.003563733504416279,0.0065375258353004805,0.9921872387793168
2015-04-16,-1,-0.0008906005605865313,-0.0007810785609044441,-0.001088967803901044,0.006873885514814196,0.9918959633493295
2015-04-20,-1,-0.0004290283413745632,-0.0004252474127795333,-0.0009981148574599566,0.0065375258353004805,0.9931348388143166
2015-04-22,1,6.078525980382686e-05,0.00012533668115990545,-0.0032328508825306057,0.005860917597251651,0.9929581382918361
2015-04-24,-1,-0.00034745040855361977,-0.00032701121627126494,-0.0010496497458504412,0.006498362280309052,0.9926418879695723
2015-04-28,1,2.5474700615011313e-05,6.39516674102814e-05,-0.0010496497458504412,0.005860917597251651,0.9939431768025324
2015-04-30,1,0.0003506833375286567,0.0004597944801777784,-0.004992944792528834,0.005619070793088744,0.9926237086597925
2015-05-04,1,0.000444604024748712,0.0005521666072233224,-0.004992944792528834,0.004516268578798167,0.9933357905085164
2015-05-06,1,1.1675362396646741e-05,3.138694518107961e-05,-0.003291174665093017,0.004659414807609059,0.9936311599445905
2015-05-08,-1,-0.00010516238635112986,-8.272673670943763e-05,-0.0041257137991408625,0.004101504334670854,0.9938360407261703
2015-05-12,-1,-0.00022808238104924473,-0.00017430400491231628,-0.0036781836121303653,0.004101504334670854,0.9937884136216525
2015-05-14,1,0.0006880845052329346,0.0008139386105395478,-0.005288978138887167,0.0034343377762275883,0.9939352621372118
2015-05-18,1,0.000801357985379364,0.0009511579045747027,-0.006160684129543661,0.0034343377762275883,0.993525762334878
2015-05-20,1,0.0003781977803953005,0.0004608246648275031,-0.005288978138887167,0.004101504334670854,0.9943593398307118
2015-05-22,1,0.0005924880944548288,0.0007160746070591498,-0.005288978138887167,0.0034343377762275883,0.9943438300474008
2015-05-27,1,0.00011888841264734692,0.00015140550775566308,-0.003975438882809485,0.0034343377762275883,0.9947526436258008
2015-05-29,-1,-0.0007431520502537258,-0.0006582445792280487,-0.003679190121394281,0.0034343377762275883,0.996053062133583
2015-06-02,-1,-0.0002957228360308264,-0.00028473081625953844,-0.004397994356007295,0.002805792875167512,0.9953823890400711
2015-06-04,-1,-9.334788863342563e-05,-8.689998271366843e-05,-0.004397994356007295,0.0022093649028179906,0.9954892472443739
2015-06-08,-1,-0.0005785089458111372,-0.0005184165040371981,-0.00405146473775974,0.002805792875167512,0.9954021032434841
2015-06-10,-1,-0.00017954886308846918,-0.0001625383078713918,-0.005987592056851397,0.0008008929775268112,0.994569293085126
2015-06-12,-1,-0.0001500721241078608,-0.0001479007008955323,-0.005092133276703003,0.0022093649028179906,0.9941178176467261
2015-06-16,1,5.4751913444050316e-05,0.0001223384892880277,-0.00405146473775974,0.0022093649028179906,0.9945664578770232
2015-06-18,1,0.0002683796450318861,0.00037195781602713136,-0.005092133276703003,0.0008008929775268112,0.9938617403286821
2015-06-22,-1,-0.0003302588076306611,-0.00030576153642063934,-0.005092133276703003,0.002468472912859054,0.9938266067124484
2015-06-24,-1,-0.000670434472086829,-0.0005900025594461043,-0.008546311812883641,0.002468472912859054,0.9934729142993807
2015-06-26,-1,-0.00023239802792194035,-0.00019839864202533016,-0.01019825991268797,0.002468472912859054,0.9927241249712268
2015-06-30,-1,-0.001127255663135681,-0.0009974530253454325,-0.006056795393487438,0.005304733916387462,0.9911602372718911
2015-07-02,-1,-0.001467189836857953,-0.001262830981898815,-0.006056795393487438,0.005304733916387462,0.991247095207485
2015-07-07,-1,-0.0013132978761306755,-0.0011340009801992434,-0.01019825991268797,0.004292301602729448,0.9904232646868439
2015-07-09,-1,-0.0014379623844696576,-0.0012795205626307592,-0.005647651281600631,0.0064614902488386635,0.9907513393700421
2015-07-13,-1,-0.0008668835780032912,-0.0007824699626012396,-0.005647651281600631,0.004292301602729448,0.9899322260756361
2015-07-15,-1,-0.0006618717828742625,-0.0006209166913131957,-0.008028681934377821,0.006673224528033599,0.9884781490967884
2015-07-17,-1,-0.0009289822464852251,-0.000847075151574137,-0.005669174233459494,0.006673224528033599,0.9892758788981479
2015-07-21,-1,-0.0008217870377522822,-0.0007571454804105276,-0.005669174233459494,0.005389647643863961,0.989229495628961
2015-07-23,-1,-0.0008458960533865178,-0.0007910291265935069,-0.005669174233459494,0.005389647643863961,0.9883468630467949
2015-07-27,-1,-0.0019075641237146644,-0.0017607568452555713,-0.010400419852484664,0.005389647643863961,0.9871254923372184
2015-07-29,-1,-0.00017593976361645163,-0.0001731440142254808,-0.01771893649479151,-0.0004667989718675997,0.9865002870596248
2015-07-31,-1,-0.000862773301807238,-0.0007714500900843824,-0.01771893649479151,0.005389647643863961,0.9853327966845644
2015-08-04,-1,-0.0010677100640490455,-0.0009825330276129578,-0.01308580404837721,0.005389647643863961,0.9859606692902937
2015-08-06,-1,-0.0008577080489364021,-0.0007895630156105061,-0.01308580404837721,0.004505962154551548,0.9862476856138535
2015-08-10,1,0.0004166684296094169,0.0005264009639587874,-0.016873564515577956,0.004505962154551548,0.9858562858319097
2015-08-12,-1,-8.49850369979541e-05,-7.269481885308638e-05,-0.01308580404837721,0.0012824019577047487,0.9871862951353056
2015-08-14,-1,-0.0007317831941958407,-0.0006680138805660403,-0.013365297160026195,0.004505962154551548,0.9865707376999339
2015-08-18,-1,-0.0008257786486993285,-0.0007390156703049565,-0.013365297160026195,0.009926581342272891,0.9854096494216131
2015-08-20,-1,-0.0010179304331510962,-0.0009478107539520884,-0.016873564515577956,0.009926581342272891,0.9839031774586159
2015-08-24,-1,-0.0017421293525484802,-0.001553153110886096,-0.01252499894257511,0.009926581342272891,0.9861305820397118
2015-08-26,-1,-0.0011833076316552418,-0.0010816549727750305,-0.011920699823578292,0.00595764409045044,0.987645348499689
2015-08-28,-1,-0.0015580706771418458,-0.0013818163800381248,-0.01252499894257511,0.0014150915995848289,0.9877278755119204
2015-09-01,-1,-0.001430651101269666,-0.0012959304966373008,-0.01252499894257511,0.00595764409045044,0.98740326208325
2015-09-03,-1,-0.001724699186399818,-0.0015594773222567656,-0.014352669863224697,0.009787201397965446,0.9854546465622915
2015-09-08,-1,-0.0019005007331717645,-0.0017057566083037074,-0.01252499894257511,0.009787201397965446,0.9850113884177123
2015-09-10,-1,-0.0021235317387573553,-0.0018963540198531077,-0.01252499894257511,0.011932736172490046,0.9842969747073599
2015-09-14,-1,-0.001785214509823603,-0.00162681905146252,-0.01111967138371764,0.009787201397965446,0.9846401051504085
2015-09-16,-1,-0.0007485012111398207,-0.0007062362289353819,-0.01458964564015455,0.003861495998347697,0.9850371564033534
2015-09-18,-1,-0.0024333689743760672,-0.0022146348202432995,-0.009942952983405386,0.003861495998347697,0.9883128607853734
2015-09-22,-1,-0.0021385868223859593,-0.0019627091122531447,-0.009471268434942844,0.005448717822828788,0.9883276582271042
2015-09-24,-1,-0.002147519231774348,-0.0019889238450667276,-0.008618739565998306,0.009303673206888772,0.9871728079592864
2015-09-28,-1,-0.0038975325900875582,-0.0035304475166467097,-0.006973440303453092,0.009789668733200299,0.9878945502620448
2015-09-30,-1,-0.0020235394084080734,-0.0018673212479152867,-0.008618739565998306,0.0087289402644567,0.9844684172493224
2015-10-02,-1,-0.0010794352082897584,-0.001045804123014102,-0.006973440303453092,0.008504833162867062,0.9867544824779088
2015-10-06,-1,-0.000924333563917032,-0.0009186452765605728,-0.006973440303453092,0.008504833162867062,0.9868107304965381
2015-10-08,-1,-0.00031037194790795703,-0.00021312284136666134,-0.006973440303453092,0.005908456735445256,0.9874074127090375
2015-10-12,-1,-0.0012519695670390799,-0.0012125063556369805,-0.00610875428033638,0.005908456735445256,0.987853870756543
2015-10-14,-1,-0.0013882557142684123,-0.0013446558068456005,-0.006973440303453092,0.005908456735445256,0.9866065884148959
2015-10-16,-1,-0.001455533855428286,-0.0014002265471966782,-0.009170231298488676,0.008501905554751369,0.985257166444571
2015-10-20,-1,-0.0013170049918553323,-0.0012429472850662674,-0.012117799067158874,0.005936583423739129,0.9849260159571295
2015-10-22,-1,-0.00040775958302831437,-0.0003567788260683178,-0.012117799067158874,0.004759833941989409,0.9863890598467229
2015-10-26,-1,-0.0007981050288103913,-0.0007758397348333406,-0.012117799067158874,0.004612870735910866,0.9867578775793745
2015-10-28,-1,-0.001804362242189239,-0.001685654326688873,-0.007474543572851152,0.004759833941989409,0.9905019472223139
2015-10-30,-1,-0.0019801837673166095,-0.0018727591518571639,-0.007474543572851152,0.005165600257280326,0.9902002034901576
2015-11-03,-1,-0.0010265635903371967,-0.0010242385397473235,-0.012117799067158874,0.004872084840828558,0.9870871670477022
2015-11-05,-1,-0.0012530071339722875,-0.0012169822269583405,-0.012799260680573167,0.004872084840828558,0.9861450050490865
2015-11-09,-1,-0.0011925111619440066,-0.001179073325689907,-0.013585251683697308,0.004872084840828558,0.9856074226473158
2015-11-11,-1,-0.002489889667214898,-0.0023259201777522734,-0.011939784745529165,0.004872084840828558,0.9874500289837084
2015-11-13,-1,-0.002377565411145655,-0.002225092580137252,-0.011939784745529165,0.004612870735910866,0.9873936285158647
2015-11-17,-1,-0.0028095912527053473,-0.0025995440877976676,-0.009623245492447892,0.003481238179685755,0.9876517329643555
2015-11-19,-1,-0.0025248183424111783,-0.0023352243339877237,-0.012201781746570543,0.0030161958118523156,0.9872994354953936
2015-11-23,-1,-0.002428238779147856,-0.0022663955908693786,-0.012201781746570543,0.0037077024619848117,0.9861418111039726
2015-11-25,-1,-0.0017470027385443918,-0.001682548062558403,-0.012201781746570543,0.0030161958118523156,0.985690217901483
2015-11-30,-1,-0.0019537895421882718,-0.001823395023183631,-0.012201781746570543,0.0030161958118523156,0.9858144386914831
2015-12-02,-1,-0.0019508075768309451,-0.0018601717496469438,-0.012117686382728875,0.002748100018623301,0.9901344677443776
2015-12-04,-1,-0.003042348198992276,-0.002819666478649314,-0.010281755245357793,0.0030161958118523156,0.9899593619604867
2015-12-08,-1,-0.0035287899411900626,-0.0032522573058883664,-0.009122582509763102,0.0030161958118523156,0.9901298061784144
2015-12-10,-1,-0.0032378115581122554,-0.0029957230367848,-0.010615697434674507,0.0030161958118523156,0.9897401427274828
2015-12-14,-1,-0.003973731112238735,-0.0036376390235856484,-0.010615697434674507,0.003956405286785162,0.9896339863821426
2015-12-16,-1,-0.003825595631435047,-0.003486158231178297,-0.013194393761003658,0.008414195802750078,0.9879503463299042
2015-12-18,-1,-0.0034550523404165644,-0.00324441233062547,-0.010659859085944476,0.010006851076023846,0.9878360734646511
2015-12-22,-1,-0.002542327327123294,-0.002434835656864109,-0.010659859085944476,0.010006851076023846,0.9877472174850555
2015-12-24,-1,-0.0025741076494491706,-0.002435923312058524,-0.013194393761003658,0.010006851076023846,0.9870022356861666
2015-12-29,-1,-0.0019360228781922337,-0.0018919319247510404,-0.013194393761003658,0.014579929032843891,0.98629166718862
2015-12-31,-1,-0.0016536786358240753,-0.0015877495570457596,-0.010734739896269115,0.01697291198917916,0.9845979081566909
2016-01-05,-1,-0.0010568757405133014,-0.0009259533348652943,-0.014264767273217452,0.016616682104113805,0.9840945215463637
2016-01-07,-1,-0.001751609997083288,-0.0017390616530826774,-0.010734739896269115,0.019351423975418926,0.9803462806326899
2016-01-11,-1,-0.0019186559246642323,-0.0019076023359034392,-0.006778173122335656,0.019351423975418926,0.9802125012372267
2016-01-13,-1,-0.002491295113655968,-0.0024143028340505588,-0.010182850698077072,0.019351423975418926,0.9797562370787756
2016-01-15,-1,-0.0026671000369542118,-0.0025349813463635988,-0.006778173122335656,0.019351423975418926,0.9798403006441353
2016-01-20,-1,-0.001631750205437251,-0.0016194853672451726,-0.007121049356046432,0.019351423975418926,0.9802300997952114
2016-01-22,-1,-0.0012911739220321016,-0.0012072682340284742,-0.007509664830539806,0.019267625806297706,0.980425087046068
2016-01-26,-1,-0.001298315088859043,-0.0012206455414562794,-0.01041476479846635,0.019267625806297706,0.9814389556477842
2016-01-28,-1,-0.0007748129826695119,-0.0006270167368011686,-0.01041476479846635,0.018607083059836292,0.9817188168500339
2016-02-01,1,0.0007845375672878897,0.001149677348865589,-0.01041476479846635,0.018607083059836292,0.9827064450757176
2016-02-03,1,0.0008533094724116098,0.0012229271032455618,-0.008521761472357154,0.018117323805497274,0.9835306016365435
2016-02-05,1,0.003156399878221125,0.003836098919197519,-0.008521761472357154,0.018117323805497274,0.9860391003354145
2016-02-09,1,0.0035901254413199693,0.004389095452974256,-0.01041476479846635,0.018117323805497274,0.9851755848490644
2016-02-11,1,0.0017924003591926485,0.002254662454931092,-0.00670161603278273,0.018117323805497274,0.9869859948528305
2016-02-16,1,0.002916150534437211,0.0035217997202146726,-0.00670161603278273,0.012911684984078482,0.9880214108614008
2016-02-18,1,0.002164893776192222,0.0026510460952504297,-0.005421677817624488,0.01740804345642243,0.9871096728252904
2016-02-22,1,0.0018818882533428113,0.0022603195866012795,-0.0019754526197262937,0.016551950701805342,0.9880113217470619
2016-02-24,1,0.0018702542049660014,0.0022857210193910566,-0.0019754526197262937,0.016551950701805342,0.9879522152124093
2016-02-26,1,0.002082490090451179,0.002535776113618437,-0.0036510322579600195,0.013131588045380796,0.9882280940917886
2016-03-01,1,0.0034151538637277935,0.004082159413575462,-0.005262740573963842,0.012263747378231353,0.9891248341566081
2016-03-03,1,0.003867384776688566,0.004626621294013209,-0.0036510322579600195,0.011019833908656044,0.9903383071786834
2016-03-07,1,0.004489960376494598,0.0052880124557600884,-0.006568355895508542,0.009954890417235282,0.9903824038748515
2016-03-09,1,0.0034414858229677063,0.004073830433046274,-0.00946722108773963,0.009954890417235282,0.990409174985348
2016-03-11,1,0.0037407397177180854,0.004407755680690384,-0.00946722108773963,0.009954890417235282,0.990382691657669
2016-03-15,1,0.004109551001245843,0.00484357476293483,-0.00946722108773963,0.011927812549173708,0.9882102873743672
2016-03-17,1,0.005855850440784472,0.0068576584435746275,-0.00946722108773963,0.008159663258533333,0.9895179938358102
2016-03-21,1,0.005597609035314504,0.0065487443867956775,-0.00946722108773963,0.010093488870865263,0.9893382662803004
2016-03-23,1,0.0050803266250693205,0.005888770534648166,-0.009435498807000972,0.010093488870865263,0.9894871017919127
2016-03-28,1,0.005225685002285392,0.006046320351251202,-0.00971324575970628,0.009838432273034051,0.9892036371013391
2016-03-30,1,0.005917477875158991,0.006894626824447874,-0.00971324575970628,0.009770544071320875,0.989850246696643
2016-04-01,1,0.006070656856321169,0.007050757981243752,-0.00971324575970628,0.009770544071320875,0.9895891873996212
2016-04-05,1,0.005186588584051752,0.006027116948010202,-0.005624687491219365,0.01111998638805391,0.9900408306769334
2016-04-07,1,0.0034165468004266576,0.003928266246311207,-0.004405816233554325,0.01111998638805391,0.9891565991612498
2016-04-11,1,0.0034463146040317754,0.003938626166129012,-0.006024909705972503,0.010006846304527826,0.9881479728776712
2016-04-13,1,0.005419421850467596,0.00614997423688338,-0.006024909705972503,0.009422126777383239,0.9901308179367263
2016-04-15,1,0.005572795460753288,0.00633224737901646,-0.009844892807172068,0.009422126777383239,0.9883745870711513
2016-04-19,1,0.005960412898327112,0.006754884988024512,-0.009844892807172068,0.00873301023496291,0.9876369317452384
2016-04-21,1,0.0053105939769909375,0.006038928078679101,-0.01333869242045103,0.00873301023496291,0.9862816827701095
2016-04-25,1,0.005323941399735185,0.006063483660411236,-0.009191970662842573,0.0059005832001572086,0.9866397731906648
2016-04-27,1,0.005058026655391269,0.005668612675294178,-0.009191970662842573,0.010826466381378144,0.9853820553586964
2016-04-29,1,0.0044978895479668,0.004972187425244522,-0.009191970662842573,0.010826466381378144,0.9854688241757332
2016-05-03,1,0.0043930972345699116,0.0047961141027100945,-0.009191970662842573,0.009959300785091097,0.9858913141161354
2016-05-05,1,0.002758594582566796,0.002936020995941333,-0.0054631522533521715,0.009959300785091097,0.9876412187435534
2016-05-09,1,0.0014989981305039788,0.0015601702288585884,-0.002900000016517392,0.011729081704880868,0.9880543342343158
2016-05-11,1,0.0020125040132834256,0.0020126430835516575,-0.002900000016517392,0.011729081704880868,0.9882152693952632
2016-05-13,1,0.0002457198500919742,0.0005050713600771686,-0.0054631522533521715,0.011729081704880868,0.9875987671567986
2016-05-17,1,0.0013245617260174368,0.0014162157571758621,-0.008444723681654862,0.009286932790830545,0.9879958685813202
2016-05-19,-1,-0.00037488254719388904,-0.0001070816760307343,-0.002460637080493362,0.009286932790830545,0.9903718688018607
2016-05-23,-1,-0.00049907943376204,-0.00022056982720788693,-0.003542680430577872,0.011729081704880868,0.9894214550133724
2016-05-25,1,0.0005073635851503909,0.0007096679786816855,-0.003542680430577872,0.009286932790830545,0.99020054048354
2016-05-27,1,0.0003978720435577519,0.0005816558906075388,-0.008444723681654862,0.009286932790830545,0.9848231133885478
2016-06-01,1,1.507405866466591e-05,0.0002887666098690231,-0.008444723681654862,0.012110244080046483,0.9837434299809069
2016-06-03,-1,-0.0008372852498675495,-0.0004257678477878324,-0.0056814081111084495,0.014930783659784319,0.9833184956567796
2016-06-07,0,-0.00029839071392413394,7.297658928120672e-05,-0.010079949558692385,0.012110244080046483,0.9835390277875112
2016-06-09,0,-0.00032675037806387686,7.816271636768078e-05,-0.010079949558692385,0.012358985927623193,0.9825616170919093
2016-06-13,-1,-0.0020706960384887624,-0.0014525161539242167,-0.0019100509846501587,0.017932000503377087,0.9820768904159802
2016-06-15,-1,-0.00198659916537821,-0.001410668378970799,-0.0019100509846501587,0.017932000503377087,0.9817438990066547
2016-06-17,-1,-0.002294798840423093,-0.001653455993004334,-0.005667533329931848,0.017932000503377087,0.9818656783332895
2016-06-21,-1,-0.0019283476396765595,-0.0013475308376636747,-0.006953658186532092,0.0146818453862259,0.9817915910015307
2016-06-23,0,-0.00015605257924106,0.0001473479019045489,-0.006953658186532092,0.011275600888572797,0.9831744937004836
2016-06-27,-1,-0.004391888758781871,-0.0035793985015717083,-0.0025453955996989734,0.0146818453862259,0.9855062834824461
2016-06-29,-1,-0.0013189683866083792,-0.0010104358474055104,-0.004610292123006917,0.011254517914580785,0.9875651159924685
2016-07-01,-1,-0.0005368751471194322,-0.0003197561594588111,-0.006953658186532092,0.010587401320262412,0.9885699572507552
2016-07-06,-1,-0.002014790272761427,-0.0015581339467293336,-0.006402359644553444,0.010587401320262412,0.988993852819072
2016-07-08,-1,-0.0002123909243527635,-2.5513809201946672e-05,-0.006402359644553444,0.010587401320262412,0.9897675296035195
2016-07-12,1,0.0003420940641075253,0.000505030535604319,-0.006402359644553444,0.009580083570522431,0.9909599190784555
2016-07-14,1,0.00035915553685972107,0.000510510784851193,-0.004704506301255761,0.008742279378011282,0.991424654035141
2016-07-18,-1,-0.0005771553882651123,-0.000275892322875325,-0.003290325462024293,0.008742279378011282,0.9916094580982343
2016-07-20,-1,-0.0007206343038315877,-0.00041566686601247666,-0.0028755449981622437,0.008321254068821619,0.9926160967416781
2016-07-22,0,-0.0001595589713053831,3.532713305769814e-05,-0.0028755449981622437,0.008321254068821619,0.9929938339240351
2016-07-26,1,0.001109532484732572,0.001148486672773055,-0.003290325462024293,0.008011815937728829,0.9941058409380811
2016-07-28,1,0.0013935787249415668,0.0014486635484750492,-0.003290325462024293,0.005728201136931621,0.9947363668711342
2016-08-01,1,0.0005611555852062904,0.000665937878694903,-0.003290325462024293,0.007886270406979947,0.9946870863485989
2016-08-03,1,0.0008755976513730575,0.0009236757012587593,-0.003114810646241236,0.005314616117221666,0.9950797447150792
2016-08-05,1,0.0016025062461021032,0.0016495697548207545,-0.003114810646241236,0.003456757127399875,0.9957635176004392
2016-08-09,1,0.0021066869707876317,0.0023198483630151507,-0.003114810646241236,0.003456757127399875,0.9915587563544346
2016-08-11,1,0.0022919275809052866,0.002525448864292436,-0.004050462310609157,0.0026352109485369454,0.990388047239601
2016-08-15,1,0.0016427526863050938,0.001738753508712045,-0.005843338920328567,0.003456757127399875,0.9892323406248374
2016-08-17,1,0.0016238893452273021,0.001728855849338795,-0.005843338920328567,0.006062318019902905,0.9888523140346346
2016-08-19,1,0.001518651509358374,0.0016146538610127183,-0.005843338920328567,0.006062318019902905,0.9889154612000431
2016-08-23,1,0.0014541727492222711,0.0015556267053309075,-0.004050462310609157,0.006698794513421021,0.9885804613190836
2016-08-25,1,0.000990488928081507,0.0009927382081873605,-0.004253704357133381,0.007970597137538536,0.9880825710709916
2016-08-29,1,0.00033968957133752526,0.0004649379214915772,-0.003359580051833613,0.006798572353512364,0.9885881178932593
2016-08-31,1,0.0003587699186198744,0.00047207882767547873,-0.002522657799283572,0.009294356182113477,0.9874815189434974
2016-09-02,1,0.0015549643751603462,0.0017075221794733775,-0.0025261591483850088,0.012946950602363665,0.986303585860175
2016-09-07,1,0.00047387119042657523,0.000494485577395655,-0.0025261591483850088,0.012946950602363665,0.9895792500526176
2016-09-09,-1,-9.944226863951519e-05,-7.987255759741991e-05,-0.0025261591483850088,0.012946950602363665,0.9899202060316399
2016-09-13,-1,-0.0003756770041734352,-0.0002899362735992626,-0.0023018515216195372,0.009294356182113477,0.9913093915040221
2016-09-15,1,0.00017624679544433458,0.0002009625963113711,-0.0026429513267141247,0.006072359304364134,0.9915447400965088
2016-09-19,1,0.0002685955497086784,0.0002772787133329032,-0.0030290505618478496,0.006072359304364134,0.9914999754120442
2016-09-21,1,0.0006864019112730414,0.0007536685561890222,-0.0030290505618478496,0.008662109484848697,0.9913165817576444
2016-09-23,1,0.0007914795290836932,0.0008990417449103142,-0.0030290505618478496,0.006464538131400268,0.9915293655469869
2016-09-27,1,5.525241560528721e-05,0.00010951294740321323,-0.00327548293519358,0.006464538131400268,0.9914377131143892
2016-09-29,1,0.0006614859316285845,0.0006645912321056474,-0.00327548293519358,0.003273358661304454,0.9922960408425154
2016-10-03,1,0.0015611081665668001,0.001705096520073284,-0.00327548293519358,0.00402981732631657,0.9931878162078414
2016-10-05,1,0.0015472636464580005,0.0016498057484224172,-0.005705911367058248,0.0020948054270249917,0.9920058939543305
2016-10-07,1,0.001373358240810456,0.0014824263793592831,-0.0033653442771589587,0.00402981732631657,0.9919171046996907
2016-10-11,1,0.0003249376787646209,0.0004215434950922958,-0.0033653442771589587,0.008043395645449378,0.9900488980884371
2016-10-13,-1,-0.00016744218902669703,-1.994343848023901e-06,-0.0027415743156643363,0.009567525112238757,0.9881137414634112
2016-10-17,1,0.0003870121572098832,0.00042199691857250853,-0.004983327763306561,0.009567525112238757,0.9872090448059214
2016-10-19,1,0.0008229812749074692,0.0008274679774625624,-0.006113812591259303,0.008043395645449378,0.9866556183603555
2016-10-21,1,0.000535558629708043,0.0005540791193690672,-0.006113812591259303,0.008043395645449378,0.9866652851836374
2016-10-25,1,3.398753904899172e-05,0.0001220312085937735,-0.004983327763306561,0.014602056510045001,0.9856103367696338
2016-10-27,1,0.000597146439009241,0.0006156066409161533,-0.004983327763306561,0.014602056510045001,0.9854956338760538
2016-10-31,1,0.001046967648641605,0.001140700522834512,-0.006113812591259303,0.014602056510045001,0.9849597989156128
2016-11-02,-1,-0.001001622024065123,-0.0007866722630274488,-0.003702673787836357,0.019069452091311265,0.9854882102190943
2016-11-04,-1,-0.0004010382756722225,-0.0002512791325155752,-0.003702673787836357,0.014602056510045001,0.986577887801235
2016-11-08,1,0.0009584933843723784,0.0009767958481803976,-0.003702673787836357,0.014602056510045001,0.9878632893176945
2016-11-10,1,0.002212851296177028,0.002405072562831126,-0.007583806735800211,0.011136672090467627,0.9887871758656905
2016-11-14,1,0.002079984771742922,0.0022968485077439153,-0.0038663225306343387,0.011136672090467627,0.9900420305146379
2016-11-16,1,0.0005316463864002721,0.0006934026677363657,-0.0048453704467813,0.007097793087654124,0.9900796909823317
2016-11-18,1,0.0006011614804029439,0.00070526241760313,-0.003710275243768454,0.011136672090467627,0.988794922837682
2016-11-22,1,0.0018155682472540567,0.0018941135892980127,-0.003710275243768454,0.005303142974883901,0.9898770825900984
2016-11-25,1,0.0016701094902002165,0.0016980494048952767,-0.005201775306612778,0.0044883799835643825,0.9900382218199508
2016-11-29,1,0.0014506230082260512,0.0015036576787629766,-0.005201775306612778,0.0044883799835643825,0.9905253696035559
2016-12-01,1,0.0026404098726239287,0.002901362209733656,-0.005201775306612778,0.0022447995960080992,0.9913185205454247
2016-12-05,1,0.0023649839844470002,0.0025819332555583217,-0.005201775306612778,0.0027599209574470243,0.9904782132048447
2016-12-07,1,0.0029176878088384085,0.0031887267273044183,-0.010914010199429485,0.0027599209574470243,0.9905841936303453
2016-12-09,1,0.0017594929804503152,0.0018642774743783713,-0.004884317420873301,0.0044883799835643825,0.9914692474977208
2016-12-13,1,0.0017536620802164988,0.0018563759938712257,-0.009961636542211052,0.0055647690275666805,0.990405161934401
2016-12-15,1,0.0015251308034429513,0.0016564841898881791,-0.008022224244984538,0.007341375656056275,0.9910492839961782
2016-12-19,1,0.001139291580085631,0.0012034686779631319,-0.004434586324530936,0.00720288509000049,0.9924332435141872
2016-12-21,1,0.0011942455779608715,0.0012581140774240661,-0.004434586324530936,0.00720288509000049,0.9925218791552831
2016-12-23,1,0.0010923497598192083,0.0011472326070359395,-0.002761198676436807,0.008742250600106112,0.9907144510750842
2016-12-28,1,0.0009534683219481845,0.0010259855482462775,-0.0022700228196887856,0.008742250600106112,0.9911041705479662
2016-12-30,1,0.0009368864827767819,0.001003528359841664,-0.0022700228196887856,0.008742250600106112,0.9910653006456303
2017-01-04,1,0.001525893309773013,0.0016849730134196304,-0.003759714054407471,0.0077963419814406024,0.9918574626923662
2017-01-06,1,0.001319212344684732,0.001442664158092993,-0.002896785974218284,0.0077963419814406024,0.9925091822737454
2017-01-10,1,0.001355372053988137,0.0014767952005305984,-0.002896785974218284,0.00720288509000049,0.9928522303030485
2017-01-12,1,0.0012795307831337424,0.001383559977552941,-0.0022700228196887856,0.00720288509000049,0.9924864793215115
2017-01-17,1,0.0009099633944122099,0.0009518463365892424,-0.0022700228196887856,0.00720288509000049,0.992256981135226
2017-01-19,1,0.001174734132080259,0.0012488458710647713,-0.0022700228196887856,0.004902023687239286,0.9928221264674618
2017-01-23,1,0.001227576011565364,0.0013074443389893221,-0.0022700228196887856,0.007585850166605665,0.9924492147642494
2017-01-25,1,0.0022209539943404046,0.0024284419064259178,-0.003906966789972029,0.0039157123497402385,0.9925218383364147
2017-01-27,1,0.0020459351932145837,0.0022251703630738902,-0.003906966789972029,0.004989360717764898,0.9927355792500296
2017-01-31,1,0.0014532059922769832,0.0014733125509290488,-0.006047048856693922,0.005831428609125556,0.9909912866091695
2017-02-02,1,0.0004036863004949164,0.0005581945871109516,-0.0067351077350672525,0.006793081337447606,0.9903936741439865
2017-02-06,1,0.00030296678435300735,0.000468166157465061,-0.0067351077350672525,0.006793081337447606,0.99046338345392
2017-02-08,1,0.0003405518971821805,0.0004765470861213185,-0.006953922165385235,0.005997913496602557,0.9902364042884877
2017-02-10,1,0.0010129988304938273,0.0010828874590526362,-0.006953922165385235,0.007614621557265083,0.9905436218232615
2017-02-14,1,0.0013313857833143043,0.0013432748905064919,-0.010245611421185814,0.007614621557265083,0.9898013427291643
2017-02-16,1,0.0010818581428279298,0.0011392067289288147,-0.010245611421185814,0.007614621557265083,0.9896289704606563
2017-02-21,1,0.0013327489844839105,0.0013680896143244226,-0.012711627235978459,0.005997913496602557,0.9888942859091978
2017-02-23,1,0.0005753788013160304,0.0006622595359796963,-0.006953922165385235,0.0073770289743203404,0.9904226165702521
2017-02-27,1,0.0010916084100799934,0.0010988144239947161,-0.009485669818628348,0.0073770289743203404,0.9897290261843328
2017-03-01,1,0.0019265062042829826,0.002076766032274639,-0.007903074976870728,0.0073770289743203404,0.9909589407949431
2017-03-03,1,0.001313204178507837,0.001348898825812657,-0.006426390551466029,0.004440205364839578,0.9916439052274639
2017-03-07,1,0.0010862737922796284,0.0010967639053795636,-0.007903074976870728,0.004440205364839578,0.9913103126427619
2017-03-09,1,4.846711001747203e-05,0.00020290521539002095,-0.00559158792829458,0.004440205364839578,0.9924022369454812
2017-03-13,1,0.0005915513658268099,0.0006960921799184358,-0.00559158792829458,0.002429170963338397,0.993276016520159
2017-03-15,1,0.0012603757556321814,0.0012626740030817292,-0.00559158792829458,0.002429170963338397,0.9932281143956199
2017-03-17,1,0.00072054131678987,0.0008079305772909992,-0.007903074976870728,0.002429170963338397,0.9920527689828227
2017-03-21,-1,-0.00046576666396001376,-0.00022149014300714114,-0.007903074976870728,0.002429170963338397,0.9926243333211061
2017-03-23,0,-0.000188470588124938,1.8987460618952417e-05,-0.007903074976870728,0.001887125142242681,0.992267990409279
2017-03-27,-1,-0.0005846215975738713,-0.0003433954017208514,-0.0050090673766195245,0.009856260724135901,0.9909152319267709
2017-03-29,-1,-0.0014324618028801034,-0.0010000845633870398,-0.0054345322445826195,0.00419984921771109,0.9914907842485204
2017-03-31,-1,-0.0012525104597893894,-0.000878807695996225,-0.0054345322445826195,0.00419984921771109,0.9915819783567338
2017-04-04,-1,-0.00045411275532357116,-0.000290546072120798,-0.0054345322445826195,0.009856260724135901,0.9884605802692753
2017-04-06,1,3.7563711435199874e-05,9.302331234575231e-05,-0.007986402321025087,0.009856260724135901,0.9874965825005952
2017-04-10,-1,-0.000447617452409878,-0.00031758369467340276,-0.007986402321025087,0.010123883203388738,0.98714622741922
2017-04-12,-1,-0.0006119398969886459,-0.0004748947562615483,-0.0054345322445826195,0.010201664050268282,0.9881617668068055
2017-04-17,-1,-0.0007208317923336301,-0.0005525244639141313,-0.0054345322445826195,0.009367578856220695,0.9891487537120274
2017-04-19,-1,-0.0007500904827569409,-0.0006183841840806596,-0.004637042710620147,0.009367578856220695,0.9884240686499652
2017-04-21,-1,-0.0004661368992327048,-0.0003730692863797267,-0.0073784124903148824,0.009367578856220695,0.9877548722404044
2017-04-25,1,0.0002743273470903842,0.0002996825815033614,-0.0073784124903148824,0.0052162982534060464,0.9896301237570719
2017-04-27,1,0.0004211632257423607,0.00045270599912822674,-0.005088711851124137,0.0052162982534060464,0.9896695462871052
2017-05-01,1,0.00037615153771067397,0.0003902872589863843,-0.005088711851124137,0.0052162982534060464,0.9894051081123669
2017-05-03,1,0.0016251533885938549,0.0018520005609508386,-0.0027340490713888685,0.0052162982534060464,0.9922441554300554
2017-05-05,1,0.00067747358680516,0.000722303388100705,-0.004233953035506281,0.0052162982534060464,0.9916311890433754
2017-05-09,1,0.0010394754720753317,0.0011359807087990875,-0.006596671007961919,0.0050812956047074104,0.9916956152899854
2017-05-11,1,0.000876353604125519,0.0009169812335785535,-0.006596671007961919,0.005284746266416512,0.9914149968713696
2017-05-15,1,0.0002587172482199935,0.00029910926443958176,-0.002462320653682944,0.005770369813635038,0.9916836035946031
2017-05-17,-1,-0.00020932035298795883,-0.00011615232137674939,-0.002462320653682944,0.007008347403099807,0.9922072422767276
2017-05-19,1,0.00015458854540234432,0.00021238730272373236,-0.0010035030405455992,0.007008347403099807,0.9929057816901482
2017-05-23,-1,-0.0003116945502969143,-0.0001812633167978097,-0.005602386164288771,0.007008347403099807,0.9915850429161938
2017-05-25,-1,-0.00028416372477741206,-0.00015442933611359142,-0.005602386164288771,0.007008347403099807,0.9917776124547681
2017-05-30,1,0.00017171972947471926,0.00022925849486757618,-0.005602386164288771,0.007008347403099807,0.9919175605249245
2017-06-01,1,0.0006689730403731549,0.000670542483495463,-0.006452091644013645,0.007008347403099807,0.9913142623718255
2017-06-05,-1,-0.0001984552703310451,-0.00010001308587914373,-0.004703805504505165,0.00902521101230883,0.991902175897955
2017-06-07,0,-3.2199637045336195e-05,3.6647283987961406e-05,-0.0022324222721145414,0.00902521101230883,0.9922405143442075
2017-06-09,1,5.863307938980191e-06,9.128772463586537e-05,-0.0022324222721145414,0.007186087442586256,0.9929192294048245
2017-06-13,1,0.00022144373196280053,0.00027132716764142074,-0.00250971376386412,0.005154302140271861,0.9930595013274048
2017-06-15,1,0.0006619197476898523,0.0006688178691633081,-0.0016005710909695935,0.004265623248680377,0.9937884682989182
2017-06-19,1,0.0010777107897124239,0.0011910986260741377,-0.00250971376386412,0.0035478857649798674,0.9941871216822475
2017-06-21,1,0.0002557402212068214,0.0002661514351227184,-0.0014606257823190718,0.0035478857649798674,0.9954670086079405
2017-06-23,1,0.0003488507412741775,0.00036239201654260464,-0.0013336983893452125,0.00459856177473327,0.9950280032919072
2017-06-27,0,-2.18756029770256e-05,2.9932436844965675e-05,-0.0011379991711216392,0.005360268615318382,0.9943932624154825
2017-06-29,1,0.0002298432033516062,0.0002535366123724354,-0.0011053114000623774,0.005360268615318382,0.9954624510506722
2017-07-03,1,0.0005681460258052285,0.0005842861345483699,-0.0011774876747092536,0.004265623248680377,0.9932282551073908
2017-07-06,1,0.0007161813591772144,0.0007831100560077897,-0.0011774876747092536,0.004094223770721885,0.9933649305942516
2017-07-10,1,0.0008366405476452897,0.0009286886929862444,-0.0011774876747092536,0.00433427874036255,0.9927687808066463
2017-07-12,1,0.0007285760534253612,0.0008038804755461906,-0.0012847133825761117,0.00433427874036255,0.9927470486988256
2017-07-14,1,0.0010945559910032418,0.0012355727432638091,-0.0016411605120899204,0.004250973607194298,0.9917155534899091
2017-07-18,1,0.000517294433427152,0.0005414399734552648,-0.0016411605120899204,0.004250973607194298,0.9918652667835227
2017-07-20,1,0.0004514308946121626,0.00047223600153900976,-0.005064442200071896,0.004250973607194298,0.990624625877446
2017-07-24,1,0.0010397475677053189,0.001166710245031571,-0.005064442200071896,0.003859586638881936,0.9904746357563615
2017-07-26,1,0.0006187705959134193,0.000669302674182257,-0.0042959476330956614,0.003859586638881936,0.9908763117201641
2017-07-28,1,0.0009526528918471467,0.0010477901938672745,-0.0042959476330956614,0.002429886083668932,0.9909911309265248
2017-08-01,-1,-8.623271341498518e-05,-2.8338011213829167e-05,-0.0038947954397789966,0.0038456036023896654,0.9936534164496119
2017-08-03,-1,-8.11136063869461e-05,-4.600213837988318e-05,-0.0038947954397789966,0.007235180821674055,0.992307939817493
2017-08-07,1,0.00028625399992906857,0.0003169170553167904,-0.0038947954397789966,0.004717757885785134,0.9929394521964846
2017-08-09,1,1.7874774323266068e-05,3.754084969044536e-05,-0.0038947954397789966,0.007235180821674055,0.9923288214986331
2017-08-11,-1,-0.0006798192260318412,-0.0005563979610118267,-0.0033808689013275434,0.008835942941326029,0.9925117076024977
2017-08-15,-1,-0.0006283144211314789,-0.0005243226203095984,-0.002174568561287067,0.008835942941326029,0.99229716913708
2017-08-17,-1,-0.0012372418396142874,-0.0010562458794617735,-0.0005490690414511883,0.008835942941326029,0.992877934544766
2017-08-21,-1,-0.000922326584623284,-0.0007774414142408913,0.0007343332888104725,0.010144881365982805,0.9928174910184888
2017-08-23,-1,-0.0010933970620087088,-0.0009239369778084388,-0.0005120434224410309,0.010144881365982805,0.9931092914345477
2017-08-25,-1,-0.0011294550153545526,-0.0009582225474483003,-0.00039178474502487497,0.010144881365982805,0.9928748213103875
2017-08-29,-1,-0.0004924000599781119,-0.0003903568646073548,-0.00039178474502487497,0.009276758181034024,0.9938635707697441
2017-08-31,-1,-0.00041627879173056177,-0.0003110623030736965,-0.0013108584710164572,0.006005390975226433,0.9953025729027174
2017-09-05,-1,-0.0007307913722742285,-0.0005787326391902261,-0.0003867690681016683,0.008002403465229268,0.9944014208283234
2017-09-07,0,-1.4231130044172174e-05,4.6073757983049635e-05,-0.0004722931192857194,0.006465631376323708,0.9952695745719586
2017-09-11,0,-3.8220281676811755e-05,5.502913550519724e-05,-0.0013108584710164572,0.005593695989328797,0.9959227286955521
2017-09-13,1,7.956315774622857e-06,8.606115461092846e-05,-0.0016992837822999518,0.00585915528405513,0.9959390345640178
2017-09-15,1,0.00029621324640050593,0.00029660922609134094,-0.0016992837822999518,0.00585915528405513,0.99606242751057
2017-09-19,1,0.0001608187347162167,0.00019302636283712095,-0.0016992837822999518,0.00585915528405513,0.9961568260969078
2017-09-21,1,8.643251468853992e-05,0.00012202279522892642,-0.0004722931192857194,0.00585915528405513,0.9963112467627606
2017-09-25,1,0.0011702228885483038,0.0013081647753719,-0.00014733350999680773,0.00585915528405513,0.9966263613244778
2017-09-27,1,0.0008118254727866855,0.0008676753126776003,-0.0006202010757369019,0.006727127830419902,0.9959233109611162
2017-09-29,1,0.0008245765207153613,0.0009070568605389229,0.0004922780696575735,0.007262009260502708,0.9954820005772159
2017-10-03,1,0.0014209468135345182,0.001596846333882853,-0.0007120830579860318,0.005733608434001471,0.9952661538163864
2017-10-05,1,0.0010540684068564815,0.0011442057241076086,-0.0022216131164202865,0.00526101134432699,0.9941203453221181
2017-10-09,1,0.0006330526148132992,0.0006352524087861134,-0.0025212572735655346,0.00526101134432699,0.9938899340348963
