JNU-Tangyin/eata/results/Batch4_SP500/Batch4_SP500-ALGN.csv
Date,Action,Predicted_Q25,Predicted_Q75,Actual_Q25,Actual_Q75,RL_Reward
2010-12-14,0,0.0,0.0007525098585684773,-0.0060420973845586945,0.012069678136635816,0.9882832804359857
2010-12-16,1,0.0018610396161920064,0.0021636024411824527,-0.0060420973845586945,0.010115885548626026,0.9896784080963573
2010-12-20,0,0.0,0.0,-0.006897767529291076,0.010115885548626026,0.9896455508014537
2010-12-22,0,0.0,0.0,-0.0114321315641383,0.007642004729888366,0.9888134146122848
2010-12-27,1,0.001959890359138659,0.0021779583006492366,-0.0114321315641383,0.007642004729888366,0.9893059652169305
2010-12-29,1,0.004806932247572275,0.004996922461148303,-0.0114321315641383,0.015929413229649338,0.987990524745374
2010-12-31,1,0.004062295062014637,0.004128810234981043,-0.0114321315641383,0.016897090216980316,0.9869155824543776
2011-01-04,1,0.00357437758960649,0.003616245193260035,-0.0049908351384455405,0.01949357282530711,0.9863062885601881
2011-01-06,1,0.002773720350731965,0.002957511424193361,-0.0043428760441667665,0.01949357282530711,0.9869309678737217
2011-01-10,1,0.004175821875013625,0.004184155805451186,-0.009264677157000864,0.016461077060034305,0.9858000379984763
2011-01-12,1,0.003632826105428243,0.003724536022144298,-0.012008712197047456,0.016461077060034305,0.9845047077631154
2011-01-14,1,0.0022671994678684494,0.002608277864341577,-0.012008712197047456,0.016461077060034305,0.9848251550329553
2011-01-19,1,0.001543693536643533,0.001983045703803133,-0.013581379572394674,0.02015811361812894,0.9839294393375871
2011-01-21,-1,-0.000837656160485411,-5.487469956300551e-05,-0.009315602780065688,0.02015811361812894,0.9845759749298335
2011-01-25,1,0.0006493710738556639,0.0011347167131378517,-0.022802005847306836,0.02015811361812894,0.9814873189773405
2011-01-27,1,0.002933740467255747,0.003135004183610405,-0.022802005847306836,0.015182522622701098,0.9814711347977456
2011-01-31,1,0.002106874116971535,0.0024250463127998435,-0.01735451469772565,0.015502204946541472,0.9817677877891724
2011-02-02,1,0.005037808533562214,0.005159229986692867,-0.01735451469772565,0.012697013554736925,0.9816150228903435
2011-02-04,1,0.00505607291928654,0.005242537378221163,-0.01735451469772565,0.012697013554736925,0.9816266665710358
2011-02-08,1,0.005384537624590001,0.005662049865828643,-0.012516026244257086,0.013522832415902394,0.9833618332420928
2011-02-10,1,0.005145859334588427,0.005497757794964462,-0.012516026244257086,0.013522832415902394,0.9828839052205044
2011-02-14,1,0.004564635231282062,0.004761295377613576,-0.01690647268123357,0.013522832415902394,0.9811794606526919
2011-02-16,1,0.004899375072074203,0.00516588285303173,-0.012516026244257086,0.012303765558290167,0.9826303252571149
2011-02-18,1,0.0016143445589564018,0.0017747727463283797,-0.010729665975911889,0.013522832415902394,0.9825479053577072
2011-02-23,0,0.0,0.0,-0.008138609676742292,0.013522832415902394,0.9850630787649128
2011-02-25,0,0.0,0.0,-0.008138609676742292,0.013798266179824627,0.9859420841236909
2011-03-01,0,0.0,0.0,-0.005905835507661985,0.013522832415902394,0.9875457937535919
2011-03-03,0,0.0,0.0,-0.008138609676742292,0.006433256976473318,0.9879586479985035
2011-03-07,1,0.0035747559117416615,0.003798977565820198,-0.0062031133624044065,0.011427199282308257,0.9865516149926127
2011-03-09,1,0.004601600425631667,0.005030700925623146,-0.0062031133624044065,0.009835255614904094,0.9867056643087739
2011-03-11,1,0.003779154608135894,0.004134864251054339,-0.005195715818209768,0.009835255614904094,0.9883497419527472
2011-03-15,1,0.0027709622806460213,0.0030080562475177774,-0.005195715818209768,0.009835255614904094,0.9892783660801494
2011-03-17,1,0.0008056386845472658,0.0009042261563045371,-0.005195715818209768,0.011621078404375478,0.9886352770946575
2011-03-21,0,-0.00015862192315573313,0.00019010389002119092,-0.005306413723965529,0.011621078404375478,0.9868651499600521
2011-03-23,-1,-0.0005782156313281805,-0.00022356707376811253,-0.003768752940647005,0.011621078404375478,0.9876581188641628
2011-03-25,-1,-0.0012232310433979293,-0.0008222427674258624,-0.003768752940647005,0.009835255614904094,0.9842436016651169
2011-03-29,-1,-0.0007635265790366173,-0.0004388259615934896,-0.005306413723965529,0.007346143586636411,0.9840013730126026
2011-03-31,-1,-0.0004861378260877623,-0.0003165401321597617,-0.005306413723965529,0.007346143586636411,0.9849133794449005
2011-04-04,1,0.00032052917716758465,0.0004428239943806064,-0.006164386854972713,0.005810889219096257,0.9852306989273175
2011-04-06,1,0.00044849659576787817,0.00052923331422478,-0.011725232275513137,0.004013685204356241,0.9832436420133859
2011-04-08,-1,-0.0002596236704576489,-6.078456397916223e-05,-0.011725232275513137,0.012469571347973607,0.9824731502593081
2011-04-12,-1,-0.0017208820039768327,-0.0012796405380844228,-0.011725232275513137,0.012469571347973607,0.9826054402738329
2011-04-14,-1,-0.000972846109341019,-0.0005902053256855019,-0.011725232275513137,0.005479989442672719,0.9836516784051895
2011-04-18,-1,-0.0018233530039861287,-0.0013534693773342029,-0.011471381340040616,0.005479989442672719,0.9854208357694682
2011-04-20,-1,-0.0018171623596201618,-0.0013413790730318772,-0.011471381340040616,0.013021329734432877,0.9838956866073724
2011-04-25,1,3.69418773908301e-07,0.0002736179525239576,-0.015651571890357523,0.012263245416016647,0.98693103807798
2011-04-27,-1,-0.001157557174301363,-0.0007317631478875625,-0.015655062915997803,0.012406227628642814,0.9864236277033888
2011-04-29,-1,-0.0017070927565055402,-0.0012519701450995446,-0.011471381340040616,0.013021329734432877,0.9847482470635623
2011-05-03,-1,-0.0011162685332019426,-0.000759115773590725,-0.012727009285476671,0.012406227628642814,0.9853957598764961
2011-05-05,-1,-0.0026902778004979384,-0.002204635844102444,-0.010394130444148305,0.012406227628642814,0.9864234624823383
2011-05-09,-1,-0.0013446531344119875,-0.0010185949925955902,-0.010394130444148305,0.00989129218189766,0.9875252213671005
2011-05-11,-1,-0.0008125594601505275,-0.0006277358946198028,-0.012727009285476671,0.012406227628642814,0.9858143485760817
2011-05-13,-1,-0.0008606549989299752,-0.000708204513771546,-0.012727009285476671,0.012406227628642814,0.9859604002146407
2011-05-17,-1,-4.996638726287337e-05,-2.6270419072271152e-05,-0.01331787659000205,0.012406227628642814,0.985098196428126
2011-05-19,1,0.0006655223222203654,0.0007043310426526256,-0.01331787659000205,0.00579875454750995,0.9857408625973362
2011-05-23,-1,-0.0012078121486341963,-0.0010030864078825951,-0.011691419779674906,0.00989129218189766,0.9855498169774884
2011-05-25,-1,-0.0017932463963630846,-0.0014711826114734224,-0.012694379423307135,0.00579875454750995,0.985368161256603
2011-05-27,1,0.00023261989431164963,0.0003275898017894287,-0.01589069867290177,0.001983286702106326,0.9862099328086419
2011-06-01,-1,-0.0002032480945374466,-6.921113921580025e-05,-0.01589069867290177,0.0045154243362714435,0.9859439329440273
2011-06-03,-1,-0.00026779169650446594,-0.00019136073648540818,-0.01254902714064148,0.009679546312747356,0.9861679721442985
2011-06-07,-1,-0.00033256572878154975,-0.0002571871255307947,-0.01254902714064148,0.010271603791973732,0.9859759472545364
2011-06-09,-1,-0.00010837098398276504,-6.988447050534916e-05,-0.010436905260937664,0.010271603791973732,0.986479670783773
2011-06-13,-1,-0.0002235144268206112,-0.00016373418613208865,-0.01254902714064148,0.010271603791973732,0.9858127947732706
2011-06-15,-1,-0.001503518843166445,-0.0012332667755399962,-0.01254902714064148,0.010271603791973732,0.9865098737328564
2011-06-17,-1,-0.002034798663685335,-0.001726149295000825,-0.016030699493601776,0.010271603791973732,0.9860506005584121
2011-06-21,1,0.0008295618324566154,0.000956256258229393,-0.016030699493601776,0.010271603791973732,0.9869009656200474
2011-06-23,-1,-0.0012197190474539745,-0.0010848915043528836,-0.005815753660304202,0.015074972915603252,0.9870809596822732
2011-06-27,-1,-0.0007509574812388014,-0.0007489788251976588,-0.011174717685485735,0.015074972915603252,0.9865915202764916
2011-06-29,-1,-0.00022406578771348815,-0.00017586785470990855,-0.013263846647512782,0.011964472214191238,0.9858928792045163
2011-07-01,1,2.0102602492055844e-05,6.530892026941997e-05,-0.013263846647512782,0.011149601129965013,0.9862977293264261
2011-07-06,-1,-2.7819861395827425e-05,-2.1048435175225806e-05,-0.018790075984222908,0.009106636830488183,0.9832727336032295
2011-07-08,1,0.0009370184860470806,0.0010604953047378296,-0.02139936246970512,0.005350643272798123,0.9809281259708238
2011-07-12,1,7.450708950047381e-05,0.00010504869192996268,-0.02716253717302994,0.009106636830488183,0.974409786548399
2011-07-14,-1,-0.00019203957394287285,-0.00010931767778307004,-0.031977156016164715,0.009106636830488183,0.9711936322357025
2011-07-18,0,0.0,0.0,-0.031977156016164715,0.015074972915603252,0.9706900309151256
2011-07-20,0,0.0,0.0,-0.040881640073267604,0.009106636830488183,0.9702510641899135
2011-07-22,0,0.0,0.0,-0.04218613829746751,0.0002264544591574258,0.9675034963672376
2011-07-26,0,0.0,0.0,-0.04218613829746751,0.00587550433534814,0.9658578845063799
2011-07-28,-1,-0.001790078999956197,-0.001618561807823769,-0.04098537726614423,0.007829997849693312,0.9665554865164916
2011-08-01,-1,-0.001278755322917877,-0.0011948866582089232,-0.04098537726614423,0.0304494404391098,0.962313933587238
2011-08-03,-1,-0.004042192644514275,-0.0035096407889939705,-0.030446664623895905,0.0304494404391098,0.963946768385431
2011-08-05,-1,-0.0069536920348863464,-0.006040157818282946,-0.030446664623895905,0.0304494404391098,0.964281221377786
2011-08-09,-1,-0.007969839565782452,-0.006934369664389949,-0.026532678990508745,0.0304494404391098,0.9685990703027736
2011-08-11,-1,-0.006506691177650885,-0.005691339036454369,-0.02907227632947549,0.01654360770953099,0.9702542073786385
2011-08-15,0,0.0,0.0,-0.035757494570433083,0.02060641491381443,0.9666568205028389
2011-08-17,-1,-0.0057954093461710255,-0.005093189879743542,-0.02907227632947549,0.02060641491381443,0.9684498855032926
2011-08-19,0,0.0,0.0,-0.027760723859051845,0.02060641491381443,0.9701090476824517
2011-08-23,-1,-0.006687593428355985,-0.005858442680379591,-0.031049175807207258,0.011141750025308768,0.972334212478969
2011-08-25,0,0.0,0.0,-0.03548570865608034,0.011141750025308768,0.9704818240936666
2011-08-29,0,0.0,0.0,-0.03548570865608034,0.010667010583664595,0.9717741334460168
2011-08-31,0,0.0,0.0,-0.03548570865608034,0.010667010583664595,0.9716235984648097
2011-09-02,0,0.0,0.0,-0.03594838121071052,0.010667010583664595,0.9703104716798084
2011-09-07,0,0.0,0.0,-0.03594838121071052,0.010667010583664595,0.9687493224921289
2011-09-09,0,0.0,0.0,-0.035255161066757405,0.011579352389432813,0.9689816989701172
2011-09-13,-1,-0.002429835066145916,-0.0022099157364488496,-0.03171078998026389,0.011579352389432813,0.970320066323465
2011-09-15,-1,-0.0010908394367085711,-0.001071473849441814,-0.03171078998026389,0.011579352389432813,0.9696420575409912
2011-09-19,-1,-0.002758396699644722,-0.0025615082524106693,-0.03396810939937528,0.011579352389432813,0.9704064523020428
2011-09-21,-1,-0.005006269827158103,-0.004526122589083653,-0.03132016930127292,0.018171754300246538,0.9707090471522724
2011-09-23,-1,-0.00594320669953706,-0.005383052454175341,-0.02425873577177555,0.03771996483211507,0.9683896941352118
2011-09-27,-1,-0.004047039034627156,-0.0036464049390922937,-0.027181893440132214,0.03739829858160563,0.9691732767964188
2011-09-29,0,0.0,0.0,-0.023130123753518802,0.03739829858160563,0.9686871325651575
2011-10-03,0,0.0,0.0,-0.018771695051964576,0.041892176261446964,0.9672522616232351
2011-10-05,0,0.0,0.0,-0.023130123753518802,0.03739829858160563,0.968726638134376
2011-10-07,-1,-0.0011759319749535776,-0.0011305854252770548,-0.018771695051964576,0.03290104576665316,0.9710978956078768
2011-10-11,1,0.0009067264351391628,0.0012065942513322864,-0.018771695051964576,0.026100358351202738,0.9735391050925023
2011-10-13,-1,-0.000108093171594536,-3.660500942883268e-05,-0.019746080941416798,0.026100358351202738,0.9723694678231414
2011-10-17,-1,-0.0012538441285307378,-0.0011764563112548444,-0.016758502392449068,0.03290104576665316,0.9714640666645104
2011-10-19,1,0.0004998551158855007,0.000777402215196863,-0.019746080941416798,0.026100358351202738,0.9728493565254526
2011-10-21,1,0.0029844339184772065,0.0035797721007431492,-0.019746080941416798,0.01613233933658647,0.9761367298868903
2011-10-25,1,0.0031910171007366343,0.003763612686368269,-0.01042697303261163,0.01353217040067382,0.9786830286523319
2011-10-27,1,0.0036200628312357533,0.004245122622348728,-0.01769078074451911,0.010944404329274671,0.9784502776962632
2011-10-31,1,0.0055043470034635954,0.006367964658991247,-0.009728346412159222,0.010944404329274671,0.9802064251544814
2011-11-02,1,0.004606534697246907,0.005362439415192715,-0.005269071032636732,0.011585198325836286,0.98022379976055
2011-11-04,1,0.005356030426658813,0.006197694226321754,-0.005984917091681592,0.005440902152028108,0.9800556728291326
2011-11-08,1,0.005419739123347872,0.006231294841057963,-0.005984917091681592,0.008058658010703391,0.9805866562452434
2011-11-10,1,0.004870212771934161,0.005672505842698714,-0.005984917091681592,0.009846029429663493,0.9800482625848653
2011-11-14,1,0.0058168499761287185,0.006669807557039623,-0.017124889630728897,0.008058658010703391,0.9781398339829738
2011-11-16,1,0.004161106811696483,0.004726309155746229,-0.017124889630728897,0.009846029429663493,0.9785569306446417
2011-11-18,1,0.004672775464876244,0.005354887326833287,-0.017124889630728897,0.013935235242947666,0.9780149138189288
2011-11-22,1,0.0046519908112290405,0.0053756435482196965,-0.017124889630728897,0.01618911966013824,0.9758779389932272
2011-11-25,1,0.0033892691237305305,0.003964216519197892,-0.00906687296289505,0.01618911966013824,0.9779944598742035
2011-11-29,1,0.006338807205035518,0.007352077695658276,-0.016805278022953212,0.013935235242947666,0.9788120997521759
2011-12-01,1,0.00807880175889894,0.009282122066337736,-0.016805278022953212,0.01347111580761887,0.9808512303654222
2011-12-05,1,0.007917111783874184,0.009093777014671593,-0.016805278022953212,0.013935235242947666,0.9812420904081187
2011-12-07,1,0.00829008745261435,0.009486087120384012,-0.02087023624143186,0.01347111580761887,0.9792958719937028
2011-12-09,1,0.008936835649525902,0.0102296557833624,-0.02190528881933564,0.01347111580761887,0.978679227082704
2011-12-13,1,0.007478268387803693,0.008626039933563577,-0.012660738990942187,0.019258290732208028,0.9807290226290205
2011-12-15,1,0.006628694192600638,0.007583489988499396,-0.012660738990942187,0.021048796582411464,0.9800326723263332
2011-12-19,1,0.006035022282123645,0.006824335271388746,-0.012660738990942187,0.021048796582411464,0.9797971093359369
2011-12-21,1,0.007041456336118934,0.00796013680719863,-0.009777831269474393,0.018415985939907113,0.9817162914522946
2011-12-23,1,0.005584097219090413,0.006146424348038217,-0.009777831269474393,0.018415985939907113,0.9814246001474911
2011-12-28,1,0.003454686318282642,0.003595636556901409,-0.008205571388673567,0.020416989884465546,0.9831876873705219
2011-12-30,1,0.003024137961462155,0.0031533537595482613,-0.008205571388673567,0.020416989884465546,0.9802777879846505
2012-01-04,0,0.0,0.0,-0.008205571388673567,0.024679840997501014,0.9794773715485562
2012-01-06,0,0.0,0.0,-0.0052763805717188,0.026800135769774597,0.9787330640794143
2012-01-10,0,0.0,0.0,-0.004516266215334838,0.026800135769774597,0.9799753070313406
2012-01-12,0,0.0,0.0,-0.0052763805717188,0.019626334078270295,0.9808936335912919
2012-01-17,0,0.0,0.0,-0.004516266215334838,0.01721998915435684,0.9829518332212039
2012-01-19,1,0.005327267363066022,0.005972749980103177,-0.004220679699084077,0.018693889228118443,0.9827090465177158
2012-01-23,0,0.0,0.0,-0.004220679699084077,0.018693889228118443,0.9820604512968046
2012-01-25,1,0.004597422959286244,0.0050697382677318496,-0.004780105143495968,0.018693889228118443,0.9824629083732479
2012-01-27,1,0.0041459913573364555,0.00440537172765414,-0.004780105143495968,0.017377598010825356,0.98268225158334
2012-01-31,1,0.0026825277117519227,0.0028302651378467832,-0.005912070466045451,0.017377598010825356,0.9836932712322165
2012-02-02,1,0.002607043955088368,0.0026401853179533192,-0.0082384727683765,0.017377598010825356,0.984371568101006
2012-02-06,1,0.003890791804855379,0.0040588008984092675,-0.011889073210698374,0.008095157552878379,0.9844850148595922
2012-02-08,1,0.005153755972010526,0.005496172805311798,-0.011889073210698374,0.015959840354884278,0.9844929465807687
2012-02-10,1,0.0029758799864832734,0.003000756476041029,-0.011889073210698374,0.015959840354884278,0.9858648859045891
2012-02-14,1,0.0018554442138103264,0.0021359399734096622,-0.011889073210698374,0.017121754930783134,0.9843951359639763
2012-02-16,1,0.0013387186461778073,0.001747913379659567,-0.011889073210698374,0.013639223355606973,0.9851835855398882
2012-02-21,1,0.0019646650753587904,0.002210514493172818,-0.01232172054675934,0.013639223355606973,0.9845976807100398
2012-02-23,1,0.0007268151664936633,0.0011582103435956905,-0.013039239194775221,0.015221594985544503,0.9836959635446638
2012-02-27,0,-0.0007596172215730162,4.777944682976022e-07,-0.013039239194775221,0.0179902671831023,0.9812831569170745
2012-02-29,-1,-0.0007112567479067751,-0.00014023184530590708,-0.009692165457826703,0.0179902671831023,0.9833421697182402
2012-03-02,0,-0.0005215762414078359,1.9558562060972883e-05,-0.01232172054675934,0.015221594985544503,0.983061678563092
2012-03-06,0,0.0,0.0,-0.009692165457826703,0.018836294919271964,0.9818925645948948
2012-03-08,0,-0.0005339544843484883,3.474896026735134e-05,-0.01232172054675934,0.013190404984927386,0.9825979710155999
2012-03-12,-1,-0.002347530766243584,-0.0015100362552536275,-0.013952283346011288,0.013190404984927386,0.981712962935649
2012-03-14,-1,-0.0007189095664108774,-0.0001016594673391455,-0.013952283346011288,0.01506742975996129,0.9820199406091008
2012-03-16,1,0.0012200386276884547,0.0014701075666877336,-0.018198514584193543,0.01506742975996129,0.9813908237283074
2012-03-20,1,2.7316292793252636e-05,0.0003908678357326667,-0.018198514584193543,0.016978278298373867,0.9801522226973209
2012-03-22,0,0.0,0.0,-0.010281609498327961,0.016978278298373867,0.9812313476777498
2012-03-26,0,0.0,0.0,-0.017721883723209368,0.016003028875136664,0.9793803154890702
2012-03-28,0,0.0,0.0,-0.017721883723209368,0.016003028875136664,0.979263960716161
2012-03-30,0,0.0,0.0,-0.013369801142043558,0.016172501549461052,0.979773342942377
2012-04-03,0,0.0,0.0,-0.013369801142043558,0.016003028875136664,0.9807442574642423
2012-04-05,0,0.0,0.0,-0.013369801142043558,0.016003028875136664,0.9810959204719318
2012-04-10,0,0.0,0.0,-0.006990868948001001,0.016003028875136664,0.9831786249895024
2012-04-12,0,0.0,0.0,-0.008331732154248749,0.01078505862849483,0.9843833190165063
2012-04-16,-1,-9.242833145634677e-05,-2.9955913353224616e-05,-0.008331732154248749,0.01078505862849483,0.9846863304922808
2012-04-18,0,0.0,0.0,-0.010045246939313798,0.005429085945296,0.985704389210831
2012-04-20,0,0.0,0.0,-0.011624613781939028,0.005429085945296,0.984468102208994
2012-04-24,1,0.0013444744238052461,0.0014032234991835984,-0.010830533294373345,0.005429085945296,0.9873881744897474
2012-04-26,1,0.001490371875882455,0.0016596883903662392,-0.010045246939313798,0.009294427983549462,0.9876646228783136
2012-04-30,0,0.0,0.0,-0.010045246939313798,0.010407881044354443,0.9880023558936983
2012-05-02,1,0.00048177842590946436,0.0005213622061361302,-0.010830533294373345,0.005100418152259208,0.9874110050423323
2012-05-04,1,0.0028614876742378012,0.0032777117170403177,-0.013253155681836359,0.005100418152259208,0.9842814086765667
2012-05-08,0,0.0,0.0,-0.013253155681836359,0.011310866720555158,0.9817700504744752
2012-05-10,0,0.0,0.0,-0.0187866558468066,0.014107096650423947,0.9800313240941695
2012-05-14,0,0.0,0.0,-0.020107426634378235,0.014107096650423947,0.9793798643522686
2012-05-16,0,0.0,0.0,-0.020107426634378235,0.014107096650423947,0.9799320411905977
2012-05-18,0,0.0,0.0,-0.009326239820326765,0.018549585019002564,0.9786077357796663
2012-05-22,0,0.0,0.0,-0.012608087098896274,0.018549585019002564,0.9784082695274067
2012-05-24,0,0.0,0.0,-0.02171533586689947,0.018549585019002564,0.976657580201289
2012-05-29,0,0.0,0.0,-0.024385541623852855,0.018549585019002564,0.9758347190926164
2012-05-31,0,0.0,0.0,-0.02171533586689947,0.018549585019002564,0.9765837169635408
2012-06-04,1,0.002477802075268833,0.003329850749049102,-0.011276331484993272,0.038558140514834104,0.9763809556820915
2012-06-06,-1,-0.000221687883210016,-6.692348585818814e-05,-0.011276331484993272,0.018549585019002564,0.9789018319841973
2012-06-08,-1,-0.0004489105658167955,-0.0002751139163140679,-0.011276331484993272,0.018549585019002564,0.9794860833950042
2012-06-12,-1,-0.0005871530710049878,-0.0004131156722755783,-0.017096694335459583,0.018549585019002564,0.9783732461831688
2012-06-14,-1,-0.00019952536323407735,-5.311825272000497e-05,-0.021987332528788338,0.015376565181712624,0.9775649265145256
2012-06-18,1,0.0012415048670506193,0.0012452803455592167,-0.022211666308798558,0.005116299020024661,0.9790493829943623
2012-06-20,0,0.0,0.0,-0.022211666308798558,0.005116299020024661,0.9807195557747552
2012-06-22,0,0.0,0.0,-0.021253881900757207,0.013250713835552387,0.9784409869533557
2012-06-26,1,0.000778488206076263,0.0008796119110731982,-0.017096694335459583,0.016454019047138467,0.9779829203164943
2012-06-28,1,0.0007180850200243782,0.0007711119389478118,-0.0169243570620879,0.02437634860335312,0.9767010125265922
2012-07-02,1,0.003979597487822063,0.00442045091366805,-0.021253881900757207,0.015048988234058782,0.9779150041030041
2012-07-05,1,0.002757370779416485,0.0029678955021827666,-0.021253881900757207,0.015048988234058782,0.9781467417609991
2012-07-09,1,0.0027757258551265973,0.003012503698074623,-0.01699913498875797,0.021712186034575934,0.9786640848286332
2012-07-11,0,0.0,0.0,-0.01479781208037511,0.022394636956110645,0.9796619922060956
2012-07-13,0,0.0,0.0,-0.012253489310157373,0.022394636956110645,0.9809605100278374
2012-07-17,-1,-0.0022889457454680112,-0.0019664361832710405,-0.011516644923471814,0.022394636956110645,0.9812315111824123
2012-07-19,-1,-0.0007327610751370879,-0.00065148825033665,-0.011516644923471814,0.021712186034575934,0.9825553514778502
2012-07-23,-1,-0.0010352862381465488,-0.0008103436319122787,-0.011516644923471814,0.013269251221275685,0.9856589210594177
2012-07-25,0,-3.6592161406086526e-06,7.77347697018202e-05,-0.011170402958123177,0.007690675833060002,0.9873518496253301
2012-07-27,1,0.0005978688066430591,0.0006410954335708454,-0.011516644923471814,0.0045079426669238426,0.9866814532917914
2012-07-31,-1,-0.0004788207842865314,-0.0003866979878890991,-0.009254955998516326,0.007690675833060002,0.9881486038633096
2012-08-02,-1,-0.0009242480152185811,-0.0007360813981925431,-0.008176421477746082,0.010771165150873487,0.9879226016958153
2012-08-06,-1,-0.0003759238515227037,-0.0002905153857701245,-0.008176421477746082,0.010771165150873487,0.9870544971984715
2012-08-08,1,0.00011210960478122572,0.00012349490033702792,-0.005546594230481133,0.011974325315066581,0.9865017138341625
2012-08-10,-1,-0.0005149573738582312,-0.0003742696208034483,-0.0056584251509210585,0.013486105751349155,0.9857509327034406
2012-08-14,-1,-0.0009898360541960212,-0.0007726414254118303,-0.0027730384580960605,0.01481909852859981,0.9851421637834329
2012-08-16,1,0.0005769169995672683,0.0007051443873298149,-0.0056584251509210585,0.01547807448868618,0.9836876150706
2012-08-20,-1,-0.0001110893927173479,-0.0001035591963670109,-0.0056584251509210585,0.01547807448868618,0.9839454688006255
2012-08-22,-1,-0.0008466978713121472,-0.0007249987915952795,-0.011510024417173116,0.01547807448868618,0.983280504597626
2012-08-24,0,0.0,0.0,-0.011510024417173116,0.01669119623855623,0.983628280901395
2012-08-28,0,0.0,0.0,-0.012006760625822139,0.015173782872438174,0.984101887414954
2012-08-30,0,0.0,0.0,-0.013270274592725492,0.01669119623855623,0.9830123591720344
2012-09-04,0,0.0,0.0,-0.013270274592725492,0.01669119623855623,0.9833848176307823
2012-09-06,0,0.0,0.0,-0.013270274592725492,0.01669119623855623,0.9853278916421209
2012-09-10,0,0.0,0.0,-0.0135156652643941,0.01669119623855623,0.9855936294854055
2012-09-12,1,0.007051455315158575,0.007890934920763877,-0.014321966066994669,0.007442492323644277,0.982079489339288
2012-09-14,1,0.006386399936566908,0.007032018450209645,-0.0135156652643941,0.005413851759478438,0.98349173290091
2012-09-18,1,0.004971887655806048,0.0053932754212556566,-0.013270274592725492,0.01188332223184782,0.9838987570236536
2012-09-20,0,0.0,0.0,-0.014065059407396554,0.01188332223184782,0.9776061036880968
2012-09-24,0,0.0,0.0,-0.016413381373644904,0.008615318902184243,0.9789504065657548
2012-09-26,0,0.0,0.0,-0.018191642308393315,0.008615318902184243,0.9784876887276444
2012-09-28,0,0.0,0.0,-0.018191642308393315,0.005277678014553936,0.9789297849663652
2012-10-02,0,0.0,0.0,-0.018191642308393315,0.0013336047703036774,0.9793145814339488
2012-10-04,0,0.0,0.0,-0.018191642308393315,0.001136581559490323,0.9791229511029276
2012-10-08,0,0.0,0.0,-0.016926322597792483,0.0010053477098021972,0.979166998026945
2012-10-10,0,0.0,0.0,-0.015488535142083523,0.008572595456559945,0.9794493345178796
2012-10-12,0,0.0,0.0,-0.015488535142083523,0.008572595456559945,0.9789938603578235
2012-10-16,0,0.0,0.0,-0.016926322597792483,-0.0028100674490736098,0.9793375476646343
2012-10-18,-1,-0.002426678590268987,-0.0014159490867744597,-0.014656685608426348,0.011239168748492422,0.9864659906421072
2012-10-22,0,0.0,0.0,-0.013634862518603491,0.011239168748492422,0.9860197690315925
2012-10-24,0,0.0,0.0,-0.013634862518603491,0.0188225581101374,0.985550911999991
2012-10-26,0,0.0,0.0,-0.010867810293552915,0.0188225581101374,0.9866476173576647
2012-11-01,0,0.0,0.0,-0.010867810293552915,0.020327496746154382,0.9864593357014971
2012-11-05,0,0.0,0.0,-0.012301606997324079,0.020327496746154382,0.9861613045811088
2012-11-07,0,0.0,0.0,-0.013682732875648116,0.020327496746154382,0.9854859305292373
2012-11-09,0,0.0,0.0,-0.012711239627088332,0.020719540292510552,0.9855949539590297
2012-11-13,-1,-0.002053939254717644,-0.00162043758414589,-0.012711239627088332,0.020702315771008926,0.9863280304482884
2012-11-15,-1,-0.00439602099722946,-0.003619563860549361,-0.012401892629175217,0.020702315771008926,0.9873944023474575
2012-11-19,-1,-0.0025180893864008317,-0.0019419683834466302,-0.012401892629175217,0.009861057272525179,0.9885234478466491
2012-11-21,-1,-0.003062670491091677,-0.002393093719418292,-0.012401892629175217,0.019953637218518616,0.9870846845779144
2012-11-26,-1,-0.0005731889744796943,-0.0003922013630158636,-0.012401892629175217,0.017393672177114416,0.9873278753361551
2012-11-28,-1,-0.000981134778537655,-0.0007269325287251387,-0.013618373265660708,0.017393672177114416,0.9864358736477138
2012-11-30,-1,-0.0002719401615438595,-8.942663703754997e-05,-0.014238467286069615,0.017393672177114416,0.985717657595327
2012-12-04,0,0.0,0.0,-0.013618373265660708,0.02274516927245091,0.9846904820062887
2012-12-06,0,0.0,0.0,-0.006958538076453357,0.02274516927245091,0.9854864562358064
2012-12-10,0,0.0,0.0,-0.013618373265660708,0.02055922834074196,0.9842569010610662
2012-12-12,0,0.0,0.0,-0.01517282606995924,0.017393672177114416,0.9828752060066317
2012-12-14,-1,-0.002526534458523713,-0.0020560847730113144,-0.01517282606995924,0.020785308475513905,0.9815976181164405
2012-12-18,-1,-0.0005387815442827131,-0.00034760281053720476,-0.01517282606995924,0.018822625993539947,0.9816589274370761
2012-12-20,1,0.0023330853194306013,0.002613128551037723,-0.01517282606995924,0.019701993060624225,0.9817589654301153
2012-12-24,0,0.0,0.0,-0.01517282606995924,0.023847574923273412,0.9807942033831762
2012-12-27,0,0.0,0.0,-0.013435675144933473,0.025576851983109404,0.9806871538301063
2012-12-31,0,0.0,0.0,-0.012694763846140556,0.02430435624358938,0.9814922777516312
2013-01-03,0,0.0,0.0,-0.012694763846140556,0.020582939627446867,0.9796611678724054
2013-01-07,0,0.0,0.0,-0.012253288654677235,0.020582939627446867,0.9798824921108816
2013-01-09,0,0.0,0.0,-0.004208097698761655,0.020582939627446867,0.9825447533770553
2013-01-11,1,0.0018218040046894452,0.002072835694906486,-0.0003199642683165359,0.020582939627446867,0.9847888313326364
2013-01-15,0,0.0,0.0,-0.0003199642683165359,0.017649790851048258,0.9855044684820748
2013-01-17,0,0.0,0.0,-0.0003199642683165359,0.017259320390504828,0.986493534329269
2013-01-22,0,0.0,0.0,-0.0023857704589047824,0.015703672034313356,0.986720460897629
2013-01-24,0,0.0,0.0,-0.0023857704589047824,0.015022135279826243,0.987399234730202
2013-01-28,0,0.0,0.0,-0.005056177018628974,0.010615251161692537,0.987491379133228
2013-01-30,0,0.0,0.0,-0.005056177018628974,0.010256052954097723,0.9879571016450298
2013-02-01,0,0.0,0.0,-0.006395332653114808,0.006160677893998991,0.9915948567916314
2013-02-05,0,0.0,0.0,-0.006395332653114808,0.010256052954097723,0.9899530134237184
2013-02-07,0,0.0,0.0,-0.006395332653114808,0.013885771045401507,0.988784029500177
2013-02-11,0,0.0,0.0,-0.008597680793787268,0.009855192974731366,0.9887916224600904
2013-02-13,0,0.0,0.0,-0.006816137189464314,0.01273382920610221,0.9884780179441753
2013-02-15,0,0.0,0.0,-0.009916341677014986,0.01273382920610221,0.9876596165427528
2013-02-20,0,0.0,0.0,-0.00809734546443545,0.01273382920610221,0.9885670149339275
2013-02-22,0,0.0,0.0,-0.00809734546443545,0.01273382920610221,0.9880215764557149
2013-02-26,0,0.0,0.0,-0.005250378143471848,0.014500061608481288,0.9878543772593398
2013-02-28,1,0.0027542761442030813,0.0028432700075106225,-0.007715646209057439,0.013707317976776805,0.9881945432638944
2013-03-04,1,0.003403671891925911,0.0035763443961015313,-0.0104998963552278,0.013707317976776805,0.9865612547107574
2013-03-06,1,0.004566480950523751,0.004950620128051412,-0.017120933466168813,0.010317710053592737,0.986342277116532
2013-03-08,0,0.0,0.0,-0.017120933466168813,0.010317710053592737,0.9856999526066288
2013-03-12,0,0.0,0.0,-0.015323522662574694,0.013794829159030795,0.9854265278625948
2013-03-14,0,0.0,0.0,-0.015323522662574694,0.011642957883756147,0.9856598674233241
2013-03-18,0,0.0,0.0,-0.015323522662574694,0.018011057115030198,0.9837660549501618
2013-03-20,0,0.0,0.0,-0.018919941693939575,0.018011057115030198,0.9817802207981591
2013-03-22,0,0.0,0.0,-0.018919941693939575,0.01813560945067618,0.9805707979762572
2013-03-26,1,0.003220127971527553,0.003269831540400813,-0.018919941693939575,0.016347405067142162,0.9817665735077875
2013-03-28,1,0.0029946868283454876,0.0030163508027329037,-0.018919941693939575,0.016347405067142162,0.9822708705565836
2013-04-02,1,0.00036094476667570315,0.0006789018204456234,-0.005933248807730555,0.017888845920382333,0.9836887317993317
2013-04-04,-1,-0.001091967755698029,-0.0005683929776065138,-0.009290411460320573,0.016465678338003463,0.9845930656861891
2013-04-08,-1,-0.0007032414423338007,-0.00022601263838762905,-0.004196704293749711,0.016465678338003463,0.9833194000693017
2013-04-10,1,0.0009729421270357477,0.0011112046374579917,-0.004196704293749711,0.016465678338003463,0.9829944030966359
2013-04-12,0,-0.00010928595551500434,0.00023011761096419152,-0.006717908186797059,0.018490429263260087,0.981372379525382
2013-04-16,0,-0.0002185574598026381,3.81350780050137e-05,-0.006717908186797059,0.016465678338003463,0.9832258816207767
2013-04-18,-1,-0.002301888185486646,-0.001805441452903684,-0.0006478144921225394,0.017606137972146267,0.9839447444060604
2013-04-22,1,0.0007873843182804872,0.0009175946333037315,-0.0006478144921225394,0.017606137972146267,0.9869071104094306
2013-04-24,1,0.0003998555666527044,0.0005955976720824083,-0.002841524488471622,0.017606137972146267,0.9853296527751662
2013-04-26,1,0.0011763916572853565,0.0012367002089497263,-0.00759296245136551,0.017606137972146267,0.9849859523043785
2013-04-30,1,0.0012891368101611558,0.0014110076679542925,-0.007887495728586148,0.011491276576810795,0.9849801297939903
2013-05-02,1,0.00019630499685911675,0.0006725810446954114,-0.007823490697060545,0.011491276576810795,0.9854010716016183
2013-05-06,1,0.003448287951825995,0.0035797070489953613,-0.009405567269850168,0.011491276576810795,0.9854234095698399
2013-05-08,1,0.004940116174519364,0.005304458848513664,-0.012205948623171523,0.006759586101796616,0.9856913089603316
2013-05-10,1,0.005514735956304416,0.005904199083758129,-0.012205948623171523,0.0062257605424158894,0.9868751901438186
2013-05-14,1,0.005453454092284632,0.005851075930197733,-0.013360368486007516,0.0062257605424158894,0.9861924430237823
2013-05-16,1,0.006622160601608971,0.007267625503984772,-0.013360368486007516,0.007922349184759012,0.9861600405531034
2013-05-20,1,0.007222091498495147,0.007855295151435135,-0.013360368486007516,0.009666681823649168,0.9856520423978015
2013-05-22,1,0.005618989896913994,0.006096185648461193,-0.013360368486007516,0.008065205145506989,0.9860427650591803
2013-05-24,1,0.005013719473958447,0.005409905981274525,-0.013360368486007516,0.010108081973587646,0.9869269843982058
2013-05-29,1,0.0052551615691055886,0.005778058622079216,-0.0123976056636537,0.010222182977442444,0.987449678721913
2013-05-31,1,0.005206213370279662,0.00555860374606537,-0.011032072372044194,0.010485206954057764,0.9870619538450482
2013-06-04,1,0.003540599836569888,0.00369717996771843,-0.010789846801985848,0.010485206954057764,0.9881258598087429
2013-06-06,1,0.0015382364721859302,0.001725779801365839,-0.0059011252209440115,0.012938994251158218,0.9879826400019511
2013-06-10,1,0.0019107704019414955,0.0020206894104092574,-0.005619559002497515,0.012938994251158218,0.9880441780921017
2013-06-12,1,0.00048680675520001884,0.0007623478981988043,9.778716970290971e-05,0.012938994251158218,0.9887820801476926
2013-06-14,1,0.001941360966627322,0.00197719415546638,-0.004372520170604667,0.0121969102714478,0.9891124082420146
2013-06-18,1,0.0032412217642424548,0.0034040420207213,-0.006323200131229032,0.0121969102714478,0.9892452440300292
2013-06-20,1,0.003234520355654729,0.00341271586362445,-0.0027338776823855977,0.01679872193895353,0.985959968097343
2013-06-24,1,0.0036414354516581403,0.003906509773890319,-0.001269040324834046,0.01884611799016615,0.9855317915502408
2013-06-26,1,0.004133303667727474,0.004268767006116863,-0.001269040324834046,0.01884611799016615,0.9854598300705808
2013-06-28,1,0.005485759783255546,0.00582086833327591,-0.010381755227301583,0.01679872193895353,0.9848469785787675
2013-07-02,1,0.006091194245554304,0.006445677606538883,-0.006204780900888743,0.014460562209482239,0.9859207907218341
2013-07-05,1,0.007092843657775367,0.007624636151194967,-0.008876423059190355,0.015113158418917996,0.9852115587184679
2013-07-09,1,0.006402401516004707,0.006866271753704263,-0.008876423059190355,0.018619376677425456,0.9847256088456042
2013-07-11,1,0.00685446916132341,0.007281562546357779,-0.009677724652433366,0.018619376677425456,0.9838951914156331
2013-07-15,1,0.004952212700145817,0.0050899511648471755,-0.008876423059190355,0.018619376677425456,0.9846433602630835
2013-07-17,1,0.004978722891477069,0.005125936749489475,-0.008656557334617338,0.015067447122306213,0.985432022763282
2013-07-19,1,0.004648862510787017,0.004668245693265318,-0.008931042531827367,0.010846293296386773,0.9878595096144293
2013-07-23,1,0.004985732111692944,0.005049751820281109,-0.008931042531827367,0.010846293296386773,0.9880368945043521
2013-07-25,1,0.004052018623549486,0.004144985037478963,-0.008656557334617338,0.01270013960327757,0.9883938466160566
2013-07-29,1,0.002481201749869443,0.002490579849528378,-0.004221102992816199,0.01270013960327757,0.990399161608482
2013-07-31,1,0.0033979408201314657,0.003569045743919093,-0.008656557334617338,0.008644492230794587,0.9891252902289256
2013-08-02,1,0.0033928000943758826,0.0035304562742016557,-0.006288350381004523,0.008644492230794587,0.9896019039211035
2013-08-06,1,0.0037538867078410264,0.003954728733619293,-0.006288350381004523,0.008991352624167446,0.9896654055819338
2013-08-08,1,0.0028179533021187864,0.00282593866930612,-0.0048456388855312536,0.008991352624167446,0.9903498437206848
2013-08-12,1,0.003375711672766792,0.003430386005841582,-0.0048456388855312536,0.009741840822764872,0.9890261662506429
2013-08-14,1,0.002876894971729817,0.0030056563209281267,-0.0048456388855312536,0.011480323819764283,0.9890006445025554
2013-08-16,1,0.0023834363631922676,0.0025676391639429747,-0.005755280105447137,0.011480323819764283,0.9897392319031441
2013-08-20,1,0.002473345708338484,0.0026672434517161507,-0.005755280105447137,0.011480323819764283,0.9888524940148115
2013-08-22,1,0.0016473727726928654,0.00204292415268549,-0.006986368176509139,0.008467758863411227,0.9890226373735663
2013-08-26,1,0.0008713064844484406,0.0013217583841272783,-0.006986368176509139,0.008467758863411227,0.9890596714498509
2013-08-28,0,-0.00023218146541845023,0.0003501113453087939,-0.0035765216380661234,0.011134245332436102,0.9898520179812347
2013-08-30,1,0.000575060746518115,0.0010789434196383754,-0.003766252220109797,0.008467758863411227,0.9903022864933876
2013-09-04,1,0.0012724181317497695,0.0016518230128925427,-0.006324471851578158,0.007689641728691255,0.9898322223353723
2013-09-06,1,0.00023047535356631095,0.0007952729970922769,-0.007990067940632301,0.007689641728691255,0.9869442437896415
2013-09-10,1,0.0013012745610518795,0.0018441135093665388,-0.011977654360360575,0.006209382768948446,0.9868431586943581
2013-09-12,1,0.002598285236022598,0.0028011236335106593,-0.013273207832535426,0.0019858452469048602,0.9852145657953911
2013-09-16,1,0.0009981236505284484,0.001374932913032046,-0.013273207832535426,0.006209382768948446,0.9861069354538261
2013-09-18,1,0.0027205887934895045,0.0028965763225682643,-0.013273207832535426,0.0035774639878942372,0.9860119276771278
2013-09-20,1,0.0027557011917485243,0.0030035405874910054,-0.012023410278804058,0.014565656045735752,0.9799700242033087
2013-09-24,1,0.0024524270419410154,0.002814971429454581,-0.01788851894951169,0.014565656045735752,0.9789416559440752
2013-09-26,1,0.0037733540607027046,0.0038511247761585463,-0.01788851894951169,0.015243959731029424,0.9778132098178562
2013-09-30,1,0.004240114516984164,0.004298175673840183,-0.01788851894951169,0.015243959731029424,0.9774862413049796
2013-10-02,1,0.005619889434405872,0.005930293941953761,-0.01788851894951169,0.015243959731029424,0.9771845119905633
2013-10-04,1,0.0035650656969788298,0.003573450138190961,-0.011852014969460097,0.015243959731029424,0.9806963054036967
2013-10-08,1,0.002519487310416447,0.002586039826703572,-0.010145596660056542,0.01726093743154536,0.9808148731239362
2013-10-10,1,0.0016249626199097032,0.0017752059972589427,-0.008562079484596448,0.01726093743154536,0.9819118593895787
2013-10-14,1,0.0014920632681873617,0.0016784504715664414,-0.008562079484596448,0.017688664592457732,0.9813223903342073
2013-10-16,1,0.0011767331502043677,0.0014335114985007888,-0.008041650750565198,0.01642476738608163,0.9823280593584248
2013-10-18,1,0.009362158571184723,0.010080941748927095,-0.008562079484596448,0.009162822853959718,0.9835989351927157
2013-10-22,1,0.0080771088730736,0.008593221332738191,-0.011643245029904147,0.009162822853959718,0.9826515349483639
2013-10-24,1,0.007619503484799556,0.008079925088055202,-0.008562079484596448,0.009162822853959718,0.9835007968216976
2013-10-28,1,0.006487373460232704,0.006753691545197219,-0.00867465527882206,0.009162822853959718,0.9840912070330396
2013-10-30,1,0.006646070138634934,0.006916464655770772,-0.00867465527882206,0.009162822853959718,0.9850198251378339
2013-11-01,1,0.0031839838468738146,0.0033953366273920026,-0.00867465527882206,0.009788933017322596,0.9853149589179229
2013-11-05,1,0.006401201369537724,0.00659531821628448,-0.008399415771427405,0.007975669228167767,0.9864431771684113
2013-11-07,1,0.005145516101187254,0.005274813714232731,-0.0040032191540198235,0.009788933017322596,0.9865514737478505
2013-11-11,1,0.0061271802762202805,0.006300412555012647,-0.009700591334923039,0.0070496394469891765,0.9863198592328394
2013-11-13,1,0.004355382893179965,0.004417206862054859,-0.011840925523391846,0.008297966609351804,0.9859741593516541
2013-11-15,1,0.00518060815335498,0.005182741492499435,-0.009700591334923039,0.008297966609351804,0.9884385367242856
2013-11-19,1,0.004055222978014091,0.00412820768145453,-0.0021924812476976515,0.010298905522976187,0.9906265054837671
2013-11-21,1,0.005326644685922047,0.005449547236314457,-0.0040032191540198235,0.008930516173222882,0.9905804623389155
2013-11-25,1,0.005250093650567967,0.005415821244323142,-0.0021924812476976515,0.011285115868052899,0.9904751432569237
2013-11-27,1,0.005865155564175328,0.006113951833210472,-0.004814912357893662,0.008930516173222882,0.9897687667547236
2013-12-02,1,0.005544466891007275,0.005769888644854886,-0.004814912357893662,0.00862670339104404,0.989739799681633
2013-12-04,1,0.0047508498017771955,0.004810512351928942,-0.003182146962112934,0.00862670339104404,0.9903121692369554
2013-12-06,1,0.004495430781211889,0.004568901359391433,-0.003182146962112934,0.011865048649241669,0.9882249747470372
2013-12-10,1,0.0022641768444106227,0.0022724381523834573,-0.004064038720903425,0.011865048649241669,0.9882640026112377
2013-12-12,1,0.0017655952801445374,0.0018081475374848942,-0.004064038720903425,0.011865048649241669,0.9878637157402371
2013-12-16,1,0.0023087289625527505,0.00232625845953486,-0.004064038720903425,0.01846108202892641,0.986298150608891
2013-12-18,1,0.002468819310005731,0.0025167910279871356,-0.004064038720903425,0.019375996453842134,0.985927363700719
2013-12-20,1,0.00223584732778631,0.002284007102764001,-0.004064038720903425,0.019375996453842134,0.9856350122594632
2013-12-24,1,0.002878650634515387,0.0029284259826100664,-0.007283069826161637,0.012436264127286913,0.9828914527077912
2013-12-27,1,0.0022152166429633934,0.0022164048141216967,-0.0073832160604276,0.025564502795721804,0.9791884191417093
2013-12-31,1,0.0018149392309640372,0.0018867733487373086,-0.0073832160604276,0.025564502795721804,0.9787798626908923
2014-01-03,1,0.0016375301045500308,0.001711424815225502,-0.012704388687413967,0.025564502795721804,0.9747343680368513
2014-01-07,1,0.005098198935873406,0.005456819270406122,-0.012704388687413967,0.0137169697277625,0.9774828793317327
2014-01-09,1,0.0035680991626566238,0.0036445019763804458,-0.014058243550843735,0.016553842653969933,0.9771187383032327
2014-01-13,1,0.0023169316236601877,0.0023818645268943225,-0.010622689504610521,0.016553842653969933,0.9786066175863446
2014-01-15,1,0.004228118800966577,0.004431031977654449,-0.010622689504610521,0.009590094413074828,0.9804338792407924
2014-01-17,1,0.005006477557049421,0.0052989890776940956,-0.010622689504610521,0.009590094413074828,0.9810138138218736
2014-01-22,1,0.0034978014104986906,0.003514024457529086,-0.010622689504610521,0.006931819582824727,0.9807286448556359
2014-01-24,0,-0.00011078970633175895,0.00028805443449183015,-0.01010213782209373,0.013131456446351792,0.9831765381583148
2014-01-28,-1,-0.0006575335505834984,-0.00024099021399175352,-0.01010213782209373,0.006931819582824727,0.986860344966529
2014-01-30,0,-0.00020786528551850446,0.00016022643363969736,-0.010438505833765592,0.003955895021091525,0.9868453142675533
2014-02-03,-1,-0.0015882239467758497,-0.001158292213360368,-0.01010213782209373,0.003955895021091525,0.9890189220249648
2014-02-05,-1,-0.0021394665595629806,-0.0016635108617390228,-0.01040120172335011,0.005871800906889732,0.9882907773126031
2014-02-07,-1,-0.002594323957093876,-0.0020236024454526186,-0.006871437618917574,0.0067616157143579325,0.9888949114285057
2014-02-11,-1,-0.0014961121301864245,-0.001139683992707909,-0.01040120172335011,0.0067616157143579325,0.9878561985911272
2014-02-13,-1,-0.0023764704111363267,-0.0018913529883380722,-0.01241450684549625,0.007574733559643512,0.986209713091208
2014-02-18,-1,-0.002020222289803439,-0.0015683338259475036,-0.01241450684549625,0.010404331178022292,0.9849178088974012
2014-02-20,-1,-0.003084029843740899,-0.0025275217849632134,-0.01132240940219127,0.010898893557209343,0.9852309640451761
2014-02-24,-1,-0.0024333974122680117,-0.001954487161384507,-0.014877687556259782,0.009845197127251976,0.9854119390681332
2014-02-26,-1,-0.0028945254107457224,-0.002394851132258913,-0.014933958565343325,0.009845197127251976,0.9852865466490246
2014-02-28,-1,-0.0049541409803120565,-0.004097688301634149,-0.014933958565343325,0.009845197127251976,0.9847785333892887
2014-03-04,-1,-0.0030394427422423694,-0.0023328712368472057,-0.014933958565343325,0.010898893557209343,0.9847787518569003
2014-03-06,-1,-0.004484616160051937,-0.003516966165800057,-0.013863045463018586,0.01078710888168663,0.9851562455993866
2014-03-10,-1,-0.004042700351319885,-0.0031834533939634558,-0.014933958565343325,0.012462430240766985,0.9834872395686055
2014-03-12,-1,-0.004991346604215996,-0.004035892308685989,-0.013863045463018586,0.01532042776139966,0.9825098871986416
2014-03-14,-1,-0.003200728190812838,-0.0028884745317286076,-0.014933958565343325,0.01532042776139966,0.9802091475335017
2014-03-18,-1,-0.0012475383543961128,-0.001110471352407304,-0.014933958565343325,0.014320608061387033,0.9798051407348832
2014-03-20,-1,-0.002108433503237388,-0.001871596505025907,-0.014933958565343325,0.021362586924299633,0.9786727714149143
2014-03-24,-1,-0.003783452139615306,-0.0033296561363081534,-0.014177065543142468,0.021362586924299633,0.9794655519448651
2014-03-26,-1,-0.0038489810356849745,-0.0034218497921923883,-0.015591962962585333,0.021362586924299633,0.9784994367116797
2014-03-28,-1,-0.004740480748537927,-0.004212758750328521,-0.017833929586691923,0.021362586924299633,0.9782438366886197
2014-04-01,-1,-0.002177040353467861,-0.0019527546449705437,-0.017833929586691923,0.013780780966027785,0.9794221993032817
2014-04-03,-1,-0.00202726094510721,-0.0018205034036195308,-0.017833929586691923,0.013780780966027785,0.9794397645133819
2014-04-07,-1,-0.0015405194104021577,-0.0014695443376376645,-0.017833929586691923,0.012164407426547081,0.980871494210328
2014-04-09,-1,-0.0002916597890986236,-0.000206572348052195,-0.01823318072837891,0.00864490534506078,0.9818850200548022
2014-04-11,-1,-0.005654373786770807,-0.005080829431220674,-0.015961021690834413,0.013780780966027785,0.9829008440668425
2014-04-15,-1,-0.005439446237011649,-0.004769553628349329,-0.016733120334989415,0.012164407426547081,0.9845262198740139
2014-04-17,-1,-0.0025778801469915087,-0.0023047290511771534,-0.016733120334989415,0.00864490534506078,0.9858175627257292
2014-04-22,-1,-0.003589464711861358,-0.0031868248752854127,-0.015961021690834413,0.009580554907705584,0.9857983439645042
2014-04-24,-1,-0.004351251584786251,-0.003911482255447125,-0.015012018745571346,0.01239977853930449,0.9847055392514404
2014-04-28,-1,-0.005339918935281089,-0.004804251980894005,-0.008890584367300152,0.014486894304300009,0.9840407610939712
2014-04-30,-1,-0.004285613500640255,-0.0038571710126407647,-0.009918324587186065,0.01664802709531079,0.9835525314998073
2014-05-02,-1,-0.0035923149152573405,-0.0032859370247881802,-0.009314118376167147,0.01664802709531079,0.983876583818314
2014-05-06,-1,-0.004907391102666496,-0.004430652350538303,-0.009536531982445896,0.01664802709531079,0.983999596540606
2014-05-08,-1,-0.0058828634052122,-0.005265079869206954,-0.009314118376167147,0.01664802709531079,0.9842049998169677
2014-05-12,-1,-0.002539584220092923,-0.0023751571064071237,-0.009536531982445896,0.007678187102668644,0.9870703300560383
2014-05-14,-1,-0.002613615949351187,-0.0025063875282484898,-0.01043546680866154,0.007678187102668644,0.9866627614325352
2014-05-16,-1,-0.0021426889130055824,-0.002094552215174389,-0.01043546680866154,0.004501229664619787,0.9872436019889055
2014-05-20,-1,-0.0017780971104111713,-0.001736833833237209,-0.009536531982445896,0.004501229664619787,0.9873392117132856
2014-05-22,1,0.00029935037151232534,0.0005922009253300347,-0.009536531982445896,0.004898857939378256,0.9894550193908345
2014-05-27,1,0.001231643508280212,0.0016515717616559474,-0.009536531982445896,0.004387511716433251,0.9909484688701516
2014-05-29,1,0.0026529257611425053,0.003264154480433992,-0.009351705777163773,0.004898857939378256,0.9912475578524601
2014-06-02,1,0.0033771481421844434,0.004187480262358592,-0.006141000492569137,0.004898857939378256,0.9906805330614821
2014-06-04,1,0.0019317874467181116,0.0025208752903331144,-0.004334480432446061,0.008545274392066007,0.9908568597380338
2014-06-06,1,0.001986439757061658,0.0024438267891775376,-0.006212985213116632,0.008545274392066007,0.9899602096122532
2014-06-10,1,0.002128633897889743,0.0027192576684652537,-0.006212985213116632,0.008545274392066007,0.9899428259110459
2014-06-12,1,0.002002769551817978,0.002657684284526597,-0.0054271663793024625,0.008545274392066007,0.9906723028167969
2014-06-16,1,0.0020705259653661353,0.0027119081343923834,-0.00693675680859556,0.008545274392066007,0.990297703500997
2014-06-18,1,0.001531240990475293,0.0019506665837421334,-0.008008173794862704,0.006214005041015435,0.9890930724773934
2014-06-20,1,0.0015641117123533373,0.0019397221197358905,-0.010177235887957197,0.005989686628098595,0.9882509207615013
2014-06-24,1,0.002264835118768312,0.002777740793706968,-0.010177235887957197,0.01196965216573774,0.9871625942050649
2014-06-26,1,0.002787074731529036,0.003233689553742703,-0.010177235887957197,0.00699779509423947,0.9862016531079247
2014-06-30,1,0.0030932465761673534,0.0035633742711723634,-0.012635658448356096,0.005989686628098595,0.9856922811956976
2014-07-02,1,0.003611664384270878,0.004161149931584415,-0.01788745541005296,0.005989686628098595,0.9853003153887255
2014-07-07,1,0.0027256631504705576,0.0032485816771349696,-0.015429010465362207,0.006824451814279052,0.9855196062756503
2014-07-09,1,0.0018191718007487525,0.002200659630195359,-0.011816176800125845,0.006824451814279052,0.9867906615764515
2014-07-11,1,0.0014495494669449274,0.0018125246194321944,-0.013595290556631416,0.009653715752767616,0.9866351072871191
2014-07-15,1,0.0006953368407360607,0.0008884005990330887,-0.013595290556631416,0.009653715752767616,0.9864224081690853
2014-07-17,0,-9.165553016383655e-05,3.427849428949036e-05,-0.010365471337867384,0.010243003268427612,0.9868552838642636
2014-07-21,-1,-0.0008880088022029446,-0.0008652451452758673,-0.00728449497117049,0.01074458014668848,0.9868552157234679
2014-07-23,-1,-5.780259914145769e-05,-6.381662075719653e-06,-0.00728449497117049,0.010243003268427612,0.9883305021897515
2014-07-25,1,0.002710258534460715,0.003234377508049941,-0.009770932607975204,0.005120395589446721,0.9904572938193282
2014-07-29,1,0.0015501383197005295,0.0019085693798816682,-0.00728449497117049,0.01074458014668848,0.9902835358239022
2014-07-31,1,0.0015579591513018812,0.0019586141210498377,-0.009770932607975204,0.010243003268427612,0.9904578774201482
2014-08-04,1,0.0009740428904479583,0.001242610751943429,-0.00728449497117049,0.01074458014668848,0.9903411857923423
2014-08-06,1,0.0007000871943955145,0.0008685120367884736,-0.00728449497117049,0.01074458014668848,0.9902102598661522
2014-08-08,1,0.0013657565232660642,0.0017078054105791889,-0.0061623129489368385,0.006421088752709881,0.9910826402504537
2014-08-12,1,0.0012021886662051703,0.001524214059435441,-0.0061623129489368385,0.008497579954196156,0.9907370865999863
2014-08-14,1,0.0011537046374265603,0.0013919180934372777,-0.007657931136753283,0.00557374845738391,0.9908746070163603
2014-08-18,1,0.0010989030932867967,0.0013010758059532465,-0.01109371309725958,0.005474127360538577,0.9903787507927097
2014-08-20,1,0.0006335454027725333,0.0007154451360506127,-0.01109371309725958,0.007351376368334188,0.989964366456688
2014-08-22,1,0.0011272783610429562,0.0013991574045285411,-0.011834502270227323,0.007917630545175346,0.989485868636161
2014-08-26,1,0.002618419815919342,0.003097271242741671,-0.012374160466431087,0.007351376368334188,0.9894977012702595
2014-08-28,1,0.001048565036749712,0.001216776816551535,-0.011834502270227323,0.007351376368334188,0.9901657431332818
2014-09-02,1,0.0019619694760016275,0.0022994340549174455,-0.013458047401300783,0.006923625688642045,0.9898053607206249
2014-09-04,-1,-0.00041427782659767383,-0.0002872196301313149,-0.018203388381047528,0.006923625688642045,0.9875854513785086
2014-09-08,1,0.00046899605687438536,0.0005109961269401153,-0.018203388381047528,0.006923625688642045,0.9866584734896644
2014-09-10,1,0.0011322274108587626,0.001355725068424007,-0.018203388381047528,0.006923625688642045,0.9858607220618482
2014-09-12,1,0.00039477114429800457,0.00046647406331871424,-0.021368797737730344,0.006923625688642045,0.9841075765691352
2014-09-16,-1,-0.0006021792984517661,-0.0005053455877397986,-0.020111572747898973,0.0007165389310983281,0.9849747853407661
2014-09-18,-1,-0.0014067983774559594,-0.0011593393688313178,-0.020111572747898973,0.004915233114802971,0.9850770220850004
2014-09-22,-1,-0.001153921187038128,-0.000983060021913409,-0.020111572747898973,0.005357258394881357,0.9835525988669515
2014-09-24,-1,-0.0013014696353254116,-0.0011705696916185183,-0.01959048305613683,0.005357258394881357,0.9832409553108625
2014-09-26,-1,-0.002366265224935952,-0.0020525490279191287,-0.01907492888932895,0.014138703218753306,0.9810338895157538
2014-09-30,-1,-0.0040323866165450405,-0.0035240823941620333,-0.01693802608856447,0.016455496586398135,0.9814964517781292
2014-10-02,-1,-0.005800668879908073,-0.0052004457213702514,-0.013024988219354973,0.016455496586398135,0.9834372004364682
2014-10-06,-1,-0.006943648462638665,-0.00616812781762845,-0.013690419711488247,0.016455496586398135,0.9821284991635162
2014-10-08,-1,-0.006961405285634664,-0.006197612013196073,-0.008880915903163904,0.014434256025501104,0.9829798048287038
2014-10-10,-1,-0.009390210906570055,-0.00833535743202024,-0.004857555296033936,0.015764950111643368,0.9823150992836706
2014-10-14,-1,-0.009159757137427258,-0.008221678264800575,-0.0037233162399118915,0.018529758102647835,0.9807620873215006
2014-10-16,-1,-0.007649220535083199,-0.006926630611158299,-0.0037233162399118915,0.022297899800275862,0.9816299479123602
2014-10-20,-1,-0.00587468118720713,-0.005402318631528387,-0.004445899867755858,0.018529758102647835,0.9855166482624667
2014-10-22,-1,-0.00527752863683947,-0.004884066192570305,-0.004445899867755858,0.015764950111643368,0.987111083777646
2014-10-24,-1,-0.004384413883307302,-0.004045624698069322,-0.004445899867755858,0.012934417626965932,0.990006356879387
2014-10-28,-1,-0.0037781805726876485,-0.003516627395614185,-0.004445899867755858,0.012934417626965932,0.989436924911825
2014-10-30,-1,-0.004080873622503981,-0.00375718308873842,-0.004972355100314986,0.012934417626965932,0.9891353944818967
2014-11-03,-1,-0.004976108276235593,-0.004483414477450112,-0.004972355100314986,0.013594849584058927,0.9883263654953464
2014-11-05,-1,-0.004561145142900215,-0.004128711519146594,-0.004972355100314986,0.013594849584058927,0.9886594567843608
2014-11-07,-1,-0.003376171553316777,-0.0031228750493985276,-0.0036029239295415484,0.010471895550665092,0.9892067926604586
2014-11-11,-1,-0.0020347669378682834,-0.0019651084037373115,-0.006575061534275193,0.010471895550665092,0.9893993494711802
2014-11-13,-1,-0.0011116261521304052,-0.0010474554446092453,-0.007765721883733439,0.009454072579029242,0.9903597892146052
2014-11-17,-1,-0.0005610389697922083,-0.0003420513369080322,-0.006575061534275193,0.009454072579029242,0.9904100586155041
2014-11-19,0,-0.00012093131476956665,0.000194082277296385,-0.006385051514954651,0.010140771337938885,0.990366934598414
2014-11-21,1,0.00094715982432892,0.0014342329975003023,-0.006385051514954651,0.009055168089702414,0.9909002744636869
2014-11-25,1,0.0017953326671826446,0.0023827710961890364,-0.006385051514954651,0.007079648440105853,0.9918128346858097
2014-11-28,1,0.0012872488640097535,0.0017647856338964543,-0.0060014877308271165,0.007079648440105853,0.9916818951711229
2014-12-02,1,0.0010097961048199766,0.0014201148656590554,-0.0060014877308271165,0.003922485018137821,0.9931633244605163
2014-12-04,1,0.0007059100697205316,0.0010775661470179005,-0.00585702668936591,0.007079648440105853,0.9931035857794264
2014-12-08,1,0.0005707787366155063,0.0008659877694358281,-0.00585702668936591,0.00898423912338232,0.9913055337584786
2014-12-10,1,0.0004584144668209222,0.0007149308714965175,-0.005762518493441346,0.012044807636889357,0.9904751026594609
2014-12-12,1,0.0004536113018759407,0.0007731729879641009,-0.005762518493441346,0.012044807636889357,0.9904282219467474
2014-12-16,1,0.0011104698229640116,0.00152295173131168,-0.00590294652150742,0.012044807636889357,0.9887592125729775
2014-12-18,1,0.0015029838202266369,0.0018604217491346381,-0.008046225324271036,0.01032403956668818,0.9865388833518429
2014-12-22,1,0.0018332164724508136,0.0022130538612395237,-0.008046225324271036,0.010585143989386184,0.9849788771880307
2014-12-24,1,0.0018493728090031244,0.0022170402627379442,-0.008544054774795461,0.013173154105608193,0.9840671402172789
2014-12-29,1,0.0015615828753978993,0.0019039861597440221,-0.008544054774795461,0.013173154105608193,0.984226398511153
2014-12-31,1,0.001327598311134559,0.0016325809830642108,-0.01009746590868003,0.013173154105608193,0.9800059567559328
2015-01-05,1,0.002043640799997758,0.0022854025580437928,-0.01009746590868003,0.014297600222438908,0.9783519668565548
2015-01-07,1,0.0034969383288265027,0.003956749086670196,-0.01009746590868003,0.012881754858899348,0.9791509520724225
2015-01-09,1,0.004867246411757068,0.005510227739663712,-0.01009746590868003,0.00943344473614291,0.9801763251717761
2015-01-13,1,0.004824861882046231,0.0054600733823921,-0.01009746590868003,0.010307257343121046,0.9804575668949947
2015-01-15,1,0.0031734493713560267,0.0035618241837582533,-0.00747747150788316,0.012881754858899348,0.9820113913722578
2015-01-20,1,0.0022712878034881734,0.002610601600426254,-0.006782825980586974,0.012881754858899348,0.9836462772561404
2015-01-22,1,0.0026567895658096067,0.0029925057178219624,-0.006782825980586974,0.012841776222397487,0.9854983370100705
2015-01-26,1,0.0028497130635453546,0.00323111332737238,-0.006136741820170814,0.010294998214924588,0.9860718764321527
2015-01-28,1,0.0028912884130294263,0.003267902584603029,-0.006782825980586974,0.008561571777987994,0.9860927352960339
2015-01-30,1,0.0007124163307663154,0.0008052111293326205,-0.006136741820170814,0.012844977474309977,0.989971912153517
2015-02-03,1,0.0014800097290299328,0.0016649661176079233,-0.006136741820170814,0.008569190847056143,0.9916403195680571
2015-02-05,1,0.0014917432073228382,0.0016637583490663962,-0.006136741820170814,0.008569190847056143,0.9912931726594978
2015-02-09,1,0.001244262730243125,0.0013594254670302487,-0.0062229691412594365,0.008569190847056143,0.9911069058693265
2015-02-11,1,0.0016075255251688147,0.0017735617697431025,-0.0062229691412594365,0.006699630068993763,0.9916686916685004
2015-02-13,1,0.0019723917827365674,0.002170481209625704,-0.007931545627684337,0.006460612523611219,0.9920211380580004
2015-02-18,1,0.001684192699294546,0.0018371146292083538,-0.005332559894935456,0.005213495134567748,0.993294742288833
2015-02-20,1,0.0016130691357253526,0.0017264095498521791,-0.007931545627684337,0.006460612523611219,0.9908631344686814
2015-02-24,1,0.0009221826031778519,0.0009488863412899699,-0.013712751505914637,0.006460612523611219,0.9895973146096158
2015-02-26,-1,-0.00029984915271370543,-4.341328836847977e-05,-0.013924320130974485,0.006460612523611219,0.9894102628652819
2015-03-02,0,-0.0001401852638308886,0.00013049236175255777,-0.013924320130974485,0.004143790870533027,0.9895731424035087
2015-03-04,-1,-0.0007168495515130916,-0.0003715289928059301,-0.014842668092948689,0.004143790870533027,0.9885912323511087
2015-03-06,-1,-0.0019311236911991167,-0.0013625817303402198,-0.014842668092948689,0.005806375068812152,0.9894977276026382
2015-03-10,-1,-0.0026390900832110055,-0.0019531784750100043,-0.014842668092948689,0.00396600070230096,0.9897940072575241
2015-03-12,-1,-0.002514039383496669,-0.0018666761881785932,-0.014842668092948689,0.005806375068812152,0.9884291870481537
2015-03-16,-1,-0.002145600757421596,-0.0015551198405614503,-0.014388316751254147,0.00396600070230096,0.988701780554518
2015-03-18,-1,-0.0021950133586609685,-0.001607200445560604,-0.014388316751254147,0.0038562186625781063,0.9888223360010536
2015-03-20,1,0.0017063432335228564,0.0018779762459646496,-0.012896497890649207,0.005806375068812152,0.9888609415187999
2015-03-24,-1,-0.0006704715152516472,-0.00038126235807453535,-0.009822228738237354,0.0071404209309821245,0.9890371151863586
2015-03-26,-1,-0.0014980752055341474,-0.0010966589434298869,-0.008942522253941907,0.010661889141039136,0.9868861124153745
2015-03-30,-1,-0.002040015554338959,-0.0016692686716707514,-0.008942522253941907,0.01233927807240091,0.9865820062234761
2015-04-01,-1,-0.0031633951350489215,-0.00266160290422579,-0.0062565131141349515,0.012878984567707098,0.9863973381970437
2015-04-06,-1,-0.0026801618447855474,-0.002248677062774554,-0.0062565131141349515,0.01489592665272449,0.9858261662969647
2015-04-08,-1,-0.0025313954468976305,-0.002145690038383407,-0.008985321920243684,0.01489592665272449,0.9855458249369119
2015-04-10,-1,-0.0013408884071493066,-0.0011254319401145514,-0.008985321920243684,0.014371118697433252,0.9864217689776373
2015-04-14,-1,-0.0020573990114054657,-0.0017474680837276328,-0.007014260082850668,0.014371118697433252,0.9865318550070423
2015-04-16,-1,-0.002194468780310879,-0.0018728889379714209,-0.007014260082850668,0.014371118697433252,0.9859337685239983
2015-04-20,-1,-0.0010824396192166772,-0.0009209160692597342,-0.007014260082850668,0.012776596426219814,0.9870280233207804
2015-04-22,1,0.00016402796983908216,0.00018969157240997898,-0.009997768571070789,0.010407884593190923,0.9885499108615717
2015-04-24,1,0.0013777271702790396,0.0015534631742229747,-0.009997768571070789,0.009594980367402927,0.9911100762763455
2015-04-28,1,0.0014399048759414642,0.0016259435659287103,-0.007042441807936088,0.007824189669120055,0.9919471270661975
2015-04-30,1,0.0010682333324573538,0.001184198465938,-0.006605886474028791,0.007824189669120055,0.9920210390583238
2015-05-04,1,0.0017112962489959475,0.0019233027061520155,-0.006605886474028791,0.009594980367402927,0.9918895180653189
2015-05-06,1,0.0010437917974264407,0.0011609926415982704,-0.002644036076519812,0.009889089214691508,0.9919153069302538
2015-05-08,1,0.001120563963633373,0.0012251016128385227,-0.006605886474028791,0.009594980367402927,0.9918306646049398
2015-05-12,1,0.000497887623324397,0.0005009352243874601,-0.0027902401247148646,0.009889089214691508,0.9916361023134621
2015-05-14,1,0.0009325833749292225,0.0010157844441485828,-0.0027902401247148646,0.009889089214691508,0.9918902779080025
2015-05-18,1,0.0012625856798935183,0.001406904306912002,-0.0027902401247148646,0.011469196045525806,0.9915700892545625
2015-05-20,1,0.0010534750305365916,0.0011677220899025992,-0.0033391482954303045,0.011469196045525806,0.9904199297657772
2015-05-22,1,0.0008781334762614473,0.0009490878115583341,-0.0033391482954303045,0.015577103111600718,0.989754123510003
2015-05-27,1,0.0008942803624892853,0.0009532805822249617,-0.007044498618613949,0.015577103111600718,0.9883345773393167
2015-05-29,1,0.0014927990064506616,0.0016551515915082986,-0.005562848463545109,0.015577103111600718,0.9889804829522393
2015-06-02,1,0.0025853259772926408,0.0029612359092967082,-0.007365840640822681,0.015577103111600718,0.9886066279944951
2015-06-04,1,0.003244552269319697,0.0037795343018454607,-0.005562848463545109,0.009915699692740487,0.989508792697267
2015-06-08,1,0.0028939806361887636,0.0033839264012299275,-0.005562848463545109,0.015448505181372186,0.9891017816248905
2015-06-10,1,0.002417374343479845,0.002777394467685999,-0.009447342133695955,0.010099531298949757,0.9888427357174229
2015-06-12,1,0.0017978261288975148,0.001991244446386513,-0.009447342133695955,0.012922803714141225,0.988208618191313
2015-06-16,1,0.002427153703945988,0.0027450009951694404,-0.009447342133695955,0.01122765111716737,0.9884737266963128
2015-06-18,1,0.0017425358229006607,0.001971840311259753,-0.007199955959569227,0.011561675354180952,0.9893506498287704
2015-06-22,1,0.0021371489728234452,0.0024245455048782986,-0.009447342133695955,0.011561675354180952,0.9887374829255324
2015-06-24,-1,-0.0016854962599320467,-0.001522654346513769,-0.007199955959569227,0.011561675354180952,0.9890792086020177
2015-06-26,1,0.000637087487189177,0.0007587157904630173,-0.009447342133695955,0.011115852362276031,0.9867657980679236
2015-06-30,1,0.0007453139013215873,0.0008980853513850043,-0.007199955959569227,0.011115852362276031,0.9872007322002953
2015-07-02,1,0.0010664268079098689,0.001263655037929782,-0.007199955959569227,0.011115852362276031,0.9872412386215574
2015-07-07,1,0.0014921324983742086,0.0017722210162554183,-0.007199955959569227,0.010734945638597417,0.9876258689891713
2015-07-09,1,0.0010820997383746886,0.0013360571322827432,-0.004558112184086032,0.010734945638597417,0.9873009562503583
2015-07-13,1,0.0016436155698508607,0.001953247648457467,-0.004558112184086032,0.01044157063539547,0.9874249979312977
2015-07-15,1,0.002194075376230781,0.002588868964913201,-0.007276737043048327,0.009765442907671378,0.9871491941482742
2015-07-17,1,0.0022326827015356375,0.0026225251090250725,-0.009274753288765696,0.007010275166558923,0.9872249186620169
2015-07-21,1,0.0022386803114611354,0.002627467189528239,-0.00666348345186169,0.005675659233641631,0.9881696014231584
2015-07-23,1,0.002732049590768585,0.003225980166229525,-0.011030949604766617,0.005625701908241022,0.9860577038302305
2015-07-27,-1,-0.00030604335056143967,-0.00020788300757321258,-0.014341480645681123,0.00520160478925797,0.9878802339910541
2015-07-29,1,0.0006121525995976082,0.0007748024007826624,-0.014341480645681123,0.00520160478925797,0.9870177428318553
2015-07-31,1,0.0005809061027010221,0.0007307623454026426,-0.014341480645681123,0.006589561195479633,0.9864056805649011
2015-08-04,1,6.663856661666829e-05,0.00015323345938049823,-0.014341480645681123,0.006589561195479633,0.9846620694200336
2015-08-06,-1,-0.00026918933993390294,-0.0002556948379020603,-0.012037641014059297,0.006589561195479633,0.9850221776037241
2015-08-10,1,6.371377994708762e-05,0.00012114030124764672,-0.013644699258686867,0.006589561195479633,0.9841686387937335
2015-08-12,-1,-0.00023730047377977124,-0.00019591113320909117,-0.013644699258686867,0.006589561195479633,0.9843157492174852
2015-08-14,-1,-0.000849664070883801,-0.000765002378952666,-0.013644699258686867,0.006872139039784711,0.9847483730193697
2015-08-18,-1,-0.001153856228999921,-0.0010089445951780187,-0.013644699258686867,0.00982721466662843,0.984346494655024
2015-08-20,-1,-0.0026141179761627964,-0.002294246315852969,-0.012628789222648637,0.015753174012609075,0.983641767538392
2015-08-24,-1,-0.005687241728123227,-0.004946348519252234,-0.007295709621422692,0.015753174012609075,0.9854745074796877
2015-08-26,-1,-0.0044932436510615,-0.003913179798464767,-0.007295709621422692,0.00982721466662843,0.9870445229559638
2015-08-28,-1,-0.003921645355217045,-0.0034026830235156366,-0.008746054693939404,0.006114645780105209,0.9876570666189826
2015-09-01,-1,-0.0054711893450913075,-0.004807504841123958,-0.005866871411942829,0.011662636638962234,0.988066775565799
2015-09-03,-1,-0.004926600728405445,-0.004297586361348811,-0.007295709621422692,0.011662636638962234,0.9873790165449998
2015-09-08,-1,-0.005164711735280058,-0.004487016122359268,-0.007295709621422692,0.011662636638962234,0.9854963581463578
2015-09-10,-1,-0.004599970992333195,-0.004034579675475042,-0.006029119534980691,0.014563065969551064,0.985192037414589
2015-09-14,-1,-0.004135949239382317,-0.0036150074199221734,-0.006029119534980691,0.015259295346416952,0.9847476904643293
2015-09-16,-1,-0.002134961295051242,-0.001802393166545447,-0.009760760886904467,0.014563065969551064,0.9848984915066765
2015-09-18,-1,-0.0013950640469383218,-0.001162489377613156,-0.006029119534980691,0.014563065969551064,0.9836014133636055
2015-09-22,-1,-0.001954870439886699,-0.0016411732264823078,-0.005496455663725482,0.014602721769032583,0.9826409028949001
2015-09-24,-1,-0.0013446221474216317,-0.0011478356523602316,-0.008007133901863606,0.014602721769032583,0.9824329347697849
2015-09-28,-1,-0.0034212110512500376,-0.002980517907436117,-0.005817113482734833,0.015259295346416952,0.9778990925461178
2015-09-30,-1,-0.00223729787770295,-0.0019577676365782714,-0.012119222881477827,0.014659039536467525,0.9785101066768046
2015-10-02,-1,-0.0024417655470403378,-0.002109695005653137,-0.009731181017816094,0.014362980699567924,0.9805029742483801
2015-10-06,-1,-0.0027987835723790873,-0.0024443095355426497,-0.006981723277525537,0.014013697111057311,0.9827084862610533
2015-10-08,-1,-0.0021978949233617835,-0.0019303237357544247,-0.006981723277525537,0.009803551324969404,0.9835536310078243
2015-10-12,-1,-0.001760239694828935,-0.0015274818685107787,-0.006981723277525537,0.009265317228961744,0.9839575126912247
2015-10-14,-1,-0.002136659935020186,-0.0018632301036695144,-0.008049177559866434,0.009265317228961744,0.9841953484052833
2015-10-16,1,0.00019434530437885985,0.00020560906692644135,-0.009731181017816094,0.007674055190703261,0.9860102304113372
2015-10-20,1,0.0010874978510693096,0.0012454492258912489,-0.009731181017816094,0.005419610866069392,0.985630632801651
2015-10-22,1,0.0009489499360659354,0.0011382859551449659,-0.008049177559866434,0.012286973160139852,0.9852786140132552
2015-10-26,1,0.0036154514213378847,0.004166911653794939,-0.008049177559866434,0.009265317228961744,0.9891572595633157
2015-10-28,1,0.0024715302781998794,0.0028470170410803217,-0.0053613129620612154,0.009265317228961744,0.9909198820190653
2015-10-30,1,0.002179845315355697,0.002531278420979867,-0.0053613129620612154,0.009265317228961744,0.9908815705968089
2015-11-03,1,0.0029541553404119954,0.0034221296251954574,-0.0053613129620612154,0.008624940932172104,0.9909157046871143
2015-11-05,1,0.0030148347073946603,0.003529181341464905,-0.005796112694448075,0.008624940932172104,0.9895923878302735
2015-11-09,1,0.0027498021566210386,0.00316685008276143,-0.005796112694448075,0.008817894834855695,0.9896811716751048
2015-11-11,1,0.0023379953749793547,0.002734334808998197,-0.004251719349867925,0.008817894834855695,0.9897240856790378
2015-11-13,1,0.0008922697101598654,0.0010323267211435603,-0.0019594777144641353,0.008817894834855695,0.9911889979517124
2015-11-17,1,0.0020252949989629553,0.002360011996330992,-0.0019594777144641353,0.008762769277694434,0.9915906174620788
2015-11-19,1,0.0029896197614045937,0.0034560576966800776,-0.005317107828281949,0.0035087979846567382,0.9911137482166992
2015-11-23,1,0.003032578751693552,0.003519644001012603,-0.005317107828281949,0.005829075209804055,0.9906841136773933
2015-11-25,1,0.003335064729264631,0.003870852350784341,-0.005793720941578845,0.0044206571036027875,0.9904914286845855
2015-11-30,1,0.0025273539970437865,0.0029176973481580947,-0.004109070634179701,0.007008169599313079,0.9910941307253355
2015-12-02,1,0.003422372769811331,0.003972714224825341,-0.004197546384594579,0.003234280802409799,0.9906076584781366
2015-12-04,1,0.0026262482236050644,0.0030941660514188923,-0.004197546384594579,0.005754697288509413,0.9913109487405646
2015-12-08,1,0.003167845927090814,0.0037167584650998693,-0.005793720941578845,0.003234280802409799,0.9902571212914122
2015-12-10,1,0.00253062082896112,0.0029912485414803954,-0.005793720941578845,0.005754697288509413,0.9885125095089652
2015-12-14,1,0.0027184846332923107,0.0032355787948572467,-0.01082708128541526,0.011010290154032955,0.9858431998239711
2015-12-16,1,0.0019376108750509527,0.002206778306618379,-0.01082708128541526,0.011091016623476235,0.9856101972362409
2015-12-18,1,0.0015759432159715776,0.0018423172570496108,-0.004197546384594579,0.011091016623476235,0.9865490020434702
2015-12-22,1,0.002167285448794734,0.002516078122005399,-0.004197546384594579,0.009672046116131938,0.9870801415469327
2015-12-24,1,0.0018166731963707504,0.0020821873534949526,-0.005348095777016728,0.011091016623476235,0.9855879368090862
2015-12-29,1,0.0021149044539498945,0.002404499685556069,-0.014804004141088822,0.009672046116131938,0.9839054201809062
2015-12-31,1,0.001704772298518107,0.001981570260993161,-0.014804004141088822,0.013522332047314371,0.9788758986289893
2016-01-05,1,0.0010206651253961664,0.0011772057259020067,-0.010065645464459526,0.013522332047314371,0.9800975793906201
2016-01-07,1,0.00034563625093966675,0.00040627995522180417,-0.010065645464459526,0.013522332047314371,0.9800024529060177
2016-01-11,-1,-0.0010843749415531813,-0.001011116724505248,-0.010065645464459526,0.010182693349638065,0.9785198616013862
2016-01-13,-1,-0.0028752168036841374,-0.0025240882605681286,-0.010065645464459526,0.011826482550484614,0.9789138963580648
2016-01-15,-1,-0.0036075786853788936,-0.0030621272501996774,-0.010065645464459526,0.012356571530663666,0.9771291399315701
2016-01-20,-1,-0.0028089103317397385,-0.00239774869804943,-0.010065645464459526,0.0202399082518117,0.976796260533966
2016-01-22,-1,-0.0020174297144082308,-0.00173557300362693,-0.010065645464459526,0.0202399082518117,0.9762670411468637
2016-01-26,-1,-0.002700370863520315,-0.002237606607032372,-0.014926050020699707,0.01729432933683918,0.9767981377374807
2016-01-28,-1,-0.0037896600822271607,-0.003243721408026104,-0.00398443514811457,0.018472932369364817,0.9764416841314876
2016-02-01,-1,-0.0007636215063293989,-0.0005743107167527667,-0.00398443514811457,0.01682517768672192,0.9814333827365588
2016-02-03,-1,-0.0011054999286503175,-0.0008676367360732603,-0.000999222040332195,0.01682517768672192,0.9803686003171443
2016-02-05,-1,-0.0017606805782364333,-0.0014561903503209689,8.532244844430513e-05,0.016860694492581083,0.9797017424139912
2016-02-09,-1,-0.005393404674897791,-0.004695954427294905,0.00091359949529235,0.016860694492581083,0.981767760920914
2016-02-11,-1,-0.005537148681162262,-0.004837507457090044,0.00091359949529235,0.016860694492581083,0.9822982996852093
2016-02-16,-1,-0.003981090763669376,-0.0034495599298794647,-0.0018052731469060902,0.016444148944499762,0.985620384066731
2016-02-18,-1,-0.003317806445692088,-0.0028669319996239974,-0.001888539541239311,0.016444148944499762,0.9832278401391986
2016-02-22,-1,-0.0023108020669298864,-0.001899411032509099,-0.0020434059413149226,0.015056960202216634,0.9845678603735185
2016-02-24,-1,-0.002365230190505392,-0.0019854245868847482,-0.0012964902313684998,0.015239065396410298,0.9849387994253379
2016-02-26,-1,-0.0012895593374053487,-0.0010399070873333622,-0.0012964902313684998,0.01396700634645916,0.9866586459594113
2016-03-01,-1,-0.0005742119767981705,-0.0003778376712338248,-0.0020434059413149226,0.01396700634645916,0.9869988202257843
2016-03-03,1,0.00021475664307701338,0.00030593309239515564,-0.0020434059413149226,0.01396700634645916,0.9875374762538414
2016-03-07,1,0.0012454490496502807,0.0013033233861842308,-0.004451525747904758,0.007197462906064984,0.988081495507145
2016-03-09,1,0.0005490244579710066,0.0006028870366579223,-0.004451525747904758,0.010788735628299607,0.9870925748611756
2016-03-11,1,0.0017143871301837474,0.001928011772955186,-0.002675377818292324,0.008258146384187875,0.988393451944501
2016-03-15,1,0.001508505347814982,0.001728127661434852,-0.0018727624200196766,0.008258146384187875,0.9890639484963624
2016-03-17,-1,-8.920022345062899e-05,-6.930520657200549e-05,-0.0007925253047621682,0.006802466082116016,0.9922821354326895
2016-03-21,1,0.001252341784003491,0.0015225545123572204,-0.0012139310933377335,0.006802466082116016,0.992551623145797
2016-03-23,1,0.0012303255156140853,0.0014483071661507705,-0.003202496870672554,0.006802466082116016,0.9926680194159391
2016-03-28,1,0.0012548792897825918,0.0014537439073581617,-0.003202496870672554,0.007797980477641217,0.9924068519802489
2016-03-30,1,0.0021264791444924737,0.002475668526877221,-0.0007842449464365931,0.00618475676809543,0.994235620304699
2016-04-01,1,0.0023325232393236325,0.0026949927946164952,-0.005027880942552669,0.005576241989568692,0.9927334306773871
2016-04-05,1,0.0021489511184081913,0.002502958842877472,-0.003202496870672554,0.00618475676809543,0.9916266049989145
2016-04-07,1,0.0018939599272840201,0.0021740845796589157,-0.002781551394230047,0.00618475676809543,0.9926824898080755
2016-04-11,1,0.001712564344847865,0.0019161021124128785,-0.003202496870672554,0.00618475676809543,0.9918851101123728
2016-04-13,1,0.0019083069290823527,0.0021758434808353275,-0.0031028550454042093,0.008061279206489736,0.9914666783419218
2016-04-15,1,0.0024843212825377717,0.0028787183339988413,-0.004547191883812101,0.008061279206489736,0.9910560632917363
2016-04-19,1,0.002221593825467056,0.002575726305887519,-0.004547191883812101,0.009227346845458017,0.9904493159451452
2016-04-21,1,0.002472109445673409,0.0028722539298350006,-0.004250998803765211,0.008372281576314772,0.9908195645624915
2016-04-25,1,0.0025942807054875868,0.0029839988700423436,-0.004250998803765211,0.010565395716413357,0.990202381051414
2016-04-27,1,0.002968114101170284,0.003434727276739419,-0.004250998803765211,0.011792808942734804,0.9896345681290797
2016-04-29,1,0.0014806485956281239,0.0016919491263446417,-0.0027483374524739325,0.011792808942734804,0.9911441778368814
2016-05-03,1,0.002744780690421387,0.003146707160096222,-0.003075884584391019,0.010565395716413357,0.9928793031382854
2016-05-05,1,0.0025765389206433126,0.002917308753825078,-0.003573446928692504,0.007136162000374766,0.9924151294630262
2016-05-09,1,0.002502199531554181,0.002830678957783333,-0.003075884584391019,0.005278568520750161,0.9934496133656849
2016-05-11,1,0.002837464615995244,0.003224794870452382,-0.0014146391261536445,0.005278568520750161,0.9940135188894808
2016-05-13,1,0.0022958634331388898,0.0025669835770833413,-0.003573446928692504,0.005278568520750161,0.9934105769258967
2016-05-17,1,0.0024150857470579593,0.0027288989208777673,-0.0014146391261536445,0.005278568520750161,0.994294312425329
2016-05-19,1,0.0023330117466709805,0.0026323319595800525,-0.002524117738942573,0.005278568520750161,0.9942217182834102
2016-05-23,1,0.0028901638769265455,0.0032854038339296104,-0.003503902006891342,0.005278568520750161,0.9947690079270272
2016-05-25,1,0.0032362418483197256,0.0036604506424664568,-0.003503902006891342,0.005769912675903548,0.9943454551086806
2016-05-27,1,0.0028394377869230456,0.0031809971902167283,-0.005154623660360111,0.005460438863105369,0.9915863416798013
2016-06-01,1,0.0024637413673983667,0.0027147200681718413,-0.004945988894956624,0.007310285807117794,0.9905873633517155
2016-06-03,1,0.0013927062532100476,0.0014285004901589142,-0.002736853464435577,0.010208184344603348,0.9898326087936858
2016-06-07,1,0.0008705639995282494,0.0009474379664517938,-0.004945988894956624,0.010208184344603348,0.9886355161811013
2016-06-09,1,0.0013465299003518434,0.001346683166811076,-0.004945988894956624,0.012928062278623744,0.988239760713831
2016-06-13,1,0.0007649335799542821,0.0008270192863261719,0.0003792490763889235,0.012928062278623744,0.9883075104914393
2016-06-15,1,0.0011127618301122468,0.0011262071800145375,-0.002736853464435577,0.012928062278623744,0.9880905549127454
2016-06-17,1,0.0012074607695824475,0.0012346558529468562,-0.005599079878682981,0.012928062278623744,0.9875555524982035
2016-06-21,1,0.0004777966994345089,0.0006090160826082063,-0.0014969573246976602,0.012928062278623744,0.9875755140814794
2016-06-23,1,0.0023886604339092557,0.0024997398744198073,-0.008696811722528099,0.01217103510529176,0.9881513446162655
2016-06-27,1,0.00021737337594523738,0.0003898947229309416,-0.0002457354510742673,0.013436185777111934,0.9891933301876055
2016-06-29,1,0.0007659262656851975,0.0009128581263194006,-0.005067126685714032,0.009573551405486512,0.9906938307962875
2016-07-01,-1,-0.0007475562057202654,-0.00019261572592943932,-0.005067126685714032,0.00890636715543245,0.9894766449499135
2016-07-06,-1,-0.00121599242819199,-0.0005932759874206386,-0.0002457354510742673,0.01217103510529176,0.9892119249433815
2016-07-08,1,0.0003942905938012194,0.0007503805746585568,-0.0031172609068668843,0.00876851095251249,0.9906197797283823
2016-07-12,1,0.0009805020587358537,0.0012380013248989566,-0.0031172609068668843,0.009473535713514818,0.9907941798119371
2016-07-14,1,0.0006768915897357176,0.0009531085214099402,-0.0008703362564040009,0.013824684704348746,0.9908877362680495
2016-07-18,0,-0.00014067439618281456,0.00026373814298918724,0.0008178123159333203,0.013824684704348746,0.9906834325768344
2016-07-20,1,0.0003794735758542131,0.0006768476567929394,-0.0031172609068668843,0.013824684704348746,0.9895826286916177
2016-07-22,1,0.0014332782423400105,0.0015468438101475606,-0.0008703362564040009,0.013824684704348746,0.990438787518545
2016-07-26,1,0.002019748476086644,0.002035279736078405,-0.002983341281364869,0.0114578110046107,0.9907029490818122
2016-07-28,1,0.0022079433223330023,0.002263751484286081,-0.004272655190120454,0.0114578110046107,0.990076709769542
2016-08-01,1,0.004048056631851646,0.004315413229488317,-0.004272655190120454,0.009007429870592557,0.991705156525829
2016-08-03,1,0.005255230355806153,0.005710283830524765,-0.004272655190120454,0.007402011589096482,0.9913785965760461
2016-08-05,1,0.004595091653459249,0.004920717859373663,-0.004272655190120454,0.009637671282776338,0.9911131923261502
2016-08-09,1,0.0046251610967040285,0.004913582630641087,-0.004679337824632127,0.009637671282776338,0.991038449112985
2016-08-11,1,0.004897875395980199,0.005215432125929922,-0.008587216625680062,0.008627030883037966,0.9887368046630662
2016-08-15,1,0.005228583087390382,0.005602480904097646,-0.00999274448891739,0.008627030883037966,0.9877003771780299
2016-08-17,1,0.003999247598404728,0.004213111791127424,-0.0061639684533553,0.008627030883037966,0.9898300059181429
2016-08-19,1,0.0046892538142802665,0.00504904516765364,-0.0061639684533553,0.008627030883037966,0.9902523711877553
2016-08-23,1,0.004210916834805584,0.004522530956778334,-0.004783383702754124,0.009391022739996098,0.9903054232352299
2016-08-25,1,0.0032324643507348613,0.003379012551475344,-0.004783383702754124,0.009391022739996098,0.990455534346773
2016-08-29,1,0.003552473016040163,0.003741474089671335,-0.006382531448126552,0.010047330572007653,0.9896414591094087
2016-08-31,1,0.003249989363440257,0.003409750971261301,-0.009694319189098214,0.010047330572007653,0.9888840714803575
2016-09-02,1,0.004004360973389414,0.004246766209957171,-0.011346985226230585,0.010047330572007653,0.9873899476646175
2016-09-07,1,0.003988460161960619,0.004225090149214308,-0.011346985226230585,0.007158424560577066,0.9873812099077308
2016-09-09,1,0.0021231082827840287,0.002156340584028804,-0.008997590660116603,0.007158424560577066,0.990016438051453
2016-09-13,1,0.0019120316387747178,0.0019732826348797224,-0.008997590660116603,0.007158424560577066,0.9897849878718298
2016-09-15,1,0.002234826401434707,0.0022450184660491716,-0.008997590660116603,0.008181462012496685,0.9895336367353285
2016-09-19,1,0.0025224782938488293,0.0025482163703352432,-0.011284869468445664,0.007351384943109258,0.9890506790589091
2016-09-21,1,0.0019682224468887525,0.002083453514400846,-0.011284869468445664,0.006992191232707771,0.9898123124572025
2016-09-23,1,0.0019279241780402181,0.0019968906984015313,-0.011284869468445664,0.006992191232707771,0.9893868491292004
2016-09-27,1,0.002004019091564015,0.002056535979214443,-0.0130302662014298,0.006703570426336981,0.9893265130924854
2016-09-29,1,0.0008266761125215888,0.0010177505863372901,-0.0130302662014298,0.006703570426336981,0.988775538795342
2016-10-03,1,0.0001207831407545847,0.0003872652517002179,-0.00923390020215086,0.006992191232707771,0.990501218689715
2016-10-05,-1,-0.0005335510712352726,-0.00017580506160841175,-0.012952519891135807,0.007351384943109258,0.9898184342572958
2016-10-07,-1,-0.0007310833135206725,-0.00034198716522320077,-0.012952519891135807,0.007655110454198571,0.9892888891796685
2016-10-11,-1,-0.0008790334263532498,-0.0004551696526704915,-0.006370408247997236,0.007966630322327108,0.989059315108365
2016-10-13,-1,-0.000396541321972961,-7.395050238072202e-05,-0.006370408247997236,0.009156963720320153,0.9885016116900637
2016-10-17,-1,-0.0006405059421933066,-0.0003197777349451663,-0.006976939283739596,0.010251401952626393,0.9878646648827337
2016-10-19,-1,-0.00030947517046273174,-2.93709579755199e-05,-0.006976939283739596,0.010427733551317318,0.986472988944106
2016-10-21,-1,-0.001109377958704256,-0.0007183157324748663,-0.006976939283739596,0.010999140728644805,0.9849596813514799
2016-10-25,-1,-0.002382205525207665,-0.001811621540244944,-0.006976939283739596,0.012713391340581331,0.9842576827982483
2016-10-27,-1,-0.0037157158452228683,-0.002990457541718084,-0.0033272212617635926,0.012713391340581331,0.9843203805644676
2016-10-31,-1,-0.0027569144087882637,-0.0021593431437509003,-0.005258660647428329,0.012186763957959165,0.9854380983647328
2016-11-02,-1,-0.003709506679272577,-0.0029607968264509076,-0.0063198954187289515,0.012186763957959165,0.9851772217999861
2016-11-04,-1,-0.0033518359184638614,-0.002662644770374081,-0.0063198954187289515,0.01478783619135651,0.98484983836283
2016-11-08,-1,-0.001936919374471648,-0.0013936747594007538,-0.0063198954187289515,0.017508611217337648,0.9848004365834027
2016-11-10,-1,-0.0013647469727446004,-0.000893084056513513,-0.007345138968170524,0.01478783619135651,0.9853091046992685
2016-11-14,-1,-0.0009856635888916224,-0.0005965432984725069,-0.005822694862215058,0.01478783619135651,0.9862216887728547
2016-11-16,-1,-0.0007914974318415356,-0.0003243699986941874,-0.005872370709521459,0.01478783619135651,0.9873367608952577
2016-11-18,1,0.00030604463472372963,0.0005872428146788232,-0.005872370709521459,0.012397190399145538,0.9893541284658721
2016-11-22,1,0.0008299172246091632,0.0009853007012724686,-0.006843287872999025,0.01160946014250679,0.9900595735278876
2016-11-25,1,0.0009536891222930005,0.001135896664534531,-0.006843287872999025,0.00946242234684683,0.9904710811919989
2016-11-29,1,0.00086078353427928,0.0010200581745943701,-0.006843287872999025,0.00946242234684683,0.9899863262416077
2016-12-01,0,-0.0001922618566183869,6.141696576840048e-05,-0.006843287872999025,0.00946242234684683,0.9911596686367936
2016-12-05,0,-7.687408636130005e-05,0.00019788895963513005,-0.006843287872999025,0.008644770654704833,0.9912065550784782
2016-12-07,1,0.0015633575132698414,0.0016655216483461384,-0.007993241147357975,0.006807879598715627,0.9912225309598054
2016-12-09,1,0.0016178018838832434,0.0017103620518870391,-0.007993241147357975,0.007748552945774024,0.9912222693896149
2016-12-13,1,0.0019178475921613348,0.00195480710587623,-0.007993241147357975,0.007748552945774024,0.9910072636175429
2016-12-15,1,0.0024137865482074337,0.0024578395771622857,-0.007993241147357975,0.005497357444991193,0.991388590649926
2016-12-19,1,0.0020429505185781036,0.002066407183155255,-0.008564827417492,0.0034182050182843104,0.989661906098416
2016-12-21,1,0.0029657434421864965,0.003164087879790366,-0.007993241147357975,0.005497357444991193,0.9898900977843315
2016-12-23,1,0.0032429429614746824,0.0035334331209486854,-0.007993241147357975,0.007748552945774024,0.9891334221316539
2016-12-28,1,0.0023982111371939055,0.0025659807183276897,-0.008832601494688674,0.007748552945774024,0.9887854724012196
2016-12-30,1,0.002320511875066046,0.0025020478413502437,-0.009849132873780614,0.008423991611904724,0.9879433124229987
2017-01-04,1,0.0018455775643951172,0.0021268622322185545,-0.010993793400568459,0.008835093577271236,0.9846542295139009
2017-01-06,1,0.0007738800782662446,0.0009439590495463111,-0.010993793400568459,0.008835093577271236,0.9853975285453227
2017-01-10,1,0.0009287219659757033,0.001052592706082354,-0.010993793400568459,0.005977729692571561,0.9859432559398109
2017-01-12,1,0.0010644891707784526,0.0012460811213681057,-0.010993793400568459,0.010910994155889173,0.9850267971566453
2017-01-17,1,0.000736504285017912,0.0008470369870855157,-0.010993793400568459,0.010910994155889173,0.9849310251489156
2017-01-19,-1,-0.0017479321855496713,-0.0015227668587996937,-0.005789851960553218,0.013514299162778111,0.9858868731982698
2017-01-23,-1,-0.0007292786499629382,-0.0006520890373319314,-0.005789851960553218,0.014071867442351498,0.9861946238437561
2017-01-25,-1,-0.0002606894361216009,-0.0002274978207789399,-0.008281468724644034,0.011096850249080302,0.9870437805487976
2017-01-27,-1,-0.0005998288623411286,-0.0005828718175808578,-0.0031290251321679815,0.014071867442351498,0.9870471354662272
2017-01-31,-1,-0.00018247852086132886,-0.000131852712857048,-1.3363369076946699e-05,0.011170337092284443,0.9879032091239259
2017-02-02,-1,-0.00043156924399349276,-0.00035950287759858944,0.0003273031148619395,0.010339121881790585,0.9916583907746199
2017-02-06,-1,-0.0008285577092426984,-0.0007175633108846813,0.0003273031148619395,0.010339121881790585,0.9920381676958637
2017-02-08,-1,-0.00044543236272546766,-0.0003987142184634216,0.000836420738786721,0.011170337092284443,0.9914769333065602
2017-02-10,1,0.0008064936065691888,0.0009457768545676508,0.0004244787086850378,0.011170337092284443,0.9923713165253277
2017-02-14,1,0.001516153579145685,0.0017749367614700836,-0.00047683500247550943,0.014035590378614928,0.991695381409763
2017-02-16,1,0.0020086543825531384,0.0023035062654097973,-0.00047683500247550943,0.012729921271147788,0.9920743915936112
2017-02-21,1,0.0025011616751013086,0.002865272033133807,-0.0017569235208563347,0.012376510903028265,0.9912302915092113
2017-02-23,1,0.001821827133041181,0.0020489072778167496,-0.00047683500247550943,0.012376510903028265,0.9911378978594212
2017-02-27,1,0.0016004039897497685,0.0017458254563670387,0.0008930136597350608,0.011880587463892289,0.9916518371421666
2017-03-01,1,0.0018748886887627215,0.0020335888675108446,-0.00047683500247550943,0.011880587463892289,0.9921113540153972
2017-03-03,1,0.0018686910963863108,0.0020263372116270254,-0.0005478455929749048,0.011880587463892289,0.9918446304508598
2017-03-07,1,0.001425160506304062,0.0015169267225895744,-0.0005478455929749048,0.012376510903028265,0.9915042438604919
2017-03-09,1,0.0023631018767470077,0.0026087692491890135,-0.0013802255127794464,0.011880587463892289,0.9920778051288437
2017-03-13,1,0.002836994212657674,0.0031110621279327117,-0.0027494244026475675,0.009212420629303,0.9929105540220533
2017-03-15,1,0.0036655031253015643,0.004073037225230813,-0.0027494244026475675,0.007029406201554959,0.9937116066196829
2017-03-17,1,0.003692816328886674,0.004058330925916909,-0.003474229171814463,0.007029406201554959,0.9934411982149327
2017-03-21,1,0.0027719855408160736,0.0029540088410135684,-0.0026052912030129264,0.008754777761109849,0.9944345417428744
2017-03-23,1,0.0021411316707730253,0.002150119109396845,-0.0034019218892053734,0.01006673643505651,0.9940595963393175
2017-03-27,1,0.0027202269028886415,0.0028245272664059857,-0.003689706922891118,0.01006673643505651,0.9931289135676774
2017-03-29,1,0.002344397968954151,0.0023700997772467423,-0.003689706922891118,0.01006673643505651,0.9930141667939865
2017-03-31,1,0.0013304155445925977,0.0013656587687647897,-0.004541350050164027,0.010738045369869978,0.9881530607948483
2017-04-04,1,0.001840778396270974,0.001991519182389946,-0.004675630609945552,0.01006673643505651,0.9883409462357999
2017-04-06,1,0.0022627847012926705,0.0024881891217238073,-0.004675630609945552,0.010738045369869978,0.9839083464738732
2017-04-10,1,0.00195982303625433,0.0021363148922781986,-0.0070638504323695655,0.010738045369869978,0.9834997054468955
2017-04-12,1,0.002340919578519102,0.002641433810328515,-0.00710251137885788,0.010738045369869978,0.9835372425595394
2017-04-17,1,0.0025858375864022164,0.002934672120906668,-0.00710251137885788,0.01006673643505651,0.9838917738764491
2017-04-19,1,0.0030697937608987623,0.0034714078491611925,-0.007695473221928456,0.008605724003038908,0.9835026680776108
2017-04-21,1,0.003468352348811118,0.003952357929339545,-0.007695473221928456,0.008605724003038908,0.9836703842844189
2017-04-25,1,0.0033948297685409265,0.0038543442934883855,-0.00710251137885788,0.00819665397294134,0.9846435379093967
2017-04-27,1,0.0030734479448260225,0.0034163257115163294,-0.00710251137885788,0.008605724003038908,0.9841429862294191
2017-05-01,1,0.004006830921600526,0.004496623011085796,-0.0036533688731376704,0.008569060891327418,0.9888840753982872
2017-05-03,1,0.004118675592142756,0.004692680187280049,-0.001731688667964517,0.008692508816904825,0.9895153093783454
2017-05-05,1,0.004776908804857652,0.0054409792203179005,-0.001731688667964517,0.008692508816904825,0.9929858577032369
2017-05-09,1,0.00474196977554619,0.005406487021113956,-0.0014368694726221785,0.008692508816904825,0.9933640435884586
2017-05-11,1,0.004676958726110627,0.005349394712839095,-0.0014368694726221785,0.00955969362558121,0.9922961621100205
2017-05-15,1,0.004680064026564101,0.005331387099458831,-0.0016542330677451506,0.00944970429044674,0.9906654358271869
2017-05-17,1,0.0036839113411698677,0.00416534355862443,-0.0015433865643827973,0.00944970429044674,0.991321492337701
2017-05-19,1,0.004043760087223704,0.0045629407375853545,-0.0015433865643827973,0.009753579481047605,0.9902626255703854
2017-05-23,1,0.0036369467878836154,0.004059779008015504,-0.0015433865643827973,0.013918007208216409,0.9889659064084816
2017-05-25,1,0.004025541595096433,0.004479444342088375,-0.0015433865643827973,0.013918007208216409,0.9886793014374455
2017-05-30,1,0.00443368673190731,0.004970391602581859,-0.007339152068969202,0.013918007208216409,0.9871834297685488
2017-06-01,1,0.003959043498858096,0.004343066357764554,-0.012781955021637766,0.016908257116229702,0.9855210994164927
2017-06-05,1,0.004587708764429402,0.005085134446761907,-0.012781955021637766,0.011702562544842551,0.9861449051393855
2017-06-07,1,0.004231327122655259,0.004662641924666882,-0.014700112580783594,0.016908257116229702,0.9848771368938853
2017-06-09,1,0.003897495540777008,0.004270291805978703,-0.01256122188597817,0.015202064986986143,0.9858734984795653
2017-06-13,1,0.0006435945645015908,0.0008178629206154787,-0.008426084374658825,0.015202064986986143,0.9878120051515571
2017-06-15,1,0.0006430034708807596,0.0007946656057258351,-0.008426084374658825,0.015202064986986143,0.9872130402873487
2017-06-19,1,0.0017188640314093897,0.001727952618481106,-0.008426084374658825,0.01408790378020935,0.9883184102788073
2017-06-21,1,0.000699955572446861,0.0008894040784134837,-0.0036414430291105597,0.01408790378020935,0.9888862456865113
2017-06-23,1,0.0011038682794513696,0.0012427037996588233,-0.007474724240465544,0.014048984615759189,0.9890054576725691
2017-06-27,-1,-0.0007233415243652036,-0.000318352052556464,-0.0036414430291105597,0.014048984615759189,0.9895223720294435
2017-06-29,-1,-0.00145372086775816,-0.0009404968192430836,-0.0036414430291105597,0.014048984615759189,0.9862210815673215
2017-07-03,-1,-0.0015399109094526042,-0.0010098901186982169,-0.003855333447674191,0.014048984615759189,0.9847742078006266
2017-07-06,-1,-0.0011898239625477505,-0.0007378602580230349,-0.003855333447674191,0.014048984615759189,0.985339669455645
2017-07-10,-1,-0.0007357624042192486,-0.0003519452684328419,-0.0071329514630068605,0.014048984615759189,0.9845422222404207
2017-07-12,-1,-0.0003172207588843177,-8.555968296868402e-06,-0.0071329514630068605,0.014048984615759189,0.9841884463801867
2017-07-14,1,0.00017068435064732405,0.0004025372063210181,-0.008212049093441465,0.013856375025692497,0.9830576288517973
2017-07-18,0,-4.3396937890688523e-07,0.00027810125989697666,-0.008212049093441465,0.014628201624860709,0.9825091149171391
2017-07-20,1,0.0008085765948833167,0.0009855419210089782,-0.00862708984287467,0.013856375025692497,0.981201386576987
2017-07-24,1,0.001093331701994613,0.0012178613195183829,-0.00862708984287467,0.013268497195458839,0.9817638824860744
2017-07-26,1,0.0002528743946429953,0.000482769925494551,-0.007228605060291889,0.013881395461383787,0.9813157389306842
2017-07-28,1,0.0010007258233562608,0.0011650714428935512,-0.007228605060291889,0.013763565508286224,0.9851723065815204
2017-08-01,1,0.0004772863777322934,0.0006718210221492905,-0.006498248018850084,0.014349773072641892,0.9863825791771736
2017-08-03,1,0.0009130997260553139,0.0010262206595830843,-0.004920315278896484,0.013763565508286224,0.9868350416295515
2017-08-07,1,0.0015309321071977655,0.0015498949902161816,-0.003909455713710451,0.013763565508286224,0.9876730103664356
2017-08-09,1,0.0019546151306681393,0.0020038033744435926,-0.004920315278896484,0.01438302357164472,0.9868026993780705
2017-08-11,1,0.0010788766489626537,0.0011535534301302692,-0.003909455713710451,0.014787078135591023,0.987585963928575
2017-08-15,1,0.001940992427760637,0.0019969229361497436,-0.004920315278896484,0.0143666279741931,0.9878931722417704
2017-08-17,0,-5.581314478268068e-05,0.00011376299347201228,-0.003909455713710451,0.0143666279741931,0.9897804154003418
2017-08-21,-1,-0.0006229828769465242,-0.00038510655906502276,-0.0030674436978559583,0.014787078135591023,0.9887341448758612
2017-08-23,1,0.00021558500649928355,0.0003527942738337132,-0.006218308125075845,0.0143666279741931,0.9892542210665645
2017-08-25,1,6.363456122664553e-05,0.0002124520718086761,-0.006218308125075845,0.011669571474047435,0.9894474836504739
2017-08-29,1,0.00012668529629223383,0.00028007353580001236,-0.00433874485216802,0.009421496236466053,0.9901655683852053
2017-08-31,1,0.0004023843033341065,0.0005367116833827393,-0.0069734785139483795,0.01045519992449671,0.9896101428805189
2017-09-05,1,0.0005533477983931622,0.0006868092002092376,-0.0069734785139483795,0.008665142476530916,0.9900922672063972
2017-09-07,1,0.0007162151244637276,0.0008214848714397616,-0.0046243968355108925,0.008410106427791914,0.9914751360445802
2017-09-11,1,0.001618101133599914,0.0016487695815977856,-0.0046243968355108925,0.007361480638730097,0.992244775991405
2017-09-13,1,0.0014429327061627874,0.0014576207378731265,-0.003827179271012386,0.0074074300723744055,0.9921968302063016
2017-09-15,1,0.0015178698059327964,0.0015409539794140855,-0.003827179271012386,0.006507758179906464,0.9925279764439711
2017-09-19,1,0.0019308155745604279,0.0020291291140567477,-0.0028235827158802343,0.0052820033980400345,0.9938045478453634
2017-09-21,1,0.0024916848110827752,0.002562954842857313,-0.0009419576261620189,0.0052820033980400345,0.9942955658077172
2017-09-25,1,0.0016926359467857761,0.0017629168441518003,-0.000258377312131895,0.0067104618243958416,0.9940630784105512
2017-09-27,1,0.001857800457197192,0.0018986375112872722,-0.000258377312131895,0.0067104618243958416,0.9937380342773594
2017-09-29,1,0.001914596228572517,0.001946101552492995,0.001624855342038742,0.0069121671502357694,0.9900550629306262
2017-10-03,1,0.0015592606954817757,0.0015883539823736224,0.001624855342038742,0.010391380992791343,0.9895448736908655
2017-10-05,1,0.0015043264790365633,0.0015377546005416575,-0.000258377312131895,0.010391380992791343,0.9885296005161153
2017-10-09,1,0.00116263839892673,0.0012866836355134095,-0.000258377312131895,0.013735781479798518,0.9865673415587772
2017-10-11,1,0.002109930009407675,0.0021237038419286585,-0.000258377312131895,0.013735781479798518,0.9863543957955013
2017-10-13,1,0.0018594682940682025,0.0018902624746866955,-0.0009027940555931562,0.013735781479798518,0.9855841004694144
2017-10-17,1,0.002283030831468313,0.0023402534339402783,-0.0009027940555931562,0.015135840364336703,0.9850921227869527
2017-10-19,1,0.002712497776599103,0.00284571164631562,-0.0027509295683121335,0.017955804647104886,0.9838478971112221
2017-10-23,1,0.003660399777339336,0.003946400983091011,-0.00460515752091565,0.015135840364336703,0.9846972704082521
2017-10-25,1,0.0035249645419378486,0.0038203084557874864,-0.00460515752091565,0.015135840364336703,0.9848200786767063
2017-10-27,1,0.005241369229792648,0.005757357395434756,-0.00460515752091565,0.015135840364336703,0.9881674017877371
2017-10-31,1,0.005443139438844489,0.005970251962259132,-0.0067229801360131495,0.014067901452089157,0.9875170036945168
2017-11-02,1,0.0034918007523701677,0.0036650024459014448,-0.005028943161237469,0.014067901452089157,0.9872744649656215
2017-11-06,1,0.004638313851980639,0.004942820934609822,-0.009072037257754774,0.008440987569620577,0.9839582783440406
2017-11-08,1,0.005921769932910969,0.006448330307071188,-0.009072037257754774,0.011565323148814309,0.9826167961943821
2017-11-10,1,0.0050624122649515785,0.0054537505169902824,-0.013919647417056775,0.011565323148814309,0.9817102059407279
2017-11-14,1,0.005819510502018241,0.0063399287168331275,-0.013919647417056775,0.00761026547354181,0.9822775473207089
2017-11-16,1,0.004881315653351028,0.005193884736773184,-0.009051113787178636,0.006900187343134132,0.9834603956574043
