JNU-Tangyin/eata/results/Batch4_SP500/Batch4_SP500-ABT.csv
Date,Action,Predicted_Q25,Predicted_Q75,Actual_Q25,Actual_Q75,RL_Reward
2010-12-14,0,0.0,0.0,-0.003304458662752648,0.0018834336373356139,0.9965535846706691
2010-12-16,-1,-0.002223048330205626,-0.0019133775662332065,-0.004668899315569552,0.00031657259770805654,0.9964239174892523
2010-12-20,-1,-0.002665932560685777,-0.0022914146303932514,-0.004668899315569552,0.0028564871523882682,0.9957434055277715
2010-12-22,-1,-0.002568474814171348,-0.0022467687272388764,-0.0026678349466470654,0.003410413479385167,0.9950596511269576
2010-12-27,-1,-0.002768183399176249,-0.00244157960782677,-0.002654320226257809,0.004418241423068691,0.9949040417652623
2010-12-29,-1,-0.00241763237341346,-0.0021526943575088477,-0.004668899315569552,0.004418241423068691,0.9939150698075317
2010-12-31,-1,-0.0013021712983631883,-0.0012117713575139678,-0.00741933084372535,0.0031036788753667443,0.9933675597802902
2011-01-04,-1,-0.0014589668047125103,-0.0013037256271200815,-0.00741933084372535,0.0031036788753667443,0.9932256455278885
2011-01-06,-1,-0.0015301065864847898,-0.0013660654013649513,-0.00741933084372535,0.004418241423068691,0.9927772425555064
2011-01-10,-1,-0.0017555676211512671,-0.0015622850150314954,-0.00741933084372535,0.003369931650114841,0.9930519429186446
2011-01-12,-1,-0.002582331896524234,-0.002252796797212498,-0.00741933084372535,0.003369931650114841,0.9931497284518896
2011-01-14,0,0.0,0.0,-0.0050832290176686095,0.005388817690830438,0.9931346393310525
2011-01-19,0,0.0,0.0,-0.00741933084372535,0.005388817690830438,0.9922545280553291
2011-01-21,0,0.0,0.0,-0.00741933084372535,0.005388817690830438,0.9922918375397233
2011-01-25,0,0.0,0.0,-0.008266721494553753,0.003432563242727185,0.992144742890826
2011-01-27,-1,-0.0018804192243575546,-0.0017276941856193984,-0.003126751982982284,0.009244495716295683,0.992146965663489
2011-01-31,-1,-0.0023739005983531695,-0.0021619910693314345,-0.0015888072087637288,0.009405441535017791,0.9919186935295576
2011-02-02,-1,-0.0021313662459604057,-0.00197293246818758,-0.0015888072087637288,0.009405441535017791,0.9917707593070118
2011-02-04,0,0.0,0.0,-0.002288736750145009,0.009405441535017791,0.9923794860311389
2011-02-08,0,0.0,0.0,-0.0012071670912323273,0.009405441535017791,0.9923476381773602
2011-02-10,0,0.0,0.0,-0.001594105152680418,0.009405441535017791,0.99186494896838
2011-02-14,0,0.0,0.0,-0.006334753870441946,0.009405441535017791,0.9915691185799923
2011-02-16,0,0.0,0.0,-0.00637567379696004,0.009405441535017791,0.9913590353288074
2011-02-18,0,0.0,0.0,-0.00637567379696004,0.009405441535017791,0.9912179516075028
2011-02-23,0,0.0,0.0,-0.004164808694379277,0.009405441535017791,0.9917331426693405
2011-02-25,1,0.0012689915674335495,0.0015581047170481021,-0.004164808694379277,0.007173402804509777,0.9929720802161822
2011-03-01,1,0.0014353534655662764,0.0017682625100107943,-0.0022226819870530675,0.00643771084144067,0.9938302536632998
2011-03-03,1,0.0021884925326540825,0.0026188563714973,-0.0022226819870530675,0.00643771084144067,0.9940199208919444
2011-03-07,1,0.0026405579106748307,0.003166730072331014,-0.0015087915763729782,0.006792330120385032,0.9935579928917391
2011-03-09,1,0.0027971268496709075,0.0033424132395255997,-0.00248526361566053,0.007836670389061167,0.9928599007919842
2011-03-11,1,0.002622570489195922,0.003168162673288992,-0.0021843758084139926,0.007836670389061167,0.9933402578312894
2011-03-15,1,0.001659800134524371,0.0020595784703081174,-0.00036436105650098006,0.00918260240345118,0.9941320310952011
2011-03-17,1,0.001498414208395634,0.0018797502232680017,-0.00036436105650098006,0.008964376924675537,0.9945455830197609
2011-03-21,1,0.0019368149580333512,0.002394771698176063,-0.0015087915763729782,0.008964376924675537,0.9937821884926727
2011-03-23,1,0.0017471008970837876,0.002157091836234162,-0.0037161035449019934,0.008964376924675537,0.9933352833497743
2011-03-25,1,0.0016392676931473336,0.001975974912953568,-0.0041052667564614245,0.011173557123084783,0.9920711363299625
2011-03-29,1,0.002132605143308189,0.002559524344062475,-0.0041052667564614245,0.011173557123084783,0.991785985862399
2011-03-31,1,0.002608256823966408,0.0030938579943301956,-0.004879267045358116,0.009301865376780145,0.991904468267495
2011-04-04,1,0.0031885179848708065,0.0037092484705865073,-0.004879267045358116,0.009218573413849214,0.9922984840989566
2011-04-06,1,0.003389161895133992,0.003919075029447167,-0.005004807127751833,0.00843102085716004,0.9925890566937434
2011-04-08,1,0.0024792213440662644,0.002823053626142541,-0.005004807127751833,0.00843102085716004,0.9929633441272551
2011-04-12,0,0.0,0.0,-0.005004807127751833,0.00813180951377528,0.9926058464999398
2011-04-14,0,0.0,0.0,-0.003974103641200891,0.00813180951377528,0.9932206586446423
2011-04-18,0,0.0,0.0,-0.003974103641200891,0.00813180951377528,0.9937536151199994
2011-04-20,1,0.0021084808819674546,0.002330756396458214,-0.0019085473537364863,0.00813180951377528,0.9942647143748848
2011-04-25,0,0.0,0.0,-0.0019085473537364863,0.006465870766453036,0.9946617884196498
2011-04-27,0,0.0,0.0,-0.004800461982853136,0.004216663249847604,0.9950792402348708
2011-04-29,0,0.0,0.0,-0.006810069937174256,0.004216663249847604,0.9940853059015682
2011-05-03,0,0.0,0.0,-0.006810069937174256,0.003557199321939314,0.993868833103994
2011-05-05,0,0.0,0.0,-0.006920843037507839,0.003557199321939314,0.993497097393219
2011-05-09,0,0.0,0.0,-0.006920843037507839,0.004476010082436016,0.9932694415392237
2011-05-11,1,0.0026033184312048182,0.0029725401022316655,-0.006920843037507839,0.0036848930303139587,0.9928612388596775
2011-05-13,1,0.0026207471462809115,0.002974700187748887,-0.007888936911035309,0.0036848930303139587,0.9922468808663956
2011-05-17,1,0.0023697688726388934,0.00266433445640521,-0.006920843037507839,0.0019933825913498243,0.9929140051714912
2011-05-19,1,0.002001685763461407,0.0022206481151642826,-0.006424408431747032,0.0019933825913498243,0.9933906273602007
2011-05-23,1,0.0017369972785859391,0.001921626159266276,-0.006424408431747032,0.005104952320002792,0.993497081473441
2011-05-25,1,0.0016646243849720165,0.001864818282463793,-0.004162195603754113,0.005104952320002792,0.9934609678782153
2011-05-27,1,0.0007798269604220585,0.0008804003175316272,-0.0032849635271287206,0.005104952320002792,0.9948040011124949
2011-06-01,1,0.0009739986458364864,0.0010945277905263198,-0.0031226820773313673,0.005104952320002792,0.9953393666819205
2011-06-03,1,0.00039983662315990403,0.0004342762423750223,-0.001826899134636989,0.006821773821429072,0.9954167494690672
2011-06-07,1,0.000449618444857698,0.00046905846073703664,-0.001826899134636989,0.006620123132851017,0.9956943730153675
2011-06-09,1,0.0001789123290199286,0.00022281954534082818,-0.0023731046058012924,0.006620123132851017,0.9953704506193521
2011-06-13,1,0.00025180449380536986,0.00027439794452072325,-0.002308234573565642,0.005304650647934987,0.996223313213896
2011-06-15,1,0.0004094962964842797,0.0004310332326079013,-0.002877545251398904,0.006620123132851017,0.9955290488193034
2011-06-17,1,0.000558019128108304,0.0006000687097641295,-0.0031226820773313673,0.005304650647934987,0.9952924606675048
2011-06-21,1,0.00014935684525378318,0.00022179791114909165,-0.00331678334141562,0.005325301536232258,0.9950167901720526
2011-06-23,-1,-0.0007208632103680626,-0.0004928476687701113,-0.002928071980624416,0.006682075797742832,0.9947767944274876
2011-06-27,-1,-0.00048419973261581506,-0.0003094415887035787,-0.004688649800454438,0.006682075797742832,0.9944171303571611
2011-06-29,-1,-0.0002242323485150321,-8.97717262728525e-05,-0.006777559883746169,0.005325301536232258,0.9943229424559662
2011-07-01,1,0.00013714756445717898,0.0002547105432982408,-0.007142683070367452,0.002115668736212077,0.9940538729036452
2011-07-06,1,8.075088012854457e-06,0.0001509520846704546,-0.007142683070367452,0.0019362621330270841,0.9938924341194967
2011-07-08,1,0.00010213912704600165,0.0002614639244154317,-0.008021753027029862,0.0019362621330270841,0.991339796501155
2011-07-12,0,-0.0001261829909817183,2.005331757242351e-05,-0.0093050738076316,0.0030845328713779343,0.9890141781737097
2011-07-14,0,-0.0001125873567621388,2.3731329480119925e-05,-0.0093050738076316,0.0030845328713779343,0.9855785824929576
2011-07-18,-1,-0.0008942606978537081,-0.0006193063112061471,-0.008021753027029862,0.005896699831670868,0.985762505771147
2011-07-20,-1,-0.0004895450971992072,-0.00030358598117292425,-0.007142683070367452,0.005207501316957601,0.9861854408691728
2011-07-22,-1,-0.00027270453256771467,-0.00010646621116355262,-0.009846325964728125,0.004488510872466093,0.9852533231183581
2011-07-26,-1,-0.0004934380413719071,-0.00032902269961706393,-0.009171322066830107,0.005759432073485597,0.9844956937985436
2011-07-28,-1,-0.0008955551931416511,-0.0006863860027693723,-0.018145035356689272,0.007185252321076238,0.9832395989174906
2011-08-01,-1,-0.0015262742377499198,-0.0012591917389827181,-0.009735201950838924,0.010772411871888907,0.982722785470928
2011-08-03,-1,-0.001949387976139932,-0.0016134570819496459,-0.004524635549011006,0.012629649110463121,0.9815425715217732
2011-08-05,-1,-0.001997775399904976,-0.001628591498469677,-0.012473202683226187,0.010772411871888907,0.983274949729426
2011-08-09,-1,-0.0038586050533601784,-0.0032457653578799395,-0.0015154545062349744,0.012629649110463121,0.9837379032811329
2011-08-11,0,0.0,0.0,-0.012252182547816513,0.010731847086208682,0.9877265334870986
2011-08-15,-1,-0.0022378705193714325,-0.001842809251254943,-0.012252182547816513,0.010731847086208682,0.9874779506442578
2011-08-17,-1,-0.0023260055201235366,-0.0019298971575189634,-0.012252182547816513,0.010731847086208682,0.9869966543658599
2011-08-19,-1,-0.0029082040652868343,-0.002457326449617795,-0.005301477152689323,0.012629649110463121,0.9872528590604146
2011-08-23,-1,-0.0015192892780988203,-0.0012495992747883179,-0.012252182547816513,0.012629649110463121,0.9875564014673964
2011-08-25,-1,-0.0016380919099233367,-0.0013982454689986505,-0.012252182547816513,0.011482662317046326,0.987949695737037
2011-08-29,-1,-0.0004257878422834988,-0.00034294848753273465,-0.012252182547816513,0.009237624628704989,0.9888516502831423
2011-08-31,0,0.0,0.0,-0.012252182547816513,0.007666488071760372,0.9889398584604417
2011-09-02,-1,-9.622132647045779e-05,-7.755946035271898e-05,-0.01438091557238013,0.007666488071760372,0.9887028198030506
2011-09-07,1,0.00033640624001858485,0.00033754044202574164,-0.01438091557238013,0.007666488071760372,0.9890057947353743
2011-09-09,-1,-0.0012690561234153094,-0.001095770931194437,-0.004506653435251464,0.007666488071760372,0.990070635909854
2011-09-13,-1,-0.0013897783559996754,-0.0011806560800824116,-0.004506653435251464,0.009670035940388642,0.9890926204857711
2011-09-15,-1,-0.0002846210541392947,-0.00023687912150794594,-0.0060032230085689964,0.009670035940388642,0.9895434293577506
2011-09-19,1,0.0005102172817463248,0.0005917536409250153,-0.008536997844271402,0.009430686830687169,0.9894639233585631
2011-09-21,0,0.0,0.0,-0.0060032230085689964,0.009430686830687169,0.9899261115709587
2011-09-23,1,0.00011333028036707109,0.0001637302076340347,-0.004506653435251464,0.011361116072699946,0.9903253579769565
2011-09-27,1,0.00016931256568651762,0.00021082092418706752,-0.007168696412610832,0.011361116072699946,0.9901546719596936
2011-09-29,1,0.000522064020095757,0.0006165129060697253,-0.007168696412610832,0.011361116072699946,0.9904069353783893
2011-10-03,-1,-0.00043455578421177575,-0.0004142553931338661,-0.004250223085786089,0.011361116072699946,0.991356905958789
2011-10-05,1,0.0004895771310216969,0.0006014521923231458,-0.006596553556602331,0.009490621078247642,0.9914474832937328
2011-10-07,1,0.00048615059245254755,0.0006013612326783897,-0.007168696412610832,0.011455115857287007,0.9904437598085422
2011-10-11,0,0.0,0.0,-0.007168696412610832,0.011278121150261467,0.9905915351075016
2011-10-13,0,0.0,0.0,-0.007860785743875304,0.011924178419075997,0.988977768552578
2011-10-17,0,0.0,0.0,-0.006744433656937778,0.011924178419075997,0.9893759278998389
2011-10-19,1,0.0017695083857861287,0.0019395769057916606,-0.007860785743875304,0.010999819343962767,0.9898685438589939
2011-10-21,0,0.0,0.0,-0.007860785743875304,0.009397853809481408,0.9900973184280117
2011-10-25,0,0.0,0.0,-0.007389499110834322,0.009397853809481408,0.9901310919790636
2011-10-27,0,0.0,0.0,-0.007389499110834322,0.005001477102356953,0.9905831746920376
2011-10-31,0,0.0,0.0,-0.007389499110834322,0.006906687300728265,0.9897598055689757
2011-11-02,0,0.0,0.0,-0.00651341124133464,0.010999819343962767,0.9894686743773985
2011-11-04,0,0.0,0.0,-0.00651341124133464,0.006906687300728265,0.990344994359605
2011-11-08,0,0.0,0.0,-0.00651341124133464,0.004374575260772749,0.9908456402990898
2011-11-10,0,0.0,0.0,-0.00651341124133464,0.004374575260772749,0.9921580904441046
2011-11-14,0,0.0,0.0,-0.00651341124133464,0.0032747684387897267,0.9926060512153312
2011-11-16,0,0.0,0.0,-0.005911199764041419,0.0032747684387897267,0.9927937685494939
2011-11-18,0,0.0,0.0,-0.005911199764041419,0.0032747684387897267,0.9927403914540931
2011-11-22,0,0.0,0.0,-0.0055558082340667935,0.007744601543393474,0.992522310885052
2011-11-25,0,0.0,0.0,-0.0023607986148495436,0.007744601543393474,0.9926083657266399
2011-11-29,0,0.0,0.0,-0.003030292805261274,0.00678604293758785,0.9933010637393247
2011-12-01,1,0.0004651341477576146,0.0006730941228258922,-0.003030292805261274,0.00678604293758785,0.9944109052277577
2011-12-05,1,0.0002946260193075471,0.00047378266682909613,-0.002625591609771023,0.007577230696776326,0.9942189830783433
2011-12-07,1,0.00040194151861187204,0.0005720659536735347,-0.004283421485524501,0.007577230696776326,0.9939355648391098
2011-12-09,0,0.0,0.0,-0.0026953469835095598,0.00716503209904468,0.9944336945792724
2011-12-13,0,0.0,0.0,-0.004081886267991729,0.00716503209904468,0.9939386487610782
2011-12-15,0,0.0,0.0,-0.004081886267991729,0.005450725844922875,0.9941576191834773
2011-12-19,0,0.0,0.0,-0.004081886267991729,0.005450725844922875,0.9942708397548682
2011-12-21,0,0.0,0.0,-0.004081886267991729,0.004933971054502571,0.994927941566498
2011-12-23,0,0.0,0.0,-0.005089177422489033,0.004723352983141228,0.9945505770864063
2011-12-28,0,0.0,0.0,-0.005089177422489033,0.004723352983141228,0.9946302326575053
2011-12-30,0,0.0,0.0,-0.006341463090983372,0.004658050824348101,0.9943760445232164
2012-01-04,0,0.0,0.0,-0.006341463090983372,0.0037900699523947573,0.9947252011445306
2012-01-06,0,0.0,0.0,-0.005976729776985873,0.004723352983141228,0.9944361761013957
2012-01-10,1,0.00029517711945256154,0.0003198051032004448,-0.005976729776985873,0.004933971054502571,0.9943084142381527
2012-01-12,-1,-0.000881227579237357,-0.0006586848498982736,-0.005652579724992668,0.004933971054502571,0.9947252035972
2012-01-17,-1,-0.00011569247022614115,-2.800254397764557e-05,-0.005652579724992668,0.0037927852913618625,0.9951165844917945
2012-01-19,-1,-0.0008469360109284586,-0.0006091590841444686,-0.003430457838720028,0.0058212781800351596,0.9948007077795973
2012-01-23,-1,-0.0002705397887544321,-0.00014997956003596233,-0.004056106705018829,0.006057684510744126,0.9944990121475606
2012-01-25,0,-6.988646411337744e-05,6.663950891568353e-06,-0.0029229899005288177,0.006057684510744126,0.9952691521714266
2012-01-27,-1,-0.0008005021023254476,-0.000597151097261396,-0.002563398602021022,0.006932339808348189,0.9952105627046306
2012-01-31,1,0.000148978804799285,0.00015613090767136777,-0.0019510489442198591,0.00704675775604514,0.9953236295751352
2012-02-02,-1,-0.00035264130483610254,-0.00023567823374187754,-0.0019510489442198591,0.007139120960843187,0.9948355407068018
2012-02-06,1,9.881342121280463e-05,0.00016652513669006668,-0.002563398602021022,0.006932339808348189,0.9948679380476062
2012-02-08,1,0.0006871521395473445,0.0007615786851176616,-0.002116149348978854,0.007094956537059662,0.9941797206217845
2012-02-10,1,0.0005572377017179484,0.0006161259123744229,-0.001638809509193688,0.007406259921606841,0.9940472780618683
2012-02-14,1,0.000127097323948716,0.0001714882105640235,-0.001638809509193688,0.007830771388376456,0.9933965696343078
2012-02-16,1,0.000815971696017254,0.00092748164482406,-0.001638809509193688,0.007830771388376456,0.9940396820469963
2012-02-21,1,0.0003795151835868056,0.0004344913446573489,0.0003643139719640672,0.007830771388376456,0.9936827083179437
2012-02-23,1,0.000575883988654196,0.0006772247497442541,-0.001638809509193688,0.007830771388376456,0.9935710175708748
2012-02-27,-1,-9.931925606083573e-05,-4.9102948857311657e-05,-0.0005234394402061306,0.008443127998926754,0.9930567143632193
2012-02-29,1,0.0004173427150712023,0.0005324929088875152,-0.0005234394402061306,0.008443127998926754,0.9936132648500322
2012-03-02,1,0.0005130304112106475,0.000598654488086642,-0.0016770605689568868,0.006181361448161521,0.9938960320221073
2012-03-06,1,0.00016576146345966182,0.00022127104852771767,-0.0010111550166884958,0.006181361448161521,0.9945504867741325
2012-03-08,1,0.00025041250776752116,0.0002681315883403485,-0.0010200858433018548,0.00532703612792633,0.9953253462482922
2012-03-12,1,6.364420073583422e-05,8.000832055347676e-05,-0.002368794810755302,0.005236535507063424,0.9949502858626597
2012-03-14,1,0.0006321980455867165,0.0006847087062755413,-0.0028085330395778863,0.005121218623581271,0.9951627208663203
2012-03-16,1,0.0006783510032786703,0.0007452868038172264,-0.0028085330395778863,0.004889258305448042,0.9951359762342069
2012-03-20,0,0.0,0.0,-0.0028085330395778863,0.004889258305448042,0.9954822692447457
2012-03-22,0,0.0,0.0,-0.0028085330395778863,0.005121218623581271,0.9946343017537236
2012-03-26,0,0.0,0.0,-0.0028085330395778863,0.005121218623581271,0.9946373294034965
2012-03-28,0,0.0,0.0,-0.002368794810755302,0.005121218623581271,0.9941652748380012
2012-03-30,0,0.0,0.0,-0.0022834591198717226,0.0045808381823209616,0.9943700823885312
2012-04-03,0,0.0,0.0,-0.0022834591198717226,0.005479777747539922,0.9940221714785978
2012-04-05,0,0.0,0.0,-0.002978452067921207,0.006259273718338654,0.9935926338026403
2012-04-10,1,0.001382143779132971,0.0014147154786909055,0.0003305440428442414,0.006259273718338654,0.9949341112584277
2012-04-12,0,0.0,0.0,0.0003305440428442414,0.006475820868055739,0.992945834825759
2012-04-16,0,0.0,0.0,-0.0008485041203703285,0.006475820868055739,0.9928395799442201
2012-04-18,0,0.0,0.0,-0.0008485041203703285,0.006475820868055739,0.9926483149576147
2012-04-20,0,0.0,0.0,-0.0034486667512286765,0.006475820868055739,0.9929542904835761
2012-04-24,-1,-0.3681156620794287,-0.3572852886156375,-0.0034486667512286765,0.00476176982349402,0.7332642616392706
2012-04-26,0,0.0,0.0,-0.005287600027700995,0.004519690272866618,0.9929127286659406
2012-04-30,0,0.0,0.0,-0.005287600027700995,0.004519690272866618,0.9928506320919136
2012-05-02,1,0.0007834638169165387,0.0008410321978725407,-0.005675020853140134,0.003527995309615646,0.9929902033515176
2012-05-04,1,0.0013013630017274403,0.0013918795703759142,-0.005675020853140134,0.00303524708064149,0.9923781425150304
2012-05-08,1,0.0011719536077236638,0.0012425938990500557,-0.005675020853140134,0.003527995309615646,0.9918760536050072
2012-05-10,1,0.0011117345192687947,0.0011839501389559527,-0.0052450423369889455,0.003527995309615646,0.9932007234510102
2012-05-14,1,0.0005293644758318744,0.0005520239720534594,-0.0052450423369889455,0.004752481262865104,0.9930617578387932
2012-05-16,1,0.0012758378465914425,0.0013833153083365251,-0.005719164032334411,0.004752481262865104,0.9928029516487227
2012-05-18,1,0.0007617669849879127,0.000807275708654135,-0.005125894239400746,0.006173987454021463,0.9933131411761478
2012-05-22,1,0.0007801458455981158,0.0008113298357215156,-0.005125894239400746,0.006173987454021463,0.993391511456677
2012-05-24,1,0.0011624490874326968,0.0012544245305163052,-0.005125894239400746,0.0038483544823782944,0.9942425318582921
2012-05-29,1,0.0008738947158868493,0.0009344900058770563,-0.005125894239400746,0.00422520911959735,0.9941956036723161
2012-05-31,1,0.000520736505567418,0.0005289522091813987,-0.0036462068925663797,0.006173987454021463,0.9940693049029048
2012-06-04,-1,-0.00015367397257126945,-7.156475189979539e-05,0.0002783405113611891,0.007571919373453981,0.9937988971049382
2012-06-06,1,0.0001328602678711503,0.00021222888351851897,-0.0009049796004623551,0.006173987454021463,0.9943835240493418
2012-06-08,1,0.0004649646043979992,0.0004981654872073915,-0.0009049796004623551,0.006173987454021463,0.9944614392762225
2012-06-12,1,0.00037541735656031444,0.0004226551734553644,-0.0009049796004623551,0.00422520911959735,0.9946868872736739
2012-06-14,1,0.0004239408269737924,0.00046360884213786575,-0.0007741274654519239,0.004005181464727391,0.9952819010125912
2012-06-18,1,0.0003367635677902598,0.0004024022535054077,-0.0007741274654519239,0.004005181464727391,0.9949537401284383
2012-06-20,1,0.00019928977493011314,0.0002956055654277251,-0.001418432957199811,0.004005181464727391,0.9945914069951165
2012-06-22,0,0.0,0.0,-0.0022811596803132836,0.004005181464727391,0.9941392028000746
2012-06-26,0,0.0,0.0,-0.0030927323241886646,0.0035492298778790764,0.9938066157419223
2012-06-28,0,0.0,0.0,-0.0030927323241886646,0.005751367377331986,0.9925142952237977
2012-07-02,0,0.0,0.0,-0.0048796327368471094,0.0036006471298353744,0.9934885968994566
2012-07-05,1,0.00045428174435291975,0.0005361585981493444,-0.0048796327368471094,0.003951421395825831,0.9934052132810249
2012-07-09,1,0.0007438268237166754,0.0007965299999049825,-0.0048796327368471094,0.003665236258008166,0.9936695404159044
2012-07-11,1,0.0005760873389105538,0.0006314600254466987,-0.004546441153687889,0.003665236258008166,0.993690283020797
2012-07-13,1,0.0006202212557450096,0.0006707635797659762,-0.004546441153687889,0.003665236258008166,0.9935322671541051
2012-07-17,0,0.0,0.0,-0.004546441153687889,0.0032800391506024418,0.9941266908360018
2012-07-19,0,0.0,0.0,-0.003566442373843152,0.003665236258008166,0.9944241449687092
2012-07-23,0,0.0,0.0,-0.0032011515211801756,0.003665236258008166,0.9947774126135619
2012-07-25,0,-0.00010618266360870094,2.3781380942638336e-05,-0.0032011515211801756,0.00369864319048558,0.995014730436853
2012-07-27,1,0.0005879384484511756,0.0006716073380208699,-0.0032291021286779556,0.0036419490607520364,0.9960766334443328
2012-07-31,1,0.0009340432181929912,0.0009671257559650626,-0.0031762473667736515,0.0036419490607520364,0.9961825079669702
2012-08-02,0,0.0,0.0,-0.0032015886946798995,0.002964575964217343,0.9965077435570853
2012-08-06,1,0.0008550519961341986,0.000870852032594861,-0.0029618844424135317,0.0022874409301149442,0.9963862345852623
2012-08-08,1,0.0006630665362276827,0.0006643114716598467,-0.002769144343131159,0.0037010636404680615,0.9958399294528286
2012-08-10,1,0.00100100058171378,0.0010699321368467492,-0.0029618844424135317,0.0037010636404680615,0.9956876417741869
2012-08-14,1,0.0008200410266561651,0.0008502264660766221,-0.0029618844424135317,0.00394119443880727,0.995537670370762
2012-08-16,1,0.001127137856479051,0.0012204681868546545,-0.0032015886946798995,0.005197012095974192,0.9939590458265604
2012-08-20,1,0.0007261827955832001,0.0007674061773891507,-0.0030788164682992976,0.007516700463508389,0.9938049352707474
2012-08-22,1,0.0006852027226714794,0.0007225207708464657,-0.0021288103032562522,0.007516700463508389,0.9936983202795036
2012-08-24,0,0.0,0.0,-0.0021288103032562522,0.007389839702565954,0.9939615713233466
2012-08-28,0,0.0,0.0,-0.0030788164682992976,0.007389839702565954,0.9937609618750173
2012-08-30,0,0.0,0.0,-0.003137514182027557,0.007389839702565954,0.9933751681376114
2012-09-04,1,1.2557491183012207e-07,1.3780208725088984e-07,-0.0034358631396758303,0.007516700463508389,0.9927814763017558
2012-09-06,0,0.0,0.0,-0.0034358631396758303,0.007577116927935635,0.9922790106906803
2012-09-10,0,0.0,0.0,-0.0035890540839697577,0.00862008742108893,0.9920406976719137
2012-09-12,0,0.0,0.0,-0.005568841069285369,0.00862008742108893,0.9918583696147659
2012-09-14,0,0.0,0.0,-0.005568841069285369,0.007411643955705558,0.9928430450409673
2012-09-18,0,0.0,0.0,-0.005568841069285369,0.007411643955705558,0.9915826890768973
2012-09-20,0,0.0,0.0,-0.007560706686555056,0.0033053186571215705,0.9884529940407953
2012-09-24,0,0.0,0.0,-0.007560706686555056,0.0033053186571215705,0.9880177397089196
2012-09-26,0,0.0,0.0,-0.007560706686555056,0.004191149250786518,0.9878293179528878
2012-09-28,0,0.0,0.0,-0.007383510276423321,0.004412897487229997,0.9880697267602141
2012-10-02,0,0.0,0.0,-0.0069666319598832025,0.003133911289722189,0.9887698665790001
2012-10-04,0,0.0,0.0,-0.007383510276423321,0.001140621425634296,0.989930126551368
2012-10-08,0,0.0,0.0,-0.007383510276423321,0.0005067013057841217,0.9903107651506656
2012-10-10,1,0.0013038499466198222,0.0013723144868079671,-0.007386354324444832,0.001140621425634296,0.988622901125972
2012-10-12,1,0.0007920116437269651,0.0008081655684913792,-0.0069666319598832025,0.001140621425634296,0.9894888711018148
2012-10-16,1,0.0015334707525066096,0.00165782077305651,-0.0077329479939414565,0.0003447954905412827,0.9897404375950544
2012-10-18,1,0.0010834428121059727,0.0011343888825980307,-0.0069666319598832025,0.0005060572889129167,0.9936456906019068
2012-10-22,1,0.00037952497493103164,0.00044067000701796465,-0.005506930736062191,0.0015593522382458913,0.9944228460777043
2012-10-24,-1,-0.00024149743611054212,-6.410425150747158e-05,-0.004736971725980587,0.0015593522382458913,0.9940648245405076
2012-10-26,0,-4.472225883848718e-05,8.920925894823458e-05,-0.004761780946241121,0.0015593522382458913,0.9937926971356354
2012-11-01,-1,-0.0019287403392285233,-0.0016000364749705702,-0.004761780946241121,0.0028979737188834145,0.9936128645876738
2012-11-05,-1,-0.00027917206754012774,-0.00013293507719140235,-0.004761780946241121,0.0028979737188834145,0.9932382429693632
2012-11-07,-1,-0.0029341977494364317,-0.0025042310698872175,-0.004761780946241121,0.0028979737188834145,0.9930804077275469
2012-11-09,-1,-0.002172063310326007,-0.0018380976077692767,-0.003454362491309233,0.0028979737188834145,0.9942230473243682
2012-11-13,-1,-0.0004158505432942436,-0.0002647785774353502,-0.003454362491309233,0.004947044710262324,0.993826333387486
2012-11-15,-1,-0.00156123161517223,-0.0012616101063405896,-0.0025765005260450953,0.004947044710262324,0.9942244849361616
2012-11-19,-1,-0.0019308695927257864,-0.0015807281681489297,-0.00232599466812345,0.007914111240309067,0.9937437356082924
2012-11-21,-1,-0.0014635813888113673,-0.0011890393726116616,-0.0025765005260450953,0.007914111240309067,0.9937116571227278
2012-11-26,-1,-0.0028609972295817183,-0.0025048026929507263,-0.003454362491309233,0.007695435651712068,0.9935606985497784
2012-11-28,-1,-0.002702526335872364,-0.002365947753362597,-0.003854646945755636,0.004317404697279678,0.9939324878050873
2012-11-30,-1,-0.00023229852018801314,-0.00016750260996837923,-0.006892119987110097,0.004317404697279678,0.9933581532211329
2012-12-04,-1,-0.0002062169204463863,-0.00013389291255293904,-0.003854646945755636,0.011611692659725776,0.9911115194515416
2012-12-06,-1,-0.001301883296978885,-0.0011115913383268042,-0.006074187692209452,0.011611692659725776,0.9905368276334778
2012-12-10,-1,-0.0004730662608950112,-0.0004060042193526442,-0.006074187692209452,0.008922465243038576,0.9910382523430605
2012-12-12,1,0.00044903125324147214,0.00047286140778347266,-0.006892119987110097,0.00820857114093056,0.9907619895325255
2012-12-14,-1,-0.0011038767662452402,-0.0009263701118373941,-0.006892119987110097,0.00820857114093056,0.9906744287918011
2012-12-18,-1,-0.0008735132167057656,-0.0007029002412871862,-0.008823150276937634,0.00776196628513484,0.9907820130979301
2012-12-20,-1,-0.00035187297119558005,-0.0003165699491698246,-0.006892119987110097,0.00776196628513484,0.9911013633371714
2012-12-24,-1,-0.0007034934497303232,-0.0006085529101872224,-0.006074187692209452,0.006988682281349761,0.9917547038465838
2012-12-27,0,0.0,0.0,-0.0035545362533835213,0.006988682281349761,0.9917475881128996
2012-12-31,0,0.0,0.0,-0.002876762156832335,0.006988682281349761,0.9923946772086156
2013-01-03,1,0.24685416506346125,0.2484538345829264,-0.002876762156832335,0.006452457250737153,0.8020980343500264
2013-01-07,0,0.0,0.0,-0.002876762156832335,0.006452457250737153,0.9939152594986099
2013-01-09,0,0.0,0.0,-0.002876762156832335,0.007847560164384964,0.9934565592344816
2013-01-11,1,0.0012858283957538166,0.0014432532850015827,-0.002876762156832335,0.006724063986113468,0.9941911964553436
2013-01-15,0,0.0,0.0,-0.0015990175972684492,0.006724063986113468,0.9945552334470507
2013-01-17,0,0.0,0.0,-0.0005336796311390029,0.007888480635432075,0.9942695442863662
2013-01-22,0,0.0,0.0,-0.002876762156832335,0.007888480635432075,0.9937794416623232
2013-01-24,0,0.0,0.0,-0.003565071690794779,0.008474638250716815,0.9931400767326147
2013-01-28,0,0.0,0.0,-0.006448759103421804,0.008474638250716815,0.9927692204651333
2013-01-30,0,0.0,0.0,-0.007441750143152182,0.007878551367058421,0.9924593467465869
2013-02-01,0,0.0,0.0,-0.007441750143152182,0.007878551367058421,0.9921348389094949
2013-02-05,0,0.0,0.0,-0.007441750143152182,0.007878551367058421,0.9920877698186872
2013-02-07,0,0.0,0.0,-0.007441750143152182,0.007038761503166289,0.9922973426379758
2013-02-11,0,0.0,0.0,-0.007441750143152182,0.007221851705179901,0.9921152466631236
2013-02-13,0,0.0,0.0,-0.007441750143152182,0.007221851705179901,0.9921773315725635
2013-02-15,0,0.0,0.0,-0.008232050309283515,0.0062061170254089065,0.9906803328361653
2013-02-20,0,0.0,0.0,-0.007674985942771057,0.007221851705179901,0.9909545434522654
2013-02-22,1,0.0018183257111005582,0.0022613400429805143,-0.008518241165313044,0.006506472079426551,0.991406716511102
2013-02-26,1,0.0010502682135601323,0.0013702223506826005,-0.006657398023319917,0.007221851705179901,0.9912836180954034
2013-02-28,1,0.0008395851351093804,0.0011388731681378735,-0.0007625608332212864,0.0076894285084569474,0.9908769986259561
2013-03-04,1,0.0023988380722904153,0.0029707799889061443,0.0005724289882280732,0.0076894285084569474,0.9917198917658341
2013-03-06,1,0.0030236021468520603,0.003467545754542326,0.0012879588438179067,0.0076894285084569474,0.9924390518100878
2013-03-08,1,0.0032306583158152914,0.003675946619909969,0.0005724289882280732,0.0076894285084569474,0.9919662353733206
2013-03-12,1,0.0032245465181138327,0.0036395982990264546,0.0005724289882280732,0.00830906554912799,0.9917904874900675
2013-03-14,1,0.004231208968730982,0.00487547472798856,-0.0011513976401308548,0.00830906554912799,0.9917485970205467
2013-03-18,1,5.9896516249243086e-05,9.501329370754062e-05,0.0017224574383007132,0.00830906554912799,0.9908577986337671
2013-03-20,-1,-0.00010486397777226286,-9.4127910077054e-05,-0.0011513976401308548,0.009815001382084678,0.989572474044172
2013-03-22,-1,-0.000335193325726298,-0.0002910971487189225,-0.0011513976401308548,0.009815001382084678,0.9894504042027499
2013-03-26,1,0.00020801945473003985,0.00022385813603006927,-0.004900609515866788,0.008779074189930153,0.989253856297299
2013-03-28,0,0.0,0.0,-0.004900609515866788,0.00867501730633671,0.9904782809585815
2013-04-02,0,0.0,0.0,-0.004900609515866788,0.007773377270472883,0.9910006918021976
2013-04-04,0,0.0,0.0,-0.004900609515866788,0.0074222980127433,0.9914527633590922
2013-04-08,1,0.0020339295307753285,0.002210717050761684,-0.007345123279207375,0.0074222980127433,0.9907119849413268
2013-04-10,1,0.002624961534563619,0.0028334911799154008,-0.007345123279207375,0.006635031264397925,0.9908646233783387
2013-04-12,1,0.0019689392583576927,0.002041766594204357,-0.007345123279207375,0.006635031264397925,0.9908442115693439
2013-04-16,1,0.0011417791224770375,0.0011892088818789568,-0.00402729301744386,0.006635031264397925,0.9915281294654484
2013-04-18,1,0.0014428155923220303,0.0014498365751504166,-0.00402729301744386,0.006635031264397925,0.991330385381361
2013-04-22,0,0.0,0.0,-0.003902484116447152,0.006635031264397925,0.9902053155112688
2013-04-24,0,0.0,0.0,-0.0025430336605702613,0.005987927658595084,0.9914244797843517
2013-04-26,0,0.0,0.0,-0.003864045251242857,0.006635031264397925,0.9908257656915856
2013-04-30,0,0.0,0.0,-0.0064011554797273286,0.006651338774455309,0.9893361373332171
2013-05-02,1,0.0007127107192796085,0.0008204231322173908,-0.006641280976336924,0.006651338774455309,0.988142378097055
2013-05-06,-1,-0.000826291841796954,-0.0006211524521887924,-0.0064011554797273286,0.00894358091111606,0.9887775438650311
2013-05-08,0,0.0,0.0,-0.007309317268492591,0.010365413698085336,0.9881932107657981
2013-05-10,0,-0.00012034278307071456,5.0370971329300406e-05,-0.007309317268492591,0.014137914610513717,0.9872579494169549
2013-05-14,0,0.0,0.0,-0.011338699252909354,0.010365413698085336,0.9869774580091537
2013-05-16,1,0.0001425492859251752,0.0002857596902796185,-0.009913209653313356,0.007944562797986186,0.9883900917948719
2013-05-20,1,0.001186888258277268,0.0012214290912644478,-0.009913209653313356,0.007944562797986186,0.9892818450061599
2013-05-22,1,0.00047619639353744386,0.0006071308950052774,-0.014591390034305063,0.007944562797986186,0.9864192505878091
2013-05-24,1,0.0007329005799657274,0.0008163293346005968,-0.017259532021936506,0.009939238567131333,0.9856448523583542
2013-05-29,0,0.0,0.0,-0.014476337465968417,0.009939238567131333,0.9868943732642442
2013-05-31,1,0.00040907077388048474,0.0004487656730631247,-0.013577724790880631,0.009939238567131333,0.9872824970357148
2013-06-04,1,0.0006209050648672859,0.0006275814110989573,-0.013577724790880631,0.0076929054143990774,0.9879432887428594
2013-06-06,1,0.0002908705882541235,0.00035499057706220327,-0.014467105453424445,0.008265748396574946,0.9872847819092899
2013-06-10,1,0.0006428849696555062,0.0006871368764242454,-0.017233005313602612,0.008265748396574946,0.9868519570154131
2013-06-12,0,0.0,0.0,-0.014467105453424445,0.012232344826723966,0.9873193238247324
2013-06-14,0,0.0,0.0,-0.014467105453424445,0.012232344826723966,0.9875235258161877
2013-06-18,1,0.00028969862031776527,0.00039283257709948514,-0.014467105453424445,0.007564975070528288,0.9880359464664003
2013-06-20,-1,-0.0020104595489954477,-0.001645491070240652,-0.005325076620567652,0.007564975070528288,0.9904597980254528
2013-06-24,0,0.0,0.0,-0.0037257732350949105,0.008139552383593318,0.9907990669448382
2013-06-26,0,0.0,0.0,-0.005207306936032462,0.005121567758273987,0.9911979132310618
2013-06-28,-1,-0.0020523287157755148,-0.0017121797393825633,-0.0023011257759345356,0.005650716376777111,0.9915187585720592
2013-07-02,-1,-0.0016897200066572386,-0.001419642076147299,-0.0023011257759345356,0.005650716376777111,0.9915555693813005
2013-07-05,-1,-0.001701568212370861,-0.0014191444166814465,-0.0020743625041314074,0.005533783789050837,0.9929806903367888
2013-07-09,-1,-0.0018808487632669645,-0.0015882907710910014,-0.0026697641462634504,0.004938236242927,0.9938475772605505
2013-07-11,-1,-0.0007086342271234297,-0.0005837477739789942,-0.0036898131591411062,0.004587968625533302,0.9947186013347725
2013-07-15,-1,-0.0010818082924491648,-0.0008824289646756469,-0.0036898131591411062,0.004048371275006133,0.9949808287544473
2013-07-17,-1,-0.0007612753913279874,-0.0006063507135967842,-0.0050994267081710485,0.003627555018526548,0.9950038105140772
2013-07-19,-1,-0.0010629989419919366,-0.0008419365748867279,-0.006397511350830942,0.0017272336733118554,0.9946578349220606
2013-07-23,-1,-0.00042988040353058807,-0.0002664145687318759,-0.006397511350830942,0.00048754783420534045,0.9954925885144827
2013-07-25,-1,-0.0002806053300237897,-0.00016768020269839596,-0.005350117866479328,0.0004255203991849669,0.9957668972112941
2013-07-29,-1,-0.00035752109603352127,-0.00022384668398388736,-0.007124867388354648,0.0004255203991849669,0.9954290108446885
2013-07-31,-1,-0.0003150802925279042,-0.00020556277887771624,-0.008417912186296964,-0.00013911163713566793,0.9948413115920219
2013-08-02,-1,-0.00011357542734584088,-3.779658638344149e-05,-0.009182645382234931,-0.0005140492185952732,0.9945284381541352
2013-08-06,-1,-0.000670003701256509,-0.0005348708308147445,-0.009182645382234931,-0.00013911163713566793,0.9942724255073977
2013-08-08,-1,-0.0018646575745148743,-0.0015076740994984068,-0.009182645382234931,0.0004255203991849669,0.9940817855446968
2013-08-12,-1,-0.001749339648454291,-0.0014223784127967815,-0.009182645382234931,0.00206145203032739,0.993153934126893
2013-08-14,-1,-0.0021864113538207783,-0.001801243696200171,-0.008029780082811324,0.0057696437598338205,0.9925861301519708
2013-08-16,-1,-0.002395037842004011,-0.002016499475342012,-0.007246141437282612,0.0057696437598338205,0.9927032162522825
2013-08-20,-1,-0.002110215513194344,-0.0018151749425893943,-0.007246141437282612,0.008421186177534916,0.9917703614180091
2013-08-22,-1,-0.0016022562885381897,-0.0014047770072839454,-0.007907493612073099,0.008421186177534916,0.9916489869767925
2013-08-26,-1,-0.0015608351816634566,-0.001386489038062406,-0.007907493612073099,0.008421186177534916,0.9911883733363984
2013-08-28,-1,-0.0023131948814169596,-0.0020534790555758412,-0.0075088736743283285,0.008421186177534916,0.9909995262748175
2013-08-30,-1,-0.002344645497447307,-0.0021072140915592676,-0.0075088736743283285,0.008421186177534916,0.990697130165935
2013-09-04,-1,-0.0019812718156783145,-0.0017883631537144052,-0.005391280602276606,0.008421186177534916,0.9909168070720256
2013-09-06,-1,-0.0023373586377150534,-0.0020760812191647753,-0.005786886151903911,0.008227895160183907,0.9902988887055871
2013-09-10,-1,-0.0013862837594650066,-0.001259611998841521,-0.01017849668618975,0.0036680832665572055,0.9909027928556507
2013-09-12,-1,-0.000603751520146086,-0.0005721502303280698,-0.01017849668618975,0.004222924283641863,0.9909030552976957
2013-09-16,-1,-0.0005366946999605854,-0.0004957019926273982,-0.01017849668618975,0.005412522462392319,0.9907362664379652
2013-09-18,1,0.00019094357684816342,0.00023991562591267463,-0.01017849668618975,0.005412522462392319,0.9881002747767056
2013-09-20,1,5.2052233484662725e-05,0.00011073686725133328,-0.01005380796276759,0.00735943041643811,0.9867450656592903
2013-09-24,-1,-0.0007360967560336181,-0.0007033701658399861,-0.009279891399104906,0.00735943041643811,0.987056735983586
2013-09-26,-1,-0.0020737041064469233,-0.0018291559693647253,-0.0034732723108616363,0.00735943041643811,0.9872831262110391
2013-09-30,-1,-0.0022185430082318353,-0.001981982916305156,-0.0008498809922942332,0.00735943041643811,0.9877244450132168
2013-10-02,-1,-0.0014319496116851245,-0.0012829833507037088,-0.0034732723108616363,0.00603170215227494,0.988832988956095
2013-10-04,-1,-0.0011656266525747984,-0.0010939641604668406,-0.0034732723108616363,0.00603170215227494,0.9891003581082434
2013-10-08,-1,-0.001815068880895094,-0.0016594377247151728,-0.00013430337100180426,0.007900754553035022,0.9888169197366402
2013-10-10,-1,-0.0004584355725057042,-0.00039470615808159023,-0.00013430337100180426,0.00603170215227494,0.9901138967662266
2013-10-14,0,-5.133431918313716e-05,6.220273687582189e-05,-0.0018457053134916766,0.006823401894909804,0.9899650374598475
2013-10-16,1,0.0019459669273793703,0.002330932899408089,-0.0018457053134916766,0.006256034575156141,0.9930092080958538
2013-10-18,1,0.0031725149281670124,0.0037208680061211856,-0.0018457053134916766,0.006174465782951862,0.9941286266353153
2013-10-22,1,0.0024216908832881377,0.002813409991992966,-0.0011256473834205818,0.0077616781253121245,0.9938529482611141
2013-10-24,1,0.0026361161075208056,0.003063961950576187,-0.0036110070117317708,0.0077616781253121245,0.9930213238347182
2013-10-28,1,0.002612995824112195,0.0030292089849881087,-0.0036110070117317708,0.0077616781253121245,0.9928586767048281
2013-10-30,1,0.002736597725039376,0.0032158930945058875,-0.002883566424533533,0.0077616781253121245,0.9931829539602673
2013-11-01,1,0.0022407072309769994,0.0025957671845256245,-0.002883566424533533,0.006845165276619037,0.9937724961814014
2013-11-05,1,0.0027862792702956253,0.0032339115695949466,-0.0039871793827126615,0.005656717191517993,0.9928600988257369
2013-11-07,1,0.003319655834511513,0.0038762128118801976,-0.005924116143407532,0.006845165276619037,0.9915035730455787
2013-11-11,1,0.002355557355430662,0.0026533807750518212,-0.006985419890507593,0.005187817979118265,0.9918067145239968
2013-11-13,1,0.002175323655115335,0.0024349645707833914,-0.008144118799332153,0.0009834223997777644,0.9914892385985298
2013-11-15,1,0.0026673909429148087,0.003026439920486162,-0.008144118799332153,0.0031662043391541567,0.9916241063772395
2013-11-19,1,0.0028064541838970685,0.0031373661096021667,-0.008144118799332153,0.0031662043391541567,0.99077362326933
2013-11-21,1,0.002159211981068551,0.002398778509876555,-0.006769155137403146,0.0031662043391541567,0.9914684323787563
2013-11-25,1,0.0022428200044009193,0.0024914307525205973,-0.006859695215473294,0.0031662043391541567,0.9907001951156846
2013-11-27,1,0.0021982886988467258,0.0024273390018174855,-0.006859695215473294,0.0031662043391541567,0.9909582643336301
2013-12-02,1,0.0022733933750008276,0.0025468150759655017,-0.006859695215473294,0.0031662043391541567,0.9911191179361233
2013-12-04,1,0.0015157201265866493,0.001693334394418464,-0.005372925414297032,0.003725908369334309,0.9918597313827824
2013-12-06,1,0.0017880434315832052,0.002020612481268178,-0.005372925414297032,0.003725908369334309,0.9921940359448166
2013-12-10,1,0.001374960196084267,0.0015539453005310269,-0.0032057415266742097,0.005394448003397978,0.9925667254140934
2013-12-12,1,0.0009860649985149494,0.001161360751000876,-0.0024229726070853328,0.007981816984543002,0.9928148322521727
2013-12-16,1,0.00115533280106694,0.0013466659922640946,-0.0024229726070853328,0.009437940707699244,0.9924143038701342
2013-12-18,1,0.0027193117584617824,0.003125770912974747,-0.0028419122633242984,0.007981816984543002,0.9937981962269838
2013-12-20,1,0.0024734631168202197,0.00284151850861397,-0.004281437624247299,0.007981816984543002,0.9925470714747675
2013-12-24,1,0.0025880176631862322,0.0029716365246873124,-0.007245726635412616,0.005052030905880877,0.991386566299126
2013-12-27,1,0.0023466624810001197,0.0026596930815499025,-0.007656623112664131,0.003356124688604522,0.9911029989128614
2013-12-31,1,0.002110786822864244,0.0023804950656965843,-0.008653421016367863,0.007981816984543002,0.9898646555717379
2014-01-03,1,0.0022313654495501145,0.0025128189007762375,-0.01229308675838351,0.004578911136403388,0.9892170221180517
2014-01-07,1,0.0021421014491672047,0.002392363556787125,-0.01229308675838351,0.004578911136403388,0.9898156430185788
2014-01-09,1,0.0020999966128371706,0.0023083617192284555,-0.01229308675838351,0.007792844718234843,0.989277283212427
2014-01-13,1,0.00167216521804324,0.0018022144882072133,-0.009315272623483894,0.008979295447279238,0.9891893202059674
2014-01-15,1,0.0019035804732668465,0.002057846510503215,-0.009315272623483894,0.008979295447279238,0.9890035856773232
2014-01-17,1,0.0015912453898129177,0.0016880779027764047,-0.009315272623483894,0.008979295447279238,0.9891946303416176
2014-01-22,0,-4.245394367561646e-05,0.00010451955662680717,-0.005188778989353413,0.008979295447279238,0.9901121025260096
2014-01-24,-1,-0.0019797192717365252,-0.0015807658030121562,-0.0012378618621049398,0.008979295447279238,0.9909406745807581
2014-01-28,-1,-0.00212990025224915,-0.001722893227137204,0.0016088040439780915,0.008979295447279238,0.9906151311891748
2014-01-30,-1,-0.0020047015340581907,-0.0016104236339904853,0.00168044474740217,0.008728609542667297,0.9916243405739118
2014-02-03,-1,-0.002390849411699927,-0.0019799549144526784,0.00168044474740217,0.010405586439696116,0.9910864939525319
2014-02-05,-1,-0.0015281190249582064,-0.0012482220230108706,-0.0007804397020755359,0.008728609542667297,0.9921098902488145
2014-02-07,-1,-0.0006654325637375926,-0.0004943803545907485,-0.00196537320075434,0.007237125262784926,0.9931444098136349
2014-02-11,1,0.0004644253669510582,0.00047037875945086626,-0.0029062446363318246,0.006470098463667338,0.9941475807227388
2014-02-13,1,0.0007560821867468203,0.0007597792338535606,-0.004112100557477206,0.004316693180595998,0.9941598248879339
2014-02-18,1,0.00019211370266841677,0.0003004459053510271,-0.004112100557477206,0.00575566069992402,0.9935723524775889
2014-02-20,-1,-0.00029625881064437485,-9.502655523654176e-05,-0.006732538784052621,0.00575566069992402,0.9930641547640716
2014-02-24,-1,-0.000765483669847311,-0.000481823094986425,-0.007341974046931092,0.00575566069992402,0.9928649099996948
2014-02-26,0,-9.748445617641197e-05,7.663877069423485e-05,-0.007341974046931092,0.004517057323642881,0.9929916282194092
2014-02-28,0,-0.000165224328955994,3.9560254575984e-05,-0.007341974046931092,0.0018231370338560352,0.993213308849807
2014-03-04,-1,-0.00040773670809254945,-0.0001398654044124974,-0.006732538784052621,0.0018231370338560352,0.9945658750341317
2014-03-06,-1,-0.000593362259495666,-0.0003318034988983149,-0.004677269326997049,0.0031862056668476046,0.9948129266163098
2014-03-10,-1,-0.0003858631156921019,-0.0001626562183501824,-0.006732538784052621,0.002075649390263116,0.9946748840801012
2014-03-12,1,0.0005921250999759688,0.0006059713444474332,-0.007996196866504438,0.002075649390263116,0.9938164952424923
2014-03-14,1,0.0004161086171676931,0.00043412458639551627,-0.0077438186204032144,0.002075649390263116,0.9939290736595866
2014-03-18,1,0.0008362081828652897,0.0008934162343883867,-0.0077438186204032144,0.002075649390263116,0.9935152650866342
2014-03-20,1,0.00010193993356687149,0.00013498880451534112,-0.004341098983563069,0.004430119194423025,0.9935684911151321
2014-03-24,-1,-0.00017278387766380324,-0.0001104893611283122,-0.004143607305288303,0.004430119194423025,0.9938391756720746
2014-03-26,-1,-0.0003153427547027093,-0.0002217302864594129,-0.004715873380502225,0.0034496623338152415,0.9938946557761306
2014-03-28,-1,-0.000545588168268452,-0.0004278636403905068,-0.005848691754784286,0.005438946202318637,0.9932466440909679
2014-04-01,-1,-0.00014071769453696074,-9.054491118458283e-05,-0.005848691754784286,0.00541565425759608,0.993034162464707
2014-04-03,1,4.040474551191238e-05,6.781797982145222e-05,-0.005848691754784286,0.00541565425759608,0.9930238706745935
2014-04-07,-1,-0.0002971453593556294,-0.00024269983333055926,-0.005848691754784286,0.006386082635605911,0.9929737039530737
2014-04-09,-1,-0.0006953615624721671,-0.0005944124859689099,-0.004715873380502225,0.006386082635605911,0.9934659192266031
2014-04-11,-1,-0.0010928435068679385,-0.000953078595672288,-0.0028423690242034725,0.0072013174145293506,0.9933582587975721
2014-04-15,1,0.00018885847084394513,0.00023804427179057217,-0.0028423690242034725,0.0072013174145293506,0.994096607870692
2014-04-17,1,0.0005403834818363301,0.0005965088637628126,-0.004449864247437406,0.006736867736682492,0.9942201980550167
2014-04-22,1,0.00011583616800407018,0.00011933680105748923,-0.003234399179600988,0.0069012330597127795,0.993790880899626
2014-04-24,1,0.0001749198508050531,0.00019623899488157892,-0.002414382860196417,0.0069012330597127795,0.9939227100706809
2014-04-28,1,0.00010757579555275251,0.00010858145728027176,-0.0019230089712941475,0.006736867736682492,0.994748652913711
2014-04-30,-1,-7.193689818457442e-05,-2.5519517511796434e-05,-0.0019230089712941475,0.006736867736682492,0.9950221081273404
2014-05-02,-1,-0.00021490214446580076,-0.0001578338498825075,-0.0018911651421219733,0.0069012330597127795,0.9944528605312164
2014-05-06,-1,-0.00048640467737430006,-0.00037717138236274773,-0.0017595647076569312,0.006736867736682492,0.9950089783467102
2014-05-08,-1,-0.000794388532983323,-0.0006145315567688708,-0.0018911651421219733,0.0069012330597127795,0.9946113521227152
2014-05-12,-1,-0.0002830213366129294,-0.0001731490745845543,-0.0018911651421219733,0.007588716219370196,0.9947403978774902
2014-05-14,1,0.0009530013248335607,0.0010822507561462258,-0.003014828588761694,0.002274094563076992,0.9945115103037151
2014-05-16,1,2.828011161424155e-05,5.592949546581966e-05,-0.0018911651421219733,0.0023974040353115455,0.9955878967874121
2014-05-20,1,0.000450474130381794,0.0004887743799779202,-0.0017595647076569312,0.0023974040353115455,0.9957454614024895
2014-05-22,1,0.0006629847294037533,0.0007361780628053483,-0.0019460917258239201,0.0045652837250742115,0.9948568620311246
2014-05-27,1,0.000507110221562263,0.0005563308743009276,-0.0031178062968784523,0.0045652837250742115,0.9944800726181705
2014-05-29,1,0.0005771325282748379,0.0006527698581146842,-0.0031178062968784523,0.007127239194954049,0.994273725040004
2014-06-02,1,0.0007305796301736511,0.0008283366768345967,-0.002602425318164891,0.006855385513488836,0.9944872121221149
2014-06-04,1,0.00088227868158121,0.0010199424228780928,-0.002602425318164891,0.009151986938040391,0.9936559308206049
2014-06-06,1,0.0009653010645660684,0.0011023132795932333,-0.0031178062968784523,0.007354485065686695,0.9937093744628422
2014-06-10,1,0.0015933289101342971,0.0018346216588328793,-0.0039314217683746894,0.006346836116526008,0.9933721950547442
2014-06-12,1,0.0009159832047775554,0.0010595861014187492,-0.0022114559031502865,0.006346836116526008,0.9942645579818916
2014-06-16,1,0.0007229152984737929,0.0008116731993229866,-0.0031178062968784523,0.007354485065686695,0.9930084962926297
2014-06-18,1,0.0002692968432541709,0.0003204331033139465,-0.0031178062968784523,0.007354485065686695,0.9925048732534775
2014-06-20,1,0.00017934607695391783,0.00025205249310825855,-0.0029204260637613654,0.007354485065686695,0.9922450514603638
2014-06-24,0,-2.8562033031933243e-05,7.223831206245256e-05,-0.0021732793079898903,0.007354485065686695,0.9924379628956345
2014-06-26,-1,-0.00036290410726292233,-0.00018528556608977953,-0.0021732793079898903,0.007354485065686695,0.9925551587449737
2014-06-30,1,9.713703122815181e-05,0.00019780091161785812,-0.0028173125436812877,0.005748452288939066,0.992789011443364
2014-07-02,1,0.0011610677407052302,0.0012277188806141725,-0.0032342582473651165,0.003962852696881915,0.9928470648768918
2014-07-07,1,0.0010452566816855414,0.001135462555329715,-0.0028173125436812877,0.005365166930106629,0.9928968547531193
2014-07-09,1,0.0011299868371104406,0.0012584807843017602,-0.0028173125436812877,0.0039686718854055275,0.9928876136582316
2014-07-11,1,0.0010782152192679506,0.001197054100925313,-0.0032342582473651165,0.004235130939384386,0.9925227895307487
2014-07-15,1,0.0008920713633998741,0.0009910545003764032,-0.0032342582473651165,0.004235130939384386,0.9929302333593001
2014-07-17,1,0.0015178294928277491,0.001693832197279317,-0.003136852859985594,0.004369884971011261,0.9933297010737374
2014-07-21,1,0.002153885560675141,0.002431545797381773,-0.004581107062019249,0.0038975510978289853,0.9938838864163728
2014-07-23,1,0.001983977957901793,0.0022514945310028595,-0.005903959378110131,0.004034679176352137,0.9933562566559138
2014-07-25,1,0.0020957131912036292,0.002389923742700908,-0.005903959378110131,0.004099221821803552,0.9931665159819997
2014-07-29,1,0.0016135184653652164,0.0018186260025387655,-0.005903959378110131,0.007307028830055038,0.9930391957630488
2014-07-31,1,0.0012402644056626953,0.0014057767827930696,-0.0057764791972179,0.007307028830055038,0.9933089679655458
2014-08-04,1,0.0014408516218889203,0.0016214412227344877,-0.0057764791972179,0.005027556643913807,0.9935529983325816
2014-08-06,1,0.0007404937974097858,0.0007997236238814036,-0.0051580760790414185,0.007307028830055038,0.9936587760147008
2014-08-08,1,0.0009833984149918106,0.0011036474439519294,-0.004745229133679515,0.007307028830055038,0.9939726605549272
2014-08-12,1,0.0004699776317754311,0.0004879826783590213,-0.0036129212180157273,0.005027556643913807,0.9947977367734526
2014-08-14,1,0.0006877282906818346,0.0007237522670078115,-0.004745229133679515,0.004099221821803552,0.9951879568301758
2014-08-18,1,0.0005746751631006252,0.0005946470617277937,-0.0036129212180157273,0.00422798846099545,0.9953592131056141
2014-08-20,1,0.00038808354592415246,0.00040451776316994154,-0.0027628927512437645,0.004990135963115573,0.9953104465151942
2014-08-22,1,0.00039155326255087654,0.00040473600192685337,-0.0027628927512437645,0.004946641088019715,0.995398049956332
2014-08-26,1,0.0010769217335535601,0.001121243387816568,-0.0035343840340637434,0.003454458833873014,0.9949418888915103
2014-08-28,1,0.000372501845908874,0.0004359330598887344,-0.0027628927512437645,0.003454458833873014,0.9948167190552228
2014-09-02,1,0.00021281009718564095,0.00030144500320811087,-0.0035343840340637434,0.003454458833873014,0.9944745367253564
2014-09-04,0,-1.610115924559509e-05,0.00011858585085872093,-0.005118724908354741,0.0019904830940251153,0.9947340378911802
2014-09-08,1,0.00023409277431905704,0.00030580021336761346,-0.005118724908354741,0.004049882295980826,0.993573938244049
2014-09-10,1,0.0006010123091869705,0.0006211433419226302,-0.007530303193909739,0.004946641088019715,0.9917355725882071
2014-09-12,1,3.6559577738558274e-05,0.00010772368812819605,-0.008013484211496013,0.004946641088019715,0.9914986648583666
2014-09-16,1,0.00024850873714654724,0.00029740971823755065,-0.010419220395350225,0.004352564711238665,0.99095784627144
2014-09-18,1,0.000641312202895992,0.0006585608081310469,-0.012771444279093873,0.0013110716677130314,0.9903598467368284
2014-09-22,1,0.0004249502766278671,0.00046043966291470386,-0.012771444279093873,0.0059759460260756046,0.9890787380985818
2014-09-24,-1,-0.000274772854306237,-0.0001410174355880106,-0.012771444279093873,0.01374828896936583,0.9883572128397391
2014-09-26,-1,-0.0007825834556203526,-0.0005899338928141982,-0.010419220395350225,0.01422678648729576,0.9880611809019181
2014-09-30,-1,-0.001088713848318436,-0.0008648140916762404,-0.010419220395350225,0.01422678648729576,0.9878855242620806
2014-10-02,-1,-0.0010746649622106104,-0.000872210715214502,-0.006911583569327381,0.015113527292057416,0.9871606916108094
2014-10-06,0,-4.7451049327884256e-05,1.7085421422200674e-05,-0.008187340140036055,0.015113527292057416,0.9882375124673308
2014-10-08,-1,-0.0005608711213405509,-0.000396677620758651,-0.0056065383595595535,0.00921506270173598,0.9896148384135262
2014-10-10,-1,-0.0010547342789433915,-0.0008491862865630161,-0.0056065383595595535,0.00921506270173598,0.9897007630714355
2014-10-14,-1,-0.001378858745175928,-0.0011410724665688082,-0.0016701649047144071,0.015163529157730041,0.9893674672903687
2014-10-16,-1,-0.0021802642311965163,-0.001841863275343374,0.00040232795013538396,0.015163529157730041,0.9896736821636806
2014-10-20,-1,-0.0010416779404945672,-0.0008319815230535432,-0.00300729858553391,0.007578821607348968,0.9912863750207627
2014-10-22,-1,-0.001053000137393147,-0.0008494677891266585,-0.00300729858553391,0.006464447333490896,0.9930180768204785
2014-10-24,-1,-0.00038377691481561427,-0.0002542469864470836,-0.00300729858553391,0.006464447333490896,0.9938269748093543
2014-10-28,-1,-0.00020433491947654636,-0.00010535229530967273,-0.0026145032645130163,0.007558727699227514,0.9936631438651963
2014-10-30,1,0.0008912508522962596,0.0009504642435572061,-0.0026145032645130163,0.0062547512589543166,0.9945658524275853
2014-11-03,1,2.4520266271404762e-05,0.00010946689064342784,-0.0026145032645130163,0.007558727699227514,0.993694391554348
2014-11-05,1,0.0003140548034866918,0.0003611204451118484,-0.0037474135229471914,0.008079004146705766,0.9934103878870097
2014-11-07,1,0.00026002452920261703,0.00029160367205853456,-0.0037474135229471914,0.008367156756047071,0.9931390213799058
2014-11-11,1,0.0008280551266338179,0.0008750434032783683,-0.004199764984451867,0.008079004146705766,0.9925640548321197
2014-11-13,1,0.0008833934578674936,0.0009175688430846335,-0.004678208201067981,0.006421478772073249,0.9920185001188265
2014-11-17,1,0.00023298786945083407,0.0002707858521626523,-0.0045175927877214115,0.006421478772073249,0.9927525192237294
2014-11-19,1,9.843750143660927e-05,0.00014277955837618909,-0.004199764984451867,0.009331194440227508,0.9904559858238318
2014-11-21,1,0.0007419551028852568,0.0008179777681258734,-0.004199764984451867,0.009331194440227508,0.9903248722827029
2014-11-25,1,0.0007284582786820184,0.000776384480429209,-0.0045175927877214115,0.007474413853165581,0.9902733109713089
2014-11-28,1,0.0008292233747210799,0.0008832978189179358,-0.005311404903203051,0.007474413853165581,0.9901519926588588
2014-12-02,1,0.0013468276835875556,0.0014680878372201256,-0.005566125638368462,0.006325378633685777,0.9905215274676991
2014-12-04,1,0.001307354997152612,0.001406001869234886,-0.005566125638368462,0.003991048557457235,0.9909637460965324
2014-12-08,1,0.0018106021731178353,0.002021438391059689,-0.0072691124439487114,0.003991048557457235,0.9906034727361841
2014-12-10,1,0.0011471586649417806,0.0013094987051533828,-0.006716389869295138,0.006325378633685777,0.9907585899231749
2014-12-12,1,0.0005721983441542352,0.000646686827747081,-0.006716389869295138,0.007238730415299578,0.9902671110190655
2014-12-16,1,0.000506649064117044,0.0005779960645180167,-0.008216365154961075,0.007238730415299578,0.9898699373288898
2014-12-18,1,0.002229483223208128,0.0025132917904993404,-0.008216365154961075,0.006325378633685777,0.9912610858391472
2014-12-22,1,0.0019935331868682115,0.002213734894676183,-0.008216365154961075,0.004488678094487236,0.9910801486511347
2014-12-24,1,0.0015684682435397382,0.001751526379127042,-0.008216365154961075,0.006985984829579545,0.9910716584908627
2014-12-29,1,0.0011902115057219036,0.0012895582517430228,-0.010542291588261922,0.006985984829579545,0.9905911117063232
2014-12-31,1,0.0007117294330188905,0.0007455037793196717,-0.010542291588261922,0.008182802528380564,0.9888970545098449
2015-01-05,1,0.0005554249452149277,0.0005585483914448098,-0.010542291588261922,0.009944687820597715,0.9880003101690402
2015-01-07,1,0.0007123571784946861,0.0007610875289905605,-0.010542291588261922,0.010532005064212492,0.9877344858159204
2015-01-09,1,0.0008384229032337011,0.0008951138812201846,-0.01074598611572233,0.009944687820597715,0.9879447303624647
2015-01-13,1,0.0004265414848278015,0.0004294850660361768,-0.008250785923836386,0.009944687820597715,0.9890262993529777
2015-01-15,-1,-0.0002474916038190112,-0.00016174355564271728,-0.007297385312274161,0.010532005064212492,0.9885803355657243
2015-01-20,1,0.0003626331424616591,0.0003787362198281781,-0.007297385312274161,0.009944687820597715,0.9891447038526248
2015-01-22,1,0.0003662469264528215,0.0003754539531255766,-0.007297385312274161,0.010532005064212492,0.9887080820695094
2015-01-26,1,3.609254804401519e-05,8.752542871545414e-05,-0.00407270984303938,0.010532005064212492,0.9893789706900776
2015-01-28,-1,-0.0004502946335813252,-0.00036651669655488116,-0.0019274328278263246,0.010532005064212492,0.9897524756001599
2015-01-30,1,0.0005272884113714166,0.0005554472278288078,-0.003196360668986476,0.009363624470214165,0.9921979587839767
2015-02-03,1,0.0013406230634674806,0.0014783984255575021,-0.003196360668986476,0.006576611586787938,0.9930134936169499
2015-02-05,1,0.0009810242829551598,0.0010505308339838187,-0.003196360668986476,0.006576611586787938,0.992823330118856
2015-02-09,1,0.00028065891081369165,0.00028527310363399473,-0.002856448178193533,0.006981401707447299,0.9930693093671493
2015-02-11,1,0.000823642829747822,0.0009210585138953874,-0.002856448178193533,0.006981401707447299,0.9924848071407606
2015-02-13,1,0.0015651401542540228,0.001745757116157068,-0.0032173438389464437,0.006981401707447299,0.9923242701805811
2015-02-18,1,0.0012308003771428315,0.0013320900209065996,-0.003787625806485744,0.006552275744993389,0.9915501877844352
2015-02-20,1,0.0017520071402814682,0.001889424707975538,-0.003787625806485744,0.004915461001044768,0.9924211571719098
2015-02-24,1,0.0013052628877965732,0.0013580900845805643,-0.005738411035159889,0.004915461001044768,0.9921774028330935
2015-02-26,1,0.0011657765001538514,0.0011839578993976256,-0.008348252808720088,0.0037044691023168587,0.9918578697624841
2015-03-02,1,0.001177146901642868,0.0012425347171734979,-0.008348252808720088,0.006381337954974491,0.9918988232449035
2015-03-04,1,0.0009160916867867475,0.0009406566207893741,-0.009925768162844545,0.006381337954974491,0.990891007963529
2015-03-06,1,4.2225598433235105e-05,0.00015782230149518017,-0.009598107721391785,0.006108800127573515,0.991961754320382
2015-03-10,-1,-0.0005929499489074638,-0.0003800716404333272,-0.008247283529298304,0.006108800127573515,0.9923812157627752
2015-03-12,0,-0.00015167271944806508,4.1591033490586717e-05,-0.008247283529298304,0.006108800127573515,0.9930366986992397
2015-03-16,1,0.0007414852968910303,0.0007732084682786623,-0.009598107721391785,0.005427820451119651,0.9935871601375699
2015-03-18,1,0.0003570009736410377,0.00044173056178796347,-0.007339072585667888,0.004071381752116686,0.9942056257995275
2015-03-20,1,0.0004837421078417243,0.000523729520387606,-0.007339072585667888,0.005427820451119651,0.9935342584263224
2015-03-24,1,7.803903396010032e-05,0.00016538213890230808,-0.00600790312837146,0.006863856635894635,0.9922643767301891
2015-03-26,1,0.00024828992235043643,0.0002776980587295445,-0.0036177173144079176,0.006863856635894635,0.9925584069619215
2015-03-30,1,0.0003177948293353936,0.0003588143180388737,-0.00600790312837146,0.005976510497603534,0.9922166612478776
2015-04-01,-1,-0.0003651088037068887,-0.00025584305994662114,-0.00600790312837146,0.005976510497603534,0.992157429329735
2015-04-06,-1,-0.000215085735200347,-0.00011142847242674812,-0.00600790312837146,0.007033735064463159,0.9920093665962567
2015-04-08,1,0.0003225696235682958,0.0003347032949678814,-0.0066175371482739545,0.00602224313100839,0.9921102292945773
2015-04-10,1,0.0006968848110036828,0.0007456150605574124,-0.0066175371482739545,0.00602224313100839,0.9914913935297347
2015-04-14,0,-4.9435968941183165e-05,2.6213930365050247e-05,-0.006007176411051494,0.00602224313100839,0.9918764576118013
2015-04-16,-1,-0.000398876233195779,-0.00027151718870885647,-0.005234855026061771,0.007033735064463159,0.9905793339267849
2015-04-20,-1,-0.00019743055974990914,-0.00010246384681451381,-0.004430537156732628,0.00602224313100839,0.9910471921173477
2015-04-22,1,0.0010808995340166583,0.0011542952220719794,-0.004430537156732628,0.0028718378516368543,0.9925055208930696
2015-04-24,1,0.000990799878994246,0.0010614231879561894,-0.005354604396375006,0.0036280418958449592,0.9922575998855809
2015-04-28,1,0.0008163953372353173,0.0008914149699400929,-0.005354604396375006,0.00450663186326036,0.9923790450796234
2015-04-30,1,0.0001059059385375486,0.00011615743096777556,-0.004430537156732628,0.005279867106460122,0.9926665583191223
2015-05-04,1,0.0005224695272104022,0.0005738837790487797,-0.004430537156732628,0.004327764727456412,0.9929461151825202
2015-05-06,-1,-0.00034133864009807123,-0.0002383615139476881,-0.003819417378366051,0.004327764727456412,0.9931651384398348
2015-05-08,1,3.731504322016942e-05,0.0001242676568069278,-0.004350430116485078,0.0036280418958449592,0.9941124798335178
2015-05-12,-1,-0.000499131108314312,-0.0003389585397416182,-0.003944181845114636,0.004327764727456412,0.9939579583186582
2015-05-14,1,0.0014596923193354885,0.0016362693102135646,-0.004885400239242179,0.004327764727456412,0.9948246475893471
2015-05-18,1,0.0015297806133265513,0.0017303499314552072,-0.005596313443166398,0.0054861884005601895,0.9938890837578438
2015-05-20,1,0.001429108442587199,0.0015872170789304886,-0.005596313443166398,0.006730287300948873,0.9926987831387399
2015-05-22,1,0.0013060330528629487,0.0014412019163359071,-0.004885400239242179,0.006730287300948873,0.9930228888395798
2015-05-27,1,0.001061057500626552,0.0011381904202590095,-0.004885400239242179,0.0054861884005601895,0.9932354122027512
2015-05-29,1,0.0006756654977212056,0.0006965140633147942,-0.003944181845114636,0.006730287300948873,0.9933921212800099
2015-06-02,1,0.0007620712999711377,0.0007886339838995281,-0.004885400239242179,0.0037650594592666398,0.9927046127460452
2015-06-04,1,0.0006509915623821612,0.0006751459832788344,-0.004885400239242179,0.0071136215398854875,0.9925021866429066
2015-06-08,1,0.000222749794609936,0.0002687249913080243,-0.003917587434198789,0.008638150531568956,0.9920516395371265
2015-06-10,0,-0.00010671550231000664,1.1962448975280041e-06,-0.004480306115473894,0.008638150531568956,0.9916500915236678
2015-06-12,1,2.015835872053981e-05,0.00010567477578768755,-0.003627197302908934,0.008638150531568956,0.9916506118250512
2015-06-16,0,-1.992249657596553e-05,6.395485974705658e-05,-0.003627197302908934,0.00908596590374962,0.9913289935398415
2015-06-18,1,0.0006570826406569827,0.0006698966738571442,-0.003627197302908934,0.009055874579579294,0.992183446372414
2015-06-22,1,0.00018677218356842596,0.0002832814097398447,-0.004652619768023718,0.009055874579579294,0.9919614617860065
2015-06-24,1,0.00027450213111471824,0.00031907021602427867,-0.003627197302908934,0.009358809062187199,0.9910965505281478
2015-06-26,1,0.0008492437195918181,0.0009107163852167659,-0.004652619768023718,0.009055874579579294,0.9914497815383203
2015-06-30,1,0.00023472971749686664,0.0002577787048585404,-0.003248755414403848,0.009055874579579294,0.992048261455606
2015-07-02,0,-4.0868861048998055e-05,4.642995829671513e-05,-0.004574305014657495,0.007341314711884283,0.9922268328422739
2015-07-07,1,0.0005506872078181304,0.0005596824980830235,-0.004574305014657495,0.0044695661888320744,0.9927511535070577
2015-07-09,1,0.0002481114165595082,0.0002577464499782389,-0.0038626525935509387,0.0044695661888320744,0.9935987477353496
2015-07-13,1,0.0004636988821050468,0.00048193577874880786,-0.003854503315447207,0.0044695661888320744,0.9937839074958457
2015-07-15,1,0.00054670476385071,0.0006131687921016942,-0.004462368999408869,0.003483667700897663,0.9945354214995077
2015-07-17,1,0.0007327105005609598,0.0008143016388876786,-0.005075676539273759,0.003483667700897663,0.9943827941385908
2015-07-21,1,0.000621393478546412,0.0006921713784347589,-0.004377708615823498,0.0033185806443885397,0.9947274927768388
2015-07-23,1,0.0010942810286343955,0.0012108391610255477,-0.005417145870967298,0.0014821168742309126,0.9939534305125646
2015-07-27,1,0.0012023268638104664,0.0013124314231881503,-0.005748094596871225,0.0014821168742309126,0.9893932063560663
2015-07-29,1,0.0006329413896735042,0.0006720878567801383,-0.007438983171151944,0.00044621499979122914,0.9877764092911102
2015-07-31,1,0.00026385691790651027,0.00028315246024803744,-0.007438983171151944,0.004195977160346972,0.9861178121601742
2015-08-04,1,0.000625352029813627,0.000692278088209808,-0.016473648319503924,0.004195977160346972,0.983588925319453
2015-08-06,1,0.0005717114399714143,0.0006408897496513876,-0.016473648319503924,0.00795028422188098,0.982994841769465
2015-08-10,1,0.0006180290645250725,0.0006918928111908631,-0.019790224938599357,0.00795028422188098,0.9814627471731278
2015-08-12,1,0.00048826661515344164,0.0005224669530082448,-0.019854562185027107,0.00795028422188098,0.9810075164695422
2015-08-14,1,0.00022749725806908981,0.00024067449806128624,-0.019854562185027107,0.00712559245698871,0.9810765509107965
2015-08-18,1,9.834786282171583e-05,0.00012800773373412407,-0.019854562185027107,0.009950836205898782,0.9805407695999515
2015-08-20,-1,-0.0006322961667225253,-0.0005223426779962306,-0.01893670503541535,0.0102042624118998,0.9810890755271529
2015-08-24,-1,-0.002178211613048252,-0.0018709987593433805,-0.01832806412623958,0.0102042624118998,0.9851636731400986
2015-08-26,-1,-0.0015164719267656641,-0.0013010967422474283,-0.016495094068313173,0.008410528714819227,0.9867461207437832
2015-08-28,-1,-0.0012024375086834322,-0.0010275940832732051,-0.019345632226569983,0.002537315578572833,0.9857524969163411
2015-09-01,-1,-0.002598508124752482,-0.002263983970877885,-0.018528710436385543,0.00931413753751286,0.9869211397921578
2015-09-03,-1,-0.002439868684802524,-0.0021136646751599808,-0.018528710436385543,0.011805034953428089,0.9861616254987298
2015-09-08,-1,-0.0024085323855007126,-0.002077209775965324,-0.018528710436385543,0.00931413753751286,0.9866643882924234
2015-09-10,-1,-0.002759805139166475,-0.0023942443879632768,-0.009677890733052709,0.013139909394715613,0.9856549101960849
2015-09-14,-1,-0.0020751782419734825,-0.0018500358692806428,-0.01046369502672373,0.013775858959489785,0.9850683747085401
2015-09-16,-1,-0.0019404136843431245,-0.001708508798445584,-0.016461644143186408,0.013139909394715613,0.985236229179558
2015-09-18,-1,-0.0023184556787547144,-0.0020380068635984247,-0.009638363865272472,0.013872327532815627,0.9846908925656493
2015-09-22,-1,-0.002846813883760988,-0.0024715826440584896,-0.008161075848602858,0.013872327532815627,0.9851857340401114
2015-09-24,-1,-0.0028309818616932725,-0.002473628150310642,-0.008161075848602858,0.01584220804358948,0.9832408084400875
2015-09-28,-1,-0.004543987809182651,-0.00398162606040214,-0.0024653588353689927,0.01584220804358948,0.9852547292258179
2015-09-30,-1,-0.0032231499561294246,-0.0028446939975743223,-0.0024653588353689927,0.01584220804358948,0.9859387723887817
2015-10-02,-1,-0.002517486346766955,-0.002207377700031735,-0.005575395252888941,0.01421730214173866,0.9868816731857648
2015-10-06,-1,-0.002803440464888271,-0.0025222790233763556,-0.0024653588353689927,0.014980806720764055,0.9874862421951021
2015-10-08,-1,-0.0020402000769594916,-0.0018242413013763782,-0.0054784109478810215,0.01178106704048942,0.9892057084138413
2015-10-12,-1,-0.002122787464256063,-0.0019094385639334033,-0.0054784109478810215,0.010798097332902644,0.9893040277033891
2015-10-14,-1,-0.0026217147320899826,-0.0023495560515067243,-0.003056258610437508,0.01178106704048942,0.988385843345981
2015-10-16,-1,-0.0014489676082126263,-0.0013251511352744903,-0.007869822675424725,0.010798097332902644,0.9897047447787861
2015-10-20,-1,-0.0020423298249312525,-0.0018351977774755772,-0.00571636801945984,0.01178106704048942,0.9888559661536884
2015-10-22,1,3.99692643569251e-05,0.00010717655605535403,-0.00571636801945984,0.011558583013186595,0.9902164121401464
2015-10-26,-1,-0.0008493347240810835,-0.0007902829802753517,-0.007869822675424725,0.011558583013186595,0.9893418182309394
2015-10-28,1,0.0001841717740939834,0.0002525726010386196,-0.007869822675424725,0.010151116134068761,0.9906368864992701
2015-10-30,-1,-0.00026913206658589267,-0.0002588605955816957,-0.008190424405370418,0.007082195512240425,0.9910822084194687
2015-11-03,1,0.0002809039491056836,0.00036525976971522547,-0.008190424405370418,0.007082195512240425,0.9909573033377441
2015-11-05,1,0.00017717009383439646,0.00025948499706302084,-0.011353426349319636,0.010475480185979553,0.9889413875033282
2015-11-09,1,0.000598068003491509,0.0007931556090138769,-0.006711581393740038,0.0075974995162844195,0.989671938648468
2015-11-11,1,0.0003550854986523405,0.0004927652296978172,-0.006711581393740038,0.006538338610581655,0.9902198304913122
2015-11-13,0,-7.340666514028859e-07,7.389060199059427e-05,-0.006711581393740038,0.008374634226492657,0.9899624416023338
2015-11-17,1,0.000514201157738588,0.0006905529588296412,-0.006711581393740038,0.010103506710345076,0.9897963810908846
2015-11-19,1,0.0007357874689906854,0.0009085756482998655,-0.012529654415133443,0.008361039403251285,0.9883649812258614
2015-11-23,1,0.0007124954839109874,0.0008953416705523228,-0.01149447577384043,0.010015642439794576,0.9884910389498455
2015-11-25,1,0.0011210644824912802,0.0014044590308734768,-0.01149447577384043,0.010103506710345076,0.9879737641423028
2015-11-30,1,0.0003998750316017408,0.0005359321118297881,-0.0071976903653585035,0.010613566434579775,0.9875377787357246
2015-12-02,1,0.0008066387395290265,0.0010168145900374206,-0.012240807187730211,0.010103506710345076,0.9874014431694887
2015-12-04,1,0.0013563996690293353,0.0016365756129764555,-0.012240807187730211,0.010015642439794576,0.9875527230381921
2015-12-08,1,0.0014288877961006804,0.0017461423635380608,-0.0140034235616673,0.010015642439794576,0.9861179802414561
2015-12-10,1,0.0011822679046984037,0.0014521600939251087,-0.018102398238033005,0.010015642439794576,0.9860655248390399
2015-12-14,1,0.001714304046607629,0.0021042686996808613,-0.018102398238033005,0.010015642439794576,0.9852154160776465
2015-12-16,1,0.0022551206352501322,0.002710004022406596,-0.018102398238033005,0.008332964280849413,0.9845071512270674
2015-12-18,1,0.0008214197930675013,0.00108991736370069,-0.012408917825679232,0.008332964280849413,0.9867906652470337
2015-12-22,1,0.0013869833148743515,0.0017162838920893272,-0.012415311933877543,0.004589263356252458,0.9860620679990932
2015-12-24,1,0.0015426775263959825,0.001891985882060737,-0.012415311933877543,0.004258282286857469,0.9856047848081981
2015-12-29,1,0.0020869440010121533,0.0025028884704856825,-0.015454867532965641,0.0030362814905877155,0.9814076922758865
2015-12-31,1,0.0014782361859955696,0.0018208560401143522,-0.015454867532965641,0.012938141985272449,0.9807387287501179
2016-01-05,1,0.0008319300913227882,0.0010951372740205067,-0.01392504370614311,0.012938141985272449,0.9821971989334789
2016-01-07,1,0.00017798422234776705,0.00035602136426397585,-0.01392504370614311,0.012938141985272449,0.9830087543335547
2016-01-11,1,7.835528866296327e-05,0.00024976395081520637,-0.012616117017179067,0.012938141985272449,0.9834408640450911
2016-01-13,-1,-0.0006462114707672247,-0.000622339104426194,-0.012616117017179067,0.0089411585270682,0.9842465327205511
2016-01-15,-1,-0.0013976021135371467,-0.001236866825202226,-0.012078935859439931,0.012938141985272449,0.9836593888347
2016-01-20,-1,-0.001506979832436053,-0.001351402404248186,-0.012078935859439931,0.012938141985272449,0.983437076679921
2016-01-22,-1,-0.0010893474324985334,-0.0010275370468315638,-0.010002216209351027,0.013418397853399277,0.9835451985009157
2016-01-26,-1,-0.001805837925214024,-0.0015920489264790675,-0.012915915482830272,0.015976812410937666,0.9825160743650694
2016-01-28,-1,-0.0037322915643933597,-0.003312516314284389,-0.005800742521846287,0.015976812410937666,0.9861957586446941
2016-02-01,-1,-0.0020340162415761667,-0.0018173213961132377,-0.012915915482830272,0.012888753714685477,0.987437524057006
2016-02-03,-1,-0.002884527479794209,-0.0025436458318291383,-0.012514333260098466,0.012888753714685477,0.9875883380245116
2016-02-05,-1,-0.003328916197334876,-0.0029386974620726567,-0.005800742521846287,0.012888753714685477,0.9874736403353385
2016-02-09,-1,-0.003286086173692426,-0.002924429027568666,-0.002992036835485487,0.012888753714685477,0.9876924033187015
2016-02-11,-1,-0.0038397729021402817,-0.0034005837256670694,-0.002992036835485487,0.015510035900337595,0.9868812020674596
2016-02-16,-1,-0.002637775385420269,-0.002322283548629289,-0.004321947865140309,0.011254152734492772,0.9889628779734154
2016-02-18,-1,-0.0027627716791059015,-0.0024183106817659786,-0.0036729083190778977,0.009697538421738526,0.9889713782966205
2016-02-22,-1,-0.002973378933026766,-0.0025185496554256752,-0.0036729083190778977,0.009697538421738526,0.9894498859712331
2016-02-24,-1,-0.0022232669855842754,-0.0018992120845207686,-0.0036050434373801937,0.007581531277934375,0.9910550227695055
2016-02-26,-1,-0.0017686868091217306,-0.001537794014780562,-0.002074994312930191,0.006722492863180239,0.9915564644998011
2016-03-01,-1,-0.002419319952767187,-0.0020635469329260848,-0.0007355596739720324,0.006722492863180239,0.9918713170879201
2016-03-03,-1,-0.0021841803359571783,-0.0018984314307356398,-0.00037534957673232826,0.007414681364551662,0.9917729733558576
2016-03-07,-1,-0.0019734482354348123,-0.0017165785991447976,-0.0007355596739720324,0.006722492863180239,0.9920785102059382
2016-03-09,-1,-0.0022333612381325745,-0.0019197093823072392,-0.002074994312930191,0.007414681364551662,0.9906253831413361
2016-03-11,-1,-0.0006474113522494899,-0.0005692431662039574,-0.001959848602910769,0.006722492863180239,0.9928340916543343
2016-03-15,-1,-0.001356460120503104,-0.0011784489149131358,-0.0007355596739720324,0.008154374234076792,0.9923162273416304
2016-03-17,-1,-0.0001990963179821139,-0.0001716911726917847,-0.0011262904266039942,0.008154374234076792,0.9930052057008592
2016-03-21,-1,-0.00011759184676304504,-9.245888015333615e-05,-0.002281095481303622,0.008154374234076792,0.9929505363598875
2016-03-23,1,0.00029513079222262957,0.00042192694856506063,-0.0021039813773490283,0.008154374234076792,0.9935271044121443
2016-03-28,1,0.00034661989564029863,0.0004716668914844633,-0.0021039813773490283,0.008154374234076792,0.9934316990562777
2016-03-30,1,0.0010114441674528478,0.0012519790898808231,-0.002281095481303622,0.005419369352120607,0.9942118237022202
2016-04-01,1,0.001098480887612626,0.001318487737341923,-0.003623488855289591,0.003907639151798146,0.9889333600996656
2016-04-05,1,0.000914873472788882,0.0011120650854185368,-0.003623488855289591,0.003907639151798146,0.9888723960339385
2016-04-07,1,0.0012253142320903295,0.0014626388790771926,-0.003623488855289591,0.003907639151798146,0.989418199450231
2016-04-11,1,0.0008950284269742645,0.0010668988982531946,-0.004145855964831443,0.003907639151798146,0.9890983857083612
2016-04-13,1,0.0015187210668382695,0.0017875029068157699,-0.004145855964831443,0.0028423809818763726,0.9895021321669795
2016-04-15,1,0.0016641223096731782,0.001976329411241427,-0.008423080276457818,0.0008816573970633983,0.9890280080823147
2016-04-19,1,0.0017957685802132085,0.0021174611146963338,-0.010813059901362021,0.0008816573970633983,0.9881494558006698
2016-04-21,1,0.0017943322294164078,0.002115083132524131,-0.01213235115771118,0.00046267892657490947,0.9875671190873984
2016-04-25,1,0.0017132016451841215,0.002010365579694018,-0.01213235115771118,0.00046267892657490947,0.9871439394911795
2016-04-27,1,0.0017252375072146111,0.0020333215353239217,-0.01213235115771118,0.004786381738460941,0.9860425056045643
2016-04-29,0,-2.9812583230788797e-05,6.119947387432792e-05,-0.008423080276457818,0.00987488570078932,0.9914218599851119
2016-05-03,-1,-0.0001251592031786793,-4.6060731788069245e-05,-0.007219345998747675,0.00987488570078932,0.9912756774205395
2016-05-05,-1,-0.00010777516700502017,-2.9153557736357122e-05,-0.006801256158472507,0.00871447954549312,0.9918945175663963
2016-05-09,-1,-0.00037022290165840833,-0.00032743591954585846,-0.0061195279789298986,0.00871447954549312,0.9922408805886366
2016-05-11,0,-2.618391356991025e-05,9.182135733117622e-05,-0.0061195279789298986,0.00871447954549312,0.9924905410317371
2016-05-13,-1,-0.0006769441733305483,-0.000651371188377907,-0.0068088120444534305,0.00871447954549312,0.9917005555601615
2016-05-17,-1,-0.0003155227120382034,-0.0002700657902904506,-0.0061195279789298986,0.006171102314182809,0.9927396292862385
2016-05-19,-1,-0.0003084048659010151,-0.0002485420692025608,-0.006109699957752394,0.006171102314182809,0.9932271463331288
2016-05-23,0,-2.5701234252279565e-05,9.660122118412845e-05,-0.0054887960579271975,0.006171102314182809,0.9934752449866362
2016-05-25,1,0.0005080387835626969,0.0006773865738022335,-0.0054887960579271975,0.006171102314182809,0.9926496969100052
2016-05-27,1,0.00035503536098632706,0.00045942502320995074,-0.0068088120444534305,0.0010371344400281236,0.9899753715591549
2016-06-01,1,0.00012719489511221814,0.00017044028925247636,-0.0068088120444534305,0.0038096769260068126,0.9885140431624844
2016-06-03,-1,-9.412549920928315e-05,-9.04805721974687e-05,-0.006112218586412701,0.011348397456898173,0.9878042218316744
2016-06-07,-1,-0.0004142174846873373,-0.0003646485231823168,-0.0054887960579271975,0.01717809374623147,0.9863183875177053
2016-06-09,-1,-0.0002321431282556675,-0.0002213151261239229,-0.0054887960579271975,0.01717809374623147,0.9850607135285131
2016-06-13,-1,-0.0009192546222667631,-0.0008157137379148985,-0.0026301941266014804,0.01717809374623147,0.985435881464555
2016-06-15,-1,-0.0011953783190352832,-0.0010545575153655727,-0.0010296456627725478,0.01717809374623147,0.9848592561917997
2016-06-17,-1,-0.0010774176518534204,-0.0009575537265897107,-0.0010296456627725478,0.01717809374623147,0.984941370217204
2016-06-21,-1,-0.0017884271573005697,-0.0015115131875174227,-0.0029611915774551225,0.019473200421664966,0.9839891952538573
2016-06-23,1,3.3655970269422006e-05,4.116173324939084e-05,-0.0029611915774551225,0.013862668713627603,0.986325800587669
2016-06-27,-1,-0.0016572631860103898,-0.0014338363628776842,0.002205914205513639,0.013862668713627603,0.9883693645770403
2016-06-29,-1,-0.0009325499820313572,-0.000767689103428171,0.0011447507751124572,0.01285586798287536,0.9899291008352881
2016-07-01,-1,-0.0007973396659540276,-0.0006325361474113077,0.0011447507751124572,0.012253865584399747,0.9903135143055187
2016-07-06,1,0.00016633938281884544,0.00023895493950412805,-0.0008437426934793325,0.009874901626774398,0.9922547158115955
2016-07-08,1,0.0006348627123823026,0.0006797352183255377,-0.0027755154888945846,0.008518280224068834,0.9929812880011486
2016-07-12,1,0.0006922143021744413,0.0007296798915398999,-0.003400253439496918,0.007825672983406346,0.9932778480557132
2016-07-14,1,0.00087093106896065,0.0009675183243147377,-0.003400253439496918,0.007347899885235963,0.9937340878586035
2016-07-18,1,0.0008933403751284533,0.0010082412333882757,-0.0027755154888945846,0.007347899885235963,0.9939307908463237
2016-07-20,1,0.0010292362454718173,0.0011456163935127351,-0.0035503214139427637,0.005856876302026629,0.9946974177232586
2016-07-22,1,0.0011241542625217821,0.0012523308641951888,-0.004916759696442749,0.005406788466349718,0.9946044644182771
2016-07-26,1,0.0011539593127837255,0.0012732309009837678,-0.005146315774155159,0.00317069015122747,0.9944681131973782
2016-07-28,1,0.0015341230870462306,0.0016987915257099511,-0.005504428815151337,0.0016101503799290282,0.9938081171884209
2016-08-01,1,0.001853340469880843,0.0020593611392164487,-0.005504428815151337,0.0016101503799290282,0.9941140764542002
2016-08-03,1,0.0019462266722805174,0.0022135330281086267,-0.006375011421334347,0.0016101503799290282,0.9930353590269588
2016-08-05,1,0.0018761782884413702,0.0020988450588875314,-0.006375011421334347,0.0016101503799290282,0.9931389208762793
2016-08-09,1,0.0018174556918724117,0.002049234833350114,-0.006415715925158273,0.0018578934727358468,0.9931428481125003
2016-08-11,1,0.0018443830949878286,0.002081053593831964,-0.007282563660408194,0.0002493201581174562,0.9924344562845326
2016-08-15,1,0.0018146696151413848,0.0020407240587351403,-0.00816084888106534,-0.0004792687554150436,0.9911647378402068
2016-08-17,1,0.0016027724932729073,0.001804902164150797,-0.00816084888106534,0.003496749632767637,0.9915786896197099
2016-08-19,1,0.0016545724402675303,0.0018807182056709173,-0.00816084888106534,0.004707840389686261,0.9911115735245218
2016-08-23,1,0.0015487645015036856,0.001787583992053005,-0.00816084888106534,0.00637736786899681,0.991175387156288
2016-08-25,1,0.0011044960796477207,0.0012670323302860634,-0.0052651238728937825,0.0067867387539730815,0.9921120259809203
2016-08-29,1,0.001376863323030796,0.001595556422086333,-0.007052942430126128,0.007266450578375053,0.9911023140784901
2016-08-31,1,0.0006622088891640381,0.0007756175058785527,-0.0052651238728937825,0.007266450578375053,0.9914961709365557
2016-09-02,1,0.0010367115445208638,0.0012351538315008956,-0.004945102720524417,0.007741317931893281,0.9908729662865751
2016-09-07,1,0.0008777189538325132,0.0010485564660990153,-0.0060473197634868785,0.008632079372023198,0.9899784284998308
2016-09-09,1,0.0005839378975917913,0.0007304501581299478,-0.0029338523598360007,0.008632079372023198,0.9908085771387787
2016-09-13,1,0.0005047000729275412,0.0006420226547974158,-0.0029338523598360007,0.009216229278124181,0.9889682832507888
2016-09-15,1,0.0010107575496783568,0.0012302190293263001,-0.004414344600650537,0.009216229278124181,0.9892067094726307
2016-09-19,1,0.0011233421433421839,0.0013504009288085599,-0.004703076191800489,0.007411651182111747,0.989722591545641
2016-09-21,0,-5.751683758891703e-06,7.876255557469271e-05,-0.006321338676535574,0.008450960717132566,0.9883273344632438
2016-09-23,-1,-0.00014031728021412875,-2.5260068805719516e-05,-0.007062245693934132,0.012822914631760917,0.98755791587106
2016-09-27,0,-5.563079411870762e-05,5.502931649201359e-05,-0.005555934696353546,0.00769452875735177,0.9885276722600941
2016-09-29,-1,-0.0012428704030246324,-0.0009662215856254537,-0.005513871763739285,0.00927726767303748,0.9889633728488921
2016-10-03,-1,-0.00038918102518291516,-0.00020880848643515582,-0.0063151013535998335,0.006100599696400842,0.9889909520610851
2016-10-05,-1,-0.0006105394851728411,-0.0003836610171979659,-0.0063151013535998335,0.001345341209662412,0.989681488862041
2016-10-07,-1,-0.0005055615190290931,-0.0002920122123835425,-0.007757606907761574,0.0020645760674136066,0.988631442766287
2016-10-11,-1,-0.0022899010113031784,-0.001846690642368161,-0.0063151013535998335,0.0020645760674136066,0.9915113106018232
2016-10-13,-1,-0.002353058354712172,-0.0019062779664547932,-0.0063151013535998335,0.009562838007831203,0.9905904874589134
2016-10-17,-1,-0.0020620290406979398,-0.0017107462089641788,-0.008442251655555347,0.009562838007831203,0.989248453045345
2016-10-19,-1,-0.0022900048510179115,-0.0019309222489000669,-0.007757606907761574,0.009562838007831203,0.9902405220694691
2016-10-21,-1,-0.0018100510783482032,-0.0015105866865214401,-0.008442251655555347,0.008947161358099226,0.9901416928195471
2016-10-25,-1,-0.0023292067385464266,-0.0019551249445197033,-0.00961550540049597,0.008947161358099226,0.9884495294074638
2016-10-27,-1,-0.0024649353815428855,-0.002058187914217844,-0.00961550540049597,0.0116294092731656,0.987573133137679
2016-10-31,-1,-0.003449185456901244,-0.0029246566682113095,-0.009403417690892004,0.0116294092731656,0.9879913475170241
2016-11-02,-1,-0.004483238799896852,-0.0037940487911169874,-0.011766578255204468,0.0116294092731656,0.9871270207515627
2016-11-04,-1,-0.004261117229029195,-0.003577700033876256,-0.011766578255204468,0.0116294092731656,0.9870015837123045
2016-11-08,-1,-0.0036751774282157024,-0.0030594824023330728,-0.011766578255204468,0.008737536824724957,0.9879917432264524
2016-11-10,-1,-0.003074321958422524,-0.0025370569287705754,-0.011766578255204468,0.008737536824724957,0.988161588534515
2016-11-14,-1,-0.0034607541590886415,-0.0029570186130872126,-0.00418735433823659,0.008737536824724957,0.9887695589277794
2016-11-16,-1,-0.004565328419615129,-0.0037967190060464065,-0.011130315126392575,0.006586496996523909,0.9888665629687221
2016-11-18,-1,-0.003787086600270214,-0.0031878477000865137,-0.011130315126392575,0.006166609999806628,0.9889184989146671
2016-11-22,-1,-0.00489436333919527,-0.0042094396904576855,-0.00561559791521616,0.006166609999806628,0.9901343727452637
2016-11-25,-1,-0.0029799194107139357,-0.002584731040767827,-0.00561559791521616,0.005428742405872896,0.9919284982866462
2016-11-29,-1,-0.002774601634749476,-0.0024461352783157492,-0.005395424342671676,0.005428742405872896,0.9917673152874996
2016-12-01,-1,-0.0034314565419727096,-0.003053806057635179,-6.506724011866359e-05,0.005428742405872896,0.9920641044933972
2016-12-05,-1,-0.0026055139135579834,-0.002319672173912616,-6.506724011866359e-05,0.005428742405872896,0.9923645711940045
2016-12-07,-1,-0.0024514911757772696,-0.0021786906977508927,0.0009806335290127965,0.006709086592592227,0.9907492692528721
2016-12-09,-1,-0.0015395062274477754,-0.001403379144331033,-0.00024520047834326376,0.006709086592592227,0.9915019689219111
2016-12-13,-1,-0.0009581324013550194,-0.0009142292579095294,-0.004205790874834063,0.006709086592592227,0.9915931644596833
2016-12-15,-1,-0.001050856910698292,-0.0010167428388947997,-0.0017137021476140901,0.006709086592592227,0.992145024896862
2016-12-19,-1,-0.0010817836159644533,-0.001075398740919285,-0.0035453965400144894,0.0058525051278505505,0.9929755701620857
2016-12-21,-1,-0.0006414309306172483,-0.000533778713709286,-0.0030801647061133933,0.0058525051278505505,0.993205017113536
2016-12-23,-1,-0.0005043867434066983,-0.0003907239775370168,-0.0030801647061133933,0.0058525051278505505,0.9934769032980472
2016-12-28,-1,-0.00039667397988754947,-0.00024627637518222575,-0.0014770679117975679,0.00811348552285424,0.9933472550541473
2016-12-30,0,-0.0001603748436241971,1.6608852389493286e-05,-0.0014770679117975679,0.009853717887607538,0.9927287620302829
2017-01-04,1,0.0008523287250467324,0.0011724536323786921,-0.0014770679117975679,0.010793194061656044,0.9929024058223204
2017-01-06,1,0.0023824971707234817,0.0029149830214403234,-0.0030801647061133933,0.006348360568908024,0.9935702717177388
2017-01-10,1,0.0025813744331382106,0.003118999390891707,-0.003838784564511357,0.006348360568908024,0.9931089293919254
2017-01-12,1,0.0020020688183887314,0.0024476535355452624,-0.0012992028274755713,0.006348360568908024,0.9940713256081809
2017-01-17,1,0.002013127129657409,0.0024403074888212153,-0.0012992028274755713,0.010172169354121218,0.993533317707224
2017-01-19,1,0.0012152160545071686,0.0014934878110696285,0.00018289612560737424,0.010172169354121218,0.9937778063243937
2017-01-23,1,0.0013738557689906678,0.0016926897246615294,0.0005872597488319687,0.010902504199522252,0.9932955468516284
2017-01-25,1,0.0010166999517974892,0.0012291234017100484,0.0009078701130541262,0.010902504199522252,0.9928363158906274
2017-01-27,1,0.0014876644030657948,0.001767812221074357,0.0005872597488319687,0.010172169354121218,0.9932703381936444
2017-01-31,1,0.0022061385279818512,0.002571556713606465,0.0005262943736295106,0.010172169354121218,0.9935396989133114
2017-02-02,1,0.002494459445752337,0.002851937217979947,-0.001204034693702693,0.008985885617698988,0.9939275657119798
2017-02-06,1,0.0019558414105598568,0.0022241106258979173,-0.002709080285053423,0.008985885617698988,0.9938467954820945
2017-02-08,1,0.0021088183049532694,0.002422350645681356,-0.0006629775242252245,0.008179922447296937,0.9945436766123558
2017-02-10,1,0.002549271502962374,0.002943019970298976,-0.002709080285053423,0.008179922447296937,0.9944895460115004
2017-02-14,1,0.0033933398940001703,0.003913578887737787,-0.0031993890925863587,0.008004583264657488,0.9939666300278938
2017-02-16,1,0.003769238758527421,0.004344704860581545,-0.00432087256006202,0.007370327366970613,0.9936110709908277
2017-02-21,1,0.0044096334077554835,0.0050796521818130755,-0.0046893039599292,0.00600613666956917,0.9930693198346244
2017-02-23,1,0.004264630385177845,0.004865872283406137,-0.0046893039599292,0.0049896387583021964,0.9930260426924578
2017-02-27,1,0.004745891096591723,0.005466365459511182,-0.00427859428843483,0.0028122528405154492,0.9927256402377217
2017-03-01,1,0.004885096958842884,0.005628787084835607,-0.004040285000711888,0.002027649914693866,0.9930123072051806
2017-03-03,1,0.0046197037797725046,0.005336431521404519,-0.0033573384704059933,0.0006605439513308764,0.9932770046669677
2017-03-07,1,0.0033533551329540893,0.0038114160674120544,-0.004040285000711888,0.0015064059632526883,0.994114710426929
2017-03-09,1,0.0036620644980059625,0.004153171148152291,-0.00427859428843483,5.5815493308058695e-05,0.9932075731292321
2017-03-13,1,0.0032918723229973627,0.0037060745725429473,-0.0048542041763361245,5.5815493308058695e-05,0.9935341233613851
2017-03-15,1,0.002977941207954507,0.003317520200677004,-0.004163095467334282,-0.00017202893149008517,0.9946768177063329
2017-03-17,1,0.002932293931566867,0.003290355925969756,-0.004163095467334282,-0.00017202893149008517,0.9936486904667743
2017-03-21,1,0.0023515227320801075,0.0026093759780843207,-0.0030116764330083406,0.000505215977206172,0.9947651456015961
2017-03-23,1,0.0022870368452218032,0.0025390064736539805,-0.0037258270320960174,0.001705982978568402,0.9941410164938431
2017-03-27,1,0.001608593384869477,0.0017155908656224374,-0.005737122402730518,0.002994005076942058,0.9936069424779493
2017-03-29,1,0.0012137555909685878,0.0012367440441295508,-0.005737122402730518,0.002994005076942058,0.9936404063913783
2017-03-31,1,0.0010695472307471051,0.0010988896113031457,-0.005737122402730518,0.002994005076942058,0.9937806463530382
2017-04-04,1,0.0011853954166024289,0.001253031298975746,-0.004118703178611162,0.002994005076942058,0.993997520915274
2017-04-06,1,0.0011082142724827468,0.0011955072540729282,-0.0034850434261627376,0.003668966300288846,0.9937797362621805
2017-04-10,1,0.00020066398806030828,0.00029688176965218,-0.002577163575436584,0.0029990449101316425,0.9941177669604347
2017-04-12,1,0.0004456237332183429,0.00048130325366679437,-0.0037011795955311905,0.0029990449101316425,0.9933344349385109
2017-04-17,1,0.0002141375681886268,0.00028550226724267263,-0.0034850434261627376,0.0027625732875755276,0.9948142422756961
2017-04-19,-1,-0.0006786701726166496,-0.0004219426484674642,-0.004841077087028594,0.0023980493713200808,0.9940292799005875
2017-04-21,-1,-0.0002875990353431194,-0.00012478276660858899,-0.0037011795955311905,0.0023980493713200808,0.994675858338757
2017-04-25,-1,-0.0004899234775587702,-0.00027950999544814996,-0.0034850434261627376,0.0023980493713200808,0.9950521176607391
2017-04-27,-1,-0.0013501742633631234,-0.000986933172802213,-0.003492165055232453,0.0027542337689315656,0.994528787789186
2017-05-01,-1,-0.0011505509371787354,-0.0008464448703969968,-0.0025995120591265405,0.004762567495225399,0.9934333828366193
2017-05-03,-1,-0.0010596294020934816,-0.000763092723933997,-0.0025995120591265405,0.00963945094995049,0.9925291835300483
2017-05-05,0,-8.852883577037396e-05,6.825130038729844e-05,-0.0025995120591265405,0.008916720538815624,0.9931939344542525
2017-05-09,0,-9.925008687477577e-05,5.318451033853316e-05,-0.003526986959428251,0.008916720538815624,0.9927568110856605
2017-05-11,-1,-0.0011451282835676208,-0.0008477103669364315,-0.0014378507465599316,0.00963945094995049,0.9925479682914554
2017-05-15,-1,-0.0014777118702993298,-0.0011105384192964586,-0.0023753849465443667,0.00963945094995049,0.9923478308718943
2017-05-17,-1,-0.0024596721744498456,-0.001969608905703778,0.0016496260442634726,0.009755312395269623,0.9919190640548321
2017-05-19,-1,-0.002439738638960321,-0.001954458623131893,0.002403048493809819,0.010606751856921079,0.9912383721376792
2017-05-23,-1,-0.002271831078944693,-0.0017930989844120568,0.0007891285880173838,0.009755312395269623,0.9920841968408138
2017-05-25,-1,-0.002062517533069568,-0.001612165494630009,0.0007891285880173838,0.010606751856921079,0.9919140214131211
2017-05-30,-1,-0.0008445373565571085,-0.0005723311254907914,-0.00276913753680887,0.009746199241829272,0.9933221327351818
2017-06-01,1,0.0006181666323250054,0.0006556809839138864,-0.003561898251656692,0.006780202035484698,0.9943005312049243
2017-06-05,1,0.0010376833852713341,0.0010669760565979315,-0.003561898251656692,0.005404573057908253,0.9946081354713877
2017-06-07,1,0.0006098196981993493,0.0006613717150360773,-0.003561898251656692,0.006002215161695837,0.9937039591912283
2017-06-09,1,0.0010910658529590146,0.0010989662155369512,-0.0038681591088293946,0.006002215161695837,0.9936618244644504
2017-06-13,1,0.0007782869995146245,0.000833898348797235,-0.0038681591088293946,0.005849757030142549,0.9937464485239192
2017-06-15,1,0.00107116241305583,0.0011012894497621504,-0.003953084923484624,0.005849757030142549,0.9931017422750806
2017-06-19,1,0.00143022969082177,0.0014326305354398835,-0.003953084923484624,0.0053213581486885545,0.9933874039046157
2017-06-21,1,0.0013611785079069077,0.0013755515327415898,-0.0038681591088293946,0.007072642421527669,0.9918921520807222
2017-06-23,1,0.001828692055075323,0.0019328629628914892,-0.0035737832597407607,0.005849757030142549,0.992551847155822
2017-06-27,1,0.00173137373796637,0.0018693691122923742,-0.003276120058728533,0.005849757030142549,0.9926092475327737
2017-06-29,1,0.0015776849011411734,0.0016734834193710129,-0.004689927564955977,0.005849757030142549,0.992131605024888
2017-07-03,1,0.0014692779712705847,0.001541772271138175,-0.006122213160489918,0.005849757030142549,0.9917712146008906
2017-07-06,1,0.0009662284047452777,0.0009825819707883036,-0.004689927564955977,0.0026745063451893442,0.9931644531180539
2017-07-10,1,0.0014146543096055242,0.001524866795953286,-0.003738663086705441,0.0017292582635916598,0.9936781225503003
2017-07-12,1,0.0016511719241792126,0.0018147771830041575,-0.006122213160489918,0.0010159348550721392,0.9932364335266753
2017-07-14,1,0.002174139353280119,0.0024394726502229487,-0.0064303838883741984,0.0010159348550721392,0.9928831421565261
2017-07-18,1,0.002135086120807617,0.0024089610598532598,-0.0064303838883741984,0.0017292582635916598,0.9925139059156822
2017-07-20,1,0.0033803418657112577,0.0038184198586786833,-0.008474490805808433,0.0010159348550721392,0.991999248662907
2017-07-24,1,0.003374177155239868,0.003812209688581174,-0.008556327921257382,0.0017292582635916598,0.991644313214943
2017-07-26,1,0.0028908849009872967,0.003246686828237238,-0.008556327921257382,0.0022437001837558386,0.9917920951695
2017-07-28,1,0.002211877984666922,0.0024622241122802544,-0.0061029458222665355,0.0022437001837558386,0.9926375941407533
2017-08-01,1,0.002013114665984707,0.0022617921408933555,-0.005252637541051443,0.004651155041768211,0.9923983459631358
2017-08-03,1,0.0019141192590850903,0.0021424536839700107,-0.005252637541051443,0.01027184538138206,0.9917758848550339
2017-08-07,1,0.001853856602229195,0.002061555860064099,-0.005252637541051443,0.01027184538138206,0.9914691911008872
2017-08-09,1,0.0013795257202816478,0.0015157089974294781,-0.003507566058305443,0.01027184538138206,0.9919087498416221
2017-08-11,1,0.0010236775720005302,0.0010926484780625113,-0.0023741321616940108,0.010501143623103856,0.9922723240191624
2017-08-15,1,0.00110779650441287,0.0011835396190400104,-0.003151439083823292,0.008772852180369582,0.9925572884319638
2017-08-17,1,0.0012970625481412167,0.0013903570718703784,-0.003151439083823292,0.006461948882793891,0.9937205228165386
2017-08-21,1,0.0009230912324754494,0.000962026333665617,-0.003151439083823292,0.006703350493557803,0.9934446624207683
2017-08-23,1,0.001229009270818762,0.001291742214314071,-0.004056049656290511,0.006703350493557803,0.9934662470465084
2017-08-25,1,0.0008397285402691611,0.0008431823060785588,-0.003151439083823292,0.008533716995501435,0.992760164769997
2017-08-29,1,0.0010207338675297555,0.0010280995089777631,-0.004056049656290511,0.006703350493557803,0.9929372465815033
2017-08-31,1,0.0009220066697735978,0.0009466558074900647,-0.004893507343367519,0.006703350493557803,0.9921188211300331
2017-09-05,1,0.0007562611155952959,0.000756438316928997,-0.004893507343367519,0.006703350493557803,0.9921628553054425
2017-09-07,1,0.0009434949425436968,0.0009613237804872393,-0.004893507343367519,0.009575831229625876,0.9916065546263916
2017-09-11,1,0.0012134567598129022,0.0012658021171628269,-0.005405363008613411,0.0069710101766432345,0.9921241802786999
2017-09-13,1,0.0007592015306878183,0.0007780338904439016,-0.006016628892271772,0.009670897147337045,0.9909952633632239
2017-09-15,1,0.0006408424072532804,0.0006757792193934908,-0.0054604270299039755,0.009670897147337045,0.9910321888802558
2017-09-19,1,0.0002505574918543649,0.00033714709534017276,-0.0021274758774956137,0.009670897147337045,0.9914801621650354
2017-09-21,1,9.798104920156098e-05,0.00021177987279124785,-0.0005486419597028299,0.01074931209752899,0.9915212162738657
2017-09-25,1,0.0006876520083300163,0.000730179479900314,-0.001887816712845972,0.008571728995818421,0.9922760265543129
2017-09-27,1,0.0007058695661028379,0.0007252650365099242,-0.001887816712845972,0.008571728995818421,0.992431455384801
2017-09-29,1,0.0009787750727996674,0.000988095548794361,-0.001318162151750707,0.006465531410951041,0.9939691833703161
2017-10-03,1,0.0007343577654643586,0.0007810213724176223,-0.002552362045939785,0.006253494825888536,0.9931377068820555
2017-10-05,1,0.00127661797822791,0.0012972282183699897,-0.004246221311217366,0.005148267869834707,0.9935179301566999
2017-10-09,1,0.0004818398495485391,0.0005833520914416657,-0.004246221311217366,0.00599866821652367,0.9926040290530704
2017-10-11,1,0.00029011326784152575,0.0004167592230146005,-0.0025473272399370466,0.005148267869834707,0.9939778499559793
2017-10-13,1,0.0003709839043909151,0.0004797222098335502,-0.004246221311217366,0.004521624670112811,0.9935100347083118
2017-10-17,1,0.0006885626217738386,0.0007533065229744563,-0.0045070291953292424,0.004521624670112811,0.9931846963047724
2017-10-19,1,0.0012220615137742226,0.0012554107953137346,-0.0045070291953292424,0.00414351254952054,0.9930853968494784
2017-10-23,1,0.0011569699617487855,0.0012079805925207983,-0.004955749410964057,0.0029500844060718805,0.9932526683717346
2017-10-25,1,0.0009584865483353572,0.0009860055195425883,-0.004955749410964057,0.004427900501326019,0.9929744509301045
2017-10-27,1,0.0007847463075350739,0.0007849918100144532,-0.004955749410964057,0.006148466560548469,0.9929078506750082
2017-10-31,1,0.00048764901964595895,0.000502926476349724,-0.004955749410964057,0.006148466560548469,0.9934590863150417
2017-11-02,1,0.0004763692761777128,0.0004979008954604778,-0.005358620112704682,0.0067165304721306255,0.9929679333626633
