JNU-Tangyin/eata/results/Batch4_SP500/Batch4_SP500-INTU.csv
Date,Action,Predicted_Q25,Predicted_Q75,Actual_Q25,Actual_Q75,RL_Reward
2010-12-14,0,0.0,6.618542732267553e-05,-0.010201204339714583,0.0023016785760240016,0.9920385170398016
2010-12-16,0,0.0,0.0,-0.00926798645809704,0.0023016785760240016,0.9931661963698535
2010-12-20,0,0.0,0.0,-0.00926798645809704,0.0023016785760240016,0.993005352526718
2010-12-22,1,0.0015453632386216464,0.0016621682093662066,-0.00926798645809704,0.0012578623270988734,0.9924355586928572
2010-12-27,0,0.0,0.0,-0.010201204339714583,0.0023016785760240016,0.9922830190413475
2010-12-29,0,0.0,0.0,-0.010201204339714583,0.004411334045619938,0.9916164831630503
2010-12-31,0,0.0,0.0,-0.010917256012553805,0.004411334045619938,0.9915288294136992
2011-01-04,1,0.0002856349510864644,0.0003185486856777334,-0.0102815971035336,0.005171025471005526,0.9916886792126405
2011-01-06,0,0.0,0.0,-0.007584225854360652,0.006130221989090558,0.9920592251886287
2011-01-10,0,0.0,0.0,-0.005237944460299017,0.007921211437475631,0.9921631844763854
2011-01-12,0,0.0,0.0,-0.0036078228145318253,0.008082697848680787,0.9915342337840805
2011-01-14,0,0.0,0.0,-2.3803266313566444e-05,0.007921211437475631,0.9921813357577333
2011-01-19,-1,-0.0014149978015077645,-0.0012162474325065936,-0.0036078228145318253,0.007137001190672973,0.9908761432384503
2011-01-21,-1,-0.0017542586737079404,-0.0014972178766776518,0.0029145130670962523,0.008082697848680787,0.9871235902229679
2011-01-25,-1,-0.0018476836262816393,-0.0016202696905739252,0.0003713227273249176,0.008082697848680787,0.9862265496084803
2011-01-27,0,0.0,0.0,-0.003985938932105127,0.008082697848680787,0.986850615535116
2011-01-31,0,0.0,0.0,-0.003985938932105127,0.008082697848680787,0.9863317298380063
2011-02-02,-1,-0.000639866631671494,-0.0005762047537455235,-0.003985938932105127,0.008082697848680787,0.9856390590915715
2011-02-04,-1,-0.0003296945161881741,-0.00031089135811066004,-0.008589642847053623,0.007265343829050867,0.9855007407200994
2011-02-08,-1,-5.986865633447287e-05,-5.159424392666609e-05,-0.010450957475912686,0.006872836342001554,0.9855950037863117
2011-02-10,1,0.0004650055934381078,0.0005701218459424921,-0.01608867052248613,0.0064960169828109805,0.9853865421697786
2011-02-14,1,0.0011837551846142994,0.0013862594434427803,-0.01608867052248613,0.0064960169828109805,0.9849512848314917
2011-02-16,1,0.000868635034441485,0.001040519696686447,-0.011171096418906165,0.004195825477504136,0.9856543391941042
2011-02-18,1,0.001976328995227241,0.0022748559156894705,-0.011171096418906165,0.0043499525168738595,0.987198942839805
2011-02-23,0,0.0,0.0,-0.009226793474867007,0.007955215842528476,0.9883763408058654
2011-02-25,0,0.0,0.0,-0.009226793474867007,0.007955215842528476,0.9884400502800087
2011-03-01,-1,-0.0015837339795371037,-0.0015774944116728705,-0.008752644469218536,0.011174612864475733,0.9887932424259203
2011-03-03,-1,-0.001470983478878946,-0.0014469045833401166,-0.008752644469218536,0.011174612864475733,0.9889246094735845
2011-03-07,1,0.002580237238822256,0.0028294558296397742,-0.0080264920860968,0.012563225691838896,0.9892237207412532
2011-03-09,0,0.0,0.0,-0.008143543431755456,0.012563225691838896,0.988762603621348
2011-03-11,0,0.0,0.0,-0.006801902006917541,0.012563225691838896,0.990313950645802
2011-03-15,0,0.0,0.0,-0.006924896975590045,0.012563225691838896,0.9896888157759611
2011-03-17,-1,-0.0007924991239009285,-0.00048527789269650016,-0.0009495623340672268,0.013804302043759091,0.9886618111385563
2011-03-21,1,0.0006947925616054955,0.0008278479917507031,-0.005777805638367074,0.012563225691838896,0.9908073458509425
2011-03-23,1,0.0008517420191334253,0.0009318903518672154,-0.0008639631555811782,0.013804302043759091,0.9904102698013416
2011-03-25,1,0.0006655011236742588,0.0006829797821812775,-0.0058446901382516875,0.009610260044415137,0.9901669534088695
2011-03-29,1,0.0006268176470095699,0.000629949162328224,-0.005714501293175897,0.009641599233252755,0.9904008339838389
2011-03-31,1,0.0016696440544419161,0.0017967066969613343,-0.005714501293175897,0.007091504910783038,0.9914775104303327
2011-04-04,1,0.001866223523432297,0.002032496214732093,-0.006315891893979126,0.005998789164204127,0.9917138541404058
2011-04-06,1,0.001556418344942782,0.0016914242465547456,-0.008546640353951746,0.005998789164204127,0.9911418476523565
2011-04-08,1,0.0009002795580870689,0.0009384032514273457,-0.006315891893979126,0.006725656616816742,0.9912879396031804
2011-04-12,1,0.0007667630783812568,0.0007838507049193992,-0.006315891893979126,0.006725656616816742,0.9913117444987541
2011-04-14,1,0.0006443596575702592,0.0007689583390056957,-0.007989114797957778,0.005967082315384424,0.9909081103949356
2011-04-18,1,0.0007122026467174078,0.0008257488404967102,-0.008564134510015841,0.00700020593197144,0.9900133411181005
2011-04-20,1,0.001958662569093216,0.0020132536210021425,-0.008582109779560882,0.00700020593197144,0.989412649701441
2011-04-25,1,0.0010674880709659453,0.0011008137014028364,-0.009858670124125835,0.00700020593197144,0.9879516025231363
2011-04-27,1,0.001965943120158369,0.002093628135439752,-0.009858670124125835,0.005508721272469054,0.9880425611036726
2011-04-29,1,0.0019449737176449947,0.002070073833317067,-0.009858670124125835,0.00700020593197144,0.987693267744063
2011-05-03,1,0.0016095988586374002,0.001700818824997865,-0.010847781842549597,0.008483045207560073,0.9870978397560871
2011-05-05,0,0.0,0.0,-0.012971302357145272,0.008483045207560073,0.9867329870662332
2011-05-09,0,0.0,0.0,-0.012971302357145272,0.008483045207560073,0.9866505673951673
2011-05-11,0,0.0,0.0,-0.012971302357145272,0.00754834070224222,0.9870044790776534
2011-05-13,0,0.0,0.0,-0.012971302357145272,0.005691432862559313,0.9889541396382262
2011-05-17,1,0.0012296547908900424,0.0013603239371811136,-0.012971302357145272,0.005621660005137948,0.9878471973086278
2011-05-19,0,0.0,0.0,-0.012971302357145272,0.0015762735314093091,0.9896265130917823
2011-05-23,0,0.0,0.0,-0.009662517186474732,0.005621660005137948,0.9910398742875427
2011-05-25,0,0.0,0.0,-0.009662517186474732,0.006997895743463461,0.9910508844240392
2011-05-27,0,0.0,0.0,-0.009662517186474732,0.006489627238142939,0.9912462727467084
2011-06-01,0,0.0,0.0,-0.008811785293003666,0.006489627238142939,0.9914945689232786
2011-06-03,0,0.0,0.0,-0.004420023345345287,0.006997895743463461,0.9927987936202228
2011-06-07,0,0.0,0.0,-0.004025578539104332,0.006489627238142939,0.993262913781615
2011-06-09,0,0.0,0.0,-0.0023740376628062863,0.006489627238142939,0.9933786266042839
2011-06-13,-1,-0.0024852008671989176,-0.0020477245808049613,-0.005568915024737457,0.006489627238142939,0.9920758562190254
2011-06-15,0,0.0,0.0,-0.008284669923664244,0.005371275467768964,0.9927985536459428
2011-06-17,-1,-0.003700198985374557,-0.0031090181783169444,-0.008648359853472573,0.005371275467768964,0.991705943163082
2011-06-21,-1,-0.0025481254123275567,-0.0021178081611541374,-0.011133213100040304,0.005371275467768964,0.9916684070245589
2011-06-23,-1,-0.0024963134166064247,-0.002062977372141065,-0.011133213100040304,0.005371275467768964,0.9913552446161026
2011-06-27,-1,-0.0022515358873863387,-0.0018676591284981696,-0.011133213100040304,0.005618978684386385,0.9910007760833672
2011-06-29,-1,-0.0015987003029219887,-0.0013075029142625109,-0.012644163869985691,0.002535975030508549,0.9907626799445856
2011-07-01,-1,-0.001156325616000722,-0.0009330170684536993,-0.012995427147653577,0.00028778267674500085,0.9901950399040678
2011-07-06,-1,-0.0005741303357650657,-0.00046250454429210566,-0.013874327748722153,-0.0002652942866489499,0.9887866104458417
2011-07-08,-1,-0.000978955157168022,-0.0008220068917551511,-0.016056855782423163,-0.0002652942866489499,0.9871132612404293
2011-07-12,-1,-0.0021204112225972644,-0.0018074502326227565,-0.018160164475230126,0.005126548071147513,0.983681582942359
2011-07-14,-1,-0.0014568902819064608,-0.0013305406381603707,-0.020411899504561615,0.010869451012586379,0.9785843449218695
2011-07-18,-1,-0.0026256119207778406,-0.0023117967309020638,-0.01932187193084255,0.01131763140272853,0.9784587418803238
2011-07-20,-1,-0.0027630509430966376,-0.0024467498179950066,-0.015837442549675253,0.010869451012586379,0.9795711908427694
2011-07-22,-1,-0.002415604159365462,-0.0021191002127962156,-0.02034206510152025,0.012178216162133718,0.9740739406155796
2011-07-26,-1,-0.0016044759510634252,-0.0014406821907471156,-0.02034206510152025,0.012789328931125388,0.9726307687319307
2011-07-28,-1,-0.0026469718237678956,-0.0023402810158141014,-0.0200542663167031,0.012789328931125388,0.9723483037478021
2011-08-01,-1,-0.0032797188123405833,-0.0028955336472417117,-0.0200542663167031,0.03584777669982208,0.9690151934965411
2011-08-03,-1,-0.0040941205637852005,-0.0035572338778516116,-0.0200542663167031,0.03584777669982208,0.9689955285490067
2011-08-05,-1,-0.005744670127542145,-0.005005432060017397,-0.017732579435298084,0.03584777669982208,0.969288079225792
2011-08-09,-1,-0.006032567421437903,-0.005245990909680843,-0.01254626795740847,0.021748757458989146,0.9733127408583502
2011-08-11,-1,-0.005685100147301174,-0.005000259422365755,-0.015142770580155031,0.014396111277067268,0.9780662433240574
2011-08-15,-1,-0.00501080005083799,-0.004410444249371623,-0.015142770580155031,0.01257854790340023,0.9788809108073218
2011-08-17,-1,-0.005126676584189014,-0.0045405986044684335,-0.015142770580155031,0.020222708705668453,0.9767974987542298
2011-08-19,-1,-0.003831920746427262,-0.0034147047133647676,-0.008748522415769705,0.018576335823232322,0.9820104348898784
2011-08-23,0,0.0,0.0,-0.015142770580155031,0.014574508812252791,0.9831711593000336
2011-08-25,0,0.0,0.0,-0.015142770580155031,0.014574508812252791,0.9833320909004195
2011-08-29,1,0.0002757244392221224,0.0003108771094149157,-0.015142770580155031,0.013883632618502555,0.985875194150093
2011-08-31,1,0.0005163214489293832,0.0006840740139404915,-0.015142770580155031,0.013883632618502555,0.9862955450237232
2011-09-02,-1,-0.000882887358667467,-0.000859944237285353,-0.015427312700856517,0.013883632618502555,0.9855484175405713
2011-09-07,1,7.478294311423142e-05,0.00019179551514900248,-0.015427312700856517,0.015574758199989748,0.985040041485164
2011-09-09,0,0.0,0.0,-0.008637193505348667,0.016601005581383384,0.984684529397642
2011-09-13,0,0.0,0.0,-0.008637193505348667,0.018576335823232322,0.9829799242998221
2011-09-15,1,0.0007856507553503452,0.00102929050239145,-0.008637193505348667,0.016583922401426122,0.9844886865046635
2011-09-19,0,0.0,0.0,-0.010209178207106744,0.016583922401426122,0.9835060360186684
2011-09-21,1,0.0009987640792744406,0.0013680346898034795,-0.009433106811526256,0.016583922401426122,0.984844680043196
2011-09-23,1,0.0010671156819951851,0.0014407936528439199,-0.005946297166400238,0.018481456578022713,0.9851221868545167
2011-09-27,1,0.0010751894187800471,0.0013417941701660539,-0.009433106811526256,0.018481456578022713,0.9854120242333724
2011-09-29,1,0.0010276277421363265,0.0012945286509073244,-0.007589757547731119,0.020495304028789844,0.9835830323009459
2011-10-03,0,-2.658505973002483e-06,0.00013910281470144037,-0.007589757547731119,0.020495304028789844,0.984583133750026
2011-10-05,1,0.0009366747989123666,0.0012289400270235908,-0.010716911866544297,0.018481456578022713,0.9841506544666256
2011-10-07,1,0.001467754413660449,0.0018183643755844239,-0.010716911866544297,0.018481456578022713,0.9844117713315041
2011-10-11,1,0.0029262870272968185,0.0035003303419368576,-0.010716911866544297,0.014412339403827513,0.9859610018817508
2011-10-13,0,0.0,0.0,-0.011298826305302333,0.010838874401667815,0.9844752877719972
2011-10-17,0,0.0,0.0,-0.011298826305302333,0.010838874401667815,0.984291906492634
2011-10-19,0,0.0,0.0,-0.011298826305302333,0.012340545411194673,0.984044010651032
2011-10-21,0,0.0,0.0,-0.01296167438546936,0.010327113969246278,0.9836796906399438
2011-10-25,0,0.0,0.0,-0.014854929400496594,0.010327113969246278,0.9831986625993384
2011-10-27,0,0.0,0.0,-0.018367181405160412,0.009048143107561007,0.9844868386988909
2011-10-31,0,0.0,0.0,-0.016009101633339427,0.010327113969246278,0.9841677515425946
2011-11-02,1,0.002701396581150186,0.0031123403915701165,-0.009640791740128113,0.012340545411194673,0.9833221913272394
2011-11-04,0,0.0,0.0,-0.009640791740128113,0.012340545411194673,0.9834402232196435
2011-11-08,1,0.005404335143244,0.0061640488169095245,-0.010579610160144791,0.009548700110736627,0.9822829093295775
2011-11-10,0,0.0,0.0,-0.010579610160144791,0.012248677137436756,0.9839892332707787
2011-11-14,0,0.0,0.0,-0.008477694190213176,0.010479888964692988,0.9849134401468457
2011-11-16,0,0.0,0.0,-0.01246336340555907,0.006710476059236768,0.9839797146591295
2011-11-18,0,0.0,0.0,-0.011053508086756413,0.009672672277966395,0.9846181052606322
2011-11-22,1,0.001787170437522031,0.002104275239153459,-0.010638752148771836,0.01089978112335661,0.9825058042625086
2011-11-25,1,0.001441257332251596,0.0017145828200915755,-0.009523766354606486,0.01089978112335661,0.9835986632339293
2011-11-29,1,0.0018758646266502478,0.0021838638141685428,-0.010638752148771836,0.009672672277966395,0.9843738493793736
2011-12-01,0,0.0,0.0,-0.010638752148771836,0.007540066704312787,0.9867593692973503
2011-12-05,0,0.0,0.0,-0.010638752148771836,0.003695742775746605,0.9883763354246052
2011-12-07,0,0.0,0.0,-0.010638752148771836,0.007540066704312787,0.9884310346975318
2011-12-09,1,0.0016545507334258006,0.0017903932344329183,-0.008515450342785481,0.007540066704312787,0.988555703237182
2011-12-13,0,0.0,0.0,-0.005019657957399323,0.007115169071455377,0.9889896195257518
2011-12-15,0,0.0,0.0,-0.0031402136554322954,0.0077084765679475125,0.9901295896185925
2011-12-19,0,0.0,0.0,-0.0026164648488928295,0.008650207708155016,0.9896884729274287
2011-12-21,0,0.0,0.0,-0.0021684623558595106,0.0077084765679475125,0.9926917697094921
2011-12-23,0,0.0,0.0,-0.001663081466691223,0.0077084765679475125,0.9926916580022553
2011-12-28,0,0.0,0.0,-0.0016539036275266027,0.0077084765679475125,0.9933155952103363
2011-12-30,0,0.0,0.0,-0.0022000823806547025,0.0077084765679475125,0.9930385774008902
2012-01-04,0,0.0,0.0,-0.0007395150962457304,0.008650207708155016,0.9920368224258692
2012-01-06,0,0.0,0.0,-0.0015755104913616736,0.008526090061260878,0.9918074155328748
2012-01-10,-1,-0.0015281486505308523,-0.0012869676891076494,-0.0022000823806547025,0.0077084765679475125,0.9929202514319709
2012-01-12,1,5.370238432528501e-05,0.00026865559788169784,-0.0030354385120479463,0.0061188861948476515,0.9927665680716963
2012-01-17,0,0.0,0.0,-0.0022000823806547025,0.0038868864423311405,0.993244001866344
2012-01-19,1,0.0006928296374071414,0.0007730490210282651,-0.0022000823806547025,0.0032141150572079186,0.9934092152454768
2012-01-23,1,0.0016950660294028064,0.0018388171320082324,-0.0030354385120479463,0.0026250927218624187,0.9926582882017249
2012-01-25,1,0.001843415266553668,0.002027202264488311,-0.006064122409839565,0.0026250927218624187,0.9881381465625221
2012-01-27,1,0.0011902700051710383,0.0012291748492057305,-0.00995287825962346,0.0026250927218624187,0.9878446556267155
2012-01-31,1,0.0008060893085142739,0.0008117798723013056,-0.006064122409839565,0.0026250927218624187,0.9886988985490984
2012-02-02,1,0.0007954592598091724,0.0008441732370420856,-0.00995287825962346,0.0019066266683084657,0.9893304756499582
2012-02-06,0,0.0,0.0,-0.010639359056674421,0.001211054277762669,0.9894517622945035
2012-02-08,1,0.0009810564621735684,0.0010007822552959393,-0.010639359056674421,0.0019066266683084657,0.9886302705475412
2012-02-10,1,0.0007670951047967597,0.0007790485974463673,-0.007879805185685849,0.004319574460208965,0.9883776305497275
2012-02-14,1,0.0001927489855381535,0.0002866846145002817,-0.007879805185685849,0.00995260299754138,0.9875638156110546
2012-02-16,1,0.0004310676805678378,0.0005114208533706064,-0.007879805185685849,0.007854246931612527,0.9883985824164423
2012-02-21,1,0.0005084087040977116,0.0005483786958968012,-0.005351304369816397,0.007854246931612527,0.9886384129220099
2012-02-23,1,0.0007689881961104169,0.0007907034915813912,-0.005351304369816397,0.004303491635196989,0.991313999047758
2012-02-27,0,0.0,0.0,-0.002706527105742614,0.007854246931612527,0.9910803762572695
2012-02-29,-1,-0.0001887255037514751,-2.7780938675936657e-05,-0.002706527105742614,0.009349407638446378,0.9906315646489999
2012-03-02,-1,-0.00017791708816161281,-4.5065695017295184e-05,-0.001000115725953959,0.009349407638446378,0.9907203794259208
2012-03-06,0,-4.849934623127862e-05,1.9160736341201418e-05,-0.0004260081579679688,0.009349407638446378,0.9911290067788039
2012-03-08,1,0.00045227842588672223,0.0004550214064146373,-0.001000115725953959,0.007854246931612527,0.9911413485456688
2012-03-12,1,0.0008570132755308325,0.0009171299174072705,-0.004789616581045871,0.006837458528331943,0.991308001449669
2012-03-14,1,0.0010504498175446303,0.0011254192046123452,-0.004789616581045871,0.007786973186835213,0.9908442998664565
2012-03-16,1,0.0013568295110866697,0.0015011662411497277,-0.004789616581045871,0.006837458528331943,0.9909640941417021
2012-03-20,0,0.0,0.0,-0.004413764080610684,0.008108507918492542,0.9901528571620334
2012-03-22,0,0.0,0.0,-0.00574481057606649,0.008108507918492542,0.9888078193521391
2012-03-26,0,0.0,0.0,-0.008654170927112497,0.006837458528331943,0.9888655926011714
2012-03-28,0,0.0,0.0,-0.008654170927112497,0.006837458528331943,0.9883803778862281
2012-03-30,1,0.001163514518105666,0.0012809023764433784,-0.008654170927112497,0.006859496054725417,0.9884009232659385
2012-04-03,0,0.0,0.0,-0.008654170927112497,0.006621747828447276,0.9886260303845867
2012-04-05,0,0.0,0.0,-0.008654170927112497,0.006621747828447276,0.9882612724945733
2012-04-10,1,0.0004611895987928807,0.000495500974923674,-0.006244349735554044,0.006621747828447276,0.9886201623212306
2012-04-12,0,0.0,0.0,-0.008236204659229834,0.004405832521887263,0.9892113268247649
2012-04-16,0,0.0,0.0,-0.008605112646853806,0.005271857760618768,0.9886721346656595
2012-04-18,0,0.0,0.0,-0.008605112646853806,0.004405832521887263,0.9892895161632911
2012-04-20,-1,-0.0013894805337432866,-0.0010890594281674627,-0.008228680068814269,0.004405832521887263,0.9921215581792798
2012-04-24,-1,-0.001531736528415562,-0.001240972344967226,-0.005975009780643718,0.006621747828447276,0.9913396827948497
2012-04-26,-1,-0.0005924471858870288,-0.00044961306264673943,-0.005975009780643718,0.006621747828447276,0.9921396764011793
2012-04-30,-1,-7.936296265940835e-05,-2.9886131609855113e-05,-0.005975009780643718,0.005296364648409233,0.9922446190439039
2012-05-02,0,-6.686248104187823e-05,6.177669794496618e-07,-0.007169551628369538,0.003457606482206648,0.9924269102832609
2012-05-04,-1,-0.0009007306977344485,-0.0007290086278563615,-0.007169551628369538,0.003457606482206648,0.9925061905772105
2012-05-08,-1,-0.001188440612768504,-0.000977717233265638,-0.007169551628369538,0.007555490015800598,0.9903516636155542
2012-05-10,-1,-0.002094123191000833,-0.001735394061543802,-0.007169551628369538,0.007555490015800598,0.9905719749402078
2012-05-14,-1,-0.002302200968494303,-0.0019087797344115144,-0.007169551628369538,0.00977813715264135,0.9887539694862709
2012-05-16,-1,-0.0019244553727850117,-0.001616635824145486,-0.005861639257158042,0.013413815458651935,0.9882780092922099
2012-05-18,-1,-0.002151931411071152,-0.001816889234988081,-0.0023836523033907656,0.01349951190216127,0.9875718328595349
2012-05-22,-1,-0.0017973632456224332,-0.0014874605957482072,-0.0031016755297653786,0.009798257073432709,0.9888802393157702
2012-05-24,-1,-0.0017025128703782508,-0.0014026714944377643,-0.005861639257158042,0.013489356437850363,0.9871524398080885
2012-05-29,-1,-0.0017132072781474998,-0.0014061781920316333,-0.008987768808174125,0.013489356437850363,0.9858448770320869
2012-05-31,-1,-0.001691733457611691,-0.0014043842296608277,-0.010073159755486689,0.013489356437850363,0.9853586095505342
2012-06-04,-1,-0.0018019604110568652,-0.0015359449366147528,-0.006223436239595563,0.014135581351555702,0.9842266231056247
2012-06-06,-1,-0.000514874466534642,-0.0004083321056291355,-0.006223436239595563,0.012168106547599752,0.9864169704301908
2012-06-08,-1,-0.00091855010843503,-0.0007610516661954387,-0.008218672040615108,0.012168106547599752,0.9851197238241932
2012-06-12,-1,-0.0005070126035673101,-0.0004348408180189453,-0.0059495463586894965,0.00963750471304911,0.9875264218106597
2012-06-14,-1,-0.00020057801103073565,-0.00017016455206120897,-0.008218672040615108,0.009358628244945993,0.9874388721660847
2012-06-18,1,0.0002923769353571033,0.0003249607596975024,-0.008218672040615108,0.009358628244945993,0.9876057458256456
2012-06-20,1,0.0003112288056963412,0.0003397649266669645,-0.008218672040615108,0.010875879296382514,0.9864961278410421
2012-06-22,-1,-0.0004356793949897664,-0.0003526562635260669,-0.009919431440330136,0.009358628244945993,0.986754550698269
2012-06-26,-1,-0.00033006349345891426,-0.0002908440550340259,-0.008218672040615108,0.008142975830177066,0.9879442614110037
2012-06-28,-1,-0.0003162100160080817,-0.000279850837594528,-0.006321479698790524,0.01144209442981275,0.9867720108142765
2012-07-02,1,0.0006998238511025319,0.000783627012911114,-0.008052236755767168,0.008555767357954868,0.9880546124043017
2012-07-05,1,0.0005710349781606354,0.0006139920694582372,-0.008052236755767168,0.002779849633814404,0.9884129340515942
2012-07-09,-1,-0.000518443585933999,-0.00043006798265926983,-0.005906287639968819,0.01144209442981275,0.9893039449314955
2012-07-11,-1,-0.00022394089859294794,-0.0001979502863706219,-0.005906287639968819,0.01144209442981275,0.9890778915748986
2012-07-13,-1,-0.00041179010354498724,-0.0003531323389122455,-0.005906287639968819,0.010477572881254683,0.9898120242478605
2012-07-17,1,0.0004102074122663927,0.0004892354294720904,-0.0068066605793020525,0.004214713440766658,0.9896579026198663
2012-07-19,1,0.0008716505550255469,0.0009878265505237466,-0.0068066605793020525,0.010477572881254683,0.9893189444053269
2012-07-23,-1,-0.00041684799792908076,-0.00036742708553188423,-0.005906287639968819,0.010477572881254683,0.9911885116625645
2012-07-25,-1,-0.0009017166843674901,-0.0007812450662152371,-0.006397920811747626,0.012400204317253862,0.9908522157559277
2012-07-27,0,-2.9539873830403845e-06,4.468984340328636e-05,-0.006769924624903402,0.005421080233241985,0.9912706083124642
2012-07-31,-1,-0.00011960344080678791,-8.800295399387678e-05,-0.005555411969054319,0.008745679482481774,0.9914651714141689
2012-08-02,1,0.00016077255734193427,0.00020311786368380435,-0.006769924624903402,0.008745679482481774,0.9907697345742354
2012-08-06,1,0.0012741211130328724,0.0014937895854946098,-0.006769924624903402,0.004510626849228221,0.9918786563903196
2012-08-08,1,0.001383018068137396,0.0016296481994067533,-0.006769924624903402,0.006391182406698396,0.9906745573275296
2012-08-10,1,0.0011049390507020622,0.0013127604040687063,-0.005555411969054319,0.006391182406698396,0.9909597233557427
2012-08-14,1,8.123758576103753e-05,8.909017140417902e-05,-0.00480543234241317,0.006391182406698396,0.991514618530838
2012-08-16,1,0.0013100720978524226,0.0015092115380775273,-0.00480543234241317,0.005260679397925989,0.9929936569516389
2012-08-20,1,0.0011646565592662156,0.0013673415118124186,-0.0045022203538210214,0.005260679397925989,0.99284849774605
2012-08-22,1,0.0014952189981465983,0.0017613731447422118,-0.0045022203538210214,0.004385639328183094,0.9929969968756328
2012-08-24,1,0.0009823242510057662,0.0011868475961646836,-0.0045022203538210214,0.004226968496320512,0.9937733438565263
2012-08-28,1,0.0010270528279465703,0.0012218763195277604,-0.0048045862978862205,0.003408700680454506,0.9939689142443544
2012-08-30,1,0.0004480912844184744,0.000531777040435152,-0.0045022203538210214,0.0037227813405586946,0.9941429939184664
2012-09-04,1,0.0011598654572534993,0.0013981171535666038,-0.0045022203538210214,0.005260679397925989,0.9937065438442935
2012-09-06,1,0.0017137566424579782,0.0020183401814646658,-0.0038696339699060057,0.005260679397925989,0.9941218274179875
2012-09-10,1,0.001966808541997536,0.0023388308974029767,-0.003987200078185048,0.005260679397925989,0.9938368355842817
2012-09-12,1,0.0010667403221297773,0.0011916853596267638,-0.00573806984664056,0.0037227813405586946,0.9933904484552614
2012-09-14,0,0.0,0.0,-0.00573806984664056,0.0035626510738024464,0.9934755458716712
2012-09-18,0,0.0,0.0,-0.004045768095957182,0.005349638134515943,0.993490567341828
2012-09-20,1,0.0006364441444136866,0.000714041487223849,-0.003946731443042048,0.005349638134515943,0.9940480531910094
2012-09-24,1,0.00047040885423618706,0.000547781113069269,-0.003946731443042048,0.005349638134515943,0.9938768276479771
2012-09-26,-1,-0.00021260813221383448,-0.00015055451309769325,-0.003946731443042048,0.005349638134515943,0.9937238886434487
2012-09-28,1,6.0036847686400694e-05,0.00011037242571074196,-0.003946731443042048,0.0038872385939933175,0.9943835665288415
2012-10-02,1,0.0002503662591704213,0.0003039087480630773,-0.003946731443042048,0.002422855570545576,0.9935080926510182
2012-10-04,1,0.0008317432522139002,0.0008393294142145987,-0.004254510752284814,0.0019819935142792846,0.9939295428745291
2012-10-08,1,0.00033102173451351005,0.0003922427677889133,-0.004254510752284814,0.002422855570545576,0.992873868589423
2012-10-10,-1,-0.0005406478768884133,-0.0003564905303207628,-0.004254510752284814,0.0026736135678589244,0.9930304614501987
2012-10-12,1,5.4077913330470584e-05,0.00012793236914067986,-0.005072341679394082,0.00208958620801353,0.9926146772174399
2012-10-16,1,0.0006345226741414253,0.0006379916948877358,-0.007047829338447903,0.0019819935142792846,0.9922858589482818
2012-10-18,1,0.0005389704951429593,0.0005434352935284875,-0.007047829338447903,0.00208958620801353,0.9919448190571806
2012-10-22,0,-8.669564166947973e-05,5.9789461860738436e-06,-0.007047829338447903,0.003037963946697977,0.9918906034044949
2012-10-24,-1,-0.0009040199415686823,-0.00066960183509045,-0.010562520953214005,0.005524252914562323,0.9913092182430757
2012-10-26,0,0.0,0.0,-0.010562520953214005,0.006573056453126921,0.9906975779157053
2012-11-01,0,0.0,0.0,-0.010562520953214005,0.0071978736740238415,0.9912744825669105
2012-11-05,0,0.0,0.0,-0.010562520953214005,0.0071978736740238415,0.9910173338303957
2012-11-07,0,0.0,0.0,-0.008677587155086968,0.006573056453126921,0.9923858904354569
2012-11-09,0,0.0,0.0,-0.00621981698049961,0.006573056453126921,0.9928975004615309
2012-11-13,0,0.0,0.0,-0.004343936732957955,0.0071978736740238415,0.9926818585893689
2012-11-15,0,0.0,0.0,-0.003721275613490693,0.0071978736740238415,0.993288978392605
2012-11-19,0,0.0,0.0,-0.003165781915768572,0.010243251722676665,0.992503350509098
2012-11-21,0,0.0,0.0,-0.0028857107159032448,0.010243251722676665,0.9933272149264212
2012-11-26,0,0.0,0.0,-0.0028857107159032448,0.007457515212365869,0.993836273183333
2012-11-28,0,0.0,0.0,-0.003165781915768572,0.006347236768797981,0.9935847567771398
2012-11-30,0,0.0,0.0,-0.004450369035519021,0.002691517618073006,0.9937482149306831
2012-12-04,0,-0.00020104736226817698,0.0,-0.0034547597856758117,0.002691517618073006,0.9922725826662405
2012-12-06,0,0.0,0.0,-0.0034547597856758117,0.0038397776407806117,0.99205244665755
2012-12-10,-1,-0.0001852353400831775,-0.00012949536523810526,-0.004450369035519021,0.008021748950725417,0.9913027207511019
2012-12-12,0,0.0,0.0,-0.004450369035519021,0.004960041964075556,0.9917253362587602
2012-12-14,0,0.0,0.0,-0.004255536743209848,0.005174333748602861,0.9917441116285747
2012-12-18,1,0.0005013729442065616,0.0005317699160317985,-0.004255536743209848,0.004093309626594205,0.9927568155350381
2012-12-20,1,0.0012038038200552854,0.0013408992980287458,-0.004255536743209848,0.004093309626594205,0.9929530603364038
2012-12-24,1,0.0005040759451422204,0.0005130258124454066,-0.002140970061016838,0.004093309626594205,0.9932993045265399
2012-12-27,-1,-0.00021509647639582396,-0.00013033421744841224,-0.00043090179754608926,0.004093309626594205,0.9936434055068425
2012-12-31,-1,-7.09650524870863e-05,-5.8210178598542504e-05,-0.00043090179754608926,0.004093309626594205,0.9939862685779737
2013-01-03,0,0.0,0.0,-0.00043090179754608926,0.004093309626594205,0.9952892897318817
2013-01-07,0,0.0,0.0,-0.0017238774389572622,0.004093309626594205,0.9943114599515874
2013-01-09,0,0.0,0.0,-0.0019277314877214433,0.003529092794944296,0.994632458261326
2013-01-11,0,0.0,0.0,-0.004525439914569234,0.002434034246034173,0.9943375360385293
2013-01-15,0,0.0,0.0,-0.004525439914569234,0.0017667262497434587,0.9945818140832888
2013-01-17,0,0.0,0.0,-0.010564227982749598,0.0017667262497434587,0.9935113294654391
2013-01-22,1,0.0011602276859736698,0.0012688347178595573,-0.010854467520708521,0.0022806115135925262,0.9924828750716735
2013-01-24,1,0.001142181540822467,0.00125782541513855,-0.010854467520708521,0.002358724129459782,0.9914084817403466
2013-01-28,1,0.0010498516994557753,0.0011283556998779821,-0.011272679451858532,0.0037756341874064002,0.9905662846778651
2013-01-30,1,0.0006281726832818729,0.0006604320047130733,-0.010854467520708521,0.010281456933117397,0.990055750788329
2013-02-01,1,0.0009198461213303316,0.001030798732349693,-0.010635309991769966,0.012297548591869335,0.9897041530071244
2013-02-05,1,0.0009939146894830928,0.0011014000500856917,-0.004525439914569234,0.012821648448325715,0.9899330148496938
2013-02-07,1,0.0005326868127778156,0.0005834984715668151,-0.00212775549974432,0.012821648448325715,0.9903692549407686
2013-02-11,1,0.0003051505564026898,0.0003393618671424771,-0.002738533757377995,0.012821648448325715,0.990006298247645
2013-02-13,-1,-0.00014448182071396433,-8.813487763914738e-05,-0.002738533757377995,0.012821648448325715,0.9898692728079033
2013-02-15,1,0.00032307722131825166,0.0003286954622659108,-0.002738533757377995,0.010281456933117397,0.9908404279118654
2013-02-20,-1,-0.000715581002049386,-0.0005596253915936868,-0.00212775549974432,0.010281456933117397,0.9915963109330647
2013-02-22,1,0.00012021622936427738,0.00017732871759943805,-0.002040944596253277,0.00913017696739281,0.9924432834359912
2013-02-26,1,0.00039237522449513205,0.0003940507754583611,-0.002040944596253277,0.009414875962609322,0.9922773054010503
2013-02-28,1,0.0013725387559361047,0.0015245719846121487,-0.002738533757377995,0.0030954252677921614,0.9931972371430565
2013-03-04,1,0.0023559363924714094,0.0026666815421114145,-0.003242473499252213,0.0022216758413374444,0.9933823064312611
2013-03-06,1,0.002671048511724552,0.00300573441189841,-0.005098921900322895,0.001892150987252544,0.9935289724805885
2013-03-08,1,0.002135077399031535,0.00236560891275145,-0.00880123527570227,0.001892150987252544,0.9933678998766325
2013-03-12,1,0.0016393264708736187,0.0018132644072368091,-0.005098921900322895,0.0022216758413374444,0.9940101762235636
2013-03-14,1,0.0017153590785379362,0.0019232565984616807,-0.005098921900322895,0.0022216758413374444,0.9940378510675797
2013-03-18,1,0.0013665650287579014,0.0015156505254269642,-0.005098921900322895,0.0030954252677921614,0.9926960933317689
2013-03-20,1,0.0008693358111420902,0.0009346068721339481,-0.00880123527570227,0.0030954252677921614,0.9915688285316304
2013-03-22,1,0.0009709567797008666,0.0010333957938868945,-0.00880123527570227,0.003251861502976244,0.9912892058643797
2013-03-26,1,0.0009724876154145632,0.0010258424620295248,-0.008437766870636326,0.0035370049408583663,0.9915468522678254
2013-03-28,1,0.0006001166333403549,0.0007131676219982084,-0.00880123527570227,0.005065509755141742,0.9851282109593772
2013-04-02,1,0.00020572144920210186,0.00022202678180085946,-0.010234568755947028,0.009516018919260922,0.9834127103242509
2013-04-04,1,2.2033007178085563e-05,4.0829696944795344e-05,-0.00871013896091899,0.009516018919260922,0.983760802088042
2013-04-08,-1,-0.00029203949111349656,-0.0002425768342807647,-0.004758596344377818,0.010095460956460347,0.9838295230572536
2013-04-10,1,0.00029375531495823943,0.0003137573989178016,-0.004758596344377818,0.007552016511011329,0.9844937702158384
2013-04-12,-1,-0.00018330160908610875,-0.00014280739083260906,-0.010899136728073716,0.010552932604325084,0.9825373092823501
2013-04-16,0,-3.685835855862324e-05,7.839502397324118e-06,-0.010899136728073716,0.007552016511011329,0.983567379558888
2013-04-18,-1,-0.0006580813528693,-0.0005591453548801982,-0.005398978102875698,0.010552932604325084,0.9829708027721011
2013-04-22,-1,-0.0006201970840287343,-0.0005123515638845023,-0.013242092538912639,0.01422880753878551,0.9820057094541167
2013-04-24,-1,-0.00018728904355563722,-0.00014551571403270436,-0.017271346291892066,0.012327090082871755,0.9810876943156386
2013-04-26,-1,-0.00040200339568419586,-0.0003467190068671232,-0.015058958822067139,0.009121571844824374,0.9869834993767791
2013-04-30,0,0.0,0.0,-0.012818886273345187,0.009121571844824374,0.9882040772757191
2013-05-02,0,0.0,0.0,-0.014727038489843369,0.009121571844824374,0.9877574876454449
2013-05-06,0,0.0,0.0,-0.014727038489843369,0.005199093761912348,0.9877559832617857
2013-05-08,0,0.0,0.0,-0.014727038489843369,0.012327090082871755,0.9870424709089656
2013-05-10,0,0.0,0.0,-0.012818886273345187,0.012327090082871755,0.987990876200471
2013-05-14,0,0.0,0.0,-0.012818886273345187,0.012327090082871755,0.9880025957289887
2013-05-16,0,0.0,0.0,-0.009839536919576581,0.005489260973910019,0.9892661400805908
2013-05-20,0,0.0,0.0,-0.008140946671361353,0.009799474211812912,0.9896870418967472
2013-05-22,0,0.0,0.0,-0.008140946671361353,0.004770625558925806,0.9910066640572912
2013-05-24,-1,-0.0004982070064608572,-0.0003905024628993288,-0.006775362055298096,0.004770625558925806,0.991618343510065
2013-05-29,1,0.0005139554709505385,0.000614623734194289,-0.006775362055298096,0.009633650641846358,0.9910734869753123
2013-05-31,0,0.0,0.0,-0.006119658071657561,0.011048315913166835,0.990554768818587
2013-06-04,0,0.0,0.0,-0.006563758310059292,0.012480779400946204,0.9888116102106688
2013-06-06,1,0.0015582466219405096,0.0015887305094735044,-0.006563758310059292,0.011048315913166835,0.9897293073335391
2013-06-10,1,0.001679869220647431,0.0017275566264302457,-0.004834284273472192,0.009633650641846358,0.990616684546792
2013-06-12,1,0.00127609273420958,0.0012816043103385532,-0.0009870586564911484,0.011048315913166835,0.9909105371741249
2013-06-14,1,0.0009958159831140582,0.0010268583406398716,0.00016976527081530716,0.011048315913166835,0.99115875032477
2013-06-18,1,0.0014540194898607834,0.0014720581171083782,0.00016976527081530716,0.0077566181549302525,0.9921478499039923
2013-06-20,1,0.0008230837307230676,0.0008879740050556464,0.00016976527081530716,0.0077566181549302525,0.9920000792133495
2013-06-24,1,0.0005122918756667227,0.0006306714527766026,0.0006184748724119369,0.0077566181549302525,0.9915152845141647
2013-06-26,1,0.0014091464461416638,0.0014338063390079887,-0.00041810053562459646,0.005182682136186917,0.9927415663124514
2013-06-28,1,0.002087007044445313,0.0021548241356844937,-0.0031013511296939323,0.005182682136186917,0.9930522680816855
2013-07-02,1,0.0023959935199030355,0.0024622732811850705,-0.0024020379149201562,0.005182682136186917,0.9947002043467287
2013-07-05,1,0.002278482001222283,0.0023265599623657454,-0.0038469487208755504,0.005639568818365146,0.9939421981851397
2013-07-09,1,0.002222095279863672,0.002256545221117872,-0.004654205321908657,0.005182682136186917,0.9938613076222301
2013-07-11,1,0.0027417040798049025,0.0028586475139061357,-0.004654205321908657,0.005182682136186917,0.9940740627144973
2013-07-15,1,0.0023381937225081706,0.0023759053005285758,-0.004654205321908657,0.004208021176852794,0.9942648329005344
2013-07-17,1,0.00259842767271183,0.0027120618876646605,-0.004654205321908657,0.005114603947368161,0.9939136248974062
2013-07-19,1,0.001966817671152929,0.0019762274229175483,-0.004654205321908657,0.005468193267106309,0.993865387327443
2013-07-23,1,0.0020783148859069385,0.002143175002335926,-0.004797466029106299,0.005432956053034915,0.993567370668334
2013-07-25,1,0.002108919342723392,0.0022251158747447746,-0.0042717312098784635,0.006663474931347033,0.9937056332827229
2013-07-29,1,0.0022141715445747044,0.002382201604765747,-0.003709879297898458,0.006663474931347033,0.9942646443353115
2013-07-31,1,0.002308500440818136,0.0024719738178167316,-0.004527683912098738,0.005432956053034915,0.9939133964327779
2013-08-02,1,0.0019504981984133194,0.0020353397550075666,-0.0042717312098784635,0.004196275438828996,0.9946412607992955
2013-08-06,1,0.001610463764811971,0.0016398553320854437,-0.003757632866964339,0.005432956053034915,0.994666902889563
2013-08-08,1,0.0015904484504354877,0.001608277531459423,-0.003757632866964339,0.0044308638408516645,0.9947692776451864
2013-08-12,1,0.0015171727987342717,0.0015324383667183127,-0.003757632866964339,0.0064252946865480665,0.9936979032744206
2013-08-14,1,0.0014624499517972812,0.0014743851293852154,-0.004527683912098738,0.0064252946865480665,0.9933247954674905
2013-08-16,1,0.001156919280816441,0.00120634721646162,-0.0025291391700128334,0.006733427435487143,0.9939707542123505
2013-08-20,1,0.0003645916971878907,0.0005153273106888651,-0.0011828050290937783,0.006733427435487143,0.9944587905036589
2013-08-22,1,0.0004623060635903534,0.0006176984354683121,-0.0006907052815516245,0.006350384378817587,0.9945118793985318
2013-08-26,1,0.001179700661889385,0.0012608792919331711,-0.0037051414514022102,0.0060187049240732395,0.99426750009187
2013-08-28,1,6.206421443272464e-05,0.00029497334878307796,-0.0006907052815516245,0.0060187049240732395,0.9947677914803418
2013-08-30,1,0.0002396647842345317,0.00043008896678852675,-0.0012065975715498777,0.0060187049240732395,0.9947284094814873
2013-09-04,1,0.00021815519611748536,0.0004211580910281716,-0.0012065975715498777,0.005338204709886183,0.995088702121185
2013-09-06,1,0.00028606829398113707,0.00047953250620292904,-0.0030849186612107865,0.0060187049240732395,0.9944702276646494
2013-09-10,1,0.0003264634013650134,0.000558179354966769,-0.004096992542865344,0.004697498747303005,0.995161541583485
2013-09-12,0,-0.00023116454048942151,6.158689583232757e-05,-0.0030849186612107865,0.005338204709886183,0.9954080044189526
2013-09-16,1,5.7823180831737854e-05,0.00031640753360598134,-0.0030849186612107865,0.0060187049240732395,0.9946055728029618
2013-09-18,1,0.0015311882856451067,0.0015375930976612832,-0.003863642567928728,0.005439759459794859,0.9943939755309392
2013-09-20,1,0.002077574040152638,0.0021395598145988667,-0.003863642567928728,0.0072223381434518685,0.9937143735589222
2013-09-24,1,0.0015559118221972485,0.0015766237279425052,-0.0010992833080535542,0.0072223381434518685,0.9941311958363833
2013-09-26,1,0.0016282296507441438,0.001666145107169388,-0.002013258693978682,0.007555702649487176,0.9936427677315267
2013-09-30,1,0.0014416009422710664,0.0014433530956005232,-0.0010992833080535542,0.008078506134023482,0.9932681588626632
2013-10-02,1,0.0014731324656448756,0.0014850231502470256,-0.0010992833080535542,0.008918648187374534,0.992928575499414
2013-10-04,1,0.0009732177122531843,0.0010507796120971787,-0.0009588709030077438,0.008918648187374534,0.9934461179122203
2013-10-08,1,0.0005408122577537935,0.0006591640034835458,-0.0003848007489155676,0.008918648187374534,0.9938695918716327
2013-10-10,1,0.0004868144388572607,0.0006213004830534542,-0.0003848007489155676,0.008918648187374534,0.9936142041401724
2013-10-14,1,0.001278438255500188,0.0013431967250620777,-0.0008048002791994817,0.008918648187374534,0.9942683408816176
2013-10-16,1,0.0006349172480012876,0.0007973058449804015,-0.0003848007489155676,0.008918648187374534,0.9944246023338045
2013-10-18,1,0.001809183676099918,0.0018126534510816456,-0.0003848007489155676,0.007127103327432171,0.9955160319643449
2013-10-22,1,0.0016182785638184775,0.0016742827790893543,-0.0008048002791994817,0.007127103327432171,0.9954854816242817
2013-10-24,1,0.0013775448247520358,0.0014807105446273852,-0.0008048002791994817,0.00675941435089478,0.9958775754503792
2013-10-28,1,0.0017220953563040278,0.0017453034710721786,-0.001530098876755697,0.00675941435089478,0.9951384171299695
2013-10-30,1,0.0017357741019194167,0.0017571242751481912,-0.001530098876755697,0.00675941435089478,0.9951964382288743
2013-11-01,1,0.0012216802203722573,0.001324744963604174,-0.0012007219723011466,0.007127103327432171,0.995013415539873
2013-11-05,1,0.0011462950293127702,0.00127334222843608,-0.0012007219723011466,0.007127103327432171,0.9951066137843011
2013-11-07,1,0.0011029078701484604,0.0012074315499546618,-0.0012007219723011466,0.008042349764607909,0.9949827142095207
2013-11-11,1,0.0008261593644294843,0.0009872190526301458,-0.001260592265930977,0.007712803133212146,0.994940132180937
2013-11-13,1,0.000941208677589694,0.0010951816950382715,-0.0036531740418679604,0.007244334101198598,0.9947015594957408
2013-11-15,1,0.0013858197971830508,0.0014311901314790413,-0.0036531740418679604,0.008394042085907192,0.9943155001797175
2013-11-19,1,0.0014370130275796374,0.0014520324000527674,-0.0032554854237033535,0.009439553401703904,0.9937911529749175
2013-11-21,1,0.0022090826160400786,0.002285358592891464,-0.004128619036237949,0.009439553401703904,0.9934077481747262
2013-11-25,1,0.0023252441115952107,0.002416912434597427,-0.0027094517561866956,0.009439553401703904,0.9940033461841304
2013-11-27,1,0.002437239405701808,0.0025504751140809365,-0.003560339387433855,0.008394042085907192,0.993913205538888
2013-12-02,1,0.002684109707506884,0.0028573721007677717,-0.003560339387433855,0.006747396501643801,0.9938206032164221
2013-12-04,1,0.002706423062855672,0.0028836167672194927,-0.004128619036237949,0.006747396501643801,0.9934027791848075
2013-12-06,1,0.002638288067263742,0.0027985202139642965,-0.003560339387433855,0.006747396501643801,0.9933456838970655
2013-12-10,1,0.002352799907729324,0.0024575780219890228,-0.003560339387433855,0.003441247138595926,0.9936594132848987
2013-12-12,1,0.001869085333152711,0.0018989990783255888,-0.0037987984584403034,0.003441247138595926,0.9932930639925531
2013-12-16,1,0.001766511630472128,0.0017668541858544876,-0.0037987984584403034,0.00709782944781752,0.9929735939917218
2013-12-18,1,0.002199612233327262,0.0022591763640282237,-0.0037987984584403034,0.0035304403961155164,0.9935943188167504
2013-12-20,1,0.0018781210171431955,0.0018916987383929638,-0.005006595452609164,0.0035304403961155164,0.9931057793154151
2013-12-24,1,0.002120068621052209,0.002163095343137203,-0.0058188768443632995,0.002515272764849567,0.9919240863325226
2013-12-27,1,0.001768826172714851,0.0017731761409454355,-0.0058188768443632995,0.0033905443305427777,0.9920364028246639
2013-12-31,1,0.0017655975300273194,0.0017690586702798906,-0.0058188768443632995,0.0033905443305427777,0.9916282760473937
2014-01-03,1,0.001420991638835446,0.0014446749417501177,-0.008664415548404155,0.0033905443305427777,0.9898145304835523
2014-01-07,1,0.0019135403992384921,0.001975918559377281,-0.008664415548404155,0.002515272764849567,0.9903408976300438
2014-01-09,1,0.0013338867668708505,0.0013656090011328562,-0.008635723104103304,0.004405379753308754,0.9907217724993845
2014-01-13,1,0.00014142607816830413,0.0003469942139993677,-0.005063928459409609,0.005789826649390407,0.9912216284754947
2014-01-15,1,0.000971694920951499,0.0010471085485130416,-0.008635723104103304,0.004405379753308754,0.9894042455477507
2014-01-17,1,0.001155847702024492,0.0011807457548688178,-0.008635723104103304,0.007863746717461942,0.9879861578275989
2014-01-22,0,-7.09530125231312e-05,0.00012485666012687592,-0.0035018395581061074,0.007863746717461942,0.9885609436824141
2014-01-24,-1,-0.0012399670316791535,-0.0009153706212027891,-0.0023067440525337004,0.013737463846163322,0.9873399647940098
2014-01-28,-1,-0.0010773435946421172,-0.000783854486228971,-0.0013392195750628097,0.013737463846163322,0.9874968208721635
2014-01-30,-1,-0.0007844239515697267,-0.0005330725500649533,-0.0002583704536557423,0.007863746717461942,0.9881025169130715
2014-02-03,-1,-0.001805963513316987,-0.0014785140106532305,0.00048018296480231026,0.013872831874830505,0.9875558302297444
2014-02-05,-1,-0.002210398115352016,-0.0018097925107939993,0.00048018296480231026,0.013872831874830505,0.9872735940208903
2014-02-07,-1,-0.001800202394843736,-0.0014585835957697843,-0.0002583704536557423,0.015200996824692581,0.9870678941877793
2014-02-11,-1,-0.0012931907946155028,-0.001009841955849446,-0.0034912451928163835,0.013872831874830505,0.9879169315193047
2014-02-13,-1,-0.0020392100654559727,-0.0016838141364634092,-0.0034912451928163835,0.007821559413870579,0.9899661873623126
2014-02-18,-1,-0.0013179699320255691,-0.0010243788848893023,-0.0034912451928163835,0.005325198514772956,0.9912842239806642
2014-02-20,-1,-0.0009592730440767252,-0.0007139371682907154,-0.003733013520374774,0.005357102030116149,0.991401641803087
2014-02-24,1,0.00043160300629685683,0.0005261071539308614,-0.0048618858452962885,0.004875475551608475,0.9925739561768084
2014-02-26,1,0.0004301820154936656,0.000525957591141042,-0.0058648000174603135,0.0023112204573497988,0.9921305373986643
2014-02-28,1,0.0004107622581750217,0.00052122513866605,-0.0058648000174603135,0.0016364686815589862,0.9921671810885808
2014-03-04,1,0.001155464539074463,0.0012074699384007398,-0.0058648000174603135,0.0016364686815589862,0.9932675674606785
2014-03-06,1,0.0009740511117028641,0.0010459535681248196,-0.0058648000174603135,0.0016364686815589862,0.9932637660338266
2014-03-10,1,0.001686800615287041,0.0017366187021021,-0.008357417015133983,0.001101974818585568,0.9914921407176066
2014-03-12,1,0.0010276303587103764,0.0010816913544687118,-0.008357417015133983,0.0016364686815589862,0.9919558908035435
2014-03-14,1,0.0009199044407250732,0.0009490628515149931,-0.012691794643397973,0.0016364686815589862,0.9908972170387803
2014-03-18,1,0.0012433708131463805,0.0012710637223840064,-0.012691794643397973,0.003063257771382011,0.9904140129535921
2014-03-20,1,0.0011901926965618272,0.0012155829592136375,-0.012691794643397973,0.003063257771382011,0.9904904725051009
2014-03-24,1,0.0005542838910355143,0.0005859252752938122,-0.006722862598171666,0.005476332796833809,0.9913287795935644
2014-03-26,1,0.0001424311179096113,0.00020959111224186483,-0.005207129070991332,0.005476332796833809,0.9916572633178552
2014-03-28,1,3.215568224654731e-05,0.00011864661562176749,-0.006666458784136577,0.007302273373786114,0.9906900273674584
2014-04-01,1,0.0005473561324196005,0.0005663260340906723,-0.006666458784136577,0.007302273373786114,0.990680282106752
2014-04-03,1,0.00028921524723503605,0.00034319807042053265,-0.008478474579404578,0.007302273373786114,0.9904837254490519
2014-04-07,-1,-0.0013210686472799023,-0.0010897608516859387,-0.006616792147260241,0.007302273373786114,0.9921559416587692
2014-04-09,-1,-0.0010200147661723123,-0.00083804339731786,-0.006616792147260241,0.005476332796833809,0.9922693698709179
2014-04-11,-1,-0.002045769657567477,-0.0017598426156063413,-0.0035953857492426137,0.0077670355203947605,0.992572565018398
2014-04-15,-1,-0.0015584764433369306,-0.0013220903442932612,-0.005641925194894389,0.005278266836650924,0.9930781785554689
2014-04-17,-1,-0.0014886957366907602,-0.0012555908018426318,-0.006616792147260241,0.0058579034602350595,0.9920478049110251
2014-04-22,-1,-0.0012747989762496982,-0.0010550333483869791,-0.006616792147260241,0.0058579034602350595,0.9915525608355127
2014-04-24,-1,-0.001383216601836277,-0.0011629839351884209,-0.006245930459983723,0.009872451365315893,0.9908036240114745
2014-04-28,-1,-0.00095011161952497,-0.0007955207304332646,-0.004895028977560193,0.009872451365315893,0.990829334830263
2014-04-30,-1,-0.0004233666077533733,-0.0003318221936183966,-0.006245930459983723,0.008892181346270692,0.9910116017460113
2014-05-02,-1,-0.0005155616592457794,-0.00042570204219292556,-0.004895028977560193,0.008892181346270692,0.9912761695093596
2014-05-06,-1,-0.0008239006640075475,-0.0006994137274827737,-0.0034100752733196744,0.008892181346270692,0.9919440198117081
2014-05-08,-1,-0.0010863349436179572,-0.0009123498111660102,-0.0015962843262417145,0.009074880210618658,0.9917691996515782
2014-05-12,-1,-0.00015406430023797324,-0.00010390895858078714,-0.0036178338249559044,0.008259818320536218,0.9924939931096048
2014-05-14,-1,-0.00044382327575638884,-0.0003824271192171548,-0.002526691077354048,0.008259818320536218,0.9929896971580866
2014-05-16,-1,-0.00032324070313354317,-0.000263573595186438,-0.0014437335000980934,0.007232570581901887,0.9944646814152811
2014-05-20,1,0.0005752664024548364,0.0006564765977241861,-0.0010429342666368998,0.006389005529971519,0.9954040011966199
2014-05-22,1,0.0011326984653753462,0.0012777219855700257,-0.0010429342666368998,0.0023686109989425313,0.9960416058860168
2014-05-27,1,0.0019234860573001627,0.002177332499057584,-0.0010429342666368998,0.0021725854846989007,0.996294259672822
2014-05-29,1,0.0013129596024082201,0.0014698600923485922,-0.0010429342666368998,0.0023686109989425313,0.9968161758104632
2014-06-02,1,0.0017046443443911401,0.0019458032015468528,-0.0013433063536290963,0.0030980324081353455,0.9960823369851174
2014-06-04,1,0.0015034075806963066,0.001704625115445516,-0.0012526427038720136,0.004888783227150181,0.9959250317915898
2014-06-06,1,0.0013677693831562103,0.0015048991426064,-0.0020728588118034356,0.004888783227150181,0.995131539693135
2014-06-10,1,0.0013648962167678565,0.001547939157729683,-0.0010368113297219979,0.004888783227150181,0.9955924223246617
2014-06-12,1,0.0012555375623275705,0.0014281899278358844,-0.0010368113297219979,0.004888783227150181,0.9953936566553753
2014-06-16,1,0.0008640213546406692,0.0009458656144812269,-0.0013236643078094505,0.006430478403351857,0.9948865654767612
2014-06-18,1,0.00038803741416298574,0.000427363756629391,-0.0019686119601096167,0.005104072438153419,0.9945906817970882
2014-06-20,1,0.0004311676726942044,0.0004619661552746848,-0.0029746785912915918,0.007635584410447552,0.9937452456369441
2014-06-24,1,0.0009764863437425323,0.0010282579788531523,-0.0029746785912915918,0.0074563352537196734,0.9937677597759506
2014-06-26,1,8.315801749498257e-05,0.0002241686399303835,-0.00297085888606677,0.00726913150110875,0.9940464051617409
2014-06-30,-1,-0.00028975433585516207,-9.835039973290951e-05,-0.0019884737845009054,0.00726913150110875,0.9945109473894824
2014-07-02,1,0.00010893647363959354,0.0002405880289206273,-0.003034264064465458,0.006964518184251514,0.9938246536712365
2014-07-07,1,0.0003070241154072224,0.0003921413697363858,-0.003034264064465458,0.005989199208193378,0.9938404792533411
2014-07-09,-1,-0.0005256595121907672,-0.0002895407932636899,-0.006244888639564346,0.006461211258002725,0.9933145864287821
2014-07-11,-1,-0.0002269471627516935,-8.150592573250503e-05,-0.003034264064465458,0.006716590070099442,0.9932982117183966
2014-07-15,1,0.00021300563971198363,0.0002902713948900302,-0.003034264064465458,0.006424494270409093,0.9935702681957789
2014-07-17,1,0.0009923395576502119,0.001096556289248964,-0.0016246552762276397,0.006716590070099442,0.9934061358138692
2014-07-21,1,0.0013344663684212521,0.0014888402106181236,-0.001283734353373151,0.006716590070099442,0.9940240466734351
2014-07-23,1,0.001655395281920092,0.001862718935120979,-0.0014245735629312664,0.006716590070099442,0.9939728097213164
2014-07-25,1,0.0025947113408127313,0.0030038181813807187,-0.0016246552762276397,0.006424494270409093,0.9929659475932028
2014-07-29,1,0.002537806309235731,0.0029331111385935502,-0.004111075000310893,0.006424494270409093,0.9923789339114764
2014-07-31,1,0.0025350556731816177,0.0029621699877270297,-0.0018957691647090201,0.006424494270409093,0.9931357291638762
2014-08-04,1,0.0018838523395148339,0.002199852794323918,-0.0024035681288869537,0.006424494270409093,0.9936549819521938
2014-08-06,1,0.0015723911717924993,0.0018170391504561602,-0.0024035681288869537,0.006419595367960692,0.9937410567039571
2014-08-08,1,0.001931274705630235,0.0022440129995849618,-0.0024035681288869537,0.006866723991932673,0.9932101205372712
2014-08-12,1,0.002181029466065754,0.0025259096291083815,-0.0032539191091178247,0.008471450365234365,0.9922768749144784
2014-08-14,1,0.0023996251057400676,0.0027184174237569626,-0.004709306960153212,0.007260172844867555,0.9920133877761267
2014-08-18,1,0.0022752046818768643,0.00254460225574862,-0.005308223535667705,0.006463985747423947,0.9921347331760348
2014-08-20,1,0.0025448678706057465,0.002847019082122996,-0.005308223535667705,0.006463985747423947,0.99184213024162
2014-08-22,1,0.002025133973088558,0.0022858508117740467,-0.005308223535667705,0.007260172844867555,0.9922884934379349
2014-08-26,1,0.0014851842960659156,0.0016637619695005913,-0.003806311744500783,0.009444909389366948,0.9922411762567631
2014-08-28,1,0.0007293848867193267,0.0007506310103930471,-0.005413019038764427,0.012666131503583318,0.9907444748492706
2014-09-02,1,0.0004808098857647415,0.000528898870104299,-0.005413019038764427,0.013691490860713258,0.9900080783761827
2014-09-04,-1,-0.0007650198204404441,-0.0004979176354840511,-0.0097620214024427,0.013691490860713258,0.9887292742080209
2014-09-08,1,0.0003742370724246375,0.0004811714317752987,-0.0097620214024427,0.012666131503583318,0.989064949488429
2014-09-10,1,0.0005150698129768178,0.0006051013825003141,-0.013763606760551494,0.012816520816823088,0.9880781116737514
2014-09-12,1,0.000332546750030426,0.0004316267299131098,-0.015510950505545148,0.012816520816823088,0.9869139538875885
2014-09-16,0,-0.0001545709378505632,2.616403865595622e-05,-0.015510950505545148,0.012816520816823088,0.9868351581724816
2014-09-18,1,0.0007967660011181685,0.0008573192977045802,-0.015510950505545148,0.009660160848454905,0.9870138853998167
2014-09-22,1,0.0008504946072389588,0.000874556832347264,-0.015510950505545148,0.010102206842991398,0.98678897075218
2014-09-24,1,0.0010679423021296554,0.0010801459230702197,-0.017696061939056703,0.010102206842991398,0.9852814983442422
2014-09-26,1,0.00043159706464543986,0.0005346223678613124,-0.014727490409567811,0.016375224270724003,0.9855013562040359
2014-09-30,1,0.000921689350684196,0.000973795869400228,-0.014727490409567811,0.01567746037660313,0.985708917603921
2014-10-02,-1,-0.00015804711708457177,-1.2362285775831304e-05,-0.007982364138514698,0.01567746037660313,0.9868242467140159
2014-10-06,-1,-0.000565514239679096,-0.00034078924647118394,-0.007288393535986893,0.01567746037660313,0.9867056447243001
2014-10-08,-1,-0.0009158961813292175,-0.000657862882299836,-0.0054374534047247885,0.014074227513440814,0.9884063390285249
2014-10-10,-1,-0.0022276678478647992,-0.0018477569793987922,-0.0036025860042145563,0.014074227513440814,0.989629150022023
2014-10-14,-1,-0.0021368038490984266,-0.0018032237058283591,0.00047227048740658374,0.014074227513440814,0.9886516520833314
2014-10-16,-1,-0.00196445167604801,-0.0016911918645652808,0.00047227048740658374,0.014074227513440814,0.9882772961955669
2014-10-20,-1,-0.001159928066014284,-0.0009586414380564793,0.001081034044139265,0.012433586336497365,0.9899327271585211
2014-10-22,-1,-0.0007087328424151953,-0.0005653525146427862,0.001152864142283552,0.011308547835862699,0.9920680444117835
2014-10-24,1,0.0004550722149209113,0.00046465101225139614,0.0008040384617662469,0.009653784616855196,0.9936229545571835
2014-10-28,1,0.0009735019510454754,0.0010479804116370183,0.0006299387916998372,0.009515310869246764,0.994144715371244
2014-10-30,1,0.0008897675501938771,0.000932098686139129,0.0006299387916998372,0.009515310869246764,0.9937983192995496
2014-11-03,1,0.0011556348698027047,0.001227265339370516,-0.0009784524103503655,0.009170943653888267,0.9941172085154403
2014-11-05,1,0.0011850390175056813,0.0012561941023294704,-0.0009784524103503655,0.009170943653888267,0.9940580446720054
2014-11-07,1,0.0011584577780170227,0.0012330385185663304,-0.0023720464968435247,0.009170943653888267,0.9940674136875058
2014-11-11,1,0.0017069385038865012,0.001850935966423976,-0.0036951010912926233,0.004100511002433166,0.9944965147615719
2014-11-13,1,0.0016631987782944491,0.0018210101810793588,-0.0036951010912926233,0.004100511002433166,0.994482082446665
2014-11-17,1,0.0016634592497083759,0.0018294297615784327,-0.004910302411129789,0.00473787914647,0.9940134439340805
2014-11-19,1,0.001637880239967897,0.001788527767431026,-0.004910302411129789,0.008457434349550184,0.9930951963891661
2014-11-21,1,0.0017687673783561317,0.001946951574971577,-0.004881380707722233,0.008238767717633828,0.9933180060117599
2014-11-25,1,0.001935030205775515,0.0021292757824763536,-0.005895932613246512,0.0061181971371339445,0.9932953508829354
2014-11-28,1,0.002137643245444542,0.0023510766669919934,-0.005895932613246512,0.004999650490309211,0.9937212457755096
2014-12-02,1,0.001788549396436866,0.0019383316527501059,-0.0059561567594081126,0.004999650490309211,0.9932927737393886
2014-12-04,1,0.0019858080033406823,0.002169162593145696,-0.006245985814884744,0.004999650490309211,0.9924213603829358
2014-12-08,1,0.0017385596737413763,0.0018724282612496328,-0.006874535731237071,0.005800344600889755,0.9911058471539623
2014-12-10,1,0.0015405175913479352,0.0016554141923199707,-0.00766964908891371,0.007244954821770346,0.9900484303212419
2014-12-12,1,0.0014541046812927044,0.001563973232015065,-0.00766964908891371,0.005800344600889755,0.9900432834533064
2014-12-16,1,0.001459285484287976,0.001577899398302478,-0.010068138909750146,0.005375236385188012,0.9897545206539609
2014-12-18,1,0.0021521735045564837,0.002356699643652828,-0.010068138909750146,0.005375236385188012,0.9894185186946387
2014-12-22,1,0.0018000805985808356,0.0019459696629083951,-0.010889635350330485,0.005375236385188012,0.9883100626057381
2014-12-24,1,0.0015229764424851454,0.0016051053335753062,-0.010889635350330485,0.006969167368841008,0.9885487037948559
2014-12-29,1,0.0010950478158765382,0.0011165920020712052,-0.010972316034697269,0.006969167368841008,0.9881091446371092
2014-12-31,1,0.0005367469572637956,0.0005804303194109686,-0.012084940064025357,0.008035798959066852,0.9877797711652502
2015-01-05,1,9.209561645120892e-05,0.0001778305362665877,-0.012084940064025357,0.01203369079421751,0.9866185878790013
2015-01-07,-1,-0.00034081494074604134,-0.00023580989635577727,-0.010972316034697269,0.013046977618389641,0.9878248789015528
2015-01-09,-1,-0.0005198354666823733,-0.0004025903978443917,-0.010972316034697269,0.011909158030195675,0.9874425673752669
2015-01-13,-1,-0.0009683570967332916,-0.0008135597380505685,-0.010322800473340686,0.013391751405905141,0.9873601681038118
2015-01-15,-1,-0.0018034216626888807,-0.0015205588068774542,-0.005490685159408626,0.013391751405905141,0.9868291190942581
2015-01-20,-1,-0.0011908805640734115,-0.0009610921488980466,-0.005490685159408626,0.011373442198524987,0.9883261378347327
2015-01-22,-1,-0.0006023565752912307,-0.0004486368926614631,-0.00372880228939602,0.013391751405905141,0.9865129913646686
2015-01-26,-1,-0.0005384737649277824,-0.0003895135335097072,-0.00392702242172162,0.013391751405905141,0.9861841672087515
2015-01-28,-1,-0.001392455973716816,-0.0011301505017171911,-0.0022454051848044554,0.013391751405905141,0.98669132633733
2015-01-30,-1,-0.0012565527571589388,-0.0010423371975707217,-0.0008271535052548303,0.013391751405905141,0.9875200524757677
2015-02-03,1,4.8462051296975115e-05,0.00010490193930938691,-0.00372880228939602,0.010764969506359703,0.9894310780275403
2015-02-05,1,0.0002597249114601555,0.00030339354124615754,-0.00392702242172162,0.009904308000807254,0.9893852262395354
2015-02-09,-1,-0.0011452406087561757,-0.000932575468627917,-0.00392702242172162,0.009904308000807254,0.9901269581760713
2015-02-11,-1,-0.00045700206282400004,-0.0003564147986912844,-0.00372943390432414,0.009904308000807254,0.9902241479521955
2015-02-13,0,-3.512819253815997e-05,2.0672272185838438e-05,-0.00372943390432414,0.010914900218351998,0.9896836247250123
2015-02-18,0,-3.5331096866594896e-06,2.9963745702217177e-05,-0.003952911303519707,0.010914900218351998,0.9892742460473316
2015-02-20,1,0.001886694796530826,0.0020841763281790335,-0.003952911303519707,0.009887131174751401,0.992765937789537
2015-02-24,1,0.0021962386084937602,0.0024618034267057834,-0.004092275166709965,0.007556002146881447,0.9929371185212115
2015-02-26,1,0.0016750295676690313,0.001807559481125333,-0.0046238843269541235,0.007556002146881447,0.9915022814506324
2015-03-02,1,0.0018346802334368024,0.0019869938473579653,-0.0046238843269541235,0.007556002146881447,0.9914958291212109
2015-03-04,1,0.0011895059775674864,0.0012385677814698301,-0.004092275166709965,0.007968783277547119,0.9913157636191356
2015-03-06,1,0.00030101878687917365,0.00042103746458842543,-0.004092275166709965,0.008695533285165051,0.9913171680018538
2015-03-10,-1,-0.000613723080529346,-0.00036954863592142645,-0.004092275166709965,0.008695533285165051,0.9921014781866399
2015-03-12,-1,-0.0005771064569063244,-0.00031428690596525203,-0.004092275166709965,0.008695533285165051,0.9924625022622924
2015-03-16,1,0.000539958738648846,0.0006372347674261009,-0.004498280845720052,0.006742198984653322,0.9931777454421759
2015-03-18,1,0.0007272708798350973,0.0007921095944941593,-0.005287071197529383,0.006019955783605162,0.9934724985413258
2015-03-20,1,0.0012417502319490921,0.0012887982083808918,-0.0060137739031013195,0.0062478078667652995,0.9922312776030114
2015-03-24,1,0.0011651748025499542,0.0012203798661615294,-0.0060137739031013195,0.007668005236673046,0.9910827464450398
2015-03-26,1,0.00039647136723678766,0.0004307879366150026,-0.005287071197529383,0.008746794201729021,0.9917766917996182
2015-03-30,1,0.0009081438579675721,0.0009583062364217232,-0.005287071197529383,0.007668005236673046,0.9922260336256316
2015-04-01,1,0.0007532074409592127,0.0007867256508677699,-0.005287071197529383,0.00667703590297088,0.9925140102223624
2015-04-06,1,0.0007302173576945914,0.0007592693712426281,-0.0047452560865018315,0.006318094092398419,0.9928559434237714
2015-04-08,1,0.0009527931328553145,0.001041219438537378,-0.004979331226790262,0.006318094092398419,0.9924550445341238
2015-04-10,1,0.0011013813298242398,0.0012021425775510543,-0.004979331226790262,0.006318094092398419,0.9914433336877555
2015-04-14,1,0.0008502479267952839,0.000923945531876159,-0.004642676096255458,0.006318094092398419,0.9917230691180215
2015-04-16,1,0.0007443726600964016,0.0008099835368709909,-0.00422161025134425,0.008017942807124225,0.9912830779755325
2015-04-20,1,0.0006157682698342032,0.0006646999313009575,-0.00422161025134425,0.006318094092398419,0.9919745829771224
2015-04-22,1,0.001685162531069026,0.0018901764287848689,-0.00422161025134425,0.00573310726588732,0.9931470773713322
2015-04-24,1,0.002132510262448089,0.0024153588681288564,-0.00422161025134425,0.007105501471162528,0.9924580965259497
2015-04-28,1,0.0020051622725234496,0.0022593200013605423,-0.004642676096255458,0.007105501471162528,0.9914054183404646
2015-04-30,1,0.0016756796368004173,0.0018931302576737394,-0.00424056560340013,0.007105501471162528,0.9915746182481419
2015-05-04,1,0.0017584332662144095,0.0019759467986276936,-0.00424056560340013,0.007930621203920261,0.9906859759688744
2015-05-06,1,0.0011414478107748393,0.00126042222693178,-0.002431381362639003,0.007930621203920261,0.9908180895149848
2015-05-08,1,0.0019803911294525773,0.002197704783442867,-0.005301846315099428,0.006263932589288744,0.9914923015547658
2015-05-12,1,0.0017497089262190142,0.0019316006639465122,-0.0036456542573459565,0.007930621203920261,0.9907015092051602
2015-05-14,1,0.0025381063045898083,0.0028644221322825436,-0.01039967326213598,0.006263932589288744,0.9898359291904314
2015-05-18,1,0.002085488004998544,0.002352590402155192,-0.01039967326213598,0.006835316401525109,0.9897633766005911
2015-05-20,1,0.0022857135915247398,0.002574428209704234,-0.01039967326213598,0.00602735743024821,0.9899181920296478
2015-05-22,1,0.00297658944132776,0.0033373235070067453,-0.01039967326213598,0.00543170384887044,0.990498713005185
2015-05-27,1,0.002185938546259,0.002407906907954205,-0.01039967326213598,0.00543170384887044,0.9905125000328462
2015-05-29,1,0.0015312766149304159,0.0016366953098384631,-0.01039967326213598,0.005462101813351265,0.9909542920780972
2015-06-02,1,0.0015141131277802808,0.001574616979176624,-0.011041610627044769,0.005306772400153276,0.9907761363357387
2015-06-04,1,0.0010042554249161681,0.0010232841631678175,-0.01039967326213598,0.005306772400153276,0.9913058784463474
2015-06-08,1,0.0002029346241854191,0.0003488650430342,-0.007859151710717337,0.00565256308409672,0.9910010029881553
2015-06-10,1,0.0006027224467502795,0.0007264463668122346,-0.007859151710717337,0.005306772400153276,0.9921812025804929
2015-06-12,1,0.00011235559595363027,0.00026028493699077946,-0.0027247955213806335,0.006831655771379545,0.9926695401404104
2015-06-16,0,-5.775290793753955e-05,9.056522247318958e-05,-0.0021685743437110465,0.0058854776129916905,0.9933485276028279
2015-06-18,1,8.769780616701007e-05,0.0002146111317059785,-0.0027247955213806335,0.007756577259522209,0.992238096734355
2015-06-22,0,-0.00012486771439955706,6.187807121420285e-05,-0.0037315589268253823,0.0058854776129916905,0.9925586691596336
2015-06-24,-1,-0.0011280025350754706,-0.0008066092509065581,-0.0021685743437110465,0.005909917455841738,0.9930719136305473
2015-06-26,-1,-0.0004938364825274888,-0.00030076785816238844,-0.0029814450306976403,0.005909917455841738,0.9925588257656761
2015-06-30,-1,-0.001096200592331723,-0.0008477093527271391,-0.0016027563585958539,0.006454024051290667,0.9932564609918377
2015-07-02,-1,-0.0017479355005840134,-0.001362770002105865,-0.0013454607332958033,0.005551125686917143,0.9933171884354023
2015-07-07,-1,-0.0010620505116007025,-0.000769442696319116,-0.0022115049040533326,0.005197698156744144,0.9941536817318853
2015-07-09,-1,-0.0009276126325225922,-0.0006685388761687069,-0.004681486205519982,0.005551125686917143,0.9925412246455027
2015-07-13,-1,-0.0006511592630069294,-0.0004107454570975534,-0.004681486205519982,0.005197698156744144,0.9927058486756241
2015-07-15,1,0.0007870063012396499,0.000817180798583426,-0.004681486205519982,0.005197698156744144,0.9927981383591112
2015-07-17,1,0.0009082850098546673,0.0009624190214516692,-0.004326281884680724,0.005197698156744144,0.9938947337019767
2015-07-21,1,0.0007189211751180966,0.0007500330073292971,-0.0037100423810643634,0.005197698156744144,0.9941393891144258
2015-07-23,1,0.0010654204050640497,0.0011569387659560709,-0.004506260635424302,0.005155853484060315,0.9927849810385573
2015-07-27,1,0.00027717457053312296,0.00033281188613025784,-0.004902695732340981,0.005155853484060315,0.9861600186603329
2015-07-29,1,0.0002882389402833822,0.00032633370365860664,-0.011216068519596254,0.005155853484060315,0.9819109702852847
2015-07-31,-1,-0.00012454169418680416,-7.736637738344008e-06,-0.011216068519596254,0.0056177064062578755,0.9799089389617516
2015-08-04,0,-2.725040383122181e-05,6.1255742476356e-05,-0.0205421966118793,0.0056177064062578755,0.9792865590941351
2015-08-06,0,-1.5525728691912025e-05,3.0393027286266215e-05,-0.008812348086332519,0.0056177064062578755,0.9798762386971092
2015-08-10,1,0.000255583783169288,0.0002628455172103117,-0.012742888956430951,0.0056177064062578755,0.9786687505630899
2015-08-12,1,0.00021762300875847288,0.00022359851447729587,-0.014213268204891378,0.00993771438945093,0.9773664310982527
2015-08-14,1,0.00029453344007195753,0.00030300426242177447,-0.014213268204891378,0.013368607958103948,0.9769408494397737
2015-08-18,-1,-0.00022764769969053797,-0.00011877290658585663,-0.014213268204891378,0.013368607958103948,0.9767705798852682
2015-08-20,-1,-0.0008357233036158936,-0.0006713633534898742,-0.014213268204891378,0.013368607958103948,0.976488555747743
2015-08-24,-1,-0.0054770651503703496,-0.00476525774207726,-0.006758992552458201,0.016370245367258424,0.9826657675260689
2015-08-26,-1,-0.005623565879076816,-0.004900357600626522,-0.005373468986038519,0.012438761793190478,0.9860854207368419
2015-08-28,-1,-0.004546071472917771,-0.003952062278054693,-0.006758992552458201,0.009249863814207025,0.9876896394967128
2015-09-01,-1,-0.005029535852924877,-0.0043948390435598625,-0.003820018931220529,0.012438761793190478,0.9863785140076645
2015-09-03,-1,-0.004455385370755829,-0.0038764146859781587,-0.003820018931220529,0.009249863814207025,0.9873328535023991
2015-09-08,-1,-0.003935550480617354,-0.0034120467200616693,-0.0038173608663954095,0.009249863814207025,0.9883095880203463
2015-09-10,-1,-0.0038490421714434874,-0.003326274504565462,-0.0006454351537790636,0.009249863814207025,0.9887247919650071
2015-09-14,-1,-0.003047712766990302,-0.002669504916386699,0.0004024893917373806,0.007531853654166039,0.9891270445601936
2015-09-16,-1,-0.0025490689040653714,-0.002246335487448065,-0.0038173608663954095,0.007531853654166039,0.9887511206284296
2015-09-18,-1,-0.0036946380193996434,-0.00326722960548787,0.0004024893917373806,0.013311433652508791,0.9881168004846483
2015-09-22,-1,-0.003359475348326503,-0.002956091385616297,0.0009864817887702197,0.009608968362266886,0.9887208241624347
2015-09-24,-1,-0.0027712470060231977,-0.0024525970591771215,-0.0009692820650126549,0.013311433652508791,0.988074236121384
2015-09-28,-1,-0.0036074819112494718,-0.003169196859128972,0.0003424799292030576,0.013311433652508791,0.9878893306433258
2015-09-30,-1,-0.0020865085897733464,-0.0018744559451488606,-0.0008931384684438414,0.011581257845479795,0.9899038368203323
2015-10-02,-1,-0.0018358358439079948,-0.0016487574028805432,-0.0026553193663360203,0.011581257845479795,0.990501347957876
2015-10-06,-1,-0.0010748968026973599,-0.0010006014217489726,-0.0023736100219873086,0.006913764111451466,0.9916723812595948
2015-10-08,-1,-0.0007683239280131585,-0.0007114928145772645,-0.0026553193663360203,0.006913764111451466,0.9915510426023311
2015-10-12,-1,-0.00026379871879349254,-0.00024289164983404466,-0.003595220188505292,0.006622673258292345,0.9915405241519796
2015-10-14,-1,-0.0005427111075115365,-0.0005011737307607064,-0.0023736100219873086,0.01127939236182883,0.9919504273619987
2015-10-16,1,0.00027213285257106313,0.0004005871770531195,-0.003595220188505292,0.0051245873427884754,0.9925035388233903
2015-10-20,1,0.0003760582612167607,0.0005041557728333227,-0.004632532119338429,0.0051245873427884754,0.992400391573435
2015-10-22,1,0.001470768217096051,0.0017793551018033765,-0.003667834054821592,0.0051245873427884754,0.9938652827591008
2015-10-26,1,0.0014049893135841488,0.0016797988322648175,-0.005596461232524674,0.0051245873427884754,0.9905566995560713
2015-10-28,1,0.001389718462840094,0.0016508849051760338,-0.008582162485805536,0.0051245873427884754,0.9900076764916046
2015-10-30,1,0.0016164667614697622,0.0019479990658576797,-0.008582162485805536,0.0051245873427884754,0.9903227014913837
2015-11-03,1,0.001364975584916888,0.0016261190374254604,-0.011260981596043117,0.005938294460696338,0.9884688240929331
2015-11-05,1,0.0012792556569258182,0.001516211007365957,-0.012798419126515647,0.005938294460696338,0.9868853415352861
2015-11-09,1,0.0013003633285970768,0.001549095437484888,-0.012798419126515647,0.005938294460696338,0.9871719579510542
2015-11-11,1,0.0018745421270821537,0.002214339034547882,-0.012798419126515647,0.0034369903147723987,0.9870580444618635
2015-11-13,1,0.0009395008703669527,0.0011236992323055265,-0.007845254914368686,0.0034369903147723987,0.9881969740769905
2015-11-17,1,0.0009570180263352798,0.001146819839457551,-0.007845254914368686,0.008940006859762976,0.987341242489629
2015-11-19,1,0.0009149116903210612,0.0010662925477561073,-0.012077506041437272,0.005208880006330111,0.98590086372198
2015-11-23,1,0.0018102712768809028,0.0020877607710063674,-0.009705754540259041,0.005208880006330111,0.988953285695628
2015-11-25,1,0.0017784717918665164,0.0020813086964345407,-0.007845254914368686,0.008825207208113611,0.9891382397747327
2015-11-30,1,0.0018638166919172118,0.002177941929844927,-0.007845254914368686,0.011041175179185162,0.9886029850829434
2015-12-02,1,0.0019313626015104472,0.0022798871602605596,-0.009395060225948779,0.008825207208113611,0.9888570429569187
2015-12-04,1,0.0018570175859180822,0.0022085192679613414,-0.009395060225948779,0.008825207208113611,0.9896675397979607
2015-12-08,1,0.001842384054432598,0.0021978779418033957,-0.01098109493510676,0.008825207208113611,0.9889196975758825
2015-12-10,1,0.001477762275701359,0.0017772157045660196,-0.01237622981405257,0.009655212148857572,0.988649318120454
2015-12-14,1,0.0014826896935259237,0.001798856377323854,-0.014851915695525315,0.009655212148857572,0.9871252058603567
2015-12-16,1,0.001863376869134386,0.0022000662372823263,-0.01838682410019433,0.00909025738940557,0.9854669820636515
2015-12-18,1,0.0011096849682859177,0.0013514802074262708,-0.014851915695525315,0.009775794776863918,0.986421203145733
2015-12-22,1,0.0015669140253422946,0.0018751148276175415,-0.014851915695525315,0.009775794776863918,0.9862777332392058
2015-12-24,1,0.0016577163035485466,0.001976778275888256,-0.01838682410019433,0.010291012021220243,0.9854234862018051
2015-12-29,1,0.0018717650793204613,0.002200184457125896,-0.019430407729892636,0.010493760139381792,0.9844428954191698
2015-12-31,1,0.001393233694796141,0.0016720114647859256,-0.019430407729892636,0.0126307522375134,0.9838900129801138
2016-01-05,1,0.001253738006709808,0.001511175863738612,-0.019430407729892636,0.0126307522375134,0.9837237198690614
2016-01-07,1,0.001042901883303105,0.0012852129080530364,-0.02010889489974771,0.0126307522375134,0.9818849842939428
2016-01-11,1,0.001065243437970988,0.0013199914866220215,-0.02010889489974771,0.0126307522375134,0.9820132240622842
2016-01-13,1,0.0002014854705738551,0.0002986515163887188,-0.01212946360727535,0.01302605593567995,0.9833120208633074
2016-01-15,-1,-0.0020443133920752983,-0.0016831298592585048,-0.00888627229974246,0.01302605593567995,0.9836645731578612
2016-01-20,-1,-0.0020346174788238537,-0.0016675532599846946,-0.011912420311480994,0.01492427932132421,0.9821351831747085
2016-01-22,-1,-0.0012875141291890748,-0.0010395642951402067,-0.011912420311480994,0.01302605593567995,0.9822428845442657
2016-01-26,-1,-0.002003698843717345,-0.0016378707408314726,-0.009163435093064382,0.014185600648330304,0.9823891804350954
2016-01-28,-1,-0.0019603290189160547,-0.0016202588033580392,-0.009163435093064382,0.013330394241507835,0.981342529829271
2016-02-01,-1,-0.0006216067164783331,-0.00044919273027117833,-0.009163435093064382,0.013330394241507835,0.9823294066032737
2016-02-03,-1,-0.0007195171479706634,-0.0005422816113434855,-0.009125831577576328,0.012595328545941602,0.9838124525571385
2016-02-05,-1,-0.0018807828064672277,-0.0015754245365188378,-0.008781355167476424,0.013316873382693804,0.9855802115333002
2016-02-09,-1,-0.002318712620492183,-0.0019707700279875877,-0.0014117906142155153,0.013316873382693804,0.9858699165254207
2016-02-11,-1,-0.0027147613182559645,-0.0022586098847935136,-0.004009546712890189,0.015058052989371863,0.9849931033919097
2016-02-16,-1,-0.0013504793762151852,-0.0010719407345170968,-0.006241211003938336,0.013171214795229612,0.987455690500739
2016-02-18,-1,-0.000908767647135686,-0.0006947776318415664,-0.0030704443939368526,0.011316528769870726,0.9891628145760271
2016-02-22,-1,-0.000804212545716761,-0.0005742798862983135,-0.0030704443939368526,0.011913845689289573,0.9895190109721431
2016-02-24,-1,-0.00025515618450669473,-0.00012564765449651818,-0.0028462499953648634,0.010174275597851478,0.990467732837092
2016-02-26,-1,-0.0010993864911024208,-0.0008802496433812858,-0.0014117906142155153,0.009387460706449646,0.9928160441134444
2016-03-01,0,-3.7849929252782534e-05,4.09859924257103e-05,-0.0014117906142155153,0.005525086773418439,0.9940970274289598
2016-03-03,-1,-0.0001729343518121282,-9.816226965177389e-05,-0.00025142933172630843,0.006914429858823984,0.9938768261905019
2016-03-07,1,0.00039648445552631763,0.00039933629898898843,-0.00103100517517403,0.00609483193014571,0.9942504959522812
2016-03-09,-1,-0.0001487100128859284,-4.532592870413316e-05,-0.0018556207678531856,0.006914429858823984,0.99278779136732
2016-03-11,1,0.000477759124024234,0.0004948153685785475,-0.0018556207678531856,0.00609483193014571,0.9941659036054695
2016-03-15,1,0.0003715600847401966,0.0003831469899430005,0.0006577397350557586,0.00609483193014571,0.9941843404741716
2016-03-17,1,0.00101826165514392,0.0011539288366715476,-0.0016481952758405304,0.00586804754535925,0.994876886746018
2016-03-21,1,0.0013772242437950543,0.0015714185716285247,-0.0016481952758405304,0.00586804754535925,0.995155162986238
2016-03-23,1,0.0013095549806162268,0.0014977081309105193,-0.0022186342949662417,0.00586804754535925,0.9945225280425589
2016-03-28,1,0.00129639746596075,0.0014732733626567495,-0.0022186342949662417,0.00586804754535925,0.9944399751433103
2016-03-30,1,0.0015360884267218437,0.0017471802431099038,-0.003744993687469022,0.006015715468812039,0.9938642731071462
2016-04-01,1,0.0018534513004265112,0.0021060199307987274,-0.0053892377249112906,0.0021713526340249242,0.992871252488958
2016-04-05,1,0.0015719597688814372,0.0017814019897346798,-0.0053892377249112906,0.0029870187911904727,0.9925677508186458
2016-04-07,1,0.0015953954464280758,0.00183334632534095,-0.0053892377249112906,0.0028030093420004652,0.9930820512722669
2016-04-11,1,0.0010660081758042822,0.0011911102287846165,-0.0041427687792056,0.0059400383323577185,0.9932119147300581
2016-04-13,1,0.0011665650830690434,0.0013016357859945622,-0.004685760343494707,0.006269969320003463,0.9926610423821524
2016-04-15,1,0.001084901451283831,0.0012222090092863641,-0.004685760343494707,0.006269969320003463,0.9927690841129789
2016-04-19,1,0.0021953973665352956,0.0025397332613447607,-0.005532580484240995,0.006269969320003463,0.9913427341874007
2016-04-21,1,0.0015513987506725435,0.0017885900985944525,-0.005532580484240995,0.006269969320003463,0.9915584558665199
2016-04-25,1,0.0015935998055380575,0.0018415009926086127,-0.005532580484240995,0.011606716789502373,0.9903309507499111
2016-04-27,1,0.0016938839093577638,0.0019411010664762392,-0.009059496165836931,0.011606716789502373,0.9889659709184884
2016-04-29,1,0.0008376967680891224,0.0009562394833562931,-0.005483179104068959,0.013670774306995561,0.9889872847591642
2016-05-03,1,0.0009430033098131551,0.0010601769831586221,-0.006352085156106967,0.01219393769368511,0.989229414405928
2016-05-05,1,0.0004532441662072102,0.00048238889115567854,-0.005051187867904573,0.01219393769368511,0.9893367517996949
2016-05-09,1,0.0006432412850161413,0.0006837534383336601,-0.005051187867904573,0.01219393769368511,0.9895432843222381
2016-05-11,1,0.0011825590477175494,0.0013389094368553955,-0.006998960163279999,0.011299821838609059,0.98994999668614
2016-05-13,1,0.0005420417586396329,0.0005541609477217615,-0.009565066202585536,0.011299821838609059,0.9890664392364233
2016-05-17,1,0.0007585527130793038,0.000824647075093376,-0.00784735168488552,0.0089171787754001,0.9904711453415608
2016-05-19,1,0.0005804943234130694,0.0006276346802691834,-0.00784735168488552,0.0089171787754001,0.9906830343593848
2016-05-23,1,0.0016095366613268288,0.0018198492660581262,-0.00784735168488552,0.006891931907790871,0.9912575097212594
2016-05-25,1,0.0011877930605124537,0.001295306804469775,-0.00784735168488552,0.006891931907790871,0.9916561564062899
2016-05-27,1,0.0015770516720818683,0.0017285138290614973,-0.01018626678904978,0.00516759131471994,0.990560022375373
2016-06-01,1,0.0011256730875305802,0.0011980892544782816,-0.009565066202585536,0.006891931907790871,0.989112104416359
2016-06-03,1,0.0010768712063998597,0.0011217589272121582,-0.009565066202585536,0.009089834104219086,0.9887584263033606
2016-06-07,1,0.0008314174853715354,0.0008532112272599175,-0.009565066202585536,0.009905904711240051,0.9885789073348665
2016-06-09,1,0.0005045454591736654,0.0005872437487604908,-0.008007192698269675,0.01241785845403072,0.9881537599087041
2016-06-13,0,-8.072222993782418e-05,6.208910162293759e-05,0.0011153655930499708,0.01241785845403072,0.9884314139054459
2016-06-15,1,0.00026109984933635763,0.0003444896665100749,7.163182782661385e-05,0.01241785845403072,0.9884820348906033
2016-06-17,-1,-0.00031270223239745554,-0.00014374458244003827,7.163182782661385e-05,0.01241785845403072,0.9881640894377948
2016-06-21,1,0.00013436657382320376,0.00026621717153183845,-0.0037270949330659793,0.009113621410437868,0.9893095043378373
2016-06-23,1,0.0010772937809031334,0.001125027531169282,-0.0037270949330659793,0.007905327035660376,0.9902842273694963
2016-06-27,-1,-0.0003827540939369384,-0.00024265308967143858,-0.0014472966066096937,0.007905327035660376,0.9918450841459738
2016-06-29,1,0.00019553001379147232,0.000317632099225947,-0.0037270949330659793,0.006459355946915389,0.9937070499348513
2016-07-01,1,0.00038045829819505407,0.0005127567053818077,-0.0041692924543194915,0.005127409318526644,0.9942589410069348
2016-07-06,1,0.0007201538381777309,0.000793073310111804,-0.005675068577942085,0.004437164017008036,0.9937620643721093
2016-07-08,1,0.0016912241811791735,0.0017893525145754516,-0.005675068577942085,0.0027747866467686144,0.9936302976770479
2016-07-12,1,0.0018903340921496918,0.002027742185353577,-0.005675068577942085,0.0027747866467686144,0.9936138547257057
2016-07-14,1,0.002015835537217399,0.002190947235473025,-0.005675068577942085,0.003115617154383696,0.9937174840701744
2016-07-18,1,0.001645113934310892,0.001779374657720088,-0.005674183835470897,0.004961599841625392,0.9935238134420104
2016-07-20,1,0.0008354786301161359,0.0008424057469724652,-0.007967687051984485,0.004961599841625392,0.9934994935057563
2016-07-22,1,0.0009140434777632958,0.0009660460974730291,-0.005207365795224651,0.003115617154383696,0.9943791274914024
2016-07-26,1,0.000654622622808042,0.0006561415501135056,-0.005207365795224651,0.004961599841625392,0.9939520613946669
2016-07-28,1,0.0003649927431936624,0.0003679816673274587,-0.0036039548140795294,0.004961599841625392,0.9928536509242583
2016-08-01,1,0.00014583839047302275,0.0001756134945958882,-0.0019067205213026297,0.004961599841625392,0.9930803937152047
2016-08-03,1,1.414263947079652e-05,5.63005690149795e-05,3.4517824479012266e-05,0.004179759327910587,0.9936924583591844
2016-08-05,1,0.00013384629575642122,0.00016904141062445152,-0.0019067205213026297,0.004179759327910587,0.9939667266346287
2016-08-09,1,0.00029355136453405894,0.0003003337174014689,-0.002329584658946014,0.004338173001517374,0.9936914617456689
2016-08-11,1,0.0004705805743314801,0.0004928215552002932,-0.0065597689849881125,0.0036379457692226847,0.9929020132314205
2016-08-15,1,0.0004278678802816725,0.00044012031041282013,-0.0065597689849881125,0.003062096396592675,0.992486200384207
2016-08-17,1,0.0003327466007673845,0.00033435917939438867,-0.003364058537420985,0.004338173001517374,0.9915896208530594
2016-08-19,1,0.00038222259738803573,0.00039729130754948206,-0.006415606126730025,0.004338173001517374,0.9914206604642372
2016-08-23,1,0.0005596338341260898,0.0006092705433867644,-0.006415606126730025,0.004338173001517374,0.9913176706880661
2016-08-25,1,1.6796677622203974e-05,4.3483602294491005e-05,-0.006415606126730025,0.004338173001517374,0.9926492798936212
2016-08-29,1,3.089776688869438e-05,6.236146112110817e-05,-0.007134298507622606,0.006036984692710156,0.9920638893136322
2016-08-31,1,3.866714711321564e-05,7.42266663821292e-05,-0.007797454673294296,0.006036984692710156,0.9919451678183842
2016-09-02,1,0.00013980698694311287,0.00015961382581527008,-0.007797454673294296,0.005641536988254428,0.9917349600332032
2016-09-07,1,4.189517373261028e-05,7.769164673955278e-05,-0.007797454673294296,0.003591814894715089,0.9918963882843347
2016-09-09,-1,-0.0002695123953729954,-0.0002042968774517644,-0.007736052542132888,0.003591814894715089,0.9923906743939955
2016-09-13,-1,-0.0007542149665833216,-0.0006223662081367377,-0.007736052542132888,0.006431560975116065,0.9928936075065933
2016-09-15,-1,-0.0003697812658577351,-0.0002817984528940976,-0.007736052542132888,0.002850024362777497,0.9937978035079938
2016-09-19,-1,-0.000408507576570065,-0.0003226979313158682,-0.007736052542132888,0.002850024362777497,0.993987039254575
2016-09-21,-1,-0.00039650749040375004,-0.00029664008409229696,-0.007736052542132888,0.003156480565777922,0.9942079364329837
2016-09-23,-1,-0.0005068791405858556,-0.000396082885473793,-0.007143320410128744,0.005059724455483838,0.9941936219873918
2016-09-27,-1,-0.0006076723566783525,-0.0004766916113205197,-0.007143320410128744,0.005059724455483838,0.9939929718079924
2016-09-29,-1,-0.0006391112727383286,-0.0005122759635764103,-0.0068287997142092785,0.005059724455483838,0.9940048458446384
2016-10-03,-1,-0.0006485283779765791,-0.0005230535220008441,-0.005244785035833071,0.005140322494201482,0.9939874388965673
2016-10-05,-1,-0.000803663574179315,-0.0006553177526354191,-0.007773041963185027,0.005140322494201482,0.9933358861081107
2016-10-07,-1,-0.0009294609177677618,-0.000769166360176676,-0.005934468348635163,0.005140322494201482,0.9937315289026685
2016-10-11,-1,-0.0011174264421639011,-0.0009273043980054403,-0.004960019995697287,0.005140322494201482,0.9930805885476907
2016-10-13,-1,-0.0008828766697170461,-0.0007417938718383572,-0.00464449594876074,0.005955652976598197,0.9931209194049345
2016-10-17,-1,-0.0011941761507531996,-0.0010047959016496637,-0.004960019995697287,0.008341043497875521,0.9917091890893271
2016-10-19,-1,-0.0005969103304766835,-0.000504537955421568,-0.004960019995697287,0.008033169808840697,0.9918804268312755
2016-10-21,-1,-0.0006567783982726611,-0.0005500970901842695,-0.004960019995697287,0.009711395317069436,0.9899673286969883
2016-10-25,-1,-0.00066655800284342,-0.0005604781737981352,-0.00464449594876074,0.00839804160436943,0.9906322424972506
2016-10-27,-1,-0.0007416915814518318,-0.0006360177976223378,-0.003582526325003342,0.00839804160436943,0.9906510046900354
2016-10-31,-1,-0.0005713267573320086,-0.0004774863370669304,-0.0036359876129444533,0.00839804160436943,0.9910392794795514
2016-11-02,-1,-0.0013178971326117334,-0.0011178761793671907,-0.0030481206134812216,0.00839804160436943,0.9909910215714768
2016-11-04,-1,-0.0014150298237552068,-0.0012099013315918015,-0.0026864223076203146,0.01058915717196604,0.9904719279175433
2016-11-08,-1,-0.0009392535545886755,-0.00078014263765505,-0.002820594000348166,0.01058915717196604,0.9910642675078293
2016-11-10,-1,-0.0005006806710547104,-0.0004156197525386963,-0.0031095457529534696,0.010415491548895747,0.9908476332094774
2016-11-14,-1,-0.0002870969817778006,-0.0002329440482434731,-0.0031095457529534696,0.010415491548895747,0.991268617011737
2016-11-16,-1,-0.0009339005409038636,-0.0007357655486702379,-0.0031095457529534696,0.010415491548895747,0.9916624503178816
2016-11-18,1,0.0010929917149139208,0.0012144585446546162,-0.0033477032684304255,0.006717963018605393,0.9931852058056145
2016-11-22,1,0.0014608859704544142,0.0016672193919538883,-0.004302677050188504,0.004706941600142678,0.993210641655686
2016-11-25,1,0.0015171716106955036,0.0017488037296572744,-0.004458829000789967,0.004706941600142678,0.9930847680034828
2016-11-29,1,0.0017520029975882558,0.0020429651772203568,-0.005876018361358416,0.0033136107232439307,0.9925655665490853
2016-12-01,1,0.0012680631818891238,0.0015072364484060305,-0.0049736674095812415,0.0033136107232439307,0.9935680759027559
2016-12-05,1,0.0016293535777853253,0.0019177084457218017,-0.0049736674095812415,0.002011114418767117,0.9941571223932122
2016-12-07,1,0.001853245726307152,0.0021554105970904855,-0.0049736674095812415,0.003067218215374694,0.994506063669237
2016-12-09,1,0.001857251016505565,0.0021529934509918938,-0.004162113954011492,0.002011114418767117,0.9947095698698584
2016-12-13,1,0.0019307198000661648,0.0022258387155061907,-0.0035725213388269907,0.002104811557564196,0.9956459392955905
2016-12-15,1,0.0018514289901254638,0.0021290888317703877,-0.004162113954011492,0.002104811557564196,0.9952849273066298
2016-12-19,1,0.0016960847052482084,0.0019303814177834043,-0.0037441341417574154,0.002011114418767117,0.9956393707107178
2016-12-21,1,0.0013895662120917908,0.0015640589006551057,-0.003104566476084998,0.0020846279596574533,0.9956487099544915
2016-12-23,1,0.0010602394936477235,0.0011766852023461266,-0.0027718865664575344,0.005797076531913523,0.9950607979306123
2016-12-28,1,0.0008855211383817228,0.0009998348646338266,-0.0027718865664575344,0.005797076531913523,0.9950769940948506
2016-12-30,1,0.0007583002109760335,0.0008632774638128293,-0.001025483851023184,0.005797076531913523,0.9954201755618821
2017-01-04,1,0.0009417575739746015,0.0010837208484222036,-0.002686877852326859,0.005797076531913523,0.9951055243947579
2017-01-06,1,0.001341971284250335,0.0015383776340119537,-0.003104566476084998,0.0028897344677230093,0.9952724005119338
2017-01-10,1,0.0011276296617035713,0.0012873726406863572,-0.003622115950482334,0.0028897344677230093,0.9950911868569664
2017-01-12,1,0.0012244985289239934,0.0013960410546706389,-0.003973923533774675,0.002182053552922735,0.9945159811921911
2017-01-17,1,0.0012488644797620254,0.001438297579593894,-0.0035950538652045104,0.005287758197542288,0.9946394036520145
2017-01-19,1,0.0008663456547875787,0.0009426720467771394,-0.0035950538652045104,0.005287758197542288,0.9947609228206181
2017-01-23,1,0.001239976511281828,0.0013769066954909728,-0.0035950538652045104,0.004737066142074638,0.9949802761640045
2017-01-25,1,0.0020683925594046104,0.002324232297378279,-0.003739712971979593,0.0039328495956882205,0.9951545169730496
2017-01-27,1,0.0013544276326811642,0.0015263204268231806,-0.003739712971979593,0.004737066142074638,0.9922457194060138
2017-01-31,1,0.0012904256004672046,0.0014505794453064577,-0.003973923533774675,0.004737066142074638,0.9917405383257988
2017-02-02,1,0.0007549334493644551,0.0008043732422342197,-0.003739712971979593,0.005750312633206943,0.9914966219487806
2017-02-06,1,0.00036466491271027954,0.00040474602811894764,-0.003739712971979593,0.005750312633206943,0.9914310739982698
2017-02-08,1,0.00043739801171286974,0.0004453207463009213,-0.003739712971979593,0.005750312633206943,0.9916107214400562
2017-02-10,1,0.0005041289319624452,0.0005071020021290625,-0.003361027238759239,0.005154394399566325,0.9923519497589297
2017-02-14,1,0.000955019007787096,0.0010422278311366024,-0.004033508624820717,0.003456822858189379,0.9924908754848336
2017-02-16,1,0.0008632127180496549,0.0009234700638102692,-0.004033508624820717,0.003456822858189379,0.9921763352777562
2017-02-21,1,0.0009533552661012823,0.0010258008597323436,-0.005229314481677401,0.0019201516842685137,0.9911731072523042
2017-02-23,1,0.0009824191372147196,0.0010428174496583688,-0.005835311563718949,0.0014807973990558824,0.9913317812518143
2017-02-27,1,0.0020221948891275847,0.00221263813576075,-0.005835311563718949,0.0007943963138138673,0.9937749535636677
2017-03-01,1,0.0015292490497567245,0.0016429028803834852,-0.005229314481677401,0.0007943963138138673,0.9944035966235873
2017-03-03,1,0.001694058590638368,0.0018053112510197046,-0.005835311563718949,0.0002045635641152808,0.993762000764774
2017-03-07,1,0.0012770641695602305,0.0013208175563711043,-0.00551350029827079,0.0007943963138138673,0.994474352004064
2017-03-09,1,0.0009868618178749452,0.0009903833599873373,-0.004427682480930947,0.0014700445496245989,0.9943634249121384
2017-03-13,1,0.0009058325217653962,0.0009245826655931251,-0.004427682480930947,0.0018878931359746632,0.9942181437458633
2017-03-15,1,0.0009147314708028559,0.0009194792062602191,-0.004937697401117715,0.0014009885070015386,0.9941874281771897
2017-03-17,1,0.00061850478455284,0.0006573939370637348,-0.004937697401117715,0.001963919453011857,0.9943857309452613
2017-03-21,-1,-0.0002490564100591625,-0.00010381065518560843,-0.003337678834874889,0.003520481171465472,0.9951526947513593
2017-03-23,-1,-0.0008124177194707588,-0.000583738133265294,-0.003337678834874889,0.003520481171465472,0.9953056845739006
2017-03-27,-1,-0.0010639393318598082,-0.0008235420973348277,-0.001699816355328062,0.0036550588507976464,0.9954249191610769
2017-03-29,-1,-0.0014176815509414058,-0.0011268361978295162,-0.001699816355328062,0.004740570222851244,0.9899121059395106
2017-03-31,-1,-0.001637602842378664,-0.0013349394201027467,-0.001699816355328062,0.004740570222851244,0.9906311573225172
2017-04-04,-1,-0.001352186442545937,-0.001108366696883775,-0.0026425603861182138,0.004740570222851244,0.9906097848692711
2017-04-06,-1,-0.0009310233172998652,-0.0007473786164406745,-0.0026425603861182138,0.0031752311750947483,0.9912772175486291
2017-04-10,-1,-0.0007204667011388465,-0.0005703548234053141,-0.0026425603861182138,0.0031752311750947483,0.9914465326588002
2017-04-12,-1,-0.0008025772184105416,-0.0006483452120140481,-0.0018548031884115905,0.0031752311750947483,0.9915729057503223
2017-04-17,-1,-0.00018589143073969534,-0.00014491799581966308,-0.002575613617626136,0.0031752311750947483,0.9915208933225081
2017-04-19,-1,-0.00011829480907728233,-8.75826867515679e-05,-0.002575613617626136,0.0029072547378875017,0.991117273889606
2017-04-21,-1,-0.0002552840206543737,-0.00020532277162565532,-0.0018548031884115905,0.0029072547378875017,0.9912595661678681
2017-04-25,-1,-0.00016138407732985843,-0.0001220024930617382,-0.0018548031884115905,0.003439972238155222,0.990105143000578
2017-04-27,1,0.0004106842462572243,0.00042829888899096973,-0.0016097224314790641,0.00399360514880822,0.992243309609518
2017-05-01,1,0.0004519977766869826,0.00048421052889852865,-0.0011627878985726032,0.005542127013281725,0.991983581754076
2017-05-03,1,0.0005148394101498796,0.000566010633038957,-7.627097205782014e-05,0.005892874631123557,0.9918905505293717
2017-05-05,1,0.0005602587592521695,0.0006187189042502267,-0.0010440096990443396,0.009257740943278595,0.9914983433473916
2017-05-09,1,0.0006137941630885541,0.000683836907737101,-0.0012391735839181192,0.009257740943278595,0.9912583703368459
2017-05-11,1,0.0006001558844282513,0.0006671123924551497,-0.0012391735839181192,0.009257740943278595,0.9903572627292387
2017-05-15,1,0.0006963490804791644,0.000776688316519029,-0.0012391735839181192,0.0065272842751874765,0.9907576253416946
2017-05-17,1,0.0004092337025113613,0.00044760572293148736,-0.0011791267653010248,0.0065272842751874765,0.9913905623917378
2017-05-19,1,0.00033787883518739917,0.0003608789173984853,-0.0011791267653010248,0.009392628068172516,0.9908988548013802
2017-05-23,1,0.0005780281085818085,0.000622483489301115,-0.0018545214887382856,0.004982722408426518,0.9921842405461183
2017-05-25,1,0.0012983824145185766,0.0014301181742507815,-0.002228375764054298,0.004386106363219886,0.9954837474070344
2017-05-30,1,0.0013875671180521739,0.0015308538638727396,-0.0037623120636783923,0.0032497119819938063,0.9939850214427206
2017-06-01,1,0.0015619337890213393,0.0017367839058991617,-0.0048781687335044096,0.0022622746774752247,0.9932781880786363
2017-06-05,1,0.0015692148928967567,0.001736816255158966,-0.007489826586200722,0.001305434086016789,0.993147324794828
2017-06-07,1,0.0015006731497845375,0.0016619682148487592,-0.007127806982584732,0.001305434086016789,0.9932100688118577
2017-06-09,1,0.0011938749111955011,0.001306114075612577,-0.004757495532299079,0.001305434086016789,0.9941642500668479
2017-06-13,1,0.001088361481171233,0.0011827114768068116,-0.004757495532299079,0.0024408796227666798,0.9939605463878364
2017-06-15,1,0.0010884146588880424,0.0011877997232686071,-0.007023477330854257,0.003102888451928269,0.9935599784867457
2017-06-19,1,0.0012170432343678618,0.0013502703694432752,-0.007023477330854257,0.003102888451928269,0.9940031946018766
2017-06-21,1,0.0010535661301068035,0.001153511355847423,-0.007023477330854257,0.0036480512133575697,0.9937900300792379
2017-06-23,1,0.0010017047492175155,0.0010922890928003678,-0.007023477330854257,0.0038764936409744883,0.9933191103320536
2017-06-27,1,0.0004563773295563192,0.0004675802514620168,-0.002576177978193377,0.0043373130396438305,0.9948476846855009
2017-06-29,1,0.00018827351595436021,0.0002114348676969157,-0.002576177978193377,0.0043373130396438305,0.9950733416595001
2017-07-03,-1,-0.0001243822169549133,-5.125850920299367e-05,-0.0006627823872221942,0.004794409991929867,0.9948961205292391
2017-07-06,-1,-0.00017616900458078036,-0.000101819116168337,-0.0006627823872221942,0.004876444934153361,0.9947739272834423
2017-07-10,0,-4.801395338684846e-05,5.5262126126167765e-06,-0.0018618184619748103,0.004385852084844009,0.9949517493808374
2017-07-12,1,0.00010686156924357934,0.00014150808524226132,-0.002336479864764385,0.004385852084844009,0.9951745228663189
2017-07-14,1,3.638892964757167e-05,7.62534946649353e-05,-0.002336479864764385,0.004525857778120505,0.9946158228803049
2017-07-18,1,0.00011836854755821204,0.0001418795661194583,-0.0035216099026985997,0.006139043817592603,0.9935622590067907
2017-07-20,1,0.0006079472647499681,0.0006733989050242175,-0.004463246737998944,0.004525857778120505,0.9927992521584889
2017-07-24,1,0.0006300964723291863,0.0006869213874431296,-0.004216775793808296,0.004525857778120505,0.9927060798799553
2017-07-26,1,0.0008304738303066461,0.0009250487087914358,-0.007158207996921061,0.006188341881239165,0.9912121917224729
2017-07-28,1,0.0005873015769490531,0.0006398008814172885,-0.004216775793808296,0.010884245762964543,0.9910132488263874
2017-08-01,1,0.0007124406894357459,0.0007746896195398801,-0.004216775793808296,0.006188341881239165,0.9914297761333188
2017-08-03,1,0.0006651337049272014,0.0007199921117033073,-0.00281215063571975,0.011346003224643068,0.9908179147598846
2017-08-07,1,0.0005493693932936796,0.0005844234385188,-0.00281215063571975,0.011346003224643068,0.9907454160067333
2017-08-09,1,0.0004693902597511666,0.000486240826854414,-0.002658790717987674,0.011346003224643068,0.9908843632527349
2017-08-11,1,0.00014625967583210391,0.00018953289103404696,-0.0025535141906433976,0.011285707961362475,0.9914327142598637
2017-08-15,1,9.101631231864737e-05,0.00015024913165427492,-0.0023199191014739193,0.008365381091112796,0.9925480058502987
2017-08-17,-1,-0.0005109357456046853,-0.0003680768846902305,-0.0019289385904710877,0.008365381091112796,0.9938646654245499
2017-08-21,-1,-0.0004519382281906516,-0.00030822594759113796,-0.001507201818153745,0.010607565705486913,0.99351789970343
2017-08-23,-1,-0.000744090020372206,-0.0005526731360334792,-0.0019289385904710877,0.008365381091112796,0.9949961017143186
2017-08-25,-1,-0.0006054640934941086,-0.00042590270337988627,-0.0023199191014739193,0.008365381091112796,0.9946633697838738
2017-08-29,-1,-0.0004457756247232822,-0.0002968848759331339,-0.002539182034739188,0.008365381091112796,0.994802876371577
2017-08-31,0,-4.103401269866077e-05,5.857110921819622e-05,-0.0026157942502750458,0.003378889463939465,0.9952777260780512
2017-09-05,-1,-0.0002011199355130921,-7.394175841597385e-05,-0.00281706630437235,0.0015749583235824234,0.99541187328138
2017-09-07,-1,-0.00029990932300597164,-0.00016335300896919565,-0.0026128119349413583,0.004423884951268475,0.9952169566998155
2017-09-11,-1,-0.00016548056971333464,-4.349457427935675e-05,-0.0026128119349413583,0.0024439958192864516,0.9952743883275985
2017-09-13,-1,-0.00039674595430232905,-0.00024051080355871516,-0.002818588912220599,0.0025912530532286155,0.995207156541563
2017-09-15,-1,-0.0004436556124409424,-0.00027972199753975146,-0.002818588912220599,0.006645463505484547,0.9944388634401329
2017-09-19,1,0.0006690364892661983,0.0006900322932393653,-0.0029518278535806404,0.0024587676142372884,0.9947922007294182
2017-09-21,1,0.0003716038689070166,0.00043219775633482316,-0.002818588912220599,0.0053832418158924695,0.9948572116269032
2017-09-25,1,0.0003112407776545169,0.0003835447850171475,-0.002818588912220599,0.0053832418158924695,0.995351660463448
2017-09-27,1,0.00018781658671992107,0.0002734515345669251,-0.0018478508614354814,0.005793283803761913,0.9948157355432696
2017-09-29,-1,-0.0002806246244335423,-0.00014215612998848124,-0.00146128035607801,0.008920062780709833,0.9941508139332877
2017-10-03,-1,-0.0004231219893066386,-0.00026550726014532944,-0.0018541230045616148,0.008920062780709833,0.9935366321136927
2017-10-05,-1,-0.0002271546721988558,-9.825079817798516e-05,-0.0018541230045616148,0.008920062780709833,0.9935591624425284
2017-10-09,-1,-0.0004244635121986247,-0.00024437288152849763,-0.003031011131670066,0.008920062780709833,0.9932721859342021
2017-10-11,-1,-0.0006064422865876053,-0.00040147185209668697,-0.0017896302084052036,0.008920062780709833,0.9932865699465977
2017-10-13,1,0.00012797985409053765,0.00018995576466146076,-0.0030283121938047422,0.006585691947086308,0.9937764834152324
2017-10-17,1,0.0015623295050545864,0.0017579994374931991,-0.0015448640915596706,0.008920062780709833,0.994395332297667
2017-10-19,1,0.0020098113489663873,0.002289083852476024,-0.0030283121938047422,0.009353888771048112,0.993797228498393
2017-10-23,1,0.002320787349045131,0.002659174354682845,-0.0015448640915596706,0.009066434511284582,0.994114521662298
2017-10-25,1,0.002470523725178475,0.0028358176877629395,-0.0030283121938047422,0.008340916450107393,0.9924335556579253
