JNU-Tangyin/eata/results/Batch4_SP500/Batch4_SP500-PH.csv
Date,Action,Predicted_Q25,Predicted_Q75,Actual_Q25,Actual_Q75,RL_Reward
2010-12-14,0,0.0,0.0,-0.0023561156884193617,0.006031405606469371,0.9950665478013455
2010-12-16,1,0.00394262544528252,0.004021184772700611,-0.0010074088087811785,0.006249104457877837,0.9944220677614157
2010-12-20,1,0.0034839226206702023,0.00350455725148401,-0.0010074088087811785,0.0072992992594740295,0.9933408642173099
2010-12-22,1,0.00422339537176841,0.0044218641140621245,-0.0010074088087811785,0.006249104457877837,0.9908950668782175
2010-12-27,1,0.004144606651422175,0.004341126295884566,-0.0010074088087811785,0.0072992992594740295,0.9904298521850633
2010-12-29,1,0.0043039756598144555,0.004548804581382636,-0.0010074088087811785,0.010542997013418976,0.9898911338732469
2010-12-31,1,0.003838435229728606,0.00398863738818609,-0.0021794205480430073,0.012817728845713286,0.9880371639010707
2011-01-04,1,0.0008557134870841423,0.0009223497164344412,-0.0059770787830864605,0.01183426394563845,0.9871522918459458
2011-01-06,0,0.0,0.0,-0.00021504501546332688,0.01183426394563845,0.9872051947975429
2011-01-10,0,0.0,0.0,-0.00010291083713408374,0.010566989480404469,0.9872227266405769
2011-01-12,0,0.0,0.0,-0.0059770787830864605,0.010566989480404469,0.9872240422009407
2011-01-14,0,0.0,0.0,-0.007253644272915611,0.01183426394563845,0.9862400550535068
2011-01-19,1,0.00044533081795491156,0.0006123314499840585,-0.007701623696501238,0.010566989480404469,0.9874642844997289
2011-01-21,-1,-0.0004165344387478756,-0.00013948250268738132,-0.0059770787830864605,0.010566989480404469,0.9902381126922936
2011-01-25,-1,-0.0005709275241504536,-0.0002838813771680358,-0.010903676170849846,0.008321590320189486,0.9886748072560919
2011-01-27,0,0.0,0.0,-0.010903676170849846,0.008321590320189486,0.9890951472092082
2011-01-31,0,0.0,0.0,-0.010903676170849846,0.00756566425915831,0.9894819470230141
2011-02-02,1,0.00034051400196183286,0.0004622999403903316,-0.010903676170849846,0.00756566425915831,0.9887375234722733
2011-02-04,0,0.0,0.0,-0.014545714070183137,0.007216880621960644,0.9867904866141075
2011-02-08,0,0.0,0.0,-0.014545714070183137,0.005472395722880135,0.9866949315963748
2011-02-10,0,0.0,0.0,-0.014742812564241762,0.007624405171036651,0.9861849872020196
2011-02-14,0,0.0,0.0,-0.014742812564241762,0.0071511538300263865,0.9871877277310247
2011-02-16,0,0.0,0.0,-0.014742812564241762,0.007734086930818129,0.9864781838628759
2011-02-18,1,0.001689394808817017,0.001847122438470284,-0.014742812564241762,0.009461237825287756,0.9859001031626926
2011-02-23,1,0.00043410082004394213,0.0007078317133453967,-0.004622033614252813,0.01126061262626904,0.9874033670967687
2011-02-25,0,0.0,0.0,-0.004622033614252813,0.010338422011952541,0.9874154375144111
2011-03-01,0,0.0,0.0,-0.002168395338051264,0.011103947264464752,0.9883641055868315
2011-03-03,0,0.0,0.0,-0.0007106331233100573,0.00940901603801966,0.9899109181317538
2011-03-07,0,0.0,0.0,0.0019168199651189224,0.010878696823858466,0.9915329757116881
2011-03-09,0,0.0,0.0,0.0002914973495738002,0.010878696823858466,0.9922655182283563
2011-03-11,0,0.0,0.0,0.0002914973495738002,0.009967032762326532,0.9922626825419721
2011-03-15,-1,-0.0012601766757838213,-0.0009263885415911853,0.0001613673542699815,0.009967032762326532,0.9911972601439994
2011-03-17,-1,-0.0006009583929568153,-0.00035689175464494974,0.0001613673542699815,0.008904207287289682,0.9926554345670904
2011-03-21,0,-2.6438279915271673e-05,0.0001418701007887041,-0.0011225406681615625,0.005451151091007002,0.9931617451051289
2011-03-23,1,0.00047028101386247743,0.0006094220478326693,-0.0011225406681615625,0.008904207287289682,0.9922325537086977
2011-03-25,1,0.00039589860474137356,0.0005227007762860089,-0.0025670257295849434,0.007636061398843009,0.9916591177816181
2011-03-29,1,0.0010169980977093474,0.0010589383012989066,-0.005766130426982863,0.007636061398843009,0.9881638405249923
2011-03-31,1,0.0015185580615764388,0.0016098281451927825,-0.005766130426982863,0.007636061398843009,0.9880588346325735
2011-04-04,1,0.001425168481341042,0.0014545613666996243,-0.01124729609075244,0.006775066768756984,0.9874755609049144
2011-04-06,1,0.0015376258147508778,0.001608583927246505,-0.0138095810179422,0.006775066768756984,0.985895942160333
2011-04-08,1,0.0010438504733205332,0.0010640812861460829,-0.01124729609075244,0.004329655488819292,0.9870132822652561
2011-04-12,0,-0.00011624613358205273,7.521906383632757e-05,-0.01124729609075244,0.006775066768756984,0.9861426959753118
2011-04-14,1,0.0006928117903048643,0.0007430039078113259,-0.011936279076590738,0.007527621412113642,0.9852560485582864
2011-04-18,-1,-0.00043273238086662894,-0.00021983613409653048,-0.011936279076590738,0.007527621412113642,0.9849219820396325
2011-04-20,1,0.0009889862508283436,0.0010211937569258426,-0.011936279076590738,0.007315530030490784,0.9854120099366989
2011-04-25,1,0.0002784817376640047,0.00041088332386884474,-0.016013442026056503,0.007208469351765339,0.9847812874452587
2011-04-27,0,0.0,0.0,-0.012598284381971657,0.008827829161138709,0.9872398795096575
2011-04-29,0,0.0,0.0,-0.012598284381971657,0.00968876548523811,0.9867631610553149
2011-05-03,0,0.0,0.0,-0.016013442026056503,0.00968876548523811,0.9857489953591729
2011-05-05,0,0.0,0.0,-0.012598284381971657,0.011197088019160938,0.9863836035999358
2011-05-09,1,0.0007030353368925003,0.0009540788878819521,-0.012598284381971657,0.011197088019160938,0.9861302196421798
2011-05-11,-1,-0.002611486233784322,-0.0021712582335035703,-0.00817329235243295,0.011294820990233522,0.9871280938214785
2011-05-13,0,0.0,0.0,-0.009137116173023183,0.011294820990233522,0.9866752285212104
2011-05-17,0,0.0,0.0,-0.009137116173023183,0.014276096194116442,0.985604276175983
2011-05-19,0,0.0,0.0,-0.01109822378119494,0.011294820990233522,0.9864236739045793
2011-05-23,0,0.0,0.0,-0.006202185944950128,0.011294820990233522,0.9875377844498177
2011-05-25,-1,-0.0022277356327433237,-0.0018311585202817093,-0.006202185944950128,0.009907109308151219,0.9888770168126523
2011-05-27,-1,-0.0009666000292371169,-0.0007472275136073267,-0.007673272152174044,0.008578892669431988,0.988809418931233
2011-06-01,-1,-0.0035511729277587674,-0.00298704318354971,-0.0059148474986864975,0.009907109308151219,0.989924348712142
2011-06-03,-1,-0.0027685822649352976,-0.0023305592041235113,-0.00405420425928314,0.010944435770757328,0.9881951028585861
2011-06-07,-1,-0.002012009973308022,-0.0016993049107999624,-0.006568550034743749,0.010769232674789894,0.9884095035565043
2011-06-09,-1,-0.0011586517094149791,-0.0009712618524342233,-0.009482546984111526,0.008578892669431988,0.9888372313239142
2011-06-13,-1,-0.0013447193187645227,-0.0011743681201298074,-0.009482546984111526,0.008547570125053498,0.9887481571406561
2011-06-15,-1,-0.0005118382334588676,-0.0003108368303150409,-0.009482546984111526,0.005598680959317969,0.9901516068028807
2011-06-17,-1,-0.0010991890790587556,-0.0008358018818261193,-0.009585412380754749,0.008547570125053498,0.98849126224758
2011-06-21,0,0.0,0.0,-0.009585412380754749,0.009468094523681319,0.9877426888035121
2011-06-23,-1,-0.001984587873530971,-0.0019474879741051062,-0.010472568773308943,0.0137301769345517,0.9871331565804202
2011-06-27,0,0.0,0.0,-0.010472568773308943,0.0137301769345517,0.9859944856930157
2011-06-29,0,0.0,0.0,-0.017314198254116734,0.0069268358528015205,0.9831014265837258
2011-07-01,0,0.0,0.0,-0.01785417371547042,0.004334509574776112,0.9844248861108112
2011-07-06,0,0.0,0.0,-0.018365403336692194,0.004808609740450459,0.9801379187568872
2011-07-08,0,0.0,0.0,-0.021191476192405072,0.004808609740450459,0.9776020140389639
2011-07-12,0,0.0,0.0,-0.02371459040212194,0.007973611789133538,0.9718223359690928
2011-07-14,0,0.0,0.0,-0.0408316541232126,0.015366721399488564,0.9673872580919148
2011-07-18,0,0.0,0.0,-0.0408316541232126,0.018576281753343072,0.9665426145063396
2011-07-20,-1,-0.0010082652893424037,-0.0010057493833587508,-0.0408316541232126,0.015366721399488564,0.9664456183447676
2011-07-22,-1,-0.0018255923669154527,-0.0014369815261821696,-0.051661209751498856,0.009012043062435377,0.964624812812362
2011-07-26,0,0.0,0.0,-0.051661209751498856,0.019286901135367622,0.9640352193002806
2011-07-28,0,0.0,0.0,-0.03528887819526326,0.0244129606109224,0.9645006130421584
2011-08-01,0,0.0,0.0,-0.03528887819526326,0.032709446851688126,0.9622232755460634
2011-08-03,-1,-0.006787769103112996,-0.005929031105814086,-0.02598606622708194,0.032709446851688126,0.965474075934434
2011-08-05,-1,-0.008398884699456974,-0.007347428211761655,-0.02598606622708194,0.032709446851688126,0.9661027539194229
2011-08-09,-1,-0.0083937436049672,-0.0074065415824027,-0.02061115790868947,0.03260048513915183,0.970962675587877
2011-08-11,0,0.0,0.0,-0.02061115790868947,0.029910571728158926,0.9734417766163177
2011-08-15,0,0.0,0.0,-0.02061115790868947,0.028473406449109666,0.9751428163929435
2011-08-17,-1,-0.003275133543623167,-0.0029837819389318724,-0.02061115790868947,0.028473406449109666,0.9746130525228051
2011-08-19,0,0.0,0.0,-0.010410437014410797,0.028473406449109666,0.9772542389281309
2011-08-23,0,0.0,0.0,-0.021965553530749835,0.02546445441995031,0.9757384549744289
2011-08-25,0,0.0,0.0,-0.021965553530749835,0.024404187458108333,0.9764599693948143
2011-08-29,0,0.0,0.0,-0.021965553530749835,0.020292006165432166,0.9777902455437163
2011-08-31,-1,-0.0010484922353761496,-0.0009750040060721615,-0.021965553530749835,0.018143849225980172,0.9782695620688171
2011-09-02,-1,-0.0029480544913578622,-0.0027672208083709057,-0.031025616091109563,0.018143849225980172,0.977925958969878
2011-09-07,-1,-0.002044325578358091,-0.0019913689894436705,-0.031025616091109563,0.020292006165432166,0.9767699333861629
2011-09-09,-1,-0.004183259987765944,-0.0038592792132875154,-0.018747197432363687,0.020292006165432166,0.978259031098263
2011-09-13,-1,-0.002255688455784813,-0.00223026624226874,-0.018747197432363687,0.020331778282454156,0.9755325776576359
2011-09-15,-1,-0.0008864057513051494,-0.0007373015096383175,-0.018747197432363687,0.01931366005867639,0.9764813096690189
2011-09-19,-1,-0.0013109863724020297,-0.0012321819037182816,-0.018747197432363687,0.01931366005867639,0.9756311927088153
2011-09-21,0,0.0,0.0,-0.011611465814684639,0.022306763906281314,0.975645774594528
2011-09-23,0,0.0,0.0,-0.008719822937840009,0.022306763906281314,0.976970786849909
2011-09-27,0,0.0,0.0,-0.011611465814684639,0.02182512068732493,0.9765802734725882
2011-09-29,-1,-0.002116171357558878,-0.0020659391323700287,-0.008719822937840009,0.027398295053394556,0.9735188145747538
2011-10-03,-1,-0.004788332991456275,-0.004408138538346257,-0.004221557384669448,0.027398295053394556,0.9745253723034352
2011-10-05,1,8.626042806032975e-05,0.00025050029551566117,-0.008719822937840009,0.02182512068732493,0.9760867810327322
2011-10-07,1,3.482685608379322e-05,0.0001567514528213992,-0.008719822937840009,0.02713571340376999,0.974957932204014
2011-10-11,1,0.002207546796793259,0.0026668905482321393,-0.011611465814684639,0.02182512068732493,0.9779604317710163
2011-10-13,1,0.0021858255781644353,0.002598996656291475,-0.013871336908806065,0.026256054937155476,0.9759679421419893
2011-10-17,1,0.0027488624857194073,0.003295220451592457,-0.013256182448849088,0.026256054937155476,0.976477871078344
2011-10-19,1,0.004370931097639176,0.005159441138565564,-0.020403193626413962,0.023238522926318866,0.9783821077165066
2011-10-21,1,0.004389312163985656,0.00510666322198821,-0.02587006461823413,0.023238522926318866,0.9772249821411446
2011-10-25,1,0.004263778823287476,0.004979193768402036,-0.025618140641473927,0.01564925633105967,0.9775938773985942
2011-10-27,1,0.0060187925841530075,0.006973225001479705,-0.027083117885374788,0.010406701677932223,0.9781899536399236
2011-10-31,0,0.0,0.0,-0.025618140641473927,0.01564925633105967,0.9778831835131153
2011-11-02,1,0.0032085579040009873,0.003791439112939153,-0.020403193626413962,0.01564925633105967,0.9781873172710197
2011-11-04,0,0.0,0.0,-0.020403193626413962,0.010406701677932223,0.9794463934220294
2011-11-08,0,0.0,0.0,-0.023915638278783773,0.012772007532045992,0.9790706299303525
2011-11-10,0,0.0,0.0,-0.023915638278783773,0.012772007532045992,0.9801037588828643
2011-11-14,0,0.0,0.0,-0.023915638278783773,0.009715516770207008,0.9795800900953321
2011-11-16,0,0.0,0.0,-0.024337464848500086,0.004366603868278664,0.979804564571837
2011-11-18,0,0.0,0.0,-0.018579250488967854,0.004366603868278664,0.9801255814264955
2011-11-22,0,0.0,0.0,-0.016639999187512924,0.009715516770207008,0.9800047897563083
2011-11-25,1,0.0017103994997126502,0.0023188271785809884,-0.015631644053185585,0.013586277415156492,0.9810881098225825
2011-11-29,1,0.0027933961491907406,0.0035360504537092557,-0.016639999187512924,0.009715516770207008,0.982878901400767
2011-12-01,1,0.003907144293965176,0.00474792674021737,-0.016639999187512924,0.00907557537377541,0.9844169272774813
2011-12-05,1,0.0037047407909468924,0.004509394248115314,-0.016639999187512924,0.010636023843264661,0.9835786297212276
2011-12-07,1,0.0037059380908212093,0.004533951415079732,-0.01648595179339913,0.007439625251586448,0.9842619975617842
2011-12-09,1,0.0038311331244099025,0.004705953425240933,-0.015613934108686174,0.011296650688976296,0.9847868602482797
2011-12-13,1,0.003122001045021815,0.003921057019637157,-0.007454377760603121,0.015559316580021139,0.9861138125210515
2011-12-15,1,0.0019363950427700363,0.0025260431675580893,-0.0071999858328013425,0.015559316580021139,0.98688934409834
2011-12-19,1,0.000442215117735025,0.0006971852061104537,-0.004545833850329398,0.016651041446136838,0.9866837113049226
2011-12-21,1,0.0015774936271496318,0.0019045651787956835,-0.0048977293585162444,0.015559316580021139,0.9869494972740521
2011-12-23,1,0.001100064346452845,0.0012425695994982685,-0.00570541574129314,0.013950992960093755,0.9865666165983988
2011-12-28,-1,-0.00042363205047444934,-0.0002918108730298447,-0.00570541574129314,0.013950992960093755,0.9872572812291094
2011-12-30,1,7.977074352844514e-05,0.00021323282830074065,-0.005873224088885562,0.013950992960093755,0.9876700284499451
2012-01-04,1,0.0002674741809555457,0.0004247894653980342,-0.005873224088885562,0.013950992960093755,0.9883114046438638
2012-01-06,0,0.0,0.0,-0.002223656998688846,0.015559316580021139,0.9868637151615159
2012-01-10,0,0.0,0.0,-0.002223656998688846,0.012754241223133709,0.9882598663916542
2012-01-12,0,0.0,0.0,-0.005846889873695164,0.012381668325859758,0.9889916031306014
2012-01-17,0,0.0,0.0,-0.005846889873695164,0.01264198974314508,0.9877614407712383
2012-01-19,-1,-0.8341220539409402,-0.8181247827082556,-0.008092364706003708,0.01264198974314508,0.5468237342478229
2012-01-23,1,0.0011110445242572056,0.001158756121315616,-0.007631118879062142,0.014187760406634529,0.9879206873480567
2012-01-25,1,0.0016369046519359703,0.001793698002040218,-0.007631118879062142,0.013294544674789932,0.9886096125493201
2012-01-27,1,0.000287363508695862,0.00037591408564750274,-0.007631118879062142,0.013294544674789932,0.9884995808583954
2012-01-31,1,0.00027342503471149983,0.0003498011642967653,-0.005473324316163232,0.013294544674789932,0.988752371690801
2012-02-02,-1,-0.00022023709084657904,-1.840436777071088e-05,-0.007631118879062142,0.011485494698853654,0.9893025490843974
2012-02-06,1,0.0012089161721261558,0.0012190010816270198,-0.007981943951241726,0.005205745809162674,0.9896841228387525
2012-02-08,1,0.001679881120511368,0.0017751379190665468,-0.007981943951241726,0.0070040235022749,0.9890915371598253
2012-02-10,1,0.001347527580747991,0.001377981768794469,-0.007981943951241726,0.00827787050719329,0.9890861013721911
2012-02-14,1,0.0002415726940996299,0.0004201112355487044,-0.005857526346568387,0.0070040235022749,0.9909221532106484
2012-02-16,0,0.0,0.0,-0.005577851337079319,0.0070040235022749,0.991399985526005
2012-02-21,0,0.0,0.0,-0.006394982245119249,0.006497803444972476,0.9913409526006438
2012-02-23,0,0.0,0.0,-0.007142918922774522,0.006497803444972476,0.9898809823906242
2012-02-27,0,0.0,0.0,-0.006431089538212925,0.007878386035018328,0.9894488976967757
2012-02-29,1,0.0003194937931789427,0.0006260447094001333,-0.009532951534465628,0.007878386035018328,0.9883029191971034
2012-03-02,0,-0.00017414255290632615,0.00015691923843915768,-0.0077757380407090845,0.007878386035018328,0.9889910502173457
2012-03-06,-1,-0.00021210975947878394,-4.3532452433511434e-06,-0.007109071544837998,0.009116622758074953,0.9893152546558586
2012-03-08,1,0.00041090762451047417,0.0005697323406322308,-0.009268292373699317,0.006975647011638433,0.9892439868539373
2012-03-12,1,5.438701521886895e-05,0.0002707050367141725,-0.011962102837096956,0.003020047981089638,0.9890206759737362
2012-03-14,1,0.0008875553249337035,0.0009169331566715117,-0.011962102837096956,0.007428544864974349,0.9879602457080691
2012-03-16,1,0.001252359119536666,0.0012828778889990167,-0.015068055932386375,0.00317101393220161,0.987867757938839
2012-03-20,1,0.0005871166084680139,0.0006398649481725138,-0.011962102837096956,0.007428544864974349,0.9883161351823614
2012-03-22,1,0.0013221061202673213,0.001474303000648922,-0.011836935820159317,0.01024586749633953,0.9885686023045024
2012-03-26,1,0.0009896819630073918,0.001010635214989757,-0.013668034713637183,0.00895727407541389,0.9843620425542291
2012-03-28,-1,-6.901379897187969e-05,-3.4580679520719896e-05,-0.010889104224459479,0.00895727407541389,0.9854778483442814
2012-03-30,1,0.0004366813147075162,0.000514657150430585,-0.013668034713637183,0.015089399649426474,0.9838763105058688
2012-04-03,1,0.0004810774286464932,0.0005627034614166632,-0.013668034713637183,0.00895727407541389,0.9847466905029059
2012-04-05,-1,-0.00033024130587391853,-0.0003105899806005426,-0.014184734792126332,0.00895727407541389,0.9844486217275001
2012-04-10,-1,-0.0004936459631869621,-0.0004733884939728336,-0.013809233741313412,0.009728557217091118,0.9847724389475407
2012-04-12,1,5.191550243162532e-05,7.564833757592227e-05,-0.013809233741313412,0.00788127639871155,0.9855895086643102
2012-04-16,-1,-0.0008134293403673504,-0.0007046111334816145,-0.013809233741313412,0.00788127639871155,0.9853106026998224
2012-04-18,-1,-0.0010272765871590602,-0.0008479055872642431,-0.013809233741313412,0.007525937170805604,0.9854261917280037
2012-04-20,-1,-0.001586407465464035,-0.0013067013300652242,-0.014954196229709477,0.006908423376859818,0.9855173586099037
2012-04-24,1,0.0006341853182683883,0.0006687549964259138,-0.013001510220753054,0.007525937170805604,0.9885801865587797
2012-04-26,1,0.00037555400420116226,0.00044729259524134456,-0.013001510220753054,0.00788127639871155,0.9883547649726211
2012-04-30,1,0.00044256396281390443,0.0005200108909748892,-0.01087112191832503,0.00788127639871155,0.9887133349822097
2012-05-02,1,0.00040973529384057437,0.00047287396990879836,-0.01666189956193214,0.00788127639871155,0.9863464906676739
2012-05-04,-1,-0.0006401615737725287,-0.0005950943963140025,-0.014358056769349965,0.00788127639871155,0.9858925894310173
2012-05-08,-1,-0.0008665377658168142,-0.0007475050738679947,-0.014358056769349965,0.008442089450267294,0.9850038718619609
2012-05-10,-1,-0.0015881683427737166,-0.0013338883337149312,-0.014358056769349965,0.008135455171758201,0.984895303021749
2012-05-14,-1,-0.002321551844983551,-0.00195482060988424,-0.012068059650387979,0.011261176683610269,0.9847393949159431
2012-05-16,-1,-0.002484074332532612,-0.0021299772278930047,-0.014704374764433474,0.011261176683610269,0.9838390573113088
2012-05-18,-1,-0.0030448386128985915,-0.0026439499075382083,-0.007449855398028776,0.011261176683610269,0.9843474702008581
2012-05-22,-1,-0.002413769379152391,-0.0020529241048088433,-0.014479169487459904,0.00866546731901327,0.984042241799364
2012-05-24,-1,-0.0023425340226281097,-0.002000498763866501,-0.022335547627880342,0.006749161936708537,0.9833541260397722
2012-05-29,-1,-0.0012949673157842201,-0.0010918437188459952,-0.024724468402699696,0.0061382031589512906,0.9828946456490506
2012-05-31,-1,-0.003130254949277893,-0.0027061938758701897,-0.022525594785972693,0.006749161936708537,0.9836754201695448
2012-06-04,-1,-0.003292190584735861,-0.002869112369247112,-0.017136536431817808,0.009006614891207248,0.9826910126935667
2012-06-06,-1,-0.0022362717235003167,-0.001968862198211807,-0.017136536431817808,0.008946079194253366,0.9829546585801073
2012-06-08,-1,-0.0019013155284777338,-0.0016704268022387303,-0.02226018300908482,0.00751928232278218,0.9820651550070298
2012-06-12,-1,-0.0010214350953675448,-0.00088501323265889,-0.022975116760506828,0.00431625779736141,0.9816197825880423
2012-06-14,-1,-0.003716234927288409,-0.003257720682776211,-0.02226018300908482,0.008179725327670683,0.9824445133100042
2012-06-18,0,0.0,0.0,-0.02226018300908482,0.01314838786101178,0.9810823125368363
2012-06-20,0,0.0,0.0,-0.01728637708999585,0.016077695558441827,0.9810023128775976
2012-06-22,0,0.0,0.0,-0.015158263515472599,0.016077695558441827,0.9821197270666473
2012-06-26,0,0.0,0.0,-0.01309979411541073,0.016077695558441827,0.9831370440396985
2012-06-28,-1,-0.0050704688810612455,-0.004582239190143099,-0.011495990636667421,0.020473495835944076,0.9816205050148348
2012-07-02,-1,-0.004476881356830848,-0.004081712591413244,-0.010748054987930937,0.018060394346859125,0.9847044504046183
2012-07-05,-1,-0.003510817237309506,-0.0032329445945383675,-0.011495990636667421,0.015958335916146642,0.9838582867827997
2012-07-09,-1,-0.004197068538189743,-0.0038380408305728466,-0.009979199898544403,0.015958335916146642,0.9838975942169214
2012-07-11,-1,-0.00482277750361768,-0.0044079449570021915,-0.006310159772822449,0.01853873097753466,0.9838343924958084
2012-07-13,-1,-0.003437576061768868,-0.003201404737377315,-0.006310159772822449,0.01670917399123305,0.9845427071014624
2012-07-17,-1,-0.0031971299222320142,-0.003001195115288718,-0.006691282451260195,0.01670917399123305,0.9854136052718214
2012-07-19,-1,-0.0014990664826080228,-0.0014803175209542787,-0.006691282451260195,0.01548777471837976,0.9872269593321699
2012-07-23,-1,-0.0005732336989434095,-0.0004467754017410883,-0.006691282451260195,0.01548777471837976,0.9869117673394264
2012-07-25,-1,-0.0010247453414312625,-0.0009670098194545322,-0.00642241518684865,0.01548777471837976,0.9874106782447245
2012-07-27,1,0.0007047720366367686,0.0009488345304529771,-0.00642241518684865,0.00977551783926996,0.9899943984407901
2012-07-31,1,0.00031286198020653497,0.0005502038422265329,-0.00642241518684865,0.00977551783926996,0.990233457514065
2012-08-02,1,0.0005484862228248634,0.0008383442569640336,-0.006837829173848056,0.0076081114912147935,0.9916181768288717
2012-08-06,1,0.0006770648796739722,0.0009781109476978836,-0.006837829173848056,0.0047327786629132165,0.9921435353770737
2012-08-08,1,0.0010891268736417943,0.0014653869512015413,-0.007293957940789346,0.0047327786629132165,0.9912152647491101
2012-08-10,1,0.001692866633311162,0.0021242238021227547,-0.007293957940789346,0.00235612979528062,0.990941236633527
2012-08-14,1,0.000807946599230973,0.0010802539177123568,-0.006792987788100627,0.00831502717664456,0.9915993622004243
2012-08-16,1,0.0014880882084543903,0.0018750857677614537,-0.006792987788100627,0.00844725896483783,0.9912868714755935
2012-08-20,1,0.0009943328154176422,0.0012719404874325744,-0.006792987788100627,0.00844725896483783,0.9914159388120439
2012-08-22,1,0.0009795098080537423,0.001261461551518264,-0.005645311817505133,0.008727918187596606,0.9912692465267491
2012-08-24,1,0.001105099843138024,0.0014192329363419322,-0.005128908244443264,0.008727918187596606,0.9916397745777035
2012-08-28,1,0.00040927630977514095,0.0005938618515130144,-0.007293957940789346,0.008727918187596606,0.9902364484781254
2012-08-30,1,7.598132928761034e-05,0.0002019344902482488,-0.0032380405125834516,0.008822754382554376,0.9902182077388327
2012-09-04,1,0.0007767375996073812,0.0010407515189908576,-0.0032380405125834516,0.008822754382554376,0.990545488435694
2012-09-06,1,0.0012004639314829708,0.001482219479945428,-0.0028808212622226342,0.008472914150301882,0.9923203482732128
2012-09-10,1,0.0012854614979647264,0.0015920330408466935,-0.003350514389827927,0.008472914150301882,0.9917890060904745
2012-09-12,1,0.001443860021566627,0.001784639251753731,-0.011730869335605791,0.004497518703042626,0.9897613764654344
2012-09-14,1,0.002970862812659185,0.0035963917114899863,-0.011730869335605791,0.0022228344954184623,0.9898658155734014
2012-09-18,1,0.002365142632486347,0.0028647285254853215,-0.006081711353729093,0.0042850920510691375,0.9899705586182714
2012-09-20,1,0.002571932967694041,0.003100974237092398,-0.005010053602646641,0.011982832923385419,0.9889864882592915
2012-09-24,1,0.0020140099892261678,0.0023802638010784714,-0.011730869335605791,0.011982832923385419,0.9850889514977383
2012-09-26,0,0.0,0.0,-0.009299564057684622,0.011982832923385419,0.9860401274810282
2012-09-28,0,0.0,0.0,-0.009299564057684622,0.011982832923385419,0.9860179972889699
2012-10-02,0,0.0,0.0,-0.009299564057684622,0.014439582629626179,0.984165281023933
2012-10-04,0,0.0,0.0,-0.014660262898992712,0.014439582629626179,0.9831721006463527
2012-10-08,1,0.0005505644082492114,0.0006124843757370974,-0.017511781739856333,0.014439582629626179,0.9824670062099093
2012-10-10,0,0.0,0.0,-0.005776317784822221,0.014439582629626179,0.9837730830865078
2012-10-12,0,0.0,0.0,-0.008738581470428674,0.014439582629626179,0.983357336324748
2012-10-16,1,0.0009640431854295193,0.0011421489661709201,-0.009585664044848485,0.013707912071919764,0.9839683285904013
2012-10-18,1,0.0021671985398491094,0.002539998840685502,-0.009585664044848485,0.013707912071919764,0.9843801389185924
2012-10-22,-1,-0.00022980928127148398,-0.00021397091719494918,-0.009585664044848485,0.013707912071919764,0.9870293360791537
2012-10-24,-1,-0.001294467209789452,-0.0011291114422889053,-0.0024211843888817092,0.013841805257311955,0.986992348139704
2012-10-26,-1,-0.0005812098760213371,-0.0005139818535397306,-0.005369337751820431,0.013841805257311955,0.9871090786882538
2012-11-01,1,0.0008055312162483618,0.000926274611105414,-0.009585664044848485,0.01316681363504547,0.9883588983472837
2012-11-05,1,0.0004951872218318376,0.0005783684396201896,-0.009585664044848485,0.01316681363504547,0.98785770555805
2012-11-07,-1,-0.0011125256887233865,-0.0009536007800905596,-0.007393820597978818,0.013707912071919764,0.9882212581702327
2012-11-09,-1,-6.270877830803901e-05,-4.167636264089845e-05,-0.007393820597978818,0.014405138700550522,0.9885072401864636
2012-11-13,-1,-0.0007271835690446087,-0.0006259702584795433,-0.00645501620117327,0.014405138700550522,0.9885689297089728
2012-11-15,-1,-0.0006329608712174176,-0.0005195415997265264,-0.004711022629284224,0.0138998566915444,0.9894240740086522
2012-11-19,-1,-0.0007022609115268797,-0.0005452140480380124,-0.004711022629284224,0.01237021908433144,0.9891008713783508
2012-11-21,-1,-0.001021232186630193,-0.0008203602432707496,-0.004401811658811063,0.01237021908433144,0.9896412676440167
2012-11-26,-1,-0.0004133951490709109,-0.0003097197589225282,-0.005387138652619118,0.009546348593890315,0.989683025115944
2012-11-28,1,0.0006289531357062906,0.0006805577902167522,-0.005387138652619118,0.005226805135256563,0.9906264615497985
2012-11-30,-1,-0.0006157366624000753,-0.00046641489121101255,-0.005387138652619118,0.005697645433657397,0.9907838923521097
2012-12-04,-1,-0.0010531338306861114,-0.0008251292204622142,-0.003787456508432556,0.009395251780940635,0.990493443498135
2012-12-06,-1,-0.00042035642944518784,-0.00030935687182462036,-0.003787456508432556,0.006014482812665352,0.9912858761250501
2012-12-10,-1,-0.00028575504143949957,-0.00018414601653370436,-0.003787456508432556,0.006014482812665352,0.9911792920003899
2012-12-12,-1,-9.607807078937295e-05,-6.305538053548736e-05,-0.005370938976259167,0.006014482812665352,0.9910170561377092
2012-12-14,1,0.00035118371382883315,0.00039478850249486286,-0.005370938976259167,0.006014482812665352,0.9909549472585177
2012-12-18,1,0.0010042572916633414,0.0010777743478414545,-0.005370938976259167,0.006014482812665352,0.9919288015537416
2012-12-20,1,0.0013720839341830405,0.0016020085673501372,-0.004924271624130259,0.009395251780940635,0.9909739850540402
2012-12-24,1,0.00017594313342034977,0.00018367037120664388,-0.0029698294874620362,0.010992734845605628,0.9911656067249528
2012-12-27,1,0.0005564302498814036,0.0006160385597146249,-0.00481881728770012,0.010992734845605628,0.9910520891989435
2012-12-31,1,0.0007569315818481955,0.0008339850035242925,-0.00481881728770012,0.008289654375121979,0.9915645853566893
2013-01-03,1,0.001156887520976496,0.0012950060076818944,-0.00481881728770012,0.0064415401289566725,0.9928198506481934
2013-01-07,1,0.001437150921176699,0.0016509713333868296,-0.00481881728770012,0.00957082632399594,0.9920039893051605
2013-01-09,1,0.0014893675216974722,0.0016714602366662162,-0.005448523840231751,0.005558867705643344,0.9925370545388564
2013-01-11,1,0.0012574013359088801,0.001432739468533947,-0.0036130689179531316,0.00652410286091639,0.9930231355232382
2013-01-15,1,0.0013169907320331798,0.0014860973845595643,-0.0036130689179531316,0.00957082632399594,0.9923549272231751
2013-01-17,1,0.001616556401860419,0.0018170509648753387,-0.0036130689179531316,0.00864350263946372,0.9928936158173645
2013-01-22,1,0.0017591377106872183,0.0019725439430222634,-0.003822971102130342,0.00864350263946372,0.9924211206729129
2013-01-24,0,0.0,0.0,-0.005448523840231751,0.00864350263946372,0.9912590548269404
2013-01-28,1,0.0012016043025841285,0.0013151534560532218,-0.006301635605883649,0.00864350263946372,0.9895920108494933
2013-01-30,1,0.0011779482863222704,0.0012888700110674993,-0.003822971102130342,0.010395589791379826,0.9888342298996343
2013-02-01,0,0.0,0.0,-0.006108995412546368,0.010395589791379826,0.9887801614792198
2013-02-05,0,0.0,0.0,-0.0034330543003164935,0.010395589791379826,0.9887622874721658
2013-02-07,1,0.0024183151119887883,0.002724610044313837,-0.0009390496085487848,0.010395589791379826,0.9889128949096416
2013-02-11,0,0.0,0.0,-0.0042200697635132725,0.010395589791379826,0.9882911419035841
2013-02-13,0,0.0,0.0,-0.0042200697635132725,0.008836673566323276,0.9891295322113987
2013-02-15,0,0.0,0.0,-0.007080284811351634,0.008836673566323276,0.9886867303686588
2013-02-20,0,0.0,0.0,-0.007080284811351634,0.008314232871032444,0.9900692780819024
2013-02-22,0,0.0,0.0,-0.007080284811351634,0.007538840800510184,0.9900953941677105
2013-02-26,0,0.0,0.0,-0.007888046984456259,0.0038359112994987283,0.9914261027092288
2013-02-28,0,0.0,0.0,-0.007888046984456259,0.0011592441309983676,0.9920836757465122
2013-03-04,0,0.0,0.0,-0.009081289182869183,0.0011592441309983676,0.991008110012282
2013-03-06,0,0.0,0.0,-0.009423624223734753,0.0011592441309983676,0.9907344818637275
2013-03-08,-1,-0.002363691628242191,-0.0020213744737452915,-0.009423624223734753,9.908484754624883e-06,0.9918602547384994
2013-03-12,1,0.0027795145727645978,0.002890633225573222,-0.009423624223734753,0.0011592441309983676,0.9899179025770712
2013-03-14,0,0.0,0.0,-0.009751337629162094,-0.00017248095823943298,0.9906387584823074
2013-03-18,0,0.0,0.0,-0.010656589648613959,0.0019435425081133374,0.9883628683396339
2013-03-20,0,0.0,0.0,-0.012507290531898143,0.0019435425081133374,0.9877656522935039
2013-03-22,0,0.0,0.0,-0.010656589648613959,0.006170996415216909,0.9884817490028518
2013-03-26,0,0.0,0.0,-0.009751337629162094,0.012246443139440184,0.9879077919782648
2013-03-28,1,0.00028284651918614135,0.000411271819137992,-0.011217763192598481,0.012246443139440184,0.987128582916894
2013-04-02,0,0.0,0.0,-0.0062897187611332585,0.012246443139440184,0.9884368498635279
2013-04-04,0,0.0,0.0,-0.0062897187611332585,0.012246443139440184,0.9887066649734504
2013-04-08,0,0.0,0.0,-0.0062897187611332585,0.012768980829417432,0.9871516248008001
2013-04-10,-1,-0.0027438374033127793,-0.002238746427173533,-0.0062897187611332585,0.013331044918178239,0.9868777522190834
2013-04-12,-1,-0.003305755759460159,-0.0027399995068923704,-0.003406128016171877,0.013331044918178239,0.9865038411995614
2013-04-16,0,0.0,0.0,-0.0030194069671569683,0.013331044918178239,0.9883106787519548
2013-04-18,0,0.0,0.0,-0.0025717092524147546,0.013331044918178239,0.9887728996889087
2013-04-22,0,0.0,0.0,-0.0010918330825384211,0.013983569544173782,0.9881158127493479
2013-04-24,0,0.0,0.0,-0.0025717092524147546,0.013331044918178239,0.9888165935073856
2013-04-26,0,0.0,0.0,-0.002946070749621493,0.012349585858831925,0.9897860404788417
2013-04-30,0,0.0,0.0,-0.0030054138158930165,0.012349585858831925,0.9897897353177273
2013-05-02,-1,-0.0021085096852203025,-0.0017999935097992709,-0.002590816916693016,0.012349585858831925,0.989786060905501
2013-05-06,-1,-0.0008462942960549308,-0.0007095370246767182,-0.003119094345972644,0.011849520882755728,0.9915348195324017
2013-05-08,-1,-0.0005245732098977925,-0.0004168708062424348,-0.0035224703605683696,0.0072331665577705226,0.9911034175809341
2013-05-10,-1,-0.0003887681084754154,-0.000307658764458242,-0.0035224703605683696,0.007248301860846046,0.9909850700582862
2013-05-14,1,0.001172286441482546,0.0013656956448924173,-0.005726364192180972,0.005308854526718976,0.9913723804505272
2013-05-16,1,0.0009127289636692809,0.0009351502509943276,-0.007123263772827837,0.005308854526718976,0.9911763600040876
2013-05-20,1,0.0013370811869552613,0.0013741161996743618,-0.007123263772827837,0.004128210724231336,0.9919486791314844
2013-05-22,1,0.0007985246886808967,0.0008342152034407427,-0.009066807856092391,0.004066401132539673,0.991312345916065
2013-05-24,1,0.00043723875227075866,0.0005077475032866786,-0.009195015074409257,0.004066401132539673,0.9906312665751983
2013-05-29,1,0.0008237336514053696,0.0008454283039746403,-0.009195015074409257,0.010075874955951011,0.9894626700264756
2013-05-31,1,0.0012462568007310898,0.001316543703657452,-0.009884053872996505,0.00897284914165277,0.9895343216780067
2013-06-04,1,0.001073940404323277,0.0011566266521272767,-0.010859293312610109,0.010075874955951011,0.9887787762992511
2013-06-06,1,0.0004279801302194445,0.0004529135498518783,-0.009255458923868145,0.012059365275231103,0.9886486760110198
2013-06-10,1,0.0008955033135734048,0.0009372019991495729,-0.01067340186662879,0.012059365275231103,0.9879248527691269
2013-06-12,1,0.0006006545693657363,0.0006343118656784229,-0.009255458923868145,0.013523776118989785,0.9879745404463808
2013-06-14,1,0.001003769605102632,0.0011235624026360467,-0.009255458923868145,0.013523776118989785,0.9882834058000778
2013-06-18,0,0.0,0.0,-0.009255458923868145,0.013523776118989785,0.9886266621648878
2013-06-20,0,0.0,0.0,-0.00802539097562044,0.015605625100903658,0.9884932340684229
2013-06-24,0,0.0,0.0,-0.0023331836653821573,0.015605625100903658,0.9897584624576258
2013-06-26,0,0.0,0.0,-0.003744786348515662,0.013762645348886908,0.9904205981902383
2013-06-28,0,0.0,0.0,-0.003727980160327641,0.013762645348886908,0.9906275725928142
2013-07-02,0,0.0,0.0,-0.0023331836653821573,0.01186640616365464,0.9912340962536407
2013-07-05,0,0.0,0.0,-0.003727980160327641,0.01186640616365464,0.9901511500430282
2013-07-09,1,0.001452595294031681,0.0016800591810931806,-0.004118752529550955,0.008519909721021885,0.9900151512345826
2013-07-11,1,0.001618420468861069,0.0018442797963188072,-0.004118752529550955,0.008519909721021885,0.9898253963361048
2013-07-15,1,0.001229266658225339,0.0013895126392712476,-0.0025548525346751035,0.01186640616365464,0.9896225143027156
2013-07-17,1,0.0012441323312535663,0.0014096729778567665,-0.0038233349492652873,0.01186640616365464,0.989041935463946
2013-07-19,1,0.0015419993071280273,0.0017009107078207403,-0.006751882665651562,0.007709251119131486,0.9890902036054614
2013-07-23,1,0.001589453754290513,0.001791546841004748,-0.008001334696889616,0.007709251119131486,0.9888126131270718
2013-07-25,1,0.0013105019410909252,0.0014642684294231955,-0.006751882665651562,0.009113374901060548,0.9883636041489232
2013-07-29,1,0.001460009946811025,0.0016706594291212486,-0.006082330554873591,0.009113374901060548,0.9883870423348545
2013-07-31,1,0.0020683790702352807,0.002383572402101363,-0.007115081956032612,0.005474687088137288,0.9879373706979119
2013-08-02,1,0.002407517222824132,0.0027501916002626043,-0.006950498808521801,0.002648439146550476,0.9895844244679177
2013-08-06,1,0.0016028970663502114,0.0018404553161781834,-0.006082330554873591,0.008828340244091223,0.9909962829470718
2013-08-08,1,0.001999227947255369,0.002271362419243068,-0.006082330554873591,0.008602162677853959,0.9914708182506436
2013-08-12,1,0.0022464967984430527,0.0025311714310428477,-0.006082330554873591,0.009631092762090293,0.9911696888735012
2013-08-14,0,0.0,0.0,-0.006382016327959008,0.009631092762090293,0.9914524974082062
2013-08-16,0,0.0,0.0,-0.005901174011199877,0.009631092762090293,0.9923722161487175
2013-08-20,0,0.0,0.0,-0.00576292915380016,0.010118452224697363,0.9916323839330379
2013-08-22,0,0.0,0.0,-0.005725407833872673,0.009631092762090293,0.9923109352504126
2013-08-26,0,0.0,0.0,-0.004790220006530908,0.010118452224697363,0.99124610879078
2013-08-28,0,0.0,0.0,-0.002338782929558208,0.010118452224697363,0.9917036648286207
2013-08-30,0,0.0,0.0,-0.0027023162481642276,0.010118452224697363,0.991663657785245
2013-09-04,0,0.0,0.0,-0.004523137272260405,0.007735205055310688,0.9922017588146796
2013-09-06,0,0.0,0.0,-0.004931025517508552,0.0062424430781215035,0.9916149793895056
2013-09-10,0,0.0,0.0,-0.007947558873595151,0.005725573460696498,0.9913219911914414
2013-09-12,0,0.0,0.0,-0.006505358030554525,0.005831257453267624,0.9903127151814095
2013-09-16,0,0.0,0.0,-0.006505358030554525,0.006027310588442099,0.9902721163341683
2013-09-18,0,0.0,0.0,-0.009384876370644302,0.005725573460696498,0.9904349722973063
2013-09-20,0,0.0,0.0,-0.009384876370644302,0.0068306024836449295,0.9878680486128816
2013-09-24,1,0.0002616537420161275,0.0005679470356372914,-0.007094906537771753,0.0068306024836449295,0.988199642766969
2013-09-26,1,0.0010292076104536768,0.0010303696219568347,-0.007094906537771753,0.0068929978837694705,0.9877874806430438
2013-09-30,1,0.0007170394186918747,0.0007217734171810555,-0.006484788952933243,0.008339769380382464,0.9875872095474058
2013-10-02,1,0.0007068260463235897,0.0007131911639927526,-0.0075203236382807145,0.008339769380382464,0.9874256674765294
2013-10-04,1,0.0008347277257058758,0.0009083194841771329,-0.006484788952933243,0.009927937205511949,0.9878071948065718
2013-10-08,-1,-9.349033754386032e-05,-3.848392762858543e-05,-0.003949412036917978,0.009927937205511949,0.9889531346047481
2013-10-10,1,0.0011170937433906255,0.0012549090344360237,-0.006309135789627407,0.007925743677987112,0.9900649363051588
2013-10-14,1,0.0009608788500610204,0.001055000799331031,-0.006309135789627407,0.009927937205511949,0.9896132139969017
2013-10-16,1,0.0003886173831488826,0.0003949337061813578,-0.004074303797221046,0.009927937205511949,0.9901157610895268
2013-10-18,1,0.0017610101886297407,0.0019387939954330553,-0.004074303797221046,0.0074635507582195195,0.9928915411845515
2013-10-22,1,0.0024299446253126617,0.00271539617083557,-0.005963729701676362,0.0068563562143976,0.9932288774059946
2013-10-24,1,0.0015735276535389327,0.0017201504541334886,-0.00491244433195425,0.006923552569673169,0.9928989312736746
2013-10-28,1,0.0016488598835093101,0.0017970398660627032,-0.00491244433195425,0.006923552569673169,0.9929552885535046
2013-10-30,1,0.0014844456987751756,0.0016185813958562551,-0.00491244433195425,0.006923552569673169,0.9930741841178052
2013-11-01,1,0.001249610821239663,0.0013222198341354384,-0.004718636361658221,0.004661965067864761,0.9932963542906095
2013-11-05,1,0.0014058923386766303,0.0015095426968886046,-0.005285444874295004,0.004661965067864761,0.9932018695642542
2013-11-07,1,0.001122899365502285,0.0012007281082801733,-0.004718636361658221,0.006923552569673169,0.9919396161459382
2013-11-11,1,0.0009699928376925156,0.000984720935559238,-0.005285444874295004,0.004661965067864761,0.9920025528737677
2013-11-13,1,0.0007520031996598546,0.0007838417059636425,-0.0058928097281674705,0.002777429409091923,0.9917987355810713
2013-11-15,1,0.0009307349561324475,0.0009411990033969474,-0.0058928097281674705,0.004472550754461225,0.9913161273488926
2013-11-19,1,0.00014152690175919748,0.00024049906088413712,-0.0047589972015030175,0.007612097970788455,0.991154752451988
2013-11-21,1,0.0006253061288550642,0.0006711629460223289,-0.0047589972015030175,0.01156084521518671,0.9907297746292063
2013-11-25,1,0.000985213667453434,0.001013831310489731,-0.0047589972015030175,0.008798313992352405,0.991102690390646
2013-11-27,1,0.000832036524920491,0.0008338957935448951,-0.0037624753850580856,0.008798313992352405,0.9913921827899497
2013-12-02,1,0.0007247450265481243,0.0007268692966039385,-0.002036641895962191,0.008798313992352405,0.9914868190957046
2013-12-04,1,0.0007252952548152395,0.0007302595295717889,-0.002036641895962191,0.008798313992352405,0.9912513100783418
2013-12-06,1,0.0014014142019695575,0.0014753063288521153,-0.0030819151375114885,0.008798313992352405,0.9921414916979335
2013-12-10,1,0.0012615202299252131,0.0013756525945638068,-0.002558709283682039,0.008798313992352405,0.992454812472649
2013-12-12,1,0.0007498952878283619,0.0007671079660178916,-0.002558709283682039,0.008798313992352405,0.9924497805729565
2013-12-16,1,0.0011046969338701857,0.001175254270357404,-0.002558709283682039,0.009840409086727914,0.9921298567065444
2013-12-18,1,0.0014530035608062216,0.0015432134037154349,-0.002865194992598278,0.008350551724439818,0.9927200422512826
2013-12-20,1,0.0019034947216835351,0.0020726369773304697,-0.007126319224844955,0.00545277365442968,0.9918930168555433
2013-12-24,1,0.002284720680686673,0.0025213772594031843,-0.011356817061143144,0.002912064480834153,0.9887453275935733
2013-12-27,1,0.0021999730655232748,0.0023598632731842385,-0.011356817061143144,0.003097970956840287,0.9884756367069724
2013-12-31,1,0.002372095384196277,0.0025844813868890555,-0.011356817061143144,0.0028014947295567716,0.9880266044268665
2014-01-03,1,0.002257005907425457,0.00248358848140935,-0.012683654712494958,0.0028014947295567716,0.9863985054941021
2014-01-07,1,0.002191299594310917,0.0023871958145437995,-0.012683654712494958,0.005476296795151303,0.9864551666077688
2014-01-09,1,0.0015544552591229164,0.0016177400146826638,-0.012683654712494958,0.010472586422204985,0.984612903559475
2014-01-13,1,0.0010412523265026933,0.001058489722516321,-0.01661259381530551,0.010472586422204985,0.9836433698717787
2014-01-15,1,0.0017992354787610657,0.001901722504282323,-0.01661259381530551,0.007585161325057956,0.984286723148499
2014-01-17,1,0.0009363720251792249,0.0009784365985106356,-0.014515390282121343,0.00836862231282561,0.984657497465979
2014-01-22,-1,-0.0004411361057186762,-0.00021197186067736123,-0.010394468782832116,0.009014787389629983,0.9858072830395276
2014-01-24,-1,-0.0025942501624069544,-0.0020967610378147114,-0.005275926792280773,0.009014787389629983,0.9880337586697236
2014-01-28,-1,-0.002076618251995732,-0.001668783597902297,-0.00770665809128946,0.009484536093473621,0.9878031252877696
2014-01-30,-1,-0.002195029603480746,-0.0017841131091798654,-0.004649480621187347,0.009970692036341284,0.9876712460518732
2014-02-03,-1,-0.003091605292829916,-0.002604507783439302,-0.0010871816920988069,0.01099301432773826,0.9881035296525446
2014-02-05,-1,-0.0022073612696320256,-0.0018074123817631612,-0.0010871816920988069,0.009484536093473621,0.9893824080585328
2014-02-07,-1,-0.0006339295665469269,-0.00042016594765993133,-0.004649480621187347,0.009014787389629983,0.9914746006045184
2014-02-11,-1,-0.0009627677501670999,-0.0007550917435838403,-0.007641715577729588,0.009014787389629983,0.9915332525750116
2014-02-13,-1,-0.0011899216971601625,-0.0009331697460615175,-0.009391169063890118,0.009014787389629983,0.990805300793018
2014-02-18,-1,-0.0008297196873736821,-0.000645391700112874,-0.009391169063890118,0.00916396618652827,0.9897466340656069
2014-02-20,-1,-0.0007880657316716663,-0.0006093417474139224,-0.007641715577729588,0.00802349598922196,0.9904631369075009
2014-02-24,-1,-0.0008665405413554092,-0.0006642456447479538,-0.007641715577729588,0.007312579912368406,0.9906481203546686
2014-02-26,-1,-0.0007444822087543309,-0.0005539712775707841,-0.009400318259374678,0.007351199464541209,0.9895938122757616
2014-02-28,-1,-0.000826963591686592,-0.0006049667351882977,-0.009400318259374678,0.007435264073492017,0.9895204573267646
2014-03-04,-1,-0.001411940850276642,-0.0010735035450731012,-0.0068796986426320214,0.007435264073492017,0.9895706966116146
2014-03-06,-1,-0.0006557175720871614,-0.0004474826401566883,-0.0068796986426320214,0.01142396430827848,0.9891885732911314
2014-03-10,-1,-0.00048333852105416416,-0.00029650448955358284,-0.01188571890528857,0.0055619327571954525,0.9888409341432935
2014-03-12,-1,-0.0019274949841595788,-0.0015326651692316815,-0.005496839626852609,0.01142396430827848,0.9891227047019779
2014-03-14,-1,-0.0015812674562594021,-0.0013262948754638707,-0.00577243383293655,0.01142396430827848,0.9889718215610683
2014-03-18,-1,-0.00045998131636172196,-0.0003451524792719953,-0.00577243383293655,0.010096904528488913,0.9895820184045856
2014-03-20,-1,-0.0008294799823057897,-0.0006620685388514571,-0.00577243383293655,0.01142396430827848,0.9880911652235722
2014-03-24,-1,-0.0006258679709127337,-0.0005066599163460631,-0.00577243383293655,0.01142396430827848,0.9882493063478616
2014-03-26,-1,-0.0008871846123326901,-0.0007236475773114132,-0.004388479522152246,0.010096904528488913,0.990018409081288
2014-03-28,-1,-0.0006334733636587312,-0.0005040898146876135,-0.004388479522152246,0.009319623620039038,0.9898655270816722
2014-04-01,1,0.00016017083810740922,0.0001965082442678673,-0.004388479522152246,0.009319623620039038,0.9892975934056568
2014-04-03,1,3.853623582331694e-05,0.00011194565482266816,-0.006672299258139734,0.008352347475185753,0.9895121026105628
2014-04-07,-1,-0.0006838310491229894,-0.0005515827341939203,-0.00628874643032651,0.008352347475185753,0.9905359959110412
2014-04-09,1,0.0003778944255727712,0.0003791094502070281,-0.00628874643032651,0.007884909657235439,0.9913671140477394
2014-04-11,-1,-0.0006061172508125728,-0.0004972893573466549,-0.0034200048240387105,0.008352347475185753,0.9918809589072711
2014-04-15,-1,-0.0003871040762730194,-0.00026954691980640634,-0.00628874643032651,0.005004160939323462,0.9922473190130414
2014-04-17,1,0.0007850070935973123,0.000830375960627526,-0.00660713414293734,0.0030170181396853846,0.9924325608358028
2014-04-22,1,0.0007460917953767736,0.0008066508999004904,-0.0072531615864853995,0.0038688521299011605,0.9913628806655687
2014-04-24,1,0.000565180682967427,0.000593379413715363,-0.0072531615864853995,0.004563083723347643,0.9909050081166602
2014-04-28,1,2.642877265830772e-06,5.764934304818006e-05,-0.00660713414293734,0.00857279975952675,0.9907554265554466
2014-04-30,1,0.0009292405730221791,0.000984572050401942,-0.00660713414293734,0.004563083723347643,0.9920446984068713
2014-05-02,1,0.000980715822926232,0.0011082327460975082,-0.0052321282142650674,0.004953901948222974,0.9925501892055072
2014-05-06,1,0.0002779891566476479,0.00028037773695773713,-0.0032737554605928314,0.004953901948222974,0.9930394255631227
2014-05-08,1,0.0003564329542954625,0.00036765696588058055,-0.0032737554605928314,0.007263443493676156,0.9924707697928676
2014-05-12,1,0.0012209727094610338,0.0013573306876172309,-0.0032737554605928314,0.0071284133403122325,0.9931783690589068
2014-05-14,1,0.0010691518004648367,0.0012193683791439907,-0.0036007943007797354,0.0071284133403122325,0.9927414546345583
2014-05-16,1,0.0010794837201522928,0.0012862672404819909,-0.0010399043869698723,0.0071284133403122325,0.9937709083886571
2014-05-20,1,0.0007448050005331698,0.0009206984284620475,-2.052958493361846e-05,0.0071284133403122325,0.994762692283021
2014-05-22,1,0.001029598575793698,0.0012559281808005684,-2.052958493361846e-05,0.0060103816392020415,0.9952825041711009
2014-05-27,1,0.001912795247677772,0.002265738009654575,-0.003400208801058395,0.004297127197130176,0.9953951481622597
2014-05-29,1,0.0017181599930170925,0.002025522464003786,-0.0026043048053947886,0.004297127197130176,0.9954687874082372
2014-06-02,1,0.002080750162294994,0.00244364892114167,-0.0026043048053947886,0.0021019248482852817,0.995364290291392
2014-06-04,1,0.0019627951516670737,0.0022990360518310277,-0.004185228951147546,0.0035434470131838628,0.9949232261036658
2014-06-06,1,0.002366451141993779,0.0027355206278027603,-0.004811967497049778,0.0021019248482852817,0.9944307910311272
2014-06-10,1,0.003162117658803105,0.003687962459329666,-0.005094098769203578,0.0017235360309174347,0.9934415782289356
2014-06-12,1,0.0022425509220400323,0.0026218718037448025,-0.005094098769203578,0.0019006481817826577,0.9945381872900115
2014-06-16,1,0.001638901295235178,0.0018632127060191719,-0.005094098769203578,0.0019006481817826577,0.9948247153309814
2014-06-18,1,0.0006967886508412104,0.0007201540157590394,-0.006668836372483575,0.0019006481817826577,0.9937915953969222
2014-06-20,1,0.0005378928074709692,0.0005717727254830154,-0.006668836372483575,0.0024211555332941037,0.9933375053562671
2014-06-24,-1,-0.00025353831932426,-0.00011279177312094801,-0.0037737710726082696,0.004105133087823579,0.9939033418754208
2014-06-26,-1,-0.0012556178983219337,-0.0009233142942565607,-0.0037737710726082696,0.004105133087823579,0.9939246072135643
2014-06-30,-1,-0.0007302398638206239,-0.0005054276655648761,-0.009647717641256374,0.004105133087823579,0.9919717708583948
2014-07-02,1,0.00039252341028404804,0.00039751687447186286,-0.010311075110761713,0.0024211555332941037,0.9911943811814409
2014-07-07,-1,-0.0002190154145326931,-0.00010566587476606683,-0.009647717641256374,0.0024211555332941037,0.9914381461558414
2014-07-09,-1,-0.000647014352923082,-0.00048158753061624507,-0.010918503371587259,0.0024211555332941037,0.9895461860278354
2014-07-11,-1,-0.0008441484862724703,-0.0006734742863638999,-0.007721061388591716,0.004105133087823579,0.9893833609124975
2014-07-15,-1,-0.000769926166550289,-0.0006078964516438601,-0.007721061388591716,0.005329810307232688,0.9891560907283392
2014-07-17,-1,-0.0011634864209263867,-0.0009628476215169684,-0.005309162192150041,0.005297269716619835,0.9901665923253767
2014-07-21,-1,-0.0007853430724361068,-0.0006358817696904804,-0.006628869371324718,0.005297269716619835,0.9898166500334385
2014-07-23,-1,-0.0005615703772018353,-0.0004527187003513729,-0.006628869371324718,0.0064683445664915394,0.9887461530314207
2014-07-25,-1,-0.0006566829791379759,-0.0005404410102263831,-0.0071418896487936995,0.0064683445664915394,0.9882876459652569
2014-07-29,-1,-0.0018164481786166395,-0.0015823559999993172,-0.006628869371324718,0.006782230256208474,0.9894235204922887
2014-07-31,-1,-0.002396053571589072,-0.0021068098507823103,-0.006628869371324718,0.006782230256208474,0.9899694133549727
2014-08-04,-1,-0.0025920290720927545,-0.0022341279448989167,-0.006404706445616617,0.0065385148604194835,0.9901442342511885
2014-08-06,-1,-0.004416903722485887,-0.003805391005993623,-0.005406312268688566,0.006782230256208474,0.9909622699826126
2014-08-08,-1,-0.0033490623383504664,-0.0029141335145183482,-0.005406312268688566,0.006782230256208474,0.9918740602687935
2014-08-12,-1,-0.003313336200623483,-0.0028736950440074625,-0.005406312268688566,0.007039247390749261,0.9919329723012799
2014-08-14,-1,-0.003084217650666245,-0.0026689676649408263,-0.005406312268688566,0.007039247390749261,0.9925340730107611
2014-08-18,-1,-0.002668405844246218,-0.0023010134036718847,-0.005258001150746381,0.006631888682603293,0.9934530628628422
2014-08-20,-1,-0.001504050608575014,-0.0012837061145424956,-0.005258001150746381,0.005814598726900111,0.9946865051240577
2014-08-22,-1,-0.0016815815766348988,-0.0014789948689927568,-0.005157810906834709,0.005814598726900111,0.9942869514082635
2014-08-26,-1,-0.0015912338501579708,-0.0014107577173629532,-0.005157810906834709,0.005814598726900111,0.9942022315173519
2014-08-28,-1,-0.0023152845851934652,-0.0020060996258117287,-0.005157810906834709,0.006624187238599746,0.993407589406364
2014-09-02,-1,-0.0013879029639009845,-0.001232321605594919,-0.005157810906834709,0.005902838253081556,0.9938275738651685
2014-09-04,-1,-0.0015710176371831843,-0.0013481213155244129,-0.005472907891320551,0.002447344429185652,0.9936297475447002
2014-09-08,-1,-0.0011775906648573819,-0.0010314194439607896,-0.005472907891320551,0.002447344429185652,0.9935963862088694
2014-09-10,-1,-0.000259153934767865,-0.0002514762645008624,-0.00661788010619726,0.002447344429185652,0.9915415100967225
2014-09-12,-1,-0.0005766722092764979,-0.0005390658443660728,-0.010788651565140422,0.002447344429185652,0.9903850403151272
2014-09-16,-1,-0.0006991140205913837,-0.0006459883554906177,-0.015827286489678623,0.006269619028634881,0.9875137265361854
2014-09-18,-1,-0.000857784604915735,-0.0007697703356310142,-0.015827286489678623,0.008549028163550403,0.9863876096404024
2014-09-22,-1,-0.0008958086248747163,-0.0008597621117877574,-0.01277937880572163,0.009320612535348096,0.9858946891460545
2014-09-24,-1,-0.0010359733350182182,-0.0009595806351429978,-0.016605741977376128,0.010091366260384444,0.9838027692455588
2014-09-26,-1,-0.00099243209911817,-0.0008946800249087711,-0.013683768189403082,0.013198952022280611,0.981638637615251
2014-09-30,-1,-0.0008361818996257158,-0.0007669577602683228,-0.013683768189403082,0.02135855008926512,0.9791392839482276
2014-10-02,-1,-0.0009694027355596562,-0.0009019910460218046,-0.007803870542152179,0.02135855008926512,0.9795484528470536
2014-10-06,-1,-0.0008854659339422183,-0.000816076445359269,-0.007803870542152179,0.02135855008926512,0.9791429631078565
2014-10-08,-1,-0.0007896434121614278,-0.0007202279339368939,-0.005383568064131856,0.019393676491476556,0.9807582874868618
2014-10-10,-1,-0.0016166973779285702,-0.0014373921347926857,-0.0023041913105552054,0.019393676491476556,0.9815621483330541
2014-10-14,-1,-0.002365756540669367,-0.0021062435851520447,-0.0022163702914787466,0.019393676491476556,0.9843132994821456
2014-10-16,-1,-0.0015816063913765505,-0.0014410993805248533,-0.0022163702914787466,0.013040780938943225,0.985365114272994
2014-10-20,-1,-0.0012514003140482715,-0.0011517999376314007,-0.0009202974206772583,0.011202672737888494,0.9861517103461428
2014-10-22,-1,-0.0007507059087358503,-0.0007213764964146654,-0.0009202974206772583,0.011202672737888494,0.9881668116367329
2014-10-24,1,0.0005410301835757864,0.0006780748203608889,-0.0009202974206772583,0.010877247419728939,0.9911090882422336
2014-10-28,1,0.001719804099534531,0.0020347528143709556,-0.0009202974206772583,0.009608288323225755,0.9938749988151482
2014-10-30,1,0.0021042953076215176,0.0024835786773244606,-0.002812969852574463,0.009608288323225755,0.9927828467942743
2014-11-03,1,0.0022157493763244386,0.002587175369171689,-0.004359584713817381,0.008118067091817767,0.992896564596466
2014-11-05,1,0.002444888191629255,0.0028515025433001988,-0.008513635532484597,0.008118067091817767,0.991856163441553
2014-11-07,1,0.002585803390030484,0.0030203780957479233,-0.009724978331146283,0.008118067091817767,0.9909322337334548
2014-11-11,1,0.0025093605409758817,0.002929614346273796,-0.01107439342086176,0.008118067091817767,0.9897935830577884
2014-11-13,1,0.0021415427697773102,0.0024934131359363844,-0.011233448897314324,0.008118067091817767,0.9890975066628784
2014-11-17,1,0.002425617199173227,0.0028164061733507023,-0.011233448897314324,0.00702934831755037,0.9886254629668477
2014-11-19,1,0.00253040660761867,0.002935935635813868,-0.011233448897314324,0.008118067091817767,0.9879199646287289
2014-11-21,1,0.002972062774576657,0.0034387898035187956,-0.011233448897314324,0.008525300973678188,0.9877366807709224
2014-11-25,1,0.0030837135782172216,0.0035614798971666693,-0.011233448897314324,0.010807195097384481,0.9873632692997896
2014-11-28,1,0.002330685534362561,0.002693565511485488,-0.009723007512802688,0.010807195097384481,0.9887594533605072
2014-12-02,1,0.002230535111739736,0.002566989846924828,-0.009696761354929672,0.010807195097384481,0.9887147481601956
2014-12-04,1,0.0023422743474844623,0.0026969158147844476,-0.009696761354929672,0.0077899796921191335,0.9881464788599643
2014-12-08,1,0.0018249219401296648,0.002092211153722476,-0.009696761354929672,0.008548657493195362,0.9881463253553192
2014-12-10,1,0.001526772834493101,0.0017657182814323374,-0.007034820494072096,0.010807195097384481,0.9879202377531265
2014-12-12,1,0.0011870460476176173,0.0013829932501964002,-0.007034820494072096,0.010807195097384481,0.9886517812181312
2014-12-16,1,0.0008978491173321141,0.0010523994724197035,-0.011104154812851952,0.010807195097384481,0.987706994359458
2014-12-18,1,0.0013989005237756203,0.0015655189735752075,-0.011104154812851952,0.008182640816384605,0.9891648950366646
2014-12-22,1,0.001474416222050803,0.0016194787154704088,-0.011104154812851952,0.0073547130956514856,0.9895315869924746
2014-12-24,1,0.0016375140444999962,0.0018105249663896896,-0.011104154812851952,0.0066594061012095526,0.9893610582695188
2014-12-29,1,0.001064170353814026,0.0010930262274874785,-0.013283026328049303,0.0066594061012095526,0.9872261097771418
2014-12-31,1,0.0008341607006100999,0.0008452380420325175,-0.014532585208700825,0.0073547130956514856,0.9865526277742773
2015-01-05,-1,-0.00016716522999795882,-6.345640406115068e-05,-0.013283026328049303,0.008463609704238628,0.9868899751126401
2015-01-07,-1,-0.0002769109351840685,-0.0001692906085743082,-0.012683567210884192,0.008463609704238628,0.9871222273826963
2015-01-09,1,0.0004070379107933896,0.0004252611849435977,-0.012683567210884192,0.007448369391602826,0.9887570709588099
2015-01-13,1,0.0004333358531572925,0.0004530072111757611,-0.01176902838349653,0.007448369391602826,0.9888874311941209
2015-01-15,-1,-0.0006948775104734001,-0.0005602053073167219,-0.00788485771806821,0.010032332217975077,0.9887994932208866
2015-01-20,-1,-0.0004690429341326575,-0.0003574734851466615,-0.00788485771806821,0.00916258570069666,0.9889680790767161
2015-01-22,-1,-0.00030863558779075214,-0.00020134389847091636,-0.00788485771806821,0.007890072539052499,0.9894154552561163
2015-01-26,-1,-0.00024412590581830332,-0.00015593811996624838,-0.007136276073121383,0.0068537354753157535,0.9897671859188426
2015-01-28,-1,-0.001302833664170912,-0.00110213534106296,-0.0032423288211150124,0.0068537354753157535,0.9917420309218727
2015-01-30,-1,-0.0014057583059910235,-0.001195943362628631,-0.003185774941575579,0.006022076915795245,0.9926076738802192
2015-02-03,-1,-0.00028199413732750693,-0.000213214227527851,-0.004276963318142799,0.0036498623440140367,0.9939530713863687
2015-02-05,-1,-0.000589966204872935,-0.0004762400659384192,-0.004276963318142799,0.0036498623440140367,0.9929550946803963
2015-02-09,-1,-0.0006010048503120498,-0.0004784884055764789,-0.005068002385303614,0.0036498623440140367,0.9925133125280159
2015-02-11,-1,-0.0006951039163812928,-0.0005627365897152903,-0.004276963318142799,0.006204997230137557,0.9923837421315956
2015-02-13,-1,-0.0002919626168597026,-0.00018154543381832086,-0.004791776461989144,0.004200379630523163,0.9926363767899552
2015-02-18,-1,-0.0006148476364416469,-0.00046698770191063897,-0.004605379842402502,0.006204997230137557,0.9919529853731552
2015-02-20,-1,-0.0005878815289926256,-0.0004326225917774758,-0.005268041118913351,0.006204997230137557,0.9912543181680646
2015-02-24,-1,-0.0007190056259185303,-0.0005464403113859197,-0.00674186479331822,0.006204997230137557,0.990981088807904
2015-02-26,-1,-0.0012544549715218412,-0.0009858602276235071,-0.010407976271570226,0.006204997230137557,0.9898992138796416
2015-03-02,-1,-0.0010102765709837868,-0.000779909229912979,-0.010407976271570226,0.006591929917269797,0.9896179046521069
2015-03-04,-1,-0.001482728419157283,-0.001204207859723268,-0.00674186479331822,0.006591929917269797,0.9901372003333425
2015-03-06,-1,-0.0026476954589897753,-0.002193762387271689,-0.005268041118913351,0.006738777425039239,0.9903970270718198
2015-03-10,-1,-0.0035280175231488355,-0.002923966980027019,-0.005268041118913351,0.006738777425039239,0.9905590328023555
2015-03-12,-1,-0.0026445918508083417,-0.0021833303213075173,-0.005268041118913351,0.006441993270853218,0.9909029869143873
2015-03-16,-1,-0.0023521280523428117,-0.0019291854124572692,-0.004602060547399581,0.005818745431428709,0.9916828838597388
2015-03-18,-1,-0.0015356833500808735,-0.001222162056501618,-0.00370748196757484,0.005818745431428709,0.9918769725719672
2015-03-20,-1,-0.0020090768024305806,-0.0016807053437734613,-0.00370748196757484,0.006441993270853218,0.9915936284113261
2015-03-24,-1,-0.001451291482275881,-0.001257852574321035,-0.00370748196757484,0.0075030728880200095,0.9914744526068605
2015-03-26,-1,-0.0016605005749471356,-0.0014667498430385021,-0.00370748196757484,0.0075030728880200095,0.992282790327033
2015-03-30,-1,-0.0007907091685296258,-0.000722532987185852,-0.0047360344081581775,0.007481424823187206,0.9904225242681904
2015-04-01,-1,-0.0007007300162826944,-0.0006557753384410839,-0.005145645878155864,0.007481424823187206,0.9904053867021453
2015-04-06,1,0.00023542027470444893,0.0003171041383366892,-0.005145645878155864,0.008501082094680657,0.9910204417954029
2015-04-08,-1,-0.00027903690456381803,-0.0002702799217456886,-0.005145645878155864,0.008501082094680657,0.9910121491534666
2015-04-10,-1,-0.0001784050833607217,-0.00016905308355028386,-0.005145645878155864,0.008501082094680657,0.9911125437794581
2015-04-14,1,0.00017241615679294952,0.0002506857956590541,-0.005513458687013156,0.008501082094680657,0.9908069443493835
2015-04-16,1,0.0006969862127091774,0.0008537229328926432,-0.005513458687013156,0.01096591524840992,0.9906884935424238
2015-04-20,1,0.0009144311978588995,0.0011337029333584967,-0.005513458687013156,0.008501082094680657,0.990963884117314
2015-04-22,1,0.001274859160089939,0.0015549282779492514,-0.005110952126373218,0.006864961150832991,0.9913245854761396
2015-04-24,1,0.0006240822904950457,0.0007742468542469293,-0.004914260454109628,0.008585420135877334,0.9905780001305622
2015-04-28,1,0.0003521535398323146,0.0004669357505663461,-0.004914260454109628,0.006864961150832991,0.9921884551494111
2015-04-30,1,0.00016243696260506208,0.00026233650453062296,-0.006297970832380839,0.006864961150832991,0.9913675481814606
2015-05-04,1,0.0004661538273086212,0.0005830090664230915,-0.006297970832380839,0.005153025056159167,0.9922217347953004
2015-05-06,1,0.00010707081649922431,0.0001479802434687551,-0.006297970832380839,0.005197619980105966,0.9919331825988881
2015-05-08,-1,-4.0816832656913075e-05,-3.7635160351605124e-05,-0.007511589570289464,0.005197619980105966,0.9917057592637577
2015-05-12,-1,-0.00023120060216613259,-0.00018610545829257045,-0.007511589570289464,0.005197619980105966,0.9917500288340616
2015-05-14,1,0.0010788434787926686,0.0012754539117715768,-0.008677547763900591,0.0035581443719971454,0.9925470397161468
2015-05-18,1,0.001029043695153096,0.0012496998031316644,-0.008267615664020867,0.0027420547630744884,0.9930349000401631
2015-05-20,1,0.0011319854392625509,0.0013789288798913193,-0.008267615664020867,0.002919677034019479,0.9933109348154845
2015-05-22,1,0.0015229755202878438,0.0018222561872914128,-0.008267615664020867,0.002919677034019479,0.9940389794359255
2015-05-27,1,0.0011371899506370624,0.0013632536241104227,-0.007357603145900393,0.002919677034019479,0.9947721467244184
2015-05-29,1,1.8741569440463135e-05,3.923859365011125e-05,-0.003793750995825648,0.002919677034019479,0.9953761196120918
2015-06-02,1,1.7764347607031065e-05,2.7852800375315588e-05,-0.007357603145900393,0.004284803475683165,0.9941381973282953
2015-06-04,1,0.00010214469261520372,0.00016333622754757292,-0.0071152745057934995,0.004328244998874093,0.9943977991114957
2015-06-08,-1,-0.000134908814259576,-0.00012254852329665004,-0.00741265690595486,0.004328244998874093,0.9942651339076474
2015-06-10,-1,-0.0003278765425352503,-0.0002694852957097009,-0.008254160416909196,0.0032253029118893962,0.9935007681923412
2015-06-12,-1,-0.0003756671869106471,-0.000330578446047054,-0.00741265690595486,0.004328244998874093,0.9935079281288488
2015-06-16,-1,-0.0003418748079664963,-0.0003181616219747444,-0.007527174496588517,0.005264852470324471,0.9929279810857142
2015-06-18,-1,-0.00019380320274641892,-0.0001861986552055265,-0.008000068700936459,0.005649230194262318,0.9924352678843421
2015-06-22,-1,-0.0007920050077677499,-0.0006605311276649825,-0.009167046481455008,0.005649230194262318,0.9920345231649489
2015-06-24,-1,-0.0007911990109669943,-0.0006506261221105526,-0.009167046481455008,0.004054927359522134,0.9920147855370057
2015-06-26,-1,-0.0004989085359958822,-0.00044049578423436295,-0.008167274972782645,0.004054927359522134,0.9917403367924978
2015-06-30,-1,-0.0009405919252863067,-0.0008234197815256706,-0.007936116529137133,0.005488666064820358,0.9918844297918407
2015-07-02,-1,-0.0008766237201354261,-0.0007719180984342778,-0.007936116529137133,0.005488666064820358,0.992047321297535
2015-07-07,-1,-0.0008845481534657785,-0.000776432799678607,-0.007936116529137133,0.005488666064820358,0.9905784434175212
2015-07-09,-1,-0.0011569502545860375,-0.0010575044303685016,-0.007827362949492949,0.005907456851092509,0.9903922009143726
2015-07-13,-1,-0.0010989968980021116,-0.0009913353504187677,-0.007827362949492949,0.006709195215259224,0.989122585530671
2015-07-15,-1,-0.0010457047504876913,-0.0009575401195675379,-0.007827362949492949,0.006165205866802596,0.9888892251486622
2015-07-17,-1,-0.0010093118802942704,-0.0009225211582499972,-0.005878080153750109,0.005474758356151587,0.989442199575623
2015-07-21,-1,-0.0012350310098080115,-0.0011197298041298771,-0.005878080153750109,0.005474758356151587,0.9897298970323214
2015-07-23,-1,-0.0012898731709371776,-0.0011815285029935555,-0.008349151275889661,0.005474758356151587,0.9882096005538958
2015-07-27,-1,-0.002308974711242582,-0.00206220970131542,-0.014436580579640129,0.005474758356151587,0.9863555154734348
2015-07-29,-1,-0.0011220611434368149,-0.0009770579211197353,-0.019343597194463897,0.004003194430025767,0.9854269573018384
2015-07-31,-1,-0.0014916022806422081,-0.0012939372379198468,-0.019343597194463897,0.004003194430025767,0.9839519400339496
2015-08-04,-1,-0.002120799904290094,-0.001871541159883798,-0.018584814721494054,0.005852385691412588,0.9846743995922286
2015-08-06,-1,-0.0011095699133512299,-0.0009974922601958007,-0.018584814721494054,0.005852385691412588,0.9852127070040729
2015-08-10,1,0.00031952829369064897,0.0004174768366856905,-0.018584814721494054,0.005852385691412588,0.9846319706513604
2015-08-12,-1,-0.00030773898461014873,-0.00028517376093542177,-0.015391205549713466,0.004171176179171033,0.9850468386604149
2015-08-14,-1,-0.0005909187717622141,-0.0005332122646129695,-0.015391205549713466,0.006848997945990909,0.9842520637040308
2015-08-18,-1,-0.0008947313930612361,-0.0007866178119877707,-0.015391205549713466,0.008860557019568902,0.982995872265502
2015-08-20,-1,-0.0017602732626968531,-0.0015629879371415545,-0.018762939661491493,0.008860557019568902,0.9820734400898715
2015-08-24,-1,-0.002328583434875321,-0.002065362934572347,-0.01414107942143796,0.008860557019568902,0.9838745504423996
2015-08-26,-1,-0.0015148045070342891,-0.0013973348329629621,-0.01414107942143796,0.006848997945990909,0.984378727421865
2015-08-28,-1,-0.0014313412289591167,-0.0012907892533754331,-0.015391205549713466,0.006303885707023156,0.9850299009414998
2015-09-01,-1,-0.001556297290849197,-0.0014115742135594892,-0.01414107942143796,0.008299390040490358,0.9848922129266289
2015-09-03,-1,-0.0016019130441667644,-0.0014568468596530327,-0.01414107942143796,0.008832948092640782,0.9842096963004766
2015-09-08,-1,-0.0007392945981682092,-0.0007191527840460039,-0.013232945387133292,0.008832948092640782,0.9839668239182519
2015-09-10,-1,-0.0014187838440370304,-0.0013195281023108006,-0.012458757830552766,0.01571218775685361,0.9826231720403287
2015-09-14,-1,-0.0011855840332509688,-0.001137464882968133,-0.012327248848717418,0.01571218775685361,0.9830742359031003
2015-09-16,-1,-0.0003366623179608091,-0.0003013325777508133,-0.014416989216609681,0.01002325482706316,0.9831552201645262
2015-09-18,-1,-0.002219909911000174,-0.002040569820752727,-0.012336821516696433,0.01002325482706316,0.9854548030399242
2015-09-22,-1,-0.0022844485972450404,-0.0020722522285738136,-0.012336821516696433,0.01571218775685361,0.9847999651067438
2015-09-24,-1,-0.002323762255045986,-0.0021344805788350444,-0.01215723436697738,0.01571218775685361,0.9859680914586282
2015-09-28,-1,-0.003746900489690656,-0.003385188295851784,-0.010265313726308586,0.018108412010318455,0.9855154449085367
2015-09-30,-1,-0.0022962164242528687,-0.00210878810793582,-0.010265313726308586,0.016639223080886688,0.9861558395395241
2015-10-02,-1,-0.0011955403718289029,-0.0011515861970970574,-0.00907857309446286,0.014948545651622092,0.9868404277251505
2015-10-06,-1,-0.0005920410119707916,-0.0005206113372833497,-0.00907857309446286,0.014948545651622092,0.9879351253030185
2015-10-08,1,0.0009462369150708436,0.0012136603780514125,-0.010265313726308586,0.00700020422301333,0.9893088020013948
2015-10-12,1,0.0002773960223766662,0.00045209582356562673,-0.012415760163514995,0.006434971831713396,0.9882506184710405
2015-10-14,-1,-0.0002808553397297595,-0.00015784758390240735,-0.010327304294084794,0.006434971831713396,0.9897619582193241
2015-10-16,-1,-0.0005815175203667614,-0.0004981103081529019,-0.010327304294084794,0.007748472129217364,0.9887902173558443
2015-10-20,1,0.00012544856422857799,0.00026126114765307286,-0.010684644955612752,0.007748472129217364,0.988617548644125
2015-10-22,-1,-0.00012651798922357174,-1.0830381672253836e-05,-0.010684644955612752,0.014725288238178341,0.9878825258361528
2015-10-26,-1,-0.0005969870877105833,-0.0005622637655609009,-0.005780656457893282,0.012153963191513288,0.9892433517209852
2015-10-28,1,0.0003624712569984042,0.0005217985177214018,-0.005780656457893282,0.006906025253597297,0.9901648018734427
2015-10-30,1,0.00039302757969940534,0.0005864495662100158,-0.005780656457893282,0.006392530798825869,0.9904861064382255
2015-11-03,1,0.0009820152978111348,0.0012337874042326526,-0.011416349656346865,0.0041240279353280205,0.9902164156273483
2015-11-05,1,0.0009277803081315552,0.0011660026529847773,-0.010351838405707966,0.006392530798825869,0.9901502474588466
2015-11-09,0,-9.14427823757928e-05,2.5317982509157923e-05,-0.010351838405707966,0.006392530798825869,0.9895728487486892
2015-11-11,1,0.00013003962297393468,0.00028372519917660443,-0.010351838405707966,0.006392530798825869,0.9897624409761445
2015-11-13,-1,-0.00021046138848281168,-8.815527024411682e-05,-0.010351838405707966,0.004771384730347937,0.9903304532481948
2015-11-17,-1,-0.00029932627098708036,-0.00020660657560680334,-0.007479071716822106,0.004771384730347937,0.9901481812411965
2015-11-19,1,0.0006048756280929744,0.0007980780140797727,-0.015355237547715481,0.0023212624994657393,0.9888150356904426
2015-11-23,1,0.00029128470826795215,0.0004464943907223892,-0.015355237547715481,0.00395240050714151,0.9876857544980229
2015-11-25,1,0.0005979074405998077,0.0008108712381333972,-0.015355237547715481,0.006800585827188227,0.986213447035961
2015-11-30,1,0.00042779395286341235,0.0005618866845044463,-0.015355237547715481,0.006742105629713914,0.9856348226887967
2015-12-02,-1,-0.00013124460529861676,-5.401621236463696e-05,-0.014495456387776658,0.006742105629713914,0.9856812301706951
2015-12-04,1,0.00025145143206057094,0.00037250960622534876,-0.01650822618465151,0.0042848689225733,0.9855143567401515
2015-12-08,-1,-0.0011582383311757728,-0.0011071456805836401,-0.014495456387776658,0.0042848689225733,0.9864656632693423
2015-12-10,-1,-0.0010595498205338881,-0.00100857332448578,-0.01650822618465151,0.0042848689225733,0.9858181525501041
2015-12-14,-1,-0.0016875317372907009,-0.0015521377474033123,-0.014495456387776658,0.0042848689225733,0.9866490010671203
2015-12-16,-1,-0.0003302917869029581,-0.00032326088262874246,-0.01650822618465151,0.0042848689225733,0.986076465440521
2015-12-18,-1,-0.0017817568785665912,-0.0016709924563022226,-0.014241479080278681,0.0042848689225733,0.988226828412984
2015-12-22,-1,-0.00047746524833666845,-0.00043224928621360013,-0.014241479080278681,0.005045372948305412,0.9874954893462156
2015-12-24,-1,-0.0003499032284678421,-0.00034554774046688505,-0.015746294262157578,0.0034177893337223168,0.9862302809349346
2015-12-29,1,9.221318229345448e-05,0.00018570726063401802,-0.015746294262157578,0.003753281174612005,0.9858024459949952
2015-12-31,1,1.1762550462513476e-06,0.0001504488083201502,-0.015746294262157578,0.01193554233554531,0.9851264049065502
2016-01-05,-1,-0.00043656973708427365,-0.00036255176791592683,-0.013810400821658408,0.017799588771670347,0.984411506119909
2016-01-07,-1,-0.001054244683406444,-0.0010470438216359174,-0.009244182756817999,0.02224051476251036,0.9838802302365817
2016-01-11,-1,-0.0014446844256271398,-0.001387183881498573,-0.009244182756817999,0.02224051476251036,0.9839804484382729
2016-01-13,-1,-0.0023334479972222924,-0.002125412302576012,-0.011457134382313425,0.02224051476251036,0.982207461450816
2016-01-15,-1,-0.0034588055224896936,-0.0030792308555793787,-0.00879613273243831,0.024802939438750875,0.9823112918672087
2016-01-20,-1,-0.0033122907392462934,-0.0029576572086495575,-0.005135917120306535,0.024802939438750875,0.982165211625739
2016-01-22,-1,-0.0019170048745026495,-0.001768709750725699,-0.00825679684160046,0.025398311954394348,0.9827041558095624
2016-01-26,-1,-0.0009965326473279567,-0.0009443086770322963,-0.00825679684160046,0.024802939438750875,0.9846120330460588
2016-01-28,-1,-0.0006236301481370274,-0.0006101563671758882,-0.00825679684160046,0.01655600113439565,0.9853864237992761
2016-02-01,1,0.0003625632342504045,0.0005178550141792616,-0.008946213665264055,0.01655600113439565,0.9855490179404746
2016-02-03,1,0.0008187570112255251,0.0010007759490273166,-0.005261786772209745,0.01199708066587427,0.9865096353423569
2016-02-05,1,0.0014441843358864153,0.001706571760619726,-0.005261786772209745,0.01199708066587427,0.987410396947645
2016-02-09,1,0.0014760037360800134,0.0018027417052127047,-0.004408318082544667,0.01199708066587427,0.9873108594303707
2016-02-11,1,0.00012559329838326825,0.0001723757744492822,-0.0035553334625950967,0.014440900134200615,0.9879043621428304
2016-02-16,1,0.0008022662127943495,0.0009433540341703606,-0.0035553334625950967,0.01199708066587427,0.9893068964135963
2016-02-18,1,0.0005091498244206821,0.00056616927851391,-0.0035553334625950967,0.01590432641093324,0.9881681463511406
2016-02-22,1,0.0005416675578948563,0.0005477026913657331,-0.0023403241052610403,0.012484889424785144,0.9898385709026505
2016-02-24,1,0.0006238512863254681,0.0006772821688100897,-0.0023524553869646403,0.012484889424785144,0.9902157790742497
2016-02-26,1,0.0008893271806527271,0.0010004163574018985,-0.0035553334625950967,0.012484889424785144,0.9902215498552842
2016-03-01,1,0.0018827422577323296,0.0021698496582827813,-0.0023524553869646403,0.009369182698282238,0.9919124240332797
2016-03-03,1,0.0027717617774783735,0.0032450573429830916,-0.0023524553869646403,0.0068350051394528285,0.9922932407813028
2016-03-07,1,0.0030480867102398836,0.0035369719310899307,-0.005381460479938594,0.006662754031957542,0.9916333715570143
2016-03-09,1,0.002180541108271615,0.002502252817764055,-0.004456583311117582,0.00607519552341255,0.9925511565294777
2016-03-11,1,0.0021082746079817485,0.0023960949044977073,-0.0026528720031388023,0.00607519552341255,0.9931899010773245
2016-03-15,1,0.002460662088245573,0.0028293921079919184,-0.0026528720031388023,0.006832280986630469,0.9929945798061712
2016-03-17,1,0.0033639027053156377,0.003820775769320298,-0.0026528720031388023,0.006238224289693548,0.9939430028596576
2016-03-21,1,0.0032947357930631907,0.0037509008308673495,-0.003292697932006211,0.006238224289693548,0.9939597731073019
2016-03-23,1,0.0030557798375574073,0.0034978340310196287,-0.0043785096053775615,0.006238224289693548,0.9942047812165818
2016-03-28,1,0.003077394382320338,0.0035419476966237788,-0.0043785096053775615,0.006832280986630469,0.993916755180764
2016-03-30,1,0.0034557056222305356,0.004003345410172573,-0.0043785096053775615,0.008147578254503783,0.9932226454568259
2016-04-01,1,0.0034785177235494742,0.004014172289784825,-0.004998300064008268,0.008147578254503783,0.9926349100530638
2016-04-05,1,0.0022748190262893223,0.0025971867029545128,-0.004589010918707995,0.008147578254503783,0.9927153297011229
2016-04-07,1,0.0022759001169620338,0.0025965713077194014,-0.004998300064008268,0.008147578254503783,0.9917169394060493
2016-04-11,1,0.002144494822862899,0.0024068684349762923,-0.005356826604120809,0.007832228380392891,0.9911518025199811
2016-04-13,1,0.002517394853653384,0.0028392083263125583,-0.005356826604120809,0.007832228380392891,0.9904765973165579
2016-04-15,1,0.003188598267000787,0.003638612192752094,-0.0073939914506602235,0.0063447249135791615,0.9893901963460737
2016-04-19,1,0.003100930214274311,0.003528921723137632,-0.0073939914506602235,0.007832228380392891,0.988580812664793
2016-04-21,1,0.0028479896917468035,0.003246356423954878,-0.01293262563304112,0.007832228380392891,0.987855550845398
2016-04-25,1,0.0029819301079971913,0.00340779763143649,-0.01293262563304112,0.006200312295243121,0.988446521286502
2016-04-27,1,0.0033108004006647744,0.003738393020846637,-0.01293262563304112,0.006200312295243121,0.988398507300465
2016-04-29,1,0.0030889953232517437,0.00349205024704736,-0.01293262563304112,0.006427562445884645,0.9891485211840748
2016-05-03,1,0.0018148947614341586,0.0019790040665374773,-0.006239001666551405,0.007571529033271483,0.9899528122996857
2016-05-05,1,0.001411730232824045,0.0015219069932794688,-0.0032865137101235203,0.006401154974541212,0.9912186336698098
2016-05-09,1,0.0008158866761513493,0.0008238544778034839,-0.002883756554006079,0.006401154974541212,0.9918289884063892
2016-05-11,1,0.0014985828863655797,0.0016274004355952597,-0.002883756554006079,0.005162254471111251,0.9925008990241501
2016-05-13,0,-3.4176052611730476e-05,0.00010226879768748793,-0.004778339264651953,0.005162254471111251,0.9918590905206358
2016-05-17,1,0.0007772165359490469,0.0007820868563794107,-0.004316439528748246,0.004453052112270153,0.9930190349282767
2016-05-19,1,0.0005220717290160671,0.0005266922325752064,-0.0010401669909660002,0.00515939957682379,0.9939414724652248
2016-05-23,1,0.000541276502434135,0.0005418688889379925,-0.0015064077348523447,0.006011268095883217,0.9932912646834379
2016-05-25,1,0.0008077274561699124,0.0008104942746766638,-0.002647601052533846,0.00515939957682379,0.9941925160649165
2016-05-27,1,0.0006748256566036473,0.0007296695347830489,-0.0050773953866633,0.004338655005725278,0.9885160258044086
2016-06-01,1,0.00032061761373092067,0.0004606018215864321,-0.0050773953866633,0.004621659547315934,0.9874669525434827
2016-06-03,0,-5.389306681751816e-05,0.0001645379007895316,-0.0050773953866633,0.00962129438163004,0.9853137120108818
2016-06-07,-1,-0.000352925868868417,-8.402701012579503e-05,-0.010178603980281989,0.012036236141965227,0.9839025549378401
2016-06-09,-1,-0.0011572062549372027,-0.0007477360313937864,-0.0050773953866633,0.01281197993931931,0.9832225627721264
2016-06-13,-1,-0.002653174490502803,-0.002033784329365451,-0.002647601052533846,0.01281197993931931,0.9833665683586157
2016-06-15,-1,-0.002226945113532823,-0.0017020620311341366,-0.0020141054490142875,0.01281197993931931,0.9832919118923977
2016-06-17,-1,-0.0022389917038751535,-0.0016959603837469759,-0.0033703465296839245,0.01281197993931931,0.9835682138038273
2016-06-21,-1,-0.0015894449966462837,-0.001156943769932336,-0.003788945231907603,0.012198195428183095,0.9840185775343138
2016-06-23,-1,-0.0011081869576149842,-0.0007635785756276586,-0.005285419874202485,0.012198195428183095,0.9838888928672126
2016-06-27,-1,-0.005221769650750418,-0.004413800936715574,-0.002451809341620454,0.013299009993008372,0.9868368169116719
2016-06-29,-1,-0.003207266373235537,-0.002699165882591565,-0.0042773354441583075,0.01199284112284696,0.9893973025576767
2016-07-01,-1,-0.001915984421936732,-0.0015260728837365213,-0.00524071846694416,0.006822872563174795,0.9921356837060816
2016-07-06,-1,-0.0027250106862898686,-0.002204363602899229,-0.0042773354441583075,0.006566867115739221,0.9931761633658349
2016-07-08,-1,-0.0013842843462623397,-0.001064560731135023,-0.0042773354441583075,0.006891412048336765,0.9915899569603114
2016-07-12,-1,-0.0007535852669265042,-0.0005201513091671622,-0.00524071846694416,0.006891412048336765,0.991522852113051
2016-07-14,-1,-0.0003512406643835446,-0.00018868778208814445,-0.00524071846694416,0.008691289928876548,0.991144232395327
2016-07-18,-1,-0.0009604767482437555,-0.0007026569429097385,-0.005701404545856656,0.0109469133311381,0.9905799719294389
2016-07-20,-1,-0.0008699326157316221,-0.0006350240653359314,-0.004415997001376365,0.0109469133311381,0.9909955846296971
2016-07-22,-1,-0.0005573408527772128,-0.00038751512310978653,-0.002930486212964835,0.0109469133311381,0.9915109267489383
2016-07-26,1,0.00022531290377856848,0.00027430368309028176,-0.0024778268307220244,0.007643286515757282,0.9925392479197643
2016-07-28,1,0.0003624535609056622,0.0003735989197527357,-0.0024778268307220244,0.007643286515757282,0.9922307493698351
2016-08-01,-1,-0.00026784626512144284,-0.000163586356685529,-0.0024524293647448544,0.007643286515757282,0.9923806347373343
2016-08-03,1,3.75007784176643e-05,9.169862302085187e-05,-0.003033373480341647,0.005709574850542396,0.9923611433629065
2016-08-05,1,0.0018854128310830305,0.0020615866470186863,-0.003033373480341647,0.0036740846888218067,0.9953559994109844
2016-08-09,1,0.002557289135096927,0.002890293166764645,-0.00257733726055723,0.0036740846888218067,0.9957078446917529
2016-08-11,1,0.002844091843758878,0.003208319687566478,-0.003033373480341647,0.0029065259163807205,0.9944335115380641
2016-08-15,1,0.002643894563300258,0.00295031383529294,-0.003033373480341647,0.0029065259163807205,0.993707727150037
2016-08-17,1,0.002537701388894142,0.002820441394160395,-0.003033373480341647,0.0036740846888218067,0.9932447592457143
2016-08-19,1,0.002484653807511055,0.0027679391125726006,-0.004632571602654458,0.0043654900432540285,0.9927594283658134
2016-08-23,1,0.0025117242942527714,0.0028077048088154706,-0.004632571602654458,0.00575777480805536,0.992330978301815
2016-08-25,1,0.001738848311233943,0.0018825984278810018,-0.004632571602654458,0.00575777480805536,0.9919725257394444
2016-08-29,1,0.0017113547727648714,0.0018486465409233706,-0.004927206260171443,0.007236079971159163,0.9915221417826179
2016-08-31,1,0.0015301382599180382,0.0016622922930307714,-0.005150419572634232,0.008360347115677224,0.9910186488319171
2016-09-02,1,0.0018946102096717762,0.0020985852750576616,-0.0064013576373512585,0.01119097102874381,0.990326619576062
2016-09-07,1,0.0021413438607483432,0.0023980697510621587,-0.0070640279379335005,0.01183244197721212,0.988906047860173
2016-09-09,1,0.001319194766482073,0.0014694601001157793,-0.0070640279379335005,0.01183244197721212,0.989199840271055
2016-09-13,1,0.001104505444085144,0.0012057197084655953,-0.0070640279379335005,0.01119097102874381,0.989886869502397
2016-09-15,1,0.0015174724157703667,0.0016790048734061573,-0.0070640279379335005,0.008130121618315285,0.9900194732400232
2016-09-19,1,0.001882811850643569,0.002142915115029962,-0.0064013576373512585,0.009566663002122673,0.9902922119320129
2016-09-21,1,0.0019728222967683017,0.002229400924909992,-0.0070640279379335005,0.007825616594039166,0.9900144550364518
2016-09-23,1,0.0012329783851220985,0.001354525012369097,-0.006838077074605238,0.007825616594039166,0.9905018865453644
2016-09-27,1,0.0011411323273009346,0.0012189727511947108,-0.007742319407285632,0.0070932351780828105,0.990078895262337
2016-09-29,1,0.001230061052763923,0.0013012971237046527,-0.007742319407285632,0.005224068358282266,0.99096294408614
2016-10-03,1,0.001550785856987318,0.0016894791068849766,-0.007742319407285632,0.005096479140104862,0.9916385184327567
2016-10-05,1,0.0016663367699402425,0.0017663837675671275,-0.011201298772322756,0.0041874482781502995,0.9922023190105145
2016-10-07,1,0.0012128753555770949,0.0012834900001396522,-0.008319243416723477,0.005096479140104862,0.9926603910623097
2016-10-11,1,0.0002142169696330912,0.00031125543230439527,-0.0055702605006544646,0.00660513039116617,0.991284570723816
2016-10-13,1,0.0002945460153769109,0.00038646657011870916,-0.0055702605006544646,0.007825616594039166,0.9878565477851716
2016-10-17,1,0.0010004078400175087,0.0010430732611934708,-0.0055702605006544646,0.008197563078296437,0.9878469306415882
2016-10-19,1,0.0009013940618912687,0.0009441744206354069,-0.0055702605006544646,0.008198575149833185,0.9876637063547008
2016-10-21,1,0.0008993675724681743,0.0009618512022314235,-0.005723933182682516,0.008198575149833185,0.98749737548581
2016-10-25,1,0.0004751618262323218,0.0004893059185041988,-0.004979158110794122,0.008978777843796042,0.987991171448731
2016-10-27,1,0.000527778496317713,0.0005487152074896656,-0.004979158110794122,0.008978777843796042,0.9878805653378947
2016-10-31,1,0.0006243489835651722,0.000643711561625709,-0.005723933182682516,0.008978777843796042,0.9874046831148018
2016-11-02,-1,-0.0009165928848073368,-0.0006972158589833191,-0.00018840468756985422,0.013306376757189028,0.9857526932272279
2016-11-04,-1,-0.0008100216650167875,-0.00060000612649361,-0.0002460049788104799,0.013306376757189028,0.9858274928402389
2016-11-08,1,0.0008265659578340658,0.0008406731976545452,-0.0008141918362809547,0.013306376757189028,0.9879763525390107
2016-11-10,1,0.003423175153722655,0.0037616470578692414,-0.005723933182682516,0.007670663568606048,0.9912158658551508
2016-11-14,1,0.003844373478532658,0.0042386133485532605,-0.006859597223682553,0.005920188427619797,0.9908582283143959
2016-11-16,1,0.001073472427817075,0.0012760531309079278,-0.00597473670084657,0.006180255992274083,0.9906927777262917
2016-11-18,1,0.0010204653364554253,0.0011802407014748061,-0.004350039055664262,0.006180255992274083,0.9912200639219072
2016-11-22,1,0.0022116143558141405,0.002280593126513013,-0.00597473670084657,0.005975528997407121,0.9907141134320664
2016-11-25,1,0.002085958751629113,0.002112443517518336,-0.00597473670084657,0.005185150328339893,0.9907719350650726
2016-11-29,1,0.0018585425752522364,0.0018966195225993277,-0.00597473670084657,0.005185150328339893,0.9907383134123312
2016-12-01,1,0.003490874916166312,0.0037694766975411966,-0.00597473670084657,0.0037714099144601962,0.9918877463932719
2016-12-05,1,0.003071136955404297,0.003297123442894712,-0.004683742615075216,0.0038771639205572674,0.9919127372877213
2016-12-07,1,0.003282176155972269,0.0035147119461638675,-0.00597473670084657,0.0030878400658411053,0.9918973115009724
2016-12-09,1,0.0025003996414379075,0.0026203413803119334,-0.0051996163900449146,0.0030878400658411053,0.9928907052154294
2016-12-13,1,0.0019176176857882352,0.0019517385747527408,-0.0051996163900449146,0.004649393887401142,0.9921423748368485
2016-12-15,1,0.002360276366318287,0.0024761456335886814,-0.005989443138977578,0.004649393887401142,0.9915630990495459
2016-12-19,1,0.002047365330946299,0.002108559107417976,-0.005989443138977578,0.005937859500998914,0.991417184059823
2016-12-21,1,0.001512864039221896,0.0015486135221892824,-0.005902675302999268,0.004142524539691335,0.9918276576321703
2016-12-23,1,0.0014108884053534235,0.001456381051028114,-0.005902675302999268,0.009941676745052773,0.9897751628834467
2016-12-28,1,0.0020512629525395627,0.0021919226743946614,-0.004630524655636751,0.009941676745052773,0.9903970715286227
2016-12-30,1,0.0018233369748770778,0.0019414157328424499,-0.005902675302999268,0.009941676745052773,0.99005627299107
2017-01-04,1,0.002509991600547305,0.0027420478250238787,-0.008643259853641354,0.009941676745052773,0.9887460416950874
2017-01-06,1,0.002125710727736223,0.002311453464595177,-0.008930981447588835,0.009941676745052773,0.9888014362824842
2017-01-10,1,0.0020952089933183125,0.0022756735710136046,-0.008930981447588835,0.008421068701923353,0.9888014944542592
2017-01-12,1,0.002387494840507753,0.0026005724579071703,-0.005569964092718012,0.0076739203611666945,0.9897083909942075
2017-01-17,1,0.002224855885616808,0.0024123259073446104,-0.004519620918876333,0.0076739203611666945,0.9907980062263787
2017-01-19,1,0.0019496385645688336,0.0020801440983659186,-0.005167290044666473,0.013443229099051308,0.9900567819330149
2017-01-23,1,0.0015443297229737409,0.0016179860144398817,-0.003779304722175677,0.013443229099051308,0.9899800094444037
2017-01-25,1,0.00278136720123285,0.002991332016849541,-0.005167290044666473,0.007229024697241351,0.9911306608457099
2017-01-27,1,0.0027131732299774318,0.0029191581192585894,-0.005167290044666473,0.009349136128660026,0.9910165593047906
2017-01-31,1,0.0021225045356444566,0.002254421059046852,-0.005167290044666473,0.011686664033543211,0.990410607101192
2017-02-02,1,0.002018331208046779,0.0020790515080037894,-0.005167290044666473,0.009349136128660026,0.9917571291684689
2017-02-06,1,0.0016039659698500336,0.0016073953222012038,-0.003779304722175677,0.009349136128660026,0.9920238081438632
2017-02-08,1,0.001378392904968446,0.0013912460371831989,-0.004262212800001808,0.009349136128660026,0.9920584637108669
2017-02-10,1,0.0017731236711532182,0.0017999598174668209,-0.004262212800001808,0.0075008018650444125,0.9924102997924756
2017-02-14,1,0.002201957004285101,0.002295134276015019,-0.006623209302547995,0.0075008018650444125,0.9919543125265148
2017-02-16,1,0.0021303813880458712,0.0021812702000921615,-0.006968230592180198,0.0067165479665898375,0.9925251913440831
2017-02-21,1,0.002228080678390111,0.002296705364902641,-0.008343665535763468,0.0058020407563411,0.9923361390154142
2017-02-23,1,0.0018110325409772298,0.0018337012586482242,-0.006968230592180198,0.0058020407563411,0.9930215929904098
2017-02-27,1,0.0022179601519894793,0.002295438036900706,-0.008299813087422454,0.004981858618552777,0.9926471314547433
2017-03-01,1,0.002968033910246407,0.0031722622984943867,-0.007050803772708608,0.004981858618552777,0.9933396309960365
2017-03-03,1,0.002056245766056013,0.002083909145074895,-0.006546101288039305,0.005460903044667802,0.9937542478273914
2017-03-07,1,0.0015937365032711102,0.0016548096159199992,-0.006546101288039305,0.004981858618552777,0.9937595096171731
2017-03-09,1,0.0010695264979857918,0.001197806765283192,-0.005682976891131065,0.004981858618552777,0.9939660998438709
2017-03-13,1,0.0013955680957426408,0.0014808754686219895,-0.005682976891131065,0.0043397349520547905,0.9939791570685299
2017-03-15,1,0.0013349077372112996,0.0014467222126230371,-0.005713397717592007,0.004043033639562976,0.9933087674281151
2017-03-17,1,0.0008140159616130613,0.0010109042050517503,-0.005713397717592007,0.004043033639562976,0.9927229850135222
2017-03-21,-1,-0.0004241799958851454,-5.250564705999803e-05,-0.004830224155113283,0.004043033639562976,0.9930437578055734
2017-03-23,-1,-0.0004111606689560813,-3.8541734949446146e-05,-0.005137712566441119,0.0042399439863964015,0.9924651470880944
2017-03-27,-1,-0.0010949750692240217,-0.0006531653975329504,-0.0042278928300939905,0.008562340222829012,0.9902180846072075
2017-03-29,-1,-0.0011288131648087274,-0.0006352091007654583,-0.0045311805272697965,0.005396286027663989,0.9905116935243413
2017-03-31,-1,-0.0010240412672994587,-0.0005477501827307659,-0.006347333826683051,0.0042399439863964015,0.9901547909448772
2017-04-04,0,-0.0003049647366626894,2.91233941304874e-05,-0.006347333826683051,0.0034034152856539986,0.9901986338554872
2017-04-06,1,0.0012657744015951184,0.001270130746618488,-0.006347333826683051,0.0034034152856539986,0.9899304227860697
2017-04-10,1,0.001387868407148957,0.0014323802746858605,-0.006347333826683051,0.0028751030456473214,0.9902440649087507
2017-04-12,0,-5.404336047416152e-05,9.568730886814466e-05,-0.005137712566441119,0.0019469880196645614,0.9922662038514166
2017-04-17,-1,-0.0004025705760904437,-0.00018586427847002047,-0.005137712566441119,0.001065481993142117,0.9928444179264788
2017-04-19,-1,-0.0004954551184991051,-0.0002854267077437376,-0.005450202943152594,0.001065481993142117,0.9920561485388096
2017-04-21,0,-9.261189711905595e-05,6.063072570119195e-05,-0.0049080306010227445,0.001065481993142117,0.9910919847840093
2017-04-25,1,0.0015008033486176744,0.00150169312790299,-0.0049080306010227445,0.0006465345843001371,0.9928298603731044
2017-04-27,1,0.0014906682171368058,0.0015796403312615778,-0.0037829276916830933,0.001065481993142117,0.9933586891197065
2017-05-01,1,0.000574988794107251,0.0006205586796266566,-0.0014702687830036635,0.0014452767907525655,0.9947280116542329
2017-05-03,1,0.0009565034040416575,0.000987424048605065,-0.003179902764178305,0.0010035127350257942,0.9935463575685897
2017-05-05,1,0.00036908691445582353,0.00044202594156403293,-0.003270507014592269,0.00223015282041133,0.9927591185876102
2017-05-09,1,1.3197723144910004e-05,0.00015163589883932004,-0.0090777946435457,0.00223015282041133,0.9914678040977076
2017-05-11,1,0.00012354669399410886,0.00022947612050018996,-0.0090777946435457,0.006324867725883329,0.9901458515625998
2017-05-15,-1,-0.0006023697528264863,-0.00040597183508431776,-0.005094162872753432,0.008625692854299497,0.9904041752706356
2017-05-17,-1,-0.0016497269563337934,-0.001320488572699738,-0.005094162872753432,0.0100048678398745,0.9901453835827527
2017-05-19,-1,-0.0006528051312487939,-0.0004372490630765852,-0.004309929444420716,0.01105458356281695,0.9905656432057348
2017-05-23,-1,-0.0008630600788261762,-0.0005976062848998889,-0.008305110940620808,0.01105458356281695,0.9890677570250608
2017-05-25,-1,-0.000928480689034949,-0.0006380998381822221,-0.008305110940620808,0.012135861412054052,0.9887592940522115
2017-05-30,-1,-0.0005955379375930375,-0.0003701531614037874,-0.009355836978691807,0.012135861412054052,0.98792633091565
2017-06-01,-1,-0.0009075816255019804,-0.0006265324405081446,-0.008305110940620808,0.011622839242759852,0.9882640904857277
2017-06-05,-1,-0.001578972771260828,-0.0012186847635279946,-0.006609740768449875,0.012629613657643882,0.9881007351269812
2017-06-07,-1,-0.00248974823475626,-0.0020447531422027898,-0.0055776066399987525,0.012629613657643882,0.9887188787528982
2017-06-09,-1,-0.0014835331028119068,-0.0011506240151603815,-0.0055776066399987525,0.012135566652942702,0.9890468146619443
2017-06-13,-1,-0.001235888282980587,-0.0009284360426828763,-0.0055776066399987525,0.012135566652942702,0.9893570447348301
2017-06-15,-1,-0.0013391030132354645,-0.0009994270682021395,-0.005094956911582598,0.010889901227916558,0.989996901670729
2017-06-19,1,0.0009065905624764103,0.000920039049242056,-0.005094956911582598,0.008843297392503106,0.9910613055987623
2017-06-21,-1,-0.0007623121875033252,-0.0005730456087983713,-0.004567250367955659,0.009080890354317379,0.9922586836724425
2017-06-23,-1,-0.000806692269575473,-0.0005824067686150146,-0.004950839978406004,0.008839013899248844,0.9927984018463347
2017-06-27,-1,-0.0013892824312728637,-0.0011243629150728524,-0.004407751589582037,0.009080890354317379,0.9927804388344321
2017-06-29,-1,-0.0014388559760756562,-0.001149753228249054,-0.003756819514722188,0.008839013899248844,0.993264254671071
2017-07-03,-1,-0.0006335035648038578,-0.00041942552456399485,-0.004407751589582037,0.006628331788696348,0.993985387589464
2017-07-06,-1,-0.0007358472365287781,-0.0005443487979598499,-0.003756819514722188,0.006628331788696348,0.994083386762472
2017-07-10,1,0.0006043540709324438,0.0006119860240816563,-0.005261380102152509,0.005686922177262511,0.9943142369554399
2017-07-12,1,0.0008890018212502584,0.0009420891825426974,-0.005261380102152509,0.005686922177262511,0.9940737424724978
2017-07-14,1,0.0012557934102817574,0.001372620878187917,-0.0069785287170468216,0.005686922177262511,0.9922630950705633
2017-07-18,1,0.0009583567933516022,0.0010048303589502696,-0.0069785287170468216,0.0065225941325962955,0.992399655038554
2017-07-20,1,0.0013407894309685206,0.001470975098649109,-0.008103628141483764,0.004660441134883362,0.9918119880306122
2017-07-24,1,0.0012637026176281836,0.0014144274337778394,-0.0069785287170468216,0.004660441134883362,0.9921714125517299
2017-07-26,1,0.001064012482517626,0.0011657536127329168,-0.007189396582530819,0.004660441134883362,0.9913314655461121
2017-07-28,1,0.0010765221166608076,0.0011843494965598884,-0.007189396582530819,0.00504886327063897,0.99117164636721
2017-08-01,1,0.0008083346367725043,0.000860423249149207,-0.0063758938237721725,0.005292307725055486,0.991523331338875
2017-08-03,1,0.0011766180390727098,0.0013010972108718182,-0.0063758938237721725,0.005504408181524407,0.9914536166080806
2017-08-07,1,0.0006413407114450873,0.0007155060086625527,-0.0050346979462511255,0.0072666928367759506,0.990905740393843
2017-08-09,1,0.00022548034265554295,0.00023685044219614416,-0.006602252680210314,0.0072666928367759506,0.990844600218373
2017-08-11,-1,-0.0011836707242212875,-0.001000286061701269,-0.003595691310454464,0.007901424163775594,0.990603687488184
2017-08-15,-1,-0.0006928290850502831,-0.0005808885409033324,-0.003595691310454464,0.00861305458461568,0.9902708701954951
2017-08-17,-1,-0.001802038513607186,-0.0015293981289259328,-0.0008089218679881609,0.009121297952026155,0.9904331576036364
2017-08-21,-1,-0.0013662876621324462,-0.001188709172212443,0.001410713852312528,0.012585459473501311,0.9887528903685338
2017-08-23,-1,-0.0004577420049186901,-0.00040397210657713357,0.0008071698170420501,0.010920055180024323,0.9907882605852532
2017-08-25,-1,-0.0005221392921247253,-0.000460466499779638,0.0008071698170420501,0.010920055180024323,0.9908939632426333
2017-08-29,1,4.6568179173024633e-07,1.2501675531858444e-06,-0.00045861395514239787,0.010920055180024323,0.9904924852476173
2017-08-31,1,0.00041175397452579356,0.0004667703333419456,-0.0015128229809959067,0.010920055180024323,0.9908597302700923
2017-09-05,-1,-0.0006175075796285006,-0.0004834374935115264,-0.00045861395514239787,0.009317389503672571,0.9914259167426023
2017-09-07,-1,-0.0008736780045674193,-0.0007110264803315959,-0.00045861395514239787,0.009317389503672571,0.9916048697111252
2017-09-11,1,0.0005919996579548109,0.0005974475628297519,-0.0006631445587338782,0.00861305458461568,0.9939436611482089
2017-09-13,1,0.0013843792735382633,0.0015015768585816735,-0.0006631445587338782,0.006590566417884425,0.9947952811400321
2017-09-15,1,0.0029945102924370235,0.003456835948613655,-0.0006631445587338782,0.006590566417884425,0.9944367607031893
2017-09-19,1,0.003964529171504553,0.004503708815698381,-0.0006631445587338782,0.005604001823053324,0.9953218123425072
2017-09-21,1,0.0033907710717555866,0.003803453465996487,9.389548647186971e-05,0.005604001823053324,0.9957195275897803
2017-09-25,1,0.0035678181959817594,0.004009554539129935,9.389548647186971e-05,0.005604001823053324,0.9949432891337094
2017-09-27,1,0.0030460199849702578,0.0034077807403957586,9.389548647186971e-05,0.005604001823053324,0.9957470133653478
2017-09-29,1,0.0027943340716841004,0.0031189921165477264,9.389548647186971e-05,0.005780111240178179,0.9957185825999711
2017-10-03,1,0.003095794212747584,0.003452074593365954,-0.0007187170450132569,0.00416157292862699,0.9951978139278352
2017-10-05,1,0.0026694422715644152,0.002925316730477536,-0.001187290371160339,0.005764277607994515,0.9940354429526812
2017-10-09,1,0.0020186791301738155,0.0021284133754430174,-0.004131963521824995,0.005764277607994515,0.9934996482371393
2017-10-11,1,0.0024717966590834034,0.0027011137675733857,-0.004131963521824995,0.005764277607994515,0.9932147620220397
2017-10-13,1,0.0030274322062636564,0.003336690091036253,-0.004456436661733374,0.004852744546686497,0.9927230214906677
2017-10-17,1,0.0032137069983561514,0.003556168888313474,-0.0060635599675283045,0.003912913128969566,0.9919011862356081
2017-10-19,1,0.003215615787535004,0.0035558572260678796,-0.0060635599675283045,0.005018298209022243,0.991409596330689
2017-10-23,1,0.0032351159985730873,0.003571889731821292,-0.0051125108972219935,0.003912913128969566,0.9923250668857713
2017-10-25,1,0.002894713981905088,0.003147331915264712,-0.0051125108972219935,0.003912913128969566,0.9927869024927288
2017-10-27,1,0.0021529303805773595,0.0022343243669050846,-0.005628647147963529,0.003224009924471881,0.9930193043186881
2017-10-31,1,0.0022601670698640304,0.002414151432104815,-0.005628647147963529,0.00345440046382505,0.9928235986733126
2017-11-02,1,0.0031584564620399944,0.0034459485734911954,-0.005628647147963529,0.00345440046382505,0.9931075500105108
2017-11-06,1,0.002527802719297534,0.002740504181955446,-0.006612632071866837,0.00345440046382505,0.9932928001767498
2017-11-08,1,0.002959453725757531,0.0032938681002306932,-0.006612632071866837,0.00831122340607564,0.9919961950418762
2017-11-10,1,0.001638983013482004,0.0017056240598555135,-0.00564568875362276,0.009079248471214144,0.992371989452599
