JNU-Tangyin/eata/results/Batch4_SP500/Batch4_SP500-RJF.csv
Date,Action,Predicted_Q25,Predicted_Q75,Actual_Q25,Actual_Q75,RL_Reward
2010-12-14,0,0.0,0.0030499647406230005,-0.0010573898267674186,0.0071226439330073785,0.9936379589372214
2010-12-16,1,0.0036053216049587115,0.004088327133558976,-0.0010573898267674186,0.007315656589162347,0.9926698931339621
2010-12-20,1,0.003207695485847719,0.0035992016145464066,-0.00446681833407063,0.0067692402154810715,0.9925559320639451
2010-12-22,1,0.004258809756477843,0.004800836475835189,-0.00446681833407063,0.008394091389496063,0.9899833354045604
2010-12-27,1,0.004191408418468792,0.004726618676589466,-0.008666057306469598,0.010084518693415298,0.9886703208896981
2010-12-29,1,0.008599323204255506,0.00966645646678277,-0.00446681833407063,0.012331721579410922,0.988895513864755
2010-12-31,1,0.007175401188474652,0.007971728626585586,-0.0013535986810458735,0.012331721579410922,0.9894755245498799
2011-01-04,1,0.0055184102697401725,0.005961400096002557,-0.00044098914328606804,0.013903979074464326,0.9895688816152376
2011-01-06,1,0.005027528567624473,0.005344376774106404,-0.002514362310673271,0.013903979074464326,0.9890217019560835
2011-01-10,1,0.005052797835662927,0.0054086780124895555,0.0009810749441122473,0.013903979074464326,0.9897800946861691
2011-01-12,1,0.005177056323515871,0.005463817717044726,0.0009810749441122473,0.013044888932117766,0.9904115127691526
2011-01-14,1,0.0043535608535964655,0.004388201143681535,0.0009810749441122473,0.013903979074464326,0.9898244853897566
2011-01-19,1,0.001705723788442361,0.002002969561938616,0.0017715039486693677,0.013903979074464326,0.9900244970620654
2011-01-21,1,0.0041928396669026775,0.00422961600202953,0.001634868877291024,0.011001760391911893,0.9932833444841522
2011-01-25,0,0.0,0.0,0.0008690835762613744,0.009737538428557627,0.9901315324574782
2011-01-27,0,0.0,0.0,0.0008690835762613744,0.010570405501254942,0.9895871973816719
2011-01-31,1,0.00044048173251172115,0.0005207746116580266,0.0008690835762613744,0.011513598152658566,0.9884548558780208
2011-02-02,0,0.0,0.0,0.0017341734927190768,0.012725872248861982,0.9877791612634574
2011-02-04,0,0.0,0.0,0.00047921410828749914,0.011513598152658566,0.987490832169412
2011-02-08,0,0.0,0.0,-0.004287093422756794,0.01308228689466433,0.9854708632156574
2011-02-10,1,0.004735379772423175,0.004862831054497083,-0.011195023844695288,0.01308228689466433,0.9844546342832214
2011-02-14,1,0.004596404189086941,0.004598210576490458,-0.011195023844695288,0.011513598152658566,0.9840380793317425
2011-02-16,1,0.0049828848970691324,0.00506736425552117,-0.017804010795036174,0.011513598152658566,0.9831026782709166
2011-02-18,1,0.005008392965036676,0.005118083254601844,-0.017804010795036174,0.01308228689466433,0.9819656068917278
2011-02-23,1,0.0018082304323947423,0.0021177238020414746,-0.009433540516860444,0.01308228689466433,0.9852242199026927
2011-02-25,1,0.0029199733019634883,0.003091907436612265,-0.009433540516860444,0.013058400843220689,0.9851091525460304
2011-03-01,1,0.0023609787076072407,0.0025342918271703003,-0.009433540516860444,0.011862200179563196,0.986433264337109
2011-03-03,1,0.0038455179570949832,0.003865762414228729,-0.009433540516860444,0.006106766955279125,0.9865822231232619
2011-03-07,1,0.0030225088961438034,0.00308356470106623,-0.009180874625876372,0.010225460363636312,0.9875155992296692
2011-03-09,1,0.004233076878495696,0.004329216430630711,-0.006721324681220666,0.005818572828901804,0.9888335898132798
2011-03-11,1,0.002248243954629632,0.0023763014482674322,-0.006665147575767883,0.005818572828901804,0.9906271027390487
2011-03-15,1,0.0012248351351672958,0.001464814532992395,-0.0053970773480051335,0.005818572828901804,0.991306292997065
2011-03-17,1,0.00011707640342540856,0.00047456186049366165,-0.005252205141170296,0.005273928065978705,0.992330126259165
2011-03-21,0,0.0,0.0,-0.0053970773480051335,0.005273928065978705,0.9908804057141067
2011-03-23,0,-0.00017678189791031358,0.0002488595125307281,-0.005342072151082428,0.010225460363636312,0.9904721538653183
2011-03-25,1,0.0006420630132038978,0.0009829247506173517,-0.005541890094629801,0.005273928065978705,0.9901491565157371
2011-03-29,1,0.00048344856688064945,0.0007841023227424559,-0.005342072151082428,0.010836802448806943,0.9901197914359655
2011-03-31,1,0.0016549868568505048,0.0016719311701869155,-0.005342072151082428,0.005273928065978705,0.9904875546511894
2011-04-04,1,0.001298992409283641,0.0013593691875146527,-0.00628018689344297,0.002329137250682337,0.9902358035954201
2011-04-06,1,0.0010336617865687558,0.0011110150971704845,-0.00815055853783813,0.002329137250682337,0.9889186257686845
2011-04-08,0,-0.00015145962699113886,9.995617233020068e-05,-0.00815055853783813,0.002329137250682337,0.9895097946592533
2011-04-12,-1,-0.0009459505008161584,-0.0005565366433387636,-0.009198088092405696,0.002680941412437552,0.989189136729043
2011-04-14,-1,-0.001067318897375781,-0.0006768747776538075,-0.01137778092528661,0.0072288767627923,0.9874301079460073
2011-04-18,-1,-0.002800806053358501,-0.0021410151852479823,-0.009739419201542579,0.002680941412437552,0.9902321528432879
2011-04-20,-1,-0.002357819047216821,-0.0017547663606900768,-0.009739419201542579,0.0027825462208931106,0.9893087727063954
2011-04-25,-1,-0.0029398610775621717,-0.0022424251703354182,-0.009739419201542579,0.0018995572674332104,0.9897373636814636
2011-04-27,-1,-0.0008912300466197818,-0.0005600119042796553,-0.009739419201542579,0.002231875493249238,0.9894248685513205
2011-04-29,-1,-0.0014317864598976282,-0.0010207658884575786,-0.009739419201542579,0.005506397091139102,0.9887472329856233
2011-05-03,-1,-0.0020260606989660843,-0.0015502171383143914,-0.011923203026893649,0.007243597562153677,0.986446219026832
2011-05-05,-1,-0.0032803679494782,-0.002670182967974087,-0.011923203026893649,0.007243597562153677,0.9866819222537848
2011-05-09,-1,-0.0036390030840639017,-0.002990885984005952,-0.01585485566715714,0.009433421304312618,0.9853257280329341
2011-05-11,0,0.0,0.0,-0.012127341746240234,0.011132441655238828,0.9850918323519908
2011-05-13,0,0.0,0.0,-0.010816007048083739,0.009433421304312618,0.9861683657017063
2011-05-17,-1,-0.006048119998024696,-0.005118481809659492,-0.014858721788891194,0.011132441655238828,0.9846663351947205
2011-05-19,-1,-0.002664048365101846,-0.0022133571291751072,-0.014994072024627792,0.009433421304312618,0.9859603547359624
2011-05-23,-1,-0.003820247636524602,-0.0032172075065493837,-0.014014085462439447,0.011132441655238828,0.9853845331503965
2011-05-25,-1,-0.0035492271751329713,-0.0029575579028543134,-0.014994072024627792,0.011132441655238828,0.9848325450868869
2011-05-27,-1,-0.003159127520789236,-0.002608803174234826,-0.015237902952846195,0.007847664839289108,0.9852703306877065
2011-06-01,0,0.0,0.0,-0.014230712674248844,0.007847664839289108,0.9863006285427144
2011-06-03,0,0.0,0.0,-0.014014085462439447,0.013200439782469958,0.9869537740870855
2011-06-07,0,0.0,0.0,-0.011444386737491435,0.008378176129648817,0.9888326842667006
2011-06-09,0,0.0,0.0,-0.011444386737491435,0.008645970041778072,0.988369951068734
2011-06-13,0,0.0,0.0,-0.011489503482736967,0.008645970041778072,0.9882030520804778
2011-06-15,0,0.0,0.0,-0.011489503482736967,0.005048446305527256,0.9882016171565885
2011-06-17,-1,-0.005871114766572387,-0.00334687204600797,-0.009363087044509315,0.0051651586998084,0.9888507592620498
2011-06-21,-1,-0.0023320315228120593,-0.0020658844692989136,-0.009363087044509315,0.006933871470770611,0.9879978856213116
2011-06-23,-1,-0.003818019706252134,-0.003356617656239379,-0.0021861186162467324,0.009676442040513425,0.9863866297648524
2011-06-27,-1,-0.00407519987270979,-0.003603444919600363,-0.0021861186162467324,0.014175867186073925,0.9857931522507469
2011-06-29,-1,-0.0025043644995744446,-0.0022496100455076068,-0.009029341186756695,0.009114014668516031,0.9851194192766743
2011-07-01,-1,-0.0018540873605025492,-0.0016882553562663008,-0.009367499063086076,0.006933871470770611,0.9854410926382876
2011-07-06,0,0.0,0.0,-0.009667726217703591,0.009114014668516031,0.9828311053885702
2011-07-08,0,0.0,0.0,-0.02322027750892989,0.006933871470770611,0.979773667040912
2011-07-12,0,0.0,0.0,-0.0318983052332137,0.009114014668516031,0.9735700457939732
2011-07-14,0,0.0,0.0,-0.0318983052332137,0.01619246475031973,0.9684811023578084
2011-07-18,0,0.0,0.0,-0.0318983052332137,0.024017080518866828,0.9662464379026031
2011-07-20,0,0.0,0.0,-0.0318983052332137,0.016280005710137234,0.9662396424188929
2011-07-22,0,-2.903551730453201e-05,6.270107455249327e-05,-0.03860525526391129,0.00789014862084088,0.9640307370559105
2011-07-26,1,0.0008254935260723827,0.0010696459574702699,-0.03860525526391129,0.010556714516901584,0.9623396177758955
2011-07-28,-1,-0.0011538356105066962,-0.0011205702292286924,-0.0318983052332137,0.025985819530578467,0.9631813111922289
2011-08-01,-1,-0.0005211745964367764,-0.00042013685027111045,-0.0318983052332137,0.03466152322173846,0.9599785394429218
2011-08-03,0,0.0,0.0,-0.02776757991322302,0.03466152322173846,0.9617226943473446
2011-08-05,-1,-0.004387825692784233,-0.00397720934282563,-0.028513862285387652,0.03466152322173846,0.9634700368175816
2011-08-09,-1,-0.003997892855913503,-0.0035972968085965858,-0.02614679948540663,0.03466152322173846,0.9675292460715348
2011-08-11,-1,-0.0029978652310817065,-0.0027963274622592365,-0.028513862285387652,0.031167860804108896,0.9712192842781577
2011-08-15,-1,-0.002662866762274922,-0.0024807013592572282,-0.028513862285387652,0.023159132827617758,0.9718698375528669
2011-08-17,-1,-0.003422071210451699,-0.003216238284762836,-0.028127929419865416,0.031167860804108896,0.9703959015351754
2011-08-19,-1,-0.006472791881361933,-0.005889115833035075,-0.025873244009796167,0.031167860804108896,0.9728470104472832
2011-08-23,-1,-0.003271154998940278,-0.0031131592856832977,-0.028127929419865416,0.023159132827617758,0.9735580208981673
2011-08-25,-1,-0.0036369775627799073,-0.0034580016999356655,-0.027983018232762363,0.023222825704370825,0.9744525997824758
2011-08-29,-1,-0.000413393600370142,-0.0001955264968269675,-0.027983018232762363,0.020149897998490575,0.9764353432333903
2011-08-31,-1,-0.0006546790846239001,-0.0004905246127868742,-0.0347681245658264,0.020782878984794386,0.9729152433431119
2011-09-02,-1,-0.0032396759126302106,-0.0030556749656275844,-0.0360111192418013,0.020782878984794386,0.9702930007376219
2011-09-07,-1,-0.0011327955824541214,-0.0010216198803654891,-0.0360111192418013,0.020782878984794386,0.9689399196124356
2011-09-09,-1,-0.004156243578426076,-0.003880347259518766,-0.029663878537579305,0.024823425430073213,0.9676975808855396
2011-09-13,-1,-0.002058450152286605,-0.00205729577046341,-0.029663878537579305,0.03502764349805331,0.9673915067749616
2011-09-15,1,1.4868727047816395e-05,0.00030105929094230953,-0.029663878537579305,0.02597135197482013,0.968246639810085
2011-09-19,0,-0.0002347406081730795,6.173855707196775e-05,-0.03767528530625635,0.02597135197482013,0.9677348277841519
2011-09-21,-1,-0.0021096584259458866,-0.0020674819866359725,-0.024416709137895953,0.03680789643009241,0.9664682993803346
2011-09-23,0,0.0,0.0,-0.024416709137895953,0.03676991921487319,0.9652822074591974
2011-09-27,1,0.00013273372943542038,0.0003156550073533729,-0.03767528530625635,0.0413886862866612,0.9627570317196755
2011-09-29,1,0.00011266540580321977,0.0003550186196497762,-0.024416709137895953,0.0413886862866612,0.962421199224144
2011-10-03,-1,-0.004021290811086003,-0.0037355238715151276,-0.018872706369036766,0.0413886862866612,0.9648600213916453
2011-10-05,-1,-0.0008690513683967785,-0.0007992457339650645,-0.024416709137895953,0.04045135687186082,0.9657874168142022
2011-10-07,-1,-0.0010853052763674812,-0.0010591801598030617,-0.018872706369036766,0.03872606746909927,0.9674502848592842
2011-10-11,1,0.001190490701338677,0.0015889808176131597,-0.018872706369036766,0.03537618765726605,0.969887593083827
2011-10-13,0,0.0,0.0,-0.024416709137895953,0.03537618765726605,0.9675314865326925
2011-10-17,0,0.0,0.0,-0.019476854517381372,0.03537618765726605,0.9676160260259679
2011-10-19,0,0.0,0.0,-0.02353160385123154,0.03384556571227984,0.9689196130342231
2011-10-21,1,0.0027775621207585736,0.0033061006544750243,-0.023918225064735954,0.015234571293441976,0.9715425541750575
2011-10-25,1,0.0016502047788483996,0.0020190921126427676,-0.02309081442951838,0.01294006834585505,0.9736993245032276
2011-10-27,1,0.004727498772833903,0.005495269585625437,-0.027773187083648378,0.009221110959444214,0.9755539695929814
2011-10-31,1,0.0029828676917811425,0.0035260453673391034,-0.02309081442951838,0.01294006834585505,0.9759312482083927
2011-11-02,1,0.0027920154496970757,0.003271261585994616,-0.020394660007099327,0.01294006834585505,0.9761919112216493
2011-11-04,1,0.00336233593878479,0.003927149039312742,-0.020394660007099327,0.01294006834585505,0.9765492248728326
2011-11-08,1,0.003564413109577816,0.004145747036387568,-0.020394660007099327,0.01294006834585505,0.9767809241375561
2011-11-10,1,0.002655417053419396,0.0031586455476973387,-0.020394660007099327,0.014836832777714859,0.9772598189970659
2011-11-14,1,0.0021518624346247507,0.0025217700668618815,-0.02309081442951838,0.009973321824116678,0.9767745297402549
2011-11-16,1,0.0013917664938954796,0.001653251457313998,-0.020394660007099327,0.007445502934754404,0.9784247505951542
2011-11-18,1,0.0016060650347344827,0.001944290394291806,-0.02186599661663158,0.010810640612274582,0.9776810529488258
2011-11-22,1,0.000617826774624927,0.0008442993092091297,-0.01425035890186259,0.019236512286708737,0.9774929694863078
2011-11-25,1,0.00034204610883501016,0.0005293350477208216,-0.010583642327945572,0.019236512286708737,0.9790789356357719
2011-11-29,1,0.0018684163730833482,0.002283924128753604,-0.013996488494283841,0.013766878010556049,0.9811467066285122
2011-12-01,1,0.002771646141622297,0.003280659926614641,-0.014190730280586192,0.013766878010556049,0.9835303038806474
2011-12-05,1,0.003366422127587895,0.0038766996508573493,-0.014190730280586192,0.013766878010556049,0.9837826626984277
2011-12-07,1,0.0037496736689046576,0.004342185352508866,-0.014190730280586192,0.017153293953180694,0.9822398519940537
2011-12-09,1,0.003996698876701904,0.004665500021632487,-0.010648389590046357,0.017153293953180694,0.9839753219369662
2011-12-13,1,0.0030501590003924003,0.0036561767011221045,-0.00557028230432677,0.017153293953180694,0.9843829849422373
2011-12-15,1,0.003160527362224648,0.0037971715039159777,-0.006691727802892031,0.017153293953180694,0.9841773452233449
2011-12-19,1,0.002107636879485184,0.002509876624386841,-0.0022329446525118325,0.022372798142574448,0.9829245974747701
2011-12-21,1,0.0034841623773661087,0.004055047166242688,-0.002792950853957408,0.01658130930585083,0.9851476606384993
2011-12-23,1,0.003775783665397041,0.004396374398176617,-0.005717471346389725,0.01658130930585083,0.9846385708605215
2011-12-28,1,0.0018223638536558747,0.0019963795351257345,-0.002792950853957408,0.01658130930585083,0.9860402769937676
2011-12-30,1,0.002102270245113947,0.002336783711478939,-0.0017467965898503035,0.013836908096560047,0.9871206793135081
2012-01-04,0,0.0,0.0,-0.002792950853957408,0.013836908096560047,0.9867236859286815
2012-01-06,0,0.0,0.0,-0.004259027158405138,0.013836908096560047,0.986331312956086
2012-01-10,0,0.0,0.0,-0.006960532204771566,0.005735359513943112,0.9878377844234176
2012-01-12,0,0.0,0.0,-0.006960532204771566,0.00717235575457904,0.988265962105718
2012-01-17,0,0.0,0.0,-0.006078682778452527,0.011583112883955433,0.9883271822080444
2012-01-19,0,0.0,0.0,-0.006671349633758173,0.006594113983737996,0.9905104902970958
2012-01-23,1,0.002180512516625061,0.00263471795128636,-0.006671349633758173,0.011583112883955433,0.9899942273814308
2012-01-25,1,0.002005794487995239,0.002430270534157039,-0.006671349633758173,0.01349339792140404,0.9893572535069579
2012-01-27,1,0.001068054010355757,0.0012361463682655808,-0.006671349633758173,0.01349339792140404,0.9891022673340722
2012-01-31,1,0.001747913866950887,0.002080655693603021,-0.006835052724683555,0.011758672608880907,0.9888217011845882
2012-02-02,1,0.00026068470511894035,0.00026508102518986627,-0.006835052724683555,0.011758672608880907,0.9891362284119635
2012-02-06,1,0.0012055084546193553,0.0014047472877492303,-0.008163195321475863,0.010246942787401977,0.988845865148243
2012-02-08,1,0.0013383704437014807,0.0016252255670720726,-0.008163195321475863,0.011367792408073174,0.9886214705828021
2012-02-10,1,0.0006645251907367641,0.0008256630087334826,-0.006835052724683555,0.012847436493757265,0.989233044967785
2012-02-14,1,0.00010687214953411688,0.00013448708978931238,-0.007287232515865666,0.014091602672252977,0.9875663682833079
2012-02-16,1,0.0008696036751649405,0.0010396546677837615,-0.007201794368886803,0.012847436493757265,0.9880344075470302
2012-02-21,1,0.0009905646643891893,0.001183757020892975,-0.007201794368886803,0.010890423151515286,0.9887653695569035
2012-02-23,1,0.0009523460069928957,0.0011011865038949718,-0.007201794368886803,0.010087819701882682,0.9892640246900157
2012-02-27,-1,-0.0017569308955995267,-0.0013516902773696,-0.007201794368886803,0.012815563847408366,0.9877090979815831
2012-02-29,1,0.0005702260693392658,0.000583300547975628,-0.010180194286492344,0.012815563847408366,0.9875606424492123
2012-03-02,1,0.00011000892831812924,0.0001743426456815621,-0.010180194286492344,0.010890423151515286,0.9879946695800936
2012-03-06,1,0.0001464461257406527,0.00015568923475492555,-0.004105403603799237,0.010890423151515286,0.9899362311502873
2012-03-08,1,0.0005917336446180292,0.0006644248839294562,-0.008766515044454025,0.007344111792690967,0.9899783369558658
2012-03-12,1,0.00021035439666772297,0.0002457116066869831,-0.010233200283411788,0.004216988991309481,0.9891474079930969
2012-03-14,1,0.0007069664747549758,0.0007406019810243423,-0.010233200283411788,0.007344111792690967,0.989758146510494
2012-03-16,1,0.0016341677611496767,0.0018989278345235918,-0.012143960528804926,0.004204252084716245,0.9887637832799635
2012-03-20,1,0.0012252065018907967,0.0013663458501673707,-0.013702887834894263,0.008225163727627882,0.9871836522821656
2012-03-22,1,0.0016819905136126806,0.001932573317891215,-0.013702887834894263,0.008225163727627882,0.9872975477107079
2012-03-26,1,0.0009440861700187745,0.0009513922080177085,-0.015421869499102327,0.003431279851426447,0.987566333606796
2012-03-28,1,0.0009744069456452079,0.0010851059517798236,-0.013661277278321572,0.009333642647777259,0.986363068311439
2012-03-30,1,0.0010349440271344508,0.0011674251707125992,-0.010774076812165571,0.009333642647777259,0.9868984341693413
2012-04-03,1,0.0012277259444529545,0.00139661102982098,-0.010774076812165571,0.009333642647777259,0.9867174141258719
2012-04-05,1,0.0005147801197634348,0.0005989876719531079,-0.01048303288574257,0.009333642647777259,0.9869053310583348
2012-04-10,-1,-0.00033695802549367704,-0.000301797294165986,-0.007466240093067865,0.009333642647777259,0.987969077993198
2012-04-12,1,0.0003680175741618575,0.0003812425200044571,-0.01048303288574257,0.004692204978771632,0.9888478570147952
2012-04-16,-1,-0.0006220725873342308,-0.0005088534379857245,-0.01048303288574257,0.004692204978771632,0.9895649896666774
2012-04-18,-1,-0.0012073445831283173,-0.0009616746917739543,-0.01048303288574257,0.0037775957157660574,0.9904299133031382
2012-04-20,-1,-0.001911894753565525,-0.001548534957648946,-0.013433108325916912,0.0037775957157660574,0.989309676084798
2012-04-24,-1,-0.00138501399834784,-0.001143109017816102,-0.01213909529351499,0.0037775957157660574,0.9888733717201389
2012-04-26,1,0.0001344472584316278,0.00019655803470666218,-0.01213909529351499,0.0033847997590856797,0.9904726929760259
2012-04-30,-1,-7.576315967486842e-05,-3.358656106761396e-05,-0.01213909529351499,0.0033847997590856797,0.9902182429947929
2012-05-02,1,0.00031267743325969567,0.00032476595054112256,-0.01383121781337425,0.0033847997590856797,0.9888345606926919
2012-05-04,-1,-0.0001988659865171579,-0.0001294201634220975,-0.017299083358003214,0.0033847997590856797,0.9871531088058376
2012-05-08,-1,-0.001196325096479425,-0.0009496236534611745,-0.017299083358003214,0.010367665416367229,0.9856736697792292
2012-05-10,-1,-0.0019120976663410314,-0.001541547229567995,-0.016459793182609914,0.010367665416367229,0.9865436286035538
2012-05-14,-1,-0.002227629558599463,-0.0018181920160420463,-0.016698961182331117,0.013097021589769602,0.9859526526838314
2012-05-16,-1,-0.0026256924075006146,-0.0021987774464243036,-0.015933365991741652,0.013097021589769602,0.9862600193810359
2012-05-18,-1,-0.0032933117573717397,-0.002798895795687512,-0.005516753214936485,0.013478993175246071,0.9860090262717813
2012-05-22,-1,-0.0025465921874581925,-0.002126259445238998,-0.005516753214936485,0.013421919858535598,0.9868878540030404
2012-05-24,-1,-0.0022015325068714857,-0.001830563338820209,-0.009146715317982935,0.014388798513570028,0.9846685454436739
2012-05-29,-1,-0.0013835695771772468,-0.0011084983316311703,-0.015933365991741652,0.013771318054065031,0.9833986527300999
2012-05-31,-1,-0.0013834124851112785,-0.0011300682132973474,-0.009146715317982935,0.013771318054065031,0.9844108713988666
2012-06-04,-1,-0.0021413187189471177,-0.0018520994622713504,-0.004939508371194858,0.014388798513570028,0.9846916798702497
2012-06-06,-1,-0.0009137073819759942,-0.0006810217808142784,-0.004939508371194858,0.01321348765494608,0.9866490102111312
2012-06-08,-1,-0.0016254933874238612,-0.0012829767362046026,-0.007085566520046782,0.01321348765494608,0.9860743984427003
2012-06-12,-1,-0.0003750658914657744,-0.0002956275894899343,-0.007085566520046782,0.009792711133213318,0.9862886465495957
2012-06-14,-1,-0.0008779770651012938,-0.0007148485245214579,-0.005713901684381149,0.013771318054065031,0.9854548853699394
2012-06-18,-1,-0.0001972731400542187,-0.00011146831415506075,-0.006963829855510336,0.009792711133213318,0.9863666943832502
2012-06-20,-1,-0.00019504568759257248,-0.00011727855952585979,-0.006963829855510336,0.00782725048493009,0.9872252471390706
2012-06-22,-1,-0.0003158452609047203,-0.00024357227935517653,-0.008313212754559814,0.006863707759121246,0.9886600234056085
2012-06-26,-1,-0.0005631155242243649,-0.0004381999351782809,-0.008212092633095785,0.006863707759121246,0.9901067698444225
2012-06-28,1,0.00013044550628076322,0.00016073056509298053,-0.01012234625357726,0.006863707759121246,0.9852883245255394
2012-07-02,1,0.0009730674443104192,0.0010199311337399783,-0.011699212505330504,0.004921800251742799,0.986261386535682
2012-07-05,1,0.0004767266090025562,0.0005055226854422713,-0.015751394153614727,0.0027221688716910783,0.9850483864890343
2012-07-09,1,0.000161618437443548,0.0001949448724002534,-0.015751394153614727,0.0052001033280101245,0.9841970623404156
2012-07-11,-1,-0.00013669837953204816,-7.059242160600645e-05,-0.013703271569055294,0.006075651706040618,0.9843002651298491
2012-07-13,1,0.000508423346761179,0.0005268041864138216,-0.013703271569055294,0.003794961930502356,0.9855658024059446
2012-07-17,1,0.00031734431988418685,0.0003218886467247122,-0.013703271569055294,0.005143967253133469,0.98518699519248
2012-07-19,1,0.00023644054116956468,0.0002476246537211062,-0.013703271569055294,0.005143967253133469,0.9850121229245931
2012-07-23,-1,-0.00044812210562801606,-0.00035946921211587126,-0.008439120131271306,0.005143967253133469,0.986095584873601
2012-07-25,-1,-0.0003441472109279232,-0.0002737061620660909,-0.0028265933188869182,0.0043222134678529605,0.9867170685087884
2012-07-27,1,0.000878961782451877,0.0009123553349247408,-0.0028265933188869182,0.003547491377304141,0.9912850139678063
2012-07-31,1,0.0002021262666476178,0.00022113530932331372,-0.0028265933188869182,0.004511486261165464,0.9911782995530835
2012-08-02,-1,-0.00031709757084086136,-0.0002533195049373644,-7.258444128416991e-05,0.006005733742468828,0.9924420524637075
2012-08-06,1,0.0010382990851741897,0.0011911198785647262,-7.258444128416991e-05,0.006005733742468828,0.9938036714761735
2012-08-08,1,0.0018181501021574307,0.0020954731375706524,-0.0005006384747878161,0.006005733742468828,0.9936443606879687
2012-08-10,1,0.0021415332879541112,0.002467430017517885,-0.001685708222394304,0.00715161449158665,0.9931188787076893
2012-08-14,1,0.0023441875073264033,0.0026686003248799052,-0.001685708222394304,0.00715161449158665,0.9934332824722667
2012-08-16,1,0.0028633889556503953,0.003302264873531434,-0.001685708222394304,0.00825505391317536,0.9922975653870676
2012-08-20,1,0.0022985885925015702,0.0026134557967464,-0.0034247663221981463,0.00825505391317536,0.9920092224425837
2012-08-22,1,0.0023844902059477185,0.0026965703471599368,-0.0042944422875191976,0.00825505391317536,0.9915257636728029
2012-08-24,1,0.0020561717342536716,0.002336202515006014,-0.004203598062181046,0.00825505391317536,0.9917897379165468
2012-08-28,1,0.0016841237735058256,0.001888301064624016,-0.005941940312866439,0.007464884271266042,0.9914470512311501
2012-08-30,1,0.001219721956848394,0.0013306702430567136,-0.005941940312866439,0.007464884271266042,0.9911377459699597
2012-09-04,1,0.0023919717619941684,0.002731283499511275,-0.005941940312866439,0.006063569522347141,0.9917705995999013
2012-09-06,1,0.0024956552739961524,0.002790538334194158,-0.005941940312866439,0.006063569522347141,0.992511055779413
2012-09-10,1,0.002516517420262376,0.002817948995091446,-0.005527810732527597,0.006063569522347141,0.9924233974829646
2012-09-12,1,0.0026539331936948555,0.0029630837954418925,-0.0062022617193416025,0.004905286936580061,0.9920070301788495
2012-09-14,1,0.0031562994083785796,0.003565117487390134,-0.007406581858658862,0.0027942510998091455,0.9917264284225363
2012-09-18,1,0.003367686589675472,0.0039040808113032393,-0.006353084963218918,0.006316036176371241,0.9915985693286709
2012-09-20,1,0.0027547243571868444,0.003179195321379556,-0.005527810732527597,0.008348492183073679,0.9913219314756143
2012-09-24,1,0.002746096930942836,0.0031858970099388484,-0.008291090716630926,0.008348492183073679,0.9904148540190264
2012-09-26,1,0.001868387648135636,0.0021710003188938507,-0.005748305350542308,0.008348492183073679,0.9911276017930156
2012-09-28,1,0.0018262872565923424,0.002114058603096319,-0.005748305350542308,0.009235974053652011,0.9899689295875274
2012-10-02,1,0.0018187894792531644,0.0020764352337897677,-0.005748305350542308,0.010052951275422634,0.9889403665735671
2012-10-04,1,0.001708336086193594,0.0019204245269535303,-0.007446607943603169,0.013283572289375097,0.9882689105464286
2012-10-08,1,0.0013834390436198948,0.0015007338069000153,-0.009667635118155103,0.016697168423288188,0.9858085261424235
2012-10-10,1,0.00046097184265891445,0.000531233382073468,-0.010275236140575813,0.016697168423288188,0.9857815731852083
2012-10-12,1,0.0005734793461542666,0.0005789999018721442,-0.007446607943603169,0.016697168423288188,0.986452773478488
2012-10-16,1,0.0013715602653839466,0.0015022667627803367,-0.010275236140575813,0.011750628933855933,0.9861315681459827
2012-10-18,1,0.0019375946237887044,0.0021499493249796313,-0.010275236140575813,0.011750628933855933,0.9867335396754351
2012-10-22,1,0.0010667014752897604,0.0011413244958008526,-0.004426240710543421,0.011750628933855933,0.987895022817479
2012-10-24,-1,-0.00016974643832091605,-2.118127885133048e-06,-0.00399592431661764,0.011765146479052253,0.9875891451882758
2012-10-26,1,0.0014544600438945103,0.0015761679231061844,-0.0058797643830029705,0.010379948296765706,0.9889141844182778
2012-11-01,1,0.0017050283391589855,0.0018262322718842973,-0.0058797643830029705,0.010379948296765706,0.9893262749933792
2012-11-05,1,0.0016351233959320916,0.0017422332323038148,-0.005555027961381775,0.004995696569352972,0.9899689738802099
2012-11-07,1,0.0005280160180447136,0.0005739983737902008,-0.005555027961381775,0.0026323737320406142,0.9927015808026248
2012-11-09,1,0.0009426972514389205,0.0009937233237900793,-0.005113135001848616,0.0025107024120170946,0.9930150596556775
2012-11-13,1,0.0010068645200615887,0.0010649333719133542,-0.005113135001848616,0.0025172458458674134,0.9933890623044097
2012-11-15,0,-3.562092313937824e-05,6.959293246318229e-05,-0.0046304749291451565,0.0030556346539795873,0.994441459958816
2012-11-19,1,0.00011602002800551451,0.00024783828370310025,-0.0046304749291451565,0.005654804430857228,0.9928537645847204
2012-11-21,1,3.34347614200771e-06,0.00013633620083800408,-0.0046304749291451565,0.00680032039743872,0.9924495627745837
2012-11-26,1,0.0007432252171169326,0.0007578303067668043,-0.0055189208082516575,0.004456755949349458,0.9922768980836374
2012-11-28,1,0.0005285197577961154,0.0005623708506729279,-0.0055189208082516575,0.004456755949349458,0.9919777722097636
2012-11-30,1,8.612705208197873e-05,0.00015211733803925995,-0.0055189208082516575,0.004456755949349458,0.9919048658740507
2012-12-04,-1,-0.0005436026144332828,-0.0003820492702544405,-0.005063238649937013,0.007309799255093139,0.9904735113361437
2012-12-06,-1,-0.0006473574067343055,-0.0004999940016128054,-0.0047676028652269805,0.012478028003253563,0.9896044800386877
2012-12-10,-1,-0.0009681720893000347,-0.00075720392113822,-0.004030986336185197,0.012478028003253563,0.9893560832426909
2012-12-12,-1,-0.0006663859643161063,-0.00049771287186739,-0.004030986336185197,0.012478028003253563,0.9893075352544893
2012-12-14,-1,-0.0008325514738821939,-0.000603644403029902,-0.004030986336185197,0.011759703761124216,0.989821957713014
2012-12-18,1,0.0003745031429166313,0.00046722518174154563,-0.0047676028652269805,0.008131209004579676,0.991443810036365
2012-12-20,1,0.0005146543184271664,0.0005474495319129171,-0.0047676028652269805,0.008131209004579676,0.9915838795778884
2012-12-24,-1,-0.0012989923812186826,-0.0010401075410795234,-0.0038034317003817304,0.01161654749710083,0.9897573992010872
2012-12-27,-1,-0.002268774974922602,-0.0018536462121725118,-0.001517832667638318,0.012185499403204986,0.9889270798434949
2012-12-31,-1,-0.0013974348024583597,-0.0011359632090541553,-0.001517832667638318,0.012291127924119771,0.9891951376403362
2013-01-03,-1,-0.00025591619537443426,-0.00018738375531323983,-0.001517832667638318,0.012291127924119771,0.9903715501250682
2013-01-07,1,0.0005610586809397898,0.0005939094944833402,-0.0027503591956695994,0.01161654749710083,0.9910274551012519
2013-01-09,1,0.0009170652567706023,0.001009918745231791,-0.0027503591956695994,0.009203429971095908,0.9914980017580515
2013-01-11,1,0.0010428177637570308,0.0011565543832639596,-0.0035791528494803593,0.009203429971095908,0.9917302922016455
2013-01-15,1,0.0009103511740980866,0.0009857499676902332,-0.0035791528494803593,0.009203429971095908,0.9916714637461448
2013-01-17,1,0.001068631708427845,0.0011714676273104966,-0.0035791528494803593,0.006526476468727303,0.9922913954478119
2013-01-22,1,0.0009429202542799,0.0010095584264225778,-0.0039166482263628885,0.00945221475603408,0.9907477280973676
2013-01-24,1,0.0020124693764062263,0.002216223653111745,-0.0039166482263628885,0.007613591382135519,0.9922431881484339
2013-01-28,1,0.002100236777923929,0.002317587585545152,-0.005565235214888921,0.005496151494024953,0.991521189390611
2013-01-30,1,0.0024987744410578426,0.0027975461042088175,-0.008378881350078264,0.005496151494024953,0.9914832211873522
2013-02-01,1,0.002903959669131329,0.003300021001816211,-0.008807320178822181,0.005317284202312261,0.9917031756834057
2013-02-05,1,0.0028665008044435397,0.003179984884795741,-0.005323842829598281,0.006862478107131279,0.9912318947989185
2013-02-07,1,0.003252244867407583,0.0036389246163340463,-0.005323842829598281,0.009473321862492584,0.9900979161802927
2013-02-11,1,0.0034820935078880904,0.00394426420501486,-0.006027162414777322,0.009473321862492584,0.9900833407981477
2013-02-13,1,0.003369094494806285,0.0037939350407249625,-0.006027162414777322,0.010155789750485294,0.989621620733661
2013-02-15,1,0.0027342774769960635,0.003032662415994954,-0.008403407354948888,0.010155789750485294,0.9892313408451708
2013-02-20,1,0.0024229341338887936,0.00265432899902143,-0.006027162414777322,0.010155789750485294,0.9902134879285106
2013-02-22,1,0.0018776361282426789,0.0019932939805173914,-0.006027162414777322,0.010155789750485294,0.9888762905446041
2013-02-26,1,0.0012697619707088689,0.0013035023008797367,-0.006027162414777322,0.010155789750485294,0.98925148977795
2013-02-28,1,0.0011111127922288579,0.0011282497495644906,-0.00562323110819948,0.010155789750485294,0.9893191060441676
2013-03-04,1,0.0011847266021117967,0.0012166594016362986,-0.0069578937089287115,0.010155789750485294,0.9890744428853819
2013-03-06,1,0.001855832264761943,0.0019852961000722405,-0.008500003346572724,0.00946910350410012,0.9889834873019987
2013-03-08,1,0.002254075068915307,0.002411027551198948,-0.0090373154617351,0.007269692667623649,0.9897191262604129
2013-03-12,1,0.0019707957847756035,0.002062838390667779,-0.0090373154617351,0.00946910350410012,0.9882167423243514
2013-03-14,1,0.0026577926370257455,0.0028809450520268613,-0.0090373154617351,0.00881285473307138,0.9882233648489311
2013-03-18,1,0.0026340070732005175,0.002867159857459303,-0.009177381190952209,0.00946910350410012,0.9856105943554501
2013-03-20,1,0.0023769652361241168,0.002546873339631348,-0.012646328683436495,0.00881285473307138,0.984395798007767
2013-03-22,1,0.0008835718660361381,0.0009240835973606618,-0.010114060559261567,0.00946910350410012,0.9863136826956495
2013-03-26,1,0.0014045016019416144,0.0014791030853967746,-0.010114060559261567,0.011502034794745552,0.9862822584953989
2013-03-28,1,0.0016749766581088453,0.0018042886922535882,-0.014179265412074826,0.011502034794745552,0.9820782836889521
2013-04-02,1,0.0009745190305396,0.0010115148421803001,-0.014179265412074826,0.013486604410255293,0.9818481290373696
2013-04-04,1,0.00010808606004922451,0.00024000304548162343,-0.014179265412074826,0.014183192735866535,0.9808363043906033
2013-04-08,0,-0.00011230041314119266,5.047409117253258e-05,-0.014179265412074826,0.01605251256826935,0.9802767991412193
2013-04-10,1,0.001349219413734473,0.0013503227168802862,-0.014179265412074826,0.01467930657791264,0.9813169346140039
2013-04-12,1,0.00019191391177492405,0.0003721368392120872,-0.014179265412074826,0.01467930657791264,0.9814617074994901
2013-04-16,1,5.0964268993774e-06,0.00019087876879151852,-0.009243891705953978,0.01467930657791264,0.9828558422716192
2013-04-18,-1,-0.0014515628927048425,-0.0010809397170020811,-0.006112845033072814,0.017975575691537307,0.9825268562846889
2013-04-22,-1,-0.001032743505508272,-0.0007096200134730484,-0.006112845033072814,0.017975575691537307,0.9831722498324531
2013-04-24,-1,-0.0009156683050246211,-0.000588172171384397,-0.008947358977418898,0.017975575691537307,0.9824878437404138
2013-04-26,-1,-0.003554366290461898,-0.002913730010488525,-0.008947358977418898,0.017975575691537307,0.984804453276755
2013-04-30,-1,-0.0027920122212833796,-0.00223853817418473,-0.008947358977418898,0.017975575691537307,0.9846337059989272
2013-05-02,-1,-0.003014069182256117,-0.0024083572713862245,-0.008947358977418898,0.017975575691537307,0.9859475022153387
2013-05-06,-1,-0.0030959865249731724,-0.0024683132479437053,-0.01226242739729372,0.015320327619001959,0.9858530676464903
2013-05-08,-1,-0.002514614083131607,-0.001955390262387779,-0.012854109399220942,0.018088550764418215,0.9849449284361865
2013-05-10,-1,-0.0026135890742489103,-0.002060764190954904,-0.012854109399220942,0.018088550764418215,0.984512418282874
2013-05-14,-1,-0.0007300416420309234,-0.00048586673304342473,-0.01479269403157642,0.013122517346788926,0.9848465363876153
2013-05-16,1,0.00035078684560315413,0.00047701929734917026,-0.01479269403157642,0.0039633961906166675,0.9851828691682294
2013-05-20,-1,-0.0003684384842616524,-0.00010551278339731099,-0.01479269403157642,0.013324049888739026,0.9843233575100426
2013-05-22,-1,-0.0019737948733441046,-0.00150467500638957,-0.01479269403157642,0.013324049888739026,0.9851440553708072
2013-05-24,-1,-0.003079038317268434,-0.0025074666949021136,-0.01479269403157642,0.013324049888739026,0.986138302441281
2013-05-29,-1,-0.00145127600017939,-0.0011032183859021973,-0.01479269403157642,0.013324049888739026,0.9866163425223343
2013-05-31,-1,-0.0008556246588878363,-0.000622857244983891,-0.01479269403157642,0.012848483474849738,0.9870504624007478
2013-06-04,-1,-0.0017784261517645678,-0.0014516654547351293,-0.01011344955111615,0.012848483474849738,0.9879474846860433
2013-06-06,-1,-0.001409191268018987,-0.001130521389121497,-0.006366363005254302,0.012848483474849738,0.9885929572534907
2013-06-10,-1,-0.001546028733265433,-0.0012528276424441135,-0.004670151811875291,0.013964868262474804,0.9887585153295996
2013-06-12,-1,-0.0024628631790023724,-0.0020693661978065194,-0.004096870600500315,0.013964868262474804,0.9898755796755303
2013-06-14,-1,-0.001417853731251255,-0.001154656219653509,-0.004096870600500315,0.010980948652587726,0.9909383185163635
2013-06-18,-1,-0.0001214616214179054,-6.635463192538552e-05,-0.004670151811875291,0.0059362298747046025,0.9906478286514012
2013-06-20,-1,-0.0006685860121038316,-0.0005706738338714057,-0.004670151811875291,0.010980948652587726,0.9905221664898511
2013-06-24,-1,-0.0010408277715965215,-0.0009115565770129026,-0.004156603775251197,0.012971465673138859,0.9907459004921406
2013-06-26,-1,-0.00028789399245166594,-0.0002544840673558037,-0.004670151811875291,0.010900815475902104,0.9914786065280773
2013-06-28,1,7.012013786820357e-05,7.472957422136061e-05,-0.004535316081646845,0.0059362298747046025,0.9921758653281001
2013-07-02,1,0.00026765485633947566,0.0003072496196956482,-0.004316043907479241,0.005263041951763519,0.9924799103307884
2013-07-05,1,0.0008534642828960807,0.0009624693164440859,-0.004316043907479241,0.005263041951763519,0.992708507925266
2013-07-09,1,0.0011124238707543202,0.0012641011571619622,-0.006311784257775996,0.0033415777906590865,0.9925196333654772
2013-07-11,1,0.0008672397382538629,0.0009776527688563927,-0.006311784257775996,0.0033415777906590865,0.9924347516759614
2013-07-15,1,0.0010398473092213631,0.0011676542974150216,-0.007594123364214839,0.0024517327631391078,0.9921445021365963
2013-07-17,-1,-8.887295861911857e-05,-6.255878957769669e-05,-0.006311784257775996,0.004102083176944823,0.9931313639442988
2013-07-19,-1,-0.0003398158094446948,-0.0002447392589626758,-0.006311784257775996,0.0024517327631391078,0.9932877319997461
2013-07-23,1,0.000181130601083678,0.00021160781057829063,-0.007423935665653087,0.0019452825991018853,0.9928049727042363
2013-07-25,-1,-0.00018150463090179435,-0.00010550798424438683,-0.008112042258225509,0.0019452825991018853,0.9924719547514175
2013-07-29,1,0.00020853054449767976,0.00023308875747553846,-0.008112042258225509,0.0022115655218746325,0.9924052351281054
2013-07-31,1,0.0010189996928362025,0.001206873429049609,-0.009149350715037662,0.001244641638635998,0.9919764878082682
2013-08-02,1,0.001531508624780186,0.001784614345779103,-0.009149350715037662,0.001244641638635998,0.9921755237780739
2013-08-06,1,0.0012345762320381947,0.0014784337972455885,-0.008112042258225509,0.0018597807450233595,0.9927468457414921
2013-08-08,1,0.0012027069076901622,0.0014382247664024156,-0.008112042258225509,0.0035787804504894623,0.9929174678714497
2013-08-12,1,0.0012975770523669472,0.0015671244103929827,-0.004837849751380494,0.009171265831879077,0.9923223025234448
2013-08-14,1,0.0006669099261592875,0.0007840200377709025,-0.003997860376317671,0.005848605234936044,0.9926741101835791
2013-08-16,1,0.00018243266115747458,0.00023997646057384318,-0.0036306530472094093,0.00921334126393039,0.9933611290768891
2013-08-20,1,0.0002742610089118335,0.0003500008171758058,-0.0030448496570402096,0.007801925743083641,0.9938190461127446
2013-08-22,-1,-0.000659628246942241,-0.0005812871843756818,-0.0030448496570402096,0.007801925743083641,0.9934112492025677
2013-08-26,-1,-0.000711533575380818,-0.0006166940643884127,-0.0049601052703782764,0.007801925743083641,0.9925643409269242
2013-08-28,-1,-0.0010771036496956634,-0.000932328531121262,-0.003825331941574341,0.007801925743083641,0.9930527149748661
2013-08-30,0,-5.6689171747095535e-05,2.757319685583223e-07,-0.006298877550878282,0.007009345868896986,0.9929980699119356
2013-09-04,1,0.00016183075294135817,0.00022856059988316516,-0.007547296303763495,0.005852352526898491,0.9920756984128457
2013-09-06,1,1.7242411024283045e-06,2.9594318708428397e-05,-0.008621494712911628,0.007009345868896986,0.991156642996197
2013-09-10,1,0.0001289795227320308,0.00015029506263958495,-0.010279987070179627,0.004312242857909115,0.9911283958746582
2013-09-12,1,0.000246489772441491,0.0002608621669381218,-0.010279987070179627,0.007009345868896986,0.989279576828915
2013-09-16,1,0.0006486506674096525,0.0007421350307410048,-0.010279987070179627,0.007009345868896986,0.9891578480955088
2013-09-18,-1,-0.00026518577271163527,-0.0001311169613358625,-0.010279987070179627,0.006108610890463396,0.9885578874230779
2013-09-20,-1,-0.000584510722502988,-0.0004612830259093974,-0.008676863534022737,0.009396946182803007,0.9885146900058691
2013-09-24,-1,-0.0011650554616765172,-0.0009778482734789933,-0.008098598230591017,0.009396946182803007,0.9894172859020074
2013-09-26,-1,-0.0006289227825005695,-0.0004558108150000789,-0.008098598230591017,0.01436752667634983,0.9877573424167438
2013-09-30,-1,-0.0008019191587363676,-0.0006703826353563355,-0.00748618402639755,0.015813536451022115,0.9865509858499724
2013-10-02,-1,-0.0018380841023744581,-0.0015769358481479438,-0.00748618402639755,0.015813536451022115,0.986308864389562
2013-10-04,-1,-0.0008137343611191532,-0.0007071153620645545,-0.0062371674450853315,0.014590860159002416,0.9873926046146824
2013-10-08,-1,-0.0010989059288096996,-0.0010512675456266335,-0.004372940669272285,0.014590860159002416,0.987805042853366
2013-10-10,1,9.29054457730263e-05,0.00018616736905609086,-0.006217074094321859,0.011671053395430715,0.9891568143051938
2013-10-14,-1,-0.00020850537113038169,-0.00020018123453682368,-0.006217074094321859,0.012813853339344983,0.9880636007025594
2013-10-16,-1,-0.0005397547990368043,-0.00046052010094027216,-0.005853028233197611,0.012813853339344983,0.9882781811846428
2013-10-18,1,0.000507360993615417,0.0005519193485168544,-0.005853028233197611,0.011671053395430715,0.9891096385909587
2013-10-22,1,0.0004086820351673095,0.00045413012225422683,-0.006217074094321859,0.011671053395430715,0.9887472100957487
2013-10-24,1,0.00021187991877313618,0.0002509579511319975,-0.005853028233197611,0.012556616991971359,0.988691936413965
2013-10-28,1,0.0014667192127520673,0.001638985506037346,-0.005853028233197611,0.008759895151917914,0.9901172416945007
2013-10-30,1,0.0005012490776967492,0.0005445538227109655,-0.005853028233197611,0.007242070731990229,0.9911622212820371
2013-11-01,1,3.326690313974965e-05,9.115125979051333e-05,-0.004178403212654628,0.007242070731990229,0.9912202941342045
2013-11-05,1,0.0007109316463878987,0.0008092324394651677,-0.004178403212654628,0.007242070731990229,0.9912499974652751
2013-11-07,1,0.00014377372376210592,0.00018962556134171846,-0.00234813307553261,0.00616106313124612,0.9920180246164864
2013-11-11,1,0.0009161175865786727,0.0010215071195435427,-0.00234813307553261,0.005412315778925795,0.9935658774267014
2013-11-13,1,0.001195091872205512,0.0013090724212898798,-0.00234813307553261,0.005412315778925795,0.993840052883388
2013-11-15,1,0.0014004762544486964,0.0015709111004839236,-0.0033547695676717495,0.005412315778925795,0.993806310348411
2013-11-19,1,0.0012405753335585487,0.0014053993614250495,-0.0010783672857491776,0.00616106313124612,0.9929018191237314
2013-11-21,1,0.0024179665209126643,0.0027313792013517217,-0.0010783672857491776,0.005412315778925795,0.9940594800591357
2013-11-25,1,0.0028406320092021504,0.0032522424106237375,-0.0010783672857491776,0.005229952080881764,0.9944070055152319
2013-11-27,1,0.0025567147202692425,0.002943163358384045,0.00033444698483059616,0.005229952080881764,0.9949392052500949
2013-12-02,1,0.002653637701878213,0.003043883227122961,-0.0014773315571969263,0.005412315778925795,0.9943823496561136
2013-12-04,1,0.0027640332088220655,0.003187693446645599,-0.0014773315571969263,0.00640585548162702,0.9938659806234293
2013-12-06,1,0.002239235402505726,0.0025153367562161357,-0.0014773315571969263,0.006242502767709043,0.993659593934787
2013-12-10,1,0.0026501577438331697,0.002983395594394245,-0.0014773315571969263,0.009351505007120653,0.993170844522508
2013-12-12,1,0.0025945370448712934,0.002956247210752462,-0.0014773315571969263,0.007802051679546504,0.9931595773695132
2013-12-16,1,0.00242413649994784,0.0027489157662990093,-0.0008504472735095522,0.011782770589639256,0.9921003489636077
2013-12-18,1,0.0030763800202480117,0.0034954463547182137,-0.0011894423475338131,0.011044577512535613,0.9931931104294555
2013-12-20,1,0.0036974752213960096,0.004218403985210615,-0.002165399751939785,0.007802051679546504,0.9932422787366085
2013-12-24,1,0.004046573387029484,0.004647242334243218,-0.00597244106821928,0.007802051679546504,0.9916704500456539
2013-12-27,1,0.003578122157831737,0.004064040088729256,-0.009181659840054026,0.011044577512535613,0.990488836223972
2013-12-31,1,0.0036216262412654696,0.0041284602839203426,-0.01197436918885302,0.008753171080469663,0.9899807380508941
2014-01-03,1,0.0033078259117936383,0.0037616743604758935,-0.013233640620539588,0.0070382495355245205,0.987560573223126
2014-01-07,1,0.0033870588352301464,0.0038548178907488106,-0.014686255465838056,0.008896823702064256,0.9864399941206689
2014-01-09,1,0.0033303954437472094,0.0037385841867099224,-0.014686255465838056,0.010789748080559311,0.9862798646044871
2014-01-13,1,0.002660667777553182,0.002975558238327739,-0.01330219223098841,0.010789748080559311,0.9870862102699087
2014-01-15,1,0.003000515507384027,0.0033314682620432636,-0.01330219223098841,0.009695904872024885,0.9873776892950101
2014-01-17,1,0.002679944991611278,0.0029589432824178802,-0.01330219223098841,0.010789748080559311,0.9867932649847618
2014-01-22,1,0.002236501782913379,0.002431147418383765,-0.01330219223098841,0.010789748080559311,0.9864317801940709
2014-01-24,1,0.0013821581613814127,0.0014694423571524147,-0.011762785881383341,0.011947651305791413,0.9868312342006055
2014-01-28,1,0.0013756644489419816,0.00146948489666448,-0.011617272215693928,0.010789748080559311,0.9873641966366988
2014-01-30,1,0.0008499219616202778,0.0008743500159324655,-0.0050172927377458015,0.010789748080559311,0.9880478363601581
2014-02-03,-1,-0.0017614124155747042,-0.0015220508904233274,-0.0030714621802137294,0.012070872318269431,0.9883270796850445
2014-02-05,-1,-0.0016738843093812787,-0.001445055323650691,-0.0030714621802137294,0.010789748080559311,0.9895599572283683
2014-02-07,-1,-0.0007383268067144995,-0.0006262027973086553,-0.0032693355343124926,0.009321580475451417,0.9903462230449201
2014-02-11,1,6.052131107000262e-06,6.242366920342836e-06,-0.004047793416843034,0.008663802908458713,0.9904131994967832
2014-02-13,1,0.0003716077832314352,0.00037559992911770487,-0.009845970570227423,0.007397287517801021,0.9906261481330478
2014-02-18,1,0.00031503325953474845,0.0003615534199566125,-0.009845970570227423,0.007397287517801021,0.9906939725828665
2014-02-20,1,0.0002771937001183742,0.0003383810850842181,-0.006144248316122267,0.007421155914878715,0.9899572038629051
2014-02-24,1,0.0003635534453126359,0.0004630183474318577,-0.006943280470066694,0.00491167933356003,0.9905348371432133
2014-02-26,-1,-0.0011404257470685937,-0.0008134407189159704,-0.006943280470066694,0.00491167933356003,0.990799064790077
2014-02-28,-1,-0.0006341575066265472,-0.0003774630217364172,-0.006943280470066694,0.0040466418664662565,0.9902434275074499
2014-03-04,-1,-0.0011617145346103884,-0.0007608950983029621,-0.006119059580158482,0.0040466418664662565,0.9909352035097965
2014-03-06,-1,-0.0006725097755472866,-0.00037357520449095543,-0.006433214758410807,0.008311260337379656,0.9902938224020228
2014-03-10,-1,-0.0006014333570409573,-0.00033299440630478287,-0.010288122450427387,0.004011757787681896,0.9877463764909172
2014-03-12,-1,-0.0008535312757813145,-0.0005515607936855472,-0.007608207036766283,0.0072753723824865125,0.9879751832800101
2014-03-14,-1,-0.001543152043653704,-0.0011871348826141773,-0.008402766654887928,0.0072753723824865125,0.9865277390595123
2014-03-18,-1,-0.0011216874516040067,-0.0008008430745054154,-0.008402766654887928,0.0053835782701526095,0.9872474172281969
2014-03-20,1,0.00030488129051535126,0.00046517591694083095,-0.008402766654887928,0.0053835782701526095,0.9877699247196123
2014-03-24,1,0.000582156694379344,0.0006409647968568627,-0.008402766654887928,0.0072753723824865125,0.9871539721705336
2014-03-26,-1,-0.0004868215604417244,-0.0002630605277470971,-0.009017402162589179,0.0072753723824865125,0.987116596896125
2014-03-28,1,0.0002892982945690535,0.00042951693916939526,-0.012604331222940636,0.0053835782701526095,0.9870043820432931
2014-04-01,1,0.00014402981626227126,0.00029191850973033076,-0.012604331222940636,0.005555661068904162,0.9880448339948172
2014-04-03,-1,-0.0004810268125270364,-0.0002157001609391254,-0.012604331222940636,0.004921563818526134,0.988553511969341
2014-04-07,-1,-0.002517520885234125,-0.0020661588012714266,-0.009017402162589179,0.004921563818526134,0.9909008671660837
2014-04-09,-1,-0.00199038050619271,-0.0016408388554930238,-0.009574638786546774,0.004921563818526134,0.9900996545348976
2014-04-11,-1,-0.004320054241759271,-0.003692608614437496,-0.007516108003159397,0.0056953563229980375,0.9901582533433432
2014-04-15,-1,-0.004334500828666479,-0.003686474167493979,-0.009574638786546774,0.0056953563229980375,0.9898469793217746
2014-04-17,-1,-0.003196013268112346,-0.002752604313996246,-0.012568841602593356,0.004845632015537055,0.9892738005999969
2014-04-22,-1,-0.0022611100804154497,-0.0019317391783036848,-0.013360868839602124,0.004845632015537055,0.9888720417955722
2014-04-24,-1,-0.003348453787856678,-0.0028713401481979713,-0.013360868839602124,0.005170454710196994,0.9890119543602086
2014-04-28,-1,-0.004070973673867686,-0.0035251785853457605,-0.009826817992100603,0.005925780601755958,0.9886437996805367
2014-04-30,-1,-0.00345739427670868,-0.0029859801873488197,-0.011121572273034506,0.004922440108456362,0.9892303219812828
2014-05-02,-1,-0.0032914106027009176,-0.002852330351152836,-0.011121572273034506,0.006466879448364066,0.9886584474918679
2014-05-06,-1,-0.003848407761525278,-0.0033616250749508875,-0.009092215676693823,0.007947824163710381,0.988885311864066
2014-05-08,-1,-0.003397923129463615,-0.0029594240087800366,-0.007844708801995268,0.007145832735759733,0.9892322342084542
2014-05-12,-1,-0.001952179629113166,-0.0016843778677117255,-0.008538507497481147,0.007145832735759733,0.9906712102389208
2014-05-14,-1,-0.00247458642205331,-0.0022000708111472676,-0.007228554648613075,0.007145832735759733,0.9907160538280112
2014-05-16,-1,-0.00280516395271839,-0.0025320160530689835,-0.006497177008913592,0.007145832735759733,0.9917675435680309
2014-05-20,-1,-0.003035035837869483,-0.0027347590326180842,-0.005701827742063276,0.007145832735759733,0.9908309527038028
2014-05-22,-1,-0.0023430246121304973,-0.002121487328050135,-0.006497177008913592,0.007947824163710381,0.9905390041711625
2014-05-27,-1,-0.001679411859946608,-0.0015529360999278316,-0.007228554648613075,0.007145832735759733,0.9904245446638789
2014-05-29,-1,-0.002379905106050302,-0.002173639349416962,-0.005701827742063276,0.007673893147060073,0.9904340310491629
2014-06-02,-1,-0.001486558657256023,-0.0013898329111784002,-0.005701827742063276,0.007145832735759733,0.9910460430248212
2014-06-04,-1,-0.0006777666993855274,-0.000655551946550261,-0.005701827742063276,0.006953471368998881,0.9910533297264797
2014-06-06,-1,-0.0004729751419791016,-0.00045843836226119167,-0.0067284432407422184,0.007043221316904614,0.99036115047148
2014-06-10,1,0.00023024256907828577,0.0004086989445838974,-0.00792231090262681,0.006097061201357062,0.9902640221880149
2014-06-12,-1,-0.0005378833621330904,-0.0004703235289656226,-0.00792231090262681,0.006097061201357062,0.9905323026477479
2014-06-16,-1,-0.0006818479058808049,-0.0006351283871816185,-0.00792231090262681,0.006097061201357062,0.9906733704102861
2014-06-18,1,0.0003353238173803891,0.0004729938583776648,-0.00792231090262681,0.00519279161801578,0.9925627108330649
2014-06-20,1,0.0002982384774931262,0.00041978557053450234,-0.0059024095284293775,0.00519279161801578,0.9929132080875309
2014-06-24,-1,-0.00020842883560233188,-0.00018817162385134845,-0.005267055306206598,0.00519279161801578,0.9934706608342188
2014-06-26,-1,-0.0015073059381995805,-0.0012325149987119544,-0.0059024095284293775,0.00519279161801578,0.9920220992041253
2014-06-30,-1,-0.0009706461848875208,-0.000769310159647755,-0.007334987926037472,0.004520440754311,0.9920084765874472
2014-07-02,-1,-0.0005961456803524061,-0.0004759473412486093,-0.008481533219040573,0.005250838783825249,0.9904436783849233
2014-07-07,-1,-7.13842459895424e-05,-2.949459777992353e-05,-0.008766575285726406,0.004332462226319379,0.9910164064892127
2014-07-09,-1,-0.00018708033759591013,-0.0001759274895480297,-0.007895769325585694,0.005215147466833336,0.9915102198471649
2014-07-11,1,5.033459037573446e-05,0.0001007049140688911,-0.007895769325585694,0.006240280845796562,0.9908641010244447
2014-07-15,0,-1.3825533262567158e-05,2.3894914087765128e-05,-0.007895769325585694,0.00902466358675092,0.9905152512874683
2014-07-17,1,0.0005568501673793521,0.0007097537891845,-0.007895769325585694,0.00902466358675092,0.9903971723348629
2014-07-21,1,0.00027023466155009764,0.00034652730766991104,-0.007895769325585694,0.00902466358675092,0.9904662962926304
2014-07-23,1,0.0006784938714236959,0.0008401395883218287,-0.007895769325585694,0.009536957637797959,0.9904553837599509
2014-07-25,1,0.0008033347635579259,0.0009911732400017716,-0.00355675067570883,0.009536957637797959,0.9915334385466098
2014-07-29,1,0.0005634157321542145,0.0006985542591126952,-0.0015258000458992953,0.010013990380016137,0.9912425985779622
2014-07-31,1,0.0007275058706111943,0.0009552984348628359,-0.0015258000458992953,0.009536957637797959,0.992896049375575
2014-08-04,1,0.0007030039682082197,0.0009176018361469733,0.0004962118034962904,0.009536957637797959,0.9932208949316662
2014-08-06,1,0.000530151293733691,0.0006185553367535396,0.0004962118034962904,0.009536957637797959,0.9933415093788492
2014-08-08,1,0.0011008515762949242,0.001290167027665085,0.0011016840301427062,0.0071686135199346985,0.9951793269774654
2014-08-12,1,0.0017264218289002558,0.002070379670115591,0.00048566022544952944,0.005851434325473156,0.9952314203930945
2014-08-14,1,0.00178487264571274,0.0021235912989841263,-0.0015014303915526978,0.0054201898741399164,0.9951624538467986
2014-08-18,1,0.0018069311308920228,0.0021235689881609707,-0.0004702826911614481,0.0054201898741399164,0.9954544599511302
2014-08-20,1,0.0025650437373909984,0.003042710910981338,-4.586452584633956e-05,0.005757258217248244,0.9952340780125828
2014-08-22,1,0.0025156954054587283,0.0029957131361126052,-0.002601989900222883,0.0054201898741399164,0.9951464230117544
2014-08-26,1,0.0028978755408473836,0.0034349928327635404,-0.004957956403161653,0.0036644391334647985,0.9941001715226585
2014-08-28,1,0.0014530956467883418,0.001678067396621133,-0.004378439624476084,0.0054201898741399164,0.994625362697362
2014-09-02,1,0.0017086732245731938,0.00200932503088841,-0.006699670418368862,0.002841778836151672,0.9936574808165202
2014-09-04,1,0.000761041133621902,0.0008464516943073456,-0.007839875966494488,0.003567113711870699,0.9924231855241118
2014-09-08,1,0.0011858045011356767,0.0013270655785955242,-0.008488598866048086,0.006386898649498832,0.991412087590972
2014-09-10,1,0.0009902771023730175,0.001108605042811404,-0.008759792022168663,0.007890412695477307,0.9905444681338428
2014-09-12,1,0.0012118345819105674,0.00139252104742491,-0.011676946474597874,0.007890412695477307,0.9892086863449487
2014-09-16,1,0.001050534403460582,0.001170393081640959,-0.013317364907895122,0.0067557235071631265,0.9886265701315538
2014-09-18,1,0.0009760589042000162,0.0010303992475385309,-0.013317364907895122,0.002985593689616223,0.9887820462246684
2014-09-22,1,0.001524007301056301,0.001703978009608143,-0.013317364907895122,0.006637028098670616,0.9880635434874614
2014-09-24,1,0.0009905432501786204,0.0011024429018591294,-0.013317364907895122,0.009493839405292878,0.9869147933340343
2014-09-26,1,0.0011275398524749562,0.0011968299120513632,-0.013317364907895122,0.009493839405292878,0.9864280336150801
2014-09-30,1,0.0001947400264057213,0.00022772685369592115,-0.011365547410033148,0.01146372687194908,0.9866397055789979
2014-10-02,1,0.0006401841364963335,0.0007221539509168052,-0.008347107717713523,0.01236813894417435,0.9874556274496972
2014-10-06,-1,-0.00026538587618150813,-0.00019166325218445839,-0.006188345123617466,0.013130251091640508,0.9872926584405832
2014-10-08,-1,-0.0007226073444556487,-0.000573857712024609,-0.004472284887501515,0.013130251091640508,0.9880841589687173
2014-10-10,-1,-0.001836624298136205,-0.0015281611952744202,-0.0030797859731582712,0.013130251091640508,0.9885655608890248
2014-10-14,-1,-0.0019256112881156113,-0.0016335496161105822,-0.00017212073201349517,0.013130251091640508,0.9881564032229904
2014-10-16,-1,-0.001752898861175362,-0.0015005436766063326,-0.0030158695867006325,0.013130251091640508,0.9885451886338917
2014-10-20,-1,-0.0017211162947588688,-0.001434184398923356,-0.00494553520746159,0.010622081171692145,0.9898354365350849
2014-10-22,-1,-0.0014678433696755178,-0.0012310795290061728,-0.004782338746638295,0.009476638671005677,0.9920501645977808
2014-10-24,-1,-0.00010332549196847367,-4.5409538120526734e-05,-0.00494553520746159,0.009476638671005677,0.9922790292420605
2014-10-28,1,0.000543623521852778,0.0005854962391083787,-0.00494553520746159,0.008631950874478258,0.9932021451133584
2014-10-30,1,0.00038724092541556277,0.00039376734559374264,-0.00494553520746159,0.0057113092064330585,0.9938759770414795
2014-11-03,1,0.0005202687092019626,0.0005224659589383658,-0.004981650871226451,0.0057113092064330585,0.99393486921353
2014-11-05,1,0.0007782889394426207,0.0007975060914773347,-0.004981650871226451,0.005340998556263895,0.9941837835091422
2014-11-07,1,0.0008509800452905234,0.000943995952307299,-0.004782338746638295,0.0073086352175365755,0.9940304656565022
2014-11-11,1,0.0014041928088513612,0.0015725434628214652,-0.004981650871226451,0.004957522474512001,0.9933925430460565
2014-11-13,1,0.000672014107702377,0.0007177552319840917,-0.004981650871226451,0.004957522474512001,0.9928359434381846
2014-11-17,1,0.0005204023710455823,0.0005518871639201341,-0.005344588934436685,0.004957522474512001,0.9925489224111658
2014-11-19,1,0.00030976220970851194,0.00033257761815372355,-0.004269670595168224,0.007628726244998563,0.990370730142442
2014-11-21,1,0.0006256670371772406,0.0006791703492770472,-0.00235493739679444,0.005787896322111729,0.9912187112322497
2014-11-25,1,0.0007157501957780535,0.0007834610733225811,-0.00235493739679444,0.007628726244998563,0.9907800769723916
2014-11-28,1,0.0002791712490203621,0.00030003278003071113,-0.0024268370666483733,0.007628726244998563,0.9906315046064588
2014-12-02,1,0.0002685095340767788,0.00029317868839281384,-0.0024268370666483733,0.005787896322111729,0.9912892381204155
2014-12-04,1,4.990254437927619e-05,0.00010886760174264078,-0.0034245050865771426,0.004788417641147232,0.9901787855289871
2014-12-08,1,0.0004895858439225573,0.0004958807534188338,-0.007571127389727072,0.002839644583069196,0.9891932084108024
2014-12-10,-1,-0.00047936729876340027,-0.0003627933211216959,-0.007571127389727072,0.005656245379289026,0.9887075590372311
2014-12-12,-1,-0.000984506462801208,-0.0008149274765144014,-0.007144069008269605,0.005656245379289026,0.9892668193827955
2014-12-16,-1,-0.0013110138869681784,-0.0010918145383999964,-0.013749295982554909,0.005656245379289026,0.9886233378172891
2014-12-18,1,9.653615834861443e-06,8.846130625484981e-05,-0.013749295982554909,0.002839644583069196,0.9897356580795327
2014-12-22,1,0.00012821687236476138,0.00019222336970758968,-0.013749295982554909,0.003943110229451827,0.9879238799393486
2014-12-24,1,0.0002625596460434142,0.0003086742691281534,-0.015027563207287976,0.003943110229451827,0.9857218758036992
2014-12-29,1,0.0003937819867333409,0.000432142407213184,-0.01735425733230471,0.003943110229451827,0.9844179845928785
2014-12-31,1,0.00019252604856741156,0.0002557786466924146,-0.01735425733230471,0.010025425940702931,0.9833458499832315
2015-01-05,-1,-0.0007581024589856253,-0.0005931030409628069,-0.015027563207287976,0.014839100049500382,0.9831785625573061
2015-01-07,-1,-0.0008030978566272639,-0.0006410101956441556,-0.013749295982554909,0.014839100049500382,0.9842534926049068
2015-01-09,-1,-0.0008518156341438481,-0.0006971206100562073,-0.013749295982554909,0.014839100049500382,0.9844057321185132
2015-01-13,-1,-0.0012687626305835434,-0.0010762782854807128,-0.0128805830658492,0.014839100049500382,0.984289745186319
2015-01-15,-1,-0.0016752044699323055,-0.0014632052672455369,-0.007005075536899352,0.01735280675383732,0.9844667481139738
2015-01-20,-1,-0.0015117388424441655,-0.001341671581787955,-0.00796516588261785,0.01735280675383732,0.9849693453302748
2015-01-22,-1,-0.00047805545235141546,-0.00040845976586200604,-0.00796516588261785,0.013801086228408593,0.986683686993561
2015-01-26,-1,-0.00039307095848586373,-0.0003506251857164819,-0.006325822406696182,0.013801086228408593,0.98839252860779
2015-01-28,-1,-0.001620948403634543,-0.0014335350691590844,-0.00366265202744358,0.013801086228408593,0.9893848509175415
2015-01-30,-1,-0.0009084159733505718,-0.0008112640686898225,-0.0021652589737060283,0.013801086228408593,0.989988409013171
2015-02-03,1,9.163026587200262e-05,0.00010016987041223453,-0.0030406423180610416,0.012131607482941556,0.9915987755221681
2015-02-05,1,0.0002473673246743635,0.0002730264426673705,-0.0030406423180610416,0.012629728572896825,0.9914429326436928
2015-02-09,1,0.00042430153018387464,0.00048521658379962454,-0.0030406423180610416,0.009423953937434552,0.9923822002799667
2015-02-11,1,0.0012494012092849334,0.0014491350434146177,-0.0030406423180610416,0.013188655739536852,0.9916387398937444
2015-02-13,1,0.0011606847443806864,0.0013196354899424963,-0.0030406423180610416,0.009423953937434552,0.991648934447969
2015-02-18,1,0.000411169550249414,0.0004342733053840541,-0.004147259096717384,0.009423953937434552,0.9916568505407444
2015-02-20,1,0.000871478459675576,0.0009896315403510603,-0.00566442766592928,0.012958194949991213,0.9907519979441105
2015-02-24,1,0.0010038620363665243,0.0010891739747530362,-0.007347756035743413,0.008636017692996682,0.9910348536225688
2015-02-26,1,0.00043734037713430657,0.000441353428045557,-0.009116693796098996,0.008636017692996682,0.9907533086960753
2015-03-02,1,0.0008781896213440783,0.0009225345146241443,-0.009116693796098996,0.007776062487292755,0.9909920139255506
2015-03-04,1,0.0004858487643618196,0.0005040661699183407,-0.01090277063249238,0.007776062487292755,0.9904567708253512
2015-03-06,1,0.00046919731442239836,0.0005206290590966057,-0.01090277063249238,0.007776062487292755,0.9907674043017987
2015-03-10,-1,-0.0003430572341557892,-0.0001693259579691413,-0.009116693796098996,0.007776062487292755,0.9909986590272398
2015-03-12,1,0.00022653070524232847,0.000317773241565733,-0.01090277063249238,0.004897132838583269,0.9913854635324316
2015-03-16,1,0.0002782344999980805,0.0003573869105762622,-0.009116693796098996,0.004897132838583269,0.9919194291546607
2015-03-18,-1,-0.00017070625803225302,-5.513161588311039e-05,-0.007014279761658792,0.007053186445117824,0.9920994549889347
2015-03-20,1,0.00032508327005134185,0.0003543701608527271,-0.007014279761658792,0.006095698027853474,0.9924908019269139
2015-03-24,1,8.635001945795288e-05,0.00011880706456024361,-0.00584937920871144,0.006095698027853474,0.9928352665925236
2015-03-26,1,6.568126973618186e-06,2.5867356741747838e-05,-0.00584937920871144,0.007053186445117824,0.9928378654463857
2015-03-30,1,0.0004650271467060864,0.0005105691122358676,-0.00584937920871144,0.006095698027853474,0.9931611782492081
2015-04-01,1,0.0002219994634837464,0.00025653439389470363,-0.005304849269471312,0.006095698027853474,0.9931086247353182
2015-04-06,1,0.000458674958559844,0.0005173247949757383,-0.005304849269471312,0.006095698027853474,0.99272053118688
2015-04-08,1,0.0007312295010976297,0.0008566393447802878,-0.003960849456309024,0.005543536546883538,0.9932519012165686
2015-04-10,-1,-8.846393411389676e-05,-8.193285635546056e-05,-0.0003887762991078219,0.005984376622249553,0.9935182334365956
2015-04-14,1,0.0002657951730273652,0.0002923032139397181,-0.002882791890961095,0.005840831278550936,0.9933472450367867
2015-04-16,1,0.0004482753802868884,0.0004905539945194968,-0.002882791890961095,0.005551987155067376,0.9934055681231351
2015-04-20,1,0.00018510727935193216,0.00019842754247034866,-0.002882791890961095,0.0060097284468010655,0.9931191610004503
2015-04-22,1,0.0004286989627517395,0.00048066088063065883,-0.004220246474146188,0.0060097284468010655,0.9930493937378813
2015-04-24,1,0.0003531570112498909,0.0003865721048122914,-0.002882791890961095,0.005551987155067376,0.9937251336225085
2015-04-28,1,0.0004771823627544757,0.0005282955541640058,-0.004220246474146188,0.0060097284468010655,0.9934481169481152
2015-04-30,1,0.00014107936418350498,0.00015748645633272007,-0.004220246474146188,0.0060097284468010655,0.993566318900776
2015-05-04,1,0.000986699571942024,0.0011390070170138756,-0.004220246474146188,0.0046716984340914175,0.9944644339559101
2015-05-06,1,0.0004429312551136923,0.00048582030801532183,-0.005908262113490716,0.0060097284468010655,0.9933406398827201
2015-05-08,1,0.0003037666513782362,0.0003048143783320777,-0.005908262113490716,0.006163237474847766,0.9930603008893365
2015-05-12,-1,-0.0002319350523008313,-0.00015297151404609983,-0.004243210839984358,0.007662875347262418,0.9931184640297908
2015-05-14,1,0.0008623595496055138,0.0010069456843814816,-0.004243210839984358,0.004968752805836735,0.9936131419562979
2015-05-18,1,0.0011525295801239669,0.0013424583911386275,-0.004053141100731128,0.003940482491525593,0.9942859858804637
2015-05-20,1,0.001192151758032794,0.001401737473373746,-0.004053141100731128,0.004635698419607921,0.9939314387881708
2015-05-22,1,0.0011314780371985396,0.0013341042172709523,-0.004053141100731128,0.007424692681734929,0.9933885471093014
2015-05-27,1,0.001020266781907874,0.0011950824466094568,-0.004053141100731128,0.005205671950150698,0.9933833293903734
2015-05-29,1,0.00026880109594917215,0.0002897052924263507,-0.0024166247142948316,0.005959833756792079,0.9936957325987388
2015-06-02,1,0.00014888774350924186,0.00019089865703266151,-0.004053141100731128,0.005959833756792079,0.9922532330997335
2015-06-04,1,0.0003334710493570017,0.0003613560390245458,-0.003935884000749352,0.005630239486572221,0.9929329282259521
2015-06-08,1,0.00010886529305052027,0.0001817579284100703,-0.006090401501623049,0.004347093550185203,0.9926433008616039
2015-06-10,1,0.00017314602703083785,0.0002654669931140909,-0.009019558052400333,0.004347093550185203,0.9917125164861993
2015-06-12,1,3.888300776047279e-05,0.00016467130812381083,-0.009019558052400333,0.0075467861460289925,0.9902221775617562
2015-06-16,1,0.0005537027119757823,0.0005579230718482091,-0.009019558052400333,0.0075467861460289925,0.9902962668044184
2015-06-18,1,0.00033599695003443445,0.00035541750105702943,-0.005801463682659677,0.008130765341928487,0.9900065265024591
2015-06-22,0,-0.00011115196962765148,1.550360491374002e-05,-0.009313958626758769,0.005630239486572221,0.9903227675865115
2015-06-24,-1,-0.00014930183448181114,-4.201900890845754e-05,-0.009313958626758769,0.00702728933977357,0.9899164870725032
2015-06-26,1,0.00051830171292075,0.0005270352587658627,-0.010857226401776911,0.00702728933977357,0.9886647583440641
2015-06-30,-1,-7.687309695757257e-05,-2.3647959790587325e-05,-0.009686379991718185,0.009186709827205397,0.9892259093106306
2015-07-02,0,-6.972033420574929e-06,5.177793807672145e-05,-0.010277832896760784,0.009186709827205397,0.9888967432560616
2015-07-07,-1,-0.00021706442587182448,-0.00015658354701167601,-0.010277832896760784,0.009968570119573694,0.9892734354546525
2015-07-09,-1,-0.0002403938644428224,-0.00018132510439690245,-0.00965720299891255,0.008885737953634447,0.990582595708268
2015-07-13,1,0.0004381165775193561,0.0004395117601908169,-0.00965720299891255,0.007598330184968406,0.9912899476862762
2015-07-15,1,0.0003722281866306514,0.0003939661468772001,-0.010277832896760784,0.007598330184968406,0.9900043474348337
2015-07-17,1,0.0006083411517961376,0.0006913908638828269,-0.010277832896760784,0.007598330184968406,0.9902935646317563
2015-07-21,1,0.0001814936544513907,0.0001820209503191435,-0.010084492991789991,0.007598330184968406,0.9906196943642758
2015-07-23,-1,-8.034392814883306e-05,-7.399864907713012e-05,-0.012139096380409234,0.007598330184968406,0.9891799400960098
2015-07-27,-1,-0.0012043361667154794,-0.0010950712002104142,-0.012773740309231573,0.007598330184968406,0.9859770378204127
2015-07-29,1,0.0007857573538775404,0.0008987411989145114,-0.012773740309231573,0.006508885402898382,0.9846370900065766
2015-07-31,1,0.00012500155153210915,0.00012657124983298765,-0.011298530425628457,0.007111768057424462,0.9839666722758429
2015-08-04,1,0.000881452345317204,0.0010185340482395204,-0.018323332972318102,0.003215295333014114,0.9820933660983036
2015-08-06,1,0.00019424687816643825,0.00023188440889905927,-0.018323332972318102,0.007416473919794169,0.9818171674273293
2015-08-10,1,0.0005230168243606963,0.0005759079818307721,-0.018323332972318102,0.007416473919794169,0.9806159857180337
2015-08-12,-1,-3.3480451573190955e-05,-2.949969038509181e-05,-0.014820290508231514,0.01101560955025293,0.9810611048760396
2015-08-14,1,0.0003178915939261592,0.0003348763072905064,-0.014820290508231514,0.0045011324463479375,0.9813441958277391
2015-08-18,1,9.012439308203324e-05,0.00010593817498928042,-0.014820290508231514,0.011879919377258694,0.9806536633612576
2015-08-20,-1,-0.0010177948039149422,-0.0008831838240286373,-0.017096273369285302,0.011879919377258694,0.98060613873713
2015-08-24,-1,-0.0021700295185273543,-0.001877695925506479,-0.011189815714347103,0.011879919377258694,0.9845901946224122
2015-08-26,-1,-0.0007077557241167361,-0.0006082763844243288,-0.011189815714347103,0.008710216635777205,0.9860749842704429
2015-08-28,-1,-0.00035119742054973786,-0.00029341075778395876,-0.013438570356828123,0.008504399802446787,0.9860605739950807
2015-09-01,-1,-0.001722288960550301,-0.0014607749462342574,-0.011189815714347103,0.010785722614575742,0.9872371849943103
2015-09-03,-1,-0.0011402789024087855,-0.0009959258083338174,-0.012165452530218439,0.008668413738180277,0.9874118104264434
2015-09-08,1,0.00020831048207465826,0.00021052974035949934,-0.010859872674058493,0.008668413738180277,0.9874191190798948
2015-09-10,-1,-0.0016782268038902431,-0.001481407785507064,-0.00951307787185235,0.008656055910494054,0.9878453099852804
2015-09-14,-1,-0.0020855044857415904,-0.0018488136379741053,-0.009279965805650891,0.008656055910494054,0.9878891462153745
2015-09-16,-1,-0.0017897433956303513,-0.00158079403396297,-0.010859872674058493,0.007867235788091773,0.9881878019158931
2015-09-18,-1,-0.0032972754641385493,-0.002946219654673671,-0.00826991830130964,0.008656055910494054,0.9885274330401339
2015-09-22,-1,-0.003831204735927695,-0.003437668273858126,-0.007275207431217271,0.008656055910494054,0.9888192823943435
2015-09-24,-1,-0.0024517125297340205,-0.0022127164685019325,-0.007472479421947634,0.010542832298186651,0.9871588845199837
2015-09-28,-1,-0.0016185870531039267,-0.0014003312433865684,-0.006349164679128199,0.01126854945915727,0.9877535015911301
2015-09-30,-1,-0.0008430254338616333,-0.0007193617547249199,-0.006349164679128199,0.01126854945915727,0.9867655794263778
2015-10-02,-1,-0.0006032166962596326,-0.0004953549690329506,-0.006838015934601921,0.01126854945915727,0.9868630324004657
2015-10-06,-1,-0.0005963674775034772,-0.0005141249182020077,-0.006292038500185527,0.01126854945915727,0.9875383893794552
2015-10-08,1,0.00019063084844556213,0.00021950413514355724,-0.006292038500185527,0.009975490989901525,0.9882259482104488
2015-10-12,-1,-0.00021370806212794708,-0.00017995774638143546,-0.006838015934601921,0.015328917899196723,0.9865172730379443
2015-10-14,-1,-0.0008993332911809473,-0.0007795926229872466,-0.004457593582609967,0.015328917899196723,0.9873221640674401
2015-10-16,1,0.00011916224821652343,0.00012652457207791183,-0.007556011060993864,0.009975490989901525,0.988225356780317
2015-10-20,1,9.010722120340834e-05,0.00010943673263050268,-0.007556011060993864,0.010711898427423969,0.988164490161381
2015-10-22,1,0.00077682114918875,0.000863267780352634,-0.006145536057952988,0.010388363432790388,0.9895652893496748
2015-10-26,1,0.0009672089661083358,0.0010797349583444456,-0.006145536057952988,0.009886867422738223,0.9900028069129412
2015-10-28,1,0.00239731073617073,0.002693428066540534,-0.006145536057952988,0.009886867422738223,0.9918629536866265
2015-10-30,1,0.0014427081041345955,0.0016489890337269774,-0.001615536298376771,0.009886867422738223,0.9925921661156087
2015-11-03,1,0.0020710955950376227,0.002345430706036349,-0.003075204111834074,0.0064268383634380755,0.9932623315089232
2015-11-05,1,0.00202976580027983,0.002303852349739038,-0.005553990231915431,0.009886867422738223,0.9918531457895242
2015-11-09,1,0.0019840331089265376,0.0022478384638436374,-0.0035061630073547714,0.0064268383634380755,0.9932129866219259
2015-11-11,1,0.0021663079417601786,0.0024621261545976665,-0.005553990231915431,0.008448050048963516,0.9917681156419075
2015-11-13,1,0.001679381518989315,0.0018831988631633034,-0.005198990655495403,0.008448050048963516,0.9916182023614856
2015-11-17,1,0.0019293687156055543,0.002171069901173276,-0.005198990655495403,0.01033452012523553,0.9901871721333964
2015-11-19,1,0.0017242329010120527,0.0019153029595345102,-0.005198990655495403,0.008546644376845715,0.9901679158029125
2015-11-23,1,0.002025459488533875,0.0022562483999710326,-0.005198990655495403,0.008698514095696422,0.9899963073502264
2015-11-25,1,0.00213719502024811,0.002350656423967422,-0.006457998869630615,0.005980097348140573,0.9893587014131915
2015-11-30,1,0.0022076733470593342,0.0024038322855484935,-0.006457998869630615,0.008995509407816607,0.9889584759924575
2015-12-02,1,0.00232504773861602,0.0025875369867906063,-0.01012142293666368,0.008995509407816607,0.9882186367377233
2015-12-04,1,0.0029785536450881236,0.003320601934772973,-0.012041807175465179,0.005093107874877492,0.9879739668401654
2015-12-08,1,0.002888428552903837,0.0032450306802630116,-0.01672044949530149,0.005093107874877492,0.9843647149613937
2015-12-10,1,0.002279465073538621,0.0025329870875853535,-0.016658593592413385,0.005256869041492278,0.9846808564747247
2015-12-14,1,0.0014387391319780924,0.0015532267911319126,-0.016658593592413385,0.005256869041492278,0.983569629548557
2015-12-16,1,0.002423918364806003,0.0026614240184567165,-0.02297791233428367,0.0029344510520083055,0.9833325814050311
2015-12-18,1,0.0018709536897513486,0.0020904557554620082,-0.023179957351984116,0.0033629808505946926,0.983147144063287
2015-12-22,1,0.0018564494875356796,0.002104698712727639,-0.024492537872265015,0.0033629808505946926,0.9804548400857823
2015-12-24,1,0.0015420746139097156,0.0018333970500461335,-0.03082989613067473,0.00525400608084914,0.9783601981176953
2015-12-29,1,0.0017584088962980437,0.0020359744495362943,-0.03082989613067473,0.003953548802918899,0.9777813255828043
2015-12-31,1,0.0016181181740532362,0.0018995623976052205,-0.03082989613067473,0.008647764818195743,0.9774210245830761
2016-01-05,1,0.0009006830108746679,0.0010375131537878448,-0.03954490884430355,0.008647764818195743,0.9760119210130555
2016-01-07,-1,-0.0001823806340783109,-0.00017667770471530472,-0.023179957351984116,0.009003105129972546,0.9780235557695143
2016-01-11,-1,-0.00018281913433057864,-0.0001748925256963317,-0.02587318235064609,0.010274537965230044,0.9773996744553282
2016-01-13,-1,-0.002550535892261635,-0.0022172820972022854,-0.02587318235064609,0.010274537965230044,0.9779080533875618
2016-01-15,-1,-0.002227189206213004,-0.0018949188751634784,-0.025769081538189333,0.011750657911976789,0.9775826703681844
2016-01-20,-1,-0.002232261414589966,-0.001943367426080774,-0.021010853976455544,0.014881267398138056,0.9774748434354158
2016-01-22,-1,-0.002279936533720758,-0.0019983264197072294,-0.013929015462662616,0.014333650344044276,0.97956368381445
2016-01-26,-1,-0.003776400918663626,-0.0032777194123910416,-0.013929015462662616,0.014333650344044276,0.9813985255019342
2016-01-28,-1,-0.00417666681718205,-0.0036471723283538725,-0.012220817956409832,0.021004612804828977,0.9798100933618303
2016-02-01,-1,-0.0023920189870189,-0.0021007245040461867,-0.014249584488511937,0.02108013740058834,0.9788022059731933
2016-02-03,-1,-0.00387922542393135,-0.003419111909477318,-0.012220817956409832,0.02108013740058834,0.9800883609500818
2016-02-05,-1,-0.0029117576343927884,-0.002544443307032314,-0.012220817956409832,0.016154813610392525,0.9822250177350744
2016-02-09,-1,-0.002605885999142841,-0.002299258236806912,-0.012220817956409832,0.016154813610392525,0.9832723669728186
2016-02-11,-1,-0.004402964829367951,-0.0038238643833182623,-0.0014909844160724255,0.02108013740058834,0.9820785886259107
2016-02-16,-1,-0.003185595303757142,-0.0027667993824477665,-0.006153850095340435,0.016154813610392525,0.9842890009236068
2016-02-18,-1,-0.003146243502324374,-0.002722353953641142,-0.006153850095340435,0.016154813610392525,0.9845571999517972
2016-02-22,-1,-0.0027978847815102207,-0.002386702302955789,-0.006153850095340435,0.01854055068479857,0.9847574799790727
2016-02-24,-1,-0.003036764665051618,-0.0026276252729305113,-0.0030748710194919934,0.01854055068479857,0.985212399196112
2016-02-26,-1,-0.0017676493822249533,-0.0015108530031172523,-0.005641693625625917,0.0051640856757688165,0.9874597251040735
2016-03-01,-1,-0.000552156032371152,-0.0003933023106712076,-0.0030748710194919934,0.0051640856757688165,0.9901961745246839
2016-03-03,-1,-0.0002929141015686125,-0.0001953117746762022,-0.0032526681806430125,0.003862366499692752,0.9904945952220587
2016-03-07,-1,-0.0003048524741382669,-0.00019285169733477013,-0.010318594764096235,0.0037541498822385323,0.9889624786880035
2016-03-09,-1,-0.0012839701410662205,-0.0010238679906959158,-0.010318594764096235,0.006448732613801246,0.9862378066259951
2016-03-11,1,0.0010701025951259202,0.00113543265951926,-0.010318594764096235,0.005524346540629956,0.9874807285473662
2016-03-15,1,4.290446432149973e-05,0.00010795578741301255,-0.004679402689955301,0.01539460993593035,0.9851486352170932
2016-03-17,1,0.0008816031740859632,0.0009343077696990165,-0.010318594764096235,0.011679537821821672,0.9853659073637752
2016-03-21,1,0.0012500077434866423,0.0013707494282227824,-0.010318594764096235,0.011635569664649608,0.9856461790645099
2016-03-23,1,0.001465621467773536,0.0016908180674429624,-0.004679402689955301,0.014320791569819347,0.9819912832981463
2016-03-28,1,0.0010315541086781755,0.001122664465204655,-0.004146249285981507,0.014320791569819347,0.9814986932702189
2016-03-30,1,0.001626711524572549,0.0018364785535417267,-0.004997809130738432,0.013660218475181687,0.9815701707735495
2016-04-01,1,0.0015154322883430883,0.001717127129660078,-0.011941525045558796,0.013660218475181687,0.9801935228100154
2016-04-05,1,0.0007841252526267716,0.0009024778743341015,-0.009151972002037061,0.013660218475181687,0.9801350368884977
2016-04-07,1,0.00024256720178545576,0.0002967774273291452,-0.0066202133951883515,0.013228394267057315,0.9836467592353276
2016-04-11,1,0.001026599125065756,0.001154493181744126,-0.007958522494876554,0.013228394267057315,0.983535881703473
2016-04-13,1,0.003186631224726879,0.0036060976223088945,-0.009659688873663906,0.01234521349409361,0.9836396932038348
2016-04-15,1,0.0022350911128389056,0.0025304389609767095,-0.009659688873663906,0.01234521349409361,0.983941323415581
2016-04-19,1,0.003072508020862302,0.0035021070878792655,-0.009659688873663906,0.011290020669284395,0.9841148921112964
2016-04-21,1,0.004895382340390697,0.00557749653418196,-0.014219359191726596,0.008113127577916657,0.9853366156388179
2016-04-25,1,0.004758233776021101,0.005425791807621527,-0.014219359191726596,0.008113127577916657,0.9855663905618578
2016-04-27,1,0.004814030505720839,0.00547067630249393,-0.014219359191726596,0.01251103238195006,0.9849765627013172
2016-04-29,1,0.0043785500529141715,0.005007012420389028,-0.0067894523523973,0.014337348575138359,0.9864611618688831
2016-05-03,1,0.00395929153823882,0.004515230833597807,-0.004792308520070783,0.014337348575138359,0.9879550972040702
2016-05-05,1,0.003688342129791629,0.0041917749165982406,-0.0053512375247728155,0.014337348575138359,0.9873219059526283
2016-05-09,1,0.003000197846047066,0.0033404803671416607,-0.00487285034656756,0.015494844229271065,0.9867289605651157
2016-05-11,1,0.003914675392298225,0.004454616790624158,-0.0057688476228016615,0.014202071960204296,0.9882834807341812
2016-05-13,1,0.003318435137822308,0.0037703687072242857,-0.012383867789128044,0.014202071960204296,0.9872853510333671
2016-05-17,1,0.004046636029297653,0.004628362675508473,-0.01586991166217089,0.014202071960204296,0.9861667828324913
2016-05-19,1,0.0040170544887536035,0.004555736773627322,-0.012383867789128044,0.012661528244421339,0.9884426429684027
2016-05-23,1,0.00473697541513592,0.005398703072987197,-0.012383867789128044,0.012267175180155307,0.9883880761951721
2016-05-25,1,0.00528706914683325,0.005995773638557561,-0.012383867789128044,0.012001452914969391,0.9885239872124969
2016-05-27,1,0.004467268662015078,0.005193102333088156,-0.017076801404906458,0.007915388504653634,0.9824771322178403
2016-06-01,1,0.0036299539554431543,0.00413968845749004,-0.017076801404906458,0.007915388504653634,0.9820960641321096
2016-06-03,1,0.00325750693441072,0.003714426351445326,-0.01586991166217089,0.012001452914969391,0.9820505174004089
2016-06-07,1,0.001955238335813748,0.0021362775278646728,-0.017076801404906458,0.012001452914969391,0.9814876337391886
2016-06-09,1,0.002234454267176257,0.0024973781428380536,-0.01445034989577866,0.015678936557444807,0.9807297601109987
2016-06-13,1,0.0012245236327908227,0.0013130921210476277,-0.006815746062782116,0.018220370163585204,0.9807090778249572
2016-06-15,1,0.0010650288154172814,0.0011143880010015777,-0.006492115286779253,0.018220370163585204,0.9807365205639395
2016-06-17,1,0.000387490808469252,0.00046891342744038317,-0.006492115286779253,0.018220370163585204,0.9797654991661996
2016-06-21,-1,-0.0002105490226597137,-2.2319902964664548e-05,-0.007304099029100706,0.018220370163585204,0.9796134001646112
2016-06-23,1,0.0012314679465856974,0.0012743412154499804,-0.007304099029100706,0.015678936557444807,0.9811351672160458
2016-06-27,-1,-0.0026903401554489743,-0.002192846052461027,0.0033369975865360346,0.015678936557444807,0.985257197863906
2016-06-29,-1,-0.0010910945910871704,-0.0008343921169351021,0.0033369975865360346,0.015049991765825539,0.9871536575623411
2016-07-01,-1,-0.0015023086630201914,-0.0011741130113557187,0.0023217373273322255,0.012799636800931163,0.9879297580252463
2016-07-06,-1,-0.0029872730576091635,-0.0024095221722203026,0.0023217373273322255,0.012799636800931163,0.9878775722910973
2016-07-08,-1,-0.0016289968152247006,-0.0012594332879986285,-0.0004123072389656563,0.01095941453922815,0.9895651835274124
2016-07-12,-1,-0.0004941106567086924,-0.0002739525130138654,-0.0011848926016824193,0.008615911139428502,0.9918575303226448
2016-07-14,-1,-0.00040657145752959504,-0.0002215020349383294,-0.0011848926016824193,0.008259604854127661,0.9926290520589882
2016-07-18,-1,-0.0004742350187987664,-0.00024245326741142406,-0.0012924529358875002,0.008259604854127661,0.9927995932433642
2016-07-20,1,7.252721339514115e-05,0.00018467226148774496,-0.0017453974787080618,0.005570223215927614,0.9931801177240176
2016-07-22,1,0.00044267464553466896,0.0004837046920092454,-0.002768942751563829,0.005570223215927614,0.9932177888263369
2016-07-26,1,0.0007138920844245269,0.000719950193272084,-0.002768942751563829,0.004874300767956069,0.9933003319411514
2016-07-28,1,0.0007918244642427214,0.0007964359790489611,-0.002768942751563829,0.00561600720122496,0.9931565459292201
2016-08-01,0,-0.00011540563458736932,2.1211519858359686e-05,-0.002402798411774177,0.0074952871952054904,0.9933424927996471
2016-08-03,1,0.0007921758429289512,0.0008223185945329672,-0.0020462403228624485,0.0074952871952054904,0.9940393638444797
2016-08-05,1,0.0007080115072760233,0.0007374236247592777,-0.002402798411774177,0.007068971439107222,0.9945276444163471
2016-08-09,1,0.000908210773607148,0.0009359000235485023,-0.002768942751563829,0.007591378049582596,0.9938919201789259
2016-08-11,1,0.0010811620796860903,0.0011503752232143298,-0.0034442229940265566,0.007068971439107222,0.9938488959164883
2016-08-15,1,0.0010831052613310248,0.001119251217206571,-0.004744986671750505,0.007068971439107222,0.9929309942168432
2016-08-17,1,0.0006073339438420891,0.0006360216142204762,-0.003931043901131603,0.007591378049582596,0.9924017315003495
2016-08-19,1,0.0006429196651586284,0.0006539555355848315,-0.0072068236827037,0.007591378049582596,0.991719303173121
2016-08-23,1,0.0006425141348773628,0.0006535822931916121,-0.0072068236827037,0.009471107370593387,0.9909821920412916
2016-08-25,1,9.646663464664992e-05,0.0002223125424287143,-0.0088995169830358,0.010866369099437619,0.9901692842774773
2016-08-29,-1,-0.00044120730300875686,-0.00019389159287533776,-0.009643374430424427,0.010088249461933083,0.9893749008378647
2016-08-31,1,0.0005024888990445247,0.0005869734195250328,-0.010742533797098587,0.009452651567504968,0.988787027592936
2016-09-02,1,0.0009846594252288085,0.0010330076821662832,-0.010742533797098587,0.010811001690172357,0.9880647803794881
2016-09-07,1,0.0004602045705145297,0.0005117239235790152,-0.010742533797098587,0.013092854968980383,0.987744919892771
2016-09-09,1,0.00040093658452478606,0.0004355878201109792,-0.007743016405831413,0.013092854968980383,0.9878152331096944
2016-09-13,1,0.001038598512750824,0.001194547596012564,-0.007743016405831413,0.011186061285696039,0.9890042668821143
2016-09-15,1,0.0015099274177124572,0.0017288584285878124,-0.011110614093829624,0.009452651567504968,0.9892699798846243
2016-09-19,1,0.0010949775187852418,0.0012674108643069494,-0.0065248871321615855,0.01107170733506583,0.989454896576795
2016-09-21,1,0.0010441731816928533,0.001162451934628407,-0.0065248871321615855,0.009472861750631391,0.989783877585494
2016-09-23,1,0.0006647341251858057,0.0006938305585115855,-0.004039599008474059,0.009159559405678855,0.9907704245205272
2016-09-27,1,0.0004666963527632504,0.00047055264735566924,-0.0038792563822728442,0.009159559405678855,0.9919664272819104
2016-09-29,-1,-0.0001190870756663267,-6.660469496776628e-05,-0.0036262671133900056,0.009405518162562635,0.990493094344668
2016-10-03,1,0.0005493816579230441,0.0005657167082924708,-0.004581427970107245,0.009159559405678855,0.9904552798681046
2016-10-05,1,0.0008401242804558621,0.0008773552935803942,-0.0065115421687285,0.004884745764738489,0.9901211945758174
2016-10-07,1,0.0006233625069879141,0.0006490842161578775,-0.006251872857241162,0.007549981731173209,0.9899806672956077
2016-10-11,1,0.0002865231008961453,0.0002930580842701518,-0.0044948715329447995,0.009065336274397949,0.9888338131742782
2016-10-13,1,0.00037019166705459897,0.00038551179009074966,-0.0033937743793598773,0.010869676570859558,0.9849672184279187
2016-10-17,1,0.0009669627139025979,0.001060241598401984,-0.0033937743793598773,0.015298860341407266,0.9840556967109817
2016-10-19,1,0.001562527812391707,0.0017656789713770907,-0.003713079771752123,0.027237329334078957,0.9834515398774756
2016-10-21,1,0.001638236269334157,0.001864532069267261,-0.003713079771752123,0.027237329334078957,0.9829038828003241
2016-10-25,1,0.0013553494511791653,0.0015228651178684181,-0.0037868659607908912,0.027237329334078957,0.9817773379537971
2016-10-27,1,0.0026116819635391905,0.0029331019718130064,-0.005241789055943028,0.01755157515737217,0.9840845426205344
2016-10-31,1,0.001404530357089877,0.0015395398842470262,-0.004577401250819048,0.01755157515737217,0.9842535548682116
2016-11-02,1,0.00037002769457280524,0.0004131155525350878,-0.0037405896777102056,0.02417912778760275,0.9837484435538014
2016-11-04,1,0.0004892963210749415,0.000524639084624854,-0.0037405896777102056,0.02417912778760275,0.9836242180007833
2016-11-08,1,0.0012779172918241251,0.0013374749874266244,-0.0037405896777102056,0.017003288386451487,0.9852575191678756
2016-11-10,1,0.0033213645060622115,0.0036459035777532513,-0.005102960206700971,0.01235214178224641,0.9893865948334211
2016-11-14,1,0.005252514530528392,0.0058282251475439174,-0.007422384887245371,0.008833111667122575,0.9893198903792045
2016-11-16,1,0.003920675287445502,0.004109178706411464,-0.007422384887245371,0.008105777817340213,0.9907169165361643
2016-11-18,1,0.004719668250928715,0.005061534513915215,-0.009797630177709857,0.005381220143147151,0.9900373022160993
2016-11-22,1,0.004452813779038804,0.004739565342113615,-0.007422384887245371,0.005381220143147151,0.9903121966841891
2016-11-25,1,0.003691632204023613,0.0038400964072694225,-0.009797630177709857,0.005698279543356274,0.9904488432559845
2016-11-29,1,0.002984415451923914,0.0031200956425923463,-0.009797630177709857,0.005698279543356274,0.9903093539262375
2016-12-01,1,0.004337214268154506,0.004709423034372486,-0.011107889811078393,0.004118941649671876,0.9903539660349787
2016-12-05,1,0.003901482930503141,0.0042006796696286595,-0.011107889811078393,0.004722169533287062,0.9896690033090265
2016-12-07,1,0.004255294109586165,0.00461538728311652,-0.011107889811078393,0.006665409793901656,0.9887707975658233
2016-12-09,1,0.003808941668577739,0.004109920975397163,-0.011269927330941124,0.009326379283431914,0.9884430046578779
2016-12-13,1,0.0031723192344787895,0.0033829153006519866,-0.011269927330941124,0.009326379283431914,0.9888236856282592
2016-12-15,1,0.00347444455103987,0.0037366826892385606,-0.012484195944937083,0.008337169888345783,0.9872687732813498
2016-12-19,1,0.0030089336876176083,0.0032138194974245526,-0.011617877820233127,0.009926193157465742,0.9873706032659536
2016-12-21,1,0.002907745410658691,0.0030653877324385943,-0.011617877820233127,0.008115687268575608,0.9883209422090828
2016-12-23,1,0.00252643600119508,0.0026276175720379847,-0.009130028871414168,0.011577984380168532,0.9877770603191728
2016-12-28,1,0.0019929866598203567,0.002061226541742798,-0.009130028871414168,0.015330397110622646,0.9872565925096064
2016-12-30,1,0.001337600384349841,0.0013659956558908612,-0.008381528149419431,0.015330397110622646,0.9869499013438533
2017-01-04,1,0.002805831531277691,0.0029800792845593284,-0.009766752068940825,0.011577984380168532,0.9882843090664514
2017-01-06,1,0.00339486979472746,0.0036597285880552934,-0.009766752068940825,0.009926193157465742,0.9885338969188106
2017-01-10,1,0.0028206527536395313,0.0029759206094389615,-0.008381528149419431,0.008115687268575608,0.9891323636175119
2017-01-12,1,0.002440801778611415,0.0025303399916405435,-0.008348708607122618,0.010875656416980559,0.9889195460219175
2017-01-17,1,0.001512757335765651,0.0015512925109032372,-0.006473232642373533,0.010875656416980559,0.9898403496747016
2017-01-19,1,0.0015071316360915834,0.001542830891034732,-0.005706917664240912,0.011167100691321276,0.990241312646803
2017-01-23,1,0.0018301933624639106,0.0018336511181592228,-0.005706917664240912,0.011167100691321276,0.9902582612469178
2017-01-25,1,0.002716539569373202,0.0028610914452752685,-0.006473232642373533,0.008855517944712368,0.9910876613991602
2017-01-27,1,0.0024230388410291658,0.0025168157304880753,-0.005706917664240912,0.008855517944712368,0.9921824026890634
2017-01-31,1,0.002050704505909082,0.0020839507482187875,-0.003454832398301963,0.009193845934915023,0.9909245407361676
2017-02-02,1,0.0012889895627882177,0.0013797831401789014,-0.003454832398301963,0.009193845934915023,0.990752722493978
2017-02-06,1,0.0018217426952687457,0.001875151204587715,-0.006489774706489489,0.008855517944712368,0.9912020709218761
2017-02-08,1,0.0018229395469275171,0.00186077367912625,-0.006489774706489489,0.008855517944712368,0.9913372919470577
2017-02-10,1,0.0009619897817593221,0.0011487356713319164,-0.003691039641207348,0.007454066829429818,0.992336615122581
2017-02-14,1,0.0018928930461170302,0.001935203088331939,-0.008483686995444148,0.004907535695923388,0.9915081795281677
2017-02-16,1,0.0016680901165007187,0.0017545361227640267,-0.008483686995444148,0.004907535695923388,0.9916267319167067
2017-02-21,1,0.0013351278305290355,0.0014802004773971239,-0.010643623852319015,0.003934673706028192,0.9894466744375451
2017-02-23,1,8.471623653916313e-05,0.0003604105349685506,-0.008483686995444148,0.005806785505879012,0.9902506593972186
2017-02-27,1,0.0008741458484865579,0.0010349486653213297,-0.010643623852319015,0.003994143198908274,0.989836511315512
2017-03-01,1,0.001753380778183614,0.0017870627849359156,-0.008483686995444148,0.003994143198908274,0.9905256154333443
2017-03-03,1,0.0006477762044483029,0.0008411998237300407,-0.006489774706489489,0.005806785505879012,0.991293562714107
2017-03-07,-1,-0.0003994153579020452,-5.882555547774364e-05,-0.003521552444711395,0.005806785505879012,0.9919937139643423
2017-03-09,-1,-0.00063147821643803,-0.00025711039673110983,-0.005999687557915395,0.005875703510172373,0.9907093664967038
2017-03-13,-1,-0.00099822029925652,-0.0005856809524465104,-0.007206085000435037,0.005875703510172373,0.9905065080149901
2017-03-15,-1,-0.00166656530521373,-0.0011920941415852735,-0.006573838505253387,0.005875703510172373,0.9906524802886858
2017-03-17,-1,-0.0015281611391654302,-0.001059506518881607,-0.009150717514068301,0.005875703510172373,0.989711833849128
2017-03-21,-1,-0.003992876172779275,-0.0032264679156187833,-0.008275195336384534,0.005875703510172373,0.9917181521527483
2017-03-23,-1,-0.002075120265393775,-0.0016213700452017772,-0.009692688687664281,0.005571590943178239,0.9909431349947723
2017-03-27,-1,-0.003393017974184368,-0.002731195402135863,-0.008275195336384534,0.015151951616043607,0.9900064188346757
2017-03-29,-1,-0.0036930287525918384,-0.002957358182545591,-0.009385506126156306,0.00927291205283929,0.9902321508168075
2017-03-31,-1,-0.0031270159339320583,-0.002469852063089773,-0.009385506126156306,0.006156392040936583,0.9907932222825689
2017-04-04,-1,-0.0028493257898185155,-0.002252873422742292,-0.009385506126156306,0.009067433347298667,0.9897328920514293
2017-04-06,-1,-0.0012739997512292932,-0.0010360429507072712,-0.008275195336384534,0.007530123861887323,0.9909648567561301
2017-04-10,-1,-0.0010535176820052165,-0.0008731901715054308,-0.008275195336384534,0.007530123861887323,0.991133047310776
2017-04-12,-1,-0.0013868781324991152,-0.0012055600313436335,-0.005878360822526931,0.007530123861887323,0.9917305549285619
2017-04-17,-1,-0.0007255307510590351,-0.0006471328467914327,-0.005825507367283209,0.007530123861887323,0.991968819314893
2017-04-19,-1,-0.0012503871702468192,-0.0011101157582175292,-0.005825507367283209,0.009067433347298667,0.9885735156157816
2017-04-21,-1,-0.0013468262733792628,-0.0011815848048093362,-0.005146518559566847,0.00893685999801344,0.9891432697853497
2017-04-25,-1,-0.001040628743507271,-0.0008832252347507035,-0.005146518559566847,0.007530123861887323,0.9903203742560563
2017-04-27,-1,-0.0006748284684230093,-0.0006091009848897298,-0.005146518559566847,0.008843205830051049,0.9904007889397461
2017-05-01,-1,-0.00048797739063924557,-0.0004413828761993784,-0.005592987868940432,0.008843205830051049,0.9904736196224312
2017-05-03,1,0.00012716147522902138,0.00015987180832609802,-0.006507256848941062,0.007099449817293571,0.989926554620903
2017-05-05,-1,-0.00043653344463198023,-0.000383218264943672,-0.006678644998579302,0.007415829425622024,0.9895866077866846
2017-05-09,-1,-0.000836397428779652,-0.0007170038312507936,-0.006678644998579302,0.007415829425622024,0.9894372174776165
2017-05-11,-1,-0.0009156684594888244,-0.0008031475487836854,-0.006331866733811032,0.012013415614919965,0.9868688251754538
2017-05-15,-1,-0.000728809524595512,-0.0005991467044248544,-0.003601449118755141,0.010937893556060849,0.9876818521607663
2017-05-17,-1,-0.0032678657054051293,-0.0028569136510651497,-0.0030145334615665664,0.007415829425622024,0.9905023406713948
2017-05-19,-1,-0.002035182587644957,-0.0017569333657023287,-0.0030145334615665664,0.006584487605033273,0.9915219690208671
2017-05-23,-1,-0.0024935629908232945,-0.0021177185433535646,-0.006079216197255134,0.006584487605033273,0.991224009230193
2017-05-25,-1,-0.0024081628925491034,-0.0020358976826816864,-0.006356777384692418,0.005783377681331777,0.9916312657424742
2017-05-30,-1,-0.0019459681318931394,-0.0016936240876834021,-0.0060875197475489294,0.008477828685642494,0.9906028800644733
2017-06-01,-1,-0.0010931032363509566,-0.000977267339087596,-0.0044488166612515105,0.008477828685642494,0.9907270932355186
2017-06-05,-1,-0.0011825734488965138,-0.0010517093755546712,-0.003590488438471772,0.01222617874843762,0.9903389458777371
2017-06-07,-1,-0.0013889745037638198,-0.0012140307954707026,-0.0044488166612515105,0.01222617874843762,0.9904521759141028
2017-06-09,-1,-0.00026292049984319405,-0.00016784963498214285,-0.0044488166612515105,0.008477828685642494,0.9924514112403331
2017-06-13,0,-2.7365669004347505e-05,3.0700129142882004e-05,-0.0060875197475489294,0.008477828685642494,0.9921616186547921
2017-06-15,1,0.0002582595052507635,0.0002619904732981397,-0.0060875197475489294,0.008477828685642494,0.992009605338722
2017-06-19,1,0.0008201172079837607,0.0009379349062035748,-0.0060875197475489294,0.0071495753313909815,0.9921309106217987
2017-06-21,1,0.0003111529104057982,0.0003623054449650441,-0.0029597007787890857,0.0071495753313909815,0.9929573975619287
2017-06-23,-1,-0.0003273936370555276,-0.0002901005766947315,-0.0016472176462006493,0.011618383060994962,0.9928960729865187
2017-06-27,1,0.0007031062811848248,0.0007794715425374886,-0.0016472176462006493,0.007413259967046317,0.9934397358011604
2017-06-29,1,0.001292989941493614,0.0014952122865198062,-0.0016934526489430636,0.005720053681540883,0.9933695676735858
2017-07-03,1,0.0018294885949456546,0.002091746359072649,-0.0009756624160485471,0.004945736598798486,0.9942859750792137
2017-07-06,1,0.001559749324982654,0.0017908880879831442,-0.0016934526489430636,0.004945736598798486,0.9939709037376794
2017-07-10,1,0.0024533944627741977,0.0028403723873685113,-0.0016934526489430636,0.004781040712300105,0.9943363076348594
2017-07-12,1,0.002480973319737176,0.002881049101218655,-0.0016934526489430636,0.003832232969487776,0.9941578987243574
2017-07-14,1,0.002671715586609195,0.003103806167344856,-0.0053698122298339365,0.003832232969487776,0.9925885507207957
2017-07-18,1,0.002479307491806369,0.0028615376825708106,-0.0053698122298339365,0.003832232969487776,0.9925137570045134
2017-07-20,1,0.0027607745419194105,0.0032086252987430946,-0.006613831336248887,0.003832232969487776,0.9908039652877698
2017-07-24,1,0.003569394118670853,0.00414282963854375,-0.006613831336248887,0.0031587109882596563,0.9907128562881823
2017-07-26,1,0.0036299391049401317,0.0041738545073407105,-0.006613831336248887,0.0022017982569055876,0.9903413713459488
2017-07-28,1,0.0026660736920992665,0.0030498238143473414,-0.005486301880086256,0.0018732383896039088,0.9922308085903747
2017-08-01,1,0.002893044844282112,0.0033171901207643866,-0.006613831336248887,0.00041645957276478524,0.9910369105387618
2017-08-03,1,0.0023991990736156273,0.0027414789455476444,-0.005486301880086256,0.001505580931833546,0.9919423997845196
2017-08-07,1,0.0021247100692595626,0.002384829535712852,-0.007501691809573071,0.001505580931833546,0.9903483775989583
2017-08-09,1,0.0018395421144735157,0.0020918362595840675,-0.007501691809573071,0.001505580931833546,0.9901438763765984
2017-08-11,-1,-0.00043372931899311084,-0.00028847472650002007,-0.004449832137554149,0.0071558541239304906,0.9909162561415471
2017-08-15,1,0.00042122363114542713,0.0004281187567314874,-0.004449832137554149,0.0071558541239304906,0.9905570096788451
2017-08-17,-1,-0.0010456980930598795,-0.0008516515751334193,-0.0022255404635685167,0.008256624292264415,0.9911103653562031
2017-08-21,-1,-0.0006864343815880902,-0.000555270909682786,-0.0022255404635685167,0.00998789267103629,0.9903651313262628
2017-08-23,1,0.00023308205563061,0.00023919942508984158,-0.0022255404635685167,0.009925729800227968,0.9903546279386852
2017-08-25,-1,-0.00010478667264808401,-6.270079810520094e-05,-0.002102352258819261,0.009925729800227968,0.9902487179987859
2017-08-29,-1,-0.0006018129974143154,-0.0004980726922125273,0.0007575730849040362,0.01422995380867256,0.9898043086046718
