JNU-Tangyin/eata/results/Batch4_SP500/Batch4_SP500-EQR.csv
Date,Action,Predicted_Q25,Predicted_Q75,Actual_Q25,Actual_Q75,RL_Reward
2010-12-14,0,0.0,4.596284310049147e-05,-0.006400715245473663,0.006923499902020145,0.9923006460557198
2010-12-16,0,-5.1187370949867025e-05,1.193379087135351e-05,-0.0031426779095556105,0.0077281185947582634,0.9924120429617437
2010-12-20,1,1.1650143328630742e-05,8.468088135622992e-05,-0.00411394963932453,0.0077281185947582634,0.9922431030658531
2010-12-22,1,0.0007440044801376327,0.0007937983018227882,-0.00411394963932453,0.005591131070948499,0.9924354016237656
2010-12-27,1,0.0016444362964430925,0.0017284641048614423,-0.00411394963932453,0.005591131070948499,0.99235358395486
2010-12-29,1,0.0009897792059251798,0.0010513342311414741,-0.00411394963932453,0.007733547704373945,0.9917315648102308
2010-12-31,1,0.001311135709310828,0.0013571305299271605,-0.00411394963932453,0.01161349504765572,0.9901201552922155
2011-01-04,-1,-0.0009820619167964974,-0.0006287316345769916,-0.0026272067218971818,0.009058909882370686,0.9909506110164847
2011-01-06,-1,-0.0016633108150584947,-0.00123277814122213,-0.00411394963932453,0.009058909882370686,0.989907100110843
2011-01-10,-1,-0.0013213010401782247,-0.0009901580379276934,-0.004384508295925724,0.012286051923994365,0.9893390144406761
2011-01-12,-1,-0.0024510781157379372,-0.001912620590690386,0.0016159872579742708,0.012286051923994365,0.9886254578849313
2011-01-14,-1,-0.002054304379238681,-0.0015406780479277358,-0.00038096214122479855,0.00864168297129081,0.9892438910552925
2011-01-19,-1,-0.0020287359384642562,-0.0015317196281912635,-0.0045719810411752465,0.007292148499701235,0.9898982554814548
2011-01-21,-1,-0.0011129045568708626,-0.0007441284211163839,-0.0045719810411752465,0.007292148499701235,0.9903407652024555
2011-01-25,1,0.0013613879359825973,0.0014167594701958847,-0.007169427277464854,0.00697165370877291,0.9911736329057197
2011-01-27,1,0.0027018906739166054,0.002984900601385864,-0.00821743813022363,0.00697165370877291,0.9906689411581295
2011-01-31,0,0.0,0.0,-0.00821743813022363,0.00697165370877291,0.9896869397659575
2011-02-02,1,0.0017741885224742465,0.001903096738517544,-0.008742070027819994,0.00697165370877291,0.9887436271923218
2011-02-04,1,0.0008331290351081569,0.0008465568871341111,-0.011085090245121831,0.00697165370877291,0.9889532801141139
2011-02-08,1,0.0012466049341697577,0.0013392142415295301,-0.011085090245121831,0.00697165370877291,0.9884871928136069
2011-02-10,1,0.0021440076771342687,0.002415759133890149,-0.011659677859811528,0.009254135732520825,0.98725477330311
2011-02-14,1,0.001855199765751137,0.0020298192358345285,-0.011659677859811528,0.009024914427497505,0.9869246512243248
2011-02-16,1,0.0013239122355143448,0.0014305412339028888,-0.011659677859811528,0.009024914427497505,0.9872086749923824
2011-02-18,1,0.0010393972561994701,0.0010553202979499902,-0.011659677859811528,0.009240211449081076,0.9870323897240841
2011-02-23,1,0.0001942842899197664,0.0003028363030658318,-0.010887742698992297,0.009240211449081076,0.9869192551514636
2011-02-25,1,0.0004014516577844781,0.0004634322158594633,-0.009946367141778961,0.006917378679466087,0.9879963287017027
2011-03-01,1,0.0006083638142448854,0.0006383935435434664,-0.008449586301659845,0.006293120493339032,0.9907987524211694
2011-03-03,0,0.0,0.0,-0.0075164829199559895,0.006917378679466087,0.990530321325155
2011-03-07,0,0.0,0.0,-0.006448953268350487,0.006917378679466087,0.9914428621757794
2011-03-09,0,0.0,0.0,-0.006448953268350487,0.006293120493339032,0.9927419827765851
2011-03-11,0,0.0,0.0,-0.006448953268350487,0.005266165635691943,0.9937093442985351
2011-03-15,0,0.0,0.0,-0.004813378719648555,0.004702660869267488,0.9942483764392773
2011-03-17,0,0.0,0.0,-0.0014745500869704426,0.004702660869267488,0.9945978528507224
2011-03-21,0,0.0,0.0,-0.004813378719648555,0.004702660869267488,0.9939368920038466
2011-03-23,0,0.0,0.0,-0.0004030914791102616,0.005853788584944636,0.9935113380378177
2011-03-25,0,0.0,0.0,-0.0004030914791102616,0.007683026976323027,0.9931328642503117
2011-03-29,1,0.0006152957361177513,0.0007045330738720218,-0.0004030914791102616,0.010555684855077938,0.9928387118542088
2011-03-31,1,0.0028284440737061335,0.003121316243020634,-0.0004030914791102616,0.005853788584944636,0.9945964547726621
2011-04-04,1,0.0014429577820253164,0.001464275234946924,-0.0004030914791102616,0.005853788584944636,0.994285007782059
2011-04-06,0,0.0,0.0,-0.0013450196413712996,0.005853788584944636,0.9936121540233814
2011-04-08,0,0.0,0.0,-0.0003430580234631243,0.00702302604089769,0.9933585484022733
2011-04-12,0,0.0,0.0,-0.00138696337940814,0.008336574991019313,0.9921572786891905
2011-04-14,0,0.0,0.0,-0.004537443990625804,0.008336574991019313,0.9923188022043452
2011-04-18,0,0.0,0.0,-0.00138696337940814,0.006071637923176731,0.9932886438334521
2011-04-20,0,0.0,0.0,-0.00138696337940814,0.005956145499401874,0.9937816266957074
2011-04-25,0,0.0,0.0,-0.0049101333886176065,0.0052578502121349525,0.9935014769892515
2011-04-27,0,0.0,0.0,-0.0049101333886176065,0.0052578502121349525,0.9937620694924156
2011-04-29,0,0.0,0.0,-0.0049101333886176065,0.005956145499401874,0.993426578253645
2011-05-03,0,0.0,0.0,-0.005188652974440263,0.007783428962875804,0.9911985281114583
2011-05-05,1,0.0021387947383202308,0.0023327086690406143,-0.0073518618695046665,0.008503953151759778,0.9908414594031978
2011-05-09,1,0.0016269690188640145,0.0017073387007955024,-0.006640073520952451,0.01054366920122418,0.9905326579445621
2011-05-11,1,0.0011324394017539832,0.0011554303629193242,-0.006640073520952451,0.008503953151759778,0.991206854907977
2011-05-13,1,0.001336246182631087,0.0013782524167043012,-0.007147696104404861,0.008503953151759778,0.9904109936401939
2011-05-17,1,0.00157262876857157,0.0016671997028015052,-0.007419623784318549,0.008503953151759778,0.9899532861242893
2011-05-19,1,0.002170995476103982,0.00237150071163299,-0.007419623784318549,0.005822175678775365,0.9902278901430458
2011-05-23,1,0.001257083154780723,0.001330919220018648,-0.006662660825890412,0.00844765310561044,0.9908268799394362
2011-05-25,1,0.0014456400006046585,0.0015213961762131883,-0.007419623784318549,0.006165835099664513,0.989922221129049
2011-05-27,1,0.0014031509788059446,0.0014548675020221958,-0.007419623784318549,0.005295485304462218,0.9901210589219687
2011-06-01,1,0.0005108705947435478,0.0005961262850988915,-0.006662660825890412,0.0067683619300479446,0.9918006481881906
2011-06-03,1,0.000991461764524728,0.001028780631385737,-0.005625603976990717,0.0067683619300479446,0.9918727288751056
2011-06-07,1,0.0007248897113393088,0.0008107808055097304,-0.0037473497366574526,0.0067683619300479446,0.9923929651357376
2011-06-09,1,0.0006883644912854056,0.0007501443686058753,-0.0020869138319051152,0.009083308593095925,0.9923978722481898
2011-06-13,-1,-0.0002386358378771487,-5.719473722576231e-05,-0.0020869138319051152,0.009083308593095925,0.9925050157798072
2011-06-15,0,-0.00013249178068383603,2.2468640754861485e-05,-0.0037473497366574526,0.009083308593095925,0.9921551185617082
2011-06-17,1,0.00020562072264136848,0.0002790269886839735,-0.004371772314728722,0.009185643516339511,0.9916965352721614
2011-06-21,1,0.0008060052657637437,0.0008339209089901851,-0.004371772314728722,0.009389157861900138,0.991511350284747
2011-06-23,1,0.00022192988793993647,0.000257790756102067,-0.0004276363140914502,0.009827024414954848,0.9918860349478867
2011-06-27,1,0.00032858605314165613,0.00034504361100083213,-0.0010121457489878543,0.009827024414954848,0.9914548815770018
2011-06-29,1,0.0003383444339855698,0.00040748099112534943,-0.008651557265106356,0.009233936416711623,0.99109925707177
2011-07-01,1,0.0011796865740753273,0.0012155759999662207,-0.008651557265106356,0.008063495507268889,0.9918635960244615
2011-07-06,1,0.001628655455776926,0.0017504041880134125,-0.010382617690989932,0.007282509352524279,0.9909283397785228
2011-07-08,1,0.0018192806837421353,0.0019735864884316196,-0.012758853951292188,0.0069324742231582906,0.9878195064746064
2011-07-12,1,0.0011861989579326781,0.001212764845260436,-0.01364282134338127,0.007282509352524279,0.9806935865663233
2011-07-14,1,0.0005975604257800289,0.0006367794258313254,-0.017545579063707635,0.008209451024953792,0.9784480147403658
2011-07-18,1,0.0004776231126825319,0.0005615139420468762,-0.017545579063707635,0.008209451024953792,0.9776906962468369
2011-07-20,1,0.0009617096200514489,0.0009933374182247872,-0.017545579063707635,0.0069324742231582906,0.9778099985419776
2011-07-22,1,0.0014841515931385912,0.0015143510158694095,-0.022200217313865872,0.004550840279599273,0.97501372067026
2011-07-26,0,0.0,0.0,-0.022200217313865872,0.004550840279599273,0.9750357141525672
2011-07-28,-1,-0.0003487117647553489,-0.00012126464327239374,-0.022200217313865872,0.008536997681494296,0.9747148509748719
2011-08-01,0,-0.00012138111233188495,4.212000725975127e-05,-0.022200217313865872,0.0205629064723132,0.9732424983274519
2011-08-03,0,0.0,0.0,-0.01947619653566807,0.0205629064723132,0.9736618245969315
2011-08-05,0,0.0,0.0,-0.01472228794696564,0.0205629064723132,0.9758047333152726
2011-08-09,-1,-0.00309282294932612,-0.0026087275905436196,-0.011355058136391653,0.0205629064723132,0.9816707517734742
2011-08-11,0,0.0,0.0,-0.011355058136391653,0.014156695116144263,0.9837675986635284
2011-08-15,0,0.0,0.0,-0.011355058136391653,0.011662319409846864,0.9849971385472619
2011-08-17,-1,-0.0009404549907203146,-0.0006277125114347726,-0.014423750441043298,0.011662319409846864,0.9848664665727876
2011-08-19,-1,-0.004246033345844114,-0.0035552398459865135,-0.013783445606547057,0.011662319409846864,0.9866060751373824
2011-08-23,-1,-0.0021912662876794127,-0.0018104829200938917,-0.017418519237367296,0.006965757364857579,0.9843868069550464
2011-08-25,-1,-0.0022822940024899607,-0.001884562022949727,-0.017418519237367296,0.006965757364857579,0.9836267009311397
2011-08-29,-1,-0.0005134715729175833,-0.0003189929874968982,-0.017418519237367296,0.0042751730931320855,0.9847890840365452
2011-08-31,0,0.0,0.0,-0.017418519237367296,0.0040093896265676774,0.9839971993675732
2011-09-02,0,0.0,0.0,-0.01879118946401198,0.0040093896265676774,0.9815569495663935
2011-09-07,0,0.0,0.0,-0.01879118946401198,0.0040093896265676774,0.9804098939538615
2011-09-09,0,0.0,0.0,-0.01879118946401198,0.0040093896265676774,0.9791047053414214
2011-09-13,0,0.0,0.0,-0.021251888359674422,0.007089977777441573,0.9755918668659875
2011-09-15,-1,-0.0028816225185160295,-0.002567206052794488,-0.021251888359674422,0.017290700904375823,0.9759513962676692
2011-09-19,0,0.0,0.0,-0.02858609671934444,0.022716281935824065,0.9736515828283244
2011-09-21,-1,-0.004686696178185514,-0.004128662800017859,-0.021251888359674422,0.03248175880558847,0.9754528012985509
2011-09-23,-1,-0.004022897045802191,-0.0035403346899483324,-0.016747503144872097,0.03248175880558847,0.9757569065248569
2011-09-27,-1,-0.0037999493542758434,-0.0033378872773544834,-0.01702475841023867,0.03248175880558847,0.9753496113174814
2011-09-29,-1,-0.00363001777177262,-0.00318582589062987,-0.01702475841023867,0.034346165712726605,0.9734334437339567
2011-10-03,-1,-0.006045138596905251,-0.005331617093032329,-0.012199873220529804,0.034346165712726605,0.9754444133889476
2011-10-05,-1,-0.0042646639738894015,-0.0037587844948007536,-0.015150018894042595,0.034346165712726605,0.9747600611892563
2011-10-07,0,0.0,0.0,-0.012199873220529804,0.03259193938013929,0.9771223497836129
2011-10-11,0,0.0,0.0,-0.00892447287755644,0.022716281935824065,0.9803183284081461
2011-10-13,0,0.0,0.0,-0.012199873220529804,0.01764086378487017,0.9790472203636786
2011-10-17,1,0.02843383583350587,0.028444062762083472,-0.012199873220529804,0.01725954832633688,0.9716951980382414
2011-10-19,0,0.0,0.0,-0.015150018894042595,0.013951589299708318,0.9794878314280818
2011-10-21,0,0.0,0.0,-0.020513701929477223,0.011602797937891235,0.9791377714687577
2011-10-25,0,0.0,0.0,-0.020513701929477223,0.011602797937891235,0.9793819478711389
2011-10-27,0,0.0,0.0,-0.021943339852333724,0.008359642929026516,0.9812250269446243
2011-10-31,0,0.0,0.0,-0.021943339852333724,0.008800701912254117,0.9816610111115093
2011-11-02,0,0.0,0.0,-0.019783373746475603,0.008800701912254117,0.9825298529607233
2011-11-04,0,0.0,0.0,-0.019783373746475603,0.008299185651715736,0.9829495885038629
2011-11-08,0,0.0,0.0,-0.019783373746475603,0.008800701912254117,0.9827806091765461
2011-11-10,0,0.0,0.0,-0.0167938496933503,0.010522689321646884,0.9837664464691397
2011-11-14,0,0.0,0.0,-0.013786064683857395,0.006876012438680436,0.985631153573993
2011-11-16,0,0.0,0.0,-0.012723608919819461,0.009479157230644738,0.986719619535296
2011-11-18,0,0.0,0.0,-0.010619026458708741,0.009562311792288086,0.9882059404239981
2011-11-22,0,0.0,0.0,-0.009713906965541103,0.012739427108751086,0.9870803541686396
2011-11-25,0,0.0,0.0,-0.007914291754424372,0.015918209521962802,0.987339018087921
2011-11-29,0,0.0,0.0,-0.009713906965541103,0.015918209521962802,0.9869921774874392
2011-12-01,0,0.0,0.0,-0.007914291754424372,0.012739427108751086,0.9895970497422009
2011-12-05,0,0.0,0.0,-0.007642541681288726,0.012739427108751086,0.9894345331243171
2011-12-07,-1,-0.0007948926650159103,-0.0003237299440934623,-0.008371331743383467,0.009562311792288086,0.9898433295907706
2011-12-09,0,0.0,0.0,-0.008371331743383467,0.007767381582192989,0.9903946867996866
2011-12-13,0,0.0,0.0,-0.008371331743383467,0.007767381582192989,0.9900556812167514
2011-12-15,0,0.0,0.0,-0.008371331743383467,0.007767381582192989,0.9901907337623862
2011-12-19,0,0.0,0.0,-0.008371331743383467,0.006034660406307472,0.9903778254485629
2011-12-21,1,0.0010281930521420285,0.0014271163325239981,-0.007642541681288726,0.006034660406307472,0.9916810710667553
2011-12-23,1,0.0011654090892854643,0.0015356986175640804,-0.007642541681288726,0.006034660406307472,0.9912929025645805
2011-12-28,-1,-0.00024335285147835897,-0.00021002964833963974,-0.006984290789163808,0.008190974195582195,0.990636271569256
2011-12-30,1,0.0007314274679570769,0.0008921431925147387,-0.006984290789163808,0.007446512062063974,0.9908742007071497
2012-01-04,1,0.0010377806481230538,0.001385575029444046,-0.005382202698297302,0.00855578287526721,0.9912669234974587
2012-01-06,0,0.0,0.0,-0.005382202698297302,0.009545910025065637,0.9906528415021988
2012-01-10,0,0.0,0.0,-0.0032353980809022714,0.009545910025065637,0.9912087265830791
2012-01-12,0,0.0,0.0,-0.003215122046253109,0.009545910025065637,0.991455773008591
2012-01-17,0,0.0,0.0,-0.005382202698297302,0.006783277074700393,0.9915999092773208
2012-01-19,0,0.0,0.0,-0.003215122046253109,0.008085038035754683,0.9917399759727785
2012-01-23,0,0.0,0.0,-0.005382202698297302,0.006783277074700393,0.9915185659063106
2012-01-25,0,0.0,0.0,-0.006142317639151838,0.006783277074700393,0.991835137777213
2012-01-27,0,0.0,0.0,-0.006512913785696323,0.00606939521558616,0.9924092942203087
2012-01-31,0,0.0,0.0,-0.008712328910707579,0.00606939521558616,0.9921883427695113
2012-02-02,1,0.002902364339364566,0.003503060731266481,-0.008712328910707579,0.006092798657481106,0.9918433360079867
2012-02-06,1,0.0024151327254437385,0.0029577671332129516,-0.007258445314888081,0.006092798657481106,0.9916400053800722
2012-02-08,1,0.0022742127846541345,0.0027663293566844516,-0.007258445314888081,0.006092798657481106,0.9918194619119454
2012-02-10,1,0.0015357132292350576,0.001884326740631833,-0.005984330764286846,0.008155248361439521,0.9919092775176368
2012-02-14,-1,-0.00023715401321507872,-0.0001310419077775489,-0.005984330764286846,0.00878199501452818,0.9915027453547016
2012-02-16,0,0.0,0.0,-0.006083205027385636,0.008274734896659856,0.9908647516164768
2012-02-21,0,0.0,0.0,-0.005984330764286846,0.009886436680126124,0.9908623684882877
2012-02-23,0,0.0,0.0,-0.006083205027385636,0.008274734896659856,0.9909483781030346
2012-02-27,0,0.0,0.0,-0.006039249871249324,0.011518314070736363,0.9904473305728082
2012-02-29,-1,-0.0011229033341857036,-0.000828463047821797,-0.004441762730874693,0.011518314070736363,0.9909878517661055
2012-03-02,-1,-0.0007967576820202258,-0.0006065278851943622,-0.004441762730874693,0.01418074640084385,0.9901841707903192
2012-03-06,-1,-0.0004319741245906971,-0.00030431138889511103,-0.0038598667397347903,0.011518314070736363,0.9911477608272234
2012-03-08,-1,-0.00018068775378435515,-7.828633471699832e-05,-0.0054511459051494885,0.011518314070736363,0.9905761969236958
2012-03-12,0,-5.280147022082126e-05,5.1090890716972836e-05,-0.007791927499708627,0.009269988114329141,0.9899528274750669
2012-03-14,1,0.0009495116401793005,0.000997847745748717,-0.007791927499708627,0.009563094377673019,0.9900935594794111
2012-03-16,1,0.0012040125762795475,0.0013430344638953422,-0.005657539504212841,0.011118742743749913,0.9900724968569161
2012-03-20,0,0.0,0.0,-0.006489164472741233,0.009563094377673019,0.9908379492113173
2012-03-22,0,0.0,0.0,-0.0041731375226015275,0.009563094377673019,0.9914545644835242
2012-03-26,0,0.0,0.0,-0.005462748746951091,0.008816221109245882,0.99122683189505
2012-03-28,0,0.0,0.0,-0.0072075552279233755,0.008816221109245882,0.9903528042964935
2012-03-30,0,0.0,0.0,-0.0072075552279233755,0.006200266672376638,0.9916545447969614
2012-04-03,1,0.0026070621262834943,0.003083491740384175,-0.0072075552279233755,0.0086095341869782,0.9906801098180928
2012-04-05,1,0.001614924302318914,0.001962088139338851,-0.0031571698714506777,0.0086095341869782,0.9915200310407014
2012-04-10,1,0.0007151146336437148,0.0009253265308757339,-0.0016064799785576744,0.009757441728500137,0.9923693666633472
2012-04-12,1,0.0009415904454978729,0.001146415313075859,-0.002565200469554378,0.006200266672376638,0.9929253930932607
2012-04-16,1,0.0009738781924520547,0.0011257745057852715,-0.004088033186261458,0.003952182108170436,0.9932979777425773
2012-04-18,1,0.00025656796377986085,0.00027328981006124315,-0.00498376114359439,0.003952182108170436,0.9930218959235438
2012-04-20,1,0.000175793672869225,0.00021101586532621585,-0.0071090983562265755,0.0033611074214140962,0.992334050481933
2012-04-24,1,0.00043337768385960467,0.00044249735909436826,-0.00498376114359439,0.0037551818553184595,0.9923814200845537
2012-04-26,1,0.0005961552972296768,0.0006505509692926275,-0.004088033186261458,0.0033318213046653407,0.9932754638225374
2012-04-30,1,7.047505460692002e-05,0.00019732060499123155,-0.00498376114359439,0.0038643237579241694,0.9925771024954718
2012-05-02,0,0.0,0.0,-0.006434750478642458,0.0038643237579241694,0.9914653357917195
2012-05-04,0,0.0,0.0,-0.009367396389553959,0.0038643237579241694,0.9900351916511595
2012-05-08,1,0.9924542746586295,0.9932229272642686,-0.009367396389553959,0.005397252427812091,0.5014839165221946
2012-05-10,1,0.00039830288590026147,0.0004035129868833373,-0.009824594265599723,0.009877426779097209,0.9878752809799883
2012-05-14,0,0.0,0.0,-0.009930724777643576,0.009877426779097209,0.9874272173751205
2012-05-16,0,0.0,0.0,-0.0095130616731571,0.013554027851246655,0.9871087981701803
2012-05-18,0,0.0,0.0,-0.007622794826459259,0.013554027851246655,0.9881926141128575
2012-05-22,0,0.0,0.0,-0.0095130616731571,0.009877426779097209,0.9886621012724853
2012-05-24,1,0.001301367649764606,0.0014008508266662432,-0.011577143720083309,0.009877426779097209,0.9871863762540704
2012-05-29,1,0.0011625485028153326,0.0012035433882379906,-0.011577143720083309,0.005523631257378637,0.9881430442947835
2012-05-31,0,0.0,0.0,-0.0095130616731571,0.00665087177319018,0.9895196916700258
2012-06-04,0,0.0,0.0,-0.002500586618325625,0.014272087208331157,0.98923798836024
2012-06-06,0,0.0,0.0,-0.0045136147080687035,0.008521583584169344,0.9906540304077627
2012-06-08,0,0.0,0.0,-0.002500586618325625,0.0054015457223388985,0.9914406870392357
2012-06-12,0,0.0,0.0,-0.002500586618325625,0.007820851295662025,0.991537810340914
2012-06-14,0,-1.959750877881058e-05,7.851462191833884e-05,-0.0018786550953054694,0.008521583584169344,0.9913593115160017
2012-06-18,1,0.00035510927396602114,0.000356971639625281,-0.0018786550953054694,0.009395086729183258,0.9908786277298428
2012-06-20,-1,-8.89661296255902e-05,-5.7163937854828515e-05,-0.0032176173606851977,0.009395086729183258,0.9909020685334454
2012-06-22,-1,-0.0009871294713757266,-0.0008407347001097386,-0.0032163912534257,0.009395086729183258,0.9914413320729549
2012-06-26,-1,-0.0006129260177245033,-0.0005293632778049164,-0.006477488254479276,0.009395086729183258,0.9913571990635488
2012-06-28,1,4.294766900596786e-05,6.720293236697353e-05,-0.0071449338438336115,0.008521583584169344,0.9918554898562599
2012-07-02,1,0.0010136520108553668,0.001106316402797381,-0.0071449338438336115,0.006086480546455877,0.9935602200235103
2012-07-05,1,0.000637620132466201,0.0006491951104875736,-0.0071449338438336115,0.004869350027937824,0.9934720851162846
2012-07-09,1,0.0004929471958496288,0.0005366597914695194,-0.0071449338438336115,0.004869350027937824,0.9934155355698268
2012-07-11,1,0.0005073152616691868,0.0005284135028517228,-0.007732355264288255,0.0018752139494242332,0.9932206576852552
2012-07-13,1,0.0010666476223984312,0.0010766221952944934,-0.008201437373787333,0.0005861997390275578,0.9936464211352583
2012-07-17,1,0.0013482207461189368,0.0014046902101047597,-0.008201437373787333,-0.0007013504703711428,0.993033152700141
2012-07-19,1,0.0006523239671714763,0.000689167986751733,-0.007991158412241786,0.0005929881410532267,0.9940451818808341
2012-07-23,0,-0.00011924950313912854,4.081383556669174e-05,-0.007991158412241786,0.0015127196154215354,0.9944588861287862
2012-07-25,-1,-0.00026170056827859504,-0.00010971816094762591,-0.007766532977844905,0.00363165518616977,0.9942136297615768
2012-07-27,-1,-0.00045120245379382646,-0.0002925968677366167,-0.007349105141027955,0.004194414649569362,0.9941027533679455
2012-07-31,-1,-0.00040629159570647273,-0.0002458742104640126,-0.007349105141027955,0.00363165518616977,0.994114676953199
2012-08-02,-1,-0.00011905156690155208,-3.237540116375864e-05,-0.007317896160319175,0.0034629923568896184,0.9945147060907393
2012-08-06,-1,-0.00033176035435012954,-0.00024401687210592586,-0.007317896160319175,0.0034629923568896184,0.9945337916181306
2012-08-08,-1,-0.0012688516479604501,-0.0010635828033834192,-0.004572662386421601,0.00363165518616977,0.9951857512365152
2012-08-10,-1,-0.0013439004315835058,-0.0011515586221705312,-0.004572662386421601,0.00363165518616977,0.9946910756742802
2012-08-14,-1,-0.002454181788284839,-0.0020912428547032657,-0.0033614785277668417,0.00363165518616977,0.9951136350457107
2012-08-16,-1,-0.0014780056794868538,-0.0012746520453452506,-0.0033614785277668417,0.004015228968640255,0.9947753471299181
2012-08-20,-1,-0.001353393876298101,-0.0011604810244677938,-0.0038356894890983276,0.0034629923568896184,0.9948113727230891
2012-08-22,0,-1.2248818335904081e-05,1.1476102058277272e-05,-0.005529497309075853,0.0019338172504713975,0.9935453994647458
2012-08-24,-1,-0.00039337993276674645,-0.0003535303748332039,-0.004572662386421601,0.0019338172504713975,0.9938958031997976
2012-08-28,-1,-0.0005458713289167041,-0.0004607834171070632,-0.005643895290376328,0.0014509230139729083,0.9932557781469539
2012-08-30,-1,-0.0017364326712012031,-0.0014467589187028606,-0.005292078916496932,0.0038328806411483396,0.9934405118270533
2012-09-04,-1,-0.0011235292442895823,-0.0009526337342495823,-0.0061222688155028555,0.005446780288269884,0.9930641555188321
2012-09-06,-1,-0.000508408339090155,-0.00045477318444912904,-0.008612190232968612,0.001972595986417962,0.9925768994747951
2012-09-10,-1,-0.0016484684096774145,-0.0014428018531801074,-0.007961311250213987,0.005446780288269884,0.9930764268955409
2012-09-12,-1,-0.0014062449274538523,-0.0012486990315426646,-0.00881138329295876,0.005763560251609001,0.9921250397350041
2012-09-14,-1,-0.0005871311852971672,-0.00054082577514033,-0.00881138329295876,0.005446780288269884,0.9926356620735954
2012-09-18,-1,-0.001185258751364142,-0.0010411107626860684,-0.00881138329295876,0.005446780288269884,0.992823504988309
2012-09-20,-1,-0.0027590059688349495,-0.0024269109148947715,-0.005909946221586496,0.005763560251609001,0.9935280429665225
2012-09-24,-1,-0.0017388865747546293,-0.0015644112120028236,-0.007324343468464909,0.005763560251609001,0.993020793279134
2012-09-26,-1,-0.0018910920645968756,-0.0017038848773077036,-0.006304999598421573,0.003942071593475762,0.9938889160789255
2012-09-28,-1,-0.001526939452619705,-0.0014054944959722893,-0.006523708229269049,0.0038801345537653265,0.9937327091998703
2012-10-02,-1,-0.0015031454009579877,-0.0013733824547682994,-0.006523708229269049,0.005779800751133987,0.9923202454562366
2012-10-04,-1,-0.0023619718222872236,-0.002127391575813817,-0.006161950839865628,0.007550173711961959,0.9918008773131823
2012-10-08,-1,-0.0026211332492844155,-0.0023281975182557384,-0.006161950839865628,0.006247794414921885,0.9920511314337419
2012-10-10,-1,-0.0028930506540216054,-0.0025337290936237643,-0.006842212666731123,0.0038801345537653265,0.9921099699075943
2012-10-12,-1,-0.0025406182735092436,-0.00227514732296192,-0.006842212666731123,0.0038801345537653265,0.9917383903453625
2012-10-16,-1,-0.0021335719845602587,-0.0019240042880556468,-0.008454405945623732,0.0017206242481570366,0.9909298759726065
2012-10-18,-1,-0.000872335930189801,-0.0008298051837710898,-0.008454405945623732,0.0017509717484817627,0.9912025347071057
2012-10-22,-1,-0.0022593217363321683,-0.002016527908196592,-0.008454405945623732,0.0017509717484817627,0.9919572802126381
2012-10-24,-1,-0.0032832854795918614,-0.002852598397530352,-0.008454405945623732,0.005804502377770518,0.9916397609256977
2012-10-26,-1,-0.002052836189026563,-0.0018608745771869308,-0.008454405945623732,0.007235525806811796,0.9912210930556132
2012-11-01,-1,-0.00038288050722215907,-0.00036689221030542147,-0.008454405945623732,0.0022097998074649848,0.9921730869423868
2012-11-05,-1,-0.0006446918054639974,-0.0005938070544912723,-0.006821992657603727,0.0005223900580551923,0.993099580876006
2012-11-07,-1,-0.0005385636680235119,-0.0005384802155705239,-0.006821992657603727,0.0022097998074649848,0.9920563567045009
2012-11-09,-1,-0.001414019021425822,-0.0013083768402243501,-0.0061177342411279385,0.0022097998074649848,0.9929744771120079
2012-11-13,-1,-0.002255156062671619,-0.002016692096309084,-0.004579826645133791,0.00684068661892685,0.9930236983886899
2012-11-15,-1,-0.0037971121932561637,-0.0033358949433020617,-0.004312331795914776,0.00684068661892685,0.9934389799879494
2012-11-19,-1,-0.0032658157911030408,-0.0028797586918792714,-0.004312331795914776,0.006895225871018462,0.9932751373384757
2012-11-21,-1,-0.003112824072726884,-0.0027890708132668907,-0.004312331795914776,0.007792314805398488,0.9919557283522938
2012-11-26,-1,-0.001918129970975297,-0.0018045521809161393,-0.004312331795914776,0.007288397113330319,0.9923587930460844
2012-11-28,-1,-0.0012281375510957118,-0.0011997347725881218,-0.004601933505516852,0.006740360021672852,0.9923875661445718
2012-11-30,-1,-0.0007879098434847886,-0.0007347652022397354,-0.006078154935743757,0.006740360021672852,0.9920248438046434
2012-12-04,-1,-0.001060213485062279,-0.001054588954345119,-0.00527567038808671,0.006740360021672852,0.9917316242040705
2012-12-06,0,0.0,0.0,-0.0023088794817175276,0.006740360021672852,0.9931334657445046
2012-12-10,0,0.0,0.0,-0.000670438003076142,0.006740360021672852,0.9932604121031557
2012-12-12,0,0.0,0.0,-0.001204268499723252,0.006592443214517881,0.9931722524463934
2012-12-14,0,0.0,0.0,0.0008400556895787994,0.00647938898821181,0.9932089340746303
2012-12-18,0,0.0,0.0,-0.0020893045627569115,0.006094560456766656,0.993637996599334
2012-12-20,0,0.0,0.0,-0.0012390891343866193,0.005608139805152762,0.9952321128680949
2012-12-24,0,0.0,0.0,-0.0022191512554340003,0.005608139805152762,0.9949320632355958
2012-12-27,0,0.0,0.0,-0.0019210665756044945,0.004851738889351618,0.9956647154172117
2012-12-31,0,0.0,0.0,-0.0022191512554340003,0.004318139586507616,0.9958884633015319
2013-01-03,1,0.0008092202426805068,0.0010811114037599342,-0.004546458278275323,0.0025953305751854282,0.9943930778041322
2013-01-07,1,0.0009676179812745175,0.00125060020434066,-0.00585115917373677,0.0021141215364667734,0.9941261554072096
2013-01-09,1,0.0009148701550737948,0.0011501974136578959,-0.006957336216643588,0.0018015115576007043,0.992964951367189
2013-01-11,1,0.0012568229527513772,0.0015620062593652505,-0.006957336216643588,0.0027132899124844806,0.9920334168032455
2013-01-15,1,0.0019056659084050434,0.0022917006685953894,-0.006957336216643588,0.0022482858116400824,0.9912591478889166
2013-01-17,1,0.0020805901253492685,0.002531689564929375,-0.006957336216643588,0.0022482858116400824,0.9912891618227161
2013-01-22,1,0.0021220697942450654,0.002575304495810924,-0.006957336216643588,0.0022482858116400824,0.9911757446131528
2013-01-24,1,0.0019236387581734824,0.002358833188933691,-0.006028515184223696,0.0022482858116400824,0.9915286543243773
2013-01-28,1,0.001946784113492144,0.0023719234730774936,-0.007014965666781796,0.0020090075630664964,0.9903251146213387
2013-01-30,1,0.0009618559383626537,0.0011724396113326138,-0.006164692968241796,0.0020090075630664964,0.9907873994885973
2013-02-01,0,-9.939697850369026e-05,2.5298729798988806e-05,-0.00507714210014082,0.005488365465062751,0.9925574955343887
2013-02-05,0,0.0,0.0,-0.001778724424919386,0.006402567852680221,0.9923804702303052
2013-02-07,0,0.0,0.0,-0.0032265665590735584,0.005488365465062751,0.9924639721966995
2013-02-11,0,0.0,0.0,-0.0032265665590735584,0.0033055197271695987,0.9936771986772527
2013-02-13,0,0.0,0.0,-0.0032265665590735584,0.004301739069926799,0.9934654640422239
2013-02-15,0,0.0,0.0,-0.005645197844718274,0.004301739069926799,0.9928832706655562
2013-02-20,0,0.0,0.0,-0.006537379448333067,0.004301739069926799,0.9924591350457846
2013-02-22,0,0.0,0.0,-0.00905319626681523,0.0050857590807732115,0.9921175581001558
2013-02-26,-1,-0.0005141338146435176,-0.000500222660710323,-0.006437486341674311,0.005516785078893831,0.9924782121579344
2013-02-28,0,0.0,0.0,-0.005698354697024425,0.005516785078893831,0.9930548020278581
2013-03-04,0,0.0,0.0,-0.005698354697024425,0.006072314593651002,0.9931432159538954
2013-03-06,0,0.0,0.0,-0.005698354697024425,0.007358475268238324,0.9920147558962239
2013-03-08,0,0.0,0.0,-0.0032373683449516987,0.007358475268238324,0.9928509281865164
2013-03-12,0,0.0,0.0,-0.0032373683449516987,0.007358475268238324,0.9928137735980833
2013-03-14,0,0.0,0.0,-0.0032373683449516987,0.006494862682728433,0.9934374745836405
2013-03-18,-1,-0.000426127119445893,-0.00038793306041935103,-0.0009058160732519985,0.007358475268238324,0.9924597168842314
2013-03-20,-1,-0.0013027525968887636,-0.0012053989378601508,-9.001106227883318e-05,0.007358475268238324,0.9916719513872182
2013-03-22,-1,-0.0014546575826309258,-0.0013362076934218996,-9.001106227883318e-05,0.007358475268238324,0.9918809603787936
2013-03-26,-1,-0.0009581047076159505,-0.0008970241496737335,-0.00044325731573193394,0.006494862682728433,0.9927167470354775
2013-03-28,-1,-0.0004623765653550868,-0.0003985292402897604,-0.002115337121854091,0.006494862682728433,0.9924016789012675
2013-04-02,1,6.670688689268335e-06,0.00014018373865525192,-0.002115337121854091,0.008052207635709043,0.991797831418976
2013-04-04,1,0.0009335937233361836,0.0011740339628461252,-0.0069104032687455135,0.005443356978814103,0.992542256552835
2013-04-08,1,0.0007699053329593194,0.0009398554780321066,-0.008948899150908305,0.004907680261703382,0.9920543084417253
2013-04-10,1,0.0007731003239922424,0.0009163327731438458,-0.008948899150908305,0.006712934270796085,0.991264623998186
2013-04-12,1,0.0007233492249241839,0.0007666272944131433,-0.008948899150908305,0.006115981423679741,0.9911020392926325
2013-04-16,1,0.0003838845637264097,0.0003881428454612981,-0.0069104032687455135,0.008244070362713246,0.9913654835786294
2013-04-18,-1,-0.00034267337627905977,-0.00023508018282533157,-0.005376263209660266,0.008244070362713246,0.9917955762892691
2013-04-22,0,0.0,0.0,-0.004819080649534966,0.0087327189863349,0.9916898571442979
2013-04-24,0,0.0,0.0,-0.005904007537734628,0.009578933252461423,0.990060585250595
2013-04-26,-1,-0.00020319975645795107,-0.00011984001146467837,-0.0019461895153717371,0.01007544624065065,0.9900060014242439
2013-04-30,1,9.706868830101594e-05,0.00012332503053603226,-0.006473520065725748,0.00862536585905995,0.9898451674649736
2013-05-02,-1,-0.00047235017164066914,-0.000368290083263485,-0.011739760120103023,0.00862536585905995,0.9893549281277759
2013-05-06,0,0.0,0.0,-0.007441593820895692,0.009578933252461423,0.9894333076874082
2013-05-08,0,0.0,0.0,-0.009042512477024485,0.00862536585905995,0.990104667066802
2013-05-10,0,0.0,0.0,-0.012260365520960685,0.00862536585905995,0.9901749129388052
2013-05-14,0,0.0,0.0,-0.014672867469180879,0.003397126087540062,0.9903165289813831
2013-05-16,0,0.0,0.0,-0.014672867469180879,0.003863395171828087,0.9891400937575823
2013-05-20,1,0.001817358581581592,0.00208092481110436,-0.014672867469180879,0.002381871189460963,0.9889061508962176
2013-05-22,1,0.0008872094363010448,0.0010196624326140173,-0.014857518548133775,0.0014303383673261946,0.987645217578278
2013-05-24,1,0.0018844540157315643,0.0021428054173020152,-0.014857518548133775,0.0018182093694118658,0.9857217136932992
2013-05-29,1,0.0010633601056531626,0.0012045175656026604,-0.012387244432777538,0.012793973803059858,0.9863178919886181
2013-05-31,-1,-0.00010221141246240616,-9.882834125071796e-05,-0.0068282948543342045,0.014695966629626214,0.9868105794845049
2013-06-04,1,0.0004225202252742709,0.0005092866335241206,-0.007878941421595807,0.014695966629626214,0.986729692232456
2013-06-06,1,0.00018526988813405147,0.000247476498628195,-0.007684166054766912,0.014695966629626214,0.9867248825926161
2013-06-10,0,0.0,0.0,-0.006763369732057906,0.014695966629626214,0.9867335827590277
2013-06-12,0,0.0,0.0,-0.0028693791809749286,0.015231549375827535,0.9868256321428077
2013-06-14,0,0.0,0.0,-0.006350577824092643,0.014695966629626214,0.9880288648417793
2013-06-18,0,0.0,0.0,-0.006350577824092643,0.014695966629626214,0.9881460058864625
2013-06-20,0,0.0,0.0,-0.0025253279220930017,0.014695966629626214,0.9908252504777788
2013-06-24,0,0.0,0.0,-0.0027551926475293215,0.007400008761319126,0.993115013111766
2013-06-26,0,0.0,0.0,-0.005982911292136564,0.00523338109319322,0.9932282125373332
2013-06-28,0,0.0,0.0,-0.005483213326032669,0.00523338109319322,0.9939699430064876
2013-07-02,0,0.0,0.0,-0.005483213326032669,0.002925742940457811,0.9932485762936324
2013-07-05,0,0.0,0.0,-0.0059602144819134745,0.002925742940457811,0.9927299723628173
2013-07-09,0,0.0,0.0,-0.0059602144819134745,0.001958970860400217,0.9930829414826131
2013-07-11,0,0.0,0.0,-0.00645777433959607,0.0006063767861114786,0.9936801126639883
2013-07-15,1,0.0013109686260483937,0.0014964600232090185,-0.006791432731576983,0.0006063767861114786,0.9927686987810903
2013-07-17,1,0.001284294707182187,0.0014559752177919633,-0.009902578346071507,-0.0006450311061548838,0.9919059628126953
2013-07-19,1,0.0008396852243012297,0.0008997211297362669,-0.013947268237462207,-0.0010493138025294965,0.9908581925632631
2013-07-23,0,0.0,0.0,-0.013947268237462207,-0.0010493138025294965,0.9905377490864602
2013-07-25,0,0.0,0.0,-0.012979646401236736,-0.0008859665883508332,0.9912963668676757
2013-07-29,0,0.0,0.0,-0.012979646401236736,-0.0005385055888329515,0.9908654505981112
2013-07-31,-1,-0.002151536700529295,-0.001835500912417759,-0.012979646401236736,0.0001854677599389157,0.9922179155024711
2013-08-02,-1,-0.0029247401100645993,-0.002521676180019505,-0.01012622247603502,0.0001854677599389157,0.9927161078412263
2013-08-06,-1,-0.0024401895157853885,-0.002142008189673289,-0.012518460975372393,0.002046132837512672,0.9914829752479781
2013-08-08,-1,-0.003103578176800221,-0.002702047421447995,-0.012518460975372393,0.008492079195737808,0.9904451747894355
2013-08-12,-1,-0.003943003741202057,-0.0034196073123721376,-0.006785247883874468,0.011518835065506336,0.9894336973906237
2013-08-14,-1,-0.004718667706976052,-0.004097739606894376,-0.004506318365555775,0.011518835065506336,0.9891658211191028
2013-08-16,0,0.0,0.0,-0.0036028101387374652,0.011518835065506336,0.9913237508598841
2013-08-20,0,0.0,0.0,-0.0036028101387374652,0.011518835065506336,0.9904047307457925
2013-08-22,0,0.0,0.0,-0.0038047282414851308,0.010213482529245496,0.9906489895105507
2013-08-26,0,0.0,0.0,-0.004807766009758298,0.005366290582434691,0.990051606431634
2013-08-28,0,0.0,0.0,-0.004208944231822186,0.0060737171683664555,0.9904779171345814
2013-08-30,-1,-0.0027790375676717697,-0.002508002956430649,-0.004807766009758298,0.0060737171683664555,0.9900145613831272
2013-09-04,0,0.0,0.0,-0.004362128933858205,0.0060737171683664555,0.9901052214776943
2013-09-06,0,0.0,0.0,-0.004449255277391468,0.004265873344266795,0.9902628448316747
2013-09-10,0,0.0,0.0,-0.007425697168103691,0.004265873344266795,0.9904126636800986
2013-09-12,-1,-0.0004632342614351129,-0.00045189141146552794,-0.007425697168103691,0.004265873344266795,0.9898605075908086
2013-09-16,0,0.0,0.0,-0.007425697168103691,0.003764808482238636,0.9898322701983271
2013-09-18,0,0.0,0.0,-0.007131253673081551,0.003764808482238636,0.9907479107618365
2013-09-20,0,0.0,0.0,-0.009128706366916525,0.0054875225648620685,0.9899998824012778
2013-09-24,-1,-0.0014460312938651292,-0.0012830545698347216,-0.004263981102184159,0.0071800088346703145,0.991046906803607
2013-09-26,-1,-0.001219948702228886,-0.0010721398905738698,-0.00501692501032908,0.0071800088346703145,0.9899182348141468
2013-09-30,-1,-0.0014304161776085402,-0.0013071603372693439,-0.00501692501032908,0.009175531226497932,0.9892848232025744
2013-10-02,-1,-0.000820465164691988,-0.0007779959777129398,-0.009631652583424697,0.0071800088346703145,0.9891569117593924
2013-10-04,-1,-0.0011720390462843298,-0.0011469636272152719,-0.009631652583424697,0.008300406339240835,0.9891191810879242
2013-10-08,-1,-0.0012210309829264834,-0.0012092863790161494,-0.009631652583424697,0.009241787489141281,0.9890306471341789
2013-10-10,1,0.0001391314235265318,0.0003346997287631075,-0.009631652583424697,0.007943257648756955,0.9901888478358277
2013-10-14,0,-4.406801040393192e-05,9.412321610907155e-05,-0.010625472023603158,0.007943257648756955,0.9896745158602882
2013-10-16,1,0.0012927334222086052,0.0016567272793776588,-0.010625472023603158,0.0057092520752354235,0.9899596630440278
2013-10-18,1,0.0010114761006070482,0.0012738057697542905,-0.013062102908873682,0.0057092520752354235,0.9899296574114005
2013-10-22,1,0.0005400136058579287,0.0006611752539926715,-0.013062102908873682,0.0026942141926687467,0.9901046638124748
2013-10-24,-1,-0.00013208376875686106,-7.281098398717245e-05,-0.010625472023603158,0.0040813125989067976,0.9913034288894373
2013-10-28,1,0.00012439314230530224,0.00020107318798651122,-0.0104228336394821,0.0023649245735467657,0.9924720217467877
2013-10-30,-1,-0.001060519514395175,-0.0009671564282710426,-0.007235336186155638,0.005234696982879134,0.9923914785581109
2013-11-01,-1,-0.0017536023606391257,-0.0015335727821739736,-0.007235336186155638,0.0040813125989067976,0.9931378216589651
2013-11-05,-1,-0.001380947169436486,-0.0012554315145906912,-0.005136215050548766,0.005234696982879134,0.9929382893090002
2013-11-07,-1,-0.0012616674007159554,-0.0011638558402981116,-0.006135113908456162,0.005992192230458124,0.9924304738477775
2013-11-11,-1,-0.003137853921430549,-0.0027171670165117476,-0.004857919043163011,0.007512096094032751,0.9920138676279595
2013-11-13,-1,-0.0019042946287748765,-0.0017207048318235016,-0.006400448163998372,0.007512096094032751,0.9914668075568103
2013-11-15,-1,-0.001266723574699218,-0.0012126719960191277,-0.005773712840348676,0.006208427952095937,0.9922192603339565
2013-11-19,-1,-0.001060274557068617,-0.0010592960005593776,-0.005773712840348676,0.007512096094032751,0.9912907864865491
2013-11-21,-1,-0.0011352895579241312,-0.0011238821079033387,-0.005773712840348676,0.007512096094032751,0.9914732804883786
2013-11-25,-1,-0.0013377580330989688,-0.0012956248176587374,-0.006031958472059564,0.007512096094032751,0.9914144465700692
2013-11-27,1,0.00012572985943367265,0.00029391720789957146,-0.006031958472059564,0.006208427952095937,0.9923786774251949
2013-12-02,1,0.0002950887090185893,0.0005352576386313335,-0.005773712840348676,0.006208427952095937,0.9925663613271757
2013-12-04,1,0.001276470415684275,0.001633933621392135,-0.005773712840348676,0.0051449594725083555,0.9931987417047037
2013-12-06,1,0.0014899253630384043,0.0018843625752832096,-0.005626460162370079,0.0051449594725083555,0.9936683254771643
2013-12-10,1,0.0021781079995246686,0.0026655334654543325,-0.005626460162370079,0.004396244690955391,0.993646651463537
2013-12-12,1,0.0011444907366664422,0.001499263236044111,-0.00482851625651217,0.004396244690955391,0.9950119664242428
2013-12-16,1,0.0005471639390216396,0.0007899571156011265,-0.0025001891122009377,0.005160346843800695,0.9950723781320526
2013-12-18,1,0.0012582946568770524,0.001597391353400413,-0.0016822418486795512,0.004908392309583086,0.9962456946542548
2013-12-20,1,0.00029761841402313667,0.0004537897058897616,-0.0012251075485758742,0.005160346843800695,0.9955299420428475
2013-12-24,-1,-0.0003664793247067661,-0.00034447600236198965,-0.0010213102030405834,0.005160346843800695,0.9953538818627585
2013-12-27,-1,-0.00012786082950173503,-7.956216151806697e-05,-0.0018887970755950651,0.006021126680304146,0.9950165001240979
2013-12-31,-1,-0.0002553141223518316,-0.00024061235997787403,-0.0010213102030405834,0.007980745417105431,0.9941495201683656
2014-01-03,-1,-4.9144774526205456e-05,-3.436250585736527e-05,-0.0019489548226021155,0.006021126680304146,0.9940356644166692
2014-01-07,-1,-0.00012238183316172545,-9.316333988756173e-05,-0.0019489548226021155,0.007684230102734,0.9936138535484802
2014-01-09,-1,-0.0005923428671832115,-0.00043734314750020766,-0.0019489548226021155,0.00775966567554608,0.9930681085027746
2014-01-13,-1,-0.0005228961712148983,-0.00040181163273901295,-0.0010213102030405834,0.009673729843197896,0.9924590549080211
2014-01-15,1,0.00015493623637382117,0.00017636650198374305,-0.0010213102030405834,0.009673729843197896,0.9929512801056719
2014-01-17,1,0.0005738260437972242,0.0006460816578083669,0.0008341376834395048,0.009673729843197896,0.992761817285166
2014-01-22,1,0.00031770309675336814,0.00031972286166801785,0.0008341376834395048,0.007941541139147747,0.9928921122666698
2014-01-24,0,-3.734818000101684e-05,1.2558979290767995e-05,0.001074459241130449,0.007941541139147747,0.992852351419222
2014-01-28,1,0.00018666329534084797,0.00020259014752375346,0.001074459241130449,0.007283407810129475,0.9933288228999373
2014-01-30,1,0.0014276449823659816,0.0016117559916208808,-0.0009367262421664476,0.007182933916936914,0.9948096825069573
2014-02-03,1,0.001535249076992273,0.0017863174832042734,0.0005562074266186902,0.007283407810129475,0.9949244761697102
2014-02-05,1,0.002370817872300092,0.002742889974415815,-0.002940302318876969,0.0069712290507117185,0.9947038962578245
2014-02-07,1,0.003032748853737434,0.003497086770735897,-0.0036246166986465896,0.004278118901573673,0.9944955649671519
2014-02-11,1,0.004382745884636438,0.005094118600319648,-0.0036246166986465896,0.004278118901573673,0.9941916126667789
2014-02-13,1,0.004081062792145509,0.004719782482577635,-0.004466187161843067,0.004278118901573673,0.9936649979200453
2014-02-18,1,0.0038050974565960174,0.004332445680045085,-0.004466187161843067,0.004100124233122726,0.993723289697167
2014-02-20,1,0.0038440332540734083,0.004392226971772127,-0.004466187161843067,0.0032268211006505555,0.9929189169151614
2014-02-24,1,0.003132511918844884,0.003537775151220213,-0.005593816200242338,0.0032268211006505555,0.9931491805260303
2014-02-26,1,0.0032800798972128617,0.003725698793880093,-0.007210477233836558,0.0034935901721686586,0.9920582379191449
2014-02-28,1,0.0025550192044272615,0.0028408856877027524,-0.007210477233836558,0.003914387638141362,0.9926216533214799
2014-03-04,1,0.00283831521877168,0.003134764244242873,-0.007210477233836558,0.005346996285483523,0.9925300469845284
2014-03-06,1,0.002645972517913618,0.0029785159347348895,-0.006166005950701236,0.006828005510918349,0.9927056734076876
2014-03-10,1,0.002158103127337504,0.002418945675775608,-0.002096997351610544,0.009383496320149329,0.9928092449071201
2014-03-12,1,0.0031393112355256256,0.003578132115328543,-0.002096997351610544,0.008974958591272092,0.9931019840919835
2014-03-14,1,0.0028122922345498683,0.003216850855616425,-0.006382749138158045,0.008974958591272092,0.9916829900883857
2014-03-18,1,0.002950049681865987,0.0033783729018296536,-0.006382749138158045,0.008974958591272092,0.9915434209045315
2014-03-20,1,0.0017537256516921493,0.0019683117546276272,-0.006382749138158045,0.008974958591272092,0.991610302658745
2014-03-24,1,0.0016424976134749773,0.0018627762863485944,-0.00386506482569046,0.009429925819551715,0.9913426082881532
2014-03-26,1,0.0012268807089180743,0.0013378842286121298,-0.002620768639196008,0.009429925819551715,0.991824594899672
2014-03-28,1,0.0012441942403167208,0.001350443131475923,-0.002620768639196008,0.009985662286650973,0.9912651108533366
2014-04-01,1,0.001795390297640347,0.001954994577999461,-0.0034731200320444245,0.008974958591272092,0.991972436332106
2014-04-03,1,0.0015778488055720576,0.0017002804314403949,-0.002172863820189924,0.008974958591272092,0.9924901156569359
2014-04-07,1,0.0018656486234270007,0.001988275217493253,-0.002172863820189924,0.007838369535815761,0.9928619386482939
2014-04-09,1,0.0018818343149257202,0.0020004193310249004,-0.002172863820189924,0.009769068188914199,0.9927023010644154
2014-04-11,1,0.0004635325448247721,0.0005413577001462265,0.0005492883216628378,0.009769068188914199,0.9937939640669339
2014-04-15,1,0.0003406730943987747,0.00044816020620815214,-0.0018090925058484543,0.009769068188914199,0.9935215563989133
2014-04-17,-1,-0.00021728644465509738,-3.143353562142252e-05,-0.0018090925058484543,0.009769068188914199,0.9940848684541441
2014-04-22,0,-6.708079042069804e-05,0.00011469262765708408,-0.0023390626097298697,0.008598547067476387,0.9945231951949821
2014-04-24,1,0.0008101702390258064,0.0008391138352225558,-0.003158149127779275,0.0066998082651916445,0.9948137286515701
2014-04-28,1,0.0010512347144034013,0.0010747902862142601,-0.003158149127779275,0.006440238905387645,0.9950337966633691
2014-04-30,1,0.0014237056583253605,0.0014956035892127874,-0.0035601406117748173,0.00658409672941545,0.9948544517129824
2014-05-02,1,0.0017496428078436906,0.0018637935788502643,-0.0035601406117748173,0.006229785142119881,0.9951254006016726
2014-05-06,1,0.002281403499893253,0.002495765420265466,-0.0035601406117748173,0.005750605181804962,0.9953605866727961
2014-05-08,1,0.0020103908138645915,0.0021223990844611035,-0.0036134576789738277,0.005750605181804962,0.994530200310831
2014-05-12,1,0.0019844010887898273,0.002061001457055488,-0.006157071189892574,0.0051638683176872,0.9934254803228797
2014-05-14,1,0.001641715028131948,0.0016931536277391425,-0.004314790909651124,0.0051638683176872,0.9940707499140579
2014-05-16,1,0.0013171621728541344,0.0013440396888281193,-0.006157071189892574,0.0051638683176872,0.9937521745637792
2014-05-20,1,0.0005869174713690014,0.0007289944503827031,-0.006157071189892574,0.005798557789814231,0.9939089965509943
2014-05-22,0,-1.0895163076756983e-05,0.00019825460300446855,-0.0017802230624740978,0.005798557789814231,0.9943516784064402
2014-05-27,1,0.0003429903759967145,0.0005166824984937507,-0.002385950712901241,0.005093664238909813,0.9946480714773173
2014-05-29,1,0.0005195562419227355,0.0006571039380652076,-0.0013273062259024397,0.005093664238909813,0.9945346266673898
2014-06-02,1,0.0008969317507828772,0.0009781351274590925,-0.003271330460970739,0.005992258559928778,0.9940125384208198
2014-06-04,1,0.0009371554084850705,0.000999186716172058,-0.003271330460970739,0.005992258559928778,0.9938727699181575
2014-06-06,1,0.0008545012588959374,0.0009449552772257384,-0.002474212495915989,0.005022004143160474,0.9948397801309536
2014-06-10,0,-5.840207523151962e-05,0.00012299977744691223,-0.0004432018077760304,0.005129577379167964,0.9958043953422274
2014-06-12,0,-5.947444458876598e-05,0.00012520802042327247,-0.0001983781875592433,0.0055227605525779,0.9955043259895945
2014-06-16,0,-0.00017383876656916865,2.6314992713060347e-05,0.00012230861167732875,0.005394879565154344,0.9958732100510109
2014-06-18,0,-0.0001090909872487482,0.00010689461423467762,-0.0001983781875592433,0.005129577379167964,0.9958563395315246
2014-06-20,0,-5.530475116417052e-05,0.00015522506746625528,-0.0009809605611570316,0.005129577379167964,0.9957936664007137
2014-06-24,1,0.00031336503171568603,0.000447220809835248,-0.0001983781875592433,0.005198410528395443,0.9957766186596692
2014-06-26,1,0.0003819383914832035,0.0005236138922189836,-0.00038582599847930164,0.005198410528395443,0.9952737606707918
2014-06-30,1,0.0006937416562388053,0.0007630617528257701,-0.00038582599847930164,0.005198410528395443,0.9954055559442861
2014-07-02,1,0.0012273010068919762,0.0012589146554561163,-0.0021094962520614453,0.005729260000260336,0.9937786468965784
2014-07-07,1,0.0012868192704413484,0.0013769181806583004,-0.0021094962520614453,0.0064780524779900345,0.9930020705232497
2014-07-09,1,0.0015088730750200995,0.001640722072138747,-0.004320285925482877,0.0064780524779900345,0.9925757065213907
2014-07-11,1,0.0019406525713506317,0.0021594264442824683,-0.004320285925482877,0.00747126169159828,0.9926300297947204
2014-07-15,1,0.0019872415719561073,0.002199980632625671,-0.004456889093202969,0.00747126169159828,0.9925388050993179
2014-07-17,1,0.001763115028856742,0.001933085544090037,-0.003853607415734192,0.007670315011599892,0.9920943648057192
2014-07-21,1,0.001765358338870037,0.00193284132876918,-0.003853607415734192,0.00909366008707073,0.9914993537296652
2014-07-23,1,0.001932388157220139,0.0021187423923615047,-0.003853607415734192,0.00909366008707073,0.9916072146889213
2014-07-25,1,0.00190694652573959,0.002108146728297661,-0.003853607415734192,0.008700978792603599,0.9920712034036239
2014-07-29,1,0.0017481246101905105,0.00188301578720068,-0.0028040067483887134,0.005002523919552216,0.9925220079525344
2014-07-31,1,0.001021796222805412,0.001031688381065591,-0.0023087828531594013,0.002795740690350324,0.9945320675218375
2014-08-04,1,0.0014343732979703516,0.0015301343488595943,-0.0023087828531594013,0.002795740690350324,0.9952559485688803
2014-08-06,1,0.0008010803054361023,0.0008122313708650248,-0.0020343505100331467,0.0036495043176705427,0.9958342495923032
2014-08-08,1,0.0011491218424047934,0.0011803538565446623,-0.0020343505100331467,0.004200785356630842,0.9952698903645725
2014-08-12,1,0.0005680836959255288,0.0006644304819584479,-0.0023087828531594013,0.004200785356630842,0.9934084712973236
2014-08-14,1,0.0005471616486383961,0.0006299037478371555,-0.002445833393270378,0.0036495043176705427,0.9926661710872899
2014-08-18,1,0.0009538023997227056,0.0009746243657017242,-0.003765883580743672,0.0036495043176705427,0.9926600913857194
2014-08-20,1,0.0010681161012153185,0.0010721743621088164,-0.0077383171160236896,0.0019121915600233204,0.9918303483300976
2014-08-22,1,0.0009452219606221317,0.0009623530109105945,-0.004487292324006059,0.0036593184195679858,0.9920185545268515
2014-08-26,1,0.0007089955777897371,0.0007215213044989283,-0.0077383171160236896,0.0036593184195679858,0.9912605342783785
2014-08-28,1,0.0009787511869011523,0.0010293015843787956,-0.0077383171160236896,0.004622267004777432,0.9908112910138499
2014-09-02,1,0.0010181650052142192,0.0010858588431948495,-0.0077383171160236896,0.004051357762022246,0.9910685800053467
2014-09-04,0,-3.925581085032322e-05,0.00010323424411343976,-0.0077383171160236896,0.006039874971210795,0.9908758270892867
2014-09-08,1,0.0006624499343445971,0.0007218812006975404,-0.0077383171160236896,0.006392139499865803,0.9912007439459117
2014-09-10,-1,-0.0019113577790679493,-0.0015222751802938352,-0.004344814298441085,0.0067902379116488686,0.9918062795983792
2014-09-12,-1,-0.0032066029011719325,-0.002681763102223551,-0.0016192676939976059,0.007564949923708304,0.9915105186099006
2014-09-16,-1,-0.0032099865662101375,-0.002696225301362375,-4.804769358575183e-06,0.008451620341949465,0.9907375146545567
2014-09-18,-1,-0.003728627977403879,-0.0031937085960440917,0.0005680550203837629,0.008451620341949465,0.9901667512545749
2014-09-22,-1,-0.0032773160859047757,-0.002792816143098352,-4.804769358575183e-06,0.008720049837999694,0.9900693607041975
2014-09-24,-1,-0.0037968284925269024,-0.003271774736194677,0.00048749896326274263,0.008720049837999694,0.9901607685369384
2014-09-26,-1,-0.0031576226355506166,-0.0027330897369873047,0.00048749896326274263,0.008305584939362839,0.990647138369157
2014-09-30,-1,-0.002683178728764889,-0.002339478778889963,-0.0012119943900917175,0.008305584939362839,0.99093854380497
2014-10-02,-1,-0.0019972296552215286,-0.0017519753690249788,-0.0012119943900917175,0.008305584939362839,0.9913518530133941
2014-10-06,-1,-0.0017468377134067577,-0.0015088755173080649,-0.0012119943900917175,0.011919794055461867,0.990437298307052
2014-10-08,-1,-0.001358074532877918,-0.001175210297142367,-0.0012119943900917175,0.008948449890830424,0.991296225724501
2014-10-10,-1,-0.0006218085510090675,-0.0005108409523487281,-0.005036326897909352,0.007257258096352412,0.9923767515565804
2014-10-14,1,0.00011770302419559101,0.0001787672803714665,-0.005623282322049043,0.00564571431966475,0.9925683922323246
2014-10-16,1,6.44861930176113e-05,0.00010996721946323742,-0.005623282322049043,0.008637972918072782,0.9924005937192095
2014-10-20,1,0.0005564518407686473,0.0005734257707225961,-0.005623282322049043,0.006838356339862444,0.9928600076139426
2014-10-22,1,0.0008447780969066067,0.0009162450486346465,-0.0060408096425911524,0.007238786917328879,0.9921477250631602
2014-10-24,1,0.0009210585582832716,0.000999597926504472,-0.0060408096425911524,0.007581728864084048,0.9921341166996874
2014-10-28,1,0.0007699677085708399,0.0008486364430349411,-0.0060408096425911524,0.007581728864084048,0.9921853006918455
2014-10-30,1,0.00041549857454822246,0.0004411697337950461,-0.0060408096425911524,0.00994561382696025,0.9916090037955914
2014-11-03,1,0.0015338935341106127,0.0016548752916017528,-0.0060408096425911524,0.006499390350980655,0.9927303804232591
2014-11-05,1,0.0013190132022249986,0.0014077977826620267,-0.004440817802603792,0.006499390350980655,0.9928173146080546
2014-11-07,1,0.0009631040818003133,0.001018480789347873,-0.004440817802603792,0.007581728864084048,0.9918897137569731
2014-11-11,1,0.0012216344815139577,0.001319404793021443,-0.0030063360952110015,0.007470477214612801,0.9925992913512417
2014-11-13,1,0.0012033653639340557,0.001301282649144375,-0.0030063360952110015,0.006499390350980655,0.9924616101814461
2014-11-17,1,0.0011210438162560733,0.0012310846254547077,-0.0030063360952110015,0.006499390350980655,0.9926863167775847
2014-11-19,1,0.0009553581334517357,0.001025547299510259,-0.0028173399771623518,0.009337835092222694,0.9919885015276518
2014-11-21,1,0.0015782398041247548,0.0017426178386919038,-0.0028173399771623518,0.009337835092222694,0.9917412783055977
2014-11-25,1,0.001251721732507505,0.0013622921510977781,-0.0038130205331778563,0.009337835092222694,0.9910217823215758
2014-11-28,1,0.0016790341199273342,0.0018563062577273885,-0.0038130205331778563,0.007083161999594155,0.9917205748224224
2014-12-02,1,0.001889573783331949,0.0021124038085190804,-0.010485996749051313,0.006313938342198449,0.99074903834372
2014-12-04,1,0.0019934689892431422,0.0022466906481581872,-0.010485996749051313,0.009337835092222694,0.9897627909098887
2014-12-08,1,0.0020097022694197646,0.0022545412503900235,-0.007654356176272206,0.009337835092222694,0.9905445405869736
2014-12-10,1,0.002435686511882214,0.002739215925675988,-0.007654356176272206,0.010076058168123772,0.9903170877085091
2014-12-12,1,0.0018273461047461342,0.00206644898893694,-0.007654356176272206,0.011324364165376322,0.9902656786423805
2014-12-16,1,0.0013087677190025092,0.0014514048257121197,-0.00016684901857897273,0.011879376333569587,0.9898830618946893
2014-12-18,1,0.0026297735751298294,0.0029653828627812613,-0.0076545484194905965,0.011324364165376322,0.9907155991198077
2014-12-22,1,0.003024312773253857,0.0033831368645026285,-0.0076545484194905965,0.011324364165376322,0.9904444836217857
2014-12-24,1,0.0024714786406269634,0.002756166659911403,0.0007272684187951068,0.011324364165376322,0.9911790526252466
2014-12-29,1,0.0024282187067816347,0.0026810817001531005,-0.004305012886407569,0.011324364165376322,0.9907608442022106
2014-12-31,1,0.0014424897367331046,0.0015788333804751611,-0.0033149263665277935,0.011324364165376322,0.9903943870304156
2015-01-05,1,0.0024642417755622766,0.0027217974297873834,-0.004374227762548446,0.011320616351662689,0.9911685751130275
2015-01-07,1,0.0033870583012622817,0.0037918212498623083,-0.004374227762548446,0.011547190190656989,0.9910155471290812
2015-01-09,1,0.0042931822528727275,0.004839765494987721,-0.006829059509145164,0.011547190190656989,0.9897577404597847
2015-01-13,1,0.004257443662030827,0.004803894472829308,-0.004374227762548446,0.011099288173375386,0.9904418633344717
2015-01-15,1,0.004613862181600644,0.005177414930290829,-0.006829059509145164,0.011099288173375386,0.988928138645468
2015-01-20,1,0.004072585547345244,0.0045503499591757115,-0.004374227762548446,0.011702858753019008,0.9900194481259427
2015-01-22,1,0.004525205581108445,0.005050359870339577,-0.006829059509145164,0.011702858753019008,0.9889037300295936
2015-01-26,1,0.004718837757516838,0.005267788337853402,-0.009176483759836604,0.012236690615536606,0.9869636420928247
2015-01-28,1,0.004321843233056646,0.004810942225990836,-0.011775997356925331,0.012236690615536606,0.9866317635968498
2015-01-30,1,0.0034846526947679137,0.0039025113013574134,-0.007695564041508072,0.012236690615536606,0.9882376728067692
2015-02-03,1,0.0025352242401649253,0.002702368285411127,-0.006844253131606547,0.012236690615536606,0.9883381076291147
2015-02-05,1,0.0026895086137953324,0.0028004315116951155,-0.011775997356925331,0.00656774787926318,0.9876814628625407
2015-02-09,1,0.0010371192024334467,0.0011281273509942222,-0.006844253131606547,0.007954042660438412,0.988939986325045
2015-02-11,1,0.0004805404462389208,0.0006743645466617337,-0.006844253131606547,0.010897728876804172,0.9882135874801374
2015-02-13,1,0.0007956667664634238,0.0009381072476155659,-0.004452643893870717,0.010897728876804172,0.9888168548518085
2015-02-18,1,0.0007691407373163229,0.0009619147449061396,-0.004452643893870717,0.011244921729465274,0.9882402922768118
2015-02-20,1,0.00019225723187373358,0.0004428736955663483,-0.004452643893870717,0.011929085946335006,0.9887771612733388
2015-02-24,-1,-0.0005531488570012161,-0.00020868316881545324,-0.004452643893870717,0.007954042660438412,0.9903363377613615
2015-02-26,-1,-0.0012054299782736375,-0.0007904220757526273,-0.004452643893870717,0.007954042660438412,0.9897337226436331
2015-03-02,-1,-0.0007470412823804978,-0.0004011489847335248,-0.004452643893870717,0.007381675513429059,0.9898665059587435
2015-03-04,-1,-0.0011371883480559254,-0.0007575665301124256,-0.004883565958867356,0.007381675513429059,0.989565774871599
2015-03-06,-1,-0.0016718190785068115,-0.001267727446684641,-0.0038732016128367698,0.009973534635530905,0.9902953567569474
2015-03-10,-1,-0.0008001152977981313,-0.0005381665008486205,-0.004883565958867356,0.00971064269290432,0.9898219978934397
2015-03-12,-1,-0.0004584747756881723,-0.00021603323811385743,-0.007914533365710399,0.0067196304959713455,0.989259248667637
2015-03-16,1,0.0006249203119977915,0.0007188931847461162,-0.007914533365710399,0.0067196304959713455,0.9894567420822794
2015-03-18,1,0.001203792320758001,0.0012357338690837639,-0.00893776971424161,0.0058291658352710015,0.9897478935956473
2015-03-20,1,0.0016431745584769518,0.001665777549697318,-0.008395640050396528,0.004715940765375586,0.9907733786984334
2015-03-24,1,0.000630928615039147,0.0007441851476207219,-0.007049511931770483,0.006164807375365249,0.9912393765740946
2015-03-26,1,6.410438246265632e-05,0.00027254748634805606,-0.004460179988314529,0.006164807375365249,0.9926558914657552
2015-03-30,1,0.0009728813287599636,0.0010207078056537582,-0.004460179988314529,0.006164807375365249,0.992672524223337
2015-04-01,1,4.268312685094279e-05,0.00021167166233395236,-0.007049511931770483,0.006164807375365249,0.9918627513613997
2015-04-06,1,0.0004533604878737096,0.0006056875482197694,-0.007049511931770483,0.0058402491391473105,0.9919245271751753
2015-04-08,0,-0.00013650443413226754,5.720768325413533e-05,-0.008449028135130756,0.0058402491391473105,0.9912195507535466
2015-04-10,-1,-0.0011406640465124916,-0.0007974128196472652,-0.006405491387380736,0.0064119425017326835,0.9910863946385161
2015-04-14,-1,-0.0012377010536660062,-0.0008797854350920738,-0.008449028135130756,0.006164807375365249,0.9905206292916936
2015-04-16,-1,-0.0017107953751992274,-0.0012794562363850086,-0.006405491387380736,0.0064119425017326835,0.9899788464520035
2015-04-20,-1,-0.0017491180189249198,-0.0013360877492677075,-0.006117313877189149,0.0064119425017326835,0.9898143785833501
2015-04-22,-1,-0.0014846483506773215,-0.0010898058177890835,-0.006117313877189149,0.0058124631261724565,0.9903613716779434
2015-04-24,-1,-0.0012105624867175993,-0.0008638906002274166,-0.006117313877189149,0.0058124631261724565,0.9904084133286352
2015-04-28,-1,-0.0013037702471826612,-0.0009473443681146383,-0.008098481549657702,0.006722003767505069,0.9894166462922356
2015-04-30,-1,-0.0027316441697579612,-0.002209986424672579,-0.006068851736045829,0.006722003767505069,0.9907182482062775
2015-05-04,-1,-0.0020006998809828517,-0.0015703155417402762,-0.007659621167311052,0.006722003767505069,0.9904754268596366
2015-05-06,-1,-0.003295978559374498,-0.0027469989990805896,-0.006068851736045829,0.006722003767505069,0.9908062274037199
2015-05-08,-1,-0.0024166206604808475,-0.0019307878767696029,-0.0060758478585896765,0.003011772295911659,0.9924012562195453
2015-05-12,-1,-0.003315831129046114,-0.0027026756525119124,-0.005578742419276984,0.0023273933265293683,0.9934176726461131
2015-05-14,-1,-0.0018610262257120012,-0.001499980232887086,-0.005578742419276984,0.0023273933265293683,0.9938133199772395
2015-05-18,-1,-0.0014661094326973735,-0.001188571103236648,-0.005578742419276984,0.0023273933265293683,0.9932543463036743
2015-05-20,-1,-0.0020725626636631782,-0.001732621914360903,-0.005578742419276984,0.009532619198532344,0.9919340817113582
2015-05-22,-1,-0.0020174788602451785,-0.0016974447195261702,-0.007953095126227746,0.009532619198532344,0.9911655052687838
2015-05-27,-1,-0.0023961970130440434,-0.0019783970868185686,-0.008048870070982662,0.003945019212831184,0.9915316581340287
2015-05-29,-1,-0.0021923249372235816,-0.0018611646939452587,-0.009474189731373333,0.00819326466630966,0.990907940604323
2015-06-02,-1,-0.001971524751722996,-0.0017023017074026935,-0.009474189731373333,0.0035365445038411892,0.9913637920538332
2015-06-04,-1,-0.002438398310813025,-0.0021499441904064354,-0.007144836201493705,0.010720984235675536,0.9907044445097642
2015-06-08,-1,-0.0027849134291401314,-0.0024553799674796027,-0.007144836201493705,0.013455497002482417,0.9896762644969073
2015-06-10,-1,-0.0022622143242521844,-0.002032751885832489,-0.007144836201493705,0.013455497002482417,0.989856109862722
2015-06-12,-1,-0.0020518894995858843,-0.0018363951217770114,-0.007144836201493705,0.013455497002482417,0.9900968994429233
2015-06-16,-1,-0.0007270529774995027,-0.0007066274889246332,-0.007144836201493705,0.009153768892947455,0.9909032866635181
2015-06-18,1,0.00036548299426255546,0.0005017956695193982,-0.007144836201493705,0.00548023214950376,0.9921075301356866
2015-06-22,-1,-0.00069671215659871,-0.0006789815292346847,-0.004998238185924408,0.0067934178000451685,0.9924106728290429
2015-06-24,-1,-0.001914897977213721,-0.0017144164966294761,-0.0036429767133791696,0.0074591120172584615,0.992151758247362
2015-06-26,-1,-0.001416222846832231,-0.0012965720427295124,-0.0013381281282777591,0.0067934178000451685,0.992681031874532
2015-06-30,-1,-0.0014598952192742517,-0.0013880092861452598,-0.0024358746964912668,0.0067934178000451685,0.993161040429578
2015-07-02,-1,-0.0008138220776094094,-0.0007614084479604906,-0.002448684234408307,0.006377639054255837,0.99472163729579
2015-07-07,1,6.85110554700756e-05,0.0001346259917517581,-0.0036429767133791696,0.006377639054255837,0.9948188042879854
2015-07-09,1,0.000520624502028041,0.0006224181758670182,-0.0036429767133791696,0.006377639054255837,0.9946851001771503
2015-07-13,1,0.0009548232043138157,0.0011477201148027266,-0.002744044464413233,0.005888723945560295,0.9949542016747434
2015-07-15,1,0.0009280173570739418,0.001072824554400563,-0.002744044464413233,0.006476368107776497,0.9942858840848536
2015-07-17,1,0.0008665491519303889,0.0009831615663919804,-0.002136230613502621,0.006476368107776497,0.9944417660881347
2015-07-21,1,0.0006104904184931863,0.0006611501247347566,-0.001237023601202912,0.006289344222767391,0.9947707142517849
2015-07-23,1,0.0006719393892899643,0.0007501609188035828,-0.002136230613502621,0.005884514072359821,0.9945378506194604
2015-07-27,1,0.0005504266782597174,0.0006766871989477564,-0.00607381477307801,0.005229544694764577,0.9911877449912437
2015-07-29,1,0.00026080509273738127,0.00041399183144993576,-0.008146834750800263,0.005884514072359821,0.9888720487186438
2015-07-31,1,0.0005155872123787454,0.0005781949576461206,-0.008146834750800263,0.005884514072359821,0.9879191609260528
2015-08-04,1,0.0007666783210435449,0.0007737482265157158,-0.017134743582243494,0.005229544694764577,0.9865734787198108
2015-08-06,1,0.0013242037771610442,0.0014444721198636971,-0.017134743582243494,0.005884514072359821,0.986286637184226
2015-08-10,1,0.001967624191575528,0.0022097795046003136,-0.018795798950083625,0.007160599007431001,0.9849425247948745
2015-08-12,1,0.003186733642481835,0.003645256941710786,-0.018795798950083625,0.004584210338535601,0.9847814250114335
2015-08-14,1,0.0030843998724045616,0.0035035302074699513,-0.018795798950083625,0.006238549445031026,0.983864299826288
2015-08-18,1,0.002788555291075745,0.0031150687832934816,-0.018795798950083625,0.011208086111441192,0.9831334197344088
2015-08-20,1,0.0021255351209835886,0.002371761263471425,-0.018795798950083625,0.011208086111441192,0.9840134191842905
2015-08-24,1,0.00026118534026703925,0.0002909114600971935,-0.009525885027556209,0.014580628477796755,0.9863525901938147
2015-08-26,1,0.0017127258521317276,0.0019121960082263325,-0.008192564843650276,0.010911173769808442,0.9887056031497952
2015-08-28,1,0.002488826680922847,0.0027660062030520115,-0.009525885027556209,0.008673461937512394,0.9887594488865198
2015-09-01,1,0.0009262950496348179,0.0009405600040029805,-0.00718902184865583,0.014580628477796755,0.9884257224502958
2015-09-03,1,0.001433330314537337,0.0015251702337908564,-0.00718902184865583,0.014580628477796755,0.9886718777492103
2015-09-08,1,0.001425100086970169,0.001505097275176899,-0.00718902184865583,0.011641925687223022,0.9896092510395276
2015-09-10,1,0.0009289243158577315,0.0009314491164612127,-0.005106572010357649,0.013977990060527816,0.9891730490657797
2015-09-14,1,0.0017241630928186216,0.0018490053965037074,-0.0003640657740959549,0.011540016995344292,0.990431112405505
2015-09-16,1,0.0026203370079832225,0.002865422911010684,-0.008192564843650276,0.008917045909983922,0.990406283661
2015-09-18,1,0.0023867985931030162,0.0025936539675221215,-0.008192564843650276,0.011540016995344292,0.9896097597443059
2015-09-22,1,0.0020296895204034073,0.0021262564405196125,-0.007921086419557695,0.011540016995344292,0.9893396332493741
2015-09-24,1,0.0021283406043676205,0.002271242519644892,-0.0024372743731500756,0.011540016995344292,0.989815276583008
2015-09-28,1,0.0013260452418046155,0.0013530533673978267,-0.001255720870297016,0.014820318034866843,0.9898594116127194
2015-09-30,1,0.00381334563138685,0.004204133948820339,-0.008188191044223206,0.008884674138863876,0.9911717287844378
2015-10-02,1,0.003912995159903761,0.004288797856337763,-0.00977205059183651,0.008223512816414988,0.9901830085703835
2015-10-06,1,0.0037061716010300194,0.0040964414000082905,-0.009314147351683316,0.009663362263298806,0.9887648422924752
2015-10-08,1,0.004228838561346358,0.0046773782943757055,-0.009314147351683316,0.00695415637492625,0.988682527113745
2015-10-12,1,0.004301279212002206,0.00475790291682701,-0.009941553533353107,0.004178605154109431,0.9866712527654682
2015-10-14,1,0.003470950517318792,0.003802878017522968,-0.009118641259219936,0.012341576894130903,0.9874942869717946
2015-10-16,1,0.004549017489747608,0.005032425249057806,-0.009118641259219936,0.00519158653784392,0.9870594880900305
2015-10-20,1,0.004602684430281372,0.005065859036418001,-0.009118641259219936,0.006091495413097685,0.9878678325393941
2015-10-22,1,0.004408739139335514,0.004829602185278678,-0.009118641259219936,0.0064532065427024676,0.9880933709053109
2015-10-26,1,0.004465544245530233,0.004841525461117919,-0.009118641259219936,0.0054217126419059646,0.9888946168606072
2015-10-28,1,0.003401406754617506,0.0036075593149586358,-0.008498307979171131,0.007172051776893812,0.9898857531962884
2015-10-30,1,0.0025590847934921575,0.002636678701771112,-0.00818465163580875,0.009487721514035704,0.9902590206358022
2015-11-03,1,0.003818250222756834,0.004070506704168569,-0.008498307979171131,0.009487721514035704,0.9908537232023703
2015-11-05,1,0.003620894869034492,0.0038744613381499786,-0.008877328298985708,0.010062015495565364,0.9887365337495554
2015-11-09,1,0.0030120117298505457,0.0032405621685109498,-0.007277540886839087,0.010062015495565364,0.9899438857238301
2015-11-11,1,0.0034497370343727924,0.0036872543815627936,-0.008498307979171131,0.007172051776893812,0.9897429213873242
2015-11-13,1,0.0025479795865721994,0.002620012955502078,-0.007277540886839087,0.008527762572866087,0.9904317848114839
2015-11-17,1,0.0028332977335389898,0.0029296967292116107,-0.007277540886839087,0.009487721514035704,0.9896625428988833
2015-11-19,1,0.002490928926069701,0.0025114845834233513,-0.008407469933542975,0.009487721514035704,0.9890130540513367
2015-11-23,1,0.0030916053304345294,0.00325455050510495,-0.008407469933542975,0.009487721514035704,0.989009753939858
2015-11-25,1,0.0032818231734508467,0.0034994474499975238,-0.007287991629285284,0.009314296853034624,0.9894830401278799
2015-11-30,1,0.003094266776304905,0.0032789198253439606,-0.00608710295615454,0.009242985906029608,0.9901460334783968
2015-12-02,1,0.0030919598974634265,0.0032726310244883985,-0.0049344021979160395,0.008469954352532394,0.9911327437972097
2015-12-04,1,0.0033590266436007744,0.003571974844555408,-0.0049344021979160395,0.008469954352532394,0.9917903709895248
2015-12-08,1,0.002695373612225999,0.002815713208293752,-0.003907860531904208,0.008469954352532394,0.9918926071397435
2015-12-10,1,0.0019709165472201946,0.0019941918872256282,-0.0032384286399731767,0.009242985906029608,0.9914555897934277
2015-12-14,1,0.002124990244872775,0.002153851803798156,-0.004857321738722909,0.009242985906029608,0.9912845116457846
2015-12-16,1,0.0031382844148786873,0.003305764657935084,-0.007793662417806045,0.002678855863665711,0.9916733547653009
2015-12-18,1,0.0024164720268922513,0.00246403483324787,-0.00804590977042739,0.004876600817256689,0.9907195197987695
2015-12-22,1,0.002250365731873592,0.0022799507904786814,-0.00804590977042739,0.008007038678175106,0.9901282065846373
2015-12-24,1,0.002275647049850631,0.00230093833271083,-0.00804590977042739,0.008128403091409692,0.9894571411362375
2015-12-29,1,0.002466904138539662,0.002514430455914549,-0.011832940307644878,0.006540848818248705,0.9871538005338302
2015-12-31,1,0.0021069162833824025,0.0021218870876451726,-0.011832940307644878,0.008771542871677654,0.9866560573319301
2016-01-05,1,0.0024277194835674518,0.0025213564566044493,-0.01090596490818161,0.006540848818248705,0.9876619241035862
2016-01-07,1,0.0019122467544410882,0.001934998768754317,-0.015654003072796335,0.007675616971438739,0.9865464090621667
2016-01-11,1,0.0017216921172044616,0.0017505447273051815,-0.015654003072796335,0.006540848818248705,0.9865136908498405
2016-01-13,1,0.0008442274510219355,0.0009623669212738009,-0.015654003072796335,0.006540848818248705,0.9863475374490674
2016-01-15,-1,-0.0009811775946300773,-0.0006728622543794346,-0.015654003072796335,0.007861938573572026,0.9858534781033954
2016-01-20,-1,-0.0016584838735992193,-0.001284154254584555,-0.01465426080026761,0.007861938573572026,0.9872240859476774
2016-01-22,-1,-0.0006048507293848227,-0.0003870236445439947,-0.01465426080026761,0.007861938573572026,0.9873587430986005
2016-01-26,-1,-0.0007987852157360052,-0.0004768582442925542,-0.01465426080026761,0.007436270677450234,0.9881356648228385
2016-01-28,-1,-0.0023666547046715834,-0.0018812427517359558,-0.008973913283403624,0.007861938573572026,0.9893639063932995
2016-02-01,-1,-0.0022511686671554823,-0.0017807466274520995,-0.01289888622073308,0.007436270677450234,0.9866358484154042
2016-02-03,-1,-0.0011075219707337833,-0.0006130668437562949,-0.008973913283403624,0.009166015388492293,0.9858917300532565
2016-02-05,-1,-0.0014060369758717697,-0.0009029113407397712,-0.005906526390714005,0.009166015388492293,0.9872967301129737
2016-02-09,-1,-0.001889889176674202,-0.0013643142640065943,-0.001917688068821533,0.010624213215400323,0.987483666722771
2016-02-11,-1,-0.0024214598934343486,-0.0018186571876267917,-0.001917688068821533,0.012755062536453246,0.9865968255468854
2016-02-16,-1,-0.0017860123514440416,-0.0012770163551154643,-0.004503367889240916,0.010895065088102673,0.9877469449070597
2016-02-18,-1,-0.0017504403619208184,-0.0012328548859964312,-0.004503367889240916,0.013868253827533657,0.9871247795369328
2016-02-22,-1,-0.001521670550043057,-0.0010093758119187964,-0.005906526390714005,0.010895065088102673,0.987370739246834
2016-02-24,-1,-0.0008429524515914812,-0.0005248861030867757,-0.003939029904828105,0.010895065088102673,0.9876999821982738
2016-02-26,0,-0.00013289570262280017,8.63774595194623e-05,-0.003939029904828105,0.010895065088102673,0.9877484637702191
2016-03-01,-1,-0.001241613041295658,-0.0008798916687844857,-0.003939029904828105,0.013890259447510699,0.9903316431979888
2016-03-03,1,0.0002958278975215994,0.00044604659614212727,-0.003939029904828105,0.009413952262281868,0.9918647493540231
2016-03-07,1,0.0005910603056039195,0.0006976969028809918,-0.005252851748359913,0.009413952262281868,0.9914646211127935
2016-03-09,1,0.00013552167443168454,0.00032955284819049255,-0.005252851748359913,0.008079762841942398,0.9916817331103597
2016-03-11,1,0.0014388158552245019,0.0014548912193741862,-0.005252851748359913,0.00372876472907415,0.9919422140028852
2016-03-15,1,0.001396697694343435,0.001427134063100288,-0.0071649397131329055,0.00372876472907415,0.9909323898354575
2016-03-17,1,0.0019573488295144413,0.002068136368994533,-0.00884136705302429,0.0020006375819602152,0.9898513626764871
2016-03-21,1,0.0017961791566369015,0.0018985031273312091,-0.0071649397131329055,0.005563110186781834,0.9906507057853357
2016-03-23,1,0.0010732327030483421,0.0011035727975849026,-0.00884136705302429,0.005563110186781834,0.9897623876547021
2016-03-28,1,0.0011604272228632004,0.0012142615875155882,-0.00884136705302429,0.007188312314740493,0.9897192632915822
2016-03-30,1,0.0025913033965167948,0.0027853098548466667,-0.011899418898507794,0.005563110186781834,0.9887581631775988
2016-04-01,1,0.0024980200939167807,0.002659066505288526,-0.013681033108855004,0.005563110186781834,0.9880844555845982
2016-04-05,1,0.0014097588605695445,0.0014430943259086046,-0.013681033108855004,0.007188312314740493,0.9885341158525365
2016-04-07,1,0.0018357300278331844,0.001901927460584264,-0.013681033108855004,0.007385994163576565,0.9884206369459464
2016-04-11,1,0.0009107354497304965,0.0009872454290255905,-0.01083809446055786,0.008827053851619738,0.9889420949639217
2016-04-13,1,0.000554299575578813,0.0006459172205357793,-0.01083809446055786,0.008827053851619738,0.9881153551765955
2016-04-15,1,0.0009156193660275938,0.0009511273408589564,-0.009859284855963242,0.007385994163576565,0.9895304709568555
2016-04-19,1,0.0013312089436830743,0.0013550901666341078,-0.01083809446055786,0.008083852266093141,0.9885437229529208
2016-04-21,1,0.0005102497921926102,0.0005840504129995931,-0.01083809446055786,0.008083852266093141,0.988863966478458
2016-04-25,1,0.0011788217414737496,0.0011829972075029418,-0.01083809446055786,0.006891024934485639,0.9893513900483834
2016-04-27,1,0.0002912988136945356,0.00038647274129232425,-0.007494436353095995,0.008392928332061669,0.990193435817377
2016-04-29,1,0.0003015971935552464,0.00038147919109176806,-0.0027766974000819986,0.008392928332061669,0.9908246933762874
2016-05-03,1,0.000605869086288039,0.0006710207771262855,-0.007494436353095995,0.007334770048644746,0.9892877525229626
2016-05-05,1,0.000986822085013071,0.0010383401407131885,-0.010547849819478476,0.006686607840810147,0.9890536675725494
2016-05-09,1,0.0015616654514235514,0.0016049217812256877,-0.01494357614156394,0.006686607840810147,0.988201689615004
2016-05-11,1,0.0016420753362440792,0.0017648648529951928,-0.010547849819478476,0.006668608768523215,0.9901612361542305
2016-05-13,1,0.0010964652243314157,0.001122974561294411,-0.008311314050326412,0.006668608768523215,0.9904659545374304
2016-05-17,1,0.0007306094708106525,0.0007516841686179327,-0.003782857197530605,0.006668608768523215,0.9910623402188731
2016-05-19,1,0.0002449517805088932,0.0003049534974079907,-0.0017880083225770978,0.007469757561600804,0.9911741780875799
2016-05-23,1,0.0008212332670437287,0.0008529749342728844,-0.0017880083225770978,0.006668608768523215,0.9916208743028264
2016-05-25,1,0.0013064467995966104,0.0013908572744809186,-0.003150343571953638,0.005020826593884906,0.9920253741254633
2016-05-27,1,0.0013735087743605428,0.0014718542919665712,-0.00482453901714742,0.005987164904447214,0.9914658500287985
2016-06-01,1,0.0005197278846200703,0.0005502109389739268,-0.003150343571953638,0.005998474454648126,0.9922483930424029
2016-06-03,-1,-0.00013239856113277337,-1.937367479785463e-05,-0.0011639575911545565,0.007503686212203539,0.9926159906306732
2016-06-07,-1,-0.0005603857069119452,-0.0003838453205209858,-0.0011639575911545565,0.008089959595677284,0.9929771844597854
2016-06-09,-1,-0.0006291907673718508,-0.00043056021492716035,-0.0011639575911545565,0.010950881220227155,0.9922837783816288
2016-06-13,-1,-0.0010872881142416023,-0.0008076627667479061,0.0009807811367777179,0.010950881220227155,0.9917452832902717
2016-06-15,1,1.087350079802046e-05,0.00013886432315106975,-0.002216288020051631,0.008089959595677284,0.992894587500842
2016-06-17,1,0.0007377611858532391,0.0007434413154326752,-0.002216288020051631,0.005998474454648126,0.9931445141317684
2016-06-21,1,5.215103501981795e-05,0.00019199542838187162,-0.004785950112247819,0.008207775900514006,0.9920623539841088
2016-06-23,1,0.0003614654416878088,0.0004535221570251427,-0.0031198651186121664,0.008207775900514006,0.992249029706513
2016-06-27,0,-8.827955063002684e-06,0.00015014786639117581,-0.0029179729428120485,0.006793231526440603,0.9926205313216734
2016-06-29,1,0.00120454504156176,0.0012673403647647775,-0.005256389487334055,0.006793231526440603,0.9908078974032773
2016-07-01,1,0.0010693313634114764,0.0011982936040713702,-0.005256389487334055,0.00690759553053057,0.990448640599981
2016-07-06,1,0.0008746604776226327,0.0010459398072028081,-0.0070574547820014535,0.005327653325038354,0.9896079338479237
2016-07-08,1,0.001925609205585953,0.0019463835763030915,-0.0070574547820014535,0.005337157068167152,0.9895332620832471
2016-07-12,1,0.0021114926862734027,0.002125354413434641,-0.0070574547820014535,0.007268276794964723,0.9888676770823279
2016-07-14,1,0.0019640176348861404,0.001990521587803838,-0.012787904818212976,0.007268276794964723,0.9876169080805599
2016-07-18,1,0.0012410803802924276,0.0013299536469821432,-0.009995772655166955,0.007268276794964723,0.9883162762532249
2016-07-20,1,0.0017616703057831832,0.001763517277160898,-0.009618900248895314,0.005337157068167152,0.9887189614937204
2016-07-22,1,0.0006604693399404349,0.000746674779818772,-0.01043742680225732,0.005337157068167152,0.9883984518796661
2016-07-26,1,0.0010807686196528876,0.0011192898534627836,-0.01043742680225732,0.005337157068167152,0.9884366270923017
2016-07-28,1,0.0004748852392654566,0.000496211796204033,-0.008538592773427427,0.005337157068167152,0.9910715095612085
2016-08-01,1,0.0012762620297572338,0.0013607082705930518,-0.01043742680225732,0.005059039082155938,0.9908525760271495
2016-08-03,1,0.0008567507851430701,0.000906746988615617,-0.005873565245429999,0.005059039082155938,0.9923195648939933
2016-08-05,1,0.0014520084060791968,0.001571187340371829,-0.007384755802743512,0.003226080761931797,0.9925622245861088
2016-08-09,1,0.002678130621451616,0.0030175135014372315,-0.007384755802743512,0.003226080761931797,0.9925327203210765
2016-08-11,1,0.0012194872765036433,0.0013296168318871115,-0.007384755802743512,0.003226080761931797,0.9922263676235642
2016-08-15,1,0.001091896560346115,0.001172356203426247,-0.008538592773427427,0.004655642648230229,0.990735729532155
2016-08-17,1,0.0011434281299269628,0.0012743298243737251,-0.007657597987197514,0.008113918609770497,0.9902059802569639
2016-08-19,1,0.0010812653582203823,0.0012412613003712379,-0.005579900316686695,0.011035291479301663,0.9904985891510197
2016-08-23,1,0.000994725454324487,0.0011500740799264314,-0.005579900316686695,0.011255356105051857,0.9902891157223048
2016-08-25,1,0.0009680026765336492,0.0010883717653916334,-0.009357327257515428,0.011035291479301663,0.9897629594487459
2016-08-29,1,0.0007476672401453181,0.0008376894800019348,-0.005579900316686695,0.011035291479301663,0.9907953254901659
2016-08-31,1,0.00035057135680458364,0.00035628800961769966,-0.009439833175484372,0.011255356105051857,0.989465348322096
2016-09-02,-1,-0.00012722132781617227,-3.175985422285989e-05,-0.016595863849371853,0.011255356105051857,0.9888106747460041
2016-09-07,1,0.0006220381838110085,0.0006380641600263701,-0.017093246496466492,0.011213705727382369,0.9884013619505232
2016-09-09,-1,-0.00039295882262697446,-0.0003113381841622012,-0.011016448800915143,0.011213705727382369,0.9900506241310724
2016-09-13,-1,-0.000702660241175105,-0.000542789919466388,-0.009143178043075736,0.0038020720809988856,0.991377437590868
2016-09-15,1,0.0005874793050268266,0.0006183248784711052,-0.009143178043075736,0.001281184080464166,0.9921140886615113
2016-09-19,1,0.00032407432402917224,0.0003652421540409734,-0.009143178043075736,0.001281184080464166,0.9924243898687235
2016-09-21,1,0.0005483624794044789,0.0005800637250698978,-0.009143178043075736,0.001281184080464166,0.992668809753785
2016-09-23,1,0.00026990540767326057,0.0003147466749067418,-0.006472945630438127,0.0009307900773414295,0.9938241531628751
2016-09-27,1,0.0006423390875517706,0.00069428331701934,-0.006481920700823078,0.00016447745077832686,0.993147959677081
2016-09-29,1,0.0007974768327526107,0.0009122072012036641,-0.006481920700823078,0.00016447745077832686,0.9928961018424176
2016-10-03,1,9.350508698070245e-05,0.00012025725930166956,-0.005591422849483408,0.002986711444396461,0.9927487307457076
2016-10-05,-1,-0.0008584547377685531,-0.0007116040465667633,-0.005329596335120935,0.002986711444396461,0.9933817790674924
2016-10-07,-1,-0.001297617428306969,-0.0010809338673874284,-0.004489811267047563,0.0049265890249269445,0.9930608832465463
2016-10-11,-1,-0.0018112675821017974,-0.0015074513514302893,-0.0036315444843864355,0.0059014214950905705,0.9923125150608639
2016-10-13,-1,-0.0012365704559802494,-0.001022007014313952,-0.005332588025249252,0.0049265890249269445,0.9911889044267473
2016-10-17,-1,-0.0008619771573384249,-0.0007240917985003607,-0.005332588025249252,0.0059014214950905705,0.9905357094137442
2016-10-19,-1,-0.0010423286606314661,-0.0008888127502785907,-0.007965481861665565,0.007954171341202835,0.9889601756216292
2016-10-21,-1,-0.0016447351127951175,-0.0013874236558862147,-0.015216785964952158,0.007954171341202835,0.9883131664756902
2016-10-25,-1,-0.0022128743619352154,-0.001855360007094975,-0.015216785964952158,0.011198065104742323,0.9874051505279641
2016-10-27,-1,-0.002510733008979166,-0.0021044411511486577,-0.014379597375095803,0.007954171341202835,0.9881436502219909
2016-10-31,-1,-0.0012970042163991725,-0.0010362895626671808,-0.014379597375095803,0.008690795554319128,0.9890866035801672
2016-11-02,-1,-0.0018181184910952969,-0.0014911895567762538,-0.009489576366174758,0.008690795554319128,0.9892808033288399
2016-11-04,-1,-0.001077083639972102,-0.0008697265912607853,-0.009489576366174758,0.009970042524823815,0.9887994987651668
2016-11-08,-1,-0.00048094543912934306,-0.00034866373458340233,-0.009489576366174758,0.010832602216119838,0.9884246543193203
2016-11-10,-1,-0.0015842019863098794,-0.0013264477602779197,-0.0034531677684955663,0.010832602216119838,0.9898411542546433
2016-11-14,-1,-0.000978852049608613,-0.0007931874681736271,-0.0034531677684955663,0.009970042524823815,0.9906479531728983
2016-11-16,-1,-0.0013724737438373371,-0.001142327416698431,-0.0034531677684955663,0.00937894641533844,0.9919681942522699
2016-11-18,-1,-0.0011346115749547964,-0.000988222821399863,-0.001078317065941943,0.010178680555097516,0.9917718920389743
2016-11-22,-1,-0.00015554360844891835,-0.00014923698194807238,-0.0016491828631807165,0.00937894641533844,0.992387985031292
2016-11-25,-1,-0.0003445459729701268,-0.00032758147942131316,-0.0016491828631807165,0.00937894641533844,0.9928357577893299
2016-11-29,1,0.0005266857264840552,0.0006573728954768745,-0.00449606777721286,0.005671297374514576,0.9935886372270439
2016-12-01,1,0.0003350379654136716,0.00045474939747104,-0.0003574613093840964,0.010873426602453592,0.9931383075409065
2016-12-05,1,0.0009879053530867645,0.0011806059066569678,-0.0014259504021810411,0.010331052502332261,0.9934208922266186
2016-12-07,1,0.001656554682565488,0.0019219304600642533,-0.0014259504021810411,0.005787097990758086,0.9940274848210818
2016-12-09,1,0.0018295484255170258,0.002132074112245445,-0.006205883026181023,0.005711023985125556,0.9929907514327198
2016-12-13,1,0.001994324847083371,0.0023245272847674517,-0.008021768232080596,0.010331052502332261,0.9919688522473238
2016-12-15,1,0.001794752323998646,0.0020838382429919497,-0.008980118133313182,0.010331052502332261,0.9917176229583985
2016-12-19,1,0.0012230282060959128,0.0015121591533003751,-0.009222143784937561,0.005711023985125556,0.9919639173035469
2016-12-21,1,0.001209726029229309,0.0015444248025289048,-0.008980118133313182,0.006839539327501918,0.9923753053089907
2016-12-23,1,0.0005405522811969829,0.0007234146042125723,-0.009443410784896288,0.006839539327501918,0.9916561906763662
2016-12-28,1,0.0008267013774182586,0.001082963166308818,-0.009443410784896288,0.006839539327501918,0.9914534859126141
2016-12-30,1,0.0017402652772800108,0.0021603215013847156,-0.009443410784896288,0.002300319016137613,0.9918635085396853
2017-01-04,1,0.0012576100110957057,0.0015523841089027917,-0.009443410784896288,0.002300319016137613,0.9916990805268567
2017-01-06,1,0.001980189154694085,0.00236555758658219,-0.009443410784896288,0.0015374241296002382,0.9915400576574088
2017-01-10,1,0.001301272932738226,0.0015914862246500438,-0.009050716371227781,0.00216303791128002,0.9926566675023885
2017-01-12,1,0.0012447452347330186,0.0015041585416733568,-0.008454063252915879,0.00216303791128002,0.9933007892938702
2017-01-17,1,0.000927700031998773,0.0011365612828453174,-0.006722411681267483,0.0030835710427020947,0.993682508443234
2017-01-19,1,0.0008417370542230271,0.0010592021866745525,-0.0056764224511340325,0.0034351761032521432,0.993807204593402
2017-01-23,1,0.0007586116487732958,0.0009462740630065018,-0.0056764224511340325,0.0034351761032521432,0.9934358439486299
2017-01-25,1,0.00021892920883453178,0.00032528576121129633,-0.00530410125327149,0.0047929007611732565,0.9934690065132457
2017-01-27,-1,-0.00011562584692933906,-5.674774139905809e-05,-0.004947104801461796,0.007851225870106037,0.9935781317995337
2017-01-31,1,9.978995350332532e-05,0.00021881594648806557,-0.0034646122291254345,0.007851225870106037,0.9937711625168716
2017-02-02,-1,-0.0004899676065064512,-0.00043686321361749355,-0.0034646122291254345,0.004767645649106199,0.994139442378829
2017-02-06,-1,-0.000743009893306911,-0.0006917810044223534,-0.002440589531738469,0.004767645649106199,0.9942902466758473
2017-02-08,1,0.0002712780620668357,0.0003730688314301836,-0.0034646122291254345,0.0036280500476451446,0.9947273207795971
2017-02-10,1,0.0007333682302604501,0.0009245420949992592,-0.0034646122291254345,0.0036280500476451446,0.994578612631324
2017-02-14,1,0.0012282554115560403,0.0014843167241172005,-0.004088772584165914,0.004767645649106199,0.9938374597052159
2017-02-16,1,0.0005595529641662337,0.0007753644975390169,-0.00321150953372546,0.004767645649106199,0.9942044584814698
2017-02-21,1,0.0009683244869556912,0.0012465453946224217,-0.0033196884043201246,0.0025140824626531514,0.9946498409798775
2017-02-23,1,0.001118224138985623,0.0014229419528515438,-0.0032416655066650544,0.0025140824626531514,0.9952122497794484
2017-02-27,1,0.000995534506110268,0.0012494870098651368,-0.003549656315896571,0.0019595068775462732,0.994714551999526
2017-03-01,1,0.0003759441521588387,0.00047241382307878403,-0.003549656315896571,0.0024060599956306113,0.9947983976431761
2017-03-03,-1,-0.0002349742190489264,-0.0002282532372348782,-0.0033620044839627198,0.0019595068775462732,0.9956381096799455
2017-03-07,-1,-0.00018427512826655883,-0.00017477553946251996,-0.0033620044839627198,0.0022032489220408583,0.995619506838926
2017-03-09,-1,-0.00020087649083054863,-0.0001954315464165733,-0.0032051225285721274,0.003137286129114365,0.995516088962184
2017-03-13,1,0.00012030277479423726,0.00017780775948328124,-0.0032051225285721274,0.003137286129114365,0.9956484483341834
2017-03-15,1,0.0005391905073450767,0.0006470859878332836,-0.0032051225285721274,0.003137286129114365,0.995966891822302
2017-03-17,1,0.0004871042341565053,0.0005812117778527699,-0.0032051225285721274,0.00404030823034404,0.9951883737324698
2017-03-21,1,3.5362049057510344e-05,4.828485132403257e-05,-0.0022301980288018013,0.004783770676205624,0.9952954230129404
2017-03-23,-1,-0.0001396245156500877,-9.952949021363905e-05,-0.001878235400745551,0.00362401184256737,0.9956419755323312
2017-03-27,-1,-0.0001106111176340484,-9.328095968942534e-05,-0.0016404990924286736,0.004968771880720924,0.9957422042430983
2017-03-29,-1,-0.0003921742081782971,-0.00035057658299301987,-0.0016404990924286736,0.005735963859718111,0.9951542737400277
2017-03-31,-1,-0.0001409949549402239,-0.00012186927422569544,-0.0014007681654245106,0.005735963859718111,0.9950264689124471
2017-04-04,1,0.00024236160728651984,0.0003192380471539071,-0.0017751270360247319,0.005735963859718111,0.9946297328884696
2017-04-06,-1,-0.0004430325343039151,-0.0003798005324511068,-0.0016227032939416994,0.006864082711170778,0.9939304265044646
2017-04-10,1,0.00031219757245012735,0.0003862705846524601,-0.0028644221184654897,0.005735963859718111,0.9939899715273914
2017-04-12,-1,-0.00032749775325295616,-0.0002525714349251837,-0.0028644221184654897,0.004933408980737163,0.9942020035055806
2017-04-17,-1,-0.0004263344649529857,-0.0003071687310508774,-0.002089643430633447,0.004470875632643114,0.9949469535817282
2017-04-19,1,0.00011999196980614347,0.0001596231945756076,-0.00332618329930024,0.004098645492099666,0.9947637527041663
2017-04-21,-1,-0.00034022250891920826,-0.00022960307792321052,-0.00332618329930024,0.004933408980737163,0.9940249164441324
2017-04-25,1,0.00047471352204149936,0.0004953665624147496,-0.005006112253662291,0.004098645492099666,0.9940851213942495
2017-04-27,-1,-0.0002807907671449218,-0.00018079136942681094,-0.0034077460614248367,0.003942943733014531,0.9947271679163822
2017-05-01,1,0.00045861380470224957,0.0004899090961010182,-0.0034077460614248367,0.002650731962460402,0.9946695325622014
2017-05-03,1,0.0003714301211403126,0.0004428750528454057,-0.003016083078271387,0.002650731962460402,0.9951041559107804
2017-05-05,1,0.001268979019389863,0.001490863455990301,-0.003016083078271387,0.002650731962460402,0.9944086796527524
2017-05-09,1,0.0009696854187351932,0.0011606967534146294,-0.003016083078271387,0.0031695547904004987,0.9945027751122192
2017-05-11,1,0.0008851817883393266,0.0010571195522338654,-0.0028170250725125037,0.0031695547904004987,0.9946852406063755
2017-05-15,1,0.0012957753753789344,0.0015572252865429033,-0.003016083078271387,0.0031695547904004987,0.9942754132250193
2017-05-17,1,0.0007816973560001487,0.0009277453480917503,-0.0025682025169237533,0.004422945501000479,0.994218599512747
2017-05-19,1,0.0012923211602094047,0.0014921120205141187,-0.003016083078271387,0.004422945501000479,0.9942815041786858
2017-05-23,1,0.0008742521611689446,0.0010175239585641003,-0.0022650633897956687,0.004422945501000479,0.9945632314047048
2017-05-25,1,0.0014102772067524786,0.0016644381493657995,-0.0026856977605580396,0.003434227662455927,0.9941790870807529
2017-05-30,1,0.0015367287257333601,0.0017947342778201968,-0.004130635602667883,0.003434227662455927,0.9934583131852748
2017-06-01,1,0.001639624324818006,0.001948408316662074,-0.0032547538661613752,0.003434227662455927,0.9936775759441596
2017-06-05,1,0.002520921227498237,0.0028821118477662137,-0.006584878869221291,0.002822927096141708,0.9942348150388496
2017-06-07,1,0.0023275273112932466,0.0026671172137989084,-0.006584878869221291,0.00290157165027906,0.9932863090638699
2017-06-09,1,0.0024471045357986124,0.0027601592666670616,-0.006584878869221291,0.0024263665247807034,0.9929615811697694
2017-06-13,1,0.001961407019024402,0.0021925480182265395,-0.005311914212404592,0.002690469229906812,0.9930737908996081
2017-06-15,1,0.002244547778761149,0.0025116334582683635,-0.005311914212404592,0.002690469229906812,0.9929659168541751
2017-06-19,1,0.0019216293395937995,0.0020955288052222016,-0.004121404821568028,0.002690469229906812,0.9932256118865312
2017-06-21,1,0.0015403640116111734,0.0016317667557739109,-0.004121404821568028,0.004096411502526282,0.9927742472477905
2017-06-23,1,0.0009234433722943491,0.0009269188125402334,-0.004121404821568028,0.004096411502526282,0.9932452707983733
2017-06-27,1,0.00027397401104699954,0.0003505556711100906,-0.004121404821568028,0.0076755574326047085,0.9926896635809034
2017-06-29,1,3.179845560062329e-05,0.00014829527229182402,-0.004121404821568028,0.0076755574326047085,0.9925994559991199
2017-07-03,1,0.0004296237228479976,0.0004767414744036815,-0.003386179371861713,0.00560730200506174,0.9930527911288944
2017-07-06,-1,-0.0004280327891780898,-0.0002941448191951444,-0.003386179371861713,0.00560730200506174,0.9942210662733074
2017-07-10,-1,-0.0005711060341111217,-0.00042027793137630495,-0.003072231398848973,0.00560730200506174,0.994401801372196
2017-07-12,-1,-0.000490041799174718,-0.00034339694159559033,-0.0017585313954987117,0.003625593426844542,0.9949299959393381
2017-07-14,-1,-0.00012681408458836658,-4.044312204948714e-05,-0.003072231398848973,0.003011545165389627,0.9950414552014024
2017-07-18,1,0.000280724258968127,0.0003112977089029821,-0.0019261658913050828,0.0035468940101918505,0.994750110159518
2017-07-20,1,0.0009741233823284801,0.0010450528434022108,-0.003873685675214051,0.003011545165389627,0.9948796687921652
2017-07-24,1,0.0005722595447512173,0.0005786981042716533,-0.003873685675214051,0.0035468940101918505,0.9946177986393784
2017-07-26,1,0.0007156331482209024,0.0007167758998649596,-0.0033815019915610952,0.003219083054270576,0.9957877345069395
2017-07-28,1,0.0008689575493296717,0.0008917572900487788,-0.0033815019915610952,0.0031195306719171475,0.9958181275272449
2017-08-01,1,0.0007029891059451259,0.000718176250625573,-0.003873685675214051,0.0009674354544286794,0.995649652105754
2017-08-03,1,0.00044130245412930943,0.0004774663909560918,-0.003406331818069837,0.0025315898396691015,0.9959887370018923
2017-08-07,1,0.0005864458594429194,0.0005938479547572999,-0.003406331818069837,0.0025315898396691015,0.9957980451256584
2017-08-09,1,0.0005737491852943204,0.0005769290593735351,-0.003406331818069837,0.002672759473647765,0.9956437600577015
2017-08-11,1,0.00011609938196769165,0.0001820970330974633,-0.0026034764055681762,0.005006612985683447,0.9954139743586323
2017-08-15,1,0.0008353979454739881,0.000857744055095,-0.003980785573688124,0.002672759473647765,0.9952612354622304
2017-08-17,1,2.817100145819046e-05,0.00013436595844544059,-0.0026034764055681762,0.004023180117919624,0.9955338523306787
2017-08-21,1,4.4232210507751265e-05,0.0001501534082648735,-0.0035584894693663455,0.002672759473647765,0.9955482658104436
2017-08-23,1,5.475421210399524e-06,0.00012110614636911659,-0.00391956637903945,0.002275038791196079,0.9954788235060812
2017-08-25,0,-8.727846359212783e-05,4.026951922596301e-05,-0.00522130049863339,0.002545972659931923,0.9949408758920398
2017-08-29,-1,-0.000429033861215647,-0.0002760347097928158,-0.004880253604506805,0.002545972659931923,0.9952187542133162
2017-08-31,-1,-0.0002981324585467638,-0.00017558537720678823,-0.004880253604506805,0.0031150538860747396,0.9951707493113353
2017-09-05,-1,-0.0003937098617666194,-0.00025677669777804645,-0.005306312016504215,0.0031150538860747396,0.9951530214019096
2017-09-07,1,0.0001301819954514328,0.00019258058958268563,-0.005306312016504215,0.0031150538860747396,0.9947239177923847
2017-09-11,1,0.0006457584770160123,0.000648088882149037,-0.005306312016504215,0.0012331710727132115,0.9950684631146126
2017-09-13,-1,-0.00019351001729066254,-9.351214119820127e-05,-0.004061585849705254,0.0012331710727132115,0.9961559605831298
2017-09-15,1,0.0003323161275392886,0.000357918469443697,-0.004061585849705254,0.0017842309658117454,0.9957249878625546
2017-09-19,-1,-0.00046379052737414864,-0.0003306442670265495,-0.0033815708631646595,0.0017842309658117454,0.9961799188618484
2017-09-21,-1,-0.0006274396961831308,-0.0004819387541982132,-0.003696154383343196,0.0017842309658117454,0.9958600922126416
2017-09-25,-1,-0.0011893497418395127,-0.0009480073718713973,-0.0026091540508923028,0.0018633925328967148,0.9958701915020847
2017-09-27,-1,-0.0007201636224625275,-0.0005635287445704871,-0.0026091540508923028,0.003481213749562654,0.9947446743157144
2017-09-29,-1,-0.0007788469953694528,-0.0006102118019958535,-0.0026091540508923028,0.004889363094007537,0.9944057279486755
2017-10-03,-1,-0.0010560681751864806,-0.000855003384258987,-0.0026091540508923028,0.004889363094007537,0.9939184889547841
2017-10-05,-1,-0.0005532536250631247,-0.00040883008410709407,-0.003894201167918178,0.004889363094007537,0.9937387869593367
2017-10-09,-1,-0.0009179790834355565,-0.000700044275498659,-0.003894201167918178,0.008054253645793779,0.9920355033354437
2017-10-11,-1,-0.0005139733838912927,-0.00037971740278625385,-0.003894201167918178,0.008991306157033068,0.9913039379878358
2017-10-13,-1,-0.00019365378844485217,-8.031283913411606e-05,-0.007476308278360573,0.008054253645793779,0.9913837638146252
2017-10-17,-1,-0.0005516974179732156,-0.00039658403689198264,-0.007476308278360573,0.009044040384048584,0.9910104861149588
2017-10-19,-1,-0.0009847694029236195,-0.0007859611537796242,-0.007476308278360573,0.009044040384048584,0.9906608769538788
2017-10-23,-1,-0.0008171068406314461,-0.0006264217273288099,-0.009089739724041621,0.009044040384048584,0.990382181061134
2017-10-25,1,0.0004776619477748406,0.000491421498926927,-0.007476308278360573,0.007628800758845562,0.9917603926954394
2017-10-27,1,0.0007534122693416887,0.0007917683891000404,-0.008631238270725428,0.005837076622693469,0.9918319046562252
2017-10-31,1,0.0006747035429450761,0.0007213057625387832,-0.008631238270725428,0.005837076622693469,0.9917529199412621
2017-11-02,1,0.00036050853459464036,0.00036971921707740246,-0.007348248996633538,0.0033286090972187393,0.9925713456751225
2017-11-06,1,0.0018489193845685381,0.0020578305573429974,-0.008631238270725428,0.0015615770040748398,0.9929299623901697
2017-11-08,1,0.002534429913025605,0.0028444027994039465,-0.008631238270725428,0.0006973617952686955,0.9925406888095033
2017-11-10,1,0.0019137677531724773,0.002134035485128799,-0.006516912220160055,0.0013169036521024377,0.9936107701353659
2017-11-14,1,0.0020245828674469142,0.002239571131880889,-0.00890380116293957,0.0013169036521024377,0.9935227036599605
2017-11-16,1,0.0013791179663840923,0.0014863892985368602,-0.006516912220160055,0.0013169036521024377,0.9943209498361241
2017-11-20,1,0.0006585238265638918,0.0006636927735847422,-0.00538081850718468,0.0013169036521024377,0.99448101746274
2017-11-22,1,0.0006978969616799982,0.0007272745058843056,-0.007841210632288985,0.0010701464355124396,0.9938058153497004
2017-11-27,-1,-0.00021378810339920583,-9.55337117265048e-05,-0.006841692161532624,0.0022475078112538546,0.9940953818161371
