JNU-Tangyin/eata/results/Batch4_SP500/Batch4_SP500-REG.csv
Date,Action,Predicted_Q25,Predicted_Q75,Actual_Q25,Actual_Q75,RL_Reward
2010-12-14,0,-0.001206649525210663,0.0,-0.0011862441026049449,0.006144829015083824,0.9927608203248531
2010-12-16,-1,-0.0006440969994938827,-0.0004933334758956437,-0.0011862441026049449,0.006144829015083824,0.9921998102939561
2010-12-20,-1,-0.0004187541913606116,-0.0002923250918471898,-0.00583527839147001,0.005096007949156801,0.9921205516905834
2010-12-22,1,9.389172971158421e-05,0.00013571728428603914,-0.00660135152446582,0.00483712914402912,0.992444053249004
2010-12-27,1,0.0007757522700966078,0.0007887005516811394,-0.005000334121418383,0.005096007949156801,0.9926076462273271
2010-12-29,1,0.0011255099842534925,0.0011931450381473035,-0.005692930538246951,0.006412192848047052,0.9915856898629413
2010-12-31,1,0.001393210539813899,0.0015002267272606435,-0.006413460633876022,0.009146846917448997,0.9909895306730269
2011-01-04,-1,-0.0011462815486492654,-0.0007813916455804287,-0.005931799157331842,0.009146846917448997,0.9921774268636122
2011-01-06,-1,-0.0018138516806856606,-0.0013225461967684236,-0.00854251166285131,0.009146846917448997,0.9913093847756425
2011-01-10,-1,-0.00160528266504029,-0.0012010378336416183,-0.006909636342628969,0.009146846917448997,0.9912779197311252
2011-01-12,-1,-0.002469101927015479,-0.0018860191900000828,-0.006909636342628969,0.010040730918195085,0.9904408746820845
2011-01-14,-1,-0.003472680885572614,-0.0027398756786947936,-0.0064454809076591995,0.010040730918195085,0.9906229008791803
2011-01-19,-1,-0.0033314672550592474,-0.0026216856161887427,-0.005931799157331842,0.009768675812238992,0.9906856555329795
2011-01-21,-1,-0.0033366585018352497,-0.0026400831574542004,-0.0058583224411646005,0.009768675812238992,0.99051524722833
2011-01-25,-1,-0.001165486440123507,-0.0008176377644797043,-0.0058583224411646005,0.008947307472375009,0.9921823270152406
2011-01-27,1,0.0006694454269098871,0.0007174053413978034,-0.0064454809076591995,0.008947307472375009,0.9918870782696573
2011-01-31,0,0.0,0.0,-0.0064454809076591995,0.009263049771500652,0.9901734192144436
2011-02-02,1,0.00057854725189592,0.000607608054505004,-0.007557358451483304,0.009263049771500652,0.9896277641586727
2011-02-04,-1,-0.0004986436236821287,-0.0003543164572082693,-0.0036746605054354957,0.009263049771500652,0.9905820416397676
2011-02-08,-1,-0.0005554993265220678,-0.0003823585796208609,-0.0036746605054354957,0.010992764730389156,0.9898257675697948
2011-02-10,1,0.00044270508469008296,0.00047730405224146615,-0.007038972619795538,0.009753280748320863,0.9897158537031973
2011-02-14,-1,-0.00039606606457826855,-0.0002278349897811905,-0.010937510831202393,0.009753280748320863,0.9888755282010944
2011-02-16,1,0.0002513358161503939,0.00034628791936903736,-0.011596255353477983,0.010541947552458448,0.9880438393438657
2011-02-18,1,0.00028958804985639876,0.00038820817446536297,-0.011596255353477983,0.010541947552458448,0.9879381820729134
2011-02-23,0,0.0,0.0,-0.012012451095493887,0.010541947552458448,0.9863485719364609
2011-02-25,0,0.0,0.0,-0.012012451095493887,0.010541947552458448,0.9871368813850598
2011-03-01,0,0.0,0.0,-0.011596255353477983,0.006452959858264744,0.9896112541282216
2011-03-03,0,0.0,0.0,-0.010235477939046757,0.007497549994971795,0.9894729929843326
2011-03-07,1,0.0010513003993825973,0.0011178791514386622,-0.010235477939046757,0.007497549994971795,0.9899403653831721
2011-03-09,1,0.0015920382136075388,0.0017624114958953241,-0.010235477939046757,0.005808932743709047,0.9907976325085416
2011-03-11,1,0.0015189042222289982,0.0016843574930319406,-0.01028800009407293,0.005368079884883801,0.9902450958503209
2011-03-15,1,0.0005875343604118852,0.0006725941055727379,-0.008395292793926354,0.005368079884883801,0.9907246864163918
2011-03-17,1,0.00016102239520213174,0.00020045896518634706,-0.005066763969878303,0.005368079884883801,0.9912489289364171
2011-03-21,1,0.00040067461525405984,0.00043397514587007407,-0.006147480253478103,0.005808932743709047,0.9909585023694901
2011-03-23,0,0.0,0.0,-0.0020858526742708965,0.00996263093930089,0.9908087196451144
2011-03-25,1,5.654450850792418e-05,7.537940787986679e-05,-0.0020858526742708965,0.008097088837468831,0.9913082623188948
2011-03-29,1,0.00046021238543308453,0.0005694831802336474,-0.0020858526742708965,0.01135530716333634,0.9904839541917562
2011-03-31,1,0.002086921490570546,0.0024751817064453657,-0.0020858526742708965,0.01135530716333634,0.9916195907552042
2011-04-04,1,0.001356500819862529,0.0015426531222096137,-0.003895780763061864,0.01135530716333634,0.9911510157207831
2011-04-06,1,0.0016095040622895575,0.0018525563956990408,-0.004256019524261797,0.01135530716333634,0.9904202183366905
2011-04-08,-1,-0.00012197025248493205,-6.911770082570763e-05,-0.0030347297354894687,0.01135530716333634,0.9910127666936094
2011-04-12,-1,-0.001143819773715631,-0.0009384498776817033,-0.0030347297354894687,0.012540426387262129,0.990223358278294
2011-04-14,-1,-5.69952430588482e-05,-8.636817710405101e-07,-0.004076793894714541,0.01135530716333634,0.9911752434132391
2011-04-18,-1,-0.00035880618132390986,-0.00023590240954813756,-0.003916948671553644,0.01135530716333634,0.9915601441404152
2011-04-20,1,0.0013413685641302307,0.0014586242400863496,-0.003916948671553644,0.008656811296705594,0.9925441854265641
2011-04-25,1,0.0013092846252775014,0.0013768078190698617,-0.005513526097620342,0.006139617254986032,0.9913038182180216
2011-04-27,1,0.002550369012032135,0.0028337601854476003,-0.005513526097620342,0.0043056593076108585,0.9915164026596625
2011-04-29,1,0.0033081913878558805,0.0036973741997056433,-0.005513526097620342,0.004441325042664299,0.991626553110608
2011-05-03,1,0.003061975524388194,0.0034118775250349008,-0.008000705122422588,0.005453626754602353,0.9898984403204447
2011-05-05,1,0.0018645778916862072,0.002025680644264083,-0.007569304965759692,0.005453626754602353,0.9908265399339665
2011-05-09,1,0.0008456071539006754,0.000869040292723198,-0.007569304965759692,0.007314069521679656,0.9903174972503173
2011-05-11,1,0.000496479313844391,0.0005812968345030692,-0.0077900635944298914,0.005453626754602353,0.9904372723704645
2011-05-13,1,0.0007855285882418287,0.000798730985325695,-0.009841612745918688,0.005453626754602353,0.9892982516407074
2011-05-17,1,0.0008711349465308626,0.0008942468282733082,-0.013685676165316227,0.006913337496040722,0.9885817547165315
2011-05-19,1,0.001449557100124232,0.001543666794533021,-0.013685676165316227,0.007628061127685487,0.9884043371610451
2011-05-23,1,0.0004483061143392487,0.00046970207675251126,-0.009489302611341097,0.008413177173980355,0.9889829334061249
2011-05-25,1,0.0010085585034080085,0.001070854387993383,-0.013685676165316227,0.007816323755278291,0.9886998444212828
2011-05-27,1,0.0012492222930023558,0.0013279113021997962,-0.013685676165316227,0.007498623326555122,0.9890538523787226
2011-06-01,0,-8.243956728413911e-05,5.862967378766833e-06,-0.009489302611341097,0.008313172686108556,0.9900319363586597
2011-06-03,-1,-0.0006960823920897191,-0.0005158488847077057,-0.009489302611341097,0.008896223015547933,0.9891775734453577
2011-06-07,-1,-0.0008637755289198596,-0.0006694805540978783,-0.0025791445863745576,0.010656021000218377,0.9890478517158654
2011-06-09,-1,-0.0020207745039174333,-0.0016766691883970094,0.001090959705723564,0.01185465985418845,0.9884089016702727
2011-06-13,-1,-0.0029750071668288897,-0.0025229450408897815,0.0024301337304920238,0.01185465985418845,0.9883317918726525
2011-06-15,0,0.0,0.0,-0.0006870620128648096,0.01185465985418845,0.9902754657424255
2011-06-17,-1,-0.0017867404211267981,-0.0015111725055478552,-0.0017623860480949483,0.010656021000218377,0.9903526070043744
2011-06-21,0,0.0,0.0,-0.0017623860480949483,0.01185465985418845,0.9907456345565542
2011-06-23,0,0.0,0.0,-0.0017623860480949483,0.01185465985418845,0.9911379633430683
2011-06-27,0,0.0,0.0,-0.0054246352553047,0.01185465985418845,0.9906499329269849
2011-06-29,0,0.0,0.0,-0.0070059536759315855,0.009342475733270959,0.990130947678027
2011-07-01,0,0.0,0.0,-0.0074133745427021995,0.007505780251029573,0.9906580799188567
2011-07-06,0,0.0,0.0,-0.010660813738315567,0.004902493622524677,0.988805819085321
2011-07-08,0,0.0,0.0,-0.012371600329836318,0.0011727297781119993,0.9849379613853175
2011-07-12,0,0.0,0.0,-0.014636800556814026,0.0011727297781119993,0.9772463721711223
2011-07-14,0,0.0,0.0,-0.017254350913276827,0.0033150675447772724,0.9739026759070072
2011-07-18,0,0.0,0.0,-0.017254350913276827,0.0033150675447772724,0.9733669664875794
2011-07-20,0,0.0,0.0,-0.017254350913276827,0.0034866784736939486,0.9734981860069184
2011-07-22,1,0.0014706762361286732,0.00167785082729028,-0.022795483308700296,0.0028450494598332198,0.9714115669168515
2011-07-26,1,0.0011059588304469662,0.001272537751863909,-0.022795483308700296,0.006209846352497617,0.9709761216879136
2011-07-28,1,0.00014422329308331374,0.0001681140770719833,-0.019083263143658713,0.016625526862163578,0.9710518281473274
2011-08-01,1,2.5428934091192193e-05,3.492025412227154e-05,-0.019083263143658713,0.019874577325405034,0.969243309662549
2011-08-03,-1,-0.0018628184471052734,-0.0016331581547206282,-0.017254350913276827,0.019874577325405034,0.9713764616209429
2011-08-05,-1,-0.006214421702635297,-0.005429525998032337,-0.01756323505684998,0.019874577325405034,0.9730274783210865
2011-08-09,-1,-0.006004491203810985,-0.005239007946994774,-0.013777711934240877,0.019874577325405034,0.9793269708640762
2011-08-11,-1,-0.003955964792933997,-0.0034461661066112386,-0.018713965307139056,0.016625526862163578,0.9810870659507857
2011-08-15,-1,-0.004000306248685695,-0.003428301616286059,-0.018713965307139056,0.010942613797139683,0.9818079469666143
2011-08-17,-1,-0.003095736505522308,-0.0026581340120889856,-0.018713965307139056,0.010863608763351965,0.981663714355732
2011-08-19,-1,-0.00451902706279777,-0.003923008948847963,-0.018713965307139056,0.016388511760800428,0.9812706589275226
2011-08-23,0,0.0,0.0,-0.02100596978816902,0.010863608763351965,0.9800957539554147
2011-08-25,-1,-0.002809924868317037,-0.002477143382336233,-0.02464116411367864,0.009432889370865767,0.9801810825307996
2011-08-29,-1,-0.000884822991120713,-0.0007809078996505946,-0.02464116411367864,0.011181225931131314,0.9805412698193026
2011-08-31,-1,-0.0018816037634610656,-0.001612330814150942,-0.02544669485658538,0.01657522255418322,0.9788564298845993
2011-09-02,-1,-0.003974708126873029,-0.0034376351305695865,-0.027716651962428066,0.01657522255418322,0.9771777426115142
2011-09-07,-1,-0.0028046718459132642,-0.002441409712706609,-0.027716651962428066,0.01657522255418322,0.9764457070536503
2011-09-09,-1,-0.004906841816070392,-0.004306110144708388,-0.027716651962428066,0.01994670240263806,0.9755830799513135
2011-09-13,-1,-0.0035173781066065515,-0.0031474585611460243,-0.029844853393578313,0.020608314113398845,0.9727788737851647
2011-09-15,-1,-0.0023669052306352937,-0.002150084614947769,-0.029844853393578313,0.02243868978270379,0.9717658404321854
2011-09-19,-1,-0.0019494633279705522,-0.0018233013508165354,-0.029844853393578313,0.02243868978270379,0.9717755763530758
2011-09-21,-1,-0.003552553872868139,-0.003282718930032198,-0.029303109202582098,0.024966249501347116,0.9716372193826767
2011-09-23,-1,-0.004065230492352001,-0.003738081197425048,-0.02611717804306612,0.029730079942798,0.9707527542789922
2011-09-27,-1,-0.0028299456452175703,-0.002618487609696407,-0.02611717804306612,0.03134169748458231,0.9714168489504068
2011-09-29,-1,-0.0028865013417381943,-0.0026554897002182025,-0.020679487931499017,0.03422435699158683,0.9710646591716353
2011-10-03,0,0.0,0.0,-0.015404856750193676,0.03422435699158683,0.9745584133867369
2011-10-05,0,0.0,0.0,-0.01779892051679574,0.03134169748458231,0.9738056183713909
2011-10-07,0,0.0,0.0,-0.010821556620116905,0.029133144225667176,0.9762451781400422
2011-10-11,0,0.0,0.0,-0.008579097262002431,0.023234217152637952,0.9790177859735337
2011-10-13,-1,-0.0031263736101586606,-0.0028973287290446435,-0.008579097262002431,0.019804918720912976,0.9781791547671539
2011-10-17,-1,-0.003149192630645307,-0.002948979215235824,-0.008579097262002431,0.020381770582290657,0.9779017820200986
2011-10-19,-1,-0.0017180330484536871,-0.0017131587905724055,-0.008298806950800867,0.019449850000326965,0.9801282407874138
2011-10-21,-1,-0.0006237135317819543,-0.0005373960423200902,-0.008579097262002431,0.013493330867643042,0.9816679163519001
2011-10-25,1,0.0001279046167049217,0.0003062256724501727,-0.010900860421773375,0.012232754694054382,0.9814849961500978
2011-10-27,1,0.0015007132268327235,0.0018554895072117209,-0.020377581737733894,0.009369118660720988,0.9819155135128467
2011-10-31,1,0.0011897751886517083,0.0014728459917679162,-0.020377581737733894,0.009369118660720988,0.9814290368913239
2011-11-02,-1,-0.0003581831443210484,-0.0003030227923143122,-0.013769829098771297,0.009369118660720988,0.9827052168908585
2011-11-04,-1,-0.0002820842722945874,-0.00022416859938111488,-0.013769829098771297,0.008499064942646104,0.9828431299332342
2011-11-08,1,0.0001387093699477564,0.00029581254559923165,-0.013769829098771297,0.010602543882898422,0.9824091796066259
2011-11-10,-1,-0.000975937015856176,-0.000931843784859111,-0.013769829098771297,0.011560244843945855,0.9821442607933002
2011-11-14,-1,-0.0013469684654029896,-0.0013293367686091106,-0.013769829098771297,0.008967874054337039,0.9831469593993997
2011-11-16,-1,-0.0009061552443061884,-0.0008557247966172381,-0.013769829098771297,0.008967874054337039,0.9835784556824972
2011-11-18,-1,-0.0006035111669961625,-0.00046430815697638445,-0.007598610754500088,0.009994483053916352,0.9838745570467117
2011-11-22,-1,-0.0010660210318271359,-0.000939935358979514,-0.00588937694026692,0.011367586699799162,0.9839045547917191
2011-11-25,-1,-0.001340505394616841,-0.0012028206204931578,-0.005616122811683509,0.016495110945096262,0.9846643692290848
2011-11-29,0,-4.875938227608351e-05,0.0002968274627404039,-0.00588937694026692,0.011367586699799162,0.9857272125767388
2011-12-01,1,0.0008371801347355661,0.001307021052733685,-0.005616122811683509,0.010666162223012362,0.9876723769205281
2011-12-05,1,0.0013046472710024346,0.0018235889857016795,-0.00588937694026692,0.010666162223012362,0.9870086017451293
2011-12-07,1,0.0021356928630132275,0.0027769687863666986,-0.00588937694026692,0.009994483053916352,0.9878944137365491
2011-12-09,1,0.0016296616401006332,0.0022475287656833773,-0.005616122811683509,0.010666162223012362,0.9899732851917555
2011-12-13,1,0.0010540360218640641,0.0016008108553044254,-0.0029511634312924685,0.014965357954781405,0.989921158026451
2011-12-15,1,0.0012988787290133539,0.001876217007659161,-0.0028522929324113887,0.014965357954781405,0.9903643596286841
2011-12-19,0,0.0,0.0,-0.0020659202120027285,0.015896608086835327,0.9896004334127676
2011-12-21,0,0.0,0.0,-0.0022191989425172707,0.012861084524421003,0.9908137169660934
2011-12-23,0,0.0,0.0,-0.0020241558913797787,0.01068549591768421,0.9910038322485464
2011-12-28,0,0.0,0.0,0.0009053814078126251,0.012410091870119055,0.9908418428930175
2011-12-30,0,0.0,0.0,-0.0014812440813072852,0.01103456040428981,0.9913205915089114
2012-01-04,0,0.0,0.0,0.0009432438742173186,0.013908277984237803,0.9912256362878792
2012-01-06,0,0.0,0.0,0.0009432438742173186,0.015896608086835327,0.9901859629405667
2012-01-10,0,0.0,0.0,-0.0018085704123569886,0.013908277984237803,0.9904627893226895
2012-01-12,1,0.0008154092997330444,0.0013008124227464118,-0.0036283911960837316,0.00940857842920872,0.9919228700009023
2012-01-17,0,0.0,0.0,-0.004920619654754645,0.00940857842920872,0.9911275737070193
2012-01-19,0,0.0,0.0,-0.004920619654754645,0.00940857842920872,0.9916282270725514
2012-01-23,0,0.0,0.0,-0.005242793005057561,0.00940857842920872,0.9911532599220076
2012-01-25,0,0.0,0.0,-0.007355510823805955,0.008460564267637572,0.9907252620752531
2012-01-27,0,0.0,0.0,-0.007355510823805955,0.00542986082974351,0.9913011184945622
2012-01-31,0,0.0,0.0,-0.007355510823805955,0.005993823981815671,0.9910787836996386
2012-02-02,1,0.0024553765033871124,0.0031582538130322554,-0.007355510823805955,0.005993823981815671,0.992113584723718
2012-02-06,0,0.0,0.0,-0.007919036312985551,0.005201694378677149,0.9922325164924438
2012-02-08,0,0.0,0.0,-0.007919036312985551,0.005201694378677149,0.9921834431760534
2012-02-10,0,0.0,0.0,-0.0067948266693918435,0.005201694378677149,0.9927863230545515
2012-02-14,0,0.0,0.0,-0.005479912357359686,0.005201694378677149,0.9919915064026515
2012-02-16,0,0.0,0.0,-0.005479912357359686,0.006039539586350045,0.9915300198121558
2012-02-21,1,0.0020494361874408965,0.0022418453079019037,-0.004775641073716736,0.008106237530416234,0.9921185444884824
2012-02-23,1,0.0021351434491090377,0.002331561186223906,-0.004775641073716736,0.006039539586350045,0.9928513457786262
2012-02-27,1,0.00048499537312156706,0.0006029458949697324,-0.003959774169449033,0.0069017160348672935,0.992926012157914
2012-02-29,1,0.000818315430553879,0.0008723251215707295,-0.0027436584617361827,0.0069017160348672935,0.9931741453978382
2012-03-02,0,0.0,0.0,-0.0024663829188159517,0.005489086528182899,0.9937642401341689
2012-03-06,0,0.0,0.0,-0.0024663829188159517,0.00494773503714727,0.9945298221604195
2012-03-08,0,0.0,0.0,-0.0027436584617361827,0.00494773503714727,0.9946282267089173
2012-03-12,0,0.0,0.0,-0.003879781277685103,0.00494773503714727,0.9930420810913021
2012-03-14,0,0.0,0.0,-0.003879781277685103,0.007062168444617319,0.9934370903867917
2012-03-16,0,0.0,0.0,-0.005123954644358213,0.0033283478524183357,0.9931554119514819
2012-03-20,0,0.0,0.0,-0.00643504908697387,0.0033283478524183357,0.9918942334086674
2012-03-22,0,0.0,0.0,-0.006877203324410674,0.007491999993402189,0.9912902612067502
2012-03-26,0,0.0,0.0,-0.007406411433422063,0.010958236525896337,0.9905627192596337
2012-03-28,0,0.0,0.0,-0.007406411433422063,0.013007170567259996,0.9898034653926725
2012-03-30,0,0.0,0.0,-0.007406411433422063,0.013007170567259996,0.9895076233332818
2012-04-03,0,0.0,0.0,-0.007406411433422063,0.013503263805792644,0.9888803127735648
2012-04-05,0,0.0,0.0,-0.006877203324410674,0.014272421228311218,0.9879954477383176
2012-04-10,0,0.0,0.0,-0.0021142313283324518,0.014272421228311218,0.9892931041389605
2012-04-12,1,0.6931471805599452,0.6931471805599452,-0.0021142313283324518,0.014272421228311218,0.5922601130946104
2012-04-16,0,0.0,0.0,-0.0021142313283324518,0.013218301821516594,0.9900556058153496
2012-04-18,0,0.0,0.0,-0.0035345449966463598,0.011471553144436243,0.9902000887797276
2012-04-20,0,0.0,0.0,-0.00989272425721691,0.008805732561082042,0.988669037824643
2012-04-24,0,-0.0002022900733103535,2.347188872868684e-05,-0.005016975427376327,0.008805732561082042,0.9883235940321788
2012-04-26,1,0.000685743725714289,0.0007843926537767592,-0.0062566452148613725,0.007591339942054959,0.988956698132483
2012-04-30,1,0.0011562496795068634,0.0011765056383820761,-0.009488231346761643,0.008319876792647276,0.9882782367612823
2012-05-02,1,0.0017415262562956936,0.00183633020747384,-0.014284368682300042,0.008283169412265843,0.9875010153599889
2012-05-04,1,0.001939953435433594,0.001990224192459155,-0.01910729011509091,0.005601411372179609,0.9869125331969242
2012-05-08,1,0.0014604854034312039,0.0015435578711849745,-0.01910729011509091,0.010881220971714695,0.9852072186065063
2012-05-10,0,0.0,0.0,-0.01910729011509091,0.011267233846442173,0.9841744088092998
2012-05-14,1,0.0005476169094754635,0.0007573805366466476,-0.01910729011509091,0.013534458423650074,0.9839060480339412
2012-05-16,-1,-0.000397663360690328,-0.00010695815248745332,-0.011410799334571417,0.016322338449492876,0.9844618591887733
2012-05-18,0,0.0,0.0,-0.005182616928318342,0.017892824971453967,0.9854101492633087
2012-05-22,0,0.0,0.0,-0.005182616928318342,0.016322338449492876,0.9865419748234686
2012-05-24,-1,-0.0016005192818949522,-0.001187452133964219,-0.007369962987935897,0.016322338449492876,0.9859273897403166
2012-05-29,-1,-0.0021377683183652864,-0.0016230223797058893,-0.007369962987935897,0.016322338449492876,0.9861967902595509
2012-05-31,-1,-0.0024209587219608418,-0.0018870152190686707,-0.005736272682922256,0.017892824971453967,0.9865522216932143
2012-06-04,-1,-0.0033605268903264575,-0.0027470139614002437,-0.004681982937976997,0.018350627603119816,0.9867183543239677
2012-06-06,-1,-0.0011048446802468409,-0.0008112929463894759,-0.004681982937976997,0.016322338449492876,0.9895321094966605
2012-06-08,-1,-0.0008661976779083914,-0.0005941515654235227,-0.004269023788600109,0.013127354523194964,0.9904663737597607
2012-06-12,-1,-0.0007463338220339673,-0.0005225859505505251,-0.004269023788600109,0.010068986097392624,0.9917988923887651
2012-06-14,-1,-0.0005779758791835122,-0.0003626874672932065,-0.0037996567827357323,0.008832519747010763,0.9923239045769925
2012-06-18,0,0.0,0.0,-0.0037996567827357323,0.0057114031627331485,0.9931721686155148
2012-06-20,0,0.0,0.0,-0.005186080840092344,0.0057114031627331485,0.9928501443654232
2012-06-22,0,0.0,0.0,-0.005604931804813017,0.005030967838446508,0.9928214781392878
2012-06-26,0,0.0,0.0,-0.005604931804813017,0.005030967838446508,0.9927535179700737
2012-06-28,0,0.0,0.0,-0.005555373952324451,0.0057114031627331485,0.9928175809317397
2012-07-02,0,0.0,0.0,-0.005555373952324451,0.0056971391322185585,0.9936176200533067
2012-07-05,0,0.0,0.0,-0.005555373952324451,0.007947624971939508,0.9929066249623573
2012-07-09,0,0.0,0.0,-0.006280359271455133,0.007947624971939508,0.992744104157317
2012-07-11,0,0.0,0.0,-0.005411223328973048,0.007947624971939508,0.9930216951566568
2012-07-13,0,0.0,0.0,-0.005411223328973048,0.005970639203447807,0.9931524212906099
2012-07-17,0,0.0,0.0,-0.006280359271455133,0.00504758415720656,0.9930870274442969
2012-07-19,0,0.0,0.0,-0.004788229215992185,0.0063163900578815275,0.993165204125292
2012-07-23,0,0.0,0.0,-0.004017406680420939,0.009197606934691028,0.993135302594183
2012-07-25,0,0.0,0.0,-0.0037906510624939713,0.009584205440385386,0.993326477127037
2012-07-27,0,0.0,0.0,-0.004017406680420939,0.009584205440385386,0.9935180016700368
2012-07-31,0,0.0,0.0,-0.004017406680420939,0.006493615617762188,0.9939009182937405
2012-08-02,0,0.0,0.0,-0.004017406680420939,0.00504758415720656,0.9945364439920722
2012-08-06,0,0.0,0.0,-0.0037906510624939713,0.006493615617762188,0.9944281021602442
2012-08-08,0,0.0,0.0,-0.0030824759415013104,0.007462576106969966,0.9943458635356605
2012-08-10,0,0.0,0.0,-0.003359979577558817,0.007462576106969966,0.994294770465777
2012-08-14,0,0.0,0.0,-0.0028881576538155995,0.010025716188881264,0.9944289765176589
2012-08-16,0,0.0,0.0,-0.0028881576538155995,0.009887325676182232,0.99445532454762
2012-08-20,1,0.0,0.0015838819852806686,-0.0030824759415013104,0.00741644593607029,0.9952398016412095
2012-08-22,0,0.0,0.0,-0.003655504356615429,0.0036056304514965423,0.994276367048555
2012-08-24,0,0.0,0.0,-0.003270934711232249,0.0014132479897271857,0.9951860373269055
2012-08-28,0,0.0,0.0,-0.0045566516105414465,0.0014132479897271857,0.9948278363581521
2012-08-30,0,0.0,0.0,-0.0045566516105414465,0.0036056304514965423,0.994609488600586
2012-09-04,1,0.0010357686203838561,0.0010770949222453975,-0.005136640103221319,0.0028123079744655174,0.9945800774112967
2012-09-06,1,0.0011334291494231022,0.0011537198481397924,-0.005136640103221319,0.0014132479897271857,0.9948109214795996
2012-09-10,0,0.0,0.0,-0.005136640103221319,0.0014132479897271857,0.9955150482516126
2012-09-12,1,0.0004925347513102911,0.0005076240325433022,-0.0053170050806256195,0.0014132479897271857,0.9952594821092222
2012-09-14,1,0.0009028497494550933,0.0009463806728087151,-0.0053170050806256195,0.000872248212516233,0.995239525070831
2012-09-18,1,0.0011395644470358812,0.0011496730043144888,-0.004972149401024514,0.0016456577762609848,0.9952102840228104
2012-09-20,1,0.00040066167832093747,0.00046670482826907417,-0.0022490113027558993,0.004120233324667905,0.9960383857965629
2012-09-24,1,0.0005520410931460089,0.0005839832461867538,-0.004972149401024514,0.004120233324667905,0.9951662056480947
2012-09-26,1,0.0007011337590230809,0.0007452605352360123,-0.005002499234882819,0.004120233324667905,0.9947498593606747
2012-09-28,1,0.0010659045679078027,0.001173145454974796,-0.00664091365084774,0.002850286087845276,0.9938327601538091
2012-10-02,0,0.0,0.0,-0.006041915714400768,0.006078158977017063,0.9934780768835348
2012-10-04,0,0.0,0.0,-0.006041915714400768,0.007172398092466535,0.9928043873538609
2012-10-08,0,0.0,0.0,-0.008731703259761697,0.007172398092466535,0.992342620031407
2012-10-10,0,0.0,0.0,-0.009000029522031914,0.006078158977017063,0.9910199429139932
2012-10-12,0,0.0,0.0,-0.009000029522031914,0.0035868197589924555,0.991011055981029
2012-10-16,-1,-0.0007848509274269492,-0.00042057025955169166,-0.010170316969987348,0.001791783196135426,0.9908262408053062
2012-10-18,0,0.0,0.0,-0.010170316969987348,0.001906943420322117,0.9906611528588328
2012-10-22,0,0.0,0.0,-0.010170316969987348,0.00363908384752117,0.9910559556885596
2012-10-24,0,0.0,0.0,-0.008876672987281169,0.005576022266561557,0.9912661464303449
2012-10-26,0,0.0,0.0,-0.004356629682505476,0.005576022266561557,0.9921326434470955
2012-11-01,0,0.0,0.0,-0.004356629682505476,0.0035415355679250405,0.9929894433366403
2012-11-05,-1,-0.0009715715640276268,-0.0008145797573286082,-0.00458993633666489,0.003177488111451018,0.993509947141794
2012-11-07,0,0.0,0.0,-0.004099055923128147,0.003177488111451018,0.9935635235261175
2012-11-09,0,0.0,0.0,-0.0035981175035602123,0.0035415355679250405,0.9950070360671418
2012-11-13,0,0.0,0.0,-0.0035981175035602123,0.0035415355679250405,0.9947870500741859
2012-11-15,0,0.0,0.0,-0.003046562133024664,0.0035415355679250405,0.9955164852111911
2012-11-19,0,0.0,0.0,-0.003046562133024664,0.0035415355679250405,0.9950922242041326
2012-11-21,0,0.0,0.0,-0.004099055923128147,0.0035415355679250405,0.9944732359541852
2012-11-26,0,0.0,0.0,-0.005108978609146246,0.0028844771611160275,0.9946964214324303
2012-11-28,0,0.0,0.0,-0.005841088845498766,0.003374268721472011,0.9938541086653955
2012-11-30,0,0.0,0.0,-0.006395345458906857,0.003909314515597049,0.9930807123510181
2012-12-04,0,0.0,0.0,-0.006395345458906857,0.0066730892785796655,0.9927389130107622
2012-12-06,0,0.0,0.0,-0.006395345458906857,0.009459656580740838,0.992487346220486
2012-12-10,0,0.0,0.0,-0.0060622612579821315,0.010421280893129704,0.9923910904415612
2012-12-12,0,0.0,0.0,-0.004634174022101168,0.010421280893129704,0.9926674028256265
2012-12-14,0,0.0,0.0,-0.004174048833973678,0.010421280893129704,0.9926792837089246
2012-12-18,0,0.0,0.0,-0.004174048833973678,0.009021726851426987,0.9933541706901369
2012-12-20,-1,-0.001581422347078399,-0.001393315266040048,-0.0031693131390816065,0.008392439322578077,0.993344327618355
2012-12-24,-1,-0.001659404527245886,-0.0014828820994774207,-0.0013393296642506866,0.008392439322578077,0.9931425824172604
2012-12-27,-1,-0.001052345300432524,-0.0009717606122242697,-0.000827171610562704,0.008392439322578077,0.9936412851593749
2012-12-31,-1,-0.0007788912893593758,-0.0007283663513674723,-0.000827171610562704,0.008033243921332924,0.994288301037667
2013-01-03,-1,-0.0004676114856418947,-0.0004398842345508094,-0.0013393296642506866,0.008033243921332924,0.9943686874816459
2013-01-07,1,8.726534806146921e-05,0.000141156573295781,-0.0013290410102462346,0.006778813910189654,0.9948177972285938
2013-01-09,1,8.940663379581916e-05,0.00011429375545064675,-0.0012553166919422832,0.005744275570823394,0.9951294259904112
2013-01-11,1,0.0004613618169403913,0.0005620308393831159,-0.0026237649083894242,0.006133943348154503,0.9948967776143117
2013-01-15,0,0.0,0.0,-0.0026237649083894242,0.0071138850074067336,0.9947443008583643
2013-01-17,0,0.0,0.0,-0.0003466367053743557,0.0071138850074067336,0.9947804771193625
2013-01-22,0,0.0,0.0,-0.0027301438055999227,0.005049997141731087,0.9951542390304478
2013-01-24,0,0.0,0.0,-0.0027301438055999227,0.005770854681810326,0.9941681745311195
2013-01-28,1,0.001538854190987835,0.0018205477825833432,-0.0033028309338340167,0.005770854681810326,0.99350148890667
2013-01-30,0,0.0,0.0,-0.0027301438055999227,0.00827947006952673,0.9928249103129813
2013-02-01,0,0.0,0.0,-0.0007821054061645286,0.00827947006952673,0.9930721063652032
2013-02-05,1,0.002032243401557156,0.0023378722554274595,-0.0007821054061645286,0.009813904474332804,0.9930487799190951
2013-02-07,1,0.00224332515130008,0.0025990149356673797,-0.0029303109106261467,0.009813904474332804,0.9929154122532985
2013-02-11,1,0.002621684854631802,0.003050921370032196,-0.0029303109106261467,0.00827947006952673,0.9929602059205492
2013-02-13,1,0.0026038286314986683,0.0030079322080032523,-0.0029303109106261467,0.00827947006952673,0.9931186633110172
2013-02-15,1,0.0023180621016244793,0.002644388791169032,-0.003341680992885178,0.00827947006952673,0.9927256492122617
2013-02-20,0,0.0,0.0,-0.003666327944551681,0.00827947006952673,0.9927152850035201
2013-02-22,0,0.0,0.0,-0.003666327944551681,0.006410191246369424,0.9936529780419955
2013-02-26,0,0.0,0.0,-0.003666327944551681,0.005090840720030496,0.9948538222737209
2013-02-28,1,0.002222840296771551,0.002494382509824462,-0.003666327944551681,0.004758412520584645,0.9948869033620386
2013-03-04,1,0.0025086344868799613,0.0028368115604566553,-0.0041325680840213945,0.0035793996790629123,0.9948157683256574
2013-03-06,1,0.002821910982492616,0.003191311667516866,-0.0041325680840213945,0.0024689864381613066,0.9948302101947687
2013-03-08,0,0.0,0.0,-0.0041325680840213945,0.004758412520584645,0.9954397535864847
2013-03-12,1,0.002468567566225091,0.0027965917644925927,-0.003278139953758428,0.005090840720030496,0.9951296954953848
2013-03-14,0,0.0,0.0,-0.003278139953758428,0.00675078466237708,0.9949954355763753
2013-03-18,0,0.0,0.0,-0.003278139953758428,0.009378893926863863,0.9928234967802894
2013-03-20,0,0.0,0.0,-0.0030810721886088722,0.009378893926863863,0.9919630377557814
2013-03-22,0,0.0,0.0,-0.00311328089457459,0.010249819746996784,0.9912564828569538
2013-03-26,1,0.0010792170116169016,0.001167316041715745,-0.0021790611074885926,0.010249819746996784,0.9917390529426605
2013-03-28,0,0.0,0.0,-0.0021790611074885926,0.009510371396477686,0.9914557124629785
2013-04-02,1,0.0018721518130149226,0.0021085670129262013,-0.00010171718426620763,0.010865444891357769,0.9911344304972065
2013-04-04,1,0.001868559063962429,0.0020855224346373324,-0.00019236364435973113,0.011551586759227865,0.9904275867234162
2013-04-08,0,0.0,0.0,0.0008374566367493671,0.012558567991578628,0.9891905451685215
2013-04-10,0,0.0,0.0,0.0010807183927990576,0.014769589260637463,0.9886885858900313
2013-04-12,0,0.0,0.0,-0.0038826283003927584,0.014769589260637463,0.9885274159750596
2013-04-16,0,0.0,0.0,-0.000770681225626508,0.0114514677021291,0.9908981421685893
2013-04-18,0,0.0,0.0,-0.000770681225626508,0.0114514677021291,0.9910692130640775
2013-04-22,0,0.0,0.0,-0.000770681225626508,0.009130628782469397,0.9917174280592979
2013-04-24,0,0.0,0.0,-0.004515647768007173,0.009272814638364334,0.9900772551280974
2013-04-26,0,0.0,0.0,-0.009054818909844388,0.009272814638364334,0.9892269463561866
2013-04-30,0,0.0,0.0,-0.01414543511043792,0.007352651946265458,0.9886722394050806
2013-05-02,1,0.0016886013913948372,0.0017263668383078398,-0.01414543511043792,0.005845125409948426,0.988792966045345
2013-05-06,1,0.002249879225895643,0.0023543819934841756,-0.0160986542081789,0.0024225085496764774,0.9886026826285798
2013-05-08,1,0.002596709121918459,0.0027312471255832504,-0.0160986542081789,0.0011771580957728794,0.9871815118133563
2013-05-10,1,0.0019411502067220737,0.0019855452827314476,-0.0160986542081789,0.0024225085496764774,0.987875161052836
2013-05-14,1,0.0024846423727512574,0.0026030569302197973,-0.018119798454102536,0.0024225085496764774,0.9862018937202489
2013-05-16,1,0.0016720744577301604,0.0016889682814207236,-0.018119798454102536,0.0024225085496764774,0.9864191339207699
2013-05-20,1,0.0005807483999211002,0.0006779244917171599,-0.018119798454102536,0.002874867639749304,0.9866637222518997
2013-05-22,-1,-0.0004421424004375251,-0.0001981749122661504,-0.01910618692662312,0.0011159391325505975,0.9847855783440529
2013-05-24,-1,-0.0008878697720406305,-0.0005392121474059146,-0.018119798454102536,0.002874867639749304,0.9854516861825938
2013-05-29,-1,-0.0020608296296911214,-0.0016224625440844841,-0.01155170962293132,0.01026412733994413,0.9854040721215138
2013-05-31,-1,-0.0022932622195582448,-0.001827157814636528,-0.01155170962293132,0.01561385600122848,0.9842814944287647
2013-06-04,-1,-0.004631572579621462,-0.003951187869192413,-0.00877040912843029,0.018855845575334512,0.9836557296677048
2013-06-06,-1,-0.003992437213711211,-0.003396930069610912,-0.006839086873702723,0.01521039687469702,0.9853835972045898
2013-06-10,-1,-0.0036494638250863156,-0.0031096518371644824,-0.007011445286333583,0.015999144116612636,0.9850380773765606
2013-06-12,-1,-0.0049764666907224624,-0.004278545684826271,-0.006486477142468466,0.018855845575334512,0.9843079782735961
2013-06-14,-1,-0.0032412243837024717,-0.0027359301121559214,-0.007011445286333583,0.015999144116612636,0.9852614788182159
2013-06-18,-1,-0.00281693595345199,-0.002306925735837328,-0.006486477142468466,0.015999144116612636,0.9855835879080351
2013-06-20,-1,-0.006189739190265461,-0.005317900916324928,-0.003500843148229388,0.018509972193703584,0.9869258431519323
2013-06-24,0,0.0,0.0,-0.003500843148229388,0.018509972193703584,0.9890452546642859
2013-06-26,0,0.0,0.0,-0.006442731930468213,0.01317037117600613,0.9900109548029695
2013-06-28,0,0.0,0.0,-0.006442731930468213,0.012075213054331761,0.9911996359413492
2013-07-02,0,0.0,0.0,-0.006527599919098566,0.006395748045463504,0.9915212207882037
2013-07-05,0,0.0,0.0,-0.006666991979785226,0.012075213054331761,0.9902054030749574
2013-07-09,0,0.0,0.0,-0.007682224929438818,0.006395748045463504,0.9904652032111981
2013-07-11,-1,-0.0014852894768273431,-0.0013582528584858062,-0.007682224929438818,0.004503792339778991,0.9914442838549193
2013-07-15,0,0.0,0.0,-0.007860574379175055,0.004503792339778991,0.9915209966605558
2013-07-17,0,0.0,0.0,-0.011544898683876743,0.002668225052342027,0.9907459273351266
2013-07-19,0,0.0,0.0,-0.013635076650175982,0.002035555485458933,0.9905094225347693
2013-07-23,0,0.0,0.0,-0.014692917126742703,0.001772121530894728,0.9893127062298598
2013-07-25,0,0.0,0.0,-0.013635076650175982,0.002378865903076812,0.9893746023944239
2013-07-29,1,0.0008863384183884506,0.0009969829795208813,-0.013635076650175982,0.0015059908073675914,0.9885429915613201
2013-07-31,0,-2.738173614023182e-07,1.8789000696803257e-05,-0.01294680819189423,0.0015059908073675914,0.988992866189362
2013-08-02,0,0.0,0.0,-0.012148945121381574,-0.0037088097135670366,0.9899013113211551
2013-08-06,0,0.0,0.0,-0.01294680819189423,0.0015059908073675914,0.9890082208978436
2013-08-08,0,0.0,0.0,-0.013340912517680199,0.005811346728265777,0.9883706993974123
2013-08-12,0,0.0,0.0,-0.013340912517680199,0.005811346728265777,0.9883618754522185
2013-08-14,0,0.0,0.0,-0.012499588184143654,0.006014236075842215,0.9886570675276558
2013-08-16,0,0.0,0.0,-0.010837810495411142,0.007733136258096553,0.9893242498273714
2013-08-20,0,0.0,0.0,-0.009362391926468035,0.007733136258096553,0.9890815252737963
2013-08-22,-1,-0.003781032797916018,-0.0034010258303531576,-0.009362391926468035,0.006561942331951147,0.9890820437286776
2013-08-26,-1,-0.0033335039733047387,-0.00302354530116719,-0.010837810495411142,0.005430701281137148,0.9891647054136922
2013-08-28,-1,-0.0037435061218101277,-0.0034075864130489386,-0.009362391926468035,0.006542242904143794,0.9889696959867106
2013-08-30,0,0.0,0.0,-0.008474980744049114,0.006542242904143794,0.9893168067054166
2013-09-04,0,0.0,0.0,-0.0066915455532284675,0.006542242904143794,0.9896392228080156
2013-09-06,0,0.0,0.0,-0.0066915455532284675,0.006542242904143794,0.9896344851354822
2013-09-10,0,0.0,0.0,-0.008474980744049114,0.005430701281137148,0.989889154482498
2013-09-12,0,0.0,0.0,-0.0066915455532284675,0.0063491060848205275,0.9892095204616467
2013-09-16,0,0.0,0.0,-0.0066915455532284675,0.006306692921860865,0.9895332001320192
2013-09-18,0,0.0,0.0,-0.0066915455532284675,0.005540108237773799,0.9901028247935283
2013-09-20,0,0.0,0.0,-0.004257609084852202,0.007983696713332182,0.9909020726422589
2013-09-24,0,0.0,0.0,-0.0028258385942211365,0.009170217826314945,0.9907998008561788
2013-09-26,0,-0.00013487562022974008,6.315158359827583e-05,-0.0028258385942211365,0.007983696713332182,0.990860599173704
2013-09-30,1,4.6401128438220405e-05,0.00028439170582639434,-0.0022748416085806335,0.008812318407879945,0.9906945674742265
2013-10-02,1,0.0012100222102578869,0.0016477731698807039,-0.0035340587402036975,0.007878534628173737,0.9917944893801227
2013-10-04,0,0.0,0.0,-0.0035340587402036975,0.008812318407879945,0.9910743948621084
2013-10-08,0,0.0,0.0,-0.004408150756776566,0.008812318407879945,0.9903628553716471
2013-10-10,1,0.0007493749424670226,0.0010211060692871601,-0.0061083374293155685,0.007878534628173737,0.9909776005715676
2013-10-14,0,0.0,0.0,-0.007399268450566966,0.007878534628173737,0.9897315797338929
2013-10-16,0,0.0,0.0,-0.00903620322389435,0.007878534628173737,0.9902671689023288
2013-10-18,1,0.001981037031189603,0.0024099068249480407,-0.00903620322389435,0.0069217080596244915,0.9901274142335897
2013-10-22,1,0.0022094772491580983,0.002635789908002114,-0.010200980000267909,0.006174112676284601,0.990063894831672
2013-10-24,1,0.002348070614547615,0.0027569338362651596,-0.011521157397146601,0.0069217080596244915,0.9890657710494268
2013-10-28,1,0.0025924492447378026,0.0030544625463264476,-0.011521157397146601,0.0009883889808553112,0.9889369907212628
2013-10-30,1,0.0020226838550344807,0.002336242819437635,-0.011521157397146601,0.0028464241248238,0.9894511477211397
2013-11-01,1,0.0013174746915349932,0.0014743007216182441,-0.01133310479284526,0.0020120057994646692,0.9901746504833744
2013-11-05,1,0.0006321614894440586,0.0007525354172149674,-0.008989568937604261,0.003823303662514763,0.9912238730775791
2013-11-07,-1,-0.00013331414970117904,-0.00012629394163963912,-0.007129575787669363,0.00856908101630268,0.9913472558278943
2013-11-11,-1,-0.002760364664316669,-0.002296240995846759,-0.007129575787669363,0.0068435427899234316,0.9926623436293522
2013-11-13,-1,-0.00237674115445413,-0.0019790887239899213,-0.007517834713127216,0.003823303662514763,0.991841944137416
2013-11-15,-1,-0.0012872624451469921,-0.001090757298689154,-0.007517834713127216,0.0022092121750492103,0.9920149531400727
2013-11-19,-1,-0.0011935670405543073,-0.0010645431365845764,-0.0063728261124929055,0.004340287813846039,0.9915709402477517
2013-11-21,-1,-0.0010900438453015538,-0.0009937580979754899,-0.0063728261124929055,0.003215480864704016,0.992010842387949
2013-11-25,-1,-0.0015105380755795783,-0.0013576818422521427,-0.004493741146956007,0.004805999755340791,0.9918536686064702
2013-11-27,-1,-0.0014331762250484707,-0.00130777082231582,-0.0032187777541668808,0.004805999755340791,0.9919747104238777
2013-12-02,-1,-0.0013293796511402414,-0.0012607308169797346,-0.0032187777541668808,0.004805999755340791,0.9924578419369624
2013-12-04,-1,-0.0006237074426963937,-0.0006001615130758615,-0.0047045623554810906,0.004805999755340791,0.9920119108963932
2013-12-06,1,0.00028478519091114493,0.00044682928955651314,-0.0047045623554810906,0.0027426946243439216,0.9926697480581044
2013-12-10,1,0.00010082406428441471,0.00026872430589699526,-0.003985418912747454,0.003988690550577918,0.9930107948628192
2013-12-12,-1,-0.000663987796018131,-0.0005626761100223047,-0.003985418912747454,0.004322551896631485,0.9935532503763275
2013-12-16,-1,-0.0010030213541211773,-0.0009782696550758906,-0.0033072425528760958,0.005247045174128999,0.9926027190605713
2013-12-18,-1,-0.0001719370547827816,-2.048050664546215e-05,-0.0033072425528760958,0.005247045174128999,0.9931398343280036
2013-12-20,-1,-0.0006604702250791647,-0.0006104677626765654,-0.0023146315994591465,0.006061536489029139,0.9932435947280928
2013-12-24,-1,-0.0002163095333222353,-0.00010056939210166299,-0.004316321369877442,0.004754825110700161,0.9928743950188392
2013-12-27,-1,-0.0004283311201589517,-0.0003710223811004666,-0.005166480934615764,0.007152552581536678,0.9920622539091717
2013-12-31,-1,-0.0007397114540587236,-0.0007315490010838673,-0.005166480934615764,0.011961448015309932,0.9911411875321076
2014-01-03,-1,-0.0003040448216013101,-0.000237599957447608,-0.005371256239842761,0.007152552581536678,0.9909531201516363
2014-01-07,-1,-0.00043656431575801367,-0.0004307875754320212,-0.005371256239842761,0.011961448015309932,0.9904457205153431
2014-01-09,-1,-0.0010410357961969552,-0.0009236492399704083,-0.005371256239842761,0.012151079911571173,0.9897002539419492
2014-01-13,-1,-0.0008990555762953156,-0.0008152438516181051,-0.0026946632457944906,0.012353028109886359,0.9895675159081958
2014-01-15,-1,-0.0003179546812713535,-0.0002932983963159318,-0.0038379711174220204,0.012151079911571173,0.9900251436048729
2014-01-17,1,0.00014290465647998136,0.0001849473367741831,-0.0038379711174220204,0.011809945278232713,0.990277361139712
2014-01-22,1,0.00012691142587005765,0.00012707894728710762,-0.005371256239842761,0.011809945278232713,0.9898562976618666
2014-01-24,-1,-0.000972356059974843,-0.0008150620729202457,-0.002083685490353602,0.011809945278232713,0.9902422822679066
2014-01-28,-1,-0.0008889807063385692,-0.000732821602871988,-0.00024475413310762705,0.011284205931492335,0.9909846468998407
2014-01-30,-1,-0.0011066600246682563,-0.0009099694107875578,-0.00024475413310762705,0.009495237464209697,0.9916926104007386
2014-02-03,-1,-0.001617348549921729,-0.0014014456586101997,-0.00024475413310762705,0.011284205931492335,0.9921236468706246
2014-02-05,-1,-0.0011528763918094995,-0.000982591366287823,-0.0020717867136167936,0.009495237464209697,0.9926154957479392
2014-02-07,-1,-2.341939156907894e-05,-9.941749001047767e-06,-0.0029531913339731386,0.006629019240056336,0.9928652615942288
2014-02-11,1,0.0016494870337488677,0.0019436350112859374,-0.0029531913339731386,0.0064311482233580545,0.9935809996400115
2014-02-13,1,0.0014417969728123307,0.001655837161903432,-0.00291320261083184,0.006108897554480472,0.9938166104412512
2014-02-18,1,0.0014810760349333158,0.0016611802693188647,-0.00291320261083184,0.005038827039211399,0.9941521431500872
2014-02-20,1,0.0010643091271679852,0.0012080242114714192,-0.00291320261083184,0.005038827039211399,0.9934310517392071
2014-02-24,1,0.0010163957629302739,0.0011306696634940923,-0.00291320261083184,0.006108897554480472,0.9928322141741485
2014-02-26,1,0.001461058237513134,0.0016665470984210855,-0.003228506986175392,0.007319421219018392,0.9919215163830272
2014-02-28,1,0.0013617404168485266,0.0015181165772747093,-0.003228506986175392,0.007319421219018392,0.9918738050505512
2014-03-04,1,0.001481083932061997,0.0016323313582129158,-0.00291320261083184,0.006108897554480472,0.9923179435580246
2014-03-06,1,0.0015096201540021848,0.0017242551787468212,-0.00291320261083184,0.006108897554480472,0.9927999028023733
2014-03-10,1,0.0008853724702430663,0.001035796089974539,0.0004954483609052961,0.006108897554480472,0.9936233307773379
2014-03-12,1,0.0020185178381572936,0.002389156214582958,-0.00014410852049778587,0.005366942240333146,0.9942675779296432
2014-03-14,1,0.002288083862916448,0.0027079538828265505,-0.0019940270161055078,0.004985126672003732,0.9939725414924842
2014-03-18,1,0.002702994657681242,0.0032066277741760896,-0.0019940270161055078,0.005658720948119098,0.9937373918297217
2014-03-20,1,0.0019999748578667185,0.0024368700546253293,-0.00014410852049778587,0.006491657082862905,0.99491887854445
2014-03-24,1,0.0027224121247175987,0.0032633054381583804,-0.0015387171583960966,0.005658720948119098,0.9953676225252271
2014-03-26,1,0.002655860372522605,0.003167801023653898,-0.0015387171583960966,0.005658720948119098,0.995647043406879
2014-03-28,1,0.003016711396304292,0.003566720029053842,-0.0031271266567329654,0.005658720948119098,0.9952997813386874
2014-04-01,1,0.0028257425174696097,0.003282325584113904,-0.004587640971531869,0.005349165007212754,0.9948664802045312
2014-04-03,1,0.0021917052240322424,0.0025209507265872276,-0.0031271266567329654,0.005804224925466198,0.9949898256214346
2014-04-07,1,0.002131406884940624,0.0024165880190834543,-0.0031271266567329654,0.005804224925466198,0.9948585356839673
2014-04-09,1,0.0022476112368272267,0.0025531047960887458,-0.0031271266567329654,0.00899228149842445,0.9941992240329306
2014-04-11,1,0.0018303185867389997,0.002089294528931085,-0.0019473347264487564,0.00899228149842445,0.9947085631712879
2014-04-15,1,0.0019670111589261473,0.0022073348187979765,-0.0026985537462371825,0.007089980124317857,0.9943898279952067
2014-04-17,1,0.002214488490704901,0.0024724794550536077,-0.0033160594615899083,0.0071050581966402085,0.9937393243442109
2014-04-22,1,0.0018375736581904723,0.0020224501702224714,-0.005656127024062469,0.0071050581966402085,0.9928385012245973
2014-04-24,1,0.0017641645558634151,0.0019255958844247873,-0.005078758528567793,0.004944273556516463,0.993435926564656
2014-04-28,1,0.0016284090833988804,0.001744954016039829,-0.004353992818565814,0.006556015449515144,0.9936510970278855
2014-04-30,1,0.0015789432037459895,0.0017135615231611229,-0.003563512739269832,0.006556015449515144,0.99386301142211
2014-05-02,1,0.0019864469396901037,0.0022115528143348447,-0.003563512739269832,0.007833951728049226,0.9935153630630476
2014-05-06,1,0.0016341045867589309,0.0017786035935768317,-0.003563512739269832,0.007833951728049226,0.9933396396461895
2014-05-08,1,0.0016706536061838204,0.0017470949625167207,-0.004629732422375761,0.005206220449162933,0.9929885904560335
2014-05-12,1,0.0014545881437156775,0.0014848415944130246,-0.006440995254108074,0.005206220449162933,0.9921111842639582
2014-05-14,1,0.0013391054647268828,0.0013801429196123628,-0.006113518048984445,0.005609231156324784,0.9925483855767387
2014-05-16,1,0.0011899938360801908,0.0011909723446845997,-0.005516954871413108,0.0052571701145103945,0.9930122798507306
2014-05-20,1,0.0004203282891209731,0.000500164810413451,-0.003563512739269832,0.007478508764166881,0.9933513341789155
2014-05-22,1,0.00017528211129068746,0.0002897221385389053,-0.003209543205747972,0.00819155938185685,0.9928624485480446
2014-05-27,1,0.00042984428876680883,0.000537583092151515,-0.0038592535556156143,0.007518651538274534,0.9931678927454407
2014-05-29,1,0.00040039521872804924,0.0004953479663436217,-0.0053662006354502,0.007518651538274534,0.9930257154144849
2014-06-02,1,0.0009441097739874512,0.0009719342215589976,-0.0053662006354502,0.007518651538274534,0.9931392235598155
2014-06-04,1,0.0008150386285325813,0.0008642058852994407,-0.0053662006354502,0.007518651538274534,0.9930670780362499
2014-06-06,1,0.0011311882973581747,0.001154959709992864,-0.0053662006354502,0.007460157941588753,0.9936016874492629
2014-06-10,1,0.0005256043483517678,0.0005932603250425914,-0.0034935052495954763,0.007460157941588753,0.9946861482452146
2014-06-12,1,0.0007117545681478821,0.000745692124582669,-0.0027412748935523954,0.007460157941588753,0.9947971533155202
2014-06-16,1,0.000831429744584007,0.0008376074016764686,-0.0020271602569013757,0.007460157941588753,0.9951626700257473
2014-06-18,1,0.0009553826042253727,0.0009898955674799593,-0.0027412748935523954,0.004377255074189322,0.9955069092514971
2014-06-20,1,0.0015206725366630953,0.0015605506843989745,-0.004731701326712589,0.00432294751096371,0.9951891828155667
2014-06-24,1,0.0010082165216524367,0.001045829162769814,-0.0027412748935523954,0.004377255074189322,0.9954805100808328
2014-06-26,0,-0.00013181914559571098,9.87727602906989e-05,-0.0027412748935523954,0.004377255074189322,0.9947459466400582
2014-06-30,1,0.0005725051428261446,0.0006976152065929777,-0.004889342193436353,0.00432294751096371,0.9945182205518761
2014-07-02,1,0.0006356776161330589,0.000714973824859377,-0.006509888755954587,0.00432294751096371,0.9938031473721447
2014-07-07,1,0.0010977903632266514,0.0011276368164644867,-0.0048258936538734245,0.003990143758895487,0.9941432719228673
2014-07-09,1,0.0011860914630610544,0.0012422660813777961,-0.006509888755954587,0.003990143758895487,0.9936982665423187
2014-07-11,1,0.0012619191006817817,0.0013601059885345822,-0.006509888755954587,0.004942836125936621,0.9926698054917032
2014-07-15,1,0.0010358789957995592,0.0010646786746890523,-0.006509888755954587,0.006973347183879211,0.9922673350933513
2014-07-17,1,0.0007897329274985951,0.000790826798789095,-0.0048258936538734245,0.007757986409455592,0.9917673387632643
2014-07-21,1,0.000967891295824812,0.0009982923419309712,-0.0029827787237110266,0.006973347183879211,0.9926251584503871
2014-07-23,1,0.001310725265058023,0.0013948702654168357,-0.0029827787237110266,0.007696077298768009,0.9925800046278536
2014-07-25,1,0.0008225215427939077,0.0008578201676306173,-0.004653278685595388,0.007696077298768009,0.9926383685847711
2014-07-29,1,0.0005211619038128876,0.0005519847086654699,-0.0029827787237110266,0.006228308449681048,0.99318280999821
2014-07-31,-1,-0.0008360164012949428,-0.0006058732874553598,-0.004277266371993214,0.006228308449681048,0.9936050484421598
2014-08-04,-1,-0.0006485001425457871,-0.0004625043363752434,-0.0029368535594326475,0.007696077298768009,0.9931556241829674
2014-08-06,-1,-0.0009835976324885898,-0.000763978022865896,-0.0027923754519414094,0.007696077298768009,0.9933292053738648
2014-08-08,1,5.726636089360823e-05,0.0001514510281219918,-0.003633082868232832,0.006468487677933836,0.994269903331273
2014-08-12,-1,-0.0004138458270564904,-0.00022168746617750343,-0.004473329272743669,0.0049987112200143655,0.9936696880729639
2014-08-14,1,0.0004922654608346039,0.0005532361176694106,-0.005241467387846751,0.0049987112200143655,0.9926326984857026
2014-08-18,1,0.0004685743770220137,0.0005308538132324926,-0.005241467387846751,0.006468487677933836,0.9920753805528477
2014-08-20,1,0.0009735235412365728,0.0009875226752346878,-0.005428515045038894,0.0049987112200143655,0.9916979718149739
2014-08-22,1,0.0005020715216157919,0.000532021365182151,-0.005301993284989148,0.0049987112200143655,0.9921402601626893
2014-08-26,1,0.00046995971512955436,0.000516021916857309,-0.006525322402259979,0.0026839995043451055,0.9917983690578521
2014-08-28,1,0.0001587029663860683,0.00023401547165384604,-0.006217222950783043,0.005717451067641812,0.9914675268324956
2014-09-02,1,0.0006737703718717658,0.0006844545995637759,-0.009299588693737123,0.0020003591923569214,0.9915838246204897
2014-09-04,1,0.00021831201792684747,0.0003071195798899002,-0.009299588693737123,0.0020003591923569214,0.9918344879969273
2014-09-08,1,0.0006309874393927615,0.0006522764679224465,-0.009299588693737123,0.0020095102708323574,0.9920621042401765
2014-09-10,0,-9.861647908825067e-06,6.940251091627447e-05,-0.007145762059910242,0.0033303754984146216,0.9917108696128971
2014-09-12,-1,-0.0009325770586082723,-0.0007385168686493181,-0.005373283358619747,0.002467790091513384,0.9934015528882895
2014-09-16,-1,-0.0004604199523170232,-0.0003245829020665894,-0.005373283358619747,0.002706631736465121,0.9929603450506171
2014-09-18,-1,-0.0009228464050394752,-0.0007432080615386604,-0.004085894200866572,0.0034623081430253024,0.9934166347071647
2014-09-22,-1,-0.0013704151403201375,-0.0011252597213515729,-0.004085894200866572,0.004651883604453278,0.9925462348817942
2014-09-24,-1,-0.0017966121934674018,-0.0015063234018391697,-0.0015010711922720616,0.0076929631131051664,0.9921252207759959
2014-09-26,-1,-0.0015128884868991282,-0.0012558354677059962,-0.00018577426233834485,0.0076929631131051664,0.9925027738894945
2014-09-30,-1,-0.001292792741614339,-0.0011019004855566152,0.00025545543274725245,0.0076929631131051664,0.9924609094045956
2014-10-02,-1,-0.0012498499938055926,-0.001065846517485903,0.00025545543274725245,0.008217592196291125,0.9921009959609061
2014-10-06,-1,-0.0011164340365659854,-0.0009339170602921753,0.00025545543274725245,0.010111137810262728,0.9912429422038311
2014-10-08,-1,-0.00038671467497744424,-0.00029187674988087365,0.00025545543274725245,0.010111137810262728,0.9920199064706452
2014-10-10,-1,-0.0009331585391492385,-0.0007329834937617606,-0.0007997921731840461,0.010111137810262728,0.9916269227348428
2014-10-14,-1,-0.00018079106923341053,-6.086899306852379e-05,-0.0014036477080764014,0.009275357046913242,0.9925751128295104
2014-10-16,1,0.00025716035807279324,0.00029712357406130733,-0.003517955082197658,0.009275357046913242,0.9921447197918641
2014-10-20,1,0.0005492987380008798,0.0005629370852334416,-0.00459051937030257,0.00906463290732508,0.9926679754133504
2014-10-22,1,0.0012075232816911603,0.0013092357830559588,-0.00459051937030257,0.00822929212666651,0.9929298734844921
2014-10-24,1,0.0014945107128186892,0.0016331720438255966,-0.00459051937030257,0.007092009245746303,0.992925529719525
2014-10-28,1,0.0020303726769948178,0.0022675410530918465,-0.00459051937030257,0.00685901413672312,0.9931234783107598
2014-10-30,1,0.0016936314756361998,0.0018361333983416168,-0.00459051937030257,0.007149160993984694,0.9932705415798351
2014-11-03,1,0.0025704640540974975,0.0028279129528499636,-0.00459051937030257,0.004480697115056722,0.9938154567388846
2014-11-05,1,0.0029893560964131664,0.0032963153471125242,-0.0034713679685941952,0.004775982712857017,0.9946453779742844
2014-11-07,1,0.0027136934518475243,0.003018282358574604,-0.0016989183866187908,0.004775982712857017,0.9955530689809011
2014-11-11,1,0.003181856670076733,0.0035782818243837488,-0.0016989183866187908,0.004265175412800831,0.9956674807544478
2014-11-13,1,0.002542889668639179,0.002830488082676781,-0.0016989183866187908,0.004265175412800831,0.9958579531026306
2014-11-17,1,0.0017841432391677177,0.0019529112637491901,-0.0011848310097452208,0.004265175412800831,0.9959447987626933
2014-11-19,1,0.0018197160456455714,0.002015842680725379,-3.349899749074546e-05,0.006523728348174631,0.9942641200277078
2014-11-21,1,0.0017156985151044533,0.00188039741627266,-3.349899749074546e-05,0.006861875718760279,0.9936068358472582
2014-11-25,1,0.0017977583328122131,0.0019679941619459135,-0.0011163896116727012,0.006861875718760279,0.9930939110354463
2014-11-28,1,0.002158056809589986,0.002375401130846732,-0.0011163896116727012,0.006188599398364256,0.9933529097337735
2014-12-02,1,0.0023248829087220554,0.002566489108132455,-0.00261662469506404,0.004854838875723831,0.9927395054428239
2014-12-04,1,0.002659960690145281,0.0029522627491422415,-0.00261662469506404,0.007355035393373322,0.991875811051019
2014-12-08,1,0.0026143044549525613,0.0028787016893737777,-0.00261662469506404,0.01212141604114279,0.9905931240237797
2014-12-10,1,0.002672335273514614,0.00295322235095349,-0.004442859095006375,0.01212141604114279,0.9903121176393473
2014-12-12,1,0.0024593665577935563,0.002728885423003246,-0.004011290464402513,0.014770456293428538,0.9900259315427693
2014-12-16,1,0.001454375160497153,0.001551573920730604,-0.004011290464402513,0.015286221718340778,0.9892329617924525
2014-12-18,1,0.002902201758436113,0.0031915714266385,-0.005844811138979174,0.014770456293428538,0.9897739694752492
2014-12-22,1,0.0026634624120938206,0.0028685677117391414,-0.004011290464402513,0.015286221718340778,0.9896176301854548
2014-12-24,1,0.0021542384906978003,0.0022819728813276976,-0.004011290464402513,0.016335629565490346,0.9889124099258926
2014-12-29,1,0.002099269369909675,0.0021888560608680093,-0.004011290464402513,0.016335629565490346,0.9887951624474773
2014-12-31,1,0.0020351140717762275,0.0021629502590164397,-0.004011290464402513,0.016335629565490346,0.9887722765970717
2015-01-05,1,0.0030153528982704166,0.0032805533327700848,-0.004011290464402513,0.015612230622022865,0.9890082956365976
2015-01-07,1,0.004468547321346775,0.004967794843231921,-0.006073442482551959,0.01504508873718495,0.9893208094234589
2015-01-09,1,0.004117497570614513,0.0045666667965393315,-0.009594517093579735,0.01504508873718495,0.9878975136598368
2015-01-13,1,0.0045265190568044645,0.005051054722765477,-0.009594517093579735,0.007384714678588843,0.9881995542038303
2015-01-15,1,0.003997807674509071,0.004404635437139004,-0.008267064678437389,0.005764087298660055,0.9892267210375454
2015-01-20,1,0.003931991068867858,0.004332517988877378,-0.007145222904908334,0.005764087298660055,0.9900164792863037
2015-01-22,1,0.004218018210285461,0.004625608846328928,-0.008267064678437389,0.005764087298660055,0.9891862366947927
2015-01-26,1,0.004533712019731312,0.005011102314736846,-0.008267064678437389,0.005764087298660055,0.9889707184924297
2015-01-28,1,0.004191357825370448,0.004608661192183659,-0.009918922152431071,0.005764087298660055,0.9885846434402812
2015-01-30,1,0.003501100601206022,0.0038358266021375625,-0.008267064678437389,0.009534173122897265,0.9892735919770558
2015-02-03,1,0.003335548011819576,0.003586444624358966,-0.009294432747867978,0.008774115132881228,0.9890240856833417
2015-02-05,1,0.002511604442388544,0.0025882480826609497,-0.011083825900523456,0.008774115132881228,0.9881882828160086
2015-02-09,1,0.0010301977418682444,0.0011059632122609432,-0.007746546427627949,0.008774115132881228,0.9902661319504635
2015-02-11,1,0.00032852277497125366,0.0005244708481676083,-0.007746546427627949,0.009534173122897265,0.9896609791936986
2015-02-13,0,-3.639314547844658e-05,0.00022357716660187865,-0.006433873606365869,0.011174133887477802,0.989504980781891
2015-02-18,0,-0.0003177684337001738,7.857184026308734e-06,-0.005446304926521271,0.011174133887477802,0.9890625897799152
2015-02-20,-1,-0.0010805444521369619,-0.0006740692571891832,-0.004080171916880079,0.011702188629988348,0.9889312168104845
2015-02-24,-1,-0.0018603004715781993,-0.001339245647110993,-0.004360298852511796,0.010048232596727465,0.9894591866987713
2015-02-26,-1,-0.0026180674224945055,-0.0020005151401883137,-0.0058223214805941705,0.010048232596727465,0.9889470030047697
2015-03-02,-1,-0.001731135639538672,-0.0012268693888384831,-0.0058223214805941705,0.009923119374456882,0.9888708227302886
2015-03-04,-1,-0.002077703241242188,-0.0015661410677804107,-0.0058223214805941705,0.009923119374456882,0.9888388147051256
2015-03-06,-1,-0.003358588119335344,-0.0026901219839897098,-0.004886287386552102,0.011747554564527786,0.9889620824656564
2015-03-10,-1,-0.0028272674561622716,-0.002256351984302887,-0.0058223214805941705,0.011747554564527786,0.9884569689777197
2015-03-12,-1,-0.0021063790340632603,-0.0016231440358832497,-0.008413963559846381,0.010567609780165181,0.9884071358371981
2015-03-16,-1,-0.001259751268819992,-0.0008935850732207269,-0.008413963559846381,0.00920184453879587,0.9890020401543654
2015-03-18,0,-0.00012936112355231295,8.726187225636364e-05,-0.008413963559846381,0.004830968171169787,0.9896515363952681
2015-03-20,1,0.0009889575348871282,0.0010617273219666484,-0.008944480897354935,0.00348984615217123,0.9905777259578071
2015-03-24,1,0.000298586826338944,0.0004366348146508508,-0.008413963559846381,0.004582540465266378,0.9913031066184683
2015-03-26,-1,-0.0007821722068808579,-0.0005230344828157303,-0.006145817407471196,0.004582540465266378,0.9922759026074767
2015-03-30,1,0.0007991176777167446,0.0008279512994151309,-0.006595115014016077,0.00348984615217123,0.9929690674236099
2015-04-01,1,0.0004547645713880918,0.000491892858557772,-0.007939889026263882,0.00348984615217123,0.9912330392394836
2015-04-06,1,0.0008729678448665248,0.0008874781263287882,-0.007939889026263882,0.00348984615217123,0.9914716146539142
2015-04-08,1,0.00013502454502405673,0.0002229364732739592,-0.007939889026263882,0.003509443494845319,0.9912045873198736
2015-04-10,-1,-0.0009335451705584667,-0.0007028472266964607,-0.006595115014016077,0.0060644962387741246,0.9904291724406041
2015-04-14,-1,-0.001494419105568536,-0.001164680087084194,-0.007939889026263882,0.00620013561823296,0.9898368607622825
2015-04-16,-1,-0.001861023016606584,-0.001476284019803772,-0.008325253756241473,0.006855385884851475,0.9887877763234847
2015-04-20,-1,-0.0023593277896714945,-0.0019187902478703296,-0.0076702038408505615,0.007230131024920315,0.9883827148867879
2015-04-22,-1,-0.0020464560905141455,-0.001649489740748003,-0.0076702038408505615,0.006655655017766227,0.9887659479724807
2015-04-24,-1,-0.0016579025335047046,-0.0013259080787547477,-0.0076702038408505615,0.006655655017766227,0.9888126725066329
2015-04-28,-1,-0.0016109137894851865,-0.001294346407083092,-0.008868807169472777,0.0077652873861674175,0.9883335411087413
2015-04-30,-1,-0.0032519413806068524,-0.002761512492693194,-0.008448686315909603,0.0077652873861674175,0.9896384525427224
2015-05-04,-1,-0.002559103626480345,-0.0021569715630732223,-0.010454245983976682,0.007810282615980796,0.9891975271451875
2015-05-06,-1,-0.0033143758995929883,-0.002829731931390878,-0.010454245983976682,0.007810282615980796,0.9900442609549505
2015-05-08,-1,-0.0020166474223392503,-0.001667389509225959,-0.010454245983976682,0.004310651551116462,0.9915791822158866
2015-05-12,-1,-0.0026839870504258533,-0.002229511527778614,-0.009690767956074674,0.00454576804875396,0.9919229931257858
2015-05-14,-1,-0.0011077060732664211,-0.0009187808526935479,-0.009690767956074674,0.004249446664351488,0.9922834778138363
2015-05-18,-1,-0.00099343351879033,-0.0008302689635160626,-0.009690767956074674,0.0030107065291407648,0.9925199028367364
2015-05-20,-1,-0.0015391953544932448,-0.001295392529640747,-0.009690767956074674,0.005490230487036238,0.9916672084484449
2015-05-22,-1,-0.001382988649565884,-0.001171220781312802,-0.010629123957603884,0.005490230487036238,0.9910181245925551
2015-05-27,-1,-0.001790656921798328,-0.0015031816300891216,-0.01060973806861418,0.003424301136702348,0.9915163574139517
2015-05-29,-1,-0.002080944998857124,-0.0018071829920028011,-0.010253675821277548,0.005490230487036238,0.9918318715051013
2015-06-02,-1,-0.0011178019422635084,-0.0010150530625373866,-0.010253675821277548,0.003424301136702348,0.9919856518904304
2015-06-04,-1,-0.0019249995640048248,-0.0017209695382196868,-0.009739914323327058,0.005490230487036238,0.9916895127878171
2015-06-08,-1,-0.001959269333992355,-0.0017710697648509962,-0.009739914323327058,0.006718778272880893,0.9901169829664167
2015-06-10,-1,-0.0018849819479555996,-0.0017129431307856028,-0.00845057548945074,0.005886326726787503,0.9906456248749611
2015-06-12,-1,-0.0016748516997181428,-0.0015328079398544883,-0.00845057548945074,0.006445767969799201,0.9906772289640596
2015-06-16,-1,-0.0012503430601193497,-0.001196096259434855,-0.00845057548945074,0.006445767969799201,0.9907873142678576
2015-06-18,-1,-0.0001552227299999833,-5.799318693630671e-05,-0.00845057548945074,0.006387477167668356,0.9913336298237723
2015-06-22,-1,-0.0008104940609921777,-0.0007983357458918305,-0.006531552892054373,0.006387477167668356,0.9920483236039531
2015-06-24,-1,-0.0016858926347656888,-0.0015698547464525745,-0.004417618252673113,0.006387477167668356,0.9918617948628806
2015-06-26,-1,-0.00138763052889411,-0.0013366750090104123,-0.0032334465435435514,0.005840614670303529,0.9923955633378349
2015-06-30,-1,-0.002089155354860252,-0.0019558967875797344,-0.0017603786193332628,0.007578310333380845,0.9919463486516827
2015-07-02,-1,-0.001783423950769623,-0.0016234688642635027,-0.0017603786193332628,0.007578310333380845,0.9929044423726278
2015-07-07,-1,-0.00044933158586454137,-0.0004444044741080385,-0.0032334465435435514,0.005719234688441287,0.9943975782266815
2015-07-09,-1,-0.0007427247458716521,-0.0007090739561033682,-0.0017989856562135773,0.005719234688441287,0.9943481985917668
2015-07-13,-1,-0.00030535705218499376,-0.000267245184210611,-0.0044135258636478535,0.00445679016801597,0.9941169987439201
2015-07-15,-1,-0.00046993530392023386,-0.0004552826369606795,-0.0044135258636478535,0.005719234688441287,0.9934973155275388
2015-07-17,-1,-0.0005927555160831655,-0.0005514060351206241,-0.0016664352232617094,0.005293331541146484,0.9937719635136689
2015-07-21,-1,-0.0008179665910495412,-0.0007295787978851543,-0.0012970017370460224,0.005293331541146484,0.9939131753918492
2015-07-23,-1,-0.0005738501786251459,-0.0005553286916529179,-0.0030820425512530585,0.004469308659174414,0.9942777529012208
2015-07-27,-1,-0.0007736989354593654,-0.0007107261791088974,-0.006970739447063128,0.004469308659174414,0.9908129708838159
2015-07-29,-1,-0.0004716741491370721,-0.00039929391741260335,-0.008090149299263345,0.00429714863112581,0.9887652415013817
2015-07-31,-1,-6.452427940913792e-05,-4.72001980855813e-05,-0.008090149299263345,0.00429714863112581,0.9879156953872342
2015-08-04,1,0.0002395107695300737,0.0002947512198020369,-0.01325080160102699,0.003709815592745489,0.9866013935656797
2015-08-06,1,0.00024099990727541098,0.00033032267559066124,-0.01325080160102699,0.005729583513197108,0.9861701971368706
2015-08-10,1,0.00042519656258988145,0.0005830599414730917,-0.016586949308618374,0.007865288058494952,0.985097972203137
2015-08-12,1,0.001303270619708757,0.0016267973076408335,-0.016586949308618374,0.005729583513197108,0.9848946257088473
2015-08-14,1,0.0013417642575606222,0.0016434115778295605,-0.016586949308618374,0.00870572991865514,0.9841052836179842
2015-08-18,1,0.0009497976421404604,0.001155580830145188,-0.016586949308618374,0.013491505741723933,0.9831245899837507
2015-08-20,1,0.0010128383379003109,0.0012743875967704574,-0.016586949308618374,0.013491505741723933,0.9833242387180005
2015-08-24,-1,-0.0013258934050543957,-0.0012663726582873435,-0.01454410857344621,0.013491505741723933,0.9850743612823981
2015-08-26,-1,-0.00036327919731858176,-0.0002619394277432958,-0.01454410857344621,0.013185104277655084,0.9872698419761756
2015-08-28,1,0.00016467735015063967,0.0003026472284244462,-0.01454410857344621,0.010931786597490696,0.9882471908010662
2015-09-01,-1,-0.0013131037641269806,-0.0012364913552741124,-0.0028810839605088374,0.013185104277655084,0.9885028236525526
2015-09-03,-1,-0.0005811707823044904,-0.0005713801232078305,-0.0028810839605088374,0.010931786597490696,0.9893546393841586
2015-09-08,-1,-0.0008792494861142489,-0.0008500751753157481,-0.0020531404609438137,0.010931786597490696,0.9901870892708462
2015-09-10,-1,-0.0014088778682733649,-0.0013032174083996624,0.0007288457142221575,0.013185104277655084,0.989363561620264
2015-09-14,-1,-0.0005557865271109336,-0.0005455868972707596,0.0004822793916355023,0.010931786597490696,0.9902663215665782
2015-09-16,1,0.00036596654487272773,0.0005099999190569251,-0.004414732349580934,0.008697287492995922,0.9913518505859583
2015-09-18,1,0.0008319117558074857,0.0010389780873829733,-0.004414732349580934,0.009252632179489757,0.9914846271079336
2015-09-22,-1,-2.1425437086823724e-05,-1.2379509903675179e-05,-0.002948475970745309,0.009875003223198231,0.9913264930669023
2015-09-24,1,6.86656686833021e-05,0.00011926193045183519,-0.002659148956193341,0.013339284144544102,0.9916231198088279
2015-09-28,-1,-0.0005130976501636726,-0.00045637999501895956,-0.002659148956193341,0.013339284144544102,0.9916019973918258
2015-09-30,1,0.0008700635207277388,0.0010606875309342788,-0.002659148956193341,0.010322282652010462,0.9923998190957262
2015-10-02,1,0.0010132208954848347,0.0012083165176691312,-0.0032909322447237,0.010322282652010462,0.9922710310710416
2015-10-06,1,0.001533512207342402,0.001824142879273758,-0.0032909322447237,0.010322282652010462,0.9917180858545238
2015-10-08,1,0.0023359308615101913,0.002732678755992593,-0.004674733740156231,0.008846380635933331,0.9922679922267751
2015-10-12,1,0.0023986386916845133,0.0027884403387750493,-0.007206617331239457,0.007918026169864036,0.9900206935080007
2015-10-14,1,0.001989894455559564,0.0023249621088245586,-0.00646022418131371,0.010890410969570562,0.9900344514396464
2015-10-16,1,0.0023889032474089782,0.0027732904766578285,-0.007814462388141572,0.009779343639113532,0.9893717724146491
2015-10-20,1,0.002436788093902509,0.002783796451425296,-0.007814462388141572,0.00937600022953952,0.9898319333467224
2015-10-22,1,0.002893117975800126,0.003309363762431688,-0.007814462388141572,0.00937600022953952,0.9901016067217884
2015-10-26,1,0.0023224309283098824,0.00262479266295494,-0.007814462388141572,0.00937600022953952,0.9902050683000192
2015-10-28,1,0.002590012106323227,0.0029068796083388014,-0.007814462388141572,0.008163783804683435,0.990365025849909
2015-10-30,1,0.0023429165897316667,0.0026217568722673584,-0.009635613927104445,0.009620192446433714,0.9897486332417493
2015-11-03,1,0.0024077636454288773,0.00269224528025551,-0.009635613927104445,0.009620192446433714,0.9896562475528828
2015-11-05,1,0.0022828091559314776,0.002540557653504402,-0.010555042955410694,0.010629582556797183,0.9887159273317344
2015-11-09,1,0.0011084091784515904,0.0012545596268824708,-0.005679091135255783,0.010629582556797183,0.9909073479431499
2015-11-11,1,0.0013562250864796416,0.0014930004961607357,-0.008855563177796049,0.008163783804683435,0.9913791176710355
2015-11-13,1,0.000408017813353835,0.00042883163258461117,-0.0037783681173987004,0.008163783804683435,0.9919069867937095
2015-11-17,1,0.0007396820460537506,0.0007485061519458119,-0.0037783681173987004,0.011007867715897292,0.991077531381748
2015-11-19,1,0.00087879912567692,0.0008941680138980108,-0.005515197352234005,0.007919606678143735,0.9913034919263095
2015-11-23,1,0.0011329495751177215,0.0011943174464747802,-0.005515197352234005,0.007919606678143735,0.9913066509875086
2015-11-25,1,0.0015868695955145295,0.0017656580744459115,-0.004160845806974005,0.007919606678143735,0.9915934405880859
2015-11-30,1,0.0013548298789350004,0.0014799636264224971,-0.0023760320691155246,0.007107419718591401,0.9921345736814662
2015-12-02,1,0.0009644130077623123,0.0010465462164290064,-0.002508843676888595,0.005639626347696913,0.9930252340846489
2015-12-04,1,0.000647522972337176,0.0006910622988274835,-0.002508843676888595,0.005639626347696913,0.9931865836086765
2015-12-08,1,0.0005211194759802274,0.0005459967858168612,-0.004116531686661067,0.00608133705882786,0.9925882877405636
2015-12-10,1,0.00024065820864598117,0.00025281936865823864,-0.004116531686661067,0.006134490878231022,0.9922652155746423
2015-12-14,1,0.00036740108381874,0.00037926054061536717,-0.008535343143571197,0.005826627645485473,0.9920139341953892
2015-12-16,1,0.0013322956073482468,0.0014486491365250627,-0.008535343143571197,0.005367198994553473,0.9931856392386451
2015-12-18,1,0.0011695463810999125,0.0012951820592526748,-0.008535343143571197,0.005826627645485473,0.9921811124135932
2015-12-22,1,0.0015023504380920838,0.001686801620983822,-0.008535343143571197,0.006195003157660922,0.9912582616214126
2015-12-24,1,0.0016599343800146344,0.001861985144715321,-0.008535343143571197,0.0072889565568811,0.9899483041904151
2015-12-29,1,0.0017786994286606804,0.0019750267769927258,-0.008758733821391473,0.006195003157660922,0.9894479790936757
2015-12-31,1,0.0011587306987562442,0.0012564267880948777,-0.008535343143571197,0.013485265373345256,0.9886062397310837
2016-01-05,1,0.0016150750390377642,0.0017944062309881964,-0.008758733821391473,0.009809010266549463,0.9890065544545379
2016-01-07,1,0.0015595342883405364,0.0017422594064664962,-0.009935829217567055,0.009809010266549463,0.9883833203458517
2016-01-11,1,0.001423647204988759,0.001583708323116316,-0.010734317556520136,0.009809010266549463,0.988170764336372
2016-01-13,1,0.0007469312724744153,0.0007914579891345936,-0.010946070910948291,0.009809010266549463,0.9880593803977321
2016-01-15,-1,-0.0007325610317261468,-0.0004488964240588674,-0.010946070910948291,0.011860439959019323,0.9881286906922692
2016-01-20,0,-6.435564346431481e-05,0.00011771333219783736,-0.010946070910948291,0.009809010266549463,0.989322747085177
2016-01-22,1,0.001065844901257915,0.001073819353782161,-0.010946070910948291,0.00827254263782641,0.9903080417689981
2016-01-26,1,0.0007163291736687296,0.0008432405346510894,-0.010946070910948291,0.004759883512148023,0.991690970535031
2016-01-28,1,0.0005365053455831054,0.0006549779177370142,-0.010946070910948291,0.00827254263782641,0.9911285103750322
2016-02-01,1,0.0015015179479331152,0.0015421816702346535,-0.010946070910948291,0.003481409717895801,0.9914037866821384
2016-02-03,1,0.0008389538734201868,0.0009820781629296018,-0.008459652102355006,0.003481409717895801,0.9918969434953553
2016-02-05,1,8.021805989618237e-05,0.0002811969528730017,-0.004248631336907173,0.003920627072803643,0.9923563048229311
2016-02-09,1,0.00034553004836096295,0.00047300145630055357,-0.0040556835100323966,0.003281380312405664,0.9926918822745147
2016-02-11,0,-0.00014956506314689857,1.5055258807000987e-05,-0.0015320794364773202,0.007301773930050177,0.9925687357225397
2016-02-16,1,5.316569741958767e-05,0.00020648535261432604,-0.0004613471120543413,0.005588591570974915,0.9928878487167972
2016-02-18,-1,-0.00048505386001286414,-0.0002523604945230088,0.0011736802448953578,0.011138092604608997,0.9915121638702291
2016-02-22,-1,-0.000625359400185087,-0.00037251049493718243,-0.0040556835100323966,0.011138092604608997,0.9897319045830003
2016-02-24,-1,-0.00034668101364926666,-0.00016343724786324198,-0.0062979888606493365,0.011138092604608997,0.9895403115069404
2016-02-26,-1,-0.00021583644605651221,-5.8062776448807756e-05,-0.004772686229288352,0.011138092604608997,0.9902208037692181
2016-03-01,1,0.0008160795873043971,0.0008427601283341735,-0.004772686229288352,0.011052771763613769,0.9909845127059425
2016-03-03,1,0.0016233559617750849,0.001747196594613303,-0.004772686229288352,0.007384892582052594,0.9914100304773219
2016-03-07,1,0.0013046821028147785,0.0013935461097084017,-0.004772686229288352,0.007384892582052594,0.9914221541261821
2016-03-09,1,0.0009321060517708255,0.0009416616072522544,-0.00416601308110871,0.007384892582052594,0.9916793560047171
2016-03-11,1,0.0015949567566349492,0.0017163708505889142,-0.004583661954939965,0.006426453430035039,0.9918628814966318
2016-03-15,1,0.0019996107471261814,0.002198125522226068,-0.0046351696749133454,0.007425640979618323,0.9913307172663585
2016-03-17,1,0.0030501140426439878,0.003406313335426932,-0.005543695128773202,0.006426453430035039,0.9913976265627138
2016-03-21,1,0.0016116923704163396,0.001762969378293333,-0.0043438282284361425,0.006426453430035039,0.9939033272296455
2016-03-23,1,0.0015021910411977468,0.0016666161753078222,-0.0046351696749133454,0.006426453430035039,0.9927350991757414
2016-03-28,1,0.0018313964249658124,0.0020286230216409215,-0.0046351696749133454,0.0071680575374409704,0.9924554875721454
2016-03-30,1,0.0021166888296615385,0.002357637807768525,-0.0046351696749133454,0.006426453430035039,0.9930079579950403
2016-04-01,1,0.002132245126169169,0.002371321795539296,-0.006520495901319782,0.006259504328373996,0.9925326515145743
2016-04-05,1,0.0007927110876229095,0.0008248967180093398,-0.005520607154612949,0.0071680575374409704,0.9924597678319002
2016-04-07,1,0.0009862751654685586,0.0010094892321935649,-0.005520607154612949,0.009481626573607214,0.9911435706655142
2016-04-11,1,0.0004897395347429843,0.0005644514197530473,-0.00480110597510148,0.01021046529438295,0.9906889342070812
2016-04-13,1,0.0008673425770484677,0.0008761825652382012,-0.006520495901319782,0.009961132037707954,0.9905426458616691
2016-04-15,1,0.001155110804555368,0.0012175111846744417,-0.006599397177039336,0.009430459821661828,0.9904144322026615
2016-04-19,1,0.0011112408998840643,0.0011616865060327308,-0.009433779072537587,0.009430459821661828,0.9891766876791368
2016-04-21,-1,-0.00014455416080333178,-3.7274682908191865e-05,-0.006599397177039336,0.009430459821661828,0.9899325535033847
2016-04-25,1,0.0005169493074377708,0.0005484535158185155,-0.006599397177039336,0.009403243624545123,0.9903198830669059
2016-04-27,1,0.00045730595590570553,0.000521835432706263,-0.007547910175053528,0.010119211157755565,0.9898100836869527
2016-04-29,-1,-0.00042642109551615354,-0.00023439256977428866,-0.004085181904825146,0.010119211157755565,0.9899424205806908
2016-05-03,1,6.48627662225663e-05,0.0002097320102438917,-0.007405325356234509,0.009403243624545123,0.9903504223717043
2016-05-05,1,0.0009227094198705918,0.000986163248773276,-0.007405325356234509,0.00937863813196197,0.9912590361945464
2016-05-09,1,0.00163190269242956,0.001667592068744244,-0.007810600084065523,0.007270494366231952,0.991700857584342
2016-05-11,1,0.0014700977981860024,0.0015435262424150923,-0.007405325356234509,0.00937863813196197,0.9916988096593373
2016-05-13,1,0.0009904960919316728,0.0010088080490805932,-0.004270543931611074,0.008052005890324739,0.9924190218851958
2016-05-17,1,0.0004973836289930312,0.0005636162557387652,-0.003080996531185634,0.007857006841267026,0.9935128033793974
2016-05-19,0,-1.4183055212086716e-05,0.00010180058863246496,-0.003080996531185634,0.007857006841267026,0.993838390645527
2016-05-23,1,0.0004024713094267589,0.00045160167457447586,-0.0020407410549538848,0.006477871202052921,0.9944820070953473
2016-05-25,1,0.0001700114552355009,0.00027345418023438337,-0.0020407410549538848,0.005952681850078464,0.9947737972971642
2016-05-27,1,0.0006421617805831738,0.0006734737830280361,-0.003969151472706731,0.005952681850078464,0.9946786971839436
2016-06-01,1,0.0003694551767391736,0.00044867123091944924,-0.0020407410549538848,0.007229955892551758,0.9929620223193474
2016-06-03,1,0.0007322531704368334,0.0007768828310603982,-0.0020407410549538848,0.007280091221044867,0.9932076052259756
2016-06-07,1,1.876611948788549e-05,0.00017656207200768764,-0.0020407410549538848,0.01040050992980868,0.9925440626801119
2016-06-09,1,0.0007715832939651595,0.0008363528184906863,-0.003969151472706731,0.0059862060275599725,0.9928519091614598
2016-06-13,1,0.0008166278816395874,0.0008621187625863616,-0.006224391380210438,0.0059862060275599725,0.9915083049608905
2016-06-15,1,0.0011135633914770063,0.0011379207053785142,-0.006732179158463521,0.007280091221044867,0.9908920971569498
2016-06-17,1,0.0010841259178742378,0.0011385639706439962,-0.006291595668568916,0.007280091221044867,0.9911408870705146
2016-06-21,1,0.0008370676558302416,0.0008414045273852826,-0.006291595668568916,0.007280091221044867,0.990833425516918
2016-06-23,1,0.0013305565928111971,0.0014579614643095932,-0.0040878644400620485,0.007280091221044867,0.9912985597933008
2016-06-27,1,0.0012396251915322942,0.0013466688658563528,-0.004301929891718729,0.007013864318277911,0.9913582256073452
2016-06-29,1,0.002245876058659684,0.002433697531341765,-0.004301929891718729,0.0057971700761205915,0.9925901452707111
2016-07-01,1,0.0023364029937216167,0.002524420369387701,-0.004301929891718729,0.0057971700761205915,0.9921713673984
2016-07-06,1,0.002129560272858218,0.0022517199590610434,-0.007607390580031675,0.005111580362024434,0.9918383701766154
2016-07-08,1,0.00196325017632496,0.002078660288587339,-0.0043568061561783545,0.004698606152114395,0.9922205750764421
2016-07-12,1,0.0007910429039388915,0.0008426979641349013,-0.003534547893135213,0.004698606152114395,0.9936444573182655
2016-07-14,1,0.0007289345290373693,0.0007869350229012084,-0.003534547893135213,0.0035440222275767612,0.9934835008814227
2016-07-18,1,0.0003984510531175533,0.0005051329773459576,-0.005232759278518229,0.0035440222275767612,0.9932002343088611
2016-07-20,1,0.00047806628349100576,0.0005757299945485249,-0.006320306196892176,0.0035440222275767612,0.9923204699492887
2016-07-22,1,0.0011694899326611912,0.0011986090097883633,-0.00685590054567616,0.001724515018016338,0.9920099530103204
2016-07-26,1,0.001051480051385396,0.0010907693347842742,-0.006221174018325075,0.0035440222275767612,0.9919408061522773
2016-07-28,1,0.0013515851548868453,0.0014044577869998288,-0.006221174018325075,0.0035440222275767612,0.9926212986273127
2016-08-01,1,0.0019109207982258517,0.002028223783418312,-0.006937895779546704,0.001724515018016338,0.9925267700203074
2016-08-03,1,0.0012901639626349958,0.0013529665141641192,-0.005232759278518229,0.003577358251431529,0.9938724419448878
2016-08-05,1,0.00118213367225278,0.0012445626403417877,-0.005328673345020153,0.004620542656832108,0.9934262469723608
2016-08-09,1,0.001677348314602915,0.0018631931671386154,-0.005328673345020153,0.005282424372746226,0.99332942297386
2016-08-11,1,4.452380525471852e-05,0.00015897724708682467,-0.006221174018325075,0.005282424372746226,0.9917308874415429
2016-08-15,-1,-0.0007656583678304569,-0.0005372674469180023,-0.006937895779546704,0.006119154182043559,0.9901223423446964
2016-08-17,-1,-0.0006251277508280074,-0.0004428361743251091,-0.005507204794614815,0.005455888837626212,0.9908984064715457
2016-08-19,-1,-0.0007422060045507274,-0.0005614755050569677,-0.004457747858153388,0.006461416925894851,0.9907997738983607
2016-08-23,-1,-0.0005826157591961333,-0.000423452116729329,-0.003315198616000087,0.006461416925894851,0.9907496758946285
2016-08-25,-1,-0.0006839017315577018,-0.0004903352438199709,-0.003315198616000087,0.008371977298120259,0.9900759307515059
2016-08-29,-1,-0.0007978392376519702,-0.0005810107425396665,-0.003315198616000087,0.006461416925894851,0.9902401428865377
2016-08-31,-1,-0.0007694181486373877,-0.0005549932354993362,-0.006585647867849485,0.008369042022198115,0.9891967956469947
2016-09-02,-1,-0.00045400635860492046,-0.0002861910032001964,-0.011933618229811468,0.006461416925894851,0.9885652912179516
2016-09-07,0,-0.00011248048350676054,1.570180390541811e-05,-0.015524689530349,0.006461416925894851,0.9876687808946903
2016-09-09,-1,-0.00240032886624198,-0.0020044475044793545,-0.008628525938759866,0.006461416925894851,0.9901082051799941
2016-09-13,-1,-0.003831259044852705,-0.003200809941996062,-0.008628525938759866,0.006461416925894851,0.9909310894568084
2016-09-15,-1,-0.0032275749442884495,-0.002706717890318747,-0.008628525938759866,0.008343678443618866,0.9906644055028011
2016-09-19,-1,-0.0027678035158213896,-0.002317283404790988,-0.008628525938759866,0.005125448190163201,0.9913002275143363
2016-09-21,-1,-0.0028292183229559308,-0.002342281401500776,-0.008628525938759866,0.0033966492841161987,0.9918092964559472
2016-09-23,-1,-0.0016537503981582814,-0.001338672645017132,-0.008628525938759866,0.0025419485925483403,0.992698065020131
2016-09-27,-1,-0.001208848934762093,-0.0010110052547781822,-0.0069104471024337725,0.0033966492841161987,0.9926776150399423
2016-09-29,-1,-0.0010923224073026365,-0.0009467941181247777,-0.008806784084613984,0.0025419485925483403,0.9921413430753901
2016-10-03,-1,-0.002630246764224676,-0.002274019286719122,-0.0069104471024337725,0.003921254232749773,0.9926240070707969
2016-10-05,-1,-0.0037296546712258347,-0.0032402776523466153,-0.007902710155383848,0.003921254232749773,0.9916153462172154
2016-10-07,-1,-0.003695488480232071,-0.0031861861757619676,-0.007902710155383848,0.004468645636982561,0.9916160316921516
2016-10-11,-1,-0.003965929759732874,-0.003400448340748342,-0.004573628540940199,0.004468645636982561,0.9916019118136151
2016-10-13,-1,-0.00317856247664467,-0.00272392372237412,-0.008482738369931056,0.0038447751895297616,0.9914415901743977
2016-10-17,-1,-0.0032752829875325054,-0.0028185376089798885,-0.008482738369931056,0.005624402438866073,0.989975520202278
2016-10-19,-1,-0.0023283720372085223,-0.002015106940493059,-0.014466244772540892,0.005624402438866073,0.9881811153058674
2016-10-21,-1,-0.0024506964534322852,-0.002120381886304765,-0.02167014294836383,0.007614162866284916,0.9868476894755549
2016-10-25,-1,-0.002197345887761485,-0.0019180528991975636,-0.02167014294836383,0.009468132398315851,0.9864999931919864
2016-10-27,-1,-0.003224167411383535,-0.0028189938459236633,-0.010864809738406067,0.009468132398315851,0.9878697368760513
2016-10-31,-1,-0.0022769916570813432,-0.0020144784624487335,-0.010864809738406067,0.007614162866284916,0.9887838304335387
2016-11-02,-1,-0.003395638249210368,-0.0030015718488083723,-0.004621999327910571,0.007614162866284916,0.9895407938395219
2016-11-04,-1,-0.003060005292417186,-0.0027131062952162653,-0.004621999327910571,0.0051950852342120555,0.9896262298141
2016-11-08,-1,-0.0027410324974886688,-0.002424120372501941,-0.004621999327910571,0.0051950852342120555,0.9895774130482764
2016-11-10,-1,-0.0034060539356861796,-0.003016961120011751,-0.0009342765969269854,0.006451517377474972,0.9897920587256482
2016-11-14,-1,-0.002763421661977819,-0.002450462104797494,-0.0017185295737042524,0.004998194206722342,0.9902369982671525
2016-11-16,-1,-0.0039002950202842264,-0.0034591177372918216,-0.0046303588834366635,0.004998194206722342,0.9907135962460278
2016-11-18,-1,-0.003128513886088662,-0.0028429555617855554,-0.001606515326405883,0.00653653293692519,0.9908796064536477
2016-11-22,-1,-0.0023875141850411086,-0.002205720380679054,-0.0046303588834366635,0.004998194206722342,0.9912679071567412
2016-11-25,-1,-0.0021802338143425298,-0.002040880321202766,-0.002501628447701601,0.005032828515831002,0.9909701459829479
2016-11-29,-1,-0.0020027720857998836,-0.0018816786896856414,-0.007514574783290229,0.005032828515831002,0.9909888651887592
2016-12-01,-1,-0.002961755145092791,-0.0027056812169244052,-0.002384841069895943,0.00902932536243443,0.9897510909093272
2016-12-05,-1,-0.002558309940794916,-0.0023572410162739236,-0.0024815448799883387,0.01446977311422298,0.9895551225160688
2016-12-07,-1,-0.0019449404244280264,-0.0018154227723452174,-0.0024815448799883387,0.00902932536243443,0.9904325648217184
2016-12-09,-1,-0.0014887645787539261,-0.0014259456574917434,-0.008355164674372995,0.00902932536243443,0.9901767213497549
2016-12-13,-1,-0.0008860961397199163,-0.0008599287869845881,-0.00794858088060365,0.008543435237425324,0.9907463932362195
2016-12-15,-1,-0.0016528601578724975,-0.0015809003972158519,-0.003196650846780387,0.012032729390284262,0.9911450457640327
2016-12-19,-1,-0.0005336930801132416,-0.00043521269249431664,-0.00794858088060365,0.006475917642451271,0.991889725214215
2016-12-21,-1,-0.000496048117338923,-0.00035571678523672607,-0.003196650846780387,0.012121203448742271,0.991228858363159
2016-12-23,-1,-0.0005093510096009877,-0.00039938304413209973,-0.00794858088060365,0.012121203448742271,0.9907959250470977
2016-12-28,-1,-0.0006669517937951821,-0.0005779550900419112,-0.006507331002223098,0.012121203448742271,0.9907729245706629
2016-12-30,1,0.00026614937788538946,0.0004830540650733044,-0.007291841438364886,0.011491224791870465,0.9915824814994059
2017-01-04,1,0.0004899730450627757,0.0007086023752937169,-0.00794858088060365,0.011396094283495396,0.9911055777469776
2017-01-06,1,0.0005549737809352126,0.0007705703339159777,-0.00794858088060365,0.011396094283495396,0.9910287826442318
2017-01-10,1,4.396305326399781e-05,0.00018952832919240614,-0.007291841438364886,0.011396094283495396,0.9911981815394046
2017-01-12,1,0.00017700502707256103,0.00033539459760937137,-0.006414913926290172,0.011396094283495396,0.991323441912485
2017-01-17,1,0.0005826815613813038,0.0008043791647038273,-0.0075100144838824955,0.010836794229189754,0.9912290969921118
2017-01-19,1,0.00048500507152132537,0.0007080451038783291,-0.0075100144838824955,0.010836794229189754,0.991397918664322
2017-01-23,1,0.0013386430077690788,0.0016804096557437576,-0.0075100144838824955,0.006794485293008531,0.9922487668412666
2017-01-25,1,0.001155596378807461,0.001479098010754923,-0.007118250483441401,0.010732656530262723,0.9920045014485015
2017-01-27,1,0.0010988623730547725,0.0014285653255508705,-0.007118250483441401,0.010732656530262723,0.9922228702754494
2017-01-31,1,0.0014896933770747434,0.0018968799211246561,-0.009468834530153548,0.008042432428194852,0.9908076172940175
2017-02-02,1,0.0007427844681049066,0.0009661311034400311,-0.009468834530153548,0.008041000562390047,0.9904243231579328
2017-02-06,1,0.0007747516353922478,0.0009846934952800332,-0.01417344866519021,0.008041000562390047,0.9890889957870261
2017-02-08,1,0.000961014537915656,0.0012063079354230435,-0.01588762552510944,0.005915902975026758,0.987855259140924
2017-02-10,1,0.0015757597130183461,0.001917335392460169,-0.01588762552510944,0.004823878341413227,0.9873628781914853
2017-02-14,1,0.0013405199054054764,0.0016670121591011394,-0.014823903717958425,0.01072836093284831,0.9862038202733528
2017-02-16,1,0.001548504362858288,0.001944279109813018,-0.014823903717958425,0.01072836093284831,0.9865205939654274
2017-02-21,1,0.0018782393032206832,0.0023060528409786993,-0.014823903717958425,0.008041000562390047,0.9866594064082616
2017-02-23,1,0.002018629946669984,0.002455335442706431,-0.014823903717958425,0.008041000562390047,0.9866744782764947
2017-02-27,1,0.001903065135126711,0.002276547604930544,-0.014823903717958425,0.007519199210131286,0.9861613243657407
2017-03-01,1,0.0003409835642695995,0.00046332157569435595,-0.010790353955519376,0.007519199210131286,0.9887898194597841
2017-03-03,1,0.0002472873869631642,0.0003697915519240049,-0.006866911342518468,0.0035358301672533217,0.9902211616595638
2017-03-07,-1,-0.0004535054118569728,-0.0004222692332842232,-0.004644164059435876,0.0035358301672533217,0.9917128443687656
2017-03-09,-1,-0.0013253988975103605,-0.001270020750834028,-0.0026127540310785006,0.0035358301672533217,0.993729496471884
2017-03-13,-1,-0.0009391099945460502,-0.0009245521844749058,-0.00228330317253877,0.0035358301672533217,0.994265533875078
2017-03-15,1,0.00034903254037441203,0.0005051032299198321,-0.00228330317253877,0.002201861204644841,0.9960588757742144
2017-03-17,1,0.0004270336392008068,0.0005909930610277248,-0.0021322504764621384,0.002201861204644841,0.9961701946179258
2017-03-21,1,0.00040268311813134805,0.0005649107070797934,-0.0018035081160888472,0.0037454009156594756,0.9959477679635405
2017-03-23,1,0.00013061126151605253,0.00019548273956027364,-0.0018035081160888472,0.0025775640925354295,0.9960910321424471
2017-03-27,1,0.00012488738749944238,0.00022507180030845164,-0.001547648615240612,0.0025775640925354295,0.9950159996752405
2017-03-29,-1,-0.0005382776073028393,-0.0004835217778705908,-0.0019819796517204164,0.002221023398798529,0.9943063503593366
2017-03-31,-1,-0.0004087769186565365,-0.0003807508777814749,-0.003053055864339418,0.0032820731232283996,0.9935858260463009
2017-04-04,-1,-0.00016659467533853718,-0.00014100165286482514,-0.005226340738591857,0.005686468260355196,0.9922458557287881
2017-04-06,-1,-0.0008606992246425671,-0.0007582857171157232,-0.009394577523869614,0.005686468260355196,0.9919459771344176
2017-04-10,-1,-6.2618955074914e-05,-2.446242984501464e-05,-0.0117617974670246,0.0032820731232283996,0.9914813054935968
2017-04-12,-1,-0.0006834698511855449,-0.0005655915607547166,-0.011766660338310357,0.0032820731232283996,0.9904670239283391
2017-04-17,-1,-0.0007384783071248445,-0.0005875600756251617,-0.014811790174373842,0.0029644214834569412,0.9895093482069865
2017-04-19,0,-2.3016499940065174e-05,1.8320215607285607e-05,-0.01694364653846329,0.002426969608485656,0.9871370555095094
2017-04-21,-1,-0.0008076422175493947,-0.0006655513681046972,-0.01694364653846329,0.0042701855486097446,0.9876719601588042
2017-04-25,-1,-0.0022008813752259736,-0.0019035986301511702,-0.012405434935521192,0.0042701855486097446,0.9890480269939556
2017-04-27,-1,-0.0035978770124868737,-0.003094489934069391,-0.010959679054073718,0.006913010294985672,0.9879390295131555
2017-05-01,-1,-0.0036087324467787203,-0.0031216349041267703,-0.012620967507978139,0.006913010294985672,0.9876505226513306
2017-05-03,-1,-0.003433550285564897,-0.003003874866023334,-0.009396198480964867,0.004582923749946639,0.9885444038264077
2017-05-05,-1,-0.00343406208240547,-0.003024309347223928,-0.011137538303530774,0.004582923749946639,0.9885138142857178
2017-05-09,-1,-0.0037787844302652985,-0.0033580745973349384,-0.008502973818644708,0.010159028131001816,0.9874305729339851
2017-05-11,-1,-0.003934320022228317,-0.0034362521822062907,-0.006143567351739838,0.008437316757645278,0.9883467829917338
2017-05-15,-1,-0.0040121142329994745,-0.0035641558423839073,-0.0017768521310337262,0.010781694323554835,0.9880903410827366
2017-05-17,-1,-0.004816041070109892,-0.004241776305525231,-0.0017768521310337262,0.00899829072563593,0.9896974903419354
2017-05-19,-1,-0.0043076417133505185,-0.0038107417539917526,-0.006616156467506104,0.00899829072563593,0.9880857826564738
2017-05-23,-1,-0.004349933792441585,-0.0038302905155271475,-0.00771269847459214,0.00899829072563593,0.9880522287608183
2017-05-25,-1,-0.002073186226847066,-0.001893386664501901,-0.00771269847459214,0.00899829072563593,0.9887782397435092
2017-05-30,-1,-0.002850574289248448,-0.002618331217068487,-0.005788135802106388,0.010071367983739008,0.9885216828478337
2017-06-01,-1,-0.002326298340668026,-0.0021699133508999682,-0.005788135802106388,0.01319938839766572,0.9883152521297545
2017-06-05,-1,-0.003303169866042932,-0.002988307051129727,-0.0054565577848408806,0.014097445364090704,0.9874408611455486
2017-06-07,-1,-0.0015643433206359064,-0.0014666246332833005,-0.006646403825691791,0.010071367983739008,0.9880583118487242
2017-06-09,-1,-0.0009862548655636407,-0.000982581784473162,-0.009603587668493662,0.011419331592464903,0.9874619041463248
2017-06-13,-1,-0.00014893877550636644,-6.539956465901448e-05,-0.009603587668493662,0.011237406451041331,0.9880656971355976
2017-06-15,1,0.0007196554511907334,0.0009965853337298288,-0.009603587668493662,0.012559747660090426,0.9878114011471105
2017-06-19,-1,-0.0019129680098780538,-0.0018299352171383676,-0.005534198860914539,0.012559747660090426,0.9897640631772534
2017-06-21,-1,-0.0021709653008773677,-0.002042371688319726,-0.003368661305421487,0.01319938839766572,0.9893767956231961
2017-06-23,-1,-0.0010581591219709415,-0.0010396391611734376,-0.0044891312698187545,0.012653612973395005,0.9903685522372774
2017-06-27,-1,-0.0001787339657402891,-4.7755409881301445e-05,-0.0044891312698187545,0.012109698193623003,0.9907304491222129
2017-06-29,1,0.000501305926578926,0.0007413445000789842,-0.005534198860914539,0.012109698193623003,0.9898082141977405
2017-07-03,1,0.0011977704552153955,0.0015393456156502546,-0.0046247884498957755,0.012109698193623003,0.9903481669659501
2017-07-06,1,0.0003837555281116582,0.0006668065388832836,-0.0015347444871916817,0.012109698193623003,0.9909792847218821
2017-07-10,1,1.3011317620496149e-05,0.00021307939496527416,-5.041714221105779e-05,0.012109698193623003,0.9916145811124616
2017-07-12,1,0.000441609095411739,0.0006830460368618595,-0.0006368330176244785,0.00980992882572108,0.992058722682926
2017-07-14,1,0.0017828099919392692,0.0022425906300910124,-0.0046247884498957755,0.009032415603765524,0.9916742786850957
2017-07-18,1,0.002070354127707747,0.002590367134008108,-0.004822104824086848,0.00980992882572108,0.9909983561906504
2017-07-20,1,0.003002117096914396,0.0036753847082213837,-0.004822104824086848,0.009032415603765524,0.991066626696567
2017-07-24,1,0.0019657848305446018,0.0023901571356979524,-0.0075352044975209274,0.00980992882572108,0.9904024760353867
2017-07-26,1,0.0026904769100040467,0.0031899863520766097,-0.0075352044975209274,0.007782094735538099,0.9905616663624504
2017-07-28,1,0.002344478522988272,0.002722462014906851,-0.006986379960023239,0.007390910790321224,0.9917214483947577
2017-08-01,1,0.0020966537246708754,0.0023321438759215532,-0.010723664253817908,0.0071407244222279,0.9904602489645393
2017-08-03,1,0.0015750004591374663,0.001769928705207742,-0.008303036683860966,0.007390910790321224,0.9910642102885376
2017-08-07,1,0.002971064739716028,0.0034698459042966315,-0.008303036683860966,0.0071407244222279,0.9911095433995728
2017-08-09,1,0.0030819867145934136,0.0036003684634869186,-0.008303036683860966,0.0071407244222279,0.9913678842821498
2017-08-11,1,0.0019112733787705403,0.002266785983084897,-0.008207644902145088,0.007390910790321224,0.9918413401070705
2017-08-15,1,0.0020677812169750355,0.0024650417893154024,-0.008207644902145088,0.0071407244222279,0.9918588273857146
2017-08-17,1,0.00198201308512955,0.002337599730920117,-0.008207644902145088,0.007390910790321224,0.9905724638870587
2017-08-21,1,0.0021381171700593235,0.002515836712011754,-0.008207644902145088,0.00603570569042433,0.9903053699540265
2017-08-23,1,0.002271890963651224,0.00266462632179812,-0.01056338684699098,0.00435760254199064,0.9897600620645816
2017-08-25,1,0.0022555566155230793,0.0026449032210143853,-0.01056338684699098,0.00435760254199064,0.9898028449598313
2017-08-29,1,0.0006809483534146092,0.0008509644319230288,-0.00802137832376216,0.005672572718210321,0.9907692843627857
2017-08-31,1,0.001538522919937568,0.0018480528215430124,-0.00802137832376216,0.004794003643456558,0.9909504496915504
2017-09-05,1,0.0019197041000609686,0.0023057402582264235,-0.00802137832376216,0.004513256434651261,0.9910852560377164
2017-09-07,1,0.00229705313706892,0.002752587178488095,-0.00802137832376216,0.004869551920441151,0.9907824670697133
2017-09-11,1,0.002682403138678192,0.0032143124630563636,-0.008798961693061696,0.0047189924572912266,0.9909516779084165
2017-09-13,1,0.0015809689833274473,0.001933778238432243,-0.007260623470774011,0.005486132303998246,0.9914807986944906
2017-09-15,1,0.0016851381845861292,0.0019652554939668435,-0.0054810690216610634,0.005486132303998246,0.9928056545392532
2017-09-19,1,0.0003080265538756933,0.00035768583426125253,-0.003477558421512212,0.006388175006131793,0.9927023151387571
2017-09-21,-1,-0.0005464172039695301,-0.0004782397507121011,-0.004659828449799581,0.006388175006131793,0.9927620246457485
2017-09-25,-1,-0.0004639656833637001,-0.0003929549625492808,-0.004925267213316934,0.005486132303998246,0.9928725400810884
2017-09-27,-1,-0.0012766801665960446,-0.0010954304979601272,-0.005891355156532363,0.005309844077992376,0.9934458509724249
2017-09-29,-1,-0.0016446497359721868,-0.0013808360454454433,-0.006167957292541523,0.005309844077992376,0.9931833463411995
2017-10-03,-1,-0.0011046777110723422,-0.0009284446423267112,-0.006790888927468442,0.005309844077992376,0.9929442688697525
2017-10-05,-1,-0.0011913046561392174,-0.000957961824388105,-0.006790888927468442,0.006326517607566754,0.9905828817462546
2017-10-09,-1,-0.0016745234926612259,-0.0013730305460176668,-0.006790888927468442,0.006326517607566754,0.990505984973879
2017-10-11,-1,-0.0007721733226725533,-0.0005861836542990118,-0.006790888927468442,0.008061435288847505,0.9902902722693713
2017-10-13,-1,-0.00032081058044185966,-0.00018940273583093218,-0.006790888927468442,0.007875190018616342,0.9903305409475743
2017-10-17,1,0.0005033983734238265,0.0005233468739913975,-0.006167957292541523,0.007875190018616342,0.9904606011454371
2017-10-19,-1,-0.0006280396110338788,-0.00045832518982708866,-0.006167957292541523,0.007875190018616342,0.9906824170921379
2017-10-23,-1,-0.000990580447358572,-0.0007841867331620516,-0.004849344497057993,0.007875190018616342,0.9910066583236633
2017-10-25,-1,-0.0018328259077708736,-0.0015035396873844462,-0.003452673370764233,0.008693705916519155,0.9908134823696311
2017-10-27,-1,-0.001365745090682139,-0.0011507516497478443,-0.003452673370764233,0.008693705916519155,0.9910358284647537
2017-10-31,-1,-0.0018898744407299447,-0.0016201108243622056,-0.0009645195401216937,0.008693705916519155,0.9908901475407635
2017-11-02,1,0.0008870140533838971,0.0009994810837765417,-0.002246975874865451,0.007859860661414246,0.9944907842638415
2017-11-06,1,0.0003653742406232321,0.0004138614510877407,-0.002246975874865451,0.008064257161184762,0.9943749487178275
2017-11-08,0,-0.00012106724196150545,1.5387751512167987e-07,-0.002874543499803559,0.006357699156294274,0.9950630446554655
2017-11-10,1,4.4407565404387585e-05,0.00015744466875737876,-0.002874543499803559,0.004223129593262337,0.9954410111512246
2017-11-14,1,0.0005630141276852145,0.000587585866466686,-0.002246975874865451,0.004223129593262337,0.995504153626355
2017-11-16,1,0.0010212347356114524,0.0010908848291576144,-0.002246975874865451,0.006782792548532865,0.9951536676045943
2017-11-20,1,0.0011123680392524794,0.00121175234779809,-0.002246975874865451,0.006782792548532865,0.9942317168555137
2017-11-22,1,0.0015161835172230907,0.001691864916143529,-0.0048565108421729924,0.005564063536154791,0.9938591900178395
2017-11-27,1,0.0007210326598075461,0.0007229229656677636,-0.003235172500647352,0.006782792548532865,0.9933457867982887
2017-11-29,1,0.0008270102446493173,0.0008311275347447605,-0.003235172500647352,0.005946331399135928,0.9933471079809779
2017-12-01,1,0.0009588621656406119,0.0009991893181898284,-0.00373244703232894,0.005946331399135928,0.9933145338808612
2017-12-05,1,0.001119905068147035,0.0012223615507454576,-0.005078225678342245,0.0057693861925082945,0.9923182520439847
2017-12-07,1,0.000917169283710148,0.000990833006830441,-0.00373244703232894,0.005946331399135928,0.9922274881468454
2017-12-11,1,0.0012543084423257147,0.0013985063246799473,-0.007409155692909631,0.005946331399135928,0.9908285937994618
2017-12-13,1,0.0016579088008125593,0.0018467711382696265,-0.009960300546056637,0.0057693861925082945,0.9903659576045687
2017-12-15,1,0.0025539955288612155,0.002901088040323135,-0.009960300546056637,0.005404490205571825,0.9902291423680869
2017-12-19,1,0.0021363844391510648,0.0024415984135281277,-0.008592631093637677,0.005343043762271546,0.9909411605059284
2017-12-21,1,0.00181448583455686,0.002111183598089443,-0.007409155692909631,0.0057693861925082945,0.9917240204661768
