JNU-Tangyin/eata/results/Batch4_SP500/Batch4_SP500-WY.csv
Date,Action,Predicted_Q25,Predicted_Q75,Actual_Q25,Actual_Q75,RL_Reward
2010-12-14,1,0.0,0.003928153744805276,-0.0014494595118236789,0.01630431832642781,0.9895146575607083
2010-12-16,1,0.004508976486076091,0.005155061103793504,-0.0014494595118236789,0.01630431832642781,0.9892118786502597
2010-12-20,1,0.004893903854016739,0.005511751863352957,-0.002920619686461783,0.014158437911804121,0.9889193071532237
2010-12-22,1,0.005235173470492039,0.005960404594051949,-0.0014494595118236789,0.016868275297214193,0.9875050160328012
2010-12-27,1,0.0065398529714329415,0.007524107184583687,-0.0014494595118236789,0.016868275297214193,0.9876573361234688
2010-12-29,1,0.006634157912960596,0.007575549943078736,-0.003709757649902898,0.016868275297214193,0.9869982396304998
2010-12-31,1,0.006432510208072174,0.007352814041461313,-0.007056137582461455,0.020531892871496704,0.9859595662637727
2011-01-04,1,0.006593588606015763,0.007407213918131922,-0.007056137582461455,0.020531892871496704,0.9864494335439333
2011-01-06,1,0.007060157113809987,0.007890289542206441,-0.0015296185259762165,0.020531892871496704,0.9869870382732225
2011-01-10,1,0.009160813657815202,0.010339300071119417,-0.007979665109589284,0.020531892871496704,0.9857852537708404
2011-01-12,1,0.009509693112172354,0.010625044261277791,-0.007979665109589284,0.01826808534759535,0.9857064701984647
2011-01-14,1,0.00828092426996233,0.009106294838942042,-0.00889215909739411,0.019878155285510752,0.9851010827429364
2011-01-19,1,0.0071972686763301765,0.007861842168477788,-0.001539304833715106,0.019878155285510752,0.9862033355099721
2011-01-21,1,0.009219189901722515,0.010145437660907964,-0.0018478269162385747,0.017395236548257826,0.9872490174438087
2011-01-25,1,0.010888348677495257,0.012151692886858186,-0.013716678181268174,0.017395236548257826,0.982757021754991
2011-01-27,0,0.0,0.0,-0.013716678181268174,0.017395236548257826,0.9840039484121748
2011-01-31,0,0.0,0.0,-0.013716678181268174,0.016306312704033356,0.9833063308718377
2011-02-02,0,0.0,0.0,-0.003670643135233017,0.016306312704033356,0.9838918876750505
2011-02-04,0,0.0,0.0,-0.015899629102078358,0.011859368458751164,0.9838339570475336
2011-02-08,1,0.007311411155803714,0.007966271982098504,-0.010989254035135813,0.009666956612598749,0.9864298460207308
2011-02-10,1,0.006905590578164696,0.007451221891859179,-0.015899629102078358,0.009666956612598749,0.9829172961785712
2011-02-14,1,0.005535381404834025,0.006021123505377624,-0.012206310596282102,0.009666956612598749,0.9836640480139088
2011-02-16,1,0.005625020455173883,0.006156886696136123,-0.02026244481556951,0.01137343194703122,0.9817797664405685
2011-02-18,1,0.005394749581892522,0.005881812451010718,-0.02026244481556951,0.014664425213900413,0.9810085045335967
2011-02-23,1,0.003452016613854277,0.0036013816015989346,-0.012917956626334387,0.014664425213900413,0.9828488448849559
2011-02-25,1,0.0041492770182323824,0.004380417125981995,-0.012917956626334387,0.010601975530981831,0.9827911185289494
2011-03-01,1,0.0029780118370874805,0.0030785797384053942,-0.007643620934816373,0.010601975530981831,0.9849473679586837
2011-03-03,1,0.0038288271503836247,0.003999193479513731,-0.007643620934816373,0.008802054429798582,0.9856200100696642
2011-03-07,1,0.0026980191424209143,0.0027210493380885052,-0.005125588943869029,0.010601975530981831,0.9862985926302599
2011-03-09,1,0.002965680979576519,0.002991697415815885,-0.0085750629016591,0.009994225486864794,0.984700197746565
2011-03-11,1,0.0032772314407256363,0.003300502508666031,-0.0085750629016591,0.008343120307894952,0.9876278766854664
2011-03-15,1,0.0032573772636888985,0.0032599491376850446,-0.020524914740377126,0.004223125233576798,0.9861187314015752
2011-03-17,1,0.0022844194133371147,0.002359239863577292,-0.014698360895246758,0.0027257929962505156,0.9882523620077208
2011-03-21,1,0.0028742583598502553,0.0028832113055486833,-0.020524914740377126,0.0009749957122101769,0.9872251633616929
2011-03-23,1,0.0013690652172786964,0.0015837383872367764,-0.014698360895246758,0.008343120307894952,0.987993475627334
2011-03-25,1,0.0011275216911372406,0.00131214599252202,-0.014698360895246758,0.008343120307894952,0.9885495014358117
2011-03-29,1,0.0016415169937674732,0.0017723853375865273,-0.014698360895246758,0.009626892971426644,0.9868569111132427
2011-03-31,1,0.0021038981467582777,0.0021085851368506142,-0.020524914740377126,0.012037594200628436,0.984346544751367
2011-04-04,1,0.0012833555770632053,0.00143202066780385,-0.020524914740377126,0.009626892971426644,0.9847596550979372
2011-04-06,1,0.0008930254948806848,0.0010340390813603699,-0.018446734879836755,0.009626892971426644,0.9856537503393267
2011-04-08,-1,-0.0008448843024025919,-0.00045210767958984706,-0.017121221953126396,0.0111057121632394,0.9865498093311608
2011-04-12,-1,-0.001169760116704918,-0.0007143891110121415,-0.008543993610306997,0.011354012180682542,0.9869359340854555
2011-04-14,-1,-0.001156881241113918,-0.0007084916092743451,-0.007968827613510579,0.011354012180682542,0.9871240962347493
2011-04-18,-1,-0.00252236461556763,-0.0018831942707414487,-0.007968827613510579,0.011354012180682542,0.9869933316096566
2011-04-20,-1,-0.0016549681080869126,-0.0011168388106996218,-0.016943981965865978,0.010947400871681993,0.9862719056198699
2011-04-25,-1,-0.0023866910826910006,-0.0017294418628712772,-0.01728661308184412,0.010947400871681993,0.9855061526085449
2011-04-27,0,-0.000334547943028139,1.2478245512648309e-05,-0.01728661308184412,0.010246942948019117,0.9865220631727775
2011-04-29,-1,-0.0017156794652692616,-0.0012139676357753439,-0.01728661308184412,0.010246942948019117,0.9861022067082882
2011-05-03,-1,-0.002159534395258895,-0.0015370434163361267,-0.017542505959489516,0.010947400871681993,0.9836568764300898
2011-05-05,-1,-0.0024573911793323872,-0.0018446066168791308,-0.017542505959489516,0.010947400871681993,0.9840464978065698
2011-05-09,-1,-0.00205876821990327,-0.001497952461639478,-0.017542505959489516,0.011493111300019749,0.9816791800081246
2011-05-11,-1,-0.002781360562042731,-0.0021776486621015068,-0.017542505959489516,0.010627120031394778,0.9825461605205413
2011-05-13,-1,-0.0026748590609065185,-0.002113364286671947,-0.018892225377292345,0.010627120031394778,0.9807643699950848
2011-05-17,-1,-0.003559812890891907,-0.002884304353131165,-0.018892225377292345,0.012424150208911239,0.9801644508888306
2011-05-19,-1,-0.003031789985320872,-0.002435189734379502,-0.018892225377292345,0.011717008032182799,0.9814625706030248
2011-05-23,-1,-0.0032605689110106017,-0.002648087435135009,-0.016157836363814352,0.012424150208911239,0.980035025917849
2011-05-25,-1,-0.002777982468825295,-0.0022078415462361387,-0.016157836363814352,0.011717008032182799,0.9808947064168051
2011-05-27,-1,-0.0038075556533813055,-0.0031465649772317895,-0.016157836363814352,0.012309792396380002,0.9822895854079178
2011-06-01,-1,-0.003978068453809758,-0.0033233515522055348,-0.0135486683511855,0.013504939268362917,0.9839489676346648
2011-06-03,-1,-0.002359642299739899,-0.0019596802178247132,-0.0135486683511855,0.01640090402214389,0.9816752501320299
2011-06-07,-1,-0.0014377880907486499,-0.001185067425292009,-0.01057828989142867,0.014895107607728044,0.9843480019872218
2011-06-09,-1,-0.0018757786340563847,-0.0015800354641974017,-0.01057828989142867,0.01576444103994222,0.9834258714775909
2011-06-13,-1,-0.003471569122168809,-0.0029499118567234495,-0.006970434936846275,0.01576444103994222,0.9839216964832773
2011-06-15,-1,-0.002341263564108318,-0.0020440065253894534,-0.006970434936846275,0.014895107607728044,0.9855197436900859
2011-06-17,-1,-0.0020164701783385395,-0.001775551253838691,-0.009897065008189952,0.014895107607728044,0.9857360994173149
2011-06-21,-1,-0.000338636732490012,-0.0003042587689258907,-0.013652019294949884,0.014895107607728044,0.9849264692762145
2011-06-23,-1,-0.000718627165250272,-0.0006543425780905848,-0.013652019294949884,0.014895107607728044,0.9846196183015757
2011-06-27,-1,-0.001183913944922509,-0.0010674490032367642,-0.017895969696303016,0.013643566886598561,0.9830846835351088
2011-06-29,-1,-0.000278671458717336,-0.00027755620040405423,-0.020168547245528287,0.008738456650977767,0.9832338275142645
2011-07-01,0,-8.205242960655887e-06,0.0002398627511396896,-0.020711605279544694,0.005356880027584803,0.9844368791986949
2011-07-06,0,-6.491018635578524e-05,0.00020111705693764287,-0.02162105033204178,0.005964620921099568,0.9829271312377098
2011-07-08,-1,-0.0005400745888498726,-0.0003156466104293832,-0.02454967338822149,0.005227733948759649,0.9820681361664293
2011-07-12,0,-0.0001444854143361231,8.767498501687399e-05,-0.0271408695506358,0.005227733948759649,0.978099202434137
2011-07-14,-1,-0.0004951806289347769,-0.00024967429949278416,-0.03101363534213726,0.005964620921099568,0.9751533739176637
2011-07-18,-1,-0.0014078454858654523,-0.0013807324201036298,-0.03101363534213726,0.007632332453266349,0.9747616497693389
2011-07-20,-1,-0.0007239887811854601,-0.0005627746863924722,-0.03101363534213726,0.005964620921099568,0.9771070301758255
2011-07-22,-1,-0.0007584783388060814,-0.0006529833291181418,-0.035515867823630476,0.0020630551742292446,0.9740984834000533
2011-07-26,-1,-0.002157804086595123,-0.0021286913019058847,-0.029355023833990024,0.003693637856034394,0.9761411506302113
2011-07-28,-1,-0.0031257534492427595,-0.0029284615422722213,-0.029355023833990024,0.010169823473006868,0.9754562252879772
2011-08-01,-1,-0.003303915237457666,-0.0031073171737240274,-0.029355023833990024,0.024831071889335823,0.9725607603933323
2011-08-03,-1,-0.002665153882494003,-0.002574583871780399,-0.021014256298619555,0.024831071889335823,0.9727397822115211
2011-08-05,-1,-0.0042644026950860985,-0.0039646562139189845,-0.021014256298619555,0.024831071889335823,0.9728602690550772
2011-08-09,-1,-0.00503433132506192,-0.004621075266600237,-0.018409889372553702,0.024831071889335823,0.9754003696764177
2011-08-11,-1,-0.0050152750835987265,-0.0046639570773538835,-0.018409889372553702,0.02325471632467117,0.9780536834033583
2011-08-15,-1,-0.004619670993927821,-0.004289859204321153,-0.018409889372553702,0.02202241881896362,0.9790189359422942
2011-08-17,-1,-0.004779112619664373,-0.004424304013263684,-0.018409889372553702,0.024446056897264798,0.9772327129165946
2011-08-19,-1,-0.0066317055697184615,-0.006100080249756034,-0.016480439656916077,0.024446056897264798,0.9789815569071283
2011-08-23,-1,-0.0049806213895265995,-0.004643135585129642,-0.017359845322046978,0.02202241881896362,0.9794189487066315
2011-08-25,0,0.0,0.0,-0.017359845322046978,0.017368700306623824,0.9789829685453971
2011-08-29,0,0.0,0.0,-0.017359845322046978,0.012655957539807682,0.9809111312177955
2011-08-31,0,0.0,0.0,-0.020085479705876104,0.011350766541797673,0.9803051723516414
2011-09-02,0,0.0,0.0,-0.02082782433620692,0.011350766541797673,0.9802466670142769
2011-09-07,0,0.0,0.0,-0.02082782433620692,0.011350766541797673,0.9798126380306325
2011-09-09,0,0.0,0.0,-0.02114825178875691,0.012655957539807682,0.9785354837366229
2011-09-13,0,0.0,0.0,-0.02114825178875691,0.018030906539067373,0.976025619395162
2011-09-15,0,0.0,0.0,-0.02114825178875691,0.01245933571766561,0.9767192479192536
2011-09-19,0,0.0,0.0,-0.02842667203650297,0.014508577189321492,0.9747818639241514
2011-09-21,0,0.0,0.0,-0.02114825178875691,0.02436876387995996,0.9744627420333427
2011-09-23,0,0.0,0.0,-0.01728609242529397,0.026039697573129322,0.9748225615806891
2011-09-27,0,0.0,0.0,-0.02114825178875691,0.027083749757196265,0.9735785634744007
2011-09-29,-1,-0.0019037490910776209,-0.0018401032009494043,-0.01728609242529397,0.03220695227512504,0.9728287756744839
2011-10-03,-1,-0.0034662128951415483,-0.0031995373317536668,-0.01521625916893547,0.03220695227512504,0.9733374465539765
2011-10-05,-1,-0.0018357392204519695,-0.0017481612618321742,-0.016834519005215178,0.027083749757196265,0.9736249802081349
2011-10-07,-1,-0.0018237960749379327,-0.0017183520368866548,-0.01521625916893547,0.02528718005242375,0.9754971392575039
2011-10-11,-1,-0.00016630699653758728,-3.5809402495492104e-05,-0.01521625916893547,0.021284903218200136,0.9779464329241816
2011-10-13,-1,-0.0009143141021088572,-0.0008907862502701434,-0.016834519005215178,0.021284903218200136,0.9761389898105131
2011-10-17,-1,-0.000899900478946626,-0.0008336621951556453,-0.016834519005215178,0.021284903218200136,0.9771837183414143
2011-10-19,-1,-0.0011500861478646823,-0.0011332598456946672,-0.014206305808692183,0.017625439642299415,0.9782230661364276
2011-10-21,-1,-0.0001329990917562573,-2.3345271131658494e-05,-0.0157697564757936,0.015955688876854293,0.9794106218997245
2011-10-25,-1,-0.0003214898856758147,-0.00022314462394124675,-0.0157697564757936,0.013639771731369882,0.9804292158005085
2011-10-27,1,0.0018826980679853996,0.0023370193863845538,-0.016752543992727104,0.01007554727775393,0.9820317213900714
2011-10-31,1,0.0014066358667841048,0.001758812973532649,-0.015525163523183064,0.01007554727775393,0.9827476462487466
2011-11-02,1,6.188155525004095e-05,0.00017317624079408078,-0.013634117017103813,0.013639771731369882,0.982780289141453
2011-11-04,1,0.00018359846513349746,0.00031079673994003916,-0.011023948281651113,0.013639771731369882,0.983341503420085
2011-11-08,1,0.0008342302804174046,0.0010742361497756664,-0.011023948281651113,0.01114472116012915,0.9838385878083136
2011-11-10,1,4.1165155454716065e-05,0.0002489218408608197,-0.011023948281651113,0.014045360658835652,0.9842404635994643
2011-11-14,0,-1.9863821524954248e-05,0.00015877738890211432,-0.015285739153694407,0.01114472116012915,0.9845243020928919
2011-11-16,0,-2.636244634812029e-05,0.00014180392720631425,-0.015285739153694407,0.012375962239611871,0.9847194190421173
2011-11-18,1,0.0005010817471007015,0.0007862982183561614,-0.0157896779316506,0.010949073293852779,0.9847207872015076
2011-11-22,0,0.0,0.0,-0.005710118542583759,0.0178145083039401,0.9818029472321375
2011-11-25,1,0.00020996980305764182,0.000800665567653571,-0.0035985000452994926,0.01983622094686487,0.9816841372663438
2011-11-29,1,0.00175908173818707,0.002561205447448577,-0.0035985000452994926,0.018270871395103534,0.9826478754484573
2011-12-01,1,0.004113796231677911,0.005214874736720641,-0.008108543019378158,0.018270871395103534,0.9842139918476945
2011-12-05,1,0.004859948537105258,0.006031792588429027,-0.011026820419207512,0.02131523304998728,0.9834024892468953
2011-12-07,1,0.005427868907643212,0.0066629627989189255,-0.011026820419207512,0.02131523304998728,0.9829882422374505
2011-12-09,1,0.0061282611347246545,0.007520056065387649,-0.011026820419207512,0.02131523304998728,0.983836327342289
2011-12-13,1,0.00490165864364199,0.006190818364288921,-0.006143283692505133,0.021821805285099992,0.9854256480738564
2011-12-15,0,0.0,0.0,-0.006143283692505133,0.021821805285099992,0.9829639281478116
2011-12-19,0,0.0,0.0,0.00039886231817167677,0.02200345203810465,0.9826340925592782
2011-12-21,1,0.0018887023359866995,0.002265512618835168,-0.00807653870630133,0.02131523304998728,0.9863398388495954
2011-12-23,1,0.0039873136848494,0.004688837713452368,-0.011026820419207512,0.019006367149796255,0.9868380929205829
2011-12-28,1,0.0034005612264702105,0.003908881301205266,-0.011026820419207512,0.019006367149796255,0.985919544435787
2011-12-30,1,0.003360267206606586,0.0038609677327828013,-0.011269239533604536,0.017320076080394126,0.9860816004498254
2012-01-04,1,0.0030424880540001267,0.0034283790803603257,-0.009251757717676154,0.01683675987836387,0.9876540433714088
2012-01-06,1,0.003224810780176152,0.0036497008838031605,-0.012517643320395589,0.017320076080394126,0.984389258517118
2012-01-10,0,0.0,0.0,-0.013928557155167557,0.01683675987836387,0.984180212701889
2012-01-12,0,0.0,0.0,-0.014616076347105985,0.014921429366493273,0.9845300613961709
2012-01-17,0,0.0,0.0,-0.015769114921691335,0.014921429366493273,0.982903796003135
2012-01-19,0,0.0,0.0,-0.015769114921691335,0.010815476056618123,0.9826351897170192
2012-01-23,0,0.0,0.0,-0.013928557155167557,0.010815476056618123,0.984048218507342
2012-01-25,0,0.0,0.0,-0.010743939245799675,0.008726652332537273,0.9850780845482432
2012-01-27,1,0.002624860558716893,0.002959035386210551,-0.010743939245799675,0.008726652332537273,0.9856678359605654
2012-01-31,0,0.0,0.0,-0.0111604317944111,0.008726652332537273,0.9852950143894805
2012-02-02,0,0.0,0.0,-0.0111604317944111,0.009829286538949189,0.984360568601386
2012-02-06,0,0.0,0.0,-0.0111604317944111,0.008726652332537273,0.9869008939562961
2012-02-08,0,0.0,0.0,-0.007011545035543079,0.0097237351134854,0.9870474211166451
2012-02-10,0,0.0,0.0,-0.00543008139793844,0.012869987235879147,0.9870636102367167
2012-02-14,0,0.0,0.0,-0.00543008139793844,0.012869987235879147,0.9877161915257153
2012-02-16,1,0.0021341614862607104,0.0022158041789944924,-0.0054551439845308995,0.012869987235879147,0.9891760150733441
2012-02-21,1,0.0023910619356716455,0.002527783448403305,-0.0054551439845308995,0.012869987235879147,0.9888238436259656
2012-02-23,1,0.0021634777254668103,0.0022294964795043877,-0.00638389051011742,0.012869987235879147,0.9880085169987856
2012-02-27,1,0.0017416400377276112,0.0018049716691496953,-0.00638389051011742,0.012454965048498147,0.9888071774382192
2012-02-29,1,0.0015376559151727598,0.001602515453833471,-0.005566076190872939,0.012454965048498147,0.9895952999746337
2012-03-02,1,0.0014578342827244368,0.0015063029470381482,-0.005515468500993357,0.009265142972461173,0.9904487629469686
2012-03-06,1,0.0012558176560575045,0.0012810452393649157,-0.005515468500993357,0.011278463963589745,0.990845116362656
2012-03-08,1,0.0016099073540768055,0.0016377792394092928,-0.006232067440478675,0.007529535066257874,0.9908157645932261
2012-03-12,1,0.001451186885220028,0.001473765355625428,-0.009996765067876709,0.0036607581390382905,0.9893480884340307
2012-03-14,1,0.0017723443165094243,0.0017941056917594217,-0.008273126560521489,0.006633249213822418,0.9897545741229181
2012-03-16,1,0.00207649321587814,0.002194966838054339,-0.01207852196596012,0.0036607581390382905,0.9896732734546255
2012-03-20,1,0.002017834367886759,0.0021143489025967693,-0.014407378101225924,0.0036607581390382905,0.9884880023949588
2012-03-22,0,0.0,0.0,-0.01207852196596012,0.006633249213822418,0.9893882217099258
2012-03-26,0,0.0,0.0,-0.014407378101225924,0.008260037072384768,0.9861609700582001
2012-03-28,0,0.0,0.0,-0.014407378101225924,0.010778134053866862,0.9856884972148932
2012-03-30,0,0.0,0.0,-0.015889553318274328,0.010778134053866862,0.9848311610437934
2012-04-03,0,0.0,0.0,-0.015889553318274328,0.010811989218568513,0.9853988249300967
2012-04-05,1,0.00031360644560093085,0.00044492528208259756,-0.017335757192404336,0.010811989218568513,0.9846455534082585
2012-04-10,-1,-0.00032570327701273317,-0.00012636630611881068,-0.015889553318274328,0.011131858360211543,0.9859008076961839
2012-04-12,-1,-0.0005881559459582643,-0.00034305887034807197,-0.015889553318274328,0.010811989218568513,0.9869954763337543
2012-04-16,-1,-0.001158294851892695,-0.0008183109847635919,-0.01675637022157771,0.010811989218568513,0.9861540684851324
2012-04-18,0,0.0,0.0,-0.013416086034253327,0.01022932889868322,0.9870497368356708
2012-04-20,0,0.0,0.0,-0.017888906555722478,0.007579000605429812,0.9863094134756623
2012-04-24,0,0.0,0.0,-0.013416086034253327,0.01022932889868322,0.9879257985283957
2012-04-26,0,0.0,0.0,-0.013416086034253327,0.010274870214835604,0.9876815842003361
2012-04-30,0,0.0,0.0,-0.011552343006346383,0.010996156238739473,0.9872229266622737
2012-05-02,-1,-0.0002423465775369394,-8.918212844082426e-05,-0.013416086034253327,0.010274870214835604,0.9862580349650307
2012-05-04,-1,-0.0014028635258927949,-0.0010986325625737558,-0.012850154189893893,0.010274870214835604,0.9857512596165309
2012-05-08,-1,-0.002697246892988705,-0.002168669673533413,-0.008114633606396533,0.011313991336480882,0.9844660575598514
2012-05-10,-1,-0.0025992097235312357,-0.0020840382063778695,-0.008114633606396533,0.012418634858820258,0.9840533010567646
2012-05-14,-1,-0.004013572277270221,-0.0032930780868495905,-0.008114633606396533,0.012747843471544649,0.983491445389883
2012-05-16,-1,-0.00259448295563694,-0.0021511970362184545,-0.008574447811162823,0.012747843471544649,0.9828811907652087
2012-05-18,-1,-0.002933376378954484,-0.0024475222239614676,-0.000973030507079344,0.012747843471544649,0.982946424204106
2012-05-22,-1,-0.0015056842121945453,-0.0012120000513517557,-0.004221524366044856,0.012747843471544649,0.9844890417849645
2012-05-24,-1,-0.0007476039997948861,-0.000552359073733747,-0.008574447811162823,0.012418634858820258,0.9846908204029061
2012-05-29,1,7.310507446327166e-05,0.0001586082660071978,-0.014245830746446374,0.011198159488958343,0.9848458817846325
2012-05-31,-1,-0.00047063614492509593,-0.0003267837296793551,-0.005764360388087825,0.013705298061765207,0.983535034073005
2012-06-04,-1,-0.00160319496574057,-0.0013319238239044807,-0.00298986253509611,0.018191892321471143,0.9836064538568214
2012-06-06,1,0.000691851313351768,0.0007584422614378633,-0.005764360388087825,0.015374706903008954,0.9851620150504623
2012-06-08,1,0.0013562868292299273,0.0015485084505584357,-0.005764360388087825,0.015374706903008954,0.985587692609767
2012-06-12,1,0.002374992374402556,0.0027647437393204044,-0.005802882875680381,0.015374706903008954,0.9858830318285363
2012-06-14,1,0.0012319487032809973,0.0013976057100325281,-0.00298986253509611,0.018191892321471143,0.9857338262293122
2012-06-18,1,0.0019517953842769506,0.0022306303793763428,-0.0042606624233739385,0.018191892321471143,0.98567970272151
2012-06-20,1,0.0021083987651827766,0.002411599700871502,-0.008071225964852118,0.016382890876375057,0.9856329352981574
2012-06-22,1,0.0009388233616863006,0.0010417760637532508,-0.006907768768603405,0.016382890876375057,0.9867507242943385
2012-06-26,1,0.0008015978209077911,0.0008993164187848628,-0.006907768768603405,0.016382890876375057,0.9877062688739449
2012-06-28,1,0.0016641898309505895,0.0018221839289567707,-0.006907768768603405,0.01267876643979235,0.9888221148360035
2012-07-02,1,0.0018663141326482043,0.002040152664110985,-0.006907768768603405,0.00871527193549792,0.9897419583959114
2012-07-05,1,0.0012032021500833255,0.0012273161237892662,-0.006907768768603405,0.006186706474331934,0.9906897730147968
2012-07-09,1,0.0013354852575522312,0.0013749625566862214,-0.007293874684854169,0.00727532242226142,0.989642314885506
2012-07-11,1,0.002206640948433318,0.0024216790239489435,-0.007293874684854169,0.00727532242226142,0.9900891562982159
2012-07-13,1,0.0028536495431222735,0.00314880098032603,-0.007293874684854169,0.0043051504311360875,0.9907067858919776
2012-07-17,1,0.0028968636686939513,0.0032072190579694997,-0.007013479435021388,0.0043051504311360875,0.991176249118123
2012-07-19,1,0.002495613381675043,0.002788798573341036,-0.00445712739690178,0.0070811134554955935,0.9911822473577154
2012-07-23,1,0.0020248229856531966,0.002199420825148274,-0.007742521939778863,0.0070811134554955935,0.9904232434004318
2012-07-25,1,0.0016751002498121633,0.0018213626746960143,-0.00668997353901448,0.009442074242193569,0.9904066074919361
2012-07-27,1,0.002488097225632579,0.00269846335037646,-0.007742521939778863,0.008238241375378725,0.9912224851397531
2012-07-31,1,0.0021079475890270313,0.0023092483174159658,-0.007742521939778863,0.008913731927510913,0.9915510824115719
2012-08-02,1,0.0019602069561517927,0.002162699731713775,-0.004134884753355883,0.009718473561510208,0.9916781375181889
2012-08-06,1,0.0024613539534428493,0.0027619539634040034,-0.0016921726754275676,0.008913731927510913,0.9930668841508692
2012-08-08,1,0.0026001942485227355,0.0029266755640382815,-0.0006174391301856461,0.008913731927510913,0.9934811754314311
2012-08-10,1,0.002763838006121769,0.00313593842693294,-0.0006174391301856461,0.008913731927510913,0.9935121129714437
2012-08-14,1,0.002515100840836984,0.002813661422904188,0.00019894260659493413,0.010808134413591679,0.9925823262876857
2012-08-16,1,0.0036593544536307385,0.004106803650796841,0.00019894260659493413,0.010808134413591679,0.9927665306580508
2012-08-20,1,0.002953081547799462,0.003311510756455261,0.00019894260659493413,0.010808134413591679,0.9921085467605449
2012-08-22,1,0.0034787271326948933,0.00388352807754723,-0.0007915849572680309,0.009718473561510208,0.9922179398417631
2012-08-24,1,0.003000248389804892,0.0033337559757988322,0.00018525537231700785,0.010351473906554078,0.992331799401574
2012-08-28,1,0.002954313305887697,0.003249210427518726,-0.0027968199914873565,0.010351473906554078,0.9912828400142449
2012-08-30,1,0.0023582798319618506,0.0024807130842597934,-0.006502131350913223,0.011343092996417298,0.9897371618665362
2012-09-04,1,0.003057412144064247,0.00333584433002146,-0.006502131350913223,0.011343092996417298,0.989674554925796
2012-09-06,1,0.0030191189692267625,0.0032385948035415493,-0.006751145608518763,0.011343092996417298,0.9894490348853178
2012-09-10,1,0.0027343803161831532,0.002906834458359737,-0.0070278690760238495,0.011343092996417298,0.9891628589941974
2012-09-12,1,0.00399577386369379,0.004331521240032174,-0.0073383256910562605,0.008355308858939422,0.9894847120448934
2012-09-14,1,0.004775787316942447,0.005266569711570054,-0.0073383256910562605,0.004574257352487569,0.9899287907671805
2012-09-18,0,0.0,0.0,-0.005729276948331426,0.00717516788326566,0.9908583296667752
2012-09-20,0,0.0,0.0,-0.005729276948331426,0.01162357323519569,0.9889649830395999
2012-09-24,0,0.0,0.0,-0.006109485954180648,0.009802947039075824,0.9887160507970814
2012-09-26,0,0.0,0.0,-0.006109485954180648,0.009802947039075824,0.9886884622331951
2012-09-28,0,0.0,0.0,-0.006109485954180648,0.007065627932477616,0.990158869753546
2012-10-02,0,0.0,0.0,-0.006109485954180648,0.00881364028515815,0.989565669653727
2012-10-04,1,0.001481131586146107,0.0014920319300104987,-0.006109485954180648,0.007065627932477616,0.9900982661779705
2012-10-08,1,0.0009756263786632216,0.0010640502175055205,-0.006985721908981821,0.006297268547533155,0.9900877225119594
2012-10-10,0,0.0,0.0,-0.008870787634170721,0.006297268547533155,0.9889770616942192
2012-10-12,1,0.00035570893874803237,0.0006146332608981712,-0.008870787634170721,0.006297268547533155,0.9887144171804169
2012-10-16,1,0.001835651727746178,0.001913887475188792,-0.011530426591207645,0.004865339977757413,0.9877535226895431
2012-10-18,1,0.0034647738649932255,0.0036123814673078673,-0.011530426591207645,0.004865339977757413,0.9874465721590485
2012-10-22,1,0.002414511142930163,0.0024533114443626215,-0.009856258149584431,0.004865339977757413,0.9885043750926357
2012-10-24,1,0.0002489232553008441,0.00063275368942139,-0.006704194852564608,0.007028077205473196,0.989315902869101
2012-10-26,1,0.0009492852622207404,0.001154753186700298,-0.006002157086676688,0.007494841005589977,0.9894390659767188
2012-11-01,1,0.0013474349337561286,0.0014992393539174863,-0.006002157086676688,0.007494841005589977,0.9886839373677346
2012-11-05,1,0.0010419948388524052,0.0012154397470184716,-0.006704194852564608,0.007494841005589977,0.9884108460415103
2012-11-07,0,0.0,0.0,-0.007624340348564315,0.011984715396378014,0.9871857929097151
2012-11-09,0,0.0,0.0,-0.005186024650317869,0.011984715396378014,0.9881912070609972
2012-11-13,0,0.0,0.0,-0.0031297912580823912,0.011984715396378014,0.988157288196802
2012-11-15,0,0.0,0.0,-0.0005442622197482978,0.011984715396378014,0.9896270531384469
2012-11-19,-1,-0.0023091965037421113,-0.0015977515054929302,-0.0005442622197482978,0.01217215269146605,0.989143928404489
2012-11-21,-1,-0.0010264509400975856,-0.0006134376931206031,-0.0031297912580823912,0.01649948837871014,0.9883469930173066
2012-11-26,1,0.0002871419785244931,0.000524783962891905,-0.004723697137316626,0.01089562598228699,0.988725933318076
2012-11-28,1,0.00023567924676940865,0.0004943173053723097,-0.012337083822004078,0.01089562598228699,0.9883354113390884
2012-11-30,1,0.0006522848730153665,0.0008049129082038772,-0.012603736536038291,0.008836299198286643,0.9886416843339045
2012-12-04,1,4.594599440854025e-05,0.0002545535911381881,-0.012577178445755437,0.01089562598228699,0.9870020938059995
2012-12-06,1,0.0004970089883290963,0.0006114887046969233,-0.0041519823771011734,0.008836299198286643,0.9884021370005128
2012-12-10,1,0.0009629670225248714,0.0010289870008051956,-0.0041519823771011734,0.010978120871188114,0.9878148762390238
2012-12-12,1,0.0006558103812875189,0.0008006813218879123,-0.0041519823771011734,0.010978120871188114,0.9875651952045702
2012-12-14,0,-2.2898895674230567e-05,0.00020961750804219788,-0.0028556333523167424,0.010978120871188114,0.9880564266296463
2012-12-18,1,0.0007865301553274187,0.000960076099588267,-0.00546457449159429,0.008747499966304003,0.9889808082202628
2012-12-20,0,0.0,0.0,-0.004978003036165368,0.008747499966304003,0.9897081337403041
2012-12-24,0,0.0,0.0,-0.002296213174146372,0.008560514767597484,0.9901998206653179
2012-12-27,0,0.0,0.0,-0.004978003036165368,0.008560514767597484,0.9886109515454982
2012-12-31,0,0.0,0.0,-0.004978003036165368,0.009342639959937797,0.9878218532706108
2013-01-03,0,0.0,0.0,-0.004978003036165368,0.008626051113538157,0.9893439082716973
2013-01-07,0,0.0,0.0,-0.004978003036165368,0.009680683895937311,0.9889649399241531
2013-01-09,1,0.001666126031887619,0.0016706736993012585,-0.005683120659818636,0.008626051113538157,0.9891773239690171
2013-01-11,1,0.0024569715358028184,0.0026199001657369074,-0.005683120659818636,0.008012221176609154,0.9894775219471217
2013-01-15,1,0.0016478259525451722,0.0016521189635124122,-0.004978003036165368,0.008012221176609154,0.9895177635949065
2013-01-17,1,0.001754010900342101,0.0018110919347937454,-0.0030369649313255025,0.007097822832486843,0.9899874017577472
2013-01-22,1,0.0016813066116002369,0.001698440448380591,-0.006102900940232414,0.006544720490367792,0.9890322181979282
2013-01-24,1,0.002473947631774799,0.0026075889153801476,-0.018719800696010137,0.007097822832486843,0.9874823762316144
2013-01-28,1,0.0006239592559731882,0.0007102770099510009,-0.007362408396225189,0.008012221176609154,0.9870851259691887
2013-01-30,1,0.0004715689208507381,0.0005658207411051579,-0.0034264527468848595,0.007985850101639904,0.9882428208710494
2013-02-01,1,0.001340862521794382,0.0013784730211087869,-0.0034264527468848595,0.007388743048493763,0.9882994351604523
2013-02-05,1,0.001788223631440153,0.0018712020477251656,-0.004651074142323596,0.007388743048493763,0.9882721019051737
2013-02-07,1,0.0011988393341875628,0.0012693843328826315,-0.0029702967007470657,0.007388743048493763,0.9895057649355745
2013-02-11,0,0.0,0.0,-0.004651074142323596,0.008876104720705047,0.9886204716380751
2013-02-13,0,0.0,0.0,-0.004651074142323596,0.0099091646290565,0.9881707260359761
2013-02-15,1,0.0006733328265863844,0.0007779418732073349,-0.009110566405203446,0.0099091646290565,0.9877088399284902
2013-02-20,0,0.0,0.0,-0.007256015360005907,0.014723077077182149,0.9876130066942549
2013-02-22,0,0.0,0.0,-0.007256015360005907,0.013227476021747004,0.9883107668456622
2013-02-26,0,0.0,0.0,-0.005558340842983037,0.0099091646290565,0.9903532884987372
2013-02-28,0,0.0,0.0,-0.004252354267775561,0.012161424971813191,0.9905022024771144
2013-03-04,0,0.0,0.0,-0.004252354267775561,0.00967934008142375,0.9908987194393524
2013-03-06,0,0.0,0.0,-0.006059855736361802,0.00967934008142375,0.9883581262339045
2013-03-08,0,0.0,0.0,-0.006059855736361802,0.01068507508336933,0.9879890342134194
2013-03-12,0,0.0,0.0,-0.005537434019896293,0.011617342808304882,0.9880332403151978
2013-03-14,0,0.0,0.0,-0.005537434019896293,0.010580322544744144,0.9888011192214702
2013-03-18,0,0.0,0.0,-0.0027312761724897668,0.010580322544744144,0.9874100975651937
2013-03-20,0,0.0,0.0,-0.00878592941882423,0.008495957174752676,0.9872209016113835
2013-03-22,-1,-0.0002999784115198409,-0.0002531764660215817,-0.005537434019896293,0.009030856192011993,0.9873528484805295
2013-03-26,0,0.0,0.0,-0.003109089223951058,0.011617342808304882,0.9856776159268626
2013-03-28,0,0.0,0.0,-0.00878592941882423,0.010580322544744144,0.984926908859148
2013-04-02,0,0.0,0.0,-0.00878592941882423,0.010580322544744144,0.9851358523040068
2013-04-04,0,0.0,0.0,-0.008034954589475308,0.007845518755258003,0.9877833121192184
2013-04-08,0,0.0,0.0,-0.008034954589475308,0.011815529993051133,0.9871126663552933
2013-04-10,0,0.0,0.0,-0.005488409090208849,0.011396250834871145,0.9873873537876261
2013-04-12,-1,-0.0005566908610185069,-0.00023564696897198658,-0.01239624857100882,0.012849043843698681,0.9863533463390586
2013-04-16,-1,-0.000997147974191039,-0.0006832925859399865,-0.01239624857100882,0.013747536972106695,0.9857760496903848
2013-04-18,-1,-0.002301826364364032,-0.0018528516564771764,-0.0053932336371649734,0.013747536972106695,0.9867272074558183
2013-04-22,-1,-0.001244612524732441,-0.000926554999215516,-0.0054766630157708565,0.013747536972106695,0.9874487027443369
2013-04-24,-1,-0.0003174848048745194,-0.00012238924550721133,-0.009148203758111578,0.011396250834871145,0.9889448558319547
2013-04-26,-1,-0.0008419646186110704,-0.0006334097771937332,-0.0089136674254463,0.011396250834871145,0.9894268074492103
2013-04-30,-1,-0.0007760006512726765,-0.0005399200420545923,-0.010190902102565671,0.011396250834871145,0.9876856932882422
2013-05-02,-1,-0.001305919235273394,-0.0010054911904283418,-0.010190902102565671,0.011396250834871145,0.986835922228131
2013-05-06,-1,-0.0006652846160737346,-0.000454306905191049,-0.012110722211877194,0.007341068447033244,0.9863708166194398
2013-05-08,1,7.404129576866851e-05,0.00019124543646895228,-0.013805063312204399,0.007341068447033244,0.9841543654111542
2013-05-10,-1,-0.00026133701134145896,-7.380325478343339e-05,-0.012712387745228499,0.0058221817999610315,0.9854532799154169
2013-05-14,1,0.0013798781905278003,0.001450420022146574,-0.01746986667098082,0.0034409945015406824,0.9858385382508594
2013-05-16,1,0.0004951705993417546,0.0005200060364223833,-0.01746986667098082,0.0058221817999610315,0.9847227656410588
2013-05-20,1,0.000741242115824809,0.0007772371848997678,-0.017893790610764748,0.0058221817999610315,0.9842726518670714
2013-05-22,1,0.0002979968074955568,0.0004130152127894025,-0.0278327282006582,0.0031570824530125986,0.9830073294984286
2013-05-24,-1,-0.000632978620645177,-0.000394406875287475,-0.0278327282006582,0.006057919699399591,0.9826599600489259
2013-05-29,0,0.0,0.0,-0.0181172982411985,0.009305908674324324,0.9832300630563663
2013-05-31,0,0.0,0.0,-0.01472907611396137,0.013416188677821433,0.9835520064870775
2013-06-04,-1,-0.001714902468286564,-0.0014912274776010407,-0.014230649630699525,0.014735887891241532,0.9838150647851589
2013-06-06,-1,-0.0013902810909353586,-0.0012274200082688714,-0.013789079694412768,0.013416188677821433,0.9862585502727399
2013-06-10,-1,-0.001501271889778449,-0.0013148479930890022,-0.013789079694412768,0.013416188677821433,0.9856849223989997
2013-06-12,-1,-0.002871487300698807,-0.002536700711828024,-0.010485680025555921,0.014735887891241532,0.9863893627510846
2013-06-14,-1,-0.0018818828089489923,-0.0016824494811179707,-0.007385452846709559,0.013416188677821433,0.9878396428209081
2013-06-18,-1,-0.0016547801919632337,-0.0014997251227366255,-0.005560339879827204,0.012856579295300347,0.989062850299157
2013-06-20,-1,-0.003846213804037503,-0.0033619446081218996,-0.0028687106516670073,0.012856579295300347,0.9890442263275513
2013-06-24,-1,-0.00387503727606541,-0.0033867261342181375,-0.0036166856543275168,0.011538915264834542,0.9899790415071089
2013-06-26,-1,-0.0025433362844797225,-0.0022428546341775116,-0.005393585060893156,0.010531324257343454,0.9907130066724811
2013-06-28,-1,-0.0012652852708866934,-0.0011445349556560933,-0.007739254307389969,0.009013335352162906,0.990479807284787
2013-07-02,-1,-0.0017152641578226616,-0.001492377039927224,-0.005929469269576383,0.00835885096215977,0.9910980449066036
2013-07-05,-1,-0.00178337572829078,-0.0015671823326748255,-0.00773646428216804,0.00835885096215977,0.9907561023066622
2013-07-09,-1,-0.001072933881608655,-0.0009565883987223643,-0.00773646428216804,0.007165004265189337,0.9911460653689756
2013-07-11,-1,-0.00017598441446436947,-0.0001753371698043349,-0.011659445974758507,0.0065284509124680975,0.9907543082452428
2013-07-15,-1,-0.0008524532536903276,-0.0007190536340554755,-0.011764932725971166,0.006879184206911873,0.9897880126292409
2013-07-17,-1,-0.0008363753820974798,-0.0007153791816079695,-0.012061977139424904,0.00835885096215977,0.9878909133325355
2013-07-19,-1,-0.0003389959643494692,-0.0002617670306324467,-0.01306542644359122,0.006392143864294706,0.9875703619851564
2013-07-23,-1,-0.0008939383147052023,-0.0007518213304940931,-0.01536976357744816,0.006879184206911873,0.9865272470545718
2013-07-25,-1,-0.0006707641462748892,-0.000581756015524655,-0.012847172677816565,0.006392143864294706,0.9873771224732683
2013-07-29,-1,-0.001743549638909896,-0.0015395561179353313,-0.011762257037118497,0.006879184206911873,0.9883540938034975
2013-07-31,-1,-0.0013294007636583064,-0.0011764688193776638,-0.012847172677816565,0.007827065931819694,0.9875125741515013
2013-08-02,-1,-0.001599557358804233,-0.001414291611774773,-0.012987016008382393,0.007827065931819694,0.9874003428078386
2013-08-06,-1,-0.0009336451862630593,-0.0008586413266355864,-0.012987016008382393,0.007394565152211148,0.9873213909976223
2013-08-08,-1,-0.00216784060145927,-0.001922618397096397,-0.012125674743386194,0.013539872906833523,0.9860204015603868
2013-08-12,-1,-0.0014677825167199034,-0.0013613514141129668,-0.010689563866398041,0.012914280355544403,0.9867681247517137
2013-08-14,-1,-0.001116291792948833,-0.0010379038201784399,-0.010710107800459674,0.01202520840893943,0.9881773106016261
2013-08-16,-1,-0.0017830116521054544,-0.0016271948770202604,-0.006960746535325738,0.012402238525264064,0.9883302867054521
2013-08-20,-1,-0.0009980430506434644,-0.0009560954304567031,-0.006055176926316039,0.012402238525264064,0.9889671332516108
2013-08-22,-1,-0.0005900691000139887,-0.0005697020416894778,-0.007509689561546874,0.012402238525264064,0.9886294115160845
2013-08-26,-1,-0.0003084477310148179,-0.000262808099948118,-0.010710107800459674,0.012402238525264064,0.9884610907768455
2013-08-28,-1,-0.00035168365870150403,-0.0002945272329092365,-0.007509689561546874,0.010969786053716225,0.9893197825695215
2013-08-30,-1,-0.00047012307853355187,-0.0004183479805218609,-0.007509689561546874,0.010969786053716225,0.9893173182731306
2013-09-04,-1,-0.0005266675674513943,-0.0004748820847935956,-0.006055176926316039,0.013897074457430969,0.9888570075295645
2013-09-06,1,0.00019648610803875985,0.0002820693593092538,-0.007533062790425652,0.0073030887369060086,0.9906040783829967
2013-09-10,-1,-0.00018422434354652532,-0.00015474227307658907,-0.010332392909839293,0.00444991559078902,0.9908202709818179
2013-09-12,-1,-6.209392339126593e-05,-2.7193725844288342e-05,-0.007533062790425652,0.0073030887369060086,0.9901634814584361
2013-09-16,1,0.0009086860634569629,0.0011411018798605818,-0.007533062790425652,0.0073030887369060086,0.990235504241466
2013-09-18,1,0.0008318032486403126,0.0009745697187450453,-0.010332392909839293,0.0073030887369060086,0.989817262749496
2013-09-20,1,0.0005943365943198437,0.0007477909090662195,-0.007272368611001137,0.011078949555089385,0.9896006875543106
2013-09-24,1,0.00015221943121415793,0.00023030598429662767,-0.0031089173987422798,0.011078949555089385,0.9901664772615381
2013-09-26,1,0.0011189709021096994,0.0013679943525768427,-0.0055037211983813995,0.009437469761378908,0.9905951940142644
2013-09-30,1,0.0010481565292082885,0.0012943079139524226,-0.0028579818937679168,0.014732314700788247,0.9894479392075689
2013-10-02,1,0.0013554801332579746,0.0016330771463689254,-0.007272368611001137,0.009437469761378908,0.988904109411124
2013-10-04,1,0.001417202538241172,0.0017569496446161893,-0.0032855811251617526,0.009437469761378908,0.9895288011580444
2013-10-08,1,0.0007933196232954738,0.0010294912818850622,-0.0032855811251617526,0.009437469761378908,0.9889865190723888
2013-10-10,1,0.0020015885425162926,0.002424215609653153,-0.005982504418241065,0.005208634261251059,0.9893158515932297
2013-10-14,1,0.0020985045555848908,0.002511119029423894,-0.006906361350993158,0.004673595923306037,0.9894243658025038
2013-10-16,1,0.002245994049325884,0.0026811127030638383,-0.0055607380043244,0.004673595923306037,0.9904057766635672
2013-10-18,1,0.002019313979968901,0.0023438202902163786,-0.0055607380043244,0.004307799105729194,0.9909808793846803
2013-10-22,1,0.001954711792561144,0.002254515535894512,-0.0055607380043244,0.0021020875197364534,0.9909891551296623
2013-10-24,1,0.0015405611487363628,0.001743690479527851,-0.006906361350993158,0.002123728989672274,0.9904632782678908
2013-10-28,1,0.0020931695535123425,0.0023870429753459197,-0.006906361350993158,0.0020495607611610697,0.991833134678103
2013-10-30,1,0.0011384269184668144,0.0012962070592882403,-0.004115774460353734,0.0041502188300030435,0.9921707794845507
2013-11-01,1,0.00036152767163830963,0.0003805812623212648,-0.006906361350993158,0.0041502188300030435,0.9908139856324933
2013-11-05,1,0.00024443529729556765,0.00024528657275881,-0.004926212143589502,0.0041502188300030435,0.9919333811902139
2013-11-07,1,6.339612864659152e-05,8.352177940596113e-05,-0.0037918731436469982,0.004738520333113499,0.9919247666411575
2013-11-11,-1,-0.00043382460736476105,-0.00030909873925419595,-0.0031730789647672914,0.005459289715313261,0.9920050162541516
2013-11-13,1,5.9049850974639343e-05,0.00013903593523874205,-0.0037918731436469982,0.005459289715313261,0.9913364277037333
2013-11-15,1,0.0004607128018183267,0.0004699775034920156,-0.0031730789647672914,0.009757774596753543,0.9900989132198779
2013-11-19,1,0.0006238662256991132,0.0006904179189646855,-0.006502143185522752,0.011653316268443414,0.9874782864925258
2013-11-21,1,0.0005608016767428994,0.0006200949694507946,-0.0037428874846531838,0.011653316268443414,0.9882618949427636
2013-11-25,1,0.00042058916134793194,0.000445429349923625,-0.0037428874846531838,0.011653316268443414,0.988230539047799
2013-11-27,1,0.001360016674112607,0.0015287447181595224,-0.0037428874846531838,0.009354940317030824,0.9896548859332052
2013-12-02,1,0.0006648823599295485,0.0007773145778673589,-0.0027825926606176747,0.009354940317030824,0.991090650577672
2013-12-04,1,0.0008345198758191239,0.0009661263583912229,-0.002419973842605035,0.009354940317030824,0.9909274463414474
2013-12-06,1,0.0010130870610995449,0.001160305741212563,-0.0031997296611120064,0.005520489719984802,0.9909608162166115
2013-12-10,1,0.001308642838216216,0.0015288784633617127,-0.005197577364593452,0.004800835981347734,0.9908613439860877
2013-12-12,1,0.0007954703142122887,0.0009142092190219703,-0.005197577364593452,0.004231565183212495,0.9915832775689838
2013-12-16,1,0.0015877304293526373,0.0018107157899233482,-0.005197577364593452,0.004154369745109466,0.9925718065487971
2013-12-18,1,0.0015218076842046882,0.0016698706295177903,-0.004471242308192353,0.003936918281926105,0.9949630983652261
2013-12-20,1,0.001478019204062088,0.0016328704237003593,-0.0032760798813018326,0.003936918281926105,0.9950063581965374
2013-12-24,1,0.0011951686367891762,0.0012954345077287393,-0.009367010141679866,0.003936918281926105,0.9936641713796559
2013-12-27,1,0.0012904634041891346,0.0014121922498928153,-0.009367010141679866,0.004500061846125797,0.993063741385038
2013-12-31,1,0.001012035931845211,0.001050951269655744,-0.009367010141679866,0.0049309791607939826,0.9926067063265666
2014-01-03,1,0.0005913325606462478,0.0006024919667955344,-0.010684761553364704,0.0049309791607939826,0.9908396721160874
2014-01-07,1,0.0006804448094285501,0.000688779425862681,-0.011697347943199021,0.0049309791607939826,0.9908805115489097
2014-01-09,1,0.00015168160337963968,0.00024414674315025844,-0.011697347943199021,0.006241837521790569,0.99032945979531
2014-01-13,-1,-0.00023048867505026123,-0.0001092738149295795,-0.007702512606255179,0.006381280975000582,0.9906348916205076
2014-01-15,1,0.0002813435089494357,0.00033763443917225186,-0.007702512606255179,0.005858567336624774,0.9911245960011287
2014-01-17,1,0.00027100895149958257,0.0003171512939600039,-0.007527303656885528,0.005858567336624774,0.9914555590849142
2014-01-22,1,0.00014068471745892246,0.0002167034390831321,-0.007527303656885528,0.004977460311863986,0.9913646880189226
2014-01-24,-1,-0.0009328998625481047,-0.0007160682487768517,-0.005478842540865979,0.004977460311863986,0.9920258953812666
2014-01-28,-1,-0.0006729785025045493,-0.00047205310369236736,-0.006853881405664447,0.0038122315237051887,0.9925332443883448
2014-01-30,1,0.00011480415302440571,0.00016072246875435992,-0.00905011687227813,0.003379358578301275,0.9926976561777079
2014-02-03,-1,-0.0010798964376720881,-0.000904554477814588,-0.005881621039508947,0.0038122315237051887,0.9937279987780067
2014-02-05,-1,-0.0014185310653677162,-0.0011853497649123102,-0.0030657157888042,0.006186547001256794,0.9932348595985891
2014-02-07,-1,-0.0005691567375732095,-0.000447815241779751,-0.005881621039508947,0.0038122315237051887,0.9941691708521333
2014-02-11,-1,-2.520508550975382e-05,-2.500407938619279e-06,-0.005881621039508947,0.003059569794048039,0.9946144424169766
2014-02-13,-1,-0.0002245826457595072,-0.00014375047288705782,-0.005881621039508947,0.0028384994097917235,0.9945210409699655
2014-02-18,-1,-0.00012400294918430148,-4.8689492589272304e-05,-0.008062216901593353,0.003991451910865045,0.9933833024765152
2014-02-20,1,0.00028383564503695773,0.0002883963052202537,-0.00905011687227813,0.004348536713945288,0.9927924092542848
2014-02-24,-1,-0.00035913663708231114,-0.00027620020600493424,-0.008245323888857355,0.004348536713945288,0.9932579629508349
2014-02-26,-1,-0.0005245718088588005,-0.0004444682078879257,-0.008693036861184347,0.004348536713945288,0.9931563452532646
2014-02-28,-1,-0.0012107916126153449,-0.0010220983133711742,-0.004969657215587793,0.0062488573934084655,0.9930448101627446
2014-03-04,-1,-0.0014009375109689055,-0.001162090321534131,-0.0027765127437358135,0.0062488573934084655,0.9928546518101787
2014-03-06,-1,-0.0004157378204786199,-0.00033239283048307064,-0.005706647356283011,0.00588970586063013,0.9928913054189417
2014-03-10,-1,-0.0007029949413530309,-0.0006080288134630079,-0.006466981272299979,0.00588970586063013,0.9924419622807372
2014-03-12,-1,-0.0007670793724654817,-0.0006679017218689458,-0.011133363146028544,0.00588970586063013,0.9915670915185022
2014-03-14,1,6.555580371280313e-05,0.00010272602574963244,-0.0151090555918366,0.004608864081342137,0.9903873294156368
2014-03-18,1,1.11787233901924e-06,3.969306311702509e-05,-0.012945750475100605,0.004608864081342137,0.9912042949219471
2014-03-20,-1,-0.00026090312880414345,-0.00024832816709795545,-0.011133363146028544,0.005238881905532448,0.9918330690837269
2014-03-24,-1,-0.00018017555013225236,-0.00013060699573148228,-0.011133363146028544,0.006815881274508423,0.9909271725017437
2014-03-26,-1,-0.0011107048442527217,-0.0010008933259950247,-0.006466981272299979,0.006815881274508423,0.9909927436426043
2014-03-28,-1,-0.0007583221158293254,-0.0006865787167405477,-0.006466981272299979,0.00902423878274009,0.9897842434235699
2014-04-01,-1,-0.0005736126025024198,-0.00048009698914269923,-0.006466981272299979,0.006815881274508423,0.990611456186305
2014-04-03,-1,-0.000876802966860818,-0.0007259348674920891,-0.004756355162730782,0.005487485396531145,0.9913788075369011
2014-04-07,-1,-0.0018074144018250893,-0.001547881079018579,-0.0013913093060347339,0.006815881274508423,0.9915454374849919
2014-04-09,-1,-0.0016840575804692457,-0.0014767498278334952,-0.0013913093060347339,0.006815881274508423,0.9918952800679943
2014-04-11,-1,-0.0027657869413642133,-0.0024352717369051933,0.0002505904305012637,0.006815881274508423,0.9922203722687051
2014-04-15,-1,-0.002689267752918745,-0.0023621653551426924,0.0002505904305012637,0.007170048400067271,0.9922885399448713
2014-04-17,-1,-0.0026493869391418946,-0.0023082628655888985,0.0002505904305012637,0.00820233893942378,0.9917460728996499
2014-04-22,-1,-0.0018579786291998475,-0.0016157003194745294,-0.0018212712382069316,0.005616872852146359,0.9929794104122249
2014-04-24,-1,-0.000655290305255825,-0.0006214085063241601,-0.0018212712382069316,0.0069490787175069645,0.993086351769906
2014-04-28,-1,-0.0001548798135563293,-0.00012239567508993363,-0.0018212712382069316,0.005616872852146359,0.9942140827652151
2014-04-30,-1,-0.00021924853812739427,-0.00017212805473270282,-0.0004121269138337824,0.006652773574923838,0.9938844131191961
2014-05-02,1,0.0001204528618644779,0.00013664805502172205,-0.0004121269138337824,0.006652773574923838,0.9938853476835837
2014-05-06,1,0.0005656299619719092,0.0006497675737006984,-0.0032379500789686683,0.005616872852146359,0.9938352843222332
2014-05-08,1,0.0002126330907285243,0.00023007943260237095,-0.002040759616301862,0.006652773574923838,0.9938043858221575
2014-05-12,1,0.000936481953936966,0.0011120596149814719,-0.002720085878765023,0.006652773574923838,0.9940949793576305
2014-05-14,1,0.0014085334645941644,0.00168522532757205,-0.0032379500789686683,0.005556314034531802,0.9938462890481818
2014-05-16,1,0.0012041271574977476,0.0014465066138551774,-0.0032051562964326083,0.004883447225831956,0.9947271907153978
2014-05-20,1,0.0007162112515830751,0.0008869325775072681,-0.0023359427678966522,0.004883447225831956,0.995308419886158
2014-05-22,1,0.0012533137477029484,0.0014985997798882332,-0.0023359427678966522,0.004883447225831956,0.9956214197164517
2014-05-27,1,0.001948672185447499,0.00230466919187655,-0.0023359427678966522,0.004905440877525799,0.9947571946102894
2014-05-29,1,0.0022896321392393603,0.002679895304858667,-0.0023359427678966522,0.004804248912607641,0.9944502598864013
2014-06-02,1,0.0023396319728125822,0.0027278326522712027,-0.0027159661445085395,0.005320354734722767,0.993669869559061
2014-06-04,1,0.0018054730127770307,0.0021115664296804597,-0.0023359427678966522,0.007603643498011818,0.9930774782484072
2014-06-06,1,0.0018608038591348634,0.002145364054671325,-0.0023359427678966522,0.007533626944998007,0.9929376783914075
2014-06-10,1,0.002043172661918183,0.002381991877671688,-0.0024976329071191806,0.007533626944998007,0.9927001251124786
2014-06-12,1,0.0016069508347807129,0.0018804399556097834,-0.0026147967718122504,0.007533626944998007,0.9921434598638336
2014-06-16,1,0.0017157788546515087,0.0020126674740134497,-0.003833178412177442,0.007533626944998007,0.9920668645801077
2014-06-18,1,0.0011938523482094825,0.001364644420198849,-0.0045536333293326285,0.007533626944998007,0.9917408783948402
2014-06-20,1,0.001749733377617308,0.002030177942580264,-0.005391102190521406,0.009852979260630229,0.9911579440725123
2014-06-24,1,0.003013414110290222,0.0034631150744964386,-0.005391102190521406,0.0062742433970754095,0.9921032409688407
2014-06-26,1,0.002848043609000232,0.0031791150546251904,-0.005391102190521406,0.004300325099458363,0.9919759041128939
2014-06-30,1,0.0029740065576507042,0.0032926518827477978,-0.006249223366416985,0.004300325099458363,0.9918619745463089
2014-07-02,1,0.003207648384536573,0.0036142762659712524,-0.006249223366416985,0.002169615823906958,0.9920816333996715
2014-07-07,1,0.003459718196084408,0.003917466055860125,-0.006249223366416985,0.002169615823906958,0.9917626718886423
2014-07-09,1,0.0033292332406044604,0.0037794090842409914,-0.005877853529405044,0.002169615823906958,0.9918534069413357
2014-07-11,1,0.0025710000725967077,0.00292573453436268,-0.004797150656305552,0.004531226988501908,0.9927801586674234
2014-07-15,1,0.00235628208177991,0.002675619387268321,-0.004797150656305552,0.006326644041757523,0.9930017812055416
2014-07-17,1,0.0021138130302143683,0.0023809285438899895,-0.004447424305753807,0.007932064193284669,0.99240370262435
2014-07-21,1,0.001803028224911559,0.0020013338135674475,-0.004137216274090987,0.008115141515503512,0.9925888405662845
2014-07-23,1,0.0013324970131526554,0.0014419770828340334,-0.003282688410266711,0.0112656485949388,0.9921363998420655
2014-07-25,1,0.0011449069160762966,0.0012316592966653175,-0.0029377688590125337,0.0112656485949388,0.9920007620815726
2014-07-29,1,0.001436663510729576,0.0015983243124935284,-0.0029377688590125337,0.009200370540453728,0.9925687018328396
2014-07-31,1,0.0003465286401892059,0.00036457474000971816,-0.0029377688590125337,0.009200370540453728,0.9928951082981166
2014-08-04,1,0.0005833021498147352,0.0005872478420403521,-0.0029377688590125337,0.007426715497341822,0.9935943477696735
2014-08-06,1,0.0006848899945182414,0.0007185236192540087,-0.002917077977841756,0.007426715497341822,0.994016730352
2014-08-08,1,0.0008807996904075602,0.0009223574030873926,-0.002917077977841756,0.005729466664522883,0.9947630768310189
2014-08-12,1,0.0008966170142981623,0.0009153310196123488,-0.0030813066303590764,0.004182839886019046,0.9946879021075231
2014-08-14,1,0.0015155688324241224,0.0016061553538947119,-0.0034589558644325946,0.002062884037016325,0.9945857128938067
2014-08-18,1,0.0015400781217062424,0.0016032213379034766,-0.004239466723422408,0.002062884037016325,0.9949151723486273
2014-08-20,1,0.0022376227880433505,0.002407728514587683,-0.004932333897075655,0.001251855521518544,0.9944031060601299
2014-08-22,1,0.002637435754720362,0.0028969138403269834,-0.005760055238138797,0.0005159090443302586,0.9932190578241292
2014-08-26,1,0.0025027459830580367,0.002733064769772713,-0.006484058065745617,0.0005159090443302586,0.9926974530574226
2014-08-28,1,0.0015340369495959857,0.0015794691811049533,-0.0066216150816496375,0.001251855521518544,0.993255551956807
2014-09-02,1,0.0011390117098010529,0.0011712019078918053,-0.007016122752811223,0.000589534385335534,0.9927093677660894
2014-09-04,1,5.8322202486723543e-05,0.00028566690256083115,-0.007016122752811223,0.0014732745788286722,0.9928698571450639
2014-09-08,0,-4.370197916680693e-05,0.00020437004922939156,-0.007016122752811223,0.0004011662267024408,0.992183764237395
2014-09-10,-1,-0.0005167160315296087,-0.00020914718367051437,-0.0074927062170680155,0.006074456164013818,0.9917512560902166
2014-09-12,-1,-0.00100193603893169,-0.0006720820466662335,-0.0074927062170680155,0.0076322882548138125,0.9919193718104032
2014-09-16,-1,-0.0009447878395118067,-0.0006335236888874556,-0.0074927062170680155,0.008885663209052302,0.9915523829711349
2014-09-18,-1,-0.0007694511200475472,-0.0005477106912325379,-0.008240581970035866,0.009170323630932946,0.9910419502367189
2014-09-22,-1,-0.001734327268432062,-0.0014002014133502624,-0.0066216150816496375,0.00981872353143424,0.9907338228890986
2014-09-24,-1,-0.0013851662069606996,-0.0010946202745603728,-0.007619992264216673,0.00981872353143424,0.9906566590384827
2014-09-26,-1,-0.0010320831192431978,-0.0008014396022961722,-0.007350850875332992,0.00981872353143424,0.9905259037472828
2014-09-30,-1,-0.00170701601112941,-0.0013899102878623436,-0.003425471758931894,0.00981872353143424,0.9904739893800162
2014-10-02,-1,-0.0014133066806417008,-0.0011390893069800727,-0.007350850875332992,0.01137930116443612,0.9889288209842902
2014-10-06,-1,-0.0011912752037712237,-0.0009488729163219666,-0.0005201593912191613,0.01197399213368527,0.9886575484544569
2014-10-08,-1,-0.0015177564450220497,-0.0012240100450906237,0.0016236195478911762,0.01197399213368527,0.9891973964614132
2014-10-10,-1,-0.0020556549282108837,-0.0016707891004165342,0.0007338301176339546,0.01197399213368527,0.9895942296781408
2014-10-14,-1,-0.0011887102257705012,-0.0009309289362269607,-0.002759135302625795,0.01025661860261164,0.9904331395246968
2014-10-16,-1,-0.0009735357615929762,-0.0007722325671323711,-0.002781135777264398,0.01025661860261164,0.9912224608886361
2014-10-20,1,0.0002391292829094619,0.0002795171246193358,-0.002781135777264398,0.0063233725241774435,0.9924941191524113
2014-10-22,1,0.00033750700489989507,0.00035837671817481767,-0.002781135777264398,0.0063233725241774435,0.9929454367552014
2014-10-24,1,0.0005965108954946437,0.000618203087060199,-0.002781135777264398,0.005042932456440026,0.9935794193281958
2014-10-28,1,0.0009804465405637026,0.0010277259462804227,-0.002781135777264398,0.00980035786436824,0.9927248234390537
2014-10-30,1,0.00020896606834711973,0.0002662974243526308,-0.002781135777264398,0.00980035786436824,0.9938729970712573
2014-11-03,1,0.0007005694696435927,0.0007247697431993583,-0.004116120664133482,0.005360239142102009,0.9944259886111285
2014-11-05,1,0.0006509117780480942,0.0006867393032717182,-0.004116120664133482,0.0051522873632575536,0.9945271559380793
2014-11-07,1,0.0004262687166827581,0.0004919555863793376,-0.00381396060401114,0.007531405753392679,0.9937468938647798
2014-11-11,1,0.0003918697164180322,0.00045083218813628435,-0.0029920454455677897,0.007531405753392679,0.99393639594567
2014-11-13,1,0.0006717638624947307,0.0007090525551805293,-0.0029920454455677897,0.007531405753392679,0.994042199148428
2014-11-17,1,0.0009848010475914312,0.0010966256358850915,-0.004567304067517568,0.007531405753392679,0.9928004186783564
2014-11-19,1,0.0013318385228203427,0.0015111509402089165,-0.00381396060401114,0.007899786330392171,0.9929543956060157
2014-11-21,1,0.0013482557738948727,0.001517085712939791,-0.00381396060401114,0.009009369855629838,0.9917133224868255
2014-11-25,1,0.002322244780456579,0.0026349957330120003,-0.00381396060401114,0.007899786330392171,0.9927765629855995
2014-11-28,1,0.0022920876275949196,0.0025938386503076083,-0.0029920454455677897,0.006829656862085296,0.9935410274011073
2014-12-02,1,0.001882737136270522,0.0020810765651342994,-0.004116561801148061,0.006829656862085296,0.9928617346630831
2014-12-04,1,0.0016969834723395273,0.001860826863676447,-0.0034393702443034284,0.006829656862085296,0.9928662372292918
2014-12-08,1,0.002349638631096878,0.002592490656156684,-0.0034393702443034284,0.0038197008306408314,0.993431120074716
2014-12-10,1,0.0021473186982142807,0.002359727854665881,-0.0023900490919513224,0.006540387403403649,0.9932008597805253
2014-12-12,1,0.0017402449172279767,0.0018847844841110037,-0.0011726188092310362,0.006540387403403649,0.9936415624669859
2014-12-16,1,0.000406523872184439,0.00044765234224680505,-0.0011726188092310362,0.006540387403403649,0.9946458527862504
2014-12-18,1,0.0009036295226990758,0.000921462526070295,-0.0015056544598892358,0.003993480573595644,0.994060291287285
2014-12-22,1,0.0015776739855829765,0.0016333231175003522,-0.002805352301168716,0.0031075692558460294,0.9940478338205311
2014-12-24,1,0.0016946006932886044,0.0017807192515601356,-0.005764757616455428,0.0031075692558460294,0.9933857750866223
2014-12-29,1,0.0015906456136018793,0.00165753011435942,-0.006716027902710566,0.0031075692558460294,0.9926299101411434
2014-12-31,1,0.0009755282100500115,0.0009799516981986165,-0.006031301703543051,0.003993480573595644,0.9930283388831054
2015-01-05,1,0.0012571015733003948,0.0013135760442849406,-0.006716027902710566,0.004248213727834611,0.992027345092546
2015-01-07,1,0.0016639972693343196,0.0018198688631743836,-0.0070783264495808745,0.006462692208936739,0.9915050223998945
2015-01-09,1,0.0020631872956621356,0.0022878261909102847,-0.008270855627375763,0.004019508492501551,0.9909137675449283
2015-01-13,1,0.002527191337628942,0.0028539268184881988,-0.008270855627375763,0.006462692208936739,0.9901617216028938
2015-01-15,1,0.0021873999793031573,0.0024752604738557758,-0.008270855627375763,0.007702681423146832,0.9902553255120298
2015-01-20,1,0.0017134009349322075,0.0019362344939610066,-0.008270855627375763,0.009677478704610151,0.9903208784175759
2015-01-22,1,0.0021189714228391845,0.002372486465837444,-0.00871219144734646,0.009369655872714898,0.9908108313541556
2015-01-26,1,0.0016723746453764432,0.0018665276810972565,-0.00871219144734646,0.009369655872714898,0.9904426638814927
2015-01-28,1,0.0009897787374063215,0.001085491279422952,-0.008018879769597989,0.009369655872714898,0.9909007652022536
2015-01-30,1,0.00134516631701343,0.0014917118541157887,-0.008018879769597989,0.007412881328429557,0.9916229133744596
2015-02-03,1,0.0008470060877282998,0.0009088909104791812,-0.009115043660894048,0.0063660921773643145,0.9915349392552181
2015-02-05,1,0.0002752145342618565,0.0003248408118126865,-0.011899187922325324,0.004910440207921562,0.9904957991472702
2015-02-09,-1,-0.000552755335009277,-0.0004055807985036232,-0.009478272596436528,0.007418235253364886,0.9903683841296053
2015-02-11,-1,-0.000676362591346408,-0.00048484637228442154,-0.009478272596436528,0.007418235253364886,0.9902974427223776
2015-02-13,-1,-0.0008429899716271432,-0.0005885370814284738,-0.011899187922325324,0.007418235253364886,0.9891212788019978
2015-02-18,-1,-0.0007259680032797877,-0.0005027904327800594,-0.009478272596436528,0.007418235253364886,0.9891518683736508
2015-02-20,-1,-0.0007804190153411037,-0.0005511055691290276,-0.009478272596436528,0.007692368099767208,0.9888755663864339
2015-02-24,-1,-0.0016184118322091425,-0.0012616155183030786,-0.007291806120062952,0.006004986978667199,0.9899921448142226
2015-02-26,-1,-0.0016833140135491663,-0.0013233407006909754,-0.009478272596436528,0.006004986978667199,0.9888511362435742
2015-03-02,-1,-0.001555472623622009,-0.0012163944670586565,-0.009478272596436528,0.006004986978667199,0.9888083259702513
2015-03-04,-1,-0.0027854713171141503,-0.002293805809996676,-0.007242711372201406,0.006004986978667199,0.9897291478555226
2015-03-06,-1,-0.004403416597142726,-0.0037129991765737034,-0.006706555567228182,0.006004986978667199,0.9909208664505357
2015-03-10,-1,-0.0038434280125019893,-0.0032459802576924623,-0.006706555567228182,0.0050173879747068915,0.9912748134945573
2015-03-12,-1,-0.003327863564080561,-0.002784932656828817,-0.006706555567228182,0.0030065916893240135,0.9918939715032055
2015-03-16,-1,-0.002851663243389693,-0.002411103312268837,-0.006631651170299975,0.00047271934791668014,0.9935130264413677
2015-03-18,-1,-0.0023193871463099173,-0.001942855317530712,-0.006631651170299975,0.0014029889537189363,0.9942791392316749
2015-03-20,-1,-0.0015150228924331285,-0.001266087458617128,-0.006631651170299975,0.0014029889537189363,0.9940806270065154
2015-03-24,-1,-0.0015409472481909968,-0.001301628279051776,-0.006631651170299975,0.0030065916893240135,0.9937692638387317
2015-03-26,-1,-0.0034268917169092694,-0.002934054602454119,-0.006265812326263612,0.0037381215273763245,0.9941720628691846
2015-03-30,-1,-0.0027388869042261794,-0.0023697933274382556,-0.006265812326263612,0.003613438570386982,0.9943661862259252
2015-04-01,-1,-0.002999560017673521,-0.002607244368409028,-0.006565104087899773,0.003613438570386982,0.9940014621025826
2015-04-06,-1,-0.0034349903908438683,-0.00298894864604231,-0.006624697302855252,0.004152236561633289,0.9928065762211012
2015-04-08,-1,-0.0035810771514745124,-0.0031174545053507625,-0.006624697302855252,0.003613438570386982,0.9928572974965572
2015-04-10,-1,-0.0039359552866344814,-0.003414615960301905,-0.006624697302855252,0.0047480289840277886,0.9907987232810733
2015-04-14,-1,-0.003953183928383458,-0.0034387540519022317,-0.00848032070955068,0.0047480289840277886,0.9905309720934194
2015-04-16,-1,-0.0034722734880555228,-0.0030257330964192633,-0.00848032070955068,0.007966949255470448,0.9898970657630196
2015-04-20,-1,-0.00386602781806919,-0.003384148229612028,-0.007287311953089087,0.007009738634790355,0.9907353561970927
2015-04-22,-1,-0.0031221951398094153,-0.002779533004516499,-0.007287311953089087,0.014887387695831738,0.9898578469230935
2015-04-24,-1,-0.002224577486337165,-0.001993333424172887,-0.007287311953089087,0.007276314830793501,0.9906238220266778
2015-04-28,-1,-0.00230822661599722,-0.002072949791119649,-0.007287311953089087,0.009093712758003846,0.9902940043707625
2015-04-30,-1,-0.003036254489718504,-0.0027163810185505174,-0.00646774232677492,0.009093712758003846,0.9904528291078462
2015-05-04,-1,-0.0023054187233358214,-0.0021204249922638823,-0.004918473595680069,0.005209780363443949,0.9919300617823329
2015-05-06,-1,-0.00271645963689285,-0.0024823831286741927,-0.005227837366328671,0.005209780363443949,0.9918195170088991
2015-05-08,-1,-0.001018684970465276,-0.0009762514708126853,-0.006195004195937659,0.0018179796998842829,0.9935822712528742
2015-05-12,-1,-0.0023147303252906586,-0.0020659786962921286,-0.006195004195937659,0.003028882926671763,0.9931529820067375
2015-05-14,-1,-0.0010883203620607378,-0.0010161673387869504,-0.006195004195937659,0.0023430124091183067,0.9933343296510273
2015-05-18,-1,-0.0007972051443475508,-0.0007667020091882141,-0.0038203122863739013,0.005209780363443949,0.9924215866905944
2015-05-20,1,6.625172843431691e-06,0.00015454057115485485,-0.005582121186036081,0.0023430124091183067,0.9928297026261467
2015-05-22,1,0.00023482545304897055,0.00041860617782920673,-0.005582121186036081,0.0013156337631380854,0.992913811108764
2015-05-27,1,0.00021405696972761896,0.00035445974403890845,-0.007439080442318454,0.00030609823820993424,0.9927593835297807
2015-05-29,0,-5.151269600272852e-05,7.219830716020026e-05,-0.007439080442318454,0.0013156337631380854,0.9926317169096435
2015-06-02,0,-3.420819554665578e-05,0.00010101866413407518,-0.0081292468060415,0.0013156337631380854,0.991963731196859
2015-06-04,-1,-0.0005324469914774394,-0.0004385222160379187,-0.007439080442318454,0.002839844204922561,0.992145548636775
2015-06-08,-1,-0.0004843330909027806,-0.00036956644979118704,-0.005745685124744852,0.007543558674376338,0.9918979759147176
2015-06-10,0,-0.00013924085670705328,8.878105946563079e-06,-0.008186709030730481,0.002566121774027516,0.9919144712044295
2015-06-12,1,5.274290597875072e-06,0.00015015606427101486,-0.008186709030730481,0.002566121774027516,0.9919981627908054
2015-06-16,1,0.0014594253660438193,0.0018390338600132322,-0.008975348635143127,0.0010258843808645158,0.9920783412773589
2015-06-18,1,0.0010227386465686808,0.0013245714466830361,-0.01015251063903664,0.00023992871421819385,0.9915492609682397
2015-06-22,1,0.0006905354786446819,0.0009194986153153243,-0.01015251063903664,0.001211923398167589,0.9914931523620891
2015-06-24,1,0.0006112037504501839,0.0008517775073692749,-0.01015251063903664,0.001211923398167589,0.9916365405677406
2015-06-26,1,0.000405391597753637,0.0006063879829259046,-0.00925266440647716,0.001211923398167589,0.9918377334965749
2015-06-30,-1,-0.0001566847928691026,-3.0733989564765056e-05,-0.008785593579464386,0.003347978508304596,0.9923981438222564
2015-07-02,0,-4.4547385670632344e-05,5.8853287414580566e-05,-0.008785593579464386,0.005807884048419879,0.9927654918552901
2015-07-07,1,0.0004619098918220274,0.0006503795710052003,-0.008785593579464386,0.005807884048419879,0.9928851689308176
2015-07-09,0,-9.850082062197148e-05,4.724042245359168e-05,-0.00817219403968444,0.005807884048419879,0.9934482769910098
2015-07-13,1,0.00048641759110377547,0.0007146312775714797,-0.00817219403968444,0.005807884048419879,0.9934019770757995
2015-07-15,1,0.00011007936528464142,0.0002924157525446805,-0.008019924438891466,0.005807884048419879,0.9935041743553815
2015-07-17,-1,-0.0007311021614956767,-0.0006780217103913206,-0.004409180019217348,0.006687781241119745,0.99400435596371
2015-07-21,-1,-0.0008574348200195573,-0.0008172391261114222,-0.003700639335518427,0.006687781241119745,0.9942236400322062
2015-07-23,-1,-0.0009030894226539365,-0.0008557833411766361,-0.005092800370697959,0.006687781241119745,0.9936826736522627
2015-07-27,-1,-0.0013922134423676466,-0.0013408593037592769,-0.007790720151375974,0.005573822214095626,0.9905288971114846
2015-07-29,-1,-0.001880684539427284,-0.0017144365990507582,-0.008289670607283778,0.005573822214095626,0.9879239462236714
2015-07-31,-1,-0.0010995769534440942,-0.0010394280329017115,-0.008289670607283778,0.006868193533645197,0.9872259999887899
2015-08-04,-1,-0.0001464470464478774,-4.7270337634113565e-05,-0.01063644044070797,0.0050214459038858145,0.9868332338588514
2015-08-06,-1,-0.0005220174655910969,-0.00047510949319088834,-0.01063644044070797,0.006924373833497343,0.98684718679326
2015-08-10,1,0.00027810942477575376,0.00045816282739017116,-0.011138829788363197,0.006924373833497343,0.9861768130011486
2015-08-12,1,0.0006578051156334328,0.0008845686634082973,-0.014144235556312734,0.008395107934471497,0.9848268437669707
2015-08-14,1,0.0007055661906858449,0.0009190851775940079,-0.014144235556312734,0.008395107934471497,0.9848140348358632
2015-08-18,1,0.00014338334650830444,0.00022627322727061198,-0.014144235556312734,0.008986098826410526,0.9828588777586449
2015-08-20,-1,-0.00037623613433695146,-0.0003554882251835277,-0.014183071051438581,0.008986098826410526,0.9827834734049851
2015-08-24,-1,-0.0027908312144380547,-0.0025151381179511468,-0.01253980181427829,0.008986098826410526,0.9853779550213482
2015-08-26,-1,-0.0032817434362596275,-0.0029360383751948927,-0.012374197418221624,0.008395107934471497,0.9880827683941364
2015-08-28,-1,-0.0024049428529277477,-0.0021635593681022702,-0.012374197418221624,0.006229161892313508,0.9891751363142764
2015-09-01,-1,-0.0032549192857607365,-0.0029074086469109525,-0.012180090098932419,0.007387358025369606,0.9889001546941671
2015-09-03,-1,-0.0031070247378386048,-0.0027727460980275427,-0.012351482439254786,0.007860807275571442,0.9883394383621033
2015-09-08,-1,-0.0029382430442201433,-0.0026488023776669147,-0.012180090098932419,0.00789012419201338,0.9885887429333164
2015-09-10,-1,-0.0035773526275946124,-0.0031841001512218576,-0.006876408950056619,0.010635144361557158,0.9889895096124356
2015-09-14,-1,-0.0036677417763210903,-0.0032730200305196916,-0.006787093341514878,0.010755533983326133,0.9885832613912593
2015-09-16,-1,-0.0010352350145708472,-0.0009853449477853745,-0.006787093341514878,0.010387531654100987,0.9907911799273229
2015-09-18,-1,-0.001874425619947517,-0.001717004045029964,-0.004229691091421386,0.010755533983326133,0.9904763114306803
2015-09-22,-1,-0.0027805422885371933,-0.002489100629560878,-0.004229691091421386,0.010755533983326133,0.9911126386828801
2015-09-24,-1,-0.0030696261605641494,-0.0027500135691771004,-0.003772733337237508,0.012176173608141268,0.989854331167507
2015-09-28,-1,-0.003699720663923665,-0.003289689576488244,-0.003772733337237508,0.012176173608141268,0.9889563521662353
2015-09-30,-1,-0.0021526928851699403,-0.0019964185845275386,-0.004107949897563372,0.012176173608141268,0.9894920691977863
2015-10-02,-1,-0.0019452465971888102,-0.0017905534995162596,-0.003772733337237508,0.010755533983326133,0.9905050680779764
2015-10-06,-1,-0.0012472269073962817,-0.0012104867776546095,-0.0037578146755993273,0.010755533983326133,0.9887588560347258
2015-10-08,-1,-0.0005207090049201104,-0.0004894084081355187,-0.003772733337237508,0.008979156395769705,0.9898032607387968
2015-10-12,1,0.0004991907509733133,0.0007315249861985965,-0.004825135244811318,0.0065846467837037854,0.988230666678092
2015-10-14,1,0.0004230466973892073,0.0006415686601488692,-0.006468351264953614,0.008979156395769705,0.9872410490028148
2015-10-16,1,0.0014952533091524885,0.0018711362106090049,-0.008607080144602267,0.006266756808085406,0.9871776481546498
2015-10-20,1,0.0010231815673580143,0.001314932719404144,-0.008607080144602267,0.012434421025188354,0.9854692703973736
2015-10-22,1,0.0016873242639485343,0.002045194728091823,-0.008607080144602267,0.012434421025188354,0.9849030991295233
2015-10-26,1,0.0005560654450036198,0.0007291486339459777,-0.007493359437525012,0.012434421025188354,0.9854294201867773
2015-10-28,1,0.0006068958444453141,0.0007797870210863538,-0.005358893803767224,0.012434421025188354,0.9858435839306994
2015-10-30,1,0.0008283358744821836,0.0010559320780911055,-0.006420203675164578,0.012434421025188354,0.9859088461030786
2015-11-03,1,0.0027397711749798464,0.0032296142922148808,-0.007562188416237656,0.00696370363975157,0.9878602083717832
2015-11-05,1,0.0032761680944320953,0.0039018094257845365,-0.00897164525897449,0.010795564491772665,0.9868740403423557
2015-11-09,1,0.0017099467997919878,0.002103224020841283,-0.007542874539673135,0.010795564491772665,0.9887883041162714
2015-11-11,1,0.0020286540148534453,0.002461303089040812,-0.008436087137687339,0.00696370363975157,0.9889676421817347
2015-11-13,1,0.0012166692357460792,0.0015270274356334091,-0.008913703629280926,0.00696370363975157,0.9885345794026649
2015-11-17,1,0.0028630826330348523,0.003385453764739475,-0.008913703629280926,0.004207186696939558,0.9892991411000343
2015-11-19,1,0.0028515380611424104,0.0033303346400442896,-0.009937014533914029,0.0031040925340072934,0.9886775292780449
2015-11-23,1,0.003632687401857405,0.004238148012616773,-0.009937014533914029,0.004089424848239998,0.9883398585381197
2015-11-25,1,0.0041192562390196304,0.004807860845937999,-0.009937014533914029,0.0039742514336145165,0.9876664783566675
2015-11-30,1,0.0034974052849203385,0.004050602894239301,-0.009937014533914029,0.0039742514336145165,0.9879417744915246
2015-12-02,1,0.0033395545741917035,0.003899331569997737,-0.009937014533914029,0.0039742514336145165,0.9876328165626636
2015-12-04,1,0.0035064301778120564,0.004059449282501206,-0.009468100908354565,0.0030657013957987997,0.9883966045448971
2015-12-08,1,0.0025132322701518542,0.00289087240897475,-0.012536409612119576,0.0030657013957987997,0.9868123555656317
2015-12-10,1,0.0017665366889514974,0.0020308064387020543,-0.012536409612119576,0.0030657013957987997,0.9870482016099649
2015-12-14,1,0.0007759358938491153,0.0008956151008631735,-0.010762058398964495,0.0030657013957987997,0.9871805794225023
2015-12-16,1,0.0018303149570235624,0.0020897524588412092,-0.014874983116536449,0.0015680319111007327,0.986242451729115
2015-12-18,1,0.0003815817373118318,0.00046743772236035444,-0.01550881732658313,0.0015680319111007327,0.9866762380365383
2015-12-22,1,0.0006969131681991074,0.0008279053937857894,-0.01550881732658313,0.0015680319111007327,0.9860063589204533
2015-12-24,1,0.0016286811132134548,0.0019137505479201085,-0.021545199117408036,-0.0033349745635936185,0.9841378205470536
2015-12-29,1,0.0012031511493478535,0.0014029038573281111,-0.021545199117408036,-0.004772071908752484,0.9839076827026668
2015-12-31,1,0.0007377359281217175,0.0009041299547207316,-0.021545199117408036,0.004207943571709024,0.9820914207216683
2016-01-05,1,0.0006721848185367692,0.0008265776411181666,-0.022140187486595984,0.006297143904303798,0.9808177154237581
2016-01-07,-1,-0.0010793521820501337,-0.0010248094389878905,-0.021611812830341373,0.010093351857958562,0.9804084997117921
2016-01-11,-1,-0.0009995988437454003,-0.0009692693617386505,-0.02290341828247877,0.010093351857958562,0.9794828051691981
2016-01-13,-1,-0.002446314294930666,-0.002217183551564307,-0.02290341828247877,0.010093351857958562,0.9796620824884402
2016-01-15,-1,-0.0053543563802110495,-0.0046506572751906505,-0.021360069618711102,0.01639511089487603,0.978012068858967
2016-01-20,-1,-0.007289747530936931,-0.006327304511710109,-0.018068812146360757,0.016875441981191043,0.9782708060581697
2016-01-22,-1,-0.005457791608042242,-0.004759614666371021,-0.021360069618711102,0.017138475571820556,0.9769454116088757
2016-01-26,-1,-0.006865336850650527,-0.005963668535687,-0.018068812146360757,0.021160473595237025,0.9757760630425046
2016-01-28,-1,-0.007255801226125666,-0.006328185606929786,-0.018068812146360757,0.021160473595237025,0.9742257668338621
2016-02-01,-1,-0.00480742943701357,-0.004151547052716375,-0.018068812146360757,0.01938373746042826,0.9757918508658128
2016-02-03,-1,-0.0060073477347868855,-0.005190079504068051,-0.014878661821838108,0.01938373746042826,0.9756495140794167
2016-02-05,-1,-0.008248923770005502,-0.007164239170024292,-0.013771704077993607,0.01938373746042826,0.9775168836803912
2016-02-09,-1,-0.008323623170556101,-0.007327795500355134,0.0009158762278422138,0.01938373746042826,0.9777695722591561
2016-02-11,-1,-0.009896803889480551,-0.008706137745879554,0.006843884196079471,0.024088034012680833,0.9748722017476226
2016-02-16,-1,-0.007259288868349376,-0.00634690325730025,0.006843884196079471,0.019209955469012482,0.9790076160639695
2016-02-18,-1,-0.007497535162426985,-0.006532069586924918,0.006843884196079471,0.02192437617174389,0.9783794084580231
2016-02-22,-1,-0.008018406863229594,-0.006970305202681849,0.006447835420736752,0.018677740398989284,0.9802912123787229
2016-02-24,-1,-0.005094190530592265,-0.004423957886925185,0.005509398623661403,0.015370191482028497,0.9852601221931998
2016-02-26,-1,-0.004045145614175629,-0.003511446579931608,0.003895274719585907,0.015370191482028497,0.9865573964139484
2016-03-01,-1,-0.002131257162191513,-0.0018428979666520453,0.0032077048084952326,0.012748614335895745,0.9892277719846961
2016-03-03,-1,-0.0006666071823683244,-0.0006001568160945756,0.002343732499142768,0.0110623446620216,0.9910525853249454
2016-03-07,1,6.001695098690194e-07,2.6054234708519755e-05,0.0005664817154547653,0.0110623446620216,0.9914426608927757
2016-03-09,-1,-7.492843496677809e-05,-5.756065471894366e-05,0.0003305642434951371,0.0110623446620216,0.9917615661109408
2016-03-11,1,0.0018131472513358113,0.002130035006172249,0.0003305642434951371,0.009564450820593116,0.9938083503946937
2016-03-15,1,0.0023556526475190746,0.0027220317811421525,0.0003305642434951371,0.009465290344192252,0.994241825808349
2016-03-17,1,0.0037715315416664407,0.004389884084695715,0.00024367028895587537,0.00679373884302051,0.9948288322820253
2016-03-21,1,0.0033927285041109086,0.003904190428975795,-7.81512109517467e-05,0.008452799908843525,0.9947195680269597
2016-03-23,1,0.003288404047256971,0.0037871449299099317,-0.0007034926166046057,0.006164096675451669,0.9952290882328269
2016-03-28,1,0.0036849654914014457,0.004234476838503471,-0.0018792712825864287,0.006164096675451669,0.9941851291645977
2016-03-30,1,0.005158146315993547,0.006023697887802558,-0.0018792712825864287,0.006164096675451669,0.9938683419387963
2016-04-01,1,0.005314032686084992,0.006198667474803764,-0.0018792712825864287,0.0054021286308855755,0.9933305049660238
2016-04-05,1,0.004084325996436577,0.004704103059254875,-0.0018792712825864287,0.005784522941514851,0.9936162740952725
2016-04-07,1,0.004208671196384281,0.004864197541579518,-0.0021213514054559367,0.005784522941514851,0.9935134263289835
2016-04-11,1,0.004325909965910451,0.0049507841258643655,-0.0031441169449916255,0.004598921154275093,0.9926614143487689
2016-04-13,1,0.00566787851598198,0.006575038441523778,-0.003441812139559055,0.0035163565043213937,0.9915605136492691
2016-04-15,1,0.006161156559298931,0.007206608813032037,-0.005408893806923146,0.004637882651299274,0.9910363938923787
2016-04-19,1,0.006456496782395778,0.007542738027595748,-0.009101264833412337,0.003804183264948511,0.9902417344245893
2016-04-21,1,0.006473560530991897,0.0075834391850405185,-0.009101264833412337,0.003804183264948511,0.9898449718747702
2016-04-25,1,0.0064641542689205505,0.007564867765412108,-0.007881000742532477,0.003852740381365013,0.990531491367849
2016-04-27,1,0.006688152023490101,0.007791148837485734,-0.007881000742532477,0.004637882651299274,0.9906501947050597
2016-04-29,1,0.006660753901376904,0.00778149080359008,-0.006643079666013244,0.005575982936568902,0.9910190612080021
2016-05-03,1,0.005749552949174713,0.0067140822187107055,-0.005875552697175329,0.005232550122963807,0.9921055696656386
2016-05-05,1,0.005299334929144667,0.0061614543178853485,-0.006445196316611258,0.005232550122963807,0.9920445162001396
2016-05-09,1,0.0041184813571727924,0.004761686062972622,-0.005875552697175329,0.005232550122963807,0.9936257713826104
2016-05-11,1,0.004654542025586572,0.005429435880121231,-0.006900694871394856,0.004561885457564577,0.9920120525919855
2016-05-13,1,0.003699749826222453,0.004252397391680504,-0.006900694871394856,0.004532881112389727,0.9916424182776434
2016-05-17,1,0.003927304387619314,0.004556699696651425,-0.006900694871394856,0.004532881112389727,0.9901387784784861
2016-05-19,1,0.0038349885192844393,0.004491047494168144,-0.006445196316611258,0.004532881112389727,0.9907799396204933
2016-05-23,1,0.004419729979900153,0.005145273766638271,-0.0075920308068116935,0.0030152585001630467,0.989743094699774
2016-05-25,1,0.0045888361281596285,0.005289353348679629,-0.0075920308068116935,0.0014511312918081855,0.9885788574024301
2016-05-27,1,0.004408334307658664,0.005075266427820944,-0.015420720209110825,0.0008725132294771907,0.984210609298425
2016-06-01,1,0.0030479346642774225,0.003407819314132826,-0.015420720209110825,0.0030152585001630467,0.9817254850758457
2016-06-03,1,0.0022845000565201823,0.002498784473805076,-0.015420720209110825,0.011565900739036844,0.9814023786344502
2016-06-07,1,0.0016114086179138936,0.0016677617408713283,-0.015420720209110825,0.012352965173940545,0.9802467274728327
2016-06-09,-1,-0.0002563578147253277,-1.638781814821712e-05,-0.014248662797723466,0.0150022193386779,0.9808179955101415
2016-06-13,-1,-0.0023882015533970243,-0.0018059995112599417,-0.004790384236328954,0.018501883093645765,0.9801072771542458
2016-06-15,-1,-0.0031353091136601154,-0.0025208471034336927,0.0002368404173827088,0.018501883093645765,0.980645190170704
2016-06-17,-1,-0.003944934184903135,-0.0031812925643244163,0.00041992772710674196,0.018501883093645765,0.979952924427501
2016-06-21,-1,-0.004614708928012113,-0.003741515526846089,0.00041992772710674196,0.018501883093645765,0.9800466334219335
2016-06-23,-1,-0.001917040045351886,-0.001478946125912216,-0.00031020330611412125,0.017807021731289622,0.9827265197727186
2016-06-27,-1,-0.006269367200053136,-0.005276731351910101,0.0015536264366537776,0.017807021731289622,0.9831756326230174
2016-06-29,-1,-0.004063294185364587,-0.0032287875543936164,-0.00031020330611412125,0.013230602176487123,0.989200126267169
2016-07-01,-1,-0.004029242167823424,-0.0031307244701340472,-0.00031020330611412125,0.011341163180843753,0.9901661581893333
2016-07-06,-1,-0.005439830508628792,-0.004257607266704532,-0.0007735875266234243,0.010207821321110092,0.990532200546777
2016-07-08,-1,-0.003562171882949196,-0.0027152727421209007,-0.0007735875266234243,0.008989109858383755,0.9915543934895686
2016-07-12,-1,-0.00229500956689564,-0.001622582892641345,-0.003229805596607746,0.006678432153043828,0.9935994740581783
2016-07-14,-1,-0.0027975093825792947,-0.0020241422019326373,-0.006744467239591575,0.0074458132916435035,0.9930116482949597
2016-07-18,-1,-0.0013655444744175424,-0.0008818893199798632,-0.007746585376367644,0.0074458132916435035,0.9927482645427905
2016-07-20,-1,-0.00115199452845899,-0.0007184691580059323,-0.008096862580888806,0.006046820567787721,0.9927320980023498
2016-07-22,-1,-0.00039033445950918536,-0.00011062174305639732,-0.008758478927056428,0.006046820567787721,0.9921878706389957
2016-07-26,1,0.0003985703077025169,0.0005574908358870288,-0.008758478927056428,0.006046820567787721,0.9922138922612698
2016-07-28,0,-0.0001483256481496771,5.498939655769475e-05,-0.008758478927056428,0.0074458132916435035,0.9918392158090992
2016-08-01,0,-4.1411068444440315e-05,0.00016233856890800517,-0.010234061376790622,0.0074458132916435035,0.9908700788047856
2016-08-03,1,0.00035824335349189055,0.00044702302338526026,-0.009526849516335121,0.0074458132916435035,0.9910934260807375
2016-08-05,1,0.001254576716421788,0.0013121627302356232,-0.009526849516335121,0.005866005739522119,0.9915886944974079
2016-08-09,1,0.0009195157399299749,0.0009786694848317827,-0.009345096912853956,0.00725260910666165,0.9915044803212684
2016-08-11,1,0.001051896561756324,0.0011326722851874274,-0.011993915334183208,0.005866005739522119,0.990075028800233
2016-08-15,1,0.0003982551205340154,0.0004094514288377878,-0.011993915334183208,0.00725260910666165,0.98853610065666
2016-08-17,1,0.00041662389036871503,0.00043203687148008765,-0.009345096912853956,0.01009774247814561,0.9886434866035501
2016-08-19,1,0.00011426117572021951,0.00011497095380325544,-0.008676320714873972,0.01009774247814561,0.988699951929883
2016-08-23,1,0.0005259557240705551,0.0005880621193596184,-0.008676320714873972,0.010133320810002192,0.9883643644134044
2016-08-25,1,0.00039586348510767385,0.0003997636012940069,-0.0061577619180815425,0.010133320810002192,0.9866854631807486
2016-08-29,1,0.0004728695893656598,0.0004873014613585828,-0.0061577619180815425,0.008028289002806974,0.9872601709797642
2016-08-31,1,0.0009381472049276845,0.001047834119726797,-0.008676320714873972,0.010133320810002192,0.9857568029915386
2016-09-02,1,0.0012099192192957632,0.0013877667005473865,-0.008676320714873972,0.010133320810002192,0.9855537740836223
2016-09-07,1,0.001050124590202032,0.0012014263305142297,-0.013517152136555726,0.00811458363877621,0.9847060575539716
2016-09-09,-1,-6.747848557655316e-05,-4.545418451340624e-05,-0.008865410940730097,0.010965057074208709,0.9861254171991954
2016-09-13,-1,-0.0004899882231654623,-0.0004489375955005971,-0.00813795519493869,0.00811458363877621,0.9881572223299665
2016-09-15,-1,-0.0001877777713776452,-0.0001866031025216891,-0.00813795519493869,0.008687435995075021,0.9877822282624971
2016-09-19,-1,-0.00016883235581778078,-0.0001305537679127462,-0.006646339974283986,0.008668070259872013,0.987878581286284
2016-09-21,1,0.00025500885231474453,0.00033284109120585505,-0.005765011529208236,0.006800821386387715,0.9884017842638029
2016-09-23,1,0.001505211221297442,0.0017128227266667933,-0.010386156396752319,0.0059830286167984244,0.9904171637700405
2016-09-27,1,0.0009336901221601993,0.0010615477926215894,-0.007414653364470139,0.0059830286167984244,0.9910211867780471
2016-09-29,1,0.0006461292700084195,0.0007047504183256305,-0.007414653364470139,0.005979221321838039,0.9910867345477363
2016-10-03,1,0.000584546378520516,0.0006337537600045294,-0.010386156396752319,0.005979221321838039,0.990504648319888
2016-10-05,-1,-0.0008709444519751493,-0.0007302805135559449,-0.010456183505869188,0.005979221321838039,0.9906242034050347
2016-10-07,-1,-0.00019625473051691102,-0.00014214922979425066,-0.010456183505869188,0.0035776985880991603,0.9911229222859713
2016-10-11,-1,-0.0006935763237269198,-0.0005636585330587603,-0.008212136219378415,0.005979221321838039,0.9904675661532331
2016-10-13,1,0.00014674706122761965,0.0001483030127913116,-0.01349398658972428,0.005979221321838039,0.9901687288795668
2016-10-17,1,0.0006596678071310751,0.0007521182771435904,-0.015600642787960677,0.003956832658947488,0.9882404167646509
2016-10-19,1,0.0009627875596068769,0.0010969493149381154,-0.015600642787960677,0.003956832658947488,0.987318237384387
2016-10-21,1,0.00013861365799800626,0.00013915409177365216,-0.015600642787960677,0.007594871231205576,0.9865751903679216
2016-10-25,1,5.3197319862625575e-05,6.314072240576584e-05,-0.015600642787960677,0.015710813801004517,0.9853553712837949
2016-10-27,-1,-0.0004987971375796881,-0.0004284852572723044,-0.011327204215930564,0.015710813801004517,0.9863215943854774
2016-10-31,-1,-0.0016108811442925649,-0.0013755786699905781,-0.011497796856776172,0.015710813801004517,0.9859749311159521
2016-11-02,-1,-0.0033688271048484767,-0.002889422846011006,-0.00784181047400598,0.015710813801004517,0.9869508908781409
2016-11-04,-1,-0.00404275414386376,-0.0034376096949612104,-0.00784181047400598,0.01725184842862481,0.9850541200567421
2016-11-08,-1,-0.0031435448026757296,-0.0026452930585020695,-0.00784181047400598,0.01725184842862481,0.9846397006017368
2016-11-10,-1,-0.0036528892698028392,-0.003083332327355269,-0.005744363444937348,0.01725184842862481,0.985764739960591
2016-11-14,-1,-0.0018956553859632997,-0.0015927223527309618,-0.005744363444937348,0.015710813801004517,0.9863404149986585
2016-11-16,-1,-0.0041812370024640715,-0.0034330502271522957,-0.010117316240464698,0.014652451481086555,0.985451199134557
2016-11-18,-1,-0.000695902901316638,-0.0005126326093478573,-0.010117316240464698,0.012762236926756123,0.986642472260983
2016-11-22,1,0.0005861342038284744,0.0005943541871663831,-0.010117316240464698,0.006284800232300527,0.9874316242378808
2016-11-25,1,0.00024181062624752618,0.0002750310159884045,-0.00875114032273711,0.004981974239793458,0.987831896265055
2016-11-29,-1,-0.0003360237445880866,-0.0002587960831102938,-0.00875114032273711,0.004981974239793458,0.9881559510121078
2016-12-01,-1,-0.0002627194899499646,-0.00025818923339554955,-0.008245198015245364,0.00847140974064114,0.987783473938752
2016-12-05,1,0.0010295554556599765,0.0011992583771216828,-0.008245198015245364,0.007638500800520838,0.98861634769778
2016-12-07,1,0.002497943424876954,0.0028765118378823694,-0.008245198015245364,0.007638500800520838,0.9894901940622705
2016-12-09,1,0.0020192738730428197,0.00233964700890521,-0.008245198015245364,0.007638500800520838,0.9895219848095815
2016-12-13,1,0.0014090823238660708,0.0016523050425417834,-0.008245198015245364,0.007286324625559955,0.990715045894879
2016-12-15,1,0.00040459048781588873,0.0005477406805963297,-0.006804298629096853,0.007286324625559955,0.9929034481189426
2016-12-19,0,-3.812244231561309e-06,5.193737861226285e-05,-0.006804298629096853,0.007286324625559955,0.9928039536881024
2016-12-21,1,0.0004860038115492537,0.0006282078295410428,-0.006804298629096853,0.006833109324866561,0.9930017646648002
2016-12-23,1,0.0002029536411446966,0.0002949908954973616,-0.005372081930732719,0.00891319851165568,0.9906485818544071
2016-12-28,-1,-0.00014866632338105738,-6.716814926189738e-05,-0.00795375304263138,0.00891319851165568,0.9902452062018463
2016-12-30,-1,-0.00024961573083816935,-0.0002220850395063706,-0.004388346640953623,0.00783670418220049,0.9909871691658646
2017-01-04,1,0.000455020997630128,0.0005863361116646591,-0.00720385821966633,0.006833109324866561,0.9910757523197611
2017-01-06,1,0.0003905024459100731,0.00048129770957604007,-0.008189127473460584,0.006833109324866561,0.9896267623434134
2017-01-10,1,0.00019686606812565773,0.00025383102537229426,-0.00764355797471328,0.010763756429797018,0.9886700888120499
2017-01-12,-1,-0.00022636948593111547,-0.00020184505308403682,-0.0042064901413711876,0.013437075511850988,0.9884313266928492
2017-01-17,-1,-0.00014434728645811007,-0.00011351044227327297,-0.00764355797471328,0.019261843574355855,0.9869697210120836
2017-01-19,-1,-0.0005506603657743607,-0.0005336675523141647,-0.004874916434546026,0.019261843574355855,0.9867239036125252
2017-01-23,-1,-8.408305760353278e-05,-4.91459463524512e-05,-0.004874916434546026,0.019261843574355855,0.986535486988338
2017-01-25,1,0.001874715890447742,0.0021808503452724537,-0.006611324966517849,0.011855132171245175,0.9888116124169957
2017-01-27,1,0.0008735968395643061,0.0010307689839361687,-0.004530576340014418,0.013802929153031005,0.9894259401180551
2017-01-31,1,0.0009791233151496329,0.0011485533021270047,-0.005852089185300391,0.013802929153031005,0.9889994945519326
2017-02-02,1,0.00043154994074072126,0.0004959990243768879,-0.004530576340014418,0.013802929153031005,0.9895641889057291
2017-02-06,1,8.561981175219673e-05,0.0001346930629629138,-0.005852089185300391,0.011855132171245175,0.9906766533761211
2017-02-08,1,0.0011075100512051056,0.0011993869843335706,-0.00647631227152534,0.010563267386641874,0.9912714437659504
2017-02-10,1,0.0016421689597007321,0.0017949456803108583,-0.00647631227152534,0.005507882579311401,0.9923526315047524
2017-02-14,1,0.0018368083474215654,0.0020309409173522837,-0.005852089185300391,0.005507882579311401,0.9930968678444282
2017-02-16,1,0.003246918883603907,0.0037402800066459875,-0.00647631227152534,0.0036125949765838878,0.9921550894910836
2017-02-21,1,0.003461508771254272,0.003948460337838389,-0.006714962544866757,0.0036125949765838878,0.9920046883902377
2017-02-23,1,0.003092412598386091,0.0035349751304193803,-0.006714962544866757,0.004268418770089279,0.9926560957565375
2017-02-27,1,0.0033733787509713804,0.0038477496328544122,-0.007807346637236345,0.004268418770089279,0.9924618103527818
2017-03-01,1,0.00272874750575792,0.00303530119705866,-0.007807346637236345,0.0036568253221328836,0.9931318979693231
2017-03-03,1,0.0028896715641445435,0.003241214287461879,-0.007807346637236345,0.004268418770089279,0.9929462074584704
2017-03-07,1,0.0019358333991483594,0.0021402678394655027,-0.005085625964413979,0.00592032115473071,0.9935076938679578
2017-03-09,1,0.0018667239271387757,0.0020899184390858845,-0.003263255938496028,0.007899311442603653,0.9936425873128164
2017-03-13,1,0.0021562130073249923,0.0024402175137824018,-0.0038299781393174464,0.00969565876693081,0.9928923325162843
2017-03-15,1,0.0029795330996335717,0.003390337031838318,-0.0038299781393174464,0.007899311442603653,0.9932716163243254
2017-03-17,1,0.001723218649615678,0.0019235177246067301,-0.003162510898406669,0.00969565876693081,0.9934976076595117
2017-03-21,1,0.0014333576260388108,0.0015821344118158397,-0.0038813776724266782,0.00969565876693081,0.9933373780805098
2017-03-23,1,0.001464130934130393,0.0015644496540912593,-0.004683569986930482,0.008990280436743658,0.9930160187797721
2017-03-27,1,0.0010345368825205837,0.0010359332157190526,-0.004683569986930482,0.008693250686161856,0.9923507712280094
2017-03-29,0,-0.00013678340333727799,8.34407621622174e-05,-0.004683569986930482,0.009845583085202156,0.9918905543698316
2017-03-31,1,9.518923218061021e-05,0.00031791584938904575,-0.006685913214058709,0.008693250686161856,0.9909774951436693
2017-04-04,1,0.0005427949708577211,0.0006705994921537002,-0.006685913214058709,0.008693250686161856,0.9907947673648977
2017-04-06,1,0.0007421047232251618,0.0008706978832051332,-0.006685913214058709,0.008693250686161856,0.9904739335847506
2017-04-10,1,0.001404826400985808,0.001424299698552052,-0.006685913214058709,0.007837294543479775,0.9904873544950903
2017-04-12,1,0.0014288352785422741,0.0014373338845727539,-0.007361869283083693,0.007837294543479775,0.9903343577195882
2017-04-17,1,0.0023255375991181517,0.0025238793018448648,-0.007361869283083693,0.007159688545615601,0.9906075608003395
2017-04-19,1,0.002432916042980694,0.0027218811636695673,-0.007560522123214923,0.007159688545615601,0.990763362003975
2017-04-21,1,0.002383581004054914,0.002654296375839758,-0.007560522123214923,0.007159688545615601,0.9909249688373013
2017-04-25,1,0.000996135203957035,0.0010095163202245745,-0.006501134184537509,0.004429454824197936,0.9927225352978688
2017-04-27,1,0.0012630958273576276,0.001263428970683557,-0.006501134184537509,0.003327555258287379,0.9933029480322011
2017-05-01,1,0.0006131445920580802,0.0006163364147606824,-0.004813842074092791,0.0033918805160331666,0.9947514956677216
2017-05-03,1,0.0009811238760775364,0.0011166081593487755,-0.004813842074092791,0.003483057870504653,0.9944138866096447
2017-05-05,1,0.0011900497302285784,0.001342974444395291,-0.004130347001777748,0.003327555258287379,0.9949452811715029
2017-05-09,1,0.00033266502323495335,0.0003403401466539573,-0.004115425773919778,0.003327555258287379,0.9951378414227403
2017-05-11,-1,-0.0014293961697083362,-0.0011053980824159058,-0.004115425773919778,0.003483057870504653,0.9940140975191604
2017-05-15,-1,-0.0014725510523253397,-0.0011302150448415016,-0.004115425773919778,0.004516196469309107,0.9935231765643089
2017-05-17,-1,-0.0017017131825042956,-0.001356547063854702,-0.004115425773919778,0.004516196469309107,0.9938559581986083
2017-05-19,-1,-0.0017653801444801368,-0.0013896144685276064,-0.004115425773919778,0.004516196469309107,0.9936241469915866
2017-05-23,-1,-0.002354078813988664,-0.0018567736928576841,-0.004876251752578761,0.004516196469309107,0.9935931532937287
2017-05-25,-1,-0.002187852653712948,-0.0017205331834477082,-0.004876251752578761,0.005982102616646895,0.9932034613785644
2017-05-30,-1,-0.0019423014825778392,-0.0015363591448847372,-0.0055459600514149434,0.005982102616646895,0.9919461358534869
2017-06-01,-1,-0.0013671471476804182,-0.0010444159614607497,-0.005247910457214814,0.005982102616646895,0.9923274711903763
2017-06-05,-1,-0.0017039806151486856,-0.0013284310254248395,-0.005247910457214814,0.0073512049955619975,0.9914412132413163
2017-06-07,-1,-0.0024467742035136925,-0.001971407317751676,-0.007672583029644584,0.0073512049955619975,0.9897975745431873
2017-06-09,-1,-0.002292549480393754,-0.0018351798278814495,-0.005247910457214814,0.006327700120036554,0.9909495801893954
2017-06-13,-1,-0.0019329159906962753,-0.0014837633707100754,-0.005247910457214814,0.007170538183391934,0.9907926816267546
2017-06-15,-1,-0.0021536928651384613,-0.0016900892473583132,-0.006011262053990791,0.009414037877336879,0.9899895355628223
2017-06-19,-1,-0.00019325966595206122,-7.585211663411828e-05,-0.007178059051569189,0.007906240939692357,0.9898460776230004
2017-06-21,-1,-0.0014285459039212948,-0.0011028563177653671,-0.007178059051569189,0.009414037877336879,0.9887469790209402
2017-06-23,-1,-0.0009752960464666755,-0.0007044649439333112,-0.008930189057656952,0.011152687157034892,0.9883941043040441
2017-06-27,-1,-0.0027816984755690624,-0.0023024000681502966,-0.0059905493973666304,0.011152687157034892,0.9895618844926891
2017-06-29,-1,-0.0025298040725639888,-0.002079073278723551,-0.006961179154570266,0.010016160892010361,0.9880413614722099
2017-07-03,-1,-0.000889985605166931,-0.0006962389999347501,-0.006961179154570266,0.009035195788995368,0.9887918596316315
2017-07-06,-1,-0.0025717587647555444,-0.002234921139453347,-0.0059905493973666304,0.010016160892010361,0.9886079168211632
2017-07-10,-1,-0.0022286123679149264,-0.001942664572065222,-0.0059905493973666304,0.010016160892010361,0.9891393979055271
2017-07-12,-1,-0.0009062583158471061,-0.0007923830319316063,-0.006769420679583216,0.007940906317666542,0.9901365107577628
2017-07-14,-1,-0.00018081134692333618,-0.00017799345558823,-0.008138033735696881,0.006428088104794635,0.9904037253385207
2017-07-18,-1,-0.00048646704209287945,-0.00043315879526644596,-0.008138033735696881,0.005505967231938311,0.9907940516698284
2017-07-20,1,0.0009458102072426701,0.0010955858069276528,-0.008861293353051162,0.002599884489649042,0.9908069582698985
2017-07-24,1,0.0011872558942034347,0.0013783843261494654,-0.008286017928090014,0.002599884489649042,0.9911097555026731
2017-07-26,1,0.0009648253332357921,0.0011323252012888604,-0.008286017928090014,0.002599884489649042,0.9913065413533497
2017-07-28,-1,-0.000864265773921071,-0.0007523170542474773,-0.0046240514223595645,0.002599884489649042,0.9935577732187211
2017-08-01,-1,-0.0006567047976365193,-0.0005517536958566239,-0.00788836287556062,0.0010303297023649947,0.9935074952365055
2017-08-03,-1,-0.0010595809361122577,-0.0009163971769993644,-0.0046047472939764935,0.0024344932577071146,0.9938149594881335
2017-08-07,-1,-0.0007687947073792766,-0.0006982206944687817,-0.00788836287556062,0.004127996658851812,0.9927313661467175
2017-08-09,-1,-0.0016881464012489839,-0.001464768289865368,-0.0046047472939764935,0.007203083013705947,0.9914890844866775
2017-08-11,-1,-0.0020729820076909626,-0.0017978395847971153,-0.004498709426479066,0.00795906556947137,0.9910637785588511
2017-08-15,-1,-0.0021223701764201824,-0.0018698967369663272,-0.003690454909199156,0.00795906556947137,0.9913886940439688
2017-08-17,-1,-0.0030131483542125527,-0.0026618062908089647,-0.0032616350492673425,0.00795906556947137,0.9920827195066202
2017-08-21,-1,-0.002581860454960475,-0.0022849887982344078,-0.0028193639026327963,0.008022112115608462,0.9921655160920976
2017-08-23,-1,-0.0022776254979030197,-0.0020502911523053707,-0.002697847055946391,0.008022112115608462,0.9918934393287622
2017-08-25,-1,-0.001658504687500997,-0.0015051444255536443,-0.002697847055946391,0.007203083013705947,0.9919422527584373
2017-08-29,-1,-0.001461225579475138,-0.0013643826308700657,-0.002670713538533657,0.007203083013705947,0.9921955787089869
2017-08-31,1,0.00040673056986484856,0.0005718285056523133,-0.002670713538533657,0.006372068369579254,0.9937997441057472
2017-09-05,1,6.190695712731233e-06,0.00010927520781998327,-0.0024710372918983286,0.00514399435468573,0.9947674395316436
2017-09-07,1,0.001397512187724071,0.0017160878469566012,-0.002670713538533657,0.005056168467595919,0.9959471443805403
2017-09-11,1,0.0013721178146657487,0.0016532177482463477,-0.0024199107664648082,0.0039013044705403246,0.9966457497904733
2017-09-13,1,0.0011560964758420542,0.001415304197706602,-0.001435617024624613,0.005056168467595919,0.9968916251960647
2017-09-15,1,0.0007070538295820407,0.0008678498733018501,-0.00014611672304362444,0.005861687256752948,0.9964244674995268
2017-09-19,1,0.0015136295282328596,0.0018310177775183465,0.00021412738583331253,0.005827171592228093,0.9972285707212627
2017-09-21,1,0.000982657757698896,0.0011483988711171325,-0.00014611672304362444,0.005827171592228093,0.9968269139404949
2017-09-25,1,0.0012031256022429402,0.001374099469890313,-0.0007931560001712917,0.005735977038917874,0.9965377393699247
2017-09-27,1,0.0013926854749118332,0.0016122027190229485,-0.0007931560001712917,0.005735977038917874,0.9964867607384
2017-09-29,1,0.0013294087013973892,0.00151136867756984,-0.0007931560001712917,0.005779192569745129,0.9956996356020931
2017-10-03,1,0.001252313170081989,0.0014072079969946723,-0.0007931560001712917,0.005827171592228093,0.9953698983362816
2017-10-05,1,0.0013944562728246351,0.0015748331180438046,-0.0016492261866153561,0.005779192569745129,0.9953037311482307
2017-10-09,1,0.0010257624004559101,0.0011290986616605933,-0.0014049158494334343,0.005779192569745129,0.9952269117198383
