JNU-Tangyin/eata/results/Batch4_SP500/Batch4_SP500-WRB.csv
Date,Action,Predicted_Q25,Predicted_Q75,Actual_Q25,Actual_Q75,RL_Reward
2010-12-14,0,0.0,0.0,-0.004735072727874904,0.0049608284653712,0.9950313356221172
2010-12-16,1,0.0006605431459709606,0.0007478110476866213,-0.004735072727874904,0.0049608284653712,0.9947915863614875
2010-12-20,1,0.00015376425728813573,0.00016784420573354243,-0.004692875044000332,0.005868528052702444,0.9941404447213663
2010-12-22,1,0.00048066701532937237,0.0005168505659381686,-0.004692875044000332,0.005868528052702444,0.9941458196221266
2010-12-27,1,0.0005784446458586827,0.0006251383991987955,-0.0044426422295494785,0.007491102760485408,0.9930522084549005
2010-12-29,1,0.00015282979351617434,0.00018107778803841501,-0.0044426422295494785,0.007491102760485408,0.9927623720342698
2010-12-31,1,0.00012236245781921376,0.00014460020056552924,-0.005079743349919261,0.007491102760485408,0.9920815830034746
2011-01-04,1,1.6569468664564646e-05,7.398716053864658e-05,-0.0044426422295494785,0.007491102760485408,0.9921004463208932
2011-01-06,-1,-0.0008278678144044635,-0.0006684726065178447,-0.002130342538810786,0.007491102760485408,0.9921996007198735
2011-01-10,-1,-0.0015626643732700278,-0.0013122852060119341,0.0003526105454736202,0.007491102760485408,0.992061995610447
2011-01-12,-1,-0.00103754890628463,-0.0008439214102088494,-0.00010070002201521735,0.007160399264827007,0.9928259556282041
2011-01-14,0,0.0,0.0,-0.001857692855200228,0.005215318052193649,0.9934460653063947
2011-01-19,0,0.0,0.0,-0.00010070002201521735,0.005215318052193649,0.9934102055339231
2011-01-21,0,0.0,0.0,0.0003526105454736202,0.00955785377286256,0.9921809703975006
2011-01-25,0,0.0,0.0,-0.00336330621545667,0.005215318052193649,0.9929851271830198
2011-01-27,0,0.0,0.0,-0.004035011524288398,0.006014469554872166,0.9920520270948865
2011-01-31,1,0.0002962469279047859,0.0003251607898531148,-0.004035011524288398,0.006014469554872166,0.9926178884463911
2011-02-02,1,0.000806986004331047,0.000835160357699344,-0.00651820959247113,0.006014469554872166,0.9924991415263247
2011-02-04,1,0.0014335076948995345,0.0015958260632199313,-0.007404829341129475,0.005485707879696358,0.991857385857723
2011-02-08,1,0.0014160399700711157,0.001565072433274982,-0.007404829341129475,0.014652013821388265,0.9907308517130108
2011-02-10,1,0.0016538499426961934,0.0018733598842342663,-0.009148543711923113,0.014832886360664443,0.9894752783462545
2011-02-14,1,0.0009306404773489962,0.0010096316353211364,-0.00965503214381598,0.014832886360664443,0.9891353321342707
2011-02-16,1,0.001828349945269107,0.002050966655852376,-0.00965503214381598,0.014652013821388265,0.9898626540988296
2011-02-18,1,0.002458410927859071,0.0027279997277902465,-0.00965503214381598,0.012367484349801663,0.9904170086058693
2011-02-23,1,0.0016149177431429174,0.0017828111736691008,-0.007054962431985348,0.012367484349801663,0.9911661060936724
2011-02-25,1,0.0017664468604126897,0.001936071048942504,-0.005788978182603023,0.008572898815909653,0.9921501425585592
2011-03-01,1,0.0013157344037420275,0.0014258604706442275,-0.005454393204351442,0.01186249545043155,0.9917121873672391
2011-03-03,1,0.0016076319270470823,0.0017576506160339516,-0.0023370193372294684,0.01186249545043155,0.991663580677977
2011-03-07,1,0.0010567357941494947,0.001142013456357158,-0.0005759825702785691,0.013105945682718773,0.9909986823733342
2011-03-09,1,0.0024115235098220358,0.002712283863085662,-0.006317527748042481,0.010192462665317358,0.9914944290013756
2011-03-11,1,0.002634453232102783,0.0029843464112430263,-0.003981604533391338,0.009523403091987554,0.9925939817948066
2011-03-15,1,0.0019547216491344883,0.0021990055137744843,-0.003683954669137088,0.009523403091987554,0.9930830256636699
2011-03-17,0,0.0,0.0,-0.003925123940778428,0.009523403091987554,0.9923836111138729
2011-03-21,0,0.0,0.0,-0.0046918255542335845,0.008033461400916351,0.9926862785362132
2011-03-23,1,0.003061490561386462,0.003437352975130813,-0.004727839214963196,0.008033461400916351,0.9926126434940968
2011-03-25,0,0.0,0.0,-0.004727839214963196,0.009523403091987554,0.9922336475321719
2011-03-29,0,0.0,0.0,-0.005654912174609864,0.0063714983048891345,0.9927329543739475
2011-03-31,0,0.0,0.0,-0.005654912174609864,0.0063714983048891345,0.9931419076740343
2011-04-04,0,0.0,0.0,-0.005654912174609864,0.005995523780481327,0.9937074116505424
2011-04-06,0,0.0,0.0,-0.005619732875016915,0.005995523780481327,0.9939474485521002
2011-04-08,1,0.4053139648439042,0.41402754516210605,-0.005619732875016915,0.005995523780481327,0.7097364335923281
2011-04-12,0,0.0,0.0,-0.005654912174609864,0.005995523780481327,0.9933828674048404
2011-04-14,0,0.0,0.0,-0.005764040025386763,0.0063714983048891345,0.9921298027236624
2011-04-18,0,0.0,0.0,-0.005654912174609864,0.006968323768448119,0.9918659726058473
2011-04-20,0,0.0,0.0,-0.005619732875016915,0.0083533775449542,0.9913062930122625
2011-04-25,1,0.002090728008330909,0.0021278048748726098,-0.005690122410081846,0.00672773779630426,0.9916801557627359
2011-04-27,1,0.0022847212593287494,0.002384150700038079,-0.007179171239702106,0.0064319585959444064,0.9913730345763646
2011-04-29,1,0.0020627623654814633,0.0021611666125809473,-0.007179171239702106,0.00674829389820511,0.9913228408036515
2011-05-03,0,0.0,0.0,-0.007179171239702106,0.00931105244647068,0.9908685873111959
2011-05-05,0,0.0,0.0,-0.005614879019588909,0.00931105244647068,0.9911925225975434
2011-05-09,1,0.0013967355488499213,0.0014040163142929039,-0.005614879019588909,0.00931105244647068,0.9914766871344382
2011-05-11,1,0.0012839639747247982,0.0012909330482800043,-0.006219282630711093,0.00931105244647068,0.9915164918635686
2011-05-13,1,0.0010177148724733393,0.0010603178110761527,-0.006219282630711093,0.007860695587666184,0.99247055492205
2011-05-17,1,0.0010765982121548846,0.0011050054071530151,-0.008924445166943195,0.007563817510932488,0.9922553810453221
2011-05-19,1,0.0015862280379120653,0.0016257425275249004,-0.008924445166943195,0.007563817510932488,0.9925816743405033
2011-05-23,1,0.0008404282734774476,0.0009109938210963075,-0.005563438150346773,0.007563817510932488,0.9933101163082744
2011-05-25,1,8.888485109796946e-05,0.00025960772338913925,-0.008392766857740286,0.007563817510932488,0.9930180442918375
2011-05-27,1,0.0008367657883050486,0.0009133842630944826,-0.008392766857740286,0.003722394987125489,0.993234423140838
2011-06-01,0,-0.00016067940082123606,7.02428434656788e-05,-0.005563438150346773,0.006080987925557664,0.9940164624739154
2011-06-03,-1,-0.00038284273598403163,-9.845426009866655e-05,-0.005563438150346773,0.006264672470180676,0.9938719422440794
2011-06-07,-1,-0.0005798680294997682,-0.00028604333716249,-0.008392766857740286,0.006264672470180676,0.9931985847678055
2011-06-09,-1,-0.0005942443910142866,-0.00032441877556956575,-0.005668919831795613,0.008198827428511817,0.9930447083176965
2011-06-13,-1,-0.001005330405711741,-0.000694075756644445,-0.005668919831795613,0.008198827428511817,0.9924649804463194
2011-06-15,-1,-0.0012534501042640407,-0.0009152346502349666,-0.005668919831795613,0.006348628753890967,0.9924616063285193
2011-06-17,-1,-0.0004061867002835783,-0.00023271127875619372,-0.008911348229163578,0.005112242446281986,0.9926165354705182
2011-06-21,-1,-0.0004464927477120864,-0.0002593612729226095,-0.008911348229163578,0.006498048677023622,0.9920512595110865
2011-06-23,-1,-0.001744882534093516,-0.001364719239536904,-0.0028289301547666274,0.009175316579691816,0.9914976593636659
2011-06-27,0,0.0,0.0,-0.005170134377493827,0.009175316579691816,0.9905122855463704
2011-06-29,0,0.0,0.0,-0.011452175912752938,0.0060892921521837244,0.9889129632659633
2011-07-01,0,0.0,0.0,-0.013029547388804071,0.004564600169326968,0.9889031717695737
2011-07-06,-1,-0.0002990944875218401,-0.0001582112879503464,-0.01651662742757319,0.005066734349764362,0.9885864621509259
2011-07-08,-1,-0.0004065407162225157,-0.00015143938788457652,-0.016665780869136313,0.002975450187141049,0.98773792572568
2011-07-12,0,0.0,0.0,-0.016665780869136313,0.005066734349764362,0.982958694861596
2011-07-14,0,0.0,0.0,-0.017698835031487517,0.0076089639402973416,0.9794428101318318
2011-07-18,-1,-0.0017739628118529243,-0.0013745542566159744,-0.017698835031487517,0.012997209034080796,0.978766782410254
2011-07-20,-1,-0.0010535513441482748,-0.0007627695436414256,-0.017698835031487517,0.010996957584925053,0.9790088148556533
2011-07-22,-1,-0.000316460844749173,-9.245421801466248e-05,-0.017698835031487517,0.003257824880944064,0.9788170798216377
2011-07-26,1,7.336886071775226e-05,0.00023862553766729004,-0.01744157625549281,0.003297509544333258,0.9796331138565821
2011-07-28,-1,-0.00235897382048103,-0.001862696815138883,-0.014896363821695166,0.009204621066398397,0.9809457494307329
2011-08-01,0,0.0,0.0,-0.014896363821695166,0.01649681672009189,0.9789147260060589
2011-08-03,-1,-0.0011807047021483983,-0.0010028039598402004,-0.012799296834855527,0.01649681672009189,0.9797619169173265
2011-08-05,0,0.0,0.0,-0.013395748604244605,0.01649681672009189,0.9798612839519864
2011-08-09,0,0.0,0.0,-0.013297620530873015,0.01649681672009189,0.9832914154283173
2011-08-11,0,0.0,0.0,-0.014440986475918682,0.012920417528243211,0.9859041591802381
2011-08-15,0,0.0,0.0,-0.014440986475918682,0.011409781837790935,0.9866497170817362
2011-08-17,0,0.0,0.0,-0.014440986475918682,0.011409781837790935,0.986830986118182
2011-08-19,0,0.0,0.0,-0.014440986475918682,0.011409781837790935,0.9870151088787792
2011-08-23,0,0.0,0.0,-0.015063965178560849,0.007109106009104315,0.9861051314412902
2011-08-25,0,0.0,0.0,-0.01476958095844608,0.007109106009104315,0.9868903021666352
2011-08-29,-1,-0.003223562616692383,-0.0031708361319466027,-0.01476958095844608,0.005200042335245726,0.9872439123553991
2011-08-31,0,0.0,0.0,-0.016219023959323578,0.007109106009104315,0.9846652334882545
2011-09-02,-1,-0.00194172890757814,-0.0017110238328945735,-0.01672585974089206,0.007109106009104315,0.9845191202554037
2011-09-07,-1,-0.0015750963119108877,-0.0013997524615704169,-0.01672585974089206,0.010687921712958489,0.9846367963623804
2011-09-09,0,0.0,0.0,-0.01006391511144613,0.01085742436106381,0.9840701840196991
2011-09-13,-1,-0.001561834397387091,-0.0013712018574253905,-0.019923042737815446,0.01089455441460948,0.9822415670296915
2011-09-15,-1,-0.0009211075540981825,-0.0008372702521077593,-0.019923042737815446,0.017601011204631742,0.9807153037643224
2011-09-19,-1,-0.0016693583405384374,-0.0015013334885312659,-0.023522601648558978,0.017601011204631742,0.9797948631015119
2011-09-21,-1,-0.0024919810180408595,-0.0022625582370515004,-0.008253618814424771,0.022732159313701986,0.9786752534612905
2011-09-23,-1,-0.0022321129448821518,-0.0020280406506139052,-0.008142432948489358,0.02497892773096518,0.9764138115921805
2011-09-27,-1,-0.0012025216209975308,-0.0010935622464140512,-0.01612833376654524,0.022732159313701986,0.9771845584072816
2011-09-29,-1,-0.0007190037052657986,-0.0006888611929224721,-0.0006345831225981996,0.022732159313701986,0.9769019317535129
2011-10-03,-1,-0.0017040606674910224,-0.0015570042492050722,-0.0020637055839094177,0.022732159313701986,0.9779055291078923
2011-10-05,-1,-0.00020230682291980708,-0.0001649260831621992,-0.010255376201032111,0.022488922850082495,0.9779542998024408
2011-10-07,-1,-0.0009276251018070788,-0.00088372332438272,-0.00398909753149297,0.022488922850082495,0.979163640951306
2011-10-11,-1,-0.0007719163671575168,-0.0007649958368624356,-0.000357079907664524,0.02128432403390533,0.9808804302633864
2011-10-13,1,0.00018105772822819735,0.00029460319016568024,-0.00398909753149297,0.02128432403390533,0.9815492570468061
2011-10-17,-1,-0.00017680370174517294,-0.00013338027982211348,-0.00398909753149297,0.02128432403390533,0.9817026263404354
2011-10-19,1,0.0015975883442644143,0.0019117513856751049,-0.010255376201032111,0.020096644607445487,0.9832627112362384
2011-10-21,1,0.0031052574929503344,0.0036047579945917806,-0.013797045621846752,0.019648256999862192,0.9850993836298071
2011-10-25,1,0.0033268120628808235,0.0038621627415435732,-0.014232233571083766,0.01684583008876463,0.985640914776214
2011-10-27,1,0.004881283331767405,0.00561544658323752,-0.015402205804561853,0.006800114228618567,0.98498159266808
2011-10-31,1,0.004550002651595257,0.0052267954506152806,-0.015402205804561853,0.006800114228618567,0.985210200912817
2011-11-02,0,0.0,0.0,-0.015402205804561853,0.006800114228618567,0.9855132945470165
2011-11-04,1,0.006639021157606656,0.007589160594660927,-0.015402205804561853,0.003513351082639766,0.9837869048694455
2011-11-08,0,0.0,0.0,-0.015402205804561853,0.0034784763093861333,0.9869331812204613
2011-11-10,0,0.0,0.0,-0.014232233571083766,0.0034784763093861333,0.9873923616067547
2011-11-14,0,0.0,0.0,-0.014413009475290997,0.003118763126727847,0.9879943781456879
2011-11-16,0,0.0,0.0,-0.01188980365115541,0.003619909563603079,0.98885406286896
2011-11-18,0,0.0,0.0,-0.008439296717948745,0.003619909563603079,0.9894195477557541
2011-11-22,0,0.0,0.0,-0.007120900160780096,0.006823809932932245,0.9891969433140143
2011-11-25,1,0.0027884905543635874,0.003178471580102489,-0.004686401409626294,0.005003830709015423,0.9917067508495734
2011-11-29,1,0.002685627625933106,0.003075443733622651,-0.004686401409626294,0.006823809932932245,0.990985160720356
2011-12-01,1,0.002755648685442639,0.0031192883763432188,-0.003956564078291293,0.006823809932932245,0.9935029610559137
2011-12-05,1,0.002350338757211521,0.002623417130183424,-0.0052328360475525654,0.006823809932932245,0.9926862044747604
2011-12-07,1,0.0022517885377800946,0.002487199816769897,-0.0052328360475525654,0.007843252841790204,0.992067427738406
2011-12-09,1,0.0024021105893176813,0.002677014446143112,-0.004204015728545276,0.0075004224369903645,0.9927662851102291
2011-12-13,1,0.0021299393944497255,0.0024114640147846686,-0.0022671041690938607,0.0075004224369903645,0.9936269982912735
2011-12-15,1,0.0024644314670904523,0.0027990491662878616,-0.003956564078291293,0.0075004224369903645,0.9928901607952828
2011-12-19,1,0.001595788027721681,0.001734708827147875,-0.002299757554566474,0.00814326520882892,0.9925453455788248
2011-12-21,1,0.0019972469459600788,0.0021624320510379106,-0.002299757554566474,0.007662889066650046,0.9933372276807836
2011-12-23,1,0.0019226307643749364,0.002056759903605822,-0.004204015728545276,0.008503332039162129,0.991751407731996
2011-12-28,1,0.0013746481078803817,0.0013778921637661672,-0.004204015728545276,0.007662889066650046,0.991693197033303
2011-12-30,1,0.0013370965835794073,0.0013635612251606624,-0.005515425283221222,0.0075004224369903645,0.9917061043572062
2012-01-04,1,0.0008101121957741305,0.0008848775594396682,-0.0020464292928851404,0.007662889066650046,0.9896333491379399
2012-01-06,1,0.001540610266219275,0.0015770793214885054,-0.0043069660166687885,0.007662889066650046,0.9897172840364
2012-01-10,0,0.0,0.0,-0.007409877427687333,0.006372515602887651,0.9895715312092966
2012-01-12,0,0.0,0.0,-0.007409877427687333,0.007428485563543841,0.9893440730490446
2012-01-17,1,0.00047128658663642646,0.0005782496557393255,-0.007409877427687333,0.008027757959553595,0.9894588118708016
2012-01-19,1,0.0007813207429660663,0.0008520138409399689,-0.007409877427687333,0.008027757959553595,0.9897224707570458
2012-01-23,1,0.0017208112998056517,0.0018385274783006516,-0.007409877427687333,0.00743328762611418,0.9900156513458557
2012-01-25,1,0.001424382209116018,0.0015093369680937033,-0.007409877427687333,0.00743328762611418,0.9905967102933866
2012-01-27,1,0.00026691340733458416,0.00037611342470158794,-0.007173882360116425,0.00743328762611418,0.9914210795141148
2012-01-31,1,0.00040632781608817756,0.0004791251120420416,-0.004502160233554187,0.00743328762611418,0.9917146013589488
2012-02-02,1,0.0011724183829971593,0.0012231784741721736,-0.007173882360116425,0.005553416437231807,0.9937332198110207
2012-02-06,1,0.0012486613645102472,0.0012687650310431512,-0.007173882360116425,0.005441706004218894,0.9930338763216013
2012-02-08,1,0.0010704406635823572,0.0011085913766832158,-0.004502160233554187,0.006895197486691966,0.9932495938535741
2012-02-10,1,0.0006219551252805093,0.0007584812924488521,-0.004502160233554187,0.006949016060818283,0.9932739195948916
2012-02-14,-1,-0.0004232666270058842,-0.00010770184444326637,-0.004502160233554187,0.006949016060818283,0.9926492554111457
2012-02-16,0,-0.00023180162594537063,5.637189662951417e-05,-0.008273400236668189,0.00449842941433816,0.9925555798358876
2012-02-21,1,0.00019006861592152184,0.00036285444581755244,-0.008273400236668189,0.00774599543326312,0.991614627513228
2012-02-23,0,-7.20904249001665e-05,0.00014022218857351668,-0.011611240919673343,0.006949016060818283,0.9915782567581355
2012-02-27,-1,-0.0011027690759502125,-0.0007246264683678451,-0.011611240919673343,0.008117575103117485,0.9908604532234094
2012-02-29,-1,-0.0007561157410609366,-0.00047769360546567213,-0.011611240919673343,0.008117575103117485,0.9905968471727674
2012-03-02,-1,-0.0016684051336062805,-0.0012445343652872265,-0.007229424537323304,0.008117575103117485,0.9908502175570382
2012-03-06,-1,-0.0025439720064541864,-0.0019924547499176317,-0.0026816139399850366,0.008688313063909063,0.9909525575688793
2012-03-08,-1,-0.0017286783266005498,-0.0013226503406305714,-0.006648862160786525,0.008688313063909063,0.9915511948513964
2012-03-12,-1,-0.0017501418384859605,-0.0013242367416864715,-0.007283231664392889,0.008117575103117485,0.9917994778472732
2012-03-14,-1,-0.0007488776124215569,-0.0005096394131640575,-0.00599185658133911,0.009374754617036633,0.9919909637000704
2012-03-16,-1,-0.00021598192753749317,-0.00011775422058463587,-0.00599185658133911,0.01027650936079615,0.9914956363173697
2012-03-20,1,0.0003689148417542481,0.0003938441663108546,-0.0069760882666255,0.01027650936079615,0.991461951637197
2012-03-22,1,0.0005223693837556928,0.0005994226469952687,-0.005153887584959915,0.011851546829629916,0.9917438460424497
2012-03-26,1,0.0009177303347014498,0.0010331707563693382,-0.00599185658133911,0.01027650936079615,0.9920875152698987
2012-03-28,1,0.0010519573073375207,0.0011699039168116912,-0.00599185658133911,0.01027650936079615,0.9920923418874452
2012-03-30,1,0.0010292237439339217,0.0011640122031996141,-0.005365344086162036,0.01027650936079615,0.9923623740260004
2012-04-03,1,0.0017824344951084918,0.002048428132454574,-0.005365344086162036,0.010570555181313225,0.9924649980526795
2012-04-05,1,0.0011589173790843583,0.0012986979881396137,-0.004829551416597537,0.010570555181313225,0.9925659964671498
2012-04-10,1,0.0008991441747247747,0.0010125503103363533,-0.0015773249604901438,0.010570555181313225,0.9926279057728432
2012-04-12,1,0.0012981209057515827,0.0014261937347917009,-0.0029487758172124894,0.009063487058482627,0.9929922933703217
2012-04-16,1,0.0009847814397340518,0.0010471931010739425,-0.0029487758172124894,0.007095912271391459,0.9935220445169973
2012-04-18,1,0.0007997819439892226,0.0008080666609166235,-0.00258391367763826,0.006637490349321378,0.9939897376297874
2012-04-20,1,0.001109841369567097,0.0011515553581615432,-0.005195847001785813,0.0056275530257077645,0.9935505911665896
2012-04-24,1,0.0005178212327779297,0.0005681790566289735,-0.00258391367763826,0.006637490349321378,0.9935677156528613
2012-04-26,1,0.00097651938980175,0.0009926967167606703,-0.00258391367763826,0.006983541142084649,0.9933641385522592
2012-04-30,1,0.0007766579942761027,0.0007908730982995219,-0.004101260583063125,0.006983541142084649,0.9929290008403234
2012-05-02,1,0.001243091629681207,0.0012954622191047368,-0.006730722040816236,0.006968662775412419,0.9926220746892777
2012-05-04,1,0.0012558635329472313,0.0013064153103406085,-0.008832418160036397,0.006968662775412419,0.9917961307982617
2012-05-08,1,0.001173111479200299,0.001177854218238197,-0.008832418160036397,0.006968662775412419,0.9913980784327868
2012-05-10,1,0.0012060442140117192,0.0012182626412157041,-0.007922077906470305,0.006968662775412419,0.9919109242854253
2012-05-14,0,0.0,0.0,-0.008612835135750646,0.006968662775412419,0.9915629920179984
2012-05-16,0,0.0,0.0,-0.008612835135750646,0.006983541142084649,0.9912803248614188
2012-05-18,0,0.0,0.0,-0.007922077906470305,0.006983541142084649,0.9914163887122761
2012-05-22,0,0.0,0.0,-0.007922077906470305,0.006983541142084649,0.9916536983828993
2012-05-24,0,0.0,0.0,-0.008612835135750646,0.004527141960260807,0.9913707647076243
2012-05-29,1,0.0008170049351366672,0.0008881775807041744,-0.008612835135750646,0.005470893517460291,0.9913208619090452
2012-05-31,0,0.0,0.0,-0.007140944365197373,0.007704779969417737,0.9915011586974539
2012-06-04,0,0.0,0.0,-0.004800333129461467,0.009406579123611512,0.9910715101871453
2012-06-06,1,0.00016104670474251,0.00022692823466170155,-0.004800333129461467,0.008218516904930973,0.9916636930986658
2012-06-08,1,0.00010940430320281345,0.0002131419423743575,-0.006616987820756148,0.008218516904930973,0.9915400304041957
2012-06-12,1,0.00015326629644876367,0.00023110651911712485,-0.006616987820756148,0.008218516904930973,0.9916646888737829
2012-06-14,0,0.0,0.0,-0.006616987820756148,0.009406579123611512,0.9913730153248825
2012-06-18,0,0.0,0.0,-0.003743590639163306,0.009406579123611512,0.9923616750259215
2012-06-20,0,0.0,0.0,-0.006737310594306127,0.008251874949362989,0.9916427408003246
2012-06-22,0,0.0,0.0,-0.006737310594306127,0.008384754547326321,0.9912168296861881
2012-06-26,0,0.0,0.0,-0.007203173327009423,0.008384754547326321,0.990833030495659
2012-06-28,0,0.0,0.0,-0.007748807178174025,0.008384754547326321,0.990680604972201
2012-07-02,1,0.0010180588393081669,0.001109188533608722,-0.009192357628825006,0.002561709644557841,0.9914484841201294
2012-07-05,1,0.0019017242618427615,0.0020775413598172385,-0.009192357628825006,0.0027184942913872955,0.9911865173145544
2012-07-09,0,0.0,0.0,-0.009192357628825006,0.0058631090789623185,0.9919354413889296
2012-07-11,0,0.0,0.0,-0.0079826725145539,0.0058631090789623185,0.992015405831167
2012-07-13,1,0.001175738420821786,0.0012926648783106814,-0.0079826725145539,0.004388910137619483,0.992736012497864
2012-07-17,1,0.0009634032620565207,0.0010411398742425915,-0.0079826725145539,0.004801904956689169,0.9926260171215078
2012-07-19,-1,-0.00019660368651488764,-0.00011039032461519045,-0.00498390680613057,0.005405592589630333,0.9936898893710254
2012-07-23,-1,-0.0005922725842861126,-0.00044706212246245025,-0.004627752939810417,0.005405592589630333,0.9945083752046032
2012-07-25,0,0.0,0.0,-0.0039323372721415915,0.005405592589630333,0.9948144685098395
2012-07-27,0,0.0,0.0,-0.0039323372721415915,0.005405592589630333,0.9952780692746359
2012-07-31,0,0.0,0.0,-0.0031439900720693177,0.005405592589630333,0.9956538763661819
2012-08-02,0,0.0,0.0,-0.0031439900720693177,0.004801904956689169,0.9958718559554163
2012-08-06,0,0.0,0.0,-0.002347955381067318,0.004975637989762118,0.9954800983900116
2012-08-08,0,0.0,0.0,-0.002715810332587695,0.005969047760738069,0.9952808252555889
2012-08-10,0,0.0,0.0,-0.0031439900720693177,0.005969047760738069,0.9945559290536655
2012-08-14,1,0.1392864937522771,0.1469362275328739,-0.0029059709304587113,0.007126414915865598,0.875282236666835
2012-08-16,-1,-0.0015266729628272521,-0.0012357398636389794,-0.0029059709304587113,0.007126414915865598,0.9942040213279191
2012-08-20,-1,-0.0009884295047492334,-0.0007953411220255571,-0.0029059709304587113,0.0053614270414712945,0.9941742972532545
2012-08-22,0,0.0,0.0,-0.0029660294460571797,0.0053614270414712945,0.9940493319002026
2012-08-24,0,0.0,0.0,-0.002453808635097036,0.004782992136920745,0.9945449602806931
2012-08-28,0,0.0,0.0,-0.0029660294460571797,0.004782992136920745,0.9939787481714139
2012-08-30,-1,-0.0023148405407081114,-0.0019204262146094878,-0.0029660294460571797,0.0053614270414712945,0.9937690010567733
2012-09-04,-1,-0.000528793797670688,-0.0004142056552557092,-0.00435563807129172,0.0029958732872939495,0.9939580373456296
2012-09-06,0,0.0,0.0,-0.00435563807129172,0.0029958732872939495,0.9940304005038736
2012-09-10,-1,-0.0008560398065566696,-0.0007082563215061424,-0.00278911200008191,0.0051918737857970946,0.9943418220532714
2012-09-12,-1,-0.00014034843468800707,-0.00011912312147706154,-0.00435563807129172,0.004911305354010034,0.9940006787047675
2012-09-14,1,0.0002936862412759138,0.00029583663251914205,-0.006554193392233651,0.001799266630652668,0.9940415686505845
2012-09-18,0,0.0,0.0,-0.00435563807129172,0.005632526511866841,0.9932253049996528
2012-09-20,0,0.0,0.0,-0.0023938823603809594,0.00916332813188941,0.9919494661105033
2012-09-24,0,0.0,0.0,-0.005463894011856792,0.00916332813188941,0.9912842374157405
2012-09-26,0,0.0,0.0,-0.0028266110165051043,0.010009474952443469,0.9908404649974523
2012-09-28,0,0.0,0.0,-0.006114578404411899,0.00916332813188941,0.9908323016307843
2012-10-02,0,0.0,0.0,-0.006114578404411899,0.00916332813188941,0.9908834888382538
2012-10-04,1,0.0004966852400279105,0.0006075848183641553,-0.00786160154924949,0.00916332813188941,0.9900987952241515
2012-10-08,1,0.0010029521547926983,0.0011982879753091717,-0.00786160154924949,0.006927760475631037,0.990013901485478
2012-10-10,1,0.00018047324840769833,0.00018729025619755834,-0.00699634664662288,0.009255804190860934,0.990169999961682
2012-10-12,-1,-0.00024702133254804286,-0.00023960997488753328,-0.005831330766470041,0.009255804190860934,0.990502177652038
2012-10-16,1,0.0012723236114482893,0.0015005689849044716,-0.005831330766470041,0.005264017813141419,0.9916660890381382
2012-10-18,1,0.0025262560668564927,0.0029122031851821373,-0.005831330766470041,0.004745357127604784,0.9924752627537813
2012-10-22,1,0.0018399733320058958,0.0021060728871158145,-0.005430030116297331,0.006421657796437115,0.9930565130367056
2012-10-24,1,0.002429180765830192,0.0027109471103870858,-0.005831330766470041,0.006269685706377292,0.993554165212258
2012-10-26,1,0.0019428925773709643,0.002190755121161499,-0.005491494604791505,0.006269685706377292,0.9939867645552015
2012-11-01,1,0.002913772639904123,0.0033077730229136466,-0.004447757656024521,0.006269685706377292,0.9944964078232846
2012-11-05,1,0.002452918339850713,0.002784719968312022,-0.003561576809149886,0.005267391066909072,0.995337184125221
2012-11-07,1,0.0023044922312304475,0.00262362937667594,-0.003561576809149886,0.006431777557740072,0.9946815041194697
2012-11-09,1,0.0022752645918459966,0.0025354418341874407,-0.003561576809149886,0.005082828594528509,0.9948543523616061
2012-11-13,1,0.002071856293493774,0.0023210919462230005,-0.002738635279777786,0.005082828594528509,0.9950248547064683
2012-11-15,1,0.0017931383935361387,0.0019630532118124237,-0.0046549887758461595,0.0050664515599890955,0.9945265893343541
2012-11-19,1,0.0022739152103324303,0.002510286409000984,-0.005921352942232527,0.003651193876493193,0.9935625325271689
2012-11-21,1,0.0029685317712288446,0.00335297236176961,-0.005921352942232527,0.0017141094633891852,0.9934871232154855
2012-11-26,1,0.0036893313813741307,0.00420846653435677,-0.005921352942232527,0.0011369644118358207,0.9925218950814514
2012-11-28,1,0.0035191665062319698,0.004008163464883304,-0.008219222112657229,0.00044458156611022455,0.991731285693588
2012-11-30,1,0.003272680595211421,0.0036995845227639707,-0.008219222112657229,6.40158429595211e-05,0.9917915181394868
2012-12-04,1,0.0027963204873219308,0.0031514071086858066,-0.008219222112657229,0.002592194009037543,0.9914873860330632
2012-12-06,1,0.0033293135447514575,0.0038098428718361045,-0.006790104608475523,0.002592194009037543,0.9921464165829171
2012-12-10,1,0.003219815485602148,0.0036812381557318695,-0.006790104608475523,0.0029789803645153524,0.9925120459513046
2012-12-12,1,0.002039629652394336,0.0022687317153420867,-0.006790104608475523,0.0029789803645153524,0.9934926536226423
2012-12-14,1,0.0012382943799913162,0.0013197519204304062,-0.0018269556381129094,0.004147772371123444,0.9940331746722784
2012-12-18,1,0.001827020621663444,0.0019377834513872635,-0.001604904869283531,0.004122455927542734,0.995123220849875
2012-12-20,1,0.0022685294876955697,0.0024264876955087528,-0.001604904869283531,0.005191738964254828,0.993717121210529
2012-12-24,1,0.0015636833736240917,0.0015938175354279658,0.0003803808326179346,0.005191738964254828,0.9941668591153555
2012-12-27,1,0.00014606601996079856,0.00027144935652143856,0.0006326819969512544,0.005191738964254828,0.9942056639815081
2012-12-31,1,0.0003777493035398173,0.0004801809060667934,0.0006326819969512544,0.005191738964254828,0.9940528958487923
2013-01-03,1,0.0015094792130978655,0.0015547218086939486,0.0006326819969512544,0.005191738964254828,0.994952257362199
2013-01-07,1,0.0014133420596874312,0.0014461019652014051,0.0006326819969512544,0.0051405209725960055,0.9947194380929341
2013-01-09,1,0.0015025436545463267,0.0015440745245478345,0.0006326819969512544,0.0051405209725960055,0.9945619404529159
2013-01-11,1,0.0016417992750700481,0.0017153030955479758,-0.001707789919422459,0.0051405209725960055,0.9942374742149691
2013-01-15,1,0.0019793513161252543,0.002103763851937384,-0.001707789919422459,0.005056266830498861,0.9943399856242201
2013-01-17,1,0.001692134297854814,0.0017389048400589424,-0.0016830854382101903,0.004906661981666425,0.9943240687917692
2013-01-22,1,0.0027974981646512256,0.002989212675171357,-0.002348087638071936,0.00428460063130419,0.9950924087204984
2013-01-24,1,0.0029459178213847876,0.003141248027525508,-0.002348087638071936,0.004837923781266508,0.9945071770260845
2013-01-28,1,0.002204240310510106,0.002277427578387845,-0.002348087638071936,0.005551678004303201,0.9938464708168568
2013-01-30,1,0.0020808038021281347,0.0021861256186797356,-0.002348087638071936,0.005551678004303201,0.9940035496033273
2013-02-01,1,0.0029402783692040802,0.0031764316953897015,-0.0030647935318327962,0.00428460063130419,0.9943731657336748
2013-02-05,1,0.0022191310221277597,0.0023215778227665914,-0.001928072261038167,0.004837923781266508,0.9946024756716358
2013-02-07,1,0.002512563227723642,0.0026587183360077845,-0.001928072261038167,0.003912880974368148,0.9947308168315251
2013-02-11,1,0.002438922654803782,0.002610922677858083,-0.0013197725887390784,0.003912880974368148,0.9951174775026084
2013-02-13,1,0.0023200347393655465,0.002439947633212587,-0.0013197725887390784,0.00461955110556395,0.9947984203896377
2013-02-15,1,0.001759879887089834,0.0017776554342808183,-0.0005809728728728794,0.005945572821846457,0.9947211704310295
2013-02-20,1,0.0010870084236875325,0.0011576766516895804,0.0008898263140506911,0.005945572821846457,0.9948095019440479
2013-02-22,1,0.0014762665601597029,0.0015369611798595327,-0.0005809728728728794,0.005168213804125533,0.9953383637572109
2013-02-26,1,0.000854261102562521,0.0009556514228100047,0.00017141614454633283,0.005168213804125533,0.9964341874527674
2013-02-28,1,0.00011996804011617972,0.0003345665876334624,0.0009469650288994687,0.005582756066841091,0.9960011144499683
2013-03-04,1,0.0001280681065756853,0.0003325635821727844,0.0009469650288994687,0.006277698633912837,0.9956105481769133
2013-03-06,1,0.0006797589087701409,0.0008065265515461771,0.00017141614454633283,0.005582756066841091,0.9958596808078333
2013-03-08,1,0.0005442897056525708,0.0006990511446994853,0.00017141614454633283,0.006277698633912837,0.9955457932869878
2013-03-12,0,-0.00024802119816049416,4.992643605820977e-05,0.0013902222410198917,0.006277698633912837,0.9950436167725317
2013-03-14,1,0.0009685011818759498,0.0010575084515041123,-0.0004095567283265465,0.006277698633912837,0.9956767599645178
2013-03-18,1,0.0017969491650451723,0.0018583221646693087,-0.0007098186828599931,0.006524371141646711,0.9946088899288474
2013-03-20,1,0.0016441118667933586,0.0016610599198093306,-0.004007034662526771,0.006524371141646711,0.9933433599056049
2013-03-22,1,0.0021220602050620718,0.0022589950521563137,-0.003883263513258712,0.006915180300401732,0.9933154984556161
2013-03-26,1,0.0019425517508742025,0.0020034278035625267,-0.005179670188368988,0.006915180300401732,0.992891987782907
2013-03-28,1,0.002299566480127248,0.0025120270997003318,-0.006976579789196472,0.0047155386132561395,0.9925601249483288
2013-04-02,1,0.002115683042631442,0.002282116923492991,-0.006976579789196472,0.0047155386132561395,0.9926201141676801
2013-04-04,1,0.0019051973816829589,0.0020215974008914936,-0.010549180478119296,0.0043389213038668994,0.992240827564924
2013-04-08,1,0.0022368930518058858,0.0024103654256169386,-0.010549180478119296,0.0034377278413687752,0.9921839334136657
2013-04-10,1,0.002108866770083574,0.0022437068927978754,-0.010549180478119296,0.0038899729837410593,0.9920098430287008
2013-04-12,1,0.0020259773556773964,0.002144223055369439,-0.011329076458084394,0.00277575016623762,0.9918187741813104
2013-04-16,1,0.0017293774976269573,0.001829866486966728,-0.010549180478119296,0.0024082769409373025,0.9933300422287585
2013-04-18,1,0.0008292203359748777,0.0008369627004429885,-0.004984988532355981,0.002751620721831731,0.9945543367866309
2013-04-22,1,0.0011303222637749576,0.00116345795843565,-0.0061051374627499825,0.002751620721831731,0.9944926163978766
2013-04-24,1,0.0005093628113329247,0.0005611610827255669,-0.008296057308705506,0.0024082769409373025,0.9940611091537951
2013-04-26,-1,-0.00015233628739417496,-2.7538487528398043e-05,-0.00641436270001809,0.0024082769409373025,0.9946414430446237
2013-04-30,-1,-0.0001816938630637734,-4.66074994209357e-05,-0.00641436270001809,0.00182741137860547,0.994965639021466
2013-05-02,-1,-0.0006975409707894343,-0.0004958672330526951,-0.0055033148367159114,0.0024082769409373025,0.9950599297766436
2013-05-06,-1,-0.0008352499541753426,-0.0006131027889711417,-0.00641436270001809,0.00182741137860547,0.9948594288758781
2013-05-08,-1,-0.0008864999576869301,-0.0006379743199229188,-0.007426662389510761,0.00182741137860547,0.9938539317174226
2013-05-10,-1,-0.0016716778676992268,-0.0013095860622341074,-0.006149973303814909,0.0037718470949872898,0.9935524245520039
2013-05-14,-1,-0.0013237369254710221,-0.00100231254719085,-0.007426662389510761,0.0037718470949872898,0.9928811140657704
2013-05-16,-1,-0.0014220139016859808,-0.0011369708160371144,-0.007426662389510761,0.006161195428099718,0.9924429493380982
2013-05-20,-1,-0.0018002942124162105,-0.0014521929322964776,-0.006301015352506397,0.007711365552442559,0.9925149785495514
2013-05-22,-1,-0.003209514143001319,-0.0026465073130775827,-0.006301015352506397,0.007711365552442559,0.9919428938080419
2013-05-24,-1,-0.0035871397023682066,-0.0029944057851694827,-0.00701707057636139,0.007711365552442559,0.9919741809850923
2013-05-29,-1,-0.0031766417006068425,-0.002656391658062294,-0.00701707057636139,0.007711365552442559,0.9913123329342501
2013-05-31,-1,-0.0029563262654262413,-0.002469693583091487,-0.00701707057636139,0.007930395800569541,0.9909944619458749
2013-06-04,-1,-0.0033847784978934103,-0.002855860627732203,-0.006252614546857668,0.009984187807609627,0.990145848048874
2013-06-06,-1,-0.0026960222637326618,-0.002255125818345559,-0.005498661717820703,0.009526534452844054,0.9910086248994954
2013-06-10,-1,-0.0017987479669967815,-0.0014766169745388039,-0.005498661717820703,0.009526534452844054,0.9912943676115914
2013-06-12,-1,-0.002637194158232787,-0.0022268864302319733,-0.0012864114631749631,0.009526534452844054,0.9909908583007017
2013-06-14,-1,-0.0015833259757830097,-0.001361548558920128,-0.0009686086038416717,0.009526534452844054,0.9913275523778838
2013-06-18,-1,-0.0010622134947270026,-0.0009243820929842128,-0.0012864114631749631,0.009526534452844054,0.9912474722766522
2013-06-20,-1,-0.0023426569586743606,-0.0020302129885387647,0.0007781094757801108,0.009526534452844054,0.9915464746648398
2013-06-24,-1,-0.0027037250970704217,-0.002333190011898129,0.001843097261822082,0.009526534452844054,0.9890808449611109
2013-06-26,-1,-0.002377590793914446,-0.0020999044351452337,0.0007781094757801108,0.009526534452844054,0.9896758901173192
2013-06-28,-1,-0.0018723412161322124,-0.0016412996635132224,-0.0012468864743537093,0.00936930322160789,0.9906902474050084
2013-07-02,-1,-0.0010123253842806183,-0.0008987832331921475,-0.0021212450747110758,0.00862270459988562,0.9919429155696798
2013-07-05,-1,-0.0007630954018725374,-0.0006641690231553255,-0.0014108719653816541,0.00862270459988562,0.9915849330464293
2013-07-09,-1,-0.00011856026902634375,-0.0001035834933010838,-0.0035782591445300757,0.007033469063640127,0.9918854251955843
2013-07-11,1,0.0002041734724902261,0.0002565462519013428,-0.005244795461964167,0.006116663421361431,0.9918239781349493
2013-07-15,1,0.0006397211559212935,0.0007291117254266675,-0.005244795461964167,0.003555643230502305,0.9921999519450226
2013-07-17,1,0.0005595024709605884,0.0006771385154217756,-0.0035782591445300757,0.0032680565607037535,0.9929034908311208
2013-07-19,1,0.0004851227043155959,0.000551297289458691,-0.005244795461964167,0.0026480878626690455,0.9927734334039967
2013-07-23,-1,-0.0009632986572718375,-0.0008466282818125359,-0.005187378537237221,0.0026480878626690455,0.9949370883716143
2013-07-25,-1,-0.0012578300405367252,-0.0011058888279495247,-0.006701995020097021,0.0032680565607037535,0.9942596045323158
2013-07-29,-1,-0.001074601733397467,-0.0009685782394407898,-0.006701995020097021,0.0032680565607037535,0.9943148747547763
2013-07-31,-1,-0.0010668259801321228,-0.0009725739951799959,-0.007473660649384562,0.0032680565607037535,0.9938680303806138
2013-08-02,-1,-0.00036645813880623333,-0.0003578516702924153,-0.007473660649384562,0.0012473324486216744,0.9943990347113197
2013-08-06,-1,-0.0006961082649080623,-0.000682464391260509,-0.005607214122383707,0.0012473324486216744,0.9954172980827511
2013-08-08,-1,-0.0009493162531708841,-0.0009118832273225571,-0.005607214122383707,0.0012473324486216744,0.9956907664765166
2013-08-12,-1,-0.0003517216397380791,-0.0002910720118586067,-0.005607214122383707,0.0032680565607037535,0.9949090334101408
2013-08-14,0,-2.2423384493711486e-05,9.235976022681008e-05,-0.005607214122383707,0.0018607031680284046,0.9948592963136127
2013-08-16,-1,-0.00030417765980684933,-0.00022512853241609082,-0.003679794427411296,0.0018607031680284046,0.995311542933339
2013-08-20,0,-3.1018761470817235e-05,0.00011771478694956014,-0.0029234346189413807,0.0057962346515710705,0.9948842470268645
2013-08-22,1,0.0004500781712315444,0.0006682391108710904,-0.0026946374773431613,0.007063914398960477,0.9949219671610986
2013-08-26,1,0.00038154895871186814,0.0005898791229452147,-0.002764329225028536,0.007063914398960477,0.9947220483201696
2013-08-28,1,0.0001728992028774295,0.00038035929019707723,-0.0021780150487773478,0.007063914398960477,0.9951181689383282
2013-08-30,1,0.00014199397465789268,0.0003615584576033375,-0.0021780150487773478,0.007063914398960477,0.9949680961612126
2013-09-04,1,0.0003701031810803882,0.0006272514819115322,-0.002486130862950283,0.007063914398960477,0.9948495250211286
2013-09-06,0,-0.00011841358649676125,5.408173412638673e-05,-0.002229838876473547,0.007063914398960477,0.9946769698884842
2013-09-10,1,5.07365281550438e-05,0.00018536412196993538,-0.003606939418468111,0.0055485524334007155,0.9950631723581004
2013-09-12,1,0.0004184467307977065,0.0006204307978377381,-0.003606939418468111,0.006465955691134758,0.9943477428754853
2013-09-16,1,0.00020985697262449257,0.00037804437608617155,-0.003606939418468111,0.008453223970556678,0.9935800389577274
2013-09-18,1,0.0008422581216916606,0.0010703094429475287,-0.004713417540106466,0.007278887108194241,0.9936630808948941
2013-09-20,1,0.0018487660637782986,0.002165484299734847,-0.004713417540106466,0.006753472373711196,0.9938746052861777
2013-09-24,1,0.0012807480069848757,0.0014940862138078043,-0.005312834219999191,0.006753472373711196,0.9933793951642098
2013-09-26,1,0.0016129731522912401,0.0018669650907078288,-0.005312834219999191,0.005770101659947813,0.9932007198565972
2013-09-30,1,0.00134674537421175,0.001576506119919355,-0.00466353235474968,0.005770101659947813,0.9936482058971732
2013-10-02,1,0.0010291623104462474,0.0011933256694182928,-0.00466353235474968,0.005770101659947813,0.9936649986910966
2013-10-04,1,0.0008110756498536287,0.0009392249119453112,-0.00466353235474968,0.005770101659947813,0.9935571444361363
2013-10-08,1,0.00033807457849963226,0.00039839215550685155,-0.004032906511900283,0.005770101659947813,0.993758761631763
2013-10-10,1,0.0011374342558207622,0.0012947944373153564,-0.004627027265026086,0.0055806022186026,0.9940342494466906
2013-10-14,1,0.0013574393469458965,0.0014860329664316183,-0.004627027265026086,0.003745211651432668,0.9946910651802577
2013-10-16,1,0.0012077548337521278,0.0013004978816243701,-0.004032906511900283,0.003745211651432668,0.9953691616842929
2013-10-18,1,0.001520188514275694,0.0016422548323225996,-0.004627027265026086,0.0035018791612605907,0.9951915240397847
2013-10-22,1,0.000858630684566748,0.0008970752779360258,-0.004032906511900283,0.0035018791612605907,0.9959730388125347
2013-10-24,1,0.0005030698701325969,0.0005360392717955347,-0.0037076409827294272,0.0035018791612605907,0.9956050360695531
2013-10-28,1,0.0008918311353693351,0.0009390484893950367,-0.003902504848306043,0.004326619007073596,0.9950884632975943
2013-10-30,1,0.0018462322734410703,0.0020631144364664502,-0.004235822274243364,0.004326619007073596,0.9947373651617738
2013-11-01,1,0.0007710779434649362,0.0007859493778519004,-0.005025170147702292,0.004326619007073596,0.9942996450507599
2013-11-05,1,0.00019719228170654064,0.0002625618965462102,-0.005235081391483701,0.004326619007073596,0.9943739011173643
2013-11-07,1,0.00033692960576569035,0.0003644481068809528,-0.004305792688837168,0.004326619007073596,0.9946179725041917
2013-11-11,1,9.508171449971705e-05,0.00019992067314127034,-0.005235081391483701,0.005542119843740951,0.9943368314391267
2013-11-13,0,-4.034418315640171e-05,9.819040809001459e-05,-0.005662943385283645,0.0029230724653927227,0.9935854487294365
2013-11-15,1,0.00017209087282585913,0.0002765032411968337,-0.005458783914628363,0.0024774840781123606,0.9937593660149345
2013-11-19,1,0.0004190083312504835,0.00046847238145793235,-0.005458783914628363,0.003979935880418609,0.993166822073129
2013-11-21,1,0.001132704290095396,0.0012075498218257637,-0.005458783914628363,0.003979935880418609,0.9932937819407822
2013-11-25,1,0.0014095963511264848,0.0015345864166238978,-0.005458783914628363,0.003979935880418609,0.9935923859963819
2013-11-27,1,0.0016229662096362988,0.0018246538275297867,-0.005176537234481881,0.003979935880418609,0.9937904795016561
2013-12-02,1,0.0006904562516239186,0.0007963702119848023,-0.0040582972217482575,0.005686216230245579,0.9947842928302407
2013-12-04,1,0.0009476080097653249,0.0011309372046145725,-0.0040582972217482575,0.005686216230245579,0.9942766756730874
2013-12-06,1,0.0011833853269182695,0.0013815290757146085,-0.004577390696207512,0.003979935880418609,0.9943129366510792
2013-12-10,1,0.0014122674780220929,0.0016661324970262655,-0.004577390696207512,0.0037882073931612857,0.9939005652012359
2013-12-12,1,7.650814018496862e-05,8.455906184017774e-05,-0.004577390696207512,0.0037882073931612857,0.9945529607020714
2013-12-16,-1,-0.00010769390826003542,-8.228516720857257e-05,-0.003931576548765697,0.004677081678725373,0.9947316534947489
2013-12-18,0,-8.463488021130997e-06,1.3470057216839907e-05,-0.00389804473407765,0.0033912462840568224,0.9952208246035592
2013-12-20,0,-2.8452171120008847e-05,5.845606044664535e-06,-0.00435007457916081,0.0033912462840568224,0.9952637041434648
2013-12-24,1,0.0009048120383166847,0.0009676907463236567,-0.006709995285964996,0.0016452765442397533,0.9937114772106368
2013-12-27,1,0.0005431472608679668,0.0005760382252370567,-0.006709995285964996,0.0033912462840568224,0.9928292881829484
2013-12-31,1,0.0004720934980739656,0.0005334336839794083,-0.013160328592739438,0.0006578620969205674,0.991522825026832
2014-01-03,0,-6.127496469258644e-05,5.5403180545794066e-05,-0.014411370458779556,0.0006578620969205674,0.9905977387170168
2014-01-07,-1,-0.00023694845948095335,-0.00011359080134799274,-0.014411370458779556,0.0020314568139642797,0.9894196481579499
2014-01-09,-1,-0.0010425047429481384,-0.0008032635926659672,-0.01405572279660896,0.004857486187909682,0.9898762112073337
2014-01-13,-1,-0.0016257937646668862,-0.0013142933327224332,-0.01405572279660896,0.005942645445610526,0.9891490561116576
2014-01-15,-1,-0.001347437299107088,-0.0010822340441407623,-0.01405572279660896,0.005827722410872247,0.9890081053695997
2014-01-17,-1,-0.0015733065111514814,-0.0012768199679638126,-0.01405572279660896,0.008993116105454876,0.9886882589081583
2014-01-22,-1,-0.002011483442429858,-0.0016395699329851238,-0.01405572279660896,0.008993116105454876,0.9885710055561514
2014-01-24,-1,-0.003629550121872412,-0.0030613213094288954,-0.005470742689673324,0.008993116105454876,0.9894513403355324
2014-01-28,-1,-0.0028360674509428207,-0.0023594828817336978,-0.005470742689673324,0.008457280001462453,0.9905370198270845
2014-01-30,-1,-0.004633861471200004,-0.003926742826497928,-0.001660015119347121,0.008964312604057919,0.9900864948934631
2014-02-03,-1,-0.00555904919581476,-0.004782690886895261,-0.0014731691454606727,0.008964312604057919,0.9899269020140812
2014-02-05,-1,-0.00450260061654377,-0.003859359889302823,-0.0014731691454606727,0.008457280001462453,0.9919630052116138
2014-02-07,-1,-0.003983320306245927,-0.0033967429062804555,-0.001660015119347121,0.007624420133590687,0.9932202791252195
2014-02-11,-1,-0.0023860279716868974,-0.0020296908782065307,-0.0020263405201897313,0.0034904087897728734,0.9954113290038458
2014-02-13,-1,-0.0015686990880205418,-0.001343299956035149,-0.0023334516238773684,0.003069984009605191,0.9960049433120454
2014-02-18,-1,-0.0012945193541626366,-0.0010883496523035581,-0.0023334516238773684,0.003069984009605191,0.995936720351622
2014-02-20,-1,-0.0008466494462304639,-0.0007087501324461076,-0.0023334516238773684,0.0029346604297714675,0.9963671081275484
2014-02-24,-1,-0.0013559182795327748,-0.0011465127715415409,-0.002148544675097162,0.003069984009605191,0.9961291905222808
2014-02-26,-1,-0.0013393422687244202,-0.0011280801822065607,-0.0028772421566709843,0.0035944259414558656,0.9956935587708927
2014-02-28,-1,-0.0008744783361784062,-0.000708090517000164,-0.0028772421566709843,0.002577229972880191,0.9962808400448134
2014-03-04,-1,-0.0014561095620831265,-0.0011994243360590646,-0.0028772421566709843,0.002577229972880191,0.9962206498315854
2014-03-06,-1,-0.0008908782034377456,-0.0007301349631009009,-0.0029978184281461324,0.003234830071874779,0.9956790095091732
2014-03-10,-1,-0.0006058454737988648,-0.0005203958819650138,-0.0040653716429845145,0.003234830071874779,0.9952442095708282
2014-03-12,-1,-0.0002570955782210528,-0.00025625537253948824,-0.0040653716429845145,0.00494950082890064,0.9946271084873892
2014-03-14,1,1.5041785861646245e-05,0.00010973641599604196,-0.005166487830672271,0.00494950082890064,0.9938707929990183
2014-03-18,1,0.00029879005640189515,0.00037677211580079706,-0.005166487830672271,0.004964561425721467,0.993807516205641
2014-03-20,1,0.0001671228093325084,0.0002495609169167439,-0.005166487830672271,0.0068170180826453135,0.9936770539791525
2014-03-24,1,0.00035052491765519365,0.0004664717337518615,-0.005166487830672271,0.0068170180826453135,0.9938806884456985
2014-03-26,1,0.00029570079700285817,0.00045056631230275794,-0.004702606131080716,0.008880457817396423,0.9926109804258704
2014-03-28,1,9.036610563776788e-05,0.00019421959959478434,-0.005166487830672271,0.010032297064982579,0.9917813404601056
2014-04-01,1,0.0004430092216166116,0.0005838904968276572,-0.004823396132174335,0.010032297064982579,0.992090111331521
2014-04-03,1,0.0006623391575934132,0.0008299195591441087,-0.0035768774474743904,0.009693868299244212,0.9924329777154096
2014-04-07,1,0.00034899884818906726,0.00048783357346319557,-0.0035387477183339167,0.009693868299244212,0.9924130556102032
2014-04-09,1,0.0008739165732719767,0.001095789913712244,-0.005537571049490612,0.010012363297569559,0.9916286229180091
2014-04-11,1,0.00027446371915875747,0.0004279633698684496,-0.000687763120365764,0.010012363297569559,0.992122187651708
2014-04-15,1,0.0007392886761008144,0.0009573098039981503,-0.002520146850461619,0.010012363297569559,0.9922769291093717
2014-04-17,1,0.0012149646580033248,0.0015171033155023466,-0.005537571049490612,0.008340805919312959,0.9924164463371253
2014-04-22,1,0.0014972594924112983,0.0018533206263069348,-0.005537571049490612,0.008340805919312959,0.9922266899469927
2014-04-24,1,0.0024581926515835403,0.00293210297250776,-0.005537571049490612,0.004882319210718262,0.9935086878068055
2014-04-28,1,0.002201158558170512,0.0026094562906124924,-0.004746262033273544,0.0038577981243726714,0.9944744658538267
2014-04-30,1,0.002660833588473785,0.003123651446912213,-0.004746262033273544,0.0038577981243726714,0.9945701434757485
2014-05-02,1,0.003134807269314926,0.003671263025129429,-0.004746262033273544,0.003463623946343188,0.9943533321318221
2014-05-06,1,0.002666765533888486,0.003140275839709099,-0.0017430916717680778,0.0038577981243726714,0.9948736171971635
2014-05-08,1,0.002536742885581985,0.0029509773691875152,-0.0012384604965181754,0.003660089602328525,0.99646838272868
2014-05-12,1,0.0026420886439826596,0.003063989888500247,-0.0017430916717680778,0.003463623946343188,0.9963343131263392
2014-05-14,1,0.002400243920971699,0.0028000211026855413,-0.0014134693401345049,0.003463623946343188,0.9967274097633464
2014-05-16,1,0.0022355913838087126,0.0026205453496777288,-0.0014134693401345049,0.003463623946343188,0.9969489766557741
2014-05-20,1,0.00225672729455743,0.0026581389824633307,-0.0006184418355744838,0.0039637820493223916,0.9966155797019235
2014-05-22,1,0.0023509728491769412,0.0027575842310076787,-0.0006184418355744838,0.004022557913316202,0.9965169072440286
2014-05-27,1,0.002789747378310706,0.0032766828989254293,-0.001586849548836507,0.004022557913316202,0.9957571921181413
2014-05-29,1,0.0025983743204002112,0.0030235195761202168,-0.001586849548836507,0.002429647690975232,0.9960197718001235
2014-06-02,1,0.0024968217637932185,0.0028891151181418577,-0.001586849548836507,0.004896373035002796,0.9958725165314404
2014-06-04,1,0.002668186820406309,0.0030588619558956608,-0.002653422682228422,0.004022557913316202,0.9959531757666684
2014-06-06,1,0.0025676589291025436,0.002918933033229671,-0.002653422682228422,0.004896373035002796,0.9958253162207293
2014-06-10,1,0.0024718740382307786,0.0028162888421254485,-0.002653422682228422,0.004896373035002796,0.9957677704333746
2014-06-12,1,0.0022630385500732745,0.0025660282374446106,-0.0018093194648793002,0.004896373035002796,0.9958965453947533
2014-06-16,1,0.002094161813081546,0.002367304433299507,-0.0018952831422519066,0.005261955717646882,0.9957084580091269
2014-06-18,1,0.0020260739812876082,0.002221024851776394,-0.0036698277029594724,0.0023501343289637645,0.9958648811671561
2014-06-20,1,0.002343919376080301,0.002611812053893969,-0.0037742069211629857,0.002027220588616944,0.9956943018331056
2014-06-24,1,0.001202573838866019,0.0012224380024055245,-0.0037742069211629857,0.002027220588616944,0.9962131602131189
2014-06-26,1,0.0003364392972380834,0.00048319248707114233,-0.004439615788613046,0.0017047461519375713,0.9960315929164892
2014-06-30,1,0.0009311552056895982,0.0010047157705051072,-0.004439615788613046,0.0007650102343822942,0.9958361134858281
2014-07-02,1,0.0006635538259808592,0.000725218464597884,-0.005812495376892569,0.0007650102343822942,0.9956305228837778
2014-07-07,1,0.0012444896897219468,0.001303911415647628,-0.005812495376892569,0.000779871593442608,0.9955456445279305
2014-07-09,1,0.0010558770167751522,0.0010905072751500537,-0.005812495376892569,0.0013427334257703782,0.9957305033079716
2014-07-11,1,0.0009375135481909612,0.0009699068208862168,-0.005812495376892569,0.0023881650753048433,0.9957272380458901
2014-07-15,1,0.0008931973954741637,0.0009113564026107119,-0.004189530104307909,0.0037893577658005603,0.9956134795417267
2014-07-17,1,0.0004434541701863386,0.0004933638086214687,-0.0027822150442769113,0.006455241979039819,0.9951572403902306
2014-07-21,1,0.00031423003565383566,0.0003889586730295414,-0.00028175630042657726,0.006455241979039819,0.9951863896833469
2014-07-23,1,0.00020402521164350162,0.00027200215135886243,-9.119682028045856e-05,0.0070880382988066926,0.9951245874491756
2014-07-25,-1,-0.000399880986998238,-0.0002606247895060093,8.058357452386052e-05,0.0070880382988066926,0.9949690012857486
2014-07-29,-1,-0.0005703447228563469,-0.00040261459485378865,0.0008335037799496102,0.006455241979039819,0.9950345218620247
2014-07-31,-1,-0.0012165267082789233,-0.0009611171113172095,0.0010602849788629053,0.006455241979039819,0.9948222075412315
2014-08-04,-1,-0.0011977161113247005,-0.000942321766986726,0.0010602849788629053,0.006455241979039819,0.9947629698244291
2014-08-06,-1,-0.0010344785620514513,-0.0007907700396788066,0.0008208383828646422,0.006016288470813983,0.9949715741590502
2014-08-08,-1,-0.0007437348850019603,-0.000553211555364946,-0.0005171212051443021,0.006016288470813983,0.9953990527355209
2014-08-12,-1,-0.0003861084262551017,-0.00022496320260596082,-0.0015083979882122179,0.005478853669183353,0.9958049510653879
2014-08-14,1,0.0002635220363170648,0.00034748832289285256,-0.0018422030281168484,0.003885382980149729,0.9965531660831378
2014-08-18,1,0.00038624533600799043,0.0004556848714987032,-0.0018422030281168484,0.004004653962663432,0.9963893983528822
2014-08-20,1,0.0004599078464202043,0.0005279374884131635,-0.0019692326699507923,0.004004653962663432,0.9964205456315833
2014-08-22,1,0.0007510031040758613,0.0007719406115080821,-0.002845158256645295,0.0035293628202111857,0.9960875254848066
2014-08-26,1,0.0009683882267569375,0.0009741293673151075,-0.004178209218569755,0.0035293628202111857,0.9953616874367498
2014-08-28,1,0.0005661737812962412,0.0006428272810572759,-0.00504663260652198,0.004001904772846712,0.9951523460227079
2014-09-02,1,0.0007372365310558097,0.0007798652550270067,-0.00504663260652198,0.004001355666603918,0.9948998527871435
2014-09-04,1,8.08612987511422e-06,0.00016085235371245772,-0.00504663260652198,0.004179835117389891,0.9953977739624823
2014-09-08,1,8.333795269421492e-05,0.00021860476484547765,-0.00504663260652198,0.0054268407289418934,0.9943963379496269
2014-09-10,1,7.254148206504893e-05,0.00020459015919004232,-0.00504663260652198,0.00604768663531678,0.9940339071357611
2014-09-12,-1,-0.00025271885661932005,-8.849272704741719e-05,-0.005556723767683026,0.00604768663531678,0.9935533616103278
2014-09-16,1,0.0006262551011052945,0.0006580692306397585,-0.005556723767683026,0.006013915430763881,0.9933643723075833
2014-09-18,1,0.0009218441089227321,0.0009418125058229182,-0.007495727012707383,0.0041843960257617755,0.9928804425208697
2014-09-22,1,0.0005116511504320134,0.0005445857741052558,-0.005032038098002028,0.006013915430763881,0.992736185691595
2014-09-24,1,0.0008432585733863796,0.0009170888719841932,-0.005032038098002028,0.006013915430763881,0.9919762364860293
2014-09-26,1,0.0005015250458190455,0.0005171641583254031,-0.004109672996267512,0.008837877694231928,0.9910597277597238
2014-09-30,1,0.0004770240225977334,0.0004927240924591369,-0.004109672996267512,0.008837877694231928,0.9912114149138378
2014-10-02,1,0.0005449233526919889,0.0005460339882109819,-0.004109672996267512,0.008837877694231928,0.9910308305083196
2014-10-06,1,0.000724763566693043,0.0007332776915056883,-0.002951125024170766,0.008785536117265666,0.9914380560500045
2014-10-08,1,0.0006553342180613358,0.000668796441115581,-0.002384278630736902,0.007830206500507017,0.992229659740421
2014-10-10,0,-4.3204163830545675e-05,5.844237489677716e-05,-0.0025323589490451196,0.007830206500507017,0.9927420708550597
2014-10-14,1,0.00012697801582061723,0.0002082258685364487,-0.0029298596942048966,0.005873492452756375,0.9927870165961179
2014-10-16,-1,-0.00036740050085242766,-0.00023766169136695567,-0.0023909816120584538,0.005873492452756375,0.9931851002288383
2014-10-20,1,0.00044785143846896776,0.00047570454056570827,-0.0025323589490451196,0.00451469484404002,0.9938738663687987
2014-10-22,1,0.0009846297928797687,0.0010224190400538367,-0.0023909816120584538,0.00451469484404002,0.9951707593317157
2014-10-24,1,0.002289483455901359,0.0025219699519710335,-0.0023909816120584538,0.0038491481743132415,0.995994999073317
2014-10-28,1,0.002084825823222502,0.0022977343535981343,-0.0023909816120584538,0.00451469484404002,0.9959210729881274
2014-10-30,1,0.0020294182054320475,0.0022258536221901543,-0.0023909816120584538,0.004387699019488293,0.9960769543384841
2014-11-03,1,0.002047945963570552,0.002237181112849805,-0.002709317044384116,0.004387699019488293,0.9961209266727646
2014-11-05,1,0.0020350696493769975,0.0022123249812491096,-0.002709317044384116,0.004859786206865506,0.9954835729058389
2014-11-07,1,0.0019507870809420992,0.002153716276768876,-0.0011613524431896645,0.0056154010982872446,0.9952476594189182
2014-11-11,1,0.0016807638202311257,0.0018508935370401508,-0.0025744885845529106,0.0056154010982872446,0.9942148104165415
2014-11-13,1,0.0014102144636268942,0.0015318786955476659,-0.004071968930934949,0.0056154010982872446,0.9934619367335096
2014-11-17,1,0.0010042179253774036,0.0010860316639246669,-0.007299992765432887,0.0056154010982872446,0.9923801330468083
2014-11-19,1,0.0018122305212354885,0.0019870940318335146,-0.007299992765432887,0.0067313643130144755,0.991660998759073
2014-11-21,1,0.001968673119748108,0.0021562515099774965,-0.009758015063704174,0.006665311805487199,0.9908552127909717
2014-11-25,1,0.0020905405553749996,0.0023003310035925473,-0.009758015063704174,0.009369304211377757,0.9907393124922512
2014-11-28,1,0.0020660964590713867,0.002257304669813743,-0.009758015063704174,0.009369304211377757,0.9905979679777159
2014-12-02,1,0.0018720169035778464,0.002031651755221035,-0.0104932068549781,0.009369304211377757,0.9904628963957061
2014-12-04,1,0.0021918295293266903,0.0023941630023734837,-0.011912785541131257,0.006985139577465915,0.9899107798967163
2014-12-08,1,0.002626522049074109,0.002860762633751586,-0.011912785541131257,0.002302134674611926,0.9901377256508195
2014-12-10,1,0.0017829624003354017,0.001893278338023169,-0.01023120795908856,0.006985139577465915,0.9904483578523152
2014-12-12,1,0.0007609159390248947,0.0008068349769099465,-0.00971923011558189,0.006985139577465915,0.9911997892289647
2014-12-16,-1,-0.00026085847047459677,-7.823414416533077e-05,-0.009126404175888938,0.006985139577465915,0.9910425441950031
2014-12-18,1,0.0005244572851772295,0.0006314774977665233,-0.00930331884424566,0.0030456662097702127,0.9907930344869829
2014-12-22,0,-0.00012171427133243805,9.619127529297182e-05,-0.008943422517181172,0.004928050817768854,0.9905848919248549
2014-12-24,1,0.0002735243079675224,0.00045304969295855053,-0.00930331884424566,0.004827849912859979,0.9901800807469496
2014-12-29,1,0.000457818376820257,0.0006055749780951263,-0.009883700487471975,0.0026175379705805886,0.9898683183640801
2014-12-31,0,-9.251623515956202e-05,0.00011070508511251123,-0.009883700487471975,0.004827849912859979,0.9883665723692696
2015-01-05,-1,-0.000387286950145669,-0.00016904976927844563,-0.00930331884424566,0.00815399574679717,0.9884722675511404
2015-01-07,-1,-0.00018469591236528794,-3.2688006179996574e-05,-0.009883700487471975,0.013100487530459308,0.9863231562770856
2015-01-09,1,0.0005072433663564826,0.0005679545243662646,-0.009883700487471975,0.00815399574679717,0.9873616444439927
2015-01-13,1,0.00021920998069688524,0.00030223796239524045,-0.009334755511348679,0.00815399574679717,0.9876336299974976
2015-01-15,-1,-0.0003368873463058513,-0.00019374806889825482,-0.003475583136156761,0.00815399574679717,0.9889426536634475
2015-01-20,1,0.00021246361828621514,0.00028590104041366376,-0.0005476831503270751,0.006439979129202335,0.9903184757860188
2015-01-22,1,0.0010449329863011843,0.0010696974911368036,-0.0020405787093349366,0.006439979129202335,0.9915992712177202
2015-01-26,1,0.0009188660270487354,0.0009313275822382596,-0.002340250994927731,0.006439979129202335,0.9919751496875682
2015-01-28,1,0.0003777287436039343,0.00043453372096370266,-0.0006482640209008938,0.006439979129202335,0.9922303375814386
2015-01-30,-1,-0.00031584134306321344,-0.00017121046594193633,-0.0006482640209008938,0.006428643870424451,0.9935729589097324
2015-02-03,1,3.6058154765229006e-05,0.0001455957221245632,-0.002043419788303122,0.005102100149633823,0.9943997250907104
2015-02-05,0,-6.590731658367126e-05,6.97551187016355e-05,-0.0018416407262587847,0.004223605923141448,0.996552082322262
2015-02-09,1,0.00031175447452123375,0.00038963299490315747,-0.002043419788303122,0.002955508056640047,0.9961268636657604
2015-02-11,1,0.0006238160276739897,0.0006612059231021581,-0.002043419788303122,0.005102100149633823,0.9945713445160198
2015-02-13,1,0.0005239185326820858,0.0006023646093296636,-0.002489825858376768,0.006198549871402008,0.9934888310431128
2015-02-18,1,0.00044702678080908,0.0005303148217002964,-0.0036061177722321656,0.006904837204716255,0.9929215648136726
2015-02-20,1,0.00038025450822900327,0.0004813220077748635,-0.004797433141757871,0.0071623339741202635,0.9923325721485947
2015-02-24,-1,-0.0002327550387662469,-4.466375724422437e-05,-0.0053973324211498185,0.0071623339741202635,0.9917527827784492
2015-02-26,0,-0.00015000068948110032,2.2911414696155587e-05,-0.008917226554111281,0.0071623339741202635,0.9913501846196946
2015-03-02,0,-7.086908729237969e-06,0.0001287431114551426,-0.005776214708539057,0.008615824724880738,0.9910414268852803
2015-03-04,-1,-0.00027165717527206674,-0.00011061352857791627,-0.010260130342199716,0.008615824724880738,0.9903252987551605
2015-03-06,-1,-0.0005998726062732408,-0.00036338475279602865,-0.010260130342199716,0.008615824724880738,0.9901405626059733
2015-03-10,-1,-0.001286262162560409,-0.0009759741201651988,-0.010201439047504025,0.008615824724880738,0.990089829392066
2015-03-12,-1,-0.0007323333265504743,-0.0004450417052710478,-0.010201439047504025,0.006825544115621739,0.9913393583975393
2015-03-16,0,-0.00015266663279008311,3.698647766976976e-05,-0.006966166676047527,0.005385336927189495,0.9925834104758333
2015-03-18,1,0.00027266934958920184,0.00037209592608648253,-0.006966166676047527,0.005385336927189495,0.9925054431726817
2015-03-20,1,0.0008973979763154323,0.0009358435282615515,-0.006966166676047527,0.005385336927189495,0.9925994646298673
2015-03-24,1,0.00022616721909542585,0.0002689177471761977,-0.009292249870939616,0.0051692475415639075,0.9923773089200847
2015-03-26,1,0.0001112908391306072,0.00015898349268306667,-0.006912739616281002,0.005377950598887449,0.992676633337684
2015-03-30,1,0.0007793336367264629,0.0008209005925281054,-0.006912739616281002,0.004886302472556749,0.9933830513290829
2015-04-01,1,0.00018808256034487662,0.0002117430235596513,-0.006117571151502994,0.004886302472556749,0.9934109918690338
2015-04-06,1,0.0003345537437346187,0.0003599028372531815,-0.006117571151502994,0.004059098483929868,0.9935930010528279
2015-04-08,-1,-0.00010237625783079735,-1.7108168649064087e-05,-0.0046756940049488376,0.004262314283700972,0.9941251983514535
2015-04-10,1,7.775024070165898e-05,0.00013587562754830324,-0.003947857402605768,0.004886302472556749,0.9941395376141189
2015-04-14,-1,-0.00023313418446246328,-0.00013007213756081626,-0.003947857402605768,0.004886302472556749,0.9939738416346785
2015-04-16,1,7.430547830341669e-05,0.000132908479296098,-0.003374739239459143,0.004522574223923015,0.9943413884769976
2015-04-20,1,0.0003837572689335266,0.0003851951105902586,-0.00265180440473723,0.004159210419911686,0.9950925912519788
2015-04-22,-1,-0.0005472262096048261,-0.0004413898800967167,-0.0020742585733202444,0.004159210419911686,0.996037626823965
2015-04-24,-1,-0.00010764862638116602,-6.228335242844287e-05,-0.00265180440473723,0.004020491800393712,0.9958769482091269
2015-04-28,0,-3.8225917997541936e-05,2.1704542569589945e-06,-0.003374739239459143,0.004020491800393712,0.9953353320743468
2015-04-30,-1,-0.0004296560961556096,-0.0003717438145730436,-0.00265180440473723,0.004020491800393712,0.9959010695717189
2015-05-04,1,0.00019902386266527368,0.00025937741022912355,-0.00265180440473723,0.004159210419911686,0.9956339507912352
2015-05-06,-1,-0.00012654514503932055,-0.0001057653660550592,-0.0034249712616571714,0.004898470951851819,0.9945097740763406
2015-05-08,-1,-7.9404360607946e-05,-3.279553925115359e-05,-0.005514781349069794,0.0036027760025066262,0.9946973452422802
2015-05-12,-1,-0.0005595399194641759,-0.00045282698244747323,-0.00648683958552648,0.0041072451138010595,0.9930036936580761
2015-05-14,1,0.00017225357758944348,0.0001752705005346619,-0.00648683958552648,0.006764567642441132,0.9922410988448267
2015-05-18,-1,-7.707829664414864e-05,-3.683334125597094e-05,-0.00648683958552648,0.007140986474522755,0.9919835291410881
2015-05-20,1,0.000296296120854969,0.0003239124737272288,-0.00648683958552648,0.00827603825328239,0.9912062451642757
2015-05-22,-1,-8.494062625032034e-05,-6.381832415986114e-05,-0.004438040823662726,0.008952104082416442,0.9912481516467339
2015-05-27,-1,-0.0004972728984745706,-0.0004094051338684186,-0.004438040823662726,0.008999441402767754,0.9913597878357896
2015-05-29,-1,-0.0010304576448725328,-0.0008478309404569286,-0.004670155783020579,0.008999441402767754,0.991230081763389
2015-06-02,-1,-0.0006093978912183104,-0.0004661509440582367,-0.006216211987998554,0.008999441402767754,0.9908733954585373
2015-06-04,-1,-0.00033345576918259145,-0.00025555560716661373,-0.004841106052860606,0.008999441402767754,0.9893162088953352
2015-06-08,-1,-0.0008922144031024182,-0.0007493904766572307,-0.004215010514695286,0.012231164866979486,0.9882381287073141
2015-06-10,-1,-0.00033229901987575137,-0.00022073522730519534,-0.004215010514695286,0.009815155857576911,0.989702379423173
2015-06-12,1,0.0004766014898946954,0.000493204482952323,-0.004215010514695286,0.009815155857576911,0.9899517221399577
2015-06-16,1,0.0010151819194041027,0.001145882256367092,-0.004445243213387464,0.009815155857576911,0.9901917109751636
2015-06-18,1,0.0014681343817600392,0.0016320139384351825,-0.004445243213387464,0.008999441402767754,0.9910178684931729
2015-06-22,1,0.0013366095842828399,0.0014545536641152584,-0.005018953339417057,0.005626925147210079,0.9907672700172774
2015-06-24,1,0.0011504803206598894,0.0012119464895627618,-0.004666880713487293,0.006332201760696503,0.9905976479244066
2015-06-26,1,0.0012041639726562475,0.0012896676635429805,-0.004666880713487293,0.00793808917786246,0.9902421054335857
2015-06-30,1,0.000855276779010259,0.0008822300566543288,-0.004666880713487293,0.012371049286262585,0.9895503645381137
2015-07-02,1,0.002154096374600653,0.002360917814846748,-0.004666880713487293,0.00793808917786246,0.9919136524608059
2015-07-07,1,0.0030114603468478452,0.003339476511704074,-0.004666880713487293,0.005158856784805955,0.9927762838070099
2015-07-09,1,0.002568894961197836,0.0028626006133481378,-0.004505826098560034,0.005158856784805955,0.9935031244077778
2015-07-13,1,0.003176177073240599,0.003540765854207399,-0.004505826098560034,0.0058096287770926305,0.9936117278561409
2015-07-15,1,0.0029053169281406475,0.0032407930457439265,-0.0030035136834961566,0.0058096287770926305,0.9937772064334935
2015-07-17,1,0.0028694133509184917,0.003178112506638246,-0.0030035136834961566,0.006643059010802717,0.9932971273953713
2015-07-21,1,0.00235910571135719,0.002608189046579705,-0.002340368269772337,0.006643059010802717,0.9939140043926203
2015-07-23,1,0.002590806050345451,0.002862096270969564,-0.0038131105488074923,0.006589489142159027,0.9932391751676837
2015-07-27,1,0.0019694533592362383,0.002226978687872595,-0.004595759819212285,0.0058096287770926305,0.9904112785790654
2015-07-29,1,0.00231060824673686,0.0025943541167510425,-0.004595759819212285,0.0058096287770926305,0.990321231338352
2015-07-31,1,0.0017066838725916002,0.0018761791088372525,-0.00394213240325437,0.006625424481823862,0.9895675406889463
2015-08-04,1,0.0025366935637068833,0.0028831776636711174,-0.007482628206335558,0.006625424481823862,0.9882121272881098
2015-08-06,1,0.002733925833894519,0.003085074317597261,-0.007482628206335558,0.006990566642077973,0.9880544169841361
2015-08-10,1,0.003294630532147338,0.0037127791947139106,-0.013906959434057526,0.006990566642077973,0.9866952554824499
2015-08-12,1,0.00314133713464549,0.0035304065789504326,-0.013906959434057526,0.006990566642077973,0.9863718095936446
2015-08-14,1,0.0033114492985037687,0.00368484469673173,-0.013906959434057526,0.004576719357759893,0.9864934074765835
2015-08-18,1,0.0031841586043637256,0.003531576702713604,-0.013906959434057526,0.007748611652222173,0.9862464030192477
2015-08-20,1,0.002210858129686798,0.002447014223206208,-0.013906959434057526,0.007748611652222173,0.9866859361928176
2015-08-24,1,0.001949596192295897,0.002104844082449486,-0.006106961105183817,0.008402800967185226,0.9895802297611738
2015-08-26,1,0.0023840163974121423,0.0026078721493382824,-0.0043587941252383345,0.007748611652222173,0.9911652240099691
2015-08-28,1,0.0028260887991441042,0.0030894992294153607,-0.006106961105183817,0.005986017054907089,0.9914361191558061
2015-09-01,1,0.002067686317544497,0.002235202876694867,-0.003962334866396126,0.007748611652222173,0.9925503962970853
2015-09-03,1,0.0023013082358515928,0.0024978875266335457,-0.005741041751682783,0.005324563861343956,0.9924532135810282
2015-09-08,1,0.002464676196406416,0.002690429504025674,-0.003962334866396126,0.004024201587629762,0.9941890533608625
2015-09-10,1,0.0021825240680971533,0.0023642057002558944,-0.003191008905083245,0.008057811391387115,0.9939558709456893
2015-09-14,1,0.0016320637946986632,0.0016746952352329585,-0.0025220792722116395,0.008057811391387115,0.993799699688377
2015-09-16,1,0.002292477514866648,0.0024347884153083717,-0.005741041751682783,0.004573117155177495,0.9934277248306843
2015-09-18,1,0.0015531110860796166,0.0015962995855284463,-0.0030820062088600603,0.005803471272887729,0.9938423867049188
2015-09-22,1,0.0011397889607845176,0.0011860880874912574,-0.0012561180471942631,0.0049909901186764,0.994196099297568
2015-09-24,1,0.0011341755851476687,0.0011804422138395989,-0.0034980308211981456,0.0049909901186764,0.9935271233870816
2015-09-28,1,0.0004782794467535959,0.0006042511664964534,-0.0012561180471942631,0.0049909901186764,0.9940940390692554
2015-09-30,1,0.0011530149265268999,0.0011811493780771111,-0.0012561180471942631,0.005536834562115667,0.9936448570071645
2015-10-02,1,0.0006532626549565963,0.0007530220044809739,-0.002933292205653201,0.005536834562115667,0.9927862831314163
2015-10-06,1,0.0008390396080032007,0.0009117366557784851,-0.005560510958725295,0.005536834562115667,0.9925996376587862
2015-10-08,1,0.00143733499381518,0.001448038230340369,-0.00701828704362535,0.0049909901186764,0.9929684580732269
2015-10-12,1,0.0015035004115512983,0.001504319707572011,-0.008501498374279019,0.003910577186509741,0.992675627194282
2015-10-14,1,0.00012153308904215793,0.0003171449126908401,-0.005216086488150614,0.005029380707212018,0.993402200715101
2015-10-16,1,0.0005015805442719827,0.0006675240069684879,-0.008559367297829728,0.003258729662340719,0.9928218583893604
2015-10-20,1,0.00028089193008081804,0.00048784553029943836,-0.010295111159632327,0.003258729662340719,0.9919966643186411
2015-10-22,0,-0.00014622011485691572,9.383886953038471e-05,-0.008559367297829728,0.005856190774200289,0.991462017487395
2015-10-26,0,-0.00023681883278667878,2.506323807507753e-05,-0.008559367297829728,0.006017451722001483,0.9907171411886473
2015-10-28,1,0.00025476305969781286,0.00048735317623188493,-0.008559367297829728,0.005135832777906892,0.9918218674747419
2015-10-30,-1,-0.000506220971285493,-0.00021388626862577553,-0.00701828704362535,0.005135832777906892,0.9928581144222025
2015-11-03,-1,-0.0004934846784185975,-0.00023260485756116268,-0.004247639016827312,0.005881377544696717,0.9924020857669503
2015-11-05,-1,-0.0006202545996199394,-0.00034746867547888634,-0.005099870329882326,0.007005152656844146,0.9916040465237853
2015-11-09,-1,-0.0007006151091027423,-0.0004465968999149058,-0.010936600566079147,0.007005152656844146,0.9910973527273326
2015-11-11,-1,-0.0006184219315155265,-0.0003864543755919915,-0.011021611444006357,0.007005152656844146,0.9906352144614792
2015-11-13,-1,-0.0018181877241049721,-0.0014481497471366736,-0.011021611444006357,0.00883140296617146,0.9908576111414447
2015-11-17,-1,-0.0021298899112587545,-0.0017105963738643876,-0.005219154926589996,0.00670176213659987,0.9916570503782793
2015-11-19,-1,-0.0017360086008628252,-0.0013412862761339177,-0.011313165854503874,0.003990645758864864,0.9918806357465716
2015-11-23,0,-0.00016722323219649606,3.398017533392541e-07,-0.011313165854503874,0.004740236273161379,0.992100159465661
2015-11-25,1,0.00042182778681974006,0.0004652390300673619,-0.011313165854503874,0.006476551845671784,0.9904367004951143
2015-11-30,1,0.00010158875963770355,0.00020704076117425614,-0.011313165854503874,0.007651876867967273,0.9898725117984525
2015-12-02,1,0.0009576923759139658,0.0009785470871263003,-0.01160353593012135,0.006476551845671784,0.9893694113386879
2015-12-04,1,0.0008982682764170448,0.000906920392597642,-0.011942156618609928,0.006476551845671784,0.9890260755044539
2015-12-08,1,8.728439426610826e-05,0.00015959097349951628,-0.013725518787390173,0.006476551845671784,0.9888442786938662
2015-12-10,-1,-0.0011955814345684242,-0.0009350121982155586,-0.012803314824884624,0.006476551845671784,0.9891728561393418
2015-12-14,-1,-0.0010519121501952008,-0.0008272996377817664,-0.014188911385407336,0.00538660533222071,0.9885819234987483
2015-12-16,-1,-0.0012095098789501081,-0.0009765146806432223,-0.017233324485569457,0.006476551845671784,0.9870251757064453
2015-12-18,-1,-0.0019939426840627243,-0.0016681788090425267,-0.01613153034208356,0.006476551845671784,0.9877727479678794
2015-12-22,-1,-0.0014481425199153412,-0.001172317143684121,-0.01613153034208356,0.006794197108859143,0.9875193010966262
2015-12-24,0,-8.608862977619577e-05,1.4528981211566784e-05,-0.017508849391217947,0.002970316881947033,0.9871283487461268
2015-12-29,1,0.0003946367232394877,0.00043944393544619053,-0.017508849391217947,0.0020026212612453214,0.9868212921420697
2015-12-31,-1,-0.0002942102274097294,-0.00019125767233536703,-0.01613153034208356,0.008903510229177472,0.9868569476242576
2016-01-05,-1,-0.0007865524245714405,-0.0006280640726385726,-0.01613153034208356,0.010576759209942367,0.9865104037459299
2016-01-07,-1,-0.001384715543824161,-0.0011791590793493625,-0.013914247075127196,0.01204356695788294,0.9872362666315637
2016-01-11,-1,-0.0020338641980963343,-0.0017574624119676362,-0.010540624926884214,0.01204356695788294,0.9873701619019796
2016-01-13,-1,-0.003949913950052921,-0.003395665699497814,-0.007669441614753352,0.01204356695788294,0.9874007547291795
2016-01-15,-1,-0.0032894525065115567,-0.002791466043285417,-0.00240265799232189,0.01204356695788294,0.9877580804099112
2016-01-20,-1,-0.003623119117571053,-0.003103061885965151,-0.0005441762396775486,0.01204356695788294,0.9876368764286089
2016-01-22,-1,-0.0021065131861413436,-0.0017971898951708212,-0.0019822300452600116,0.010211738648499866,0.9891087522651935
2016-01-26,-1,-0.0031331382153544176,-0.002682174606739343,-0.0019822300452600116,0.008560291994438776,0.9901412261551837
2016-01-28,-1,-0.002614343393324688,-0.0022404442971561463,-0.0005343015208761908,0.007706277355126279,0.9902855710775486
2016-02-01,-1,-0.0013739360847884016,-0.0011717078564403753,-0.0019822300452600116,0.007706277355126279,0.9908993088163714
2016-02-03,-1,-0.0008214557652140663,-0.0006704759238457373,-0.0005343015208761908,0.007706277355126279,0.9925267597821048
2016-02-05,1,4.5108371298670225e-05,9.50165997302379e-05,-0.0032898051539504494,0.006807577602827805,0.9930321132750678
2016-02-09,1,0.0005709972312067754,0.000624409644221466,-0.004909840125446938,0.006807577602827805,0.9927452048922752
2016-02-11,-1,-0.000579646571570778,-0.0004639718250842565,-0.003763536266000187,0.007706277355126279,0.9925338421267549
2016-02-16,1,0.0005582553514934918,0.0005871209450394601,-0.003763536266000187,0.0041861680372398905,0.9938958860566398
2016-02-18,1,0.0007802507522449504,0.0008413843912979374,-0.004909840125446938,0.004433900059122472,0.9928313728167244
2016-02-22,1,0.0005013413611549074,0.0005029485015701925,-0.0051245686754970605,0.005328047386040192,0.9924911095879791
2016-02-24,1,0.0005104405201884231,0.0005369769860537728,-0.005021917146371252,0.006441477279180838,0.9924505303128841
2016-02-26,1,0.0006657761757026015,0.0007097569064977761,-0.005406244245226904,0.007126190014591697,0.991881200096922
2016-03-01,1,0.001190941712136388,0.0013052899017346276,-0.005021917146371252,0.010595594932998505,0.9921295092820521
2016-03-03,1,0.001981076182799556,0.002250746455855754,-0.005021917146371252,0.010084775382396672,0.9922879329426927
2016-03-07,1,0.0017293308813866308,0.001973029586031468,-0.00577706533560442,0.010084775382396672,0.9918636732932085
2016-03-09,1,0.0009692015776928461,0.0010688514822924922,-0.005932438260151471,0.010084775382396672,0.9920040752488128
2016-03-11,1,0.0020943495820186383,0.0023821216483205154,-0.005932438260151471,0.006955916831057753,0.9926806558687636
2016-03-15,1,0.0023413444959099056,0.002670606027849639,-0.005932438260151471,0.010084775382396672,0.9917764119322295
2016-03-17,1,0.002542777867336897,0.00288064764063704,-0.006247490330899507,0.008150781231226464,0.992286400112156
2016-03-21,1,0.0025152689917502078,0.0028528748579683336,-0.005458035220075921,0.008150781231226464,0.9925167189115895
2016-03-23,1,0.003138273528297165,0.0036124232394118133,-0.006247490330899507,0.008150781231226464,0.9913897526972067
2016-03-28,1,0.0028127886320127426,0.0031946377610383783,-0.004728262517912157,0.008150781231226464,0.9914857022000683
2016-03-30,1,0.0039684015779010455,0.004484856335439726,-0.004728262517912157,0.007897277818124847,0.9918712063155373
2016-04-01,1,0.003990030080829841,0.004515451410772321,-0.006247490330899507,0.007544167906907235,0.9910644744681232
2016-04-05,1,0.003251049905568003,0.003659214393408745,-0.004632073969392846,0.007544167906907235,0.9918073126077385
2016-04-07,1,0.0029650024116962344,0.0033344666589622605,-0.004632073969392846,0.007544167906907235,0.9918529119427906
2016-04-11,1,0.0022515130885953434,0.0024566859872389856,-0.005554424888612977,0.007544167906907235,0.9920281959462248
2016-04-13,1,0.0028988370761150826,0.0031838702389174146,-0.005554424888612977,0.00706309758566407,0.99189449570551
2016-04-15,1,0.0031354349215537,0.0035002118247750447,-0.004460121707134102,0.007201065511197099,0.9921058662943557
2016-04-19,1,0.0035627614778082463,0.004015656467385352,-0.005554424888612977,0.0035995739854876507,0.9912750587791345
2016-04-21,1,0.0026457912591363866,0.00298455087894821,-0.005554424888612977,0.008190485151990286,0.9924401922499615
2016-04-25,1,0.003063972540988273,0.003454682604077338,-0.005767013267046026,0.006457365673827795,0.992675564231506
2016-04-27,1,0.003943592937204674,0.004482092934942182,-0.005767013267046026,0.0029819649367999884,0.9921994373192566
2016-04-29,1,0.003458734482298635,0.003943100373144923,-0.005621827002919164,0.006457365673827795,0.9928962695533177
2016-05-03,1,0.0028062747232486854,0.0031548729386993014,-0.005621827002919164,0.006512057352473051,0.9934486223951264
2016-05-05,1,0.0021975676571191786,0.00242287657435522,-0.005621827002919164,0.006512057352473051,0.9934675881699518
2016-05-09,1,0.0019337902648484781,0.0021183336078340106,-0.00407972520959292,0.006512057352473051,0.9935182489205479
2016-05-11,1,0.0022653787043490138,0.0024889827147143986,-0.00407972520959292,0.005942782304164989,0.9941720007446231
2016-05-13,1,0.0017848753058522556,0.0018889410035314792,-0.006079194872960693,0.0028133049071791664,0.9939208113616261
2016-05-17,1,0.0014504278022376277,0.0015290499477061017,-0.006079194872960693,0.0028133049071791664,0.9943344600936557
2016-05-19,1,0.002243775713513049,0.002494342346533238,-0.005753793662697486,0.0033638495395028937,0.9944371674137881
2016-05-23,1,0.0024255381286412093,0.00272605779489756,-0.003804454221571525,0.0030015758848463536,0.9946930379590434
2016-05-25,1,0.002348171381976497,0.00257351315535553,-0.003804454221571525,0.003792162800195491,0.9945250769566178
2016-05-27,1,0.0019019226343232269,0.00203517361630829,-0.006319549739494035,0.0027738111095813806,0.9931354758162586
2016-06-01,1,0.0015042945789355301,0.0015245184313352604,-0.006319549739494035,0.003792162800195491,0.9913523241618716
2016-06-03,1,0.0007249020700993415,0.0008304659591082229,-0.006103544747269568,0.006350601906163737,0.9898554022311877
2016-06-07,0,-0.00024985752644188003,2.3626956631075144e-05,-0.006557835735596726,0.006350601906163737,0.9893861309402449
2016-06-09,-1,-0.00035653059204150347,-5.3872333390551225e-05,-0.006557835735596726,0.010029640582600018,0.9889017040229482
2016-06-13,-1,-0.0014928640682704078,-0.0010504752012242928,-0.004262232943499128,0.010029640582600018,0.9890323343972603
2016-06-15,-1,-0.0016568617878649759,-0.0012113568976905571,-0.0030326044910921716,0.010029640582600018,0.9890905242775669
2016-06-17,-1,-0.001464546588396874,-0.0010196627687745446,-0.0042496289797465045,0.007287781318928468,0.9896916210653064
2016-06-21,-1,-0.0014850723433318803,-0.0010376091393907087,-0.005576902427256008,0.007287781318928468,0.9897548274264477
2016-06-23,-1,-0.00030294365844215623,-3.364508367949368e-05,-0.005576902427256008,0.007287781318928468,0.9901208541779281
2016-06-27,-1,-0.001145452589874987,-0.0008358339808330642,-0.0042496289797465045,0.007287781318928468,0.9915120524363987
2016-06-29,1,0.0007072234421290026,0.0007812816041971033,-0.005576902427256008,0.004577100228415978,0.9930435045968428
2016-07-01,1,0.001853741987639945,0.0019244866712484748,-0.005576902427256008,0.0023885041129148967,0.9943179320936543
2016-07-06,1,0.0011850818270040708,0.001242700780279259,-0.0042496289797465045,0.004577100228415978,0.9950692918170438
2016-07-08,1,0.0017869452064185748,0.0018499341822569753,-0.004300717764925387,0.004577100228415978,0.9947770029458586
2016-07-12,1,0.0018509182315074074,0.0019286175708767464,-0.004783949252784499,0.0030243143355665725,0.9948697608763695
2016-07-14,1,0.0017369961979426338,0.001789553586478379,-0.004783949252784499,0.0030243143355665725,0.9944962179007785
2016-07-18,1,0.0010628721339856631,0.0011143398098443127,-0.004095399800126644,0.004337190609149664,0.9949737647374668
2016-07-20,1,0.0008630596792959252,0.0009237534581679503,-0.004095399800126644,0.004337190609149664,0.9950241662001384
2016-07-22,1,0.001077483547423414,0.0011086546722799246,-0.004095399800126644,0.004337190609149664,0.9951592456510123
2016-07-26,1,0.0010727570226204638,0.0010822503857955783,-0.004095399800126644,0.003766584767894009,0.9951944668450935
2016-07-28,1,0.0006847106019839915,0.0007583694379731107,-0.003547662438269839,0.003766584767894009,0.9956056896476401
2016-08-01,1,7.262040868935083e-05,0.0002409322031612216,-0.003547662438269839,0.0044678077082232395,0.9955100996229866
2016-08-03,1,0.0006995371706322812,0.0007582940281739771,-0.003547662438269839,0.0044678077082232395,0.9951863494071762
2016-08-05,1,0.000936541250416662,0.000967147726415966,-0.003708739600889543,0.003766584767894009,0.9950569306203455
2016-08-09,1,0.0010358421762597524,0.001042118059413166,-0.003924156046809622,0.004152092350230417,0.9949247572737452
2016-08-11,1,0.00064139655827451,0.0006899036662787242,-0.006715334522099013,0.004152092350230417,0.9938454748220852
2016-08-15,1,0.0005244702567484077,0.000579959554390013,-0.006945196712121957,0.004319211227694249,0.9928217513833445
2016-08-17,1,0.000226255889586673,0.00031288178584095317,-0.006945196712121957,0.004659724251238123,0.9927107620876517
2016-08-19,1,0.0009319042099755962,0.000994587534818301,-0.007576111538333263,0.004659724251238123,0.9916673424796708
2016-08-23,1,0.0009264019202427912,0.0010043890200001865,-0.006945196712121957,0.0065513169966906,0.9916868714443876
2016-08-25,1,0.0009202363635647843,0.0009727220195759669,-0.00816130540049049,0.007323744392769008,0.990533795715326
2016-08-29,1,0.0007792122606968526,0.0008020831297751301,-0.00816130540049049,0.008030575788006753,0.990258406696201
2016-08-31,1,0.0010197342129447439,0.0010666249891613069,-0.011213342977828045,0.007507968320069085,0.9896657210637754
2016-09-02,1,0.0010313487475581311,0.001111418651797174,-0.00816130540049049,0.007507968320069085,0.9900096584138277
2016-09-07,1,0.0008784478020764374,0.000930350595106088,-0.00816130540049049,0.007507968320069085,0.9903860679932551
2016-09-09,1,0.00012662187104984534,0.00015632843216800262,-0.0062231096889023875,0.007507968320069085,0.9917285454534802
2016-09-13,-1,-0.00032602976881337747,-0.00019427376725030383,-0.0062231096889023875,0.0065513169966906,0.9924722972556987
2016-09-15,-1,-0.0002968649637692538,-0.00018650826131628935,-0.0058058329656179965,0.007507968320069085,0.9922319720472758
2016-09-19,1,0.00015949029797366775,0.00020548005927658773,-0.003963274005197272,0.007418587373286498,0.9934038667789142
2016-09-21,1,0.00024352069536872755,0.00030257203130950303,-0.0046006489165755,0.005322790242848964,0.9937856188257285
2016-09-23,-1,-0.00037233239406627707,-0.0002560087481313641,-0.0058058329656179965,0.004256829621447682,0.9931938182626598
2016-09-27,-1,-0.0002818474182228404,-0.00016139963542077308,-0.0046006489165755,0.002740526931023146,0.9939143073130215
2016-09-29,-1,-0.0006601961645658422,-0.00048079677386273867,-0.0046006489165755,0.002740526931023146,0.993110591806838
2016-10-03,-1,-0.0005052518705465712,-0.00036012236009099694,-0.003650111523479698,0.003913643410060933,0.9930445299816495
2016-10-05,-1,-0.0003886877795655239,-0.0002702611380295896,-0.005028771450920867,0.003913643410060933,0.9923645150607304
2016-10-07,-1,-0.0006768910950083082,-0.0004931536897416621,-0.005677081365186865,0.004204553064584219,0.9920336324092935
2016-10-11,-1,-0.0007202599563802626,-0.0005441692160945122,-0.004503589739613259,0.006499603481979546,0.9916508347596066
2016-10-13,-1,-0.0004977630744047398,-0.0003418034413248366,-0.004503589739613259,0.0064272703230718944,0.9919852674939549
2016-10-17,-1,-9.438379893653956e-05,-1.349699835730646e-05,-0.004503589739613259,0.00674724116003039,0.990687630166313
2016-10-19,-1,-0.00023644638258804641,-0.00016438027728706705,-0.005590951038875187,0.00674724116003039,0.9903915027732316
2016-10-21,-1,-0.0012852784166872875,-0.0011004091880335355,-0.002986858676431962,0.010443355022450846,0.990781930335685
2016-10-25,-1,-0.001524829369832021,-0.0012904245891911087,-0.0022923578639618847,0.010443355022450846,0.9904284147488288
2016-10-27,-1,-0.0010491318477363057,-0.0008625343995350218,-0.000561799157185303,0.008831639713639431,0.9917604740751087
2016-10-31,-1,-0.0006481780211492742,-0.0005120839500439693,-0.00140547138932287,0.008831639713639431,0.9922300769439616
2016-11-02,-1,-0.0016772209375524936,-0.0013894919334390943,-0.00044579411238245854,0.009211197748768546,0.9918527392106111
2016-11-04,-1,-0.001908557102090642,-0.001579680599095001,7.915675865236327e-05,0.009211197748768546,0.991789517596241
2016-11-08,-1,-0.0009973464573872976,-0.0008069205379951486,7.915675865236327e-05,0.009211197748768546,0.9921305198953763
2016-11-10,-1,-0.0007295080429088685,-0.0005724285777256876,0.0028067456611232306,0.010589755866770318,0.9918181124909902
2016-11-14,1,0.001011390830488344,0.0010635669536052275,0.0007219660843814973,0.009211197748768546,0.993699406843538
2016-11-16,-1,-0.00017235068583025596,-4.660433076280609e-05,0.0007219660843814973,0.009211197748768546,0.992967761985897
2016-11-18,1,0.001361127522198724,0.0015152555481656282,7.915675865236327e-05,0.008362562855641568,0.9943802548051383
2016-11-22,1,0.002343326675611041,0.002672002697821606,0.0007219660843814973,0.008058671068372648,0.9949845550935135
2016-11-25,1,0.00249074680511527,0.002815918558018558,-0.00014188615027853612,0.00723826292480478,0.9951344438719033
2016-11-29,1,0.00265284086400482,0.0030098093317622344,-0.0012364658463495327,0.00723826292480478,0.994958337486351
2016-12-01,1,0.0027623081932148714,0.0031396006438146164,-0.0012364658463495327,0.006282255639774241,0.9954574289925108
2016-12-05,1,0.0028550223406321115,0.003245522480579799,-0.0012364658463495327,0.00723826292480478,0.9950625068970465
2016-12-07,1,0.0033366294096070625,0.0037669290433732993,-0.0021763908477154424,0.005265607321026355,0.9951063463531601
2016-12-09,1,0.0036045352779806353,0.0040522552402501326,-0.0027682871316733,0.005265607321026355,0.9939623902502716
2016-12-13,1,0.004168136981179212,0.0047024372184889095,-0.003919192506324636,0.004498567206185629,0.9939019582391577
2016-12-15,1,0.003958104457884987,0.004451566398499734,-0.0027682871316733,0.004498567206185629,0.9944544815264765
2016-12-19,1,0.0038673180987366445,0.004341102708072307,-0.0021763908477154424,0.004244306394133112,0.9945816672880378
2016-12-21,1,0.0035052883899669837,0.003953908257449684,-0.0027682871316733,0.0029710457135085837,0.99411056452368
2016-12-23,1,0.0035151865384020643,0.003972602166246441,-0.0027682871316733,0.003907379661620775,0.9942699886328272
2016-12-28,1,0.0033815264253802746,0.003831001020164226,-0.002540812606681612,0.004582393738467182,0.9945551632750876
2016-12-30,1,0.0032941801520983884,0.0037211906054925507,-0.004087891368679596,0.004582393738467182,0.9940666358173575
2017-01-04,1,0.0036227401302055557,0.0040734236319355235,-0.004087891368679596,0.004582393738467182,0.993935822801681
2017-01-06,1,0.0033376053292118544,0.003747659173540592,-0.0017426731809314939,0.004582393738467182,0.994592737346272
2017-01-10,1,0.002815915603105632,0.003134852528695704,-0.0017426731809314939,0.0038683752322623,0.9957037619268235
2017-01-12,1,0.0027799242410598817,0.0031088973559038387,-0.0014121622760104409,0.004116582162307393,0.9958130126918797
2017-01-17,1,0.0027353004476705213,0.003045977205961083,-0.0014121622760104409,0.005066387968335775,0.995798368108725
2017-01-19,1,0.002801279793243892,0.003126800845300832,-0.0014121622760104409,0.007712720552614787,0.9952010625881494
2017-01-23,1,0.0024747916720478445,0.002751047533795569,-0.0014121622760104409,0.007712720552614787,0.995478174309679
2017-01-25,1,0.0030397061734434936,0.003409996258864332,-0.0014121622760104409,0.006381890629946834,0.9955087888627583
2017-01-27,1,0.0028390832014902603,0.003161208756905327,-0.0014121622760104409,0.006381890629946834,0.9950989493676462
2017-01-31,1,0.0024033787572940455,0.0026548901940104857,-0.00013973274942235802,0.0077557167498017564,0.9951665775132658
2017-02-02,1,0.002023164828890392,0.002155411301125016,-0.00013973274942235802,0.006381890629946834,0.994843523580922
2017-02-06,1,0.0019577909287630656,0.0020796238418546876,-0.0010869076560172167,0.006381890629946834,0.9946569080571669
2017-02-08,1,0.001588008620628458,0.001647548024165038,-0.00035061454570376865,0.007363056598778561,0.9945612306935516
2017-02-10,1,0.0017180773477193587,0.0017997753260813975,-0.00035061454570376865,0.007054644442146084,0.9945706058620852
2017-02-14,1,0.0022247981425851304,0.002393341140768691,-0.0009355059615190587,0.0069181630398804025,0.994690784070025
2017-02-16,1,0.00257544508185263,0.0027542343728214768,-0.0022166325475060965,0.006188598175998214,0.9951327514546969
2017-02-21,1,0.002509367327180198,0.0026938501256969297,-0.003441862539273435,0.006188598175998214,0.9943110612132954
2017-02-23,1,0.0025914845605334367,0.0027560384686644524,-0.006104607929578643,0.0036368195162983148,0.9939945192835777
2017-02-27,1,0.001966447660950885,0.0020290111608462706,-0.006104607929578643,0.0050364769141913734,0.9943072573491264
2017-03-01,1,0.002315324601893794,0.0024166124496847715,-0.007197752785227609,0.0031445425737201653,0.9941940164392288
2017-03-03,1,0.0015221247728267747,0.0015283059345359673,-0.006104607929578643,0.0050364769141913734,0.9946833826415251
2017-03-07,1,0.0011915464686818714,0.0012533398800544941,-0.007197752785227609,0.006609587924991611,0.9939642030828334
2017-03-09,1,0.0015513765545783036,0.0015671500381648973,-0.00756286191132868,0.0050364769141913734,0.9934752746251321
2017-03-13,1,0.0019746871654884486,0.0020131497252052193,-0.008027987226792498,0.00304444508706196,0.9931243918628754
2017-03-15,1,0.001873458842988257,0.0018804553594655607,-0.008475924816454468,0.001979838526170194,0.9930215073510258
2017-03-17,1,0.0004644045344670978,0.0006795519166657131,-0.008475924816454468,0.00304444508706196,0.9927319140758951
2017-03-21,-1,-0.0007000803235533812,-0.00034030675689177914,-0.008083618461395216,0.00304444508706196,0.9934834817996535
2017-03-23,-1,-0.0008063518547905993,-0.00043814038486533974,-0.007968862194947647,0.00304444508706196,0.9937551200554243
2017-03-27,-1,-0.0010178514534923114,-0.0006486877867014304,-0.008298549720919913,0.0035840507631455924,0.9933070332872848
2017-03-29,-1,-0.0021769287610863258,-0.0016257576187651513,-0.007968862194947647,0.0047543959196034,0.9939325832074247
2017-03-31,-1,-0.0021894061091739542,-0.0016212467108639734,-0.008169457119026334,0.002111755246716822,0.9941564736010408
2017-04-04,-1,-0.0024163775533404203,-0.0018522819212927716,-0.007968862194947647,0.001237859947709632,0.9949001197840776
2017-04-06,-1,-0.0030549501331898323,-0.0024092715565990474,-0.006408457718902263,0.0015670582052478407,0.9951971356451168
2017-04-10,-1,-0.0021468149534443785,-0.0016416038635043261,-0.008169457119026334,0.001237859947709632,0.9948146796530082
2017-04-12,-1,-0.002923803248578459,-0.002328087567446828,-0.006427001463769835,0.0013575734909423596,0.9948656972243787
2017-04-17,-1,-0.0022845047132665462,-0.0018097627855518505,-0.005182729038592289,0.0013575734909423596,0.9956807713692205
2017-04-19,-1,-0.0025987304698266204,-0.0021030551777567533,-0.004001474313372647,0.0019724670838636733,0.9954983151988671
2017-04-21,-1,-0.0026766054141976487,-0.0021902266837138234,-0.0028045919378805718,0.0025226959842924936,0.9947209092486495
2017-04-25,-1,-0.0026406421671408917,-0.002161973150607275,-0.0017675728467811136,0.0034929968223833337,0.9949071081140927
2017-04-27,-1,-0.002489320709265719,-0.0020274867433613206,-0.0017675728467811136,0.003722849907714478,0.9949268825699509
2017-05-01,-1,-0.002946366898828968,-0.0024381185128922894,-0.0014625465380375118,0.003722849907714478,0.9947148236064861
2017-05-03,-1,-0.0027801659094934413,-0.002333156693838571,-0.0009052488140953273,0.0055708260306413515,0.9943062800565243
2017-05-05,-1,-0.002462918608632382,-0.0020853694646373105,-0.0010986215090739604,0.0055708260306413515,0.9944708761914076
2017-05-09,-1,-0.003178208400010695,-0.0027521671938607177,-0.0010986215090739604,0.0055708260306413515,0.9944067425567241
2017-05-11,-1,-0.003034942140137953,-0.002623011200971302,-0.0010986215090739604,0.007214534584717592,0.993766468270874
2017-05-15,-1,-0.0029534938931593717,-0.0025577968610733456,-0.0012756825934956274,0.007214534584717592,0.9936697312389211
2017-05-17,-1,-0.002468957452941261,-0.0021554380967517116,-0.0012756825934956274,0.007356302581311586,0.9933477353764645
2017-05-19,-1,-0.002018007690172764,-0.001752955521691434,-0.002097911275008684,0.007745130252501343,0.993745547187939
2017-05-23,-1,-0.0015960515387259933,-0.001373275852855669,-0.004145043297598837,0.007343017115536281,0.9942719591576342
2017-05-25,-1,-0.0012662972183516306,-0.001086792345098773,-0.004945235718016318,0.004095869349799578,0.9942848227925725
2017-05-30,-1,-0.0008034126596012947,-0.0007153936479647063,-0.006710233203543274,0.005546967461315988,0.9939176191410788
2017-06-01,-1,-0.0004903048302176288,-0.00042095118490943697,-0.006710233203543274,0.0055503475400496775,0.9936496267796404
2017-06-05,-1,-0.00113890209121971,-0.0009868393909658129,-0.004770025978621313,0.00833125405832914,0.9933642386064806
2017-06-07,-1,-0.001983633254244525,-0.001731237659775467,-0.004770025978621313,0.00833125405832914,0.9934276527866622
2017-06-09,-1,-0.0009551243722788367,-0.0008306157052694325,-0.0062787097467231785,0.0035879050643684244,0.9942033686353455
2017-06-13,-1,-0.0011703183874804703,-0.0010217165443885993,-0.00468458807281295,0.0035879050643684244,0.9944564947714687
2017-06-15,-1,-0.0007626791893140547,-0.0006505239043609816,-0.00468458807281295,0.003912979028383812,0.9946729904657421
2017-06-19,-1,-0.0003165580483608429,-0.0002794506414673123,-0.006797375984536028,0.003287106999218996,0.9942627469432898
2017-06-21,-1,-0.0006701606823977278,-0.0005904559684311088,-0.0062787097467231785,0.005159179203002453,0.9935771674439325
2017-06-23,-1,-0.0012822848568698076,-0.0011142166322160112,-0.003277936821503736,0.007051554832308596,0.9930955203229144
2017-06-27,-1,-0.001472349213487986,-0.0014077228630807045,-0.003277936821503736,0.010072457278346773,0.9907500584969332
2017-06-29,-1,-0.0004700971987324249,-0.00046305149255483917,-0.006780469063938106,0.0076656111613574085,0.9910327169395942
2017-07-03,-1,-6.059825907363733e-05,-9.761854726730558e-06,-0.006780469063938106,0.006395282583529788,0.991524347489161
2017-07-06,0,-6.351057803750102e-05,1.0387778456532465e-05,-0.00360369552890517,0.006395282583529788,0.991938519716498
2017-07-10,1,9.993091187965954e-05,0.00022489577998814988,-0.007414042518710402,0.006395282583529788,0.9917282895799644
2017-07-12,1,0.000643746881129374,0.0008637652626981452,-0.008313278101902178,0.0076656111613574085,0.9902930059257821
2017-07-14,1,0.0010513268764186358,0.0013177744675919863,-0.008313278101902178,0.0076656111613574085,0.9904704419846881
2017-07-18,1,0.0005482918008422349,0.0007725988984367961,-0.007414042518710402,0.010004413717942464,0.9903485640566078
2017-07-20,1,0.001020386406433782,0.0012834256876438884,-0.008313278101902178,0.006134552840474968,0.9908872989400307
2017-07-24,1,0.001658012240064246,0.0020287481813629927,-0.008313278101902178,0.0029498661606922084,0.9907140064413407
2017-07-26,1,0.0015726616777654136,0.0018944412463984556,-0.007414042518710402,0.002540874934961747,0.9930703216035428
2017-07-28,1,0.0015213802044377305,0.0018380826740228545,-0.005913767385489494,0.002540874934961747,0.9935547900235663
2017-08-01,1,0.0018903534291559946,0.0022759654094775426,-0.007414042518710402,0.00200701534313921,0.9928710938742175
2017-08-03,1,0.0020942344687449117,0.0025288008695092466,-0.008413173022515132,0.002540874934961747,0.9919010076912156
2017-08-07,1,0.0016648472689940242,0.0020568732828857975,-0.009595544460940748,0.002540874934961747,0.9904914140272965
2017-08-09,1,0.001424249449365032,0.0017609635456603764,-0.009595544460940748,0.002540874934961747,0.9911643408275205
2017-08-11,1,0.001737657486551096,0.0020302934724458883,-0.009595544460940748,0.0046594247155008605,0.9889543861448257
2017-08-15,1,0.00147820517875622,0.0017343983835901879,-0.006364248085189884,0.00359385259990648,0.9898989287935824
2017-08-17,1,0.001020104911653092,0.001209070980023417,-0.005427895974603374,0.00359385259990648,0.9901981524944178
2017-08-21,1,0.0004998100428081927,0.0005976776125955922,-0.005427895974603374,0.00359385259990648,0.9902672617310616
2017-08-23,1,0.0005986083284548014,0.0007276854208476066,-0.005342889834076881,0.0036418979790945115,0.9905139762050329
2017-08-25,1,0.0008189971070146425,0.0009594390246652023,-0.005342889834076881,0.0036418979790945115,0.9905230856998131
2017-08-29,1,0.00012302115101328387,0.00014168866787751735,-0.004651399409067017,0.004454685560507617,0.9905410883739576
2017-08-31,1,2.897993714763872e-05,3.288850815609584e-05,-0.0039821868826750186,0.0038621451087148557,0.9915075232406567
2017-09-05,-1,-0.0024436377307343257,-0.0021413544079981078,-0.0017603625778852797,0.004957387539718051,0.9926013808698311
2017-09-07,-1,-0.00285458595493535,-0.0025187510082398377,-0.0010107585390112194,0.005586521852216186,0.992860717566606
2017-09-11,-1,-0.0016172810707633816,-0.001411507607306277,-0.0025299151005807206,0.0038621451087148557,0.9960213716291054
2017-09-13,-1,-0.0017849260128921392,-0.001547913556022319,-0.0015927873082817114,0.0038621451087148557,0.99603976285448
2017-09-15,-1,-0.0018287013076517548,-0.0015890229061047408,-0.0011134530242783423,0.0038621451087148557,0.9960878013939132
2017-09-19,-1,-0.0020259461397845705,-0.0017760636415001395,-0.0007829082946171117,0.0045745585254246685,0.9952103623376066
2017-09-21,-1,-0.002112386701321161,-0.0018306490581269114,-0.0007829082946171117,0.005586521852216186,0.9946070205227913
2017-09-25,-1,-0.001850699066324429,-0.0015878503516867462,-0.0009364862801984788,0.006187751309042753,0.9948297107758828
2017-09-27,-1,-0.0013516700683712359,-0.0011467324617895937,-0.0008171397897061526,0.004807113113108499,0.9955196104554488
2017-09-29,-1,-0.0020909997436377448,-0.0017501399939092303,-0.0011002103662813509,0.004807113113108499,0.9945479177965544
2017-10-03,-1,-0.001616735160995413,-0.001340612474089059,-0.0015530593342907367,0.004156365110151992,0.9948515511392929
