JNU-Tangyin/eata/results/Batch4_SP500/Batch4_SP500-MRO.csv
Date,Action,Predicted_Q25,Predicted_Q75,Actual_Q25,Actual_Q75,RL_Reward
2010-12-14,0,0.0,0.0,-0.000678395548274571,0.013735637572108633,0.9910564197471039
2010-12-16,0,0.0,0.0,-0.000678395548274571,0.014700243205191251,0.9882413920546952
2010-12-20,0,0.0,0.0,-0.002329533355974151,0.013735637572108633,0.9886473990525046
2010-12-22,0,0.0,0.0,-0.0029344511736580834,0.013735637572108633,0.9890334352128927
2010-12-27,1,0.0021175464703236746,0.0024321278022431895,-0.002329533355974151,0.014700243205191251,0.9881772140208607
2010-12-29,1,0.002427741572345429,0.0027718512664876107,-0.0033022482581965378,0.016440404781099042,0.98603569752487
2010-12-31,1,0.0023998966017153797,0.0027293443425429,-0.0033022482581965378,0.020544799395255088,0.9854659725748143
2011-01-04,1,0.0020683206646983396,0.0022981853072322846,-0.0033022482581965378,0.020544799395255088,0.9846419313055096
2011-01-06,1,0.0019360986865182624,0.0021245782871312843,-0.0033022482581965378,0.020544799395255088,0.9847440630521107
2011-01-10,1,0.0027664066725486365,0.0030605360961201713,-0.0033022482581965378,0.019868435295996936,0.9858807737642571
2011-01-12,1,0.0029949564425992346,0.0032677924880926555,-0.0033022482581965378,0.013754669905497202,0.9870863993713358
2011-01-14,1,0.0038005137244953155,0.004157351123340189,-0.002644078549364883,0.013754669905497202,0.9876238716160876
2011-01-19,1,0.0029564700445361726,0.0031359742665185873,-0.002115578945958056,0.02002045401157586,0.9865042177337788
2011-01-21,1,0.0028428310324077307,0.0030163865556326664,-0.002115578945958056,0.02002045401157586,0.9856633804192504
2011-01-25,1,0.003893715688297656,0.00424600718596908,-0.004785133679058045,0.02002045401157586,0.9837568419623217
2011-01-27,1,0.004445310071712455,0.004890745763983359,-0.004785133679058045,0.016635028518791572,0.9849634135779081
2011-01-31,0,0.0,0.0,-0.004785133679058045,0.019809318248189305,0.9839140800484979
2011-02-02,0,0.0,0.0,-0.002115578945958056,0.020913614204797794,0.983788958091387
2011-02-04,0,0.0,0.0,-0.006329771911992652,0.020913614204797794,0.9828042329911159
2011-02-08,0,0.0,0.0,-0.013283803185133771,0.020913614204797794,0.9817952381474331
2011-02-10,1,0.001762110936621968,0.001817457333957097,-0.019237221207375726,0.023838070309455534,0.9795208569459521
2011-02-14,1,0.003167094585898229,0.0032325066805770153,-0.019237221207375726,0.020913614204797794,0.9806666433857658
2011-02-16,1,0.0033899218594045395,0.003541123087028506,-0.015317178145252682,0.017505700689084948,0.9818516842463035
2011-02-18,1,0.003390502239605927,0.003545676354919573,-0.015317178145252682,0.020913614204797794,0.9811361810051284
2011-02-23,1,0.0034602228639582094,0.003664876118169634,-0.013042845007639702,0.017505700689084948,0.982839117183661
2011-02-25,1,0.0028967506426925338,0.0030143644881168554,-0.01228779185445845,0.019379721296336642,0.9836455722556722
2011-03-01,1,0.00345934256224411,0.0037156157588121965,-0.01228779185445845,0.017246836958381948,0.9838130629484311
2011-03-03,1,0.0046490167362371135,0.005077315604259414,-0.01228779185445845,0.014640048790700173,0.9843457194786963
2011-03-07,1,0.003383632395589473,0.003616887573909383,-0.01140805828941697,0.014640048790700173,0.9855086441025601
2011-03-09,1,0.0024013631624170318,0.002484437208776448,-0.010182519202672494,0.014640048790700173,0.9867117608320262
2011-03-11,1,0.003163938805304959,0.003352908035503221,-0.009931169879516906,0.008594004031230139,0.9889177376689609
2011-03-15,1,0.002849786479725895,0.003029825065180249,-0.010147567229844077,0.008594004031230139,0.9877029577682467
2011-03-17,1,0.002513460865961627,0.0026360268583445422,-0.010147567229844077,0.008594004031230139,0.9880512365645326
2011-03-21,1,0.0036688240320073306,0.003924100381266678,-0.010147567229844077,0.0065028940394910376,0.989587255739698
2011-03-23,1,0.002268922755207215,0.0022963194626719648,-0.005654252748832624,0.008594004031230139,0.989202014298028
2011-03-25,1,0.0028688853470613925,0.002971802599896943,-0.008922484317097424,0.007537267817808757,0.988567347499823
2011-03-29,1,0.0023218321709852856,0.0023546566241624996,-0.005654252748832624,0.0065028940394910376,0.9898557776031665
2011-03-31,1,0.003062417664702504,0.0031659852907867454,-0.005654252748832624,0.004977531112122251,0.9892301066467926
2011-04-04,1,0.002317932872121989,0.0023528235464639856,-0.010354150062659795,0.004390244147831195,0.9883497550865599
2011-04-06,1,0.0021827623138094337,0.002228425697351855,-0.01662702453136835,0.003274850889472722,0.9861325937908496
2011-04-08,1,0.0016162758007263202,0.0017693527728009774,-0.01662702453136835,0.005227286794358322,0.9840829713240182
2011-04-12,1,0.0005203608751355993,0.0007959312556546123,-0.012722185889323237,0.005887033199596265,0.9850438325741689
2011-04-14,1,0.0018218947639118137,0.0019119393573092105,-0.012722185889323237,0.005121176604250956,0.9852780146994748
2011-04-18,1,0.0006953091984299651,0.0009827947147876678,-0.015867079390477885,0.005121176604250956,0.9848038118707316
2011-04-20,1,0.0017787336310883277,0.0019432708242625735,-0.015867079390477885,0.0069088352973871465,0.9847782780822304
2011-04-25,1,0.0012599687182677818,0.0014795568458388312,-0.014509673599770234,0.005121176604250956,0.9850505147813277
2011-04-27,1,0.002348516418658822,0.002357651620011364,-0.014509673599770234,0.009916868442041003,0.9828261908933678
2011-04-29,1,0.0024134890043278423,0.0024682930164788477,-0.014509673599770234,0.009561836836607652,0.9832320493246837
2011-05-03,1,0.0020352996192841053,0.0021196694117554473,-0.014509673599770234,0.015127779885023014,0.9827709927947974
2011-05-05,1,0.000396340493728586,0.0006902655362835408,-0.013607756716282594,0.015127779885023014,0.9850501029178917
2011-05-09,1,0.0027500998249012872,0.002767709367874351,-0.013916228431376708,0.012790706748882191,0.9855220740774994
2011-05-11,1,0.0017223106020017838,0.0018529667662296693,-0.013607756716282594,0.012790706748882191,0.9868002693181406
2011-05-13,1,0.0016754706602158864,0.0017987701031500901,-0.013916228431376708,0.012790706748882191,0.9857214688464309
2011-05-17,1,0.0013257551637101993,0.0014557378107330388,-0.013916228431376708,0.015127779885023014,0.9836304594951218
2011-05-19,1,0.002222572945853722,0.0022595909298349726,-0.013916228431376708,0.012790706748882191,0.984133512666969
2011-05-23,1,0.0017259174778648312,0.001811951681584937,-0.012171090366758152,0.015127779885023014,0.9844627663978562
2011-05-25,1,0.002911330048003344,0.0029597896878051644,-0.014539714604174242,0.012111356585177624,0.9846560885998612
2011-05-27,1,0.002837220441708538,0.002854265754463209,-0.01873729924661409,0.01057519859961874,0.9828959773637438
2011-06-01,1,0.002176669754224385,0.002239542004446527,-0.014539714604174242,0.01057519859961874,0.9828160133766148
2011-06-03,1,0.001737029725876419,0.0018232293801917622,-0.013189621226897427,0.014288468257409872,0.9806709627770218
2011-06-07,1,0.0013627438009022415,0.0014286241028018491,-0.013189621226897427,0.020389766339867617,0.9789171788297202
2011-06-09,-1,-0.0004582893111377466,-0.00013298571446394413,-0.014142036577078354,0.020389766339867617,0.9784115069414843
2011-06-13,-1,-0.00165512789686035,-0.0011582689714716874,-0.0165312419696486,0.020389766339867617,0.9779716155532407
2011-06-15,-1,-0.0017330282980957358,-0.0012181947603014803,-0.013570122382171469,0.014288468257409872,0.980345518705156
2011-06-17,-1,-0.0012842389669165198,-0.0008941543091079594,-0.013570122382171469,0.014288468257409872,0.9802728411420915
2011-06-21,-1,-0.00039635329369291776,-0.00010402665296066428,-0.013570122382171469,0.012173527100077866,0.9812573912663535
2011-06-23,1,8.62174487842039e-05,0.0002793310372535806,-0.012944989650634375,0.014189715459839308,0.9813228068110148
2011-06-27,-1,-0.002068860265875153,-0.001608356129974207,-0.00986122175640789,0.016096471205494307,0.9827586876001035
2011-06-29,-1,-0.0004683445063837368,-0.00018686003395375936,-0.012997176823883587,0.012776194749439345,0.9835287022466892
2011-07-01,1,0.0017821878335555004,0.001805200499165017,-0.012997176823883587,0.0067305763279172405,0.9853657828398165
2011-07-06,1,0.0008794486061794036,0.0010105279650121832,-0.013588813730100877,0.0019758313295788494,0.9841985647805366
2011-07-08,1,0.001415628701916803,0.0015534912243982352,-0.0165312419696486,0.0019758313295788494,0.9786258480763753
2011-07-12,-1,-0.0003604414917402181,-0.00032890295547654565,-0.016180102366459326,0.007556058719201349,0.9719924413676906
2011-07-14,-1,-0.00035639723795163767,-0.00032630620718029793,-0.016180102366459326,0.012776194749439345,0.9704256902849409
2011-07-18,-1,-0.0005312777169795377,-0.0004473350701506636,-0.016180102366459326,0.018746655855766244,0.969472112741404
2011-07-20,-1,-0.0010447375266227962,-0.0008891759954656603,-0.018128448810612895,0.018746655855766244,0.96877476619809
2011-07-22,1,0.00017777422282372633,0.0002670901285851931,-0.03165668090514168,0.01252355081871414,0.9661557027505184
2011-07-26,1,0.0006498221218949259,0.0008515318251400367,-0.03165668090514168,0.01567100049597883,0.9655203515244442
2011-07-28,-1,-0.00042297021826311434,-0.00037265297798767295,-0.027285351912433975,0.01567100049597883,0.9660216991160078
2011-08-01,-1,-0.0013775560754481506,-0.0012657023833884539,-0.027285351912433975,0.02740175166839892,0.9644248046665203
2011-08-03,-1,-0.005124964647589279,-0.0045986230550494256,-0.015813413592841094,0.02740175166839892,0.9675139687861082
2011-08-05,-1,-0.006980597658841769,-0.006201597999040411,-0.015813413592841094,0.021881932087323766,0.9720139506490284
2011-08-09,-1,-0.005017228853369008,-0.004428368276749309,-0.015813413592841094,0.021881932087323766,0.9771448028980158
2011-08-11,-1,-0.0031974388930171745,-0.0028719688031848298,-0.021578870586662996,0.016908042874187956,0.9768638034586243
2011-08-15,-1,-0.0031010487045626707,-0.0027708417005603697,-0.021578870586662996,0.01281507806563815,0.9779381436131359
2011-08-17,-1,-0.00270706066617719,-0.0024551018875183274,-0.021578870586662996,0.016908042874187956,0.9767768484214069
2011-08-19,-1,-0.004413540034114111,-0.003967298184856399,-0.01795465454061404,0.016908042874187956,0.979897498188573
2011-08-23,-1,-0.0032073172053336614,-0.0029359297387048437,-0.021578870586662996,0.009804839864926064,0.9791726532207424
2011-08-25,0,0.0,0.0,-0.027165932577814318,0.009804839864926064,0.9765299090460479
2011-08-29,0,0.0,0.0,-0.027165932577814318,0.004503379402881548,0.9761401925651458
2011-08-31,0,0.0,0.0,-0.030572759564240774,0.0034443441052368576,0.9746166918525305
2011-09-02,0,0.0,0.0,-0.03436170392303443,0.0034443441052368576,0.9721855479952741
2011-09-07,0,0.0,0.0,-0.03436170392303443,0.007703735355470119,0.9708948581153618
2011-09-09,0,0.0,0.0,-0.029948012528376877,0.012026335908407846,0.9714207810200226
2011-09-13,0,0.0,0.0,-0.029948012528376877,0.02866474692983356,0.9690515140520979
2011-09-15,1,0.0003547099259494068,0.00036449023233762535,-0.029948012528376877,0.011939971271573343,0.970668096439406
2011-09-19,-1,-0.0005460965688126713,-0.00046070850088007434,-0.029978928419015196,0.02806502093542484,0.9686273861149176
2011-09-21,-1,-0.0018998352564702898,-0.001708547076279729,-0.028889617980533678,0.03865467876595553,0.9690216006579951
2011-09-23,-1,-0.003516921790347397,-0.0030946685035625797,-0.01820310391535225,0.03940088288886401,0.9698585399882659
2011-09-27,-1,-0.0027325501645652736,-0.00231325453475853,-0.022071326263964526,0.038303687479182974,0.9709283741843092
2011-09-29,-1,-0.002786058304415704,-0.0024434003176651113,-0.015933775108789013,0.03940088288886401,0.9693994901485671
2011-10-03,-1,-0.00595293434699023,-0.00521166161112906,-0.009397822980346493,0.03940088288886401,0.9689878614356976
2011-10-05,-1,-0.003712777059293597,-0.0032556231180674244,-0.015933775108789013,0.028130791648776438,0.9730295083361813
2011-10-07,-1,-0.004203883319087407,-0.0036614538414484823,-0.009397822980346493,0.03056332111712262,0.9732456154726336
2011-10-11,-1,-0.0022086070076604205,-0.001965541752654374,-0.0038230547676882803,0.02718367223105004,0.9750228246479382
2011-10-13,-1,-0.0024959188109659825,-0.0021841576395777947,-0.010687230429883919,0.02718367223105004,0.9722218924561459
2011-10-17,-1,-0.0014258128806032043,-0.0013192603786587782,-0.010687230429883919,0.02718367223105004,0.9728373496250549
2011-10-19,1,0.00011819456462578825,0.000230312317739576,-0.008462776031588511,0.025339434985769092,0.9754033485476482
2011-10-21,1,0.0011660301466748972,0.0013990275444768227,-0.020675711375697584,0.023688213238355172,0.9752625657070751
2011-10-25,1,0.0009155330350259126,0.0010847240783068215,-0.015177952940361865,0.023688213238355172,0.9761160174848518
2011-10-27,1,0.002263838483037255,0.0025899035832250717,-0.02371545111121793,0.0176555836486005,0.9771992867084566
2011-10-31,1,0.0007159495181657966,0.0008411420399199867,-0.015177952940361865,0.02179462573939815,0.9772967473528632
2011-11-02,1,0.00041690777143918336,0.0004526562723905918,-0.01138784715245094,0.022311322783980923,0.976594868587621
2011-11-04,1,0.001913017898577255,0.002164123121930228,-0.01138784715245094,0.022311322783980923,0.9772986879766277
2011-11-08,1,0.003231310877478029,0.0036524741381318664,-0.01138784715245094,0.018319898152181373,0.9786401713547719
2011-11-10,1,0.0028124193444203065,0.0032374010577597328,-0.01138784715245094,0.022430858938238322,0.9784933157542473
2011-11-14,1,0.0028287758262472004,0.0032409503119307766,-0.01138784715245094,0.013981078531713608,0.9790850499248802
2011-11-16,1,0.0018226898596597207,0.0020119875054935214,-0.015232896973957001,0.013981078531713608,0.9782853778057029
2011-11-18,1,0.0009922209574175572,0.0011602278478959945,-0.01414909124945428,0.013981078531713608,0.9789408975322402
2011-11-22,1,0.0015675389956477889,0.0019106612593112683,-0.012316919627850234,0.0242964464927306,0.9770207230074102
2011-11-25,1,0.0001260349917651004,0.00027340172445033766,-0.003989311639988459,0.0265647265105926,0.9774846341969115
2011-11-29,1,0.0016121310056373627,0.0019514207035814903,-0.010783367511246285,0.024028798417412463,0.98039648678999
2011-12-01,1,0.0014463612930326962,0.0017022000505775567,-0.006188996069090101,0.018045005473440574,0.9825099863772581
2011-12-05,1,0.0021798864383677985,0.0025210199249862805,-0.006188996069090101,0.018045005473440574,0.9812117808422077
2011-12-07,1,0.0020871673490121985,0.0024207505190631377,-0.01759535439170576,0.018045005473440574,0.9803703286656441
2011-12-09,1,0.0019297992053049775,0.002221103379952772,-0.0055675295285496345,0.014845858008684909,0.9830179796637708
2011-12-13,1,0.001793537965449355,0.002124437556402059,-0.005243803360663601,0.014845858008684909,0.9844050730698655
2011-12-15,0,0.0,0.0,-0.0026901160696628196,0.015644396195778593,0.9839512707644198
2011-12-19,0,0.0,0.0,-0.0011751949717023773,0.018045005473440574,0.9845239068107156
2011-12-21,1,0.0017380676814389398,0.002174056533703114,-0.0011751949717023773,0.014626510427762533,0.9881406703986988
2011-12-23,0,0.0,0.0,-0.0013381392319335378,0.012443789289396757,0.9884102525458505
2011-12-28,0,0.0,0.0,-0.0026901160696628196,0.012443789289396757,0.9874514866267956
2011-12-30,0,0.0,0.0,-0.006645297763041621,0.012325931320555756,0.9871821752144738
2012-01-04,0,0.0,0.0,-0.006645297763041621,0.008510360642915901,0.9895851830277714
2012-01-06,0,0.0,0.0,-0.005030563943711402,0.014006757125541638,0.9885770580591955
2012-01-10,0,0.0,0.0,-0.006645297763041621,0.012325931320555756,0.9882797177508411
2012-01-12,-1,-0.05475221446497782,-0.053743675107372546,-0.005030563943711402,0.014272936521239534,0.9449289082481896
2012-01-17,1,0.0046182332567323075,0.0051679826829364684,-0.005593061463865151,0.012325931320555756,0.9892257148596955
2012-01-19,1,0.004836216523623118,0.00535342022095245,-0.00833279032350287,0.012325931320555756,0.9887168719472154
2012-01-23,1,0.005549182826082704,0.006233488228524833,-0.00833279032350287,0.01463448937903861,0.9880259241693088
2012-01-25,0,0.0,0.0,-0.00833279032350287,0.01463448937903861,0.98722345632946
2012-01-27,1,0.006126367514465838,0.006774496158390322,-0.00479213187373086,0.01463448937903861,0.9899397188800918
2012-01-31,1,0.0041098239105715854,0.004623287509537991,-0.00479213187373086,0.014031731213738456,0.9890786668186377
2012-02-02,1,0.0032701461138331792,0.0035179531222994456,-0.005719968273216076,0.014031731213738456,0.9878812026549604
2012-02-06,1,0.004201596140404907,0.0045431839871255125,-0.00851851366515536,0.008656424011380092,0.9877220718509893
2012-02-08,1,0.004424661975303996,0.004863847883258351,-0.005719968273216076,0.014031731213738456,0.9875978173849345
2012-02-10,1,0.004235697553769194,0.004604740820092403,-0.006280584137719478,0.011459538033119315,0.9877820476746968
2012-02-14,0,0.0,0.0,-0.006603553995079889,0.011459538033119315,0.987227576570793
2012-02-16,0,0.0,0.0,-0.005105910637916253,0.011459538033119315,0.9876845473427358
2012-02-21,0,0.0,0.0,-0.006603553995079889,0.010152881517391235,0.9879704169606632
2012-02-23,0,0.0,0.0,-0.017718662116618957,0.009602575903629307,0.986516667631611
2012-02-27,0,0.0,0.0,-0.017718662116618957,0.009602575903629307,0.9863445173267241
2012-02-29,0,0.0,0.0,-0.015130147589866966,0.009602575903629307,0.9867446676171605
2012-03-02,0,0.0,0.0,-0.012275320857095911,0.007962570804520822,0.9881300071746414
2012-03-06,0,0.0,0.0,-0.012275320857095911,0.009602575903629307,0.9880400437329901
2012-03-08,1,0.002094693710629791,0.0021009855092682557,-0.015130147589866966,0.0037567163528054144,0.9873056166590113
2012-03-12,1,0.0012815002241382102,0.0014035778310166457,-0.01736108136273508,0.001786762295366449,0.9861821817709298
2012-03-14,1,0.0016411119781945178,0.0016723160011642402,-0.01736108136273508,0.001786762295366449,0.9850495349371032
2012-03-16,0,0.0,0.0,-0.018353234863217043,-0.0001277487747593357,0.9857224899507706
2012-03-20,0,0.0,0.0,-0.01736108136273508,0.0016640816193000778,0.9866874176772518
2012-03-22,1,0.00015139499052712967,0.00025679012818330367,-0.0134374726596529,0.002036519642299323,0.9887454928769975
2012-03-26,-1,-0.0005311704531031872,-0.0002563764780747522,-0.0134374726596529,0.0005088311925264023,0.9893358060819896
2012-03-28,0,0.0,0.0,-0.012970583382133045,0.002036519642299323,0.9891497013417071
2012-03-30,0,0.0,0.0,-0.012970583382133045,0.0005088311925264023,0.9884307261947842
2012-04-03,0,0.0,0.0,-0.012970583382133045,0.0005088311925264023,0.986595058423942
2012-04-05,0,0.0,0.0,-0.015096781082575516,0.0005088311925264023,0.9847505526529582
2012-04-10,0,0.0,0.0,-0.013817870586705909,0.0005088311925264023,0.9856734864948365
2012-04-12,-1,-0.0019007187091550116,-0.001644285236264522,-0.013817870586705909,0.002036519642299323,0.9866280015842567
2012-04-16,0,0.0,0.0,-0.020403789146443266,0.002036519642299323,0.9846487884354401
2012-04-18,0,0.0,0.0,-0.025831514215711653,0.0005100260647201162,0.9829942364593603
2012-04-20,0,0.0,0.0,-0.025831514215711653,-0.0009313127121787211,0.982506853331116
2012-04-24,0,0.0,0.0,-0.025831514215711653,0.0016479809157973384,0.9814848387321947
2012-04-26,-1,-0.0031667152865955317,-0.002701845317543153,-0.025831514215711653,0.008436276817045847,0.9827522484688831
2012-04-30,-1,-0.0034558786284018435,-0.002963983578995727,-0.025831514215711653,0.011408340674732797,0.9819185922027888
2012-05-02,-1,-0.004159552649602577,-0.003587374578275577,-0.025326064092634697,0.009400157622936858,0.9841728129402391
2012-05-04,-1,-0.006411626912973679,-0.005571746233466998,-0.019719672880088322,0.009400157622936858,0.9855761028516175
2012-05-08,-1,-0.0080306399349424,-0.006940290805558075,-0.016996775380892424,0.011408340674732797,0.9831413990059839
2012-05-10,-1,-0.007783220580477869,-0.006673876347534279,-0.016996775380892424,0.008130604520723388,0.9845548542701651
2012-05-14,-1,-0.010732656468914786,-0.009257236492070327,-0.012638876250641213,0.010301619026959693,0.9838540034819752
2012-05-16,0,0.0,0.0,-0.008739717680152881,0.010301619026959693,0.9869881870273206
2012-05-18,0,0.0,0.0,-0.008739717680152881,0.01140437010006833,0.9859381419618027
2012-05-22,-1,-0.008867601431461262,-0.007710845834343027,-0.0065556563892023465,0.01140437010006833,0.9827595672969215
2012-05-24,-1,-0.007679027135582703,-0.0066852482460705125,-0.01487705191718978,0.01140437010006833,0.9815095925878333
2012-05-29,-1,-0.00569512919670765,-0.005040036805127731,-0.01487705191718978,0.011195031899579383,0.982769156214623
2012-05-31,-1,-0.00641630684044189,-0.005657431033351321,-0.0065556563892023465,0.013295005526528732,0.9819643864807133
2012-06-04,-1,-0.007429270510519661,-0.006582566080732219,-0.00626735410476449,0.014608927789020404,0.9811163974014844
2012-06-06,-1,-0.005719037340423818,-0.0050598678267302155,-0.010847569432897164,0.014608927789020404,0.9822723043830635
2012-06-08,-1,-0.005475712825328642,-0.004867033200247436,-0.017325599068417054,0.014608927789020404,0.9817469947646214
2012-06-12,0,0.0,0.0,-0.01700401594679902,0.017002561854695633,0.981620484759189
2012-06-14,0,0.0,0.0,-0.01700401594679902,0.019215475930202754,0.9805470640761083
2012-06-18,-1,-0.002170815175681297,-0.0019439725234608378,-0.015368712227147214,0.023303737338551435,0.9800662562454272
2012-06-20,-1,-0.0015249571203376296,-0.0013909491075394995,-0.015368712227147214,0.02214373181810295,0.9799981919362548
2012-06-22,0,0.0,0.0,-0.015368712227147214,0.02214373181810295,0.9823035102679222
2012-06-26,-1,-0.0055232110646593145,-0.005000338142584455,-0.01700401594679902,0.02214373181810295,0.9819582061627429
2012-06-28,0,0.0,0.0,-0.01700401594679902,0.025480598064413315,0.9800556592763963
2012-07-02,0,0.0,0.0,-0.01700401594679902,0.023303737338551435,0.9813380045232052
2012-07-05,0,0.0,0.0,-0.01700401594679902,0.02214373181810295,0.9821643348911797
2012-07-09,0,0.0,0.0,-0.015258428512781566,0.023303737338551435,0.9820485477487181
2012-07-11,-1,-0.0013661652891828805,-0.0012460288165385372,-0.00964187249563973,0.024999681140805318,0.9823333268343047
2012-07-13,0,-0.00031063809906162524,1.554180844600089e-05,-0.005569741030050816,0.02289423776988854,0.9839817321184486
2012-07-17,0,0.0,0.0,-0.009024028976212732,0.013905610799425169,0.9851419162039788
2012-07-19,0,0.0,0.0,-0.009024028976212732,0.007735999630494699,0.9861275431231491
2012-07-23,0,0.0,0.0,-0.007003684420976949,0.007735999630494699,0.9870212584822748
2012-07-25,0,0.0,0.0,-0.005408613011640878,0.014533537925378521,0.9867285988673397
2012-07-27,0,0.0,0.0,-0.005408613011640878,0.005432935661981939,0.9896515476907864
2012-07-31,0,0.0,0.0,-0.005408613011640878,0.007735999630494699,0.9896800748851733
2012-08-02,0,0.0,0.0,-0.006603519924250224,0.007735999630494699,0.9899979372589488
2012-08-06,1,0.0015412783830750126,0.00208537895468553,-0.008302438639999027,0.007735999630494699,0.9904500577833307
2012-08-08,1,0.0033317503212874043,0.0041767068423371415,-0.009586219591799582,0.006599580997521021,0.9889427040244196
2012-08-10,1,0.003549957379590409,0.004389280818130888,-0.009586219591799582,0.006707852354275304,0.9885779416574878
2012-08-14,1,0.002253308783613985,0.002842029252713086,-0.008302438639999027,0.011829229908419173,0.9885625807997243
2012-08-16,1,0.002524327305825074,0.003171627440687086,-0.008302438639999027,0.02151376139675079,0.9858621959429353
2012-08-20,1,0.0022844030612795985,0.0028332418179080904,-0.009454861136752098,0.02151376139675079,0.9849690443260752
2012-08-22,1,0.003058913738742294,0.0037095280444519735,-0.009454861136752098,0.014368117397369179,0.9861665769410722
2012-08-24,1,0.0033144967451516037,0.0040137277740226835,-0.009970042684878338,0.014760633872666577,0.9850288248349041
2012-08-28,1,0.003171957578207021,0.003798372902661386,-0.011103880127129746,0.014760633872666577,0.9844158191133424
2012-08-30,1,0.001757615786393631,0.002120338436460412,-0.010988074235455492,0.016549339394699287,0.9846026520189763
2012-09-04,1,0.0028593101554672167,0.0034606726854837537,-0.00993144072098692,0.013429446915696903,0.9858087644492286
2012-09-06,1,0.0037504687189734917,0.00443335860992201,-0.011236891161234447,0.013280130732537466,0.9866380705893631
2012-09-10,1,0.0038487762021385042,0.0045473079235727795,-0.011236891161234447,0.013280130732537466,0.9866142123477089
2012-09-12,1,0.004609793246609403,0.00540485330841161,-0.011236891161234447,0.010310112781597734,0.9873904486898044
2012-09-14,1,0.006724248907079876,0.007794529438574904,-0.011236891161234447,0.0027901102062807175,0.9881606233335395
2012-09-18,1,0.006404246120194029,0.00746645434917628,-0.010094574501389087,0.010310112781597734,0.9889713697422822
2012-09-20,1,0.006214108069356855,0.007216320170428234,-0.010094574501389087,0.013280130732537466,0.9883383654542408
2012-09-24,1,0.006410958346123794,0.007457358978786728,-0.011410645677479136,0.010757031772449199,0.9871071722905151
2012-09-26,1,0.00437388585521511,0.004900112439509403,-0.011287703224902716,0.011266888447651537,0.9881417036379605
2012-09-28,1,0.0040461453765287085,0.0044948821332868785,-0.009715407730595399,0.010458285289279955,0.9886631777995378
2012-10-02,1,0.004677166412999003,0.005240907090710365,-0.009715407730595399,0.01058118410718832,0.9886698662128441
2012-10-04,1,0.0038786255584378625,0.00424671276594004,-0.009715407730595399,0.01058118410718832,0.9886511116219697
2012-10-08,1,0.00274379723922252,0.0028706928975994854,-0.010659369078215422,0.012709373768506657,0.9863724563491683
2012-10-10,1,0.002474842232291742,0.002553364918567517,-0.010659369078215422,0.017183005246470016,0.9855591507860666
2012-10-12,1,0.0020309859589972635,0.0020532533534497253,-0.010659369078215422,0.017183005246470016,0.9853988849878655
2012-10-16,1,0.0035559980695786457,0.0037938239407936743,-0.010659369078215422,0.012533212890823271,0.9862604345603936
2012-10-18,1,0.004393525631693156,0.004784624965245711,-0.010659369078215422,0.0109533969275167,0.9869974000634237
2012-10-22,1,0.002933921149998425,0.003105060554890904,-0.004460138784110545,0.011511273338784848,0.9883952680559475
2012-10-24,1,0.0033675062171140214,0.0035789147675384146,-0.004460138784110545,0.012326951939970507,0.9877271512809846
2012-10-26,1,0.0037208125542308483,0.004087578957796362,-0.0034151084397262897,0.012326951939970507,0.9886038825168922
2012-11-01,1,0.003994501430405096,0.00438745367200888,-0.004460138784110545,0.012326951939970507,0.9881025802731058
2012-11-05,1,0.003311682116197487,0.0035321616289754887,-0.004460138784110545,0.011078195194696008,0.9880566205083938
2012-11-07,1,0.0023636090551439727,0.002432320243441236,-0.0034151084397262897,0.011078195194696008,0.990398109013928
2012-11-09,1,0.002658202001228062,0.0027191448604550125,-0.004460138784110545,0.00926411644442056,0.9902744176412308
2012-11-13,1,0.002504453700186181,0.002570288496381349,-0.003888269663805841,0.009899502655481784,0.9902960892850776
2012-11-15,1,0.0007403793353614721,0.0010826162983856348,-0.006080618592002122,0.009899502655481784,0.9898139378220566
2012-11-19,1,0.001150463765528314,0.0014254969746501649,-0.006080618592002122,0.010168660304024042,0.9895431914598801
2012-11-21,1,0.0017395022262442945,0.0019128580280144158,-0.006080618592002122,0.008552674927039892,0.9895816989550118
2012-11-26,1,0.0007139716272084577,0.0010154059494148584,-0.010764806145172683,0.007574722095836268,0.9904959899027924
2012-11-28,1,0.0008867868279339889,0.001147167856891937,-0.010764806145172683,0.007574722095836268,0.9897879471425702
2012-11-30,0,-0.00016276882374402783,0.00025927187222768975,-0.010764806145172683,0.008552674927039892,0.9886927919899778
2012-12-04,-1,-0.0018106195799381343,-0.0011501831451545973,-0.007998462421293177,0.010775791743661297,0.9885892907103594
2012-12-06,-1,-0.0007797784219652274,-0.0002862715995346752,-0.007998462421293177,0.010521065419280577,0.9886626526566276
2012-12-10,-1,-0.0009485953135563198,-0.0005048015716758848,-0.007646261978883372,0.010521065419280577,0.9892978535342157
2012-12-12,0,-0.00015963715431028137,0.00014439271018196545,-0.007646261978883372,0.014694592748179584,0.9886125794802921
2012-12-14,0,-6.580502211408449e-05,0.00025624727038060194,-0.005540905030959678,0.00884734630037613,0.9897825198187792
2012-12-18,0,-0.00035155923269925265,7.36638957274324e-05,-0.005540905030959678,0.012484471678703023,0.9891422759685702
2012-12-20,1,0.001009049780063005,0.0011623742284444713,-0.005540905030959678,0.013447880137609652,0.9884089601912793
2012-12-24,-1,-0.0006291945362410089,-0.00023655455201926508,-0.004271913295427048,0.013447880137609652,0.9896173291925167
2012-12-27,-1,-0.0015947155350501153,-0.00108392418032936,-0.004034114948844475,0.013447880137609652,0.989745138558956
2012-12-31,1,0.00018857111662323376,0.0004585396089316271,-0.004034114948844475,0.012497446295913907,0.9908578879361729
2013-01-03,1,0.001147777278368938,0.0012523788387200645,-0.004034114948844475,0.012497446295913907,0.9916043020839325
2013-01-07,1,0.0014087207197406477,0.0014630448206645634,-0.0031063310290388073,0.012650037832174634,0.9916522870249497
2013-01-09,1,0.0005807981428077815,0.0007558260617971088,-0.004034114948844475,0.012650037832174634,0.9911345793505271
2013-01-11,1,0.000688182998565281,0.000865535544039845,-0.004633996772968782,0.012650037832174634,0.9912326979712994
2013-01-15,0,-2.4272205806480894e-06,0.00028064190664141243,-0.003402163184626379,0.012650037832174634,0.9906967667355214
2013-01-17,1,0.001701135411921102,0.0017492370214812678,-0.0067026005050478,0.011210071756095688,0.9911430838786862
2013-01-22,1,0.0021251118843013212,0.0021304558856659627,-0.0080767546659006,0.011210071756095688,0.9888781009774731
2013-01-24,1,0.0021833902199759254,0.0022046883236390203,-0.0080767546659006,0.011210071756095688,0.9882687096612219
2013-01-28,1,0.0011493173910233198,0.00128933377178147,-0.009712325516099088,0.011210071756095688,0.9861266957634356
2013-01-30,1,0.000949592915581949,0.0011122516580368141,-0.007082542532442586,0.012049246888674602,0.9864320589944073
2013-02-01,1,0.002206932294343895,0.00226602983579692,-0.012673535836246315,0.010301878960517503,0.9853632017199826
2013-02-05,1,0.0023216532472598427,0.0023850474873842523,-0.012673535836246315,0.009727069365040168,0.9858530109514093
2013-02-07,1,0.0018362604247778656,0.0018714492027056603,-0.00873097006823609,0.010301878960517503,0.9860879784954896
2013-02-11,1,0.0027124763746915704,0.00303004300316887,-0.008074614125466912,0.010179367709714742,0.9869163428428349
2013-02-13,1,0.002831294879867521,0.003137561576041835,-0.008074614125466912,0.01050206230212967,0.9868697118458659
2013-02-15,1,0.002424307224894244,0.002678439688074391,-0.0032987390654491406,0.009793797145577557,0.9876673846084006
2013-02-20,1,0.001490217855026406,0.0015861220620652099,-0.0032987390654491406,0.009793797145577557,0.9879991280325902
2013-02-22,1,0.001507367020435808,0.0015747847057548418,-0.005176148444386614,0.009283640386396484,0.9879542070672199
2013-02-26,-1,-0.0013853660688318053,-0.0011113139240522935,-0.0051448557437395286,0.010379551051326909,0.9886949931521305
2013-02-28,-1,-0.0005249300316636988,-0.0003671631800587584,-0.009615244750169609,0.009283640386396484,0.989503152522172
2013-03-04,-1,-0.0020706590268411607,-0.0016882258201348205,-0.0028144253108120646,0.009283640386396484,0.9906506065778332
2013-03-06,-1,-0.001992615457443299,-0.001596089295952229,-0.009225029906754185,0.009283640386396484,0.9903466940933826
2013-03-08,-1,-0.0013228241465038915,-0.0010140563649370991,-0.009225029906754185,0.009283640386396484,0.9907639411487742
2013-03-12,-1,-0.000927825548904506,-0.000645489829162043,-0.009225029906754185,0.010555603986042182,0.9899692824967019
2013-03-14,1,0.0005635927057366303,0.0005890118937128866,-0.011709877386451505,0.009283640386396484,0.9885656470588545
2013-03-18,1,0.0009397163558818889,0.0010718992505117863,-0.012911814617344862,0.010555603986042182,0.9854297542178536
2013-03-20,-1,-0.000677597956855935,-0.0005146649998761374,-0.012911814617344862,0.005595909107010634,0.9864496601881998
2013-03-22,-1,-0.001310186525721339,-0.001072591784931143,-0.011709877386451505,0.010555603986042182,0.9859659183175484
2013-03-26,-1,-0.0016305303955243345,-0.0013446776029950953,-0.009306174941922398,0.011599336961639723,0.9854971419504299
2013-03-28,-1,-0.0016738442995058024,-0.0014034216495092452,-0.009306174941922398,0.013451956548941747,0.9848437088652818
2013-04-02,-1,-0.0016760290759896958,-0.00142446677191409,-0.009306174941922398,0.014761934476009164,0.9833644110117894
2013-04-04,-1,-0.0033337342467747956,-0.0028443097633097606,-0.006976719451732101,0.016422579062257504,0.9822875764714
2013-04-08,-1,-0.002731563306152659,-0.0023482804474801193,-0.005688754402546689,0.018011808045705145,0.9812704330473107
2013-04-10,-1,-0.0018421119222297388,-0.0015507016607495842,-0.005688754402546689,0.018011808045705145,0.9814060284687567
2013-04-12,-1,-0.003485824561061053,-0.0030317200801707393,-0.005688754402546689,0.018011808045705145,0.9819728165542796
2013-04-16,-1,-0.004152839398989961,-0.0036506313913626243,-5.8197366084778226e-05,0.019358342124794127,0.983444389056038
2013-04-18,-1,-0.004923325104421878,-0.00436025916733971,-5.8197366084778226e-05,0.019358342124794127,0.9842178643756032
2013-04-22,-1,-0.004684698375205169,-0.004120172032031784,0.0016688534106851624,0.02220147843791611,0.983518647593925
2013-04-24,-1,-0.0035657986896186367,-0.003138174237767792,-0.005522860749454088,0.0189891297931119,0.9849952578400614
2013-04-26,-1,-0.0033355487204222408,-0.0029258453869675837,-0.00538364463202637,0.0189891297931119,0.9859667706653227
2013-04-30,-1,-0.002974552243999868,-0.002562645006902284,-0.00538364463202637,0.012988714007030739,0.9871338155192376
2013-05-02,-1,-0.0026342840816602287,-0.0023007918112919706,-0.00816412238663072,0.009881286112295488,0.988025305058915
2013-05-06,-1,-0.0021101032850461003,-0.0018011903512726109,-0.009241772429036715,0.009881286112295488,0.9877839501032971
2013-05-08,-1,-0.0007542548070196164,-0.0006217295543683183,-0.011146280045762862,0.007118844249511485,0.9874560267267192
2013-05-10,-1,-0.0006490435937027098,-0.0005484576199769591,-0.009241772429036715,0.007118844249511485,0.9879552924089299
2013-05-14,1,0.0008290143390503837,0.0009357901406090611,-0.015626567081183932,0.004804909922950378,0.9872430225915355
2013-05-16,1,0.0007649862157413949,0.0008742520819096742,-0.015626567081183932,0.007118844249511485,0.9865941405940939
2013-05-20,1,0.001424438904059075,0.001572593099286924,-0.015626567081183932,0.01129966615197451,0.9857710570377455
2013-05-22,1,0.00010730102888856054,0.0001614441616534648,-0.015626567081183932,0.01129966615197451,0.9850494879372569
2013-05-24,1,0.0005598412440338825,0.0005988435353924645,-0.0168838962113018,0.01129966615197451,0.9844355392610844
2013-05-29,1,0.0013630385378393347,0.0014825019753166877,-0.0168838962113018,0.017211093755747697,0.9825015632970704
2013-05-31,1,0.0004684389043246787,0.00047931538598918876,-0.015617044781407439,0.017211093755747697,0.983027889472846
2013-06-04,1,0.0009017452242591572,0.0009546898085447532,-0.015617044781407439,0.011756364151269901,0.98450632781265
2013-06-06,1,0.0009137972546808483,0.000995711250894928,-0.011749651968150808,0.013714758656966626,0.9852512297745518
2013-06-10,1,0.000847537742278886,0.0008997564004116364,-0.011749651968150808,0.01542181088116813,0.9844802240352761
2013-06-12,1,0.00033157042935386214,0.000385671941649803,-0.00664954348755703,0.01542181088116813,0.9856823072923392
2013-06-14,1,0.001449311126294388,0.001677175946689995,-0.006922783906498035,0.013364035502119799,0.9866370298929908
2013-06-18,1,0.003274934209562934,0.003754657700135785,-0.008094517015979404,0.010119300881443579,0.9879650105282924
2013-06-20,1,0.0018341574019465363,0.002105093563586618,-0.00664954348755703,0.011062935728361655,0.9894048443648424
2013-06-24,1,0.0012781783987220892,0.001475291803285395,-0.0066202551209221415,0.012953770998338155,0.9892265193292997
2013-06-26,1,0.0029870114893146816,0.0034404340294805014,-0.006699512567632389,0.011062935728361655,0.990446830368933
2013-06-28,1,0.002899908883353243,0.0033564429834283442,-0.0066202551209221415,0.011062935728361655,0.9906975226423975
2013-07-02,1,0.0025180252803777433,0.0028832057738023384,-0.00640525606123981,0.011062935728361655,0.9912605894594226
2013-07-05,1,0.0032014035439647563,0.0036798048029684383,-0.00640525606123981,0.010082031148856755,0.990909789104737
2013-07-09,1,0.004090491538900551,0.004717075442252725,-0.006834918806593367,0.007878261883411482,0.98989349758708
2013-07-11,1,0.004330253673394322,0.0050204656402690825,-0.010442747575588678,0.0063028872852552665,0.9871260662457085
2013-07-15,1,0.004141162150922077,0.004725796674460453,-0.010442747575588678,0.005901110491135071,0.9873167064048629
2013-07-17,1,0.004051151950586415,0.004640158234257675,-0.00892652824750007,0.005850183866148248,0.9875958488555479
2013-07-19,1,0.0034120220963257315,0.0037638519588215342,-0.010762233100088708,0.0027965424214689534,0.9878103614993363
2013-07-23,1,0.003793069486153676,0.00419224407880519,-0.011715203325924139,0.0027965424214689534,0.9852689709236693
2013-07-25,1,0.002004450519027057,0.002103684653142308,-0.011715203325924139,0.003917017694018952,0.985899248593651
2013-07-29,1,0.00144360268723633,0.0014958563089629226,-0.011715203325924139,0.003917017694018952,0.986594271163293
2013-07-31,1,0.0018990146672428847,0.002057366407722884,-0.011715203325924139,0.007035730452296059,0.9849044648682206
2013-08-02,1,0.003246893581557479,0.0036240987467598216,-0.011715203325924139,0.003917017694018952,0.9854228544703304
2013-08-06,1,0.0024578876742657463,0.002767726975203959,-0.009090951626558218,0.00758436522643561,0.9861178584586363
2013-08-08,1,0.0032256831506287213,0.00364501104908045,-0.0039890323321987295,0.009783761642850046,0.9883541253689259
2013-08-12,1,0.0026214954745251277,0.0028955348719042527,-0.006271811789239414,0.012092065031502456,0.9874034775568127
2013-08-14,1,0.0022623838661242008,0.002459199962033939,-0.006993328992807725,0.0164643895564491,0.9865296900836472
2013-08-16,1,0.001646711534458672,0.0017321517032605133,-0.007028257051115791,0.0164643895564491,0.9863684933109095
2013-08-20,-1,-0.0007688888129433927,-0.0005399698422540474,-0.0037816992828458166,0.013793445723580645,0.9886283906914747
2013-08-22,-1,-0.00048347438134375455,-0.00027432709361554467,-0.0037816992828458166,0.013124369981486573,0.9895541322063666
2013-08-26,-1,-0.001378552601055891,-0.0010027521760878403,-0.0066167949240351544,0.013124369981486573,0.9892363762653397
2013-08-28,1,0.00013089409612987402,0.0003265260985511161,-0.0066167949240351544,0.011509679894679716,0.9907175901287183
2013-08-30,1,0.0005601277633757824,0.0006460603687886078,-0.010004749616230255,0.011509679894679716,0.9902967951372145
2013-09-04,1,0.00016717852348404412,0.0004078246973092247,-0.010926977051425662,0.0061868381611236666,0.991061579446982
2013-09-06,1,0.00035581429037909325,0.0006608371574575607,-0.011685698345949748,0.006710619755847396,0.9900358210200901
2013-09-10,-1,-0.0009728558867834194,-0.00045665447044453025,-0.011685698345949748,0.0015687384568318567,0.9909485014705968
2013-09-12,-1,-0.0007624719071304832,-0.00029101671416102747,-0.010926977051425662,0.0022445462918726064,0.9912158912282397
2013-09-16,-1,-0.0010580339469916688,-0.0006100004828422977,-0.010004749616230255,0.0022445462918726064,0.9916353378704512
2013-09-18,1,0.00011155482351892496,0.0004038783369869883,-0.010004749616230255,0.0007878700713962054,0.9922282092929667
2013-09-20,0,-0.00011607718131908108,0.00017112434207048016,-0.006715737813820654,0.0022445462918726064,0.992455529730645
2013-09-24,-1,-0.0005339457791901751,-0.0001954334851608238,-0.0061916646893899925,0.0045927681642990385,0.9922391749427105
2013-09-26,-1,-0.00039280925447134063,-0.00011843727098488719,-0.008432530242938267,0.005742300315921643,0.9908407680933189
2013-09-30,0,-7.335564259399862e-08,0.00017096847518831466,-0.0061916646893899925,0.009577302987866805,0.9906447557892589
2013-10-02,-1,-0.0006775647368026224,-0.00040920532439436504,-0.00587608533562059,0.009577302987866805,0.9911416693247764
2013-10-04,1,0.0006495657020707079,0.0006997448785745285,-0.00587608533562059,0.005742300315921643,0.9920149267321575
2013-10-08,1,5.329821627470075e-05,0.00018114283121843688,-0.004010170359338472,0.007175918859239728,0.9925083146978315
2013-10-10,1,0.001690735319846352,0.0018305862455480044,-0.00587608533562059,0.007175918859239728,0.9915135030459621
2013-10-14,1,0.0007198964682114466,0.0007793843290489755,-0.004181727597255812,0.009577302987866805,0.9910163053292874
2013-10-16,1,0.0006115438169489493,0.0006919779156433218,-0.006706336403142012,0.009631629379808278,0.9903347677823803
2013-10-18,1,0.001070293981444681,0.0010917771995864532,-0.006706336403142012,0.009158455123027967,0.990096873671081
2013-10-22,1,0.0001521838273510173,0.00033527701668199436,-0.006089954919401137,0.009785524255586465,0.9901410863194653
2013-10-24,1,0.0010143727397355737,0.0010640576717869921,-0.003558396242617548,0.009785524255586465,0.9905803716094241
2013-10-28,1,0.0013088746276579666,0.0013539732108152082,-0.006902214189939931,0.00900502343784961,0.9898773733811986
2013-10-30,1,0.0007526714079936884,0.0008656294443309372,-0.009565254094691004,0.00900502343784961,0.9893763467166222
2013-11-01,-1,-0.0008384148344635464,-0.0004881799070052241,-0.006601412059968459,0.009785524255586465,0.9892752756430668
2013-11-05,1,0.00011343996230488791,0.0003019335625646151,-0.007046019753074791,0.011541231105276144,0.988787724307891
2013-11-07,1,0.0008481254362756779,0.0008593354619917044,-0.007046019753074791,0.009785524255586465,0.9898234670814153
2013-11-11,1,0.0003304537141962491,0.0004591747297625667,-0.008455984763456662,0.00900502343784961,0.9902663431440858
2013-11-13,-1,-0.0004922257851477288,-0.00024901519503362326,-0.008455984763456662,0.009577766178466637,0.9902566003085733
2013-11-15,1,0.0006544997472596857,0.0006733265192336869,-0.009011404111038292,0.009577766178466637,0.989890604269347
2013-11-19,1,0.00015082249163543722,0.0002722762057833149,-0.010716636583953536,0.0073978091944524905,0.9897022815978213
2013-11-21,1,0.001165161479909345,0.0011741920455859553,-0.010716636583953536,0.005825521699555694,0.9899778415280062
2013-11-25,1,0.0005221824400476883,0.0005541322398205986,-0.009011404111038292,0.005825521699555694,0.991493084670074
2013-11-27,1,2.8150375078277092e-05,8.333156083241232e-05,-0.007065418904889556,0.006954184476378475,0.9920435843194672
2013-12-02,1,0.00048678287340636216,0.0004930236467434887,-0.009011404111038292,0.005825521699555694,0.9921160912022396
2013-12-04,1,0.0009695976827661414,0.0010338369522538621,-0.011078997851095142,0.00349872688155278,0.9919241220541425
2013-12-06,1,0.0006261845689804307,0.0006288156022539574,-0.010639337737737162,0.00349872688155278,0.9921269140370358
2013-12-10,1,0.0006617674394353853,0.0007251961308543122,-0.011078997851095142,0.003548276814899811,0.9920140320129498
2013-12-12,1,0.0007175598540128086,0.0007958027434944849,-0.011078997851095142,0.0031946875245096266,0.9922973616889307
2013-12-16,-1,-0.0006604423551282879,-0.0005067059472001285,-0.01139579743393097,0.004411542613533301,0.9916703929423487
2013-12-18,-1,-0.002067268203636599,-0.001718173505689929,-0.011078997851095142,0.004896448438033808,0.9921226851832264
2013-12-20,-1,-0.001571957903704757,-0.0012889876331880464,-0.011078997851095142,0.0042195885979766186,0.992166531353058
2013-12-24,-1,-0.00051810456533793,-0.0004045843580404735,-0.012491730951106114,0.0042195885979766186,0.9904711446883451
2013-12-27,-1,-0.0007710010463229293,-0.0005451125368280714,-0.012491730951106114,0.0042195885979766186,0.990346411322803
2013-12-31,-1,-0.0005272888358878832,-0.0004465513110071183,-0.011819038565075159,0.0042195885979766186,0.9905162213196129
2014-01-03,-1,-0.001350152729207624,-0.0011718707659239321,-0.014146139752596947,0.0042195885979766186,0.990268792622353
2014-01-07,-1,-0.0008152284594429098,-0.0007013775628848624,-0.014146139752596947,0.0042195885979766186,0.9901631683468544
2014-01-09,-1,-0.001210781440004833,-0.001044142662797191,-0.011019286605918055,0.005711767317973876,0.9893837403881035
2014-01-13,-1,-0.0031653535586860034,-0.0027284144505352386,-0.00972489736481824,0.00890589992333549,0.9894506469964246
2014-01-15,-1,-0.003201891966050982,-0.0027701915233773276,-0.009173757287176208,0.00890589992333549,0.9897244733412925
2014-01-17,-1,-0.003342541985512387,-0.002887022145728461,-0.009173757287176208,0.009475316713495458,0.9895451313145185
2014-01-22,-1,-0.002012169372020348,-0.0017827560956568084,-0.009173757287176208,0.00895837495688136,0.9899459611623851
2014-01-24,-1,-0.0037775377632476726,-0.0033385550577100173,-0.0074575480446281185,0.010555826108632375,0.9903501244589488
2014-01-28,-1,-0.0026813730047748566,-0.0024237917662985804,-0.00758500638954818,0.00895837495688136,0.9906712177974042
2014-01-30,-1,-0.002642276434599674,-0.0023911798214455893,-0.00758500638954818,0.00895837495688136,0.9902233398917236
2014-02-03,-1,-0.003546368066483527,-0.0032014167929785516,-0.006783643361050789,0.009684291060581949,0.9904329330378153
2014-02-05,-1,-0.0033307997823563956,-0.0030319821223519514,-0.006838409904556993,0.009684291060581949,0.9905773221721226
2014-02-07,-1,-0.0030784907447534834,-0.002785851549363178,-0.006115069794107788,0.009684291060581949,0.9913164708172368
2014-02-11,-1,-0.002153971529271599,-0.0020258050102438105,-0.006838409904556993,0.007094270264432792,0.9917277419815063
2014-02-13,-1,-0.0017393635611572483,-0.0016401218091241995,-0.007649291360488148,0.006283308008298335,0.9916773710542834
2014-02-18,-1,-0.0015842022729919414,-0.001498045067858981,-0.007649291360488148,0.006283308008298335,0.9912548773549695
2014-02-20,-1,-0.0017366618171799917,-0.0016095912508898745,-0.008431866161235452,0.007251404292178574,0.9904414030001508
2014-02-24,-1,-0.0012182966654155519,-0.0011356257762534239,-0.008431866161235452,0.007251404292178574,0.9907133244478881
2014-02-26,-1,-0.0014920451145911625,-0.0013613301447104118,-0.008431866161235452,0.009862407117290653,0.9906789812560297
2014-02-28,-1,-0.00173218318617342,-0.0015858719000425249,-0.0054084733057690485,0.01055429553512314,0.9903691908243223
2014-03-04,-1,-0.0016357157480458133,-0.0014603725370317877,-0.0054084733057690485,0.01055429553512314,0.9905571596495165
2014-03-06,-1,-0.0010087747203283148,-0.0009344263540771872,-0.0032746625152779278,0.01055429553512314,0.9907904072629956
2014-03-10,-1,-0.0005278996366621575,-0.0005012222383792841,-0.006163978978889924,0.009478638427071055,0.9905371588344752
2014-03-12,-1,-0.0014002944415651458,-0.0012720258993117323,-0.002951628143296127,0.010100031084324028,0.99071165636555
2014-03-14,-1,-0.0016385344929987903,-0.0014941978176458075,-0.002951628143296127,0.010100031084324028,0.991433969843028
2014-03-18,-1,-0.0009845944660976944,-0.0009112295602713176,-0.002951628143296127,0.010247508436577556,0.9911919327617718
2014-03-20,-1,-0.0005130587604786749,-0.0005107293643188834,-0.002222496117481904,0.010247508436577556,0.9913255538008425
2014-03-24,0,-4.993798657979958e-05,3.981616580430895e-05,-0.002951628143296127,0.009981971186794739,0.9920174111773385
2014-03-26,1,0.00015417881541499604,0.0002504524955326144,-0.002951628143296127,0.009527797544488898,0.992352557725894
2014-03-28,1,0.0007595149095913417,0.0009110967027419107,-0.003609307085261497,0.008720211008156283,0.9928544619471855
2014-04-01,1,0.0009642138036042114,0.0011791564117078017,-0.004634327187267235,0.009527797544488898,0.9915067598735043
2014-04-03,1,0.001170632935949417,0.0013994039418252602,-0.004634327187267235,0.007879187871614698,0.9916241595687391
2014-04-07,1,0.0006999902706633751,0.0009055167488503922,-0.004634327187267235,0.007879187871614698,0.9922117879120314
2014-04-09,1,0.0012613937508324958,0.0015360053102070406,-0.005885017765291453,0.006325252032890402,0.9918100183509305
2014-04-11,1,0.0012116914278704977,0.0015093184165651413,-0.004634327187267235,0.007879187871614698,0.9918155147948755
2014-04-15,1,0.0020622765538534592,0.0024842270530278585,-0.004634327187267235,0.005926070973589485,0.9928365900898722
2014-04-17,1,0.003256573211027948,0.003894452195810079,-0.007411405071156004,0.004985908671392302,0.9924640102562653
2014-04-22,1,0.002357957935910752,0.002830076663060776,-0.007411405071156004,0.004985908671392302,0.9924323932212018
2014-04-24,1,0.001988726158055652,0.002372143318076068,-0.007411405071156004,0.005926070973589485,0.9917763625316826
2014-04-28,1,0.0019143620034530202,0.00230253319010406,-0.006624695344579747,0.005926070973589485,0.9922323148667338
2014-04-30,1,0.002014587742664278,0.0024470525517264205,-0.0062162617164488055,0.005926070973589485,0.9939205972483898
2014-05-02,1,0.0024153749955567946,0.002894060826831129,-0.0062162617164488055,0.005271263863050424,0.9937479511782563
2014-05-06,1,0.0019313549785931103,0.002323059754238094,-0.006034995452302494,0.006011185832318814,0.9936820373122615
2014-05-08,1,0.0014273364181469873,0.0017507988228500427,-0.0045565468020343815,0.006646827869066344,0.9940381906736279
2014-05-12,1,0.0017487506244263482,0.0020797760899051746,-0.0045565468020343815,0.007553565716426359,0.9938007968233002
2014-05-14,1,0.001581491358186487,0.0018395469427755252,-0.0045565468020343815,0.009079096589935241,0.9928444148237635
2014-05-16,1,0.0009450453944251847,0.0011485168980357942,-0.0017888120858100694,0.009079096589935241,0.9934989374189648
2014-05-20,1,0.0006188785745389754,0.0007853032459718325,-0.0004469967566792277,0.009079096589935241,0.9938583369251233
2014-05-22,1,0.0015572318389630072,0.0018702994299917412,-0.0004469967566792277,0.009472194480301817,0.9943178871772466
2014-05-27,1,0.001471258249491537,0.0017538112236150526,-0.0017888120858100694,0.01028708317047353,0.9924700476209292
2014-05-29,1,0.0015711064716079303,0.001811030004139345,-0.0018471044438029497,0.010784682158164754,0.9918461447898067
2014-06-02,1,0.0015535445042796695,0.0018153284967478882,-0.0018471044438029497,0.011104092787067121,0.9914791954844061
2014-06-04,1,0.0015431307970030909,0.001781742074417963,-0.002344019136415241,0.011104092787067121,0.9916329634799941
2014-06-06,1,0.0017575938350043562,0.0020028587463047113,-0.003379584330451741,0.011350724466825723,0.9905602906784028
2014-06-10,1,0.002313880391684723,0.002620838672567448,-0.003379584330451741,0.010784682158164754,0.9911506931770758
2014-06-12,1,0.0029694349462380007,0.003355539753866833,-0.004143236402601437,0.009605524617677207,0.9912037402274795
2014-06-16,1,0.0029801807544446533,0.00339311271630237,-0.004610283620329415,0.010784682158164754,0.9905494844397994
2014-06-18,1,0.001901465219516693,0.002090850441224346,-0.005182504049957124,0.011350724466825723,0.988849985328993
2014-06-20,1,0.00254523600981536,0.0028324245849353905,-0.005182504049957124,0.011350724466825723,0.9891560838901501
2014-06-24,1,0.0015180255903047045,0.0016453136913739364,-0.004610283620329415,0.011151726698007776,0.990501000832216
2014-06-26,1,0.0011861559641714486,0.001208152206176177,-0.004824011066541969,0.00801678633606796,0.9909188385476765
2014-06-30,1,0.0013704831437442793,0.001408284614034143,-0.006488052408627189,0.0069951050417144086,0.9909106841819841
2014-07-02,1,0.0010757844009804862,0.0010857523678825596,-0.007060007506479651,0.0069951050417144086,0.9898575738786034
2014-07-07,1,0.0009146458646038482,0.0009295384276330953,-0.006936504186164296,0.0069951050417144086,0.99071769967379
2014-07-09,1,0.0012364457929974933,0.001286980014559211,-0.007060007506479651,0.00801678633606796,0.9894426168889121
2014-07-11,1,0.0009320003046958106,0.0009535104049585154,-0.0077999630492492245,0.011164263357329238,0.9877909829024567
2014-07-15,1,0.0008976593337531806,0.0008977018653334634,-0.007060007506479651,0.00801678633606796,0.9888006808534257
2014-07-17,1,0.0013108140090807182,0.0013915224508291935,-0.006936504186164296,0.0069951050417144086,0.9905341752870734
2014-07-21,1,0.0012350191090535418,0.0012909870333508914,-0.006936504186164296,0.006002641111113187,0.9907104341225859
2014-07-23,1,0.001358373560669206,0.0014195059663756936,-0.006936504186164296,0.005007136146038019,0.990305200216972
2014-07-25,1,0.0013763931338594347,0.0014510161388311814,-0.007057323687231872,0.005903835986977421,0.9900164089302397
2014-07-29,1,0.000846684447863257,0.0008487813246935099,-0.004626213700609789,0.00925463154819855,0.9901895799078725
2014-07-31,0,-4.707103860863239e-05,4.385399300712716e-05,-0.002633106893021469,0.00925463154819855,0.9913690723715332
2014-08-04,-1,-0.0001966734743139955,-4.292170434348091e-05,-0.00268774913691809,0.00925463154819855,0.9905916599090305
2014-08-06,-1,-0.0016919986436431803,-0.001320886741346458,-0.00268774913691809,0.00788592492567878,0.9906335481552843
2014-08-08,-1,-0.0006839268837438658,-0.0004550027280118947,-0.00268774913691809,0.00788592492567878,0.9918785670940627
2014-08-12,-1,-0.0006813524011478783,-0.0004558990196107663,-0.003755632974761459,0.00788592492567878,0.9918321454253937
2014-08-14,-1,-0.0005721874184057397,-0.00036543980398948735,-0.004597228460933707,0.00788592492567878,0.9916287932826471
2014-08-18,-1,-0.0006628117970419549,-0.0004505246388302414,-0.004597228460933707,0.00788592492567878,0.9910244962408915
2014-08-20,1,0.0006937737538390304,0.0007138083126708219,-0.008146995873242654,0.007318463700352615,0.990904189465601
2014-08-22,1,0.0007161350721581216,0.0007287688616693885,-0.011559644653137854,0.0065739656250076856,0.9908746461742851
2014-08-26,1,0.0012006006741353235,0.00126797710625857,-0.011559644653137854,0.006321823445943305,0.9908107580585107
2014-08-28,1,0.0009129405828073242,0.0009364888052515569,-0.0135598706939019,0.0065739656250076856,0.9898539820783663
2014-09-02,1,0.0012858641760760115,0.0013325622384275624,-0.0135598706939019,0.006321823445943305,0.9901534337712328
2014-09-04,1,0.0001878863219295272,0.00029247268158116163,-0.012491747983487227,0.005504857403423276,0.9906635520404773
2014-09-08,1,3.9622082972519325e-05,0.0001351192065947327,-0.011305169417865487,0.002476162898545124,0.9916336695382139
2014-09-10,1,0.00024110522514282466,0.00027510064955636444,-0.012491747983487227,0.005504857403423276,0.9903013126326056
2014-09-12,-1,-0.00032958696486234593,-0.00020700802396082639,-0.013990131630402974,0.005504857403423276,0.9883962044031498
2014-09-16,1,5.025435296455283e-05,0.0001314418196006655,-0.016247232763785247,-2.0096120990244562e-05,0.9864966033511567
2014-09-18,-1,-0.0013552872433156486,-0.0011150860208249808,-0.013990131630402974,0.0025500613764896786,0.9870951271702764
2014-09-22,-1,-0.0017413668198681177,-0.001421721500560615,-0.013990131630402974,0.00769944312210182,0.9865967297253665
2014-09-24,-1,-0.0015393052657875182,-0.0012602071517692586,-0.016247232763785247,0.009127884088546812,0.9852255596668239
2014-09-26,-1,-0.0018109992030468998,-0.0014881611944514426,-0.015763402686493608,0.009127884088546812,0.9851765189131635
2014-09-30,-1,-0.0029330904332652216,-0.0024226349114364475,-0.015763402686493608,0.010503343296831886,0.9827449965842271
2014-10-02,-1,-0.003209844154821417,-0.0026985564036189702,-0.015763402686493608,0.010503343296831886,0.982845218909854
2014-10-06,-1,-0.0032911224467261834,-0.00278517316191891,-0.02203687904846626,0.014151119270990446,0.98019149865048
2014-10-08,-1,-0.004319676396099913,-0.003623154191751461,-0.023677116530416882,0.014151119270990446,0.9797691932943993
2014-10-10,-1,-0.006627348599944784,-0.005637990664396271,-0.0142910968578819,0.01871526739526922,0.9801374955718496
2014-10-14,-1,-0.007956847907809083,-0.006861824113487982,-0.011751656758570832,0.01871526739526922,0.9800417308097087
2014-10-16,-1,-0.006491123031840086,-0.005574637581761455,-0.02194124383890249,0.014151119270990446,0.9813453705206363
2014-10-20,-1,-0.005310060763730889,-0.004558036448076933,-0.02194124383890249,0.014148656100896684,0.9815126258194262
2014-10-22,-1,-0.005733413612604205,-0.004919216770271582,-0.017875355237016406,0.01476693642794573,0.981642408737962
2014-10-24,-1,-0.005013796763120486,-0.004279323706149571,-0.017875355237016406,0.015803856290098683,0.980973473360981
2014-10-28,-1,-0.004184347146441596,-0.0036009643274843074,-0.015038097673610496,0.013515150212763245,0.9843547689221595
2014-10-30,-1,-0.0038110639662456104,-0.0033292988581790665,-0.019177474421719548,0.013515150212763245,0.9794995935525038
2014-11-03,-1,-0.003058695896631329,-0.002739850536299046,-0.017121335937821107,0.013515150212763245,0.9806769739977191
2014-11-05,-1,-0.004027205819736266,-0.0035985901719125203,-0.017121335937821107,0.015803856290098683,0.9803159436283323
2014-11-07,-1,-0.002921038802058711,-0.0026248797932190097,-0.020691667779029685,0.013515150212763245,0.9777394155655621
2014-11-11,-1,-0.003949474774959795,-0.0035707061971327596,-0.020691667779029685,0.015803856290098683,0.9761214912770139
2014-11-13,-1,-0.005521987525425594,-0.004923991466136731,-0.020981969096017294,0.015803856290098683,0.9763050214305551
2014-11-17,-1,-0.005375140222001302,-0.004832294674361795,-0.023335636750296315,0.0172572925806026,0.9754765474115947
2014-11-19,-1,-0.0032188327885256706,-0.0029290793359815826,-0.023335636750296315,0.019728306359497766,0.9724357000814382
2014-11-21,-1,-0.002298454728187536,-0.002128710449112679,-0.023335636750296315,0.021501044069256438,0.9725960377701456
2014-11-25,-1,-0.0029822544213525997,-0.002748061754825653,-0.023335636750296315,0.021501044069256438,0.9721516553964119
2014-11-28,-1,-0.006621013684803345,-0.005967125825087413,-0.020981969096017294,0.021501044069256438,0.9764037664408578
2014-12-02,-1,-0.005320186115236689,-0.0048084126106005065,-0.020981969096017294,0.019728306359497766,0.9783475141038743
2014-12-04,-1,-0.004462137621435909,-0.00406768003196353,-0.02171686825905772,0.016270252379700093,0.9779574985711056
2014-12-08,-1,-0.00850157732034304,-0.007650597024309561,-0.012643728915195121,0.016270252379700093,0.979566405707802
2014-12-10,-1,-0.009563349535544522,-0.008614512226646477,-0.008069514334327758,0.01646485989717957,0.9807551877478393
2014-12-12,-1,-0.009523649286983049,-0.008614334578401458,-0.012219628494951177,0.01646485989717957,0.9797087939932181
2014-12-16,-1,-0.009172834890860548,-0.008322638287647248,-0.012219628494951177,0.01301706318510653,0.9809857456753696
2014-12-18,-1,-0.005586452213553093,-0.005142483083165986,-0.013762529708454584,0.011564041811553365,0.9835049866051543
2014-12-22,-1,-0.005020851929299858,-0.0045985603144928,-0.013762529708454584,0.011564041811553365,0.9831976707864323
2014-12-24,-1,-0.004365505439281183,-0.004055180805761029,-0.013762529708454584,0.011564041811553365,0.9826111834459705
2014-12-29,-1,-0.00392827388413327,-0.003649580704909879,-0.015994919340130517,0.011289918302652389,0.980674976200342
2014-12-31,-1,-0.00354759931158597,-0.003332716271658086,-0.015994919340130517,0.014271442070153958,0.9784672716137608
2015-01-05,-1,-0.0038483349014609997,-0.0035933930553772604,-0.013762529708454584,0.025863493522061232,0.9769866672701822
2015-01-07,-1,-0.004124909745128884,-0.0038488254890527854,-0.014722618079398687,0.025863493522061232,0.9762255511853047
2015-01-09,-1,-0.0031670648861696683,-0.003009624397277485,-0.015818164208216724,0.025863493522061232,0.9761439844334937
2015-01-13,-1,-0.004632840563752264,-0.00436677923115636,-0.012365447215082266,0.025863493522061232,0.9780780573101496
2015-01-15,-1,-0.004771054974042306,-0.0045067065554879535,-0.011139409035103248,0.025863493522061232,0.9762633308594318
2015-01-20,-1,-0.0030772092420549603,-0.0030551417071436214,-0.011139409035103248,0.02496105425753436,0.9786978063711345
2015-01-22,-1,-0.001394888967970332,-0.0011697358072784712,-0.012365447215082266,0.024734608486428614,0.9801917276949929
2015-01-26,0,-0.0002424151387492913,0.00016477521374138942,-0.011950645783398502,0.016889403510978653,0.9817959205270224
2015-01-28,-1,-0.002563049420118575,-0.0024762417514406507,-0.01162788783042322,0.016889403510978653,0.9816291093873457
2015-01-30,-1,-0.0006433905064377736,-0.0003106456702704032,-0.01162788783042322,0.012962400622494673,0.98404831469091
2015-02-03,1,0.002239669457746235,0.0029553800980094583,-0.01162788783042322,0.008523624337962424,0.9878201664370787
2015-02-05,1,0.0018114121730371938,0.00245994062072708,-0.01162788783042322,0.00555495975906828,0.9882332363010582
2015-02-09,1,0.0021741076174236667,0.00291302621479234,-0.018005641487740788,0.0030841913191834826,0.987451377627802
2015-02-11,1,0.0017991807771649529,0.0024488235923878178,-0.018005641487740788,0.0030841913191834826,0.9876006177421351
2015-02-13,1,0.003507603106711595,0.004362959323057068,-0.018005641487740788,0.0030841913191834826,0.9884761557553767
2015-02-18,1,0.0031933631215597122,0.004016252897433867,-0.017456769786656508,0.0035568621964730813,0.9875276060120143
2015-02-20,1,0.0026341377661957995,0.0033905719697844405,-0.017456769786656508,0.006972972390937076,0.9869111347537061
2015-02-24,1,0.0027193918631230663,0.003441967169465591,-0.017456769786656508,0.0035568621964730813,0.9863908718489962
2015-02-26,1,0.0016223401208342201,0.0021727566616416925,-0.012060191981090181,0.0035568621964730813,0.9880162616734816
2015-03-02,1,0.0013801740939419702,0.0018882690695046537,-0.017456769786656508,0.0072089328026161735,0.9869697444257343
2015-03-04,1,0.001242748676267172,0.0017178308312125335,-0.017456769786656508,0.011459610062826519,0.9857738872264278
2015-03-06,-1,-0.0005026655467351722,-0.0003597956554107373,-0.013405848284235846,0.0192279523368715,0.9852914666816411
2015-03-10,-1,-0.002553688055150705,-0.002355155624672362,-0.007905033284231455,0.0192279523368715,0.9857780976239741
2015-03-12,-1,-0.0019117333655852683,-0.001857882543415238,-0.007905033284231455,0.019843018836109404,0.9838780508936672
2015-03-16,-1,-0.0008121024339170202,-0.0006911494992932186,-0.009775036038806943,0.019843018836109404,0.9838397738356051
2015-03-18,0,-3.487058849817857e-05,0.0001897834078891128,-0.007725634110302794,0.019843018836109404,0.9841839083385656
2015-03-20,1,0.0005867616211889477,0.000924051440507361,-0.0061729764476548266,0.019843018836109404,0.9854288442976998
2015-03-24,1,0.00043358688170064903,0.0007538733207647981,-0.0061729764476548266,0.019843018836109404,0.9843066056895292
2015-03-26,1,0.0012438598229656138,0.0016705334720138693,-0.007127046652255414,0.018050450940389325,0.9848671672672941
2015-03-30,1,0.0023052249070028554,0.002949061885780025,-0.0061729764476548266,0.016431124297537698,0.9866949080300108
2015-04-01,1,0.002396620738174364,0.0030179446558663506,-0.003629959304359654,0.015509927675425613,0.9874005790327884
2015-04-06,1,0.004605304994228506,0.0055725727354532205,-0.0061729764476548266,0.014374310785716198,0.9888385197717865
2015-04-08,1,0.003947986165782501,0.004741052381112413,-0.006197723241132609,0.014374310785716198,0.9870552282244246
2015-04-10,1,0.004720681516740264,0.005544109919725201,-0.007799874490736144,0.01101686222138943,0.986560927593801
2015-04-14,1,0.004824396445444126,0.005658524256854676,-0.008053697747654083,0.010104547372693898,0.9858142001196083
2015-04-16,1,0.007095592149699988,0.008294702459081772,-0.012665113817983248,0.007994982693523889,0.9853174228210624
2015-04-20,1,0.00804662587689939,0.009429911108752003,-0.012665113817983248,0.0067677443773175045,0.9851139866965556
2015-04-22,1,0.006956380512559354,0.008153005223306479,-0.011386555172224023,0.00521492222263524,0.986270659316615
2015-04-24,1,0.005176753968411867,0.005824677541913376,-0.011386555172224023,0.006086167868360219,0.9864604096840606
2015-04-28,1,0.005854583716987232,0.006653200905918555,-0.013934057284644405,0.0028184013495905075,0.9849822011110483
2015-04-30,1,0.006495185446549742,0.007384763184812137,-0.013934057284644405,0.0013559080580444393,0.9840765161704458
2015-05-04,1,0.004416855160229924,0.004804503709604435,-0.013934057284644405,6.852174097439164e-06,0.985857767829104
2015-05-06,1,0.0021817662956208567,0.002200945002963248,-0.013934057284644405,0.0002709427291016471,0.9886544280813169
2015-05-08,1,0.0004532232719075929,0.0006754176836529116,-0.013717362950075352,0.0002709427291016471,0.9905410427705502
2015-05-12,-1,-0.0007367314349158841,-0.00034135588597446567,-0.013218077060663861,0.0028184013495905075,0.9916822905332295
2015-05-14,1,0.00016043988538498214,0.0002587155696004334,-0.013218077060663861,0.0028184013495905075,0.9916766777618345
2015-05-18,1,0.0005126489829013654,0.0005379786595090556,-0.013218077060663861,0.004978316842673119,0.9910435707683365
2015-05-20,1,0.00012696232726970382,0.00019438624461951006,-0.008315590137530093,0.0014108316305570792,0.9917443958598638
2015-05-22,1,0.0010384483570992974,0.0010880802991867565,-0.013222008999493228,0.0014108316305570792,0.9912301865225172
2015-05-27,1,0.00028470921988640375,0.0003502950345525955,-0.008315590137530093,0.0061615145902704175,0.9916100737069239
2015-05-29,-1,-0.0008183075269246991,-0.0005600069996670831,-0.005287197813037055,0.008434551282268967,0.9903767496337252
2015-06-02,-1,-0.001019620103163666,-0.0007328827838885722,-0.008484640059886835,0.008434551282268967,0.9884615565066526
2015-06-04,-1,-0.0013052678140324202,-0.0010129107864395004,-0.008484640059886835,0.008434551282268967,0.9878334626097436
2015-06-08,-1,-0.0024314537554536546,-0.0019083382851726978,-0.009137019223346688,0.008434551282268967,0.9868391572970471
2015-06-10,-1,-0.002170466779273148,-0.0016415155413312284,-0.018002221742117245,0.00756596589373631,0.9859774339438138
2015-06-12,-1,-0.0026131129976892063,-0.0020666884754489937,-0.015433493424566746,0.008434551282268967,0.9856109040626855
2015-06-16,-1,-0.0017985791219040771,-0.0014046169341585231,-0.023171566574512973,0.008546671400270905,0.9841931115867786
2015-06-18,-1,-0.0018905668715786523,-0.0015120754172631705,-0.024559075604734467,0.008546671400270905,0.9830026254692241
2015-06-22,-1,-0.003725891895062553,-0.003046260454647936,-0.024559075604734467,0.008396558499610494,0.9841722794665402
2015-06-24,-1,-0.002210642270202231,-0.0018492836747704409,-0.02739974501111252,0.003395393670425528,0.9829049593449476
2015-06-26,1,1.9527013334838582e-05,0.0001090084847172034,-0.02943710294446296,-0.002840660393055571,0.980886258850398
2015-06-30,-1,-0.0014288554639199434,-0.0013134246421614803,-0.02840497850507621,0.004276023909853183,0.9811226044065363
2015-07-02,-1,-0.002583497906542801,-0.002316962961602516,-0.02943710294446296,0.006206316592773069,0.9807555609399128
2015-07-07,-1,-0.002412788175473226,-0.0021615860058543093,-0.02943710294446296,0.0026653130348130534,0.9820365218466715
2015-07-09,-1,-0.0021153613185570987,-0.001954114553373671,-0.02943710294446296,-0.0010387310510916504,0.9815042645548512
2015-07-13,-1,-0.002586589582102677,-0.0022993851097885057,-0.031823585669608204,-0.0010387310510916504,0.9787914106496616
2015-07-15,-1,-0.003538174434371348,-0.0031349957686947444,-0.031823585669608204,-0.0010387310510916504,0.9804951422134796
2015-07-17,-1,-0.004182748480202999,-0.003712892273817432,-0.03458089402180946,-0.0010387310510916504,0.9780739356230803
2015-07-21,-1,-0.005018369430597038,-0.004424397373778767,-0.03458089402180946,0.005174799444776999,0.9782210561798145
2015-07-23,-1,-0.006618868834566256,-0.005819010264578481,-0.03458089402180946,0.005174799444776999,0.977040004036087
2015-07-27,-1,-0.008864916607129819,-0.007794496508002852,-0.03604955038336608,0.005174799444776999,0.9750257861840065
2015-07-29,-1,-0.005815255249307061,-0.004975734903531877,-0.03604955038336608,-0.0005751937884818994,0.9745308157961838
2015-07-31,-1,-0.008192955906045811,-0.007063384891682612,-0.03458089402180946,0.007567764192643761,0.9700467390301223
2015-08-04,-1,-0.008419928359689195,-0.007243886442996581,-0.03458089402180946,0.015030870079019314,0.967916693885085
2015-08-06,-1,-0.009459171371595899,-0.008199377644776885,-0.027687764390108328,0.015030870079019314,0.9686729711085145
2015-08-10,-1,-0.011051498905210904,-0.009660236338935299,-0.026643997054514992,0.007567764192643761,0.9711632204391712
2015-08-12,-1,-0.009423808446335218,-0.008249336628329173,-0.03127495900784053,0.005249206602181052,0.9681124659678592
2015-08-14,-1,-0.01188263204044175,-0.010409354268645655,-0.02496093367618262,0.010808892929452677,0.9687263690476807
2015-08-18,-1,-0.010777160725122659,-0.0094813358102847,-0.02496093367618262,0.025514186540212605,0.9667235732600544
2015-08-20,-1,-0.013275722999595552,-0.0117298632712778,-0.02496093367618262,0.025514186540212605,0.9669114913292368
2015-08-24,-1,-0.012335908261805558,-0.010920384092089735,-0.02460392043298391,0.025514186540212605,0.9690059141506935
2015-08-26,-1,-0.011706634053027767,-0.010466824757690101,-0.023603429414498306,0.01808563153902535,0.9707817080230535
2015-08-28,-1,-0.006464621133140879,-0.00585583536273406,-0.02606945093487806,0.01444032978658775,0.975374485245504
2015-09-01,-1,-0.0036097510810869276,-0.003420351424339348,-0.024224614834105443,0.014932104300328477,0.9765946575314046
2015-09-03,-1,-0.0032561252101760887,-0.0031185181746946726,-0.024224614834105443,0.01763848453864905,0.9725961093490639
2015-09-08,-1,-0.00048257564088618815,-0.00017897530196323876,-0.010130198989633193,0.0230855750020593,0.9678961664128488
2015-09-10,-1,-0.0048326560014786,-0.004623248275786638,-0.0014610259925798895,0.03384077634977887,0.9675562565738948
2015-09-14,-1,-0.003379544005874953,-0.003322208301461219,-0.024224614834105443,0.03384077634977887,0.9672391554122722
2015-09-16,-1,-0.0010915606495035303,-0.0008227073456711177,-0.024224614834105443,0.021744134000930386,0.9688088736692155
2015-09-18,0,-0.0001105967988214991,0.0003313574203782667,-0.020383155416601538,0.027805044549223175,0.9697578380971825
2015-09-22,1,0.00043650192627152167,0.0009992638915651928,-0.020383155416601538,0.027805044549223175,0.9688308965641351
2015-09-24,1,0.0005156780949728856,0.0010990036969684514,-0.021909728150896014,0.027805044549223175,0.9678258977678618
2015-09-28,-1,-0.00106767627463943,-0.000782832850275799,-0.021909728150896014,0.027805044549223175,0.9690996342528952
2015-09-30,0,-0.00010616544345040625,0.0002769867937372542,-0.027739848013064564,0.02895248491424858,0.9683983051023072
2015-10-02,1,0.0036078822085421577,0.004417824234088836,-0.027739848013064564,0.02895248491424858,0.9700877781375781
2015-10-06,1,0.008767772312786143,0.010207492033332455,-0.027739848013064564,0.02895248491424858,0.9735172469516629
2015-10-08,1,0.010154976693375489,0.0117862936986847,-0.027739848013064564,0.02602003101006367,0.9733001381154427
2015-10-12,1,0.008477403365181841,0.009889189313292704,-0.02228595450459727,0.02602003101006367,0.974855548815821
2015-10-14,1,0.008975287260771996,0.010511445850904352,-0.027739848013064564,0.02602003101006367,0.9717323832594151
2015-10-16,1,0.009253601903399775,0.010796429618634782,-0.027739848013064564,0.0235386504298838,0.9719226303073952
2015-10-20,1,0.007804111136912574,0.009131668164401028,-0.02228595450459727,0.027473813546753243,0.9730064328940005
2015-10-22,1,0.007830308024978305,0.009152630018654906,-0.01604849893155364,0.02548532342240515,0.9743895361758584
2015-10-26,1,0.006003360222494481,0.007054269662388639,-0.013549913478910611,0.02548532342240515,0.97684320598869
2015-10-28,1,0.007188268562269402,0.008404924333307449,-0.013549913478910611,0.02570499273351711,0.9758027005560551
2015-10-30,1,0.008852151089441615,0.010318491148029256,-0.01604849893155364,0.013765279654411999,0.9754729880132538
2015-11-03,1,0.010812723663776573,0.01249655002054191,-0.02073416510458131,0.00644925337282138,0.9731907251697028
2015-11-05,1,0.009610369833743446,0.011144103140422343,-0.022306230442201376,0.00644925337282138,0.9740315679863933
2015-11-09,1,0.008089381480607259,0.009518888542065226,-0.022306230442201376,0.007507945030918957,0.9730581074280812
2015-11-11,1,0.005154389018359535,0.006169480281977835,-0.022306230442201376,0.007507945030918957,0.9770259766003402
2015-11-13,1,0.005507971442234126,0.006611462617967244,-0.02665873691234688,0.007507945030918957,0.9748253481195024
2015-11-17,1,0.007967274462379501,0.009493305172926975,-0.027390297207384277,0.007507945030918957,0.9722469300791158
2015-11-19,1,0.00746696591949771,0.00890180661393921,-0.030361638687918975,0.00644925337282138,0.968265776202763
2015-11-23,1,0.006772072222216858,0.008062695291835238,-0.030361638687918975,0.007507945030918957,0.9692582426540363
2015-11-25,1,0.008238962768872222,0.009796162224155552,-0.030361638687918975,0.007507945030918957,0.9673583840346752
2015-11-30,1,0.006812267112453588,0.008096356989377482,-0.032869179356431855,0.007507945030918957,0.966563917371052
2015-12-02,1,0.004947308749393925,0.00597410651911884,-0.032869179356431855,0.010498763454328583,0.9670570154745292
2015-12-04,1,0.003969932423946082,0.004849760537429475,-0.032869179356431855,0.014321580227462678,0.9683121445473636
2015-12-08,1,0.001751750500866647,0.002343527157600038,-0.047740938476590195,0.014321580227462678,0.9654430052833239
2015-12-10,1,0.0009679780646050379,0.0014523736101432934,-0.05093313584938226,0.006401779775205736,0.9628295205148285
2015-12-14,-1,-0.0013519997936976595,-0.001216861323095041,-0.057608035471173005,0.006401779775205736,0.9605096816473782
2015-12-16,-1,-0.0028109793947943664,-0.002674602149513052,-0.06878150167033234,0.006401779775205736,0.957219461404582
2015-12-18,-1,-0.0037997152524609683,-0.0036788619769727317,-0.059432884745132,0.014424364694261461,0.957827590407191
2015-12-22,-1,-0.0034902134824455994,-0.003328776334186175,-0.059432884745132,0.019560707907536518,0.952861941778859
2015-12-24,1,0.0001226765329379498,0.00047425088626186626,-0.06878150167033234,0.019560707907536518,0.9508715385406764
2015-12-29,-1,-0.001849127348765961,-0.0018398084529654567,-0.06001619961524778,0.028500361265560287,0.9504185207568978
2015-12-31,-1,-0.003955890000096503,-0.0036694730873034773,-0.06001619961524778,0.03614810418213532,0.9505983172722702
2016-01-05,-1,-0.0027968299208874854,-0.0026358789358981467,-0.0705808384702853,0.04056260533100577,0.9435940173263216
2016-01-07,-1,-0.007146773109142579,-0.006306477344974373,-0.0705808384702853,0.04056260533100577,0.9461553626716719
2016-01-11,-1,-0.012737250220357656,-0.011348833264965124,-0.07195928679941452,0.04056260533100577,0.9444961713892358
2016-01-13,-1,-0.01844380516491345,-0.016250158342432264,-0.06974374657258209,0.04056260533100577,0.9479363875165084
2016-01-15,-1,-0.021791956805375656,-0.019084093768282788,-0.05932707839590927,0.04056260533100577,0.9511197499194043
2016-01-20,-1,-0.022988436131472202,-0.020159647605488773,-0.06552673923319202,0.04056260533100577,0.9515612648878216
2016-01-22,-1,-0.014837485116447823,-0.013218098684316254,-0.06552673923319202,0.04056260533100577,0.9535837543455614
2016-01-26,-1,-0.015550334986542387,-0.013951558931914677,-0.06225570566105021,0.038627238644902674,0.9556588422881489
2016-01-28,-1,-0.012136055944627102,-0.010953440250398919,-0.06225570566105021,0.03549684783817145,0.9545008955701908
2016-02-01,-1,-0.00907626321883847,-0.008186978639123604,-0.06225570566105021,0.02441602984957773,0.9554429037364157
2016-02-03,-1,-0.011951169866020319,-0.010520507861910326,-0.0381917932300268,0.03549684783817145,0.9542294570755755
2016-02-05,-1,-0.012786331667908815,-0.011282119988990104,-0.0292576689821966,0.06733074426122153,0.9520626641412399
2016-02-09,-1,-0.014393048491580792,-0.012794441700390662,-0.02367589025054901,0.06733074426122153,0.9515431773823791
2016-02-11,-1,-0.015322455085033937,-0.013615182712646032,-0.016226984341496407,0.06733074426122153,0.9475406246383042
2016-02-16,-1,-0.013966775431219961,-0.012455610613102013,-0.011919281143425383,0.062019125201426675,0.9496260772277868
2016-02-18,-1,-0.016126798571683934,-0.014357753420302197,-0.006125427249019274,0.062019125201426675,0.9497536795870817
2016-02-22,-1,-0.012103919222913592,-0.010725443506463907,-0.006125427249019274,0.04013590000839418,0.9560755412885464
2016-02-24,-1,-0.011804301605805,-0.010550788808907304,-0.0073289499733149785,0.04013590000839418,0.9561631687754727
2016-02-26,-1,-0.0050243221444234406,-0.004778575812537918,-0.011032417040283498,0.025705256482211877,0.9630960077830223
2016-03-01,-1,-0.002913205299194644,-0.002626274962418388,-0.0073289499733149785,0.026609791055027674,0.9640243223684101
2016-03-03,1,0.005576560469890211,0.007105947268231153,-0.011032417040283498,0.02078379283237558,0.9702704394932408
2016-03-07,1,0.007437921740644035,0.009097857146890848,-0.011032417040283498,0.018885160310812,0.9745324943083923
2016-03-09,1,0.005303683120485124,0.0066941836583475555,-0.0073289499733149785,0.018885160310812,0.9777460100447872
2016-03-11,1,0.0075874146619082814,0.009339998810837514,-0.009628043228932157,0.018885160310812,0.9778519447246496
2016-03-15,1,0.007200204199557574,0.00882989431859249,-0.011032417040283498,0.019831237723727396,0.9735057565166896
2016-03-17,1,0.007805276148714775,0.009526426745760834,-0.011032417040283498,0.019517107966324526,0.9737221312978
2016-03-21,1,0.007090689503687215,0.008630000153675254,-0.009628043228932157,0.029348916001437683,0.9724713500302706
2016-03-23,1,0.0028870454297868723,0.0039165896235554,-0.008055249175653012,0.029348916001437683,0.9758255686971407
2016-03-28,1,0.0038751290950498436,0.0051405885673900635,-0.008055249175653012,0.03514621570838998,0.973979177332683
2016-03-30,1,0.006565953943939272,0.008330676995859083,-0.008055249175653012,0.03854323405719463,0.9733506064285373
2016-04-01,1,0.006936030763427026,0.0086838135026614,-0.010559575112441384,0.03514621570838998,0.9755423686137404
2016-04-05,1,0.007004505934391623,0.008748229662431467,-0.015962536617519896,0.03514621570838998,0.9709459315322776
2016-04-07,1,0.007805537636624566,0.009471000639595956,-0.021843574815874553,0.029433671409663624,0.9691706422374066
2016-04-11,1,0.008950422491498633,0.01076551059216329,-0.03365535640606948,0.027101971609526376,0.9683659882544255
2016-04-13,1,0.01403353840365984,0.016600590105715348,-0.03365535640606948,0.029433671409663624,0.9698614739863597
2016-04-15,1,0.014561897495869492,0.017201740207677143,-0.03365535640606948,0.029433671409663624,0.9687980414536129
2016-04-19,1,0.01636648646270527,0.01923790663001257,-0.03365535640606948,0.029433671409663624,0.9683887763587437
2016-04-21,1,0.01731544378316069,0.020399083424015602,-0.03365535640606948,0.029433671409663624,0.9679455239550017
2016-04-25,1,0.0162802534547501,0.019153785237875427,-0.021843574815874553,0.028036248023242994,0.9705063645287303
2016-04-27,1,0.017621900027176195,0.020556679609538032,-0.021843574815874553,0.011999926461280435,0.9689822224717507
2016-04-29,1,0.015042596091207954,0.017559046516356674,-0.022207488144141377,0.011999926461280435,0.9702934126367283
2016-05-03,1,0.01082918827087226,0.012611564066012668,-0.013554385647776482,0.017144320089252763,0.9778178977519956
2016-05-05,1,0.008482156118032613,0.009921564564042657,-0.011047168449128402,0.017144320089252763,0.9812782683315884
2016-05-09,1,0.006004294323695855,0.007023302595679002,-0.00597160118955131,0.03925289346040649,0.980798027844804
2016-05-11,1,0.00907435438162585,0.010432080839912991,-0.011047168449128402,0.017144320089252763,0.9820742975896615
2016-05-13,1,0.00703550906567078,0.007943177718191627,-0.013554385647776482,0.017144320089252763,0.9795747777273824
2016-05-17,1,0.008584202333338242,0.00972692938280408,-0.013554385647776482,0.012475897970815919,0.9792365443329386
2016-05-19,1,0.010216731318167131,0.011766231505115295,-0.014311916829838461,0.017144320089252763,0.9771435945000779
2016-05-23,1,0.010332671895928843,0.011812419882458583,-0.014311916829838461,0.03899014028232852,0.9725118630692638
2016-05-25,1,0.010527825077035851,0.011959904664941989,-0.019061950781795723,0.036109204955077204,0.9722252682382545
2016-05-27,1,0.008773804604231578,0.009990394790893656,-0.019569529304901995,0.036109204955077204,0.9694587268163392
2016-06-01,1,0.007103271698393662,0.007737604068258807,-0.019569529304901995,0.0395372899651552,0.9655705821678856
2016-06-03,1,0.004917182113733511,0.0050226661231212,-0.019569529304901995,0.04275456476219061,0.9638018795050312
2016-06-07,1,0.005206076553574257,0.00529930895155732,-0.02436416573979288,0.036109204955077204,0.9644861062499601
2016-06-09,1,0.004487169222097654,0.0045859917764502125,-0.02436416573979288,0.036109204955077204,0.9653153411620158
2016-06-13,1,0.00031287515453919806,0.0009970881423532845,-0.017194558988726193,0.0395372899651552,0.9656519102211107
2016-06-15,1,0.001753610926903047,0.0020756804126749588,-0.020536737884250787,0.0395372899651552,0.965261484458594
2016-06-17,1,0.0005798759991488399,0.0011003682427209074,-0.016529642388847375,0.03697248006880599,0.9682048299187733
2016-06-21,1,0.006704307824238102,0.007077088299565795,-0.020536737884250787,0.015248087678394692,0.9718928043918297
2016-06-23,1,0.007626999464961984,0.00820985043503791,-0.023198934317183655,0.009167046948387185,0.9713018971879958
2016-06-27,1,0.0033092721133702917,0.0033526003735470876,-0.02027835309879448,0.012840649000771852,0.9755266397894942
2016-06-29,1,0.0038329574980170977,0.004010959504807347,-0.023198934317183655,0.009167046948387185,0.97712242524814
2016-07-01,1,0.001753139529640171,0.0025232128030599037,-0.028308110045006583,0.009167046948387185,0.9768880273998072
2016-07-06,-1,-0.0016979601460689686,-0.00044395360179704186,-0.023198934317183655,0.012840649000771852,0.9793472039026963
2016-07-08,-1,-0.001821232746287373,-0.0006193141343012083,-0.023198934317183655,0.015234530377970084,0.9785796299283943
2016-07-12,-1,-0.0021242628825565704,-0.0007392472825523003,-0.023198934317183655,0.015234530377970084,0.9804122872612339
2016-07-14,-1,-0.0015638425980640824,-0.0003678659355402301,-0.028308110045006583,0.017997367163904418,0.9781319098234983
2016-07-18,-1,-0.0031717837596470476,-0.0016821933454242892,-0.028308110045006583,0.01944457551573216,0.9764700974925762
2016-07-20,-1,-0.002621945458139931,-0.0014455864795701236,-0.023198934317183655,0.023141449410581,0.9753174870465939
2016-07-22,-1,-0.0049414033069823254,-0.0034382692065585245,-0.0009458859098231034,0.028952820705208715,0.9727512473760445
2016-07-26,-1,-0.0015460133674060354,-0.0008717810815050493,-0.0009458859098231034,0.033790298018379586,0.9709999517596192
2016-07-28,-1,-0.0018556192656302613,-0.001316889005498644,-0.0019393366854599285,0.033790298018379586,0.9727306635329731
2016-08-01,-1,-0.004058720169623214,-0.0032692896514644404,-0.0019393366854599285,0.033790298018379586,0.9749368372030636
2016-08-03,-1,-0.0013602611426141744,-0.0008923349816087301,-0.008440720789925077,0.028952820705208715,0.975327742190674
2016-08-05,0,-0.00020055334115156676,0.00011655033659603716,-0.008440720789925077,0.025711004302661458,0.9756835388869806
2016-08-09,1,0.0010368126686673348,0.0011983954306858337,-0.008440720789925077,0.02030109381309231,0.9772049675510907
2016-08-11,1,0.0005398344746472595,0.0007534537485070906,-0.008440720789925077,0.02030109381309231,0.9739198715112268
2016-08-15,-1,-0.0006712010207393071,-8.2821810329006e-05,-0.023769166762329676,0.0198778564548927,0.9712975085571922
2016-08-17,1,0.0001316195619847577,0.0006581828658684657,-0.024138703152105513,0.011723877115868598,0.9718811993058447
2016-08-19,1,0.0026482430969842984,0.0028491549384958813,-0.024138703152105513,0.0069148938426995595,0.9738964923376043
2016-08-23,1,0.0021719064535121145,0.0024386229854948824,-0.022643010346250575,0.0069148938426995595,0.9763084866030834
2016-08-25,1,0.0007203177030274434,0.0011681569354497427,-0.023648114109945745,0.011017048840069961,0.9760400267353507
2016-08-29,1,0.0012466743968797282,0.0015719177948382596,-0.024605190777299488,0.011017048840069961,0.9746756795144449
2016-08-31,0,-0.00019479311719174499,0.0002742211701688298,-0.01746358370208567,0.01967052646420056,0.9719189668149701
2016-09-02,1,0.003054089687889913,0.0031084426133153992,-0.01746358370208567,0.015723911740465744,0.9721171333427375
2016-09-07,1,0.0032418761892254386,0.0033208667497375026,-0.022179893778257558,0.02122080096404013,0.9698965767417989
2016-09-09,1,0.004502080091462953,0.004849615958806473,-0.022179893778257558,0.015723911740465744,0.9738457421718356
2016-09-13,1,0.0021395076000124934,0.0021492926639402237,-0.022179893778257558,0.015723911740465744,0.9762729759001574
2016-09-15,1,0.0016118988640446508,0.0016630452346210974,-0.017186032716162716,0.011818745159698312,0.9772273706210672
2016-09-19,1,0.002310349807278568,0.002469391065176695,-0.02249891933404214,0.011818745159698312,0.9756774645282146
2016-09-21,1,0.002729580138277436,0.0028270539099892102,-0.02249891933404214,0.011818745159698312,0.9775205875932584
2016-09-23,1,0.0008021636375589267,0.0011019735909827252,-0.015624425999767273,0.0104002327972633,0.9796855810408861
2016-09-27,-1,-0.0015117518730808181,-0.0008566715645019624,-0.015624425999767273,0.0104002327972633,0.9801862763734855
2016-09-29,1,0.002105618849047419,0.0024243562628051265,-0.021265069420971193,0.003793863967842336,0.983911955871137
2016-10-03,1,0.0030792478818829957,0.0031282828778343647,-0.02328546115157927,0.0019110472723832244,0.9812674073576427
2016-10-05,1,0.0026449407532166992,0.002779223853694371,-0.027601469319417662,0.0019110472723832244,0.9819461433536233
2016-10-07,1,0.0023986979735919818,0.002437793455397655,-0.027601469319417662,0.003793863967842336,0.9775962067350931
2016-10-11,1,0.001464416396238255,0.0015872605210105746,-0.022648187780215857,0.00540951639543542,0.9786174227927481
2016-10-13,1,0.001190237745548126,0.0013146071368531657,-0.022648187780215857,0.009668657100784041,0.9769336533428743
2016-10-17,1,0.0002547492741718963,0.0004463715914042783,-0.017647573113363412,0.009668657100784041,0.9780399352598094
2016-10-19,1,4.5484560353239e-05,0.0003122694792645147,-0.017647573113363412,0.009668657100784041,0.9767369051069608
2016-10-21,1,0.0002742905557160362,0.0004865883466271102,-0.017647573113363412,0.012130242325029407,0.9762670399784764
2016-10-25,-1,-0.000854947854716813,-0.0005275015856444944,-0.01649370424677097,0.02150514328344911,0.974864236426889
2016-10-27,1,0.00014298777683809384,0.0002011704744116575,-0.01649370424677097,0.02150514328344911,0.9740583629867454
2016-10-31,-1,-0.0019045419525328573,-0.0015892072233553267,-0.01983375602525795,0.02150514328344911,0.9725118121226327
2016-11-02,-1,-0.001828785782795989,-0.0011716630387366778,-0.011187941332372896,0.0362535130012144,0.9696254390675638
2016-11-04,1,0.0003029417455246411,0.0007562921734445007,-0.009041137027356762,0.02150514328344911,0.9749011905489408
2016-11-08,1,0.0012383306979783025,0.001529840190878166,-0.009041137027356762,0.017364428596988113,0.9765978274947223
2016-11-10,1,0.0058120567103798395,0.006337045475498587,-0.009041137027356762,0.011303955708701855,0.9782236026132407
2016-11-14,1,0.00519758424806924,0.005633381211045807,-0.007533934667183081,0.014614474568169533,0.9786562595203068
2016-11-16,1,0.004190548717619382,0.004347309244260819,-0.007657913009874204,0.01333734659143684,0.9796903980134176
2016-11-18,1,0.004631435476269457,0.00497048740114526,-0.007657913009874204,0.014614474568169533,0.979354490005663
2016-11-22,1,0.007251152591926835,0.008021482213618515,-0.011244112827986898,0.01333734659143684,0.9795838870162765
2016-11-25,1,0.005660871924825657,0.00611818236704232,-0.009761056884176403,0.011117281507301402,0.9814084413645824
2016-11-29,1,0.005070096609589569,0.005433141350361362,-0.007657913009874204,0.011117281507301402,0.9850886540811065
2016-12-01,1,0.0077586523196951345,0.008553084391914777,-0.011244112827986898,0.005932127202700417,0.9871523902465523
2016-12-05,1,0.007323450175710146,0.008004919464253909,-0.011244112827986898,0.006609924163612078,0.9866394694387352
2016-12-07,1,0.006816547315165707,0.007402828479734942,-0.013120553984729862,0.008689374757209978,0.9863404356504211
2016-12-09,1,0.005664010501003434,0.0060337690758584875,-0.015020051413137628,0.008689374757209978,0.9861234689708914
2016-12-13,1,0.005646075390376896,0.0059209182622446555,-0.015020051413137628,0.00524884153570217,0.9857165211123352
2016-12-15,1,0.00401769902038761,0.0040192702974302715,-0.014298699356640507,0.00524884153570217,0.9878212940803037
2016-12-19,1,0.002357614638747215,0.002687490722915643,-0.014298699356640507,0.004471680282481384,0.9888251671679225
2016-12-21,1,0.0008676811145332381,0.0013880102910725832,-0.014298699356640507,0.00524884153570217,0.9892345600122059
2016-12-23,1,0.001041438965883862,0.0014868403600237004,-0.014298699356640507,0.008405153417720966,0.9885549876225963
2016-12-28,1,0.0006758275270349644,0.001125597077092684,-0.014298699356640507,0.008405153417720966,0.9885594033263175
2016-12-30,0,-0.00017495890547521023,0.0003313850201373124,-0.011625085074585133,0.01233761347756696,0.9870893902430369
2017-01-04,1,0.0004842449831116899,0.0009399214324059201,-0.011625085074585133,0.005869291841363833,0.9883049897474957
2017-01-06,1,0.00015838192786322308,0.0006225636552389606,-0.011625085074585133,0.007072169712816957,0.9859020119814821
2017-01-10,1,0.0005703412940933789,0.0008558965760985594,-0.011625085074585133,0.007072169712816957,0.9853177921070249
2017-01-12,1,0.0013366648131793125,0.0014379418583058713,-0.009861510822330482,0.009218425579272365,0.985499162043265
2017-01-17,1,0.0010853405614146003,0.0012088513575227266,-0.009861510822330482,0.011356198962063635,0.98422345098024
2017-01-19,1,5.773599613377199e-05,0.0003438945521663742,-0.009861510822330482,0.011356198962063635,0.9841594434318355
2017-01-23,0,-4.976193452079999e-05,0.00026112859739089403,-0.009406174974559369,0.009607899286785487,0.9850424135017425
2017-01-25,-1,-0.000547481146646789,-7.299057766385814e-05,-0.011952906815675419,0.009607899286785487,0.9835315439635548
2017-01-27,-1,-0.0009397135857305986,-0.0004525754114313753,-0.011075311307877204,0.009607899286785487,0.9833388271330038
2017-01-31,-1,-0.0025952069037350808,-0.0019267898287313734,-0.009406174974559369,0.00977408216284924,0.9844802780992128
2017-02-02,-1,-0.0021814915794210413,-0.0016195547758368033,-0.010929256586191236,0.00977408216284924,0.9841540110066487
2017-02-06,-1,-0.0032607705942072386,-0.002431910819675672,-0.009902128397950323,0.00977408216284924,0.9863678446731693
2017-02-08,-1,-0.002935861663144691,-0.002088286213478775,-0.008906296077234775,0.011518762531390864,0.9799535943949038
2017-02-10,-1,-0.002953983671829445,-0.002083895633745539,-0.012563171578050068,0.010587610349497529,0.9799314244719703
2017-02-14,-1,-0.0017973195086327083,-0.0011309658337830624,-0.016444683959866386,0.010587610349497529,0.9790351325035515
2017-02-16,-1,-0.002893937247052308,-0.002070486402661732,-0.016444683959866386,0.010587610349497529,0.9792225614484996
2017-02-21,-1,-0.003037183069097303,-0.002184990230551121,-0.019084290933449426,0.010587610349497529,0.9787025286822881
2017-02-23,-1,-0.0008207918561472787,-0.00048370558873777367,-0.019084290933449426,0.008087515882464057,0.9799999336027505
2017-02-27,-1,-0.001042908942805647,-0.0006855095752931093,-0.019084290933449426,0.009493398946489822,0.9804396381385924
2017-03-01,1,0.00022185528184892188,0.00042745867131354764,-0.019084290933449426,0.01110333710121032,0.9785583662191524
2017-03-03,-1,-0.0009950919458929979,-0.0005860264297711715,-0.013602522917445948,0.01110333710121032,0.9796256416008212
2017-03-07,-1,-0.0015087484782556533,-0.0009847587823798433,-0.009291333694251,0.01110333710121032,0.9799437339395982
2017-03-09,-1,-0.0042822058356842534,-0.00340656997436716,-0.0068191557953496025,0.01110333710121032,0.9861962030955341
2017-03-13,-1,-0.005257532914814574,-0.004218032126863273,-0.005023275108373561,0.016361917305417018,0.9859561395357547
2017-03-15,-1,-0.004461106888882892,-0.003563410303864891,-0.005023275108373561,0.011799410439700784,0.9879094043670738
2017-03-17,-1,-0.004988540125376122,-0.0040243477350617,-0.006054639811507273,0.011799410439700784,0.9861561245184557
2017-03-21,-1,-0.006603543853022939,-0.005398138419004026,-0.010296391188975483,0.011799410439700784,0.984626571844768
2017-03-23,-1,-0.007709735741399071,-0.0063462067672618375,-0.006054639811507273,0.011799410439700784,0.9842314563265689
2017-03-27,-1,-0.008327707602298097,-0.00683413122240424,-0.004844252043923613,0.018894488278232247,0.9828098881903118
2017-03-29,-1,-0.006423289755780722,-0.005168925800485848,-0.012953909949224572,0.005207592311519678,0.9860662878690093
2017-03-31,-1,-0.004183960285352923,-0.003155974976119688,-0.012953909949224572,0.005207592311519678,0.9866241515687082
2017-04-04,-1,-0.0029527090252567676,-0.0021134774863231444,-0.013478827777705999,0.005207592311519678,0.9867776887041476
2017-04-06,-1,-0.0015980505409170051,-0.0010461015422189653,-0.017913246318802683,0.005207592311519678,0.9854785066486957
2017-04-10,-1,-0.00154606388713214,-0.0009661603897038167,-0.017913246318802683,0.005207592311519678,0.9848861388963622
2017-04-12,-1,-0.0008906687825712659,-0.00045893244775527925,-0.017913246318802683,0.007302593673590178,0.9837407538335505
2017-04-17,-1,-0.0015374368590301423,-0.0010194354713948931,-0.015594052233464196,0.009937506768100872,0.9843907114811672
2017-04-19,-1,-0.0020171241125798113,-0.0015576896719412408,-0.01236494278467621,0.009937506768100872,0.9866709798937218
2017-04-21,-1,-0.0022966045576702752,-0.0017801034822682027,-0.013508492213364797,0.014421841815892452,0.9850279438603419
2017-04-25,-1,-0.0011388704350410337,-0.0007995150623165442,-0.013508492213364797,0.009937506768100872,0.9856612570730993
2017-04-27,-1,-0.00015027153366938212,-0.00014178685035635193,-0.01236494278467621,0.009937506768100872,0.9840445524960351
2017-05-01,1,0.0003768629724785781,0.0004935903879315787,-0.013508492213364797,0.009937506768100872,0.9826641034657145
2017-05-03,1,0.000561718080879153,0.0007132653418124713,-0.013508492213364797,0.008349877626390799,0.9832567038435921
2017-05-05,-1,-0.0005079281262535295,-0.0005047646459714391,-0.013508492213364797,0.006685867290949479,0.9843993867081565
2017-05-09,1,0.0006906924139193155,0.0009144236098419768,-0.015231480739631691,0.0065644794108024,0.9830043107362996
2017-05-11,1,0.00037052603344286847,0.0004919928158870145,-0.011776294677898914,0.0065644794108024,0.9824828984046682
2017-05-15,1,0.0012361441730298604,0.0015056946371139808,-0.011377977492592959,0.0067408734834952435,0.9819183200569719
2017-05-17,1,0.0003936136878338076,0.0005011100337885446,-0.023130509472194076,0.0067408734834952435,0.9801602938110072
2017-05-19,1,0.0009405923537135462,0.0011170575870551392,-0.023130509472194076,0.0067408734834952435,0.9816082155128681
2017-05-23,1,0.0007900214966827179,0.0009288768385454648,-0.02915219114369455,0.0062031851896210575,0.9787714209987086
2017-05-25,-1,-0.002324808514542572,-0.0020296636692011703,-0.028581649746186696,0.0062031851896210575,0.9825681932726105
2017-05-30,-1,-0.0022530702982814107,-0.0020403872589308874,-0.023130509472194076,0.0062031851896210575,0.9832703578262979
2017-06-01,-1,-0.0022602545319962974,-0.0020324342721961333,-0.023130509472194076,0.008071197604430575,0.9822145932900704
2017-06-05,-1,-0.003163081774045483,-0.0028060744054750676,-0.01704874316668139,0.011998256574694026,0.9817980030221067
2017-06-07,-1,-0.004598726159182727,-0.004084382854229327,-0.01704874316668139,0.011998256574694026,0.9827206328925224
2017-06-09,-1,-0.0030661871373640157,-0.002737002228991545,-0.01704874316668139,0.009596797179863378,0.9843305586358723
2017-06-13,-1,-0.0016153157754588369,-0.0014409338669110617,-0.01704874316668139,0.00675990211151316,0.9852718462337182
2017-06-15,-1,-0.0030675973874941705,-0.0027360975906020237,-0.01303384706802841,0.009596797179863378,0.9863743563675539
2017-06-19,-1,-0.0021320694871271033,-0.001954950359511137,-0.01303384706802841,0.00802662648657954,0.9865120791458454
2017-06-21,-1,-0.0045377233853360404,-0.004032584085156243,-0.010826524123544947,0.009596797179863378,0.9865558743407862
2017-06-23,-1,-0.00511419094687046,-0.004470695988543245,-0.012377849889538014,0.009596797179863378,0.9855655945363955
2017-06-27,-1,-0.005703468140898456,-0.004990106504185943,-0.012377849889538014,0.013333525227530143,0.9837063152475434
2017-06-29,-1,-0.003983756142321569,-0.0034741894290998476,-0.012377849889538014,0.010961112523254258,0.9847701626458597
2017-07-03,-1,-0.0023981491560951637,-0.0020099280166952505,-0.01282408728081001,0.006498603614838177,0.985429970236966
2017-07-06,-1,-0.0034876744060214765,-0.0030093470729929657,-0.010949573382607254,0.01070100859130282,0.9846307973106868
2017-07-10,-1,-0.003120803354381994,-0.0027513854415315703,-0.012425138068589024,0.01255321343167583,0.9817815418642083
2017-07-12,-1,-0.0037375126633511814,-0.0032732372579676915,-0.012425138068589024,0.01255321343167583,0.9819358117146776
2017-07-14,-1,-0.002520864580051713,-0.00221995672955916,-0.012462776123058482,0.01070100859130282,0.9823620586761167
2017-07-18,-1,-0.0028644926087412963,-0.002528503524021335,-0.013160197045903547,0.01070100859130282,0.9808699598213402
2017-07-20,-1,-0.000997056149814624,-0.0008674036512162345,-0.022037153191792478,0.007014229685004668,0.980782008343667
2017-07-24,-1,-0.0004796949095251443,-0.0004616239642954639,-0.016848485459020523,0.007014229685004668,0.9811325741870696
2017-07-26,1,0.0003975339943686519,0.000498193891421942,-0.016848485459020523,0.01070100859130282,0.9825080068019703
2017-07-28,1,0.0011445159167285089,0.001359828726464912,-0.016848485459020523,0.007085629175181824,0.9827606273895602
2017-08-01,-1,-0.0005516929158169064,-0.0004458804933704847,-0.012657021350998991,0.007085629175181824,0.9839023929525242
2017-08-03,1,0.0017325380699358454,0.0021157057961259645,-0.012657021350998991,0.005546936007946977,0.9851076841710854
2017-08-07,1,0.0006964264780488433,0.0009898995545919423,-0.011897299749800132,0.005546936007946977,0.9881543120554683
2017-08-09,1,0.00013435172488188163,0.0003462346944290585,-0.009840863612124356,0.007142339955188809,0.9867758644455422
2017-08-11,-1,-0.0004934363911465618,-0.00042125774600798084,-0.009840863612124356,0.011340929517537155,0.984805084505231
2017-08-15,-1,-0.002777421746316842,-0.0025359638605368055,-0.00504714497578855,0.012325490700712661,0.9847664385676688
2017-08-17,-1,-0.004803430426074589,-0.0043401167504276755,0.0005788783751560127,0.012325490700712661,0.9857339372630457
2017-08-21,-1,-0.003015665305920112,-0.002952437493220302,0.0008340457274927104,0.012325490700712661,0.9870266014226207
2017-08-23,-1,-0.0017856511995043638,-0.0016875422069068092,0.0008340457274927104,0.01698217393655036,0.986001529924741
2017-08-25,-1,-0.0009386024161390573,-0.0006647376837977398,0.0016761508898022034,0.021377558381695097,0.9850918819685349
2017-08-29,-1,-0.0010277966681244443,-0.0007132998484372944,0.0018222869755291874,0.02471007030883289,0.9836344422107111
2017-08-31,1,0.0005196721926210891,0.001086412605553,0.0017507590088415258,0.02471007030883289,0.9851975500448216
2017-09-05,1,0.001274749795393265,0.0019331876694637469,0.0020791021102232045,0.02471007030883289,0.9857922889909442
2017-09-07,1,0.0027273366819649736,0.0035364481588843347,0.0016761508898022034,0.018097582009876805,0.9878317541655711
2017-09-11,1,0.0009796792465527448,0.0014286817192257367,0.0016761508898022034,0.018097582009876805,0.9883708745397027
2017-09-13,1,0.0026231269237954784,0.003309450142279982,0.0016761508898022034,0.01336219150658658,0.9905517487366048
2017-09-15,1,0.0037198927123039374,0.004623918951825746,0.000890325289398244,0.01336219150658658,0.9901878468705423
2017-09-19,1,0.0029379008557405273,0.0036940699740169863,0.002213594206519642,0.01336219150658658,0.9900001917869221
2017-09-21,1,0.005313558449664311,0.006379866746581993,-0.001623784720085948,0.009702190189948978,0.9914180342254991
2017-09-25,1,0.006782476483445911,0.00804873607762009,-0.0027305231448196987,0.009702190189948978,0.9907299534626678
2017-09-27,1,0.007537058156020097,0.008814195450828635,-0.006692067888767334,0.007440119576922553,0.9901603115170058
2017-09-29,1,0.007190635476825825,0.008444989061706142,-0.0027305231448196987,0.008342858834922855,0.991194545107382
2017-10-03,1,0.007965157396391833,0.009327580162474279,-0.0027305231448196987,0.008342858834922855,0.9902992394908384
2017-10-05,1,0.008303576419323156,0.009750776951160937,-0.0027305231448196987,0.010615666124892939,0.9875375635132317
