JNU-Tangyin/eata/results/Batch4_SP500/Batch4_SP500-ABMD.csv
Date,Action,Predicted_Q25,Predicted_Q75,Actual_Q25,Actual_Q75,RL_Reward
2010-12-14,0,0.0,0.0,0.0,0.013574992740644748,0.9899942476529465
2010-12-16,1,0.0011643796577732067,0.0015009121936873664,-0.0008134676186721978,0.013574992740644748,0.9905474796730745
2010-12-20,1,0.0009501282936201333,0.0012209027351826854,-0.006947883548050989,0.013574992740644748,0.9881290108261187
2010-12-22,1,0.001978387887033547,0.002366063883680718,-0.01127733338344586,0.013574992740644748,0.9871496143706078
2010-12-27,1,0.0017832964173195285,0.001984288008364003,-0.01127733338344586,0.010970532481292972,0.9874583409391978
2010-12-29,1,0.0008992791715822829,0.0009460771762758964,-0.01127733338344586,0.010970532481292972,0.9874004182018173
2010-12-31,1,2.7739628860983293e-05,0.00014259944275927096,-0.008353304074317704,0.010970532481292972,0.9874418698069198
2011-01-04,0,-6.78131795352144e-05,0.00013527612795029287,-0.008353304074317704,0.013574992740644748,0.9868584951607793
2011-01-06,1,0.0008323077484655785,0.0009465465435593087,-0.008353304074317704,0.015165685009885627,0.980199555327476
2011-01-10,1,0.00028620448092011946,0.0004854021760881493,-0.002222279607487371,0.0161298099159609,0.9799962536207917
2011-01-12,-1,-0.0008697097232377691,-0.0003728592106594763,-0.006582337423815483,0.0161298099159609,0.9803673266365376
2011-01-14,0,0.0,0.0,-0.00297367244052228,0.0161298099159609,0.9806185914773594
2011-01-19,0,0.0,0.0,-0.0020763818035616456,0.0161298099159609,0.9823233557085975
2011-01-21,0,0.0,0.0,-0.0008204716157011754,0.014674280438775746,0.9846734670028183
2011-01-25,0,0.0,0.0,-0.006144644012038307,0.014674280438775746,0.9821172308211829
2011-01-27,-1,-0.0026620772070518476,-0.0021260210588591308,-0.006144644012038307,0.0161298099159609,0.9795089233430381
2011-01-31,0,0.0,0.0,-0.006144644012038307,0.016620828513290057,0.9781590534869188
2011-02-02,0,0.0,0.0,-0.006144644012038307,0.02298977690107479,0.9764184826215478
2011-02-04,0,0.0,0.0,-0.011235050284165089,0.015034162497216673,0.9831040952455401
2011-02-08,0,0.0,0.0,-0.011235050284165089,0.019853707598615072,0.9813260587052757
2011-02-10,0,0.0,0.0,-0.011235050284165089,0.019853707598615072,0.9812426484172054
2011-02-14,0,0.0,0.0,-0.013163964900593496,0.019853707598615072,0.9799893673368608
2011-02-16,1,0.004237640902103936,0.004626543317471057,-0.012547174635713447,0.019853707598615072,0.9796957283750585
2011-02-18,1,0.003952306104214208,0.0042774061096354545,-0.012547174635713447,0.022354799486021364,0.9787238538209545
2011-02-23,1,0.0017800273709217167,0.0018565366404146666,-0.010155011350670925,0.022354799486021364,0.9809830799060265
2011-02-25,1,0.003833633544911036,0.004200391036246687,-0.010155011350670925,0.019853707598615072,0.9835926223149971
2011-03-01,1,0.0032569023661744847,0.003555010707797104,-0.007133646599390539,0.01644849250458562,0.9861321962340391
2011-03-03,1,0.005457461949651629,0.006030815065804728,-0.010155011350670925,0.014040084800275384,0.9866083619491536
2011-03-07,1,0.0038252498938187397,0.004144063913840914,-0.0005154790141277663,0.014954337215075416,0.9877945940651127
2011-03-09,1,0.005701019961788706,0.006252870366116804,-0.0005154790141277663,0.014040084800275384,0.9893160494013843
2011-03-11,1,0.0053939556105044514,0.005917699563521872,-0.0072423700049771824,0.014040084800275384,0.9886643889377145
2011-03-15,1,0.004534456773401134,0.004897983047608648,-0.003419584041910826,0.014954337215075416,0.9870422012117622
2011-03-17,1,0.003976636584960957,0.00420752293077177,-0.006997765581507685,0.014954337215075416,0.9847396222738771
2011-03-21,1,0.004947831153796886,0.005360980241076943,-0.00960209449080021,0.014954337215075416,0.9805210352954657
2011-03-23,1,0.00391235547085532,0.0040945520216630355,-0.00960209449080021,0.010981392103814339,0.9811017806195818
2011-03-25,1,0.004149275837442661,0.0043913709196703055,-0.010526083557204923,0.010981392103814339,0.9799849711376353
2011-03-29,1,0.004588977930221518,0.004957554953360214,-0.010848243879504123,0.017433204657228592,0.9784506646993323
2011-03-31,1,0.005422466267716801,0.006038323761798725,-0.010443294535308434,0.017588710315734196,0.9783187458502905
2011-04-04,1,0.005739195351824622,0.006360645087558605,-0.01163085224431503,0.012870409457118237,0.9764930374675871
2011-04-06,1,0.007018439085022848,0.007826466894853452,-0.01163085224431503,0.001958124306407212,0.9760917999068468
2011-04-08,1,0.005845999395545426,0.006472541867775844,-0.011382485178625565,0.017499662412981266,0.9773111285591071
2011-04-12,1,0.007313392153518485,0.008123248447753039,-0.013395301998720506,0.017499662412981266,0.9777282345182066
2011-04-14,1,0.00565386288591356,0.006285778347834364,-0.011382485178625565,0.019349375864850197,0.9803595795527792
2011-04-18,1,0.006271565708529121,0.006907523149820995,-0.011382485178625565,0.019349375864850197,0.9832858154536177
2011-04-20,1,0.006025224149257028,0.006623103729340115,-0.012127024409636075,0.019349375864850197,0.9831051764269194
2011-04-25,1,0.004878941688556655,0.005275541123797635,-0.011013634601277805,0.019349375864850197,0.9839669730232767
2011-04-27,1,0.004834748898501949,0.005204992979051989,-0.010546945336309722,0.02197486861142637,0.9833716159178042
2011-04-29,1,0.008091819577172612,0.00903894630300988,-0.012127024409636075,0.019349375864850197,0.9841278692205528
2011-05-03,1,0.003399846381150353,0.003404778750299405,-0.010546945336309722,0.019349375864850197,0.9838449137499717
2011-05-05,1,0.0033918344987765147,0.003420634731364969,-0.015475447328914593,0.019349375864850197,0.9821241134320879
2011-05-09,1,0.002977005100932556,0.003089547689042269,-0.020691986318564438,0.01604470157365403,0.981739544183856
2011-05-11,1,0.002536976086784707,0.002699114670952703,-0.015475447328914593,0.013677441353201663,0.9833728928008505
2011-05-13,1,0.0029390066132587624,0.0030713902267391173,-0.020691986318564438,0.010543890240544099,0.9824744758934184
2011-05-17,1,0.0039058077204662733,0.003925204329633694,-0.022311863715765413,0.009279470755081136,0.9827092881462155
2011-05-19,1,0.0034109515923803394,0.0034125884505237045,-0.022311863715765413,0.010743908702138533,0.9826572486497215
2011-05-23,1,0.00331631888438647,0.0033357878100197524,-0.022311863715765413,0.013677441353201663,0.9819900844633909
2011-05-25,1,0.004370390432765709,0.004414571019486174,-0.022311863715765413,0.009346143575612614,0.9821471923694561
2011-05-27,1,0.00336956299920818,0.0034282083631320395,-0.02105822606607933,0.010743908702138533,0.9825472906041283
2011-06-01,1,0.0024017665655039163,0.0025303649208285673,-0.02105822606607933,0.010929715369100063,0.9815201597386124
2011-06-03,1,0.00045030784936061423,0.000828132559395031,-0.013521711915791901,0.01568868749008978,0.9822257729124767
2011-06-07,1,0.00023580639731565788,0.0006174417201355621,-0.009669027965556591,0.014892749706732787,0.983329097711947
2011-06-09,-1,-0.0006924642249415084,-0.0001826869791287805,-0.009964243593929806,0.014892749706732787,0.9831013083366269
2011-06-13,0,0.0,0.0,-0.009964243593929806,0.014892749706732787,0.9833825830167173
2011-06-15,0,0.0,0.0,-0.009964243593929806,0.020165031517679288,0.9836098229509985
2011-06-17,-1,-0.0030868773373785886,-0.002245634392669905,-0.009964243593929806,0.015007615326311698,0.9855635351577854
2011-06-21,-1,-0.00308567300113859,-0.0022358874562075537,-0.01214658089582029,0.015007615326311698,0.9836289707103919
2011-06-23,-1,-0.004793872370453152,-0.003695399316325575,-0.010740469186407453,0.02077347808054696,0.9822874855040624
2011-06-27,-1,-0.003746593095012204,-0.0028330266665930245,-0.015639050844882745,0.015271465030442638,0.9822912411997948
2011-06-29,-1,-0.0017742303320990346,-0.0013410307350378346,-0.015137799219965567,0.015271465030442638,0.9835924820524006
2011-07-01,1,0.00041886208429279485,0.0005484968155133982,-0.01762667548501975,0.005588349344144451,0.9833952001903664
2011-07-06,0,-0.000134531191691622,0.00010563925966043848,-0.019890076026177598,0.0036142065689285688,0.9820140453738115
2011-07-08,-1,-0.0009744998918303114,-0.0006181587570649712,-0.02566100487107122,0.0036142065689285688,0.976057336366402
2011-07-12,-1,-0.0026388212611403775,-0.0020412360144532946,-0.031713788528343514,0.009349036704794991,0.9718180700199088
2011-07-14,-1,-0.002445763101270511,-0.0018640562689720443,-0.04056273929134561,0.010802841238442513,0.9680759357359202
2011-07-18,-1,-0.0042749868123197875,-0.003330132379467786,-0.04056273929134561,0.03621273255117693,0.9619266350058036
2011-07-20,-1,-0.00243967891028968,-0.00182668154229355,-0.04056273929134561,0.03538052494209996,0.9617948732518842
2011-07-22,-1,-0.002680374443108354,-0.002007342422784098,-0.042626041251311184,0.030286226725716972,0.9611898297405734
2011-07-26,-1,-0.0025003073538899068,-0.0019654603849866424,-0.042626041251311184,0.038800374641734144,0.9596099744214801
2011-07-28,-1,-0.0028446136303638208,-0.002212881703134609,-0.04702686836785451,0.038800374641734144,0.9574485085310168
2011-08-01,-1,-0.0033219304128890995,-0.00274944391411911,-0.04702686836785451,0.038800374641734144,0.9556414924599955
2011-08-03,-1,-0.004296643365299626,-0.0035860499903874144,-0.04611975394402135,0.038800374641734144,0.9564811854301027
2011-08-05,-1,-0.009588809051461016,-0.008230497920080189,-0.029406596105912626,0.038800374641734144,0.9602619517428808
2011-08-09,-1,-0.009921041617424572,-0.008528217369187109,-0.026523562041562913,0.03852925272703487,0.9633402607760768
2011-08-11,-1,-0.00978138074920902,-0.008475775652019273,-0.030953787129283355,0.03616402749606928,0.9661660866190012
2011-08-15,-1,-0.0055703326910759975,-0.0047572038884016446,-0.030953787129283355,0.02630400940113603,0.9720152741419068
2011-08-17,-1,-0.00469790838564443,-0.003996197529215126,-0.030953787129283355,0.027370767354831967,0.9704304034253406
2011-08-19,-1,-0.007071752729927991,-0.006097523900775305,-0.030953787129283355,0.027370767354831967,0.9699694536127004
2011-08-23,-1,-0.006616959957901131,-0.005688118521473109,-0.03384335107999221,0.02630400940113603,0.9714519670805181
2011-08-25,-1,-0.007992250818189803,-0.006949093828094327,-0.030953787129283355,0.02432215534975387,0.9740788564720413
2011-08-29,-1,-0.0038591213598969144,-0.003366211766373268,-0.030953787129283355,0.02432215534975387,0.9722669612797451
2011-08-31,-1,-0.003552426605003588,-0.003057714911936172,-0.03384335107999221,0.02176618235173825,0.971143872885314
2011-09-02,-1,-0.0046736220553538,-0.004139618632741532,-0.03384335107999221,0.02176618235173825,0.9692597790548478
2011-09-07,-1,-0.0063427842760244175,-0.00550430304586429,-0.031577428051539284,0.03103180814794849,0.9647150661979649
2011-09-09,-1,-0.007245148948035393,-0.006457039847451175,-0.02533398408315201,0.03103180814794849,0.9670823641993745
2011-09-13,-1,-0.006109937916201771,-0.005461294772038502,-0.028576262895815774,0.037105550825906095,0.9633818176133326
2011-09-15,-1,-0.0032732252995147093,-0.0029336326574747407,-0.029526315802860664,0.037105550825906095,0.9633456939475397
2011-09-19,-1,-0.0038969829145100382,-0.0035083855638590343,-0.029526315802860664,0.037105550825906095,0.9635656812711781
2011-09-21,-1,-0.004289651703384979,-0.003953399574721304,-0.026513610214515995,0.037105550825906095,0.9646311675660744
2011-09-23,-1,-0.006525866052306774,-0.005865495697756097,-0.017219659005517706,0.037105550825906095,0.9660926268730015
2011-09-27,-1,-0.00269804585272479,-0.0024806821226786772,-0.017219659005517706,0.02954330824572025,0.9665265141486188
2011-09-29,-1,-0.004238228701426636,-0.0039258745881194145,-0.011084828272710928,0.05842095553075717,0.9604103611833007
2011-10-03,0,0.0,0.0,-0.011084828272710928,0.05842095553075717,0.964307296344879
2011-10-05,0,-5.422792150728162e-05,0.00023640105363512067,-0.013953208493437952,0.0314924238912683,0.9685426038298864
2011-10-07,-1,-0.00045569501390220056,-0.00016230970091129344,-0.011233045799312237,0.05842095553075717,0.9622231192399346
2011-10-11,0,0.0,0.0,-0.006342021633869487,0.05459618153876543,0.9655155848685851
2011-10-13,1,0.001798133306368342,0.002394647718089239,-0.006342021633869487,0.035517681271045265,0.9680208684955428
2011-10-17,1,0.002374148186970692,0.0031878076483989777,-0.006342021633869487,0.047009660156779896,0.9675766408400505
2011-10-19,1,0.002119669644899279,0.0028101567141721366,-0.011233045799312237,0.047009660156779896,0.9647181779227716
2011-10-21,0,0.0,0.0,-0.015467557834606816,0.047009660156779896,0.9633736735889694
2011-10-25,0,0.0,0.0,-0.02216407246796366,0.04009130034945084,0.9657370841512825
2011-10-27,0,0.0,0.0,-0.02216407246796366,0.016758073444245576,0.9731918818188972
2011-10-31,1,0.004518185573178885,0.0056445036562715,-0.02216407246796366,0.03165291194170118,0.9702175611342059
2011-11-02,1,0.00712464225072054,0.008244418803353033,-0.01490223916311369,0.04009130034945084,0.9692480985363036
2011-11-04,1,0.011391943667459513,0.013025982516878665,-0.01490223916311369,0.0284868769377125,0.9736944303236013
2011-11-08,0,0.0,0.0,-0.01490223916311369,0.02250989656986084,0.9763154160506569
2011-11-10,0,0.0,0.0,-0.01490223916311369,0.030790741327298227,0.9743231901452802
2011-11-14,1,0.011789860598026943,0.013486219219836018,-0.01490223916311369,0.02250989656986084,0.9739610367973617
2011-11-16,1,0.011761201978565665,0.013467736891948502,-0.01490223916311369,0.01623712816893395,0.9745936303782743
2011-11-18,1,0.010768715425675451,0.012290557075078302,-0.022303057360976496,0.01623712816893395,0.9720801173232456
2011-11-22,1,0.009609919075898688,0.011050732283351572,-0.01733876778184913,0.01623712816893395,0.973479761089025
2011-11-25,1,0.009124550822419053,0.01052059512313738,-0.01733876778184913,0.02250989656986084,0.9736982966994882
2011-11-29,1,0.011497255870086563,0.013175847206893947,-0.01733876778184913,0.002941188007691019,0.9743873888606445
2011-12-01,1,0.012506674841005514,0.014254689827434525,-0.01733876778184913,0.005453286891698609,0.9766235579671521
2011-12-05,1,0.01291432229394441,0.014716799972596622,-0.01733876778184913,-0.00059627115777392,0.975012679871712
2011-12-07,1,0.012972580299998038,0.014776287533593072,-0.01733876778184913,-0.0008007254843609304,0.9744630814600023
2011-12-09,1,0.013717679169356645,0.01563666989175439,-0.012919096870307602,-0.0010601696277919538,0.976715577631641
2011-12-13,1,0.012822430395071211,0.014645406805905852,-0.011602775491323599,0.004390791133256103,0.9794657721921215
2011-12-15,1,0.010875362448214762,0.012363860676123337,-0.008731192232054763,0.004390791133256103,0.9821472532922724
2011-12-19,0,0.0,0.0,-0.0062723758752248416,0.005453286891698609,0.9907929868085271
2011-12-21,0,0.0,0.0,-0.0062723758752248416,0.005453286891698609,0.9895493984382406
2011-12-23,1,0.006223575076302089,0.007186407414398574,-0.0062723758752248416,0.007420014813123103,0.9896540405421851
2011-12-28,1,0.002675224334799209,0.002775466872337921,-0.008731192232054763,0.007420014813123103,0.9886812370248044
2011-12-30,1,0.002204802529367782,0.0022113102294078774,-0.013182659042418379,0.008441472927006945,0.9848988731635127
2012-01-04,0,-0.00020359612439601747,0.00010589059316223079,-0.009585942188999656,0.013265816598980613,0.9840647424314233
2012-01-06,0,0.0,0.0,-0.006308557823507,0.019188241055461856,0.9762931468839757
2012-01-10,1,0.002985925947838714,0.0031216995363122545,-0.0058976075665360395,0.024476470210124494,0.9756542587223883
2012-01-12,1,0.0016343046319865994,0.0017961989053105031,-0.01571420828868598,0.024476470210124494,0.9747171775402343
2012-01-17,0,0.0,0.0,-0.009404778352370928,0.029631486630985346,0.973102803709214
2012-01-19,0,0.0,0.0,-0.01571420828868598,0.029631486630985346,0.9729051037999921
2012-01-23,0,0.0,0.0,-0.017369922653717777,0.029631486630985346,0.9719609402358442
2012-01-25,0,0.0,0.0,-0.017369922653717777,0.029631486630985346,0.9725738819284871
2012-01-27,-1,-0.0011006696270526642,-0.000606158880433826,-0.01538740243082096,0.03387104690855065,0.9727266100748636
2012-01-31,0,-0.0001797523274085942,0.0002445662831486201,-0.017246872561135173,0.028440213786215467,0.9743996749675491
2012-02-02,-1,-0.0007380507799515307,-0.00013312435282818603,-0.022654103141866874,0.01607228653123513,0.97437332849884
2012-02-06,0,0.0,0.0,-0.02494981877534126,0.002025060406722407,0.980317468385164
2012-02-08,0,0.0,0.0,-0.02494981877534126,0.0057986766770308975,0.978230418608413
2012-02-10,1,0.005070678299058551,0.005182157612089955,-0.02494981877534126,0.012957712141882235,0.9759821482785794
2012-02-14,0,0.0,0.0,-0.02494981877534126,0.012957712141882235,0.9778709876969255
2012-02-16,0,0.0,0.0,-0.02274087244526174,0.02165519692823553,0.9778610246285995
2012-02-21,1,0.0013142795564859723,0.0017541176528368737,-0.013597709222979251,0.02165519692823553,0.9803843009302095
2012-02-23,0,0.0,0.0,-0.010998898780396973,0.026440275956704316,0.9794703763956287
2012-02-27,-1,-0.0025087290024884278,-0.0014797628266675373,-0.010998898780396973,0.023445626214665335,0.9809314117084659
2012-02-29,0,0.0,0.0,-0.010998898780396973,0.023445626214665335,0.9803432266112415
2012-03-02,0,0.0,0.0,-0.010311828312835784,0.023445626214665335,0.9819740806884407
2012-03-06,0,0.0,0.0,-0.009044167857588424,0.023445626214665335,0.9831588007505634
2012-03-08,0,0.0,0.0,-0.009625633469349313,0.012411941758632593,0.9856562133028711
2012-03-12,0,0.0,0.0,-0.01319790802803383,0.002591404495474319,0.9848632146069249
2012-03-14,0,0.0,0.0,-0.011296494794017764,0.007277224369596898,0.9854740983972892
2012-03-16,0,0.0,0.0,-0.014290680244231645,0.0020128068987190504,0.9861525419195329
2012-03-20,0,0.0,0.0,-0.014290680244231645,0.007277224369596898,0.9856147467102148
2012-03-22,0,0.0,0.0,-0.014290680244231645,0.007277224369596898,0.9857823394256141
2012-03-26,0,0.0,0.0,-0.014290680244231645,0.010648918187978291,0.9837974971677002
2012-03-28,0,-3.1344846997123903e-05,0.0004211379670589087,-0.009044167857588424,0.022426863901970417,0.9830165832203868
2012-03-30,1,0.0026023168110400723,0.0026855889098481222,-0.009644150785528273,0.022426863901970417,0.9822995192896108
2012-04-03,1,0.0033742820128118316,0.003620540996164049,-0.012556966853463783,0.022426863901970417,0.9817297847177238
2012-04-05,1,0.0006967064761402596,0.0007639930104882947,-0.012556966853463783,0.022426863901970417,0.9817645973422082
2012-04-10,-1,-0.0008096867321057805,-0.0005734701100468362,-0.007965685347543217,0.022426863901970417,0.9826743303851178
2012-04-12,1,1.3979073212693947e-05,0.00015313762944896183,-0.007965685347543217,0.021603918899308912,0.9822203705653776
2012-04-16,-1,-0.0011421650566648235,-0.0008383680006265851,-0.007965685347543217,0.021603918899308912,0.9815465242513726
2012-04-18,0,0.0,0.0,-0.01308781370807656,0.02537572009133617,0.9802131381161229
2012-04-20,0,0.0,0.0,-0.01308781370807656,0.021603918899308912,0.9816285615143959
2012-04-24,1,0.002025164347714026,0.0021442415427523876,-0.018236509905386847,0.01840795871753783,0.9782977357212088
2012-04-26,0,0.0,0.0,-0.01951343013479961,0.00999371095405463,0.9806536088539163
2012-04-30,0,0.0,0.0,-0.022009288964686607,0.008471824509457871,0.97919885118134
2012-05-02,0,0.0,0.0,-0.01951343013479961,0.0032313782447527337,0.9796188219288624
2012-05-04,1,0.004112299041791171,0.004681145863581447,-0.01951343013479961,0.014129442356323598,0.9740629159234003
2012-05-08,1,0.002978220178883965,0.0032889165613145446,-0.01951343013479961,0.02178839360950911,0.9723982606282895
2012-05-10,1,0.003486071098717317,0.003789286049396324,-0.01951343013479961,0.024440041236801414,0.9724140943221546
2012-05-14,0,0.0,0.0,-0.01951343013479961,0.024440041236801414,0.9734377910998866
2012-05-16,1,0.00021242799948535706,0.000498761292091627,-0.019864940991161095,0.022811668855769556,0.9735656351855275
2012-05-18,1,0.0003128285163691558,0.0005411332743770105,-0.021064487448925202,0.026050817584321744,0.971360297347707
2012-05-22,0,0.0,0.0,-0.01911642931382747,0.022811668855769556,0.9766258925780217
2012-05-24,0,0.0,0.0,-0.021064487448925202,0.022811668855769556,0.9755303389351433
2012-05-29,0,0.0,0.0,-0.021064487448925202,0.022811668855769556,0.9761739994641134
2012-05-31,0,0.0,0.0,-0.021064487448925202,0.026050817584321744,0.9751964878336943
2012-06-04,0,0.0,0.0,-0.0075357650972186375,0.029127223167923218,0.9773766417931986
2012-06-06,0,0.0,0.0,-0.0075357650972186375,0.022811668855769556,0.980652175048658
2012-06-08,0,0.0,0.0,-0.012035127576635855,0.016110789970218187,0.9812903584036464
2012-06-12,0,0.0,0.0,-0.0009470031644764395,0.016110789970218187,0.9826415958038822
2012-06-14,0,0.0,0.0,0.0003261164312540197,0.01711708554888896,0.9833712729663736
2012-06-18,-1,-0.13138697277535744,-0.12706749494573236,-0.004372877411132733,0.010692550407967466,0.8812301788556707
2012-06-20,-1,-0.003935864623855316,-0.0030799771117426622,-0.007494285477797252,0.009827204410222942,0.9851933981266029
2012-06-22,-1,-0.004560701930297607,-0.0037082674176951887,-0.009130659890267904,0.009827204410222942,0.985258120861816
2012-06-26,-1,-0.004107885015549053,-0.003376960827727183,-0.009150787989532703,0.008164877620228033,0.9856328732342033
2012-06-28,0,0.0,0.0,-0.009150787989532703,0.008164877620228033,0.9864915222260981
2012-07-02,0,0.0,0.0,-0.009150787989532703,0.007896972300044956,0.9888511277736269
2012-07-05,0,0.0,0.0,-0.009150787989532703,0.007987110389270134,0.9881836472639177
2012-07-09,0,0.0,0.0,-0.009150787989532703,0.008842471971873541,0.9864772387845465
2012-07-11,0,0.0,0.0,-0.010901888423567251,0.00839429047324011,0.9852738458110702
2012-07-13,0,0.0,0.0,-0.018048412242473277,0.00839429047324011,0.9847371382947895
2012-07-17,0,0.0,0.0,-0.025078376126850627,0.00839429047324011,0.9824607807349152
2012-07-19,0,0.0,0.0,-0.02917104242641643,0.008781362015671382,0.9805691608330127
2012-07-23,1,0.0005577595906105432,0.0007182856514858641,-0.025078376126850627,0.015940295536274445,0.9778764326902699
2012-07-25,-1,-0.001573459674394297,-0.001062043875317655,-0.01950122707762582,0.015940295536274445,0.9784177204337219
2012-07-27,-1,-0.0020358404956496087,-0.0013896159375582807,-0.01950122707762582,0.016553225100550514,0.9782146153643284
2012-07-31,1,0.0007316248194663008,0.0008852478996489196,-0.01950122707762582,0.017850735365208984,0.9780471908309554
2012-08-02,1,0.0019315413398511652,0.0019884692673461015,-0.01950122707762582,0.016553225100550514,0.9783106190843873
2012-08-06,1,0.001320737834044751,0.0013216931372492112,-0.01747374365199814,0.01846125545915886,0.9790429981980477
2012-08-08,1,0.0002313433567327261,0.0003278880105485094,-0.011520293798712566,0.02207254602470415,0.9790874685270168
2012-08-10,-1,-0.000799845733710524,-0.0005934700738732988,-0.01747374365199814,0.02207254602470415,0.9747022827240934
2012-08-14,-1,-0.001884190284993524,-0.0016242229274628186,-0.011520293798712566,0.02207254602470415,0.9765175960317635
2012-08-16,-1,-0.002880202765231585,-0.0025526699796298577,-0.011520293798712566,0.02484901217687954,0.975913194341344
2012-08-20,1,0.0006924202300072892,0.0006940059902408082,-0.011520293798712566,0.021992850268530692,0.9804096889242695
2012-08-22,-1,-0.00049745641019802,-0.0003363621206895132,-0.003136869417709913,0.021992850268530692,0.9800908135429636
2012-08-24,1,0.0002762497141174284,0.00034839683145733425,-0.011520293798712566,0.02484901217687954,0.9789324343630663
2012-08-28,1,0.0007176769659926734,0.0008026419503707576,-0.01865166696350838,0.02484901217687954,0.9772964349599134
2012-08-30,-1,-0.0013228888169113135,-0.0009087797086240368,-0.02141056521065459,0.02484901217687954,0.9769632227951559
2012-09-04,1,0.0007394970578155773,0.0008652147245922931,-0.02141056521065459,0.01538611411595143,0.978097157516143
2012-09-06,1,0.0005520316552390894,0.0007487401386324253,-0.02141056521065459,0.010421170613924377,0.9789845848063785
2012-09-10,-1,-0.0033718488826117183,-0.0027267113764085906,-0.010341638146370458,0.010421170613924377,0.9842361598772189
2012-09-12,-1,-0.0022492603963624987,-0.0017955883796674625,-0.013445930775280387,0.014818794547518074,0.9828445662534545
2012-09-14,-1,-0.0013940686769770508,-0.0011932020604394759,-0.011286665216183621,0.010204011474749648,0.9848758058559547
2012-09-18,1,0.0016661387517120274,0.001989295974688161,-0.011286665216183621,0.014818794547518074,0.9840172979766674
2012-09-20,1,0.0023234358827730808,0.0027210875862609257,-0.015550237362468383,0.011805332484256126,0.9829535926454953
2012-09-24,1,0.0020873516251817205,0.0024075738229235796,-0.018104374913460893,0.003846713590848282,0.9821051337846902
2012-09-26,0,0.0,0.0,-0.01758155727248148,0.000996828596239313,0.985166895086584
2012-09-28,0,0.0,0.0,-0.015550237362468383,0.003846713590848282,0.9855857378602536
2012-10-02,0,0.0,0.0,-0.01758155727248148,0.009255183012387293,0.9791079724503523
2012-10-04,-1,-0.0006628039169907088,-0.000651101285103074,-0.02015170123568213,0.013816791919576025,0.9779066685331462
2012-10-08,-1,-0.0010664106328735642,-0.0010606207025582238,-0.021720637127080174,0.013816791919576025,0.9771968386642984
2012-10-10,-1,-0.0011524624751907114,-0.0011305032306891333,-0.01942054909874065,0.013816791919576025,0.9774436570038512
2012-10-12,-1,-0.002236132203967192,-0.002053315113218802,-0.01942054909874065,0.018166859178319006,0.9773813137686218
2012-10-16,0,0.0,0.0,-0.01942054909874065,0.013749462679078315,0.9782801228503979
2012-10-18,0,0.0,0.0,-0.01942054909874065,0.018166859178319006,0.9775977975445388
2012-10-22,0,0.0,0.0,-0.014317167140537514,0.018166859178319006,0.9797062871299504
2012-10-24,-1,-0.00611752449080552,-0.005417213840439559,-0.013311250681707382,0.018787367594672123,0.9784012743624684
2012-10-26,0,0.0,0.0,-0.014317167140537514,0.02097208525635849,0.9773834095648591
2012-11-01,0,0.0,0.0,-0.015071865332020734,0.018787367594672123,0.9816535938258548
2012-11-05,-1,-0.0070367111830157945,-0.006203577815737368,-0.015071865332020734,0.020110326654117404,0.980890401820702
2012-11-07,-1,-0.00826015943985532,-0.007275978003911034,-0.014317167140537514,0.020110326654117404,0.9809396628757749
2012-11-09,-1,-0.006959765733760698,-0.006155704569954007,-0.015071865332020734,0.020110326654117404,0.9779849818701658
2012-11-13,-1,-0.006803747544522553,-0.006060081242657915,-0.0197435147656864,0.02117427618095442,0.9755004179886151
2012-11-15,-1,-0.0061220210714229145,-0.005404007035922177,-0.020727751266576555,0.020110326654117404,0.9761408489284925
2012-11-19,-1,-0.005879027030914027,-0.0051798622257952075,-0.020727751266576555,0.020110326654117404,0.9758640524073937
2012-11-21,-1,-0.004651363586989777,-0.004184238819391889,-0.020727751266576555,0.020110326654117404,0.9756344456616466
2012-11-26,-1,-0.001977136115713634,-0.00195450198050811,-0.020727751266576555,0.011230288880317178,0.9767422923165237
2012-11-28,-1,-0.0007006043122403753,-0.0005390539792545689,-0.016559588690530324,0.008134771447643891,0.97911524189792
2012-11-30,-1,-0.004438480462093038,-0.0041427263400263415,-0.012800010749516182,0.008134771447643891,0.9805585720726884
2012-12-04,-1,-0.004547253044289301,-0.004279693799620376,-0.012800010749516182,0.008134771447643891,0.9817316284051363
2012-12-06,-1,-0.004369492302891594,-0.004175854949571924,-0.012066660592485156,0.008134771447643891,0.9819707980197258
2012-12-10,-1,-0.0004136521837718087,-0.0001265927297074553,-0.012066660592485156,0.007575322554531754,0.9862248489989802
2012-12-12,-1,-0.002367827623810973,-0.0023655079493506976,-0.012066660592485156,0.007089793851135654,0.9883817000208769
2012-12-14,-1,-0.003713598910028827,-0.0034998562459497987,-0.011992360932487695,0.007089793851135654,0.98861329528219
2012-12-18,-1,-0.0025534104559026185,-0.002421247891662162,-0.011992360932487695,0.007575322554531754,0.9880102681131869
2012-12-20,-1,-0.0013676009647819406,-0.0013218255037769655,-0.012249593673461895,0.005037193788559999,0.9870544931345552
2012-12-24,-1,-0.0009144026151326586,-0.0007559588020275258,-0.012249593673461895,0.008677828897856009,0.9853389440892331
2012-12-27,1,0.00023286679230814073,0.0006241719052695667,-0.012249593673461895,0.012431629600512,0.9838014576742792
2012-12-31,-1,-0.00033574136798890516,-9.93374732837282e-05,-0.01351422760422682,0.015679698701109496,0.9824692182869269
2013-01-03,-1,-0.0013484732583059508,-0.0013178509552032838,-0.011992360932487695,0.016781244223969448,0.982079239071456
2013-01-07,-1,-0.0014157105039505284,-0.0013997814365739993,-0.005380269845520088,0.02502658395776266,0.9808492039396367
2013-01-09,-1,-0.003784620671684339,-0.0034511365930334067,-0.005380269845520088,0.02502658395776266,0.9777835967884135
2013-01-11,-1,-0.00657794166405481,-0.005815716293589641,-0.0023474215125211277,0.02502658395776266,0.9772535664642075
2013-01-15,-1,-0.003557909508732878,-0.003398405348645792,0.0005314259110549705,0.031212067838897833,0.9767143063119517
2013-01-17,-1,-0.001877556053697257,-0.0018564944860722551,-0.0023474215125211277,0.021618912333418772,0.9802927071327324
2013-01-22,-1,-0.002059081640498372,-0.0020420251079442215,-0.002997222057351243,0.021618912333418772,0.9802837242289816
2013-01-24,1,0.0004408642109663989,0.0008581617296382271,-0.002997222057351243,0.020472685824070573,0.9811900490338372
2013-01-28,1,0.0014588299908134543,0.0019758704661321006,-0.002997222057351243,0.019622317245439967,0.9821585209682628
2013-01-30,1,0.0017754549846605485,0.0024292180125053495,-0.002997222057351243,0.023948204612604992,0.979132722442062
2013-02-01,1,0.003622950775500872,0.004546859669098216,-0.004425466763486046,0.019622317245439967,0.979982871171772
2013-02-05,1,0.0024930512242592223,0.0030153449739760267,-0.009291512893799647,0.019622317245439967,0.9795871985412183
2013-02-07,1,0.0006040953363750278,0.0008942595063155473,-0.004425466763486046,0.023948204612604992,0.981193959430124
2013-02-11,1,0.0011086083545738935,0.0014431339789031273,-0.004425466763486046,0.027848478603735703,0.9803614621260657
2013-02-13,1,0.003959281546145363,0.004767272508794027,-0.008893723235088715,0.027848478603735703,0.9804857020211929
2013-02-15,0,0.0,0.0,-0.013458632453330758,0.027848478603735703,0.9785208843369587
2013-02-20,0,0.0,0.0,-0.007903823231918388,0.027848478603735703,0.9798397089050918
2013-02-22,0,0.0,0.0,-0.007903823231918388,0.025297372867843892,0.9812828387680959
2013-02-26,0,0.0,0.0,-0.007903823231918388,0.024696387423577396,0.9804518690579357
2013-02-28,0,0.0,0.0,-0.006665985908801079,0.022856534972646534,0.9840330743269642
2013-03-04,0,0.0,0.0,-0.010091142785108843,0.022856534972646534,0.982452742843474
2013-03-06,0,0.0,0.0,-0.010091142785108843,0.019628641271043516,0.982675132720511
2013-03-08,0,0.0,0.0,-0.010712643582435597,0.015746783319401,0.9838278120787889
2013-03-12,0,0.0,0.0,-0.014750115729084983,0.015147909635404197,0.983055587316351
2013-03-14,0,0.0,0.0,-0.012401916516900754,0.012615921362091661,0.9848932371930079
2013-03-18,0,0.0,0.0,-0.012401916516900754,0.012615921362091661,0.984423202655193
2013-03-20,1,0.006304240058183435,0.007139576768874197,-0.018483219496403424,0.015147909635404197,0.9792630281986178
2013-03-22,1,0.00620427369877493,0.006949097099158679,-0.018483219496403424,0.01694272660663904,0.9788590813001006
2013-03-26,0,0.0,0.0,-0.018483219496403424,0.012615921362091661,0.9806588578606639
2013-03-28,0,0.0,0.0,-0.018483219496403424,0.010115062707237448,0.9815021208134126
2013-04-02,0,0.0,0.0,-0.006837812040318932,0.012615921362091661,0.9822298022415145
2013-04-04,0,0.0,0.0,-0.00430384119277951,0.015147909635404197,0.9806238412276499
2013-04-08,0,0.0,0.0,-0.00430384119277951,0.01435474367557783,0.9807651808990167
2013-04-10,0,0.0,0.0,-0.00430384119277951,0.014957144597239585,0.981906637379704
2013-04-12,0,0.0,0.0,-0.00430384119277951,0.023764075793605195,0.9778752013543783
2013-04-16,0,0.0,0.0,-0.00430384119277951,0.027964948016523286,0.977385989103147
2013-04-18,0,0.0,0.0,-0.0040961901086981065,0.023764075793605195,0.9820229282243377
2013-04-22,0,0.0,0.0,-0.00494489080224394,0.020607600364016238,0.9829391361766278
2013-04-24,0,0.0,0.0,-0.006016720982670902,0.020607600364016238,0.9801812899112542
2013-04-26,0,0.0,0.0,-0.006016720982670902,0.020607600364016238,0.9800079752042753
2013-04-30,0,0.0,0.0,-0.006555600240436657,0.016811288351966568,0.979042818295669
2013-05-02,0,0.0,0.0,-0.00821912232663223,0.015787795160080026,0.9811907696722955
2013-05-06,0,0.0,0.0,-0.008906203863419088,0.01595020903552588,0.9799186346734604
2013-05-08,0,0.0,0.0,-0.009637613292552746,0.014271805170054525,0.9800665068011947
2013-05-10,0,0.0,0.0,-0.009637613292552746,0.010132380108878299,0.9845153351189189
2013-05-14,0,0.0,0.0,-0.0100401282453745,0.008863099493882877,0.9865134040675884
2013-05-16,1,0.0,0.01053662491390116,-0.0100401282453745,0.010132380108878299,0.9865471680957993
2013-05-20,0,0.0,0.0,-0.009516442950030807,0.011962285451455295,0.9850064502189284
2013-05-22,0,0.0,0.0,-0.009516442950030807,0.011962285451455295,0.9865449020401393
2013-05-24,0,0.0,0.0,-0.014463073047276585,0.009473067941408541,0.9850071266844269
2013-05-29,1,0.004216077486950767,0.004361183964330946,-0.012335909981224325,0.01244671397834705,0.9859129268008939
2013-05-31,1,0.004092250485892691,0.0041811436086699105,-0.012335909981224325,0.01028208406149119,0.9869088105715191
2013-06-04,1,0.002060614498306498,0.002299142030189192,-0.01172389312992219,0.01028208406149119,0.9870618303945407
2013-06-06,1,0.0008353503836352634,0.0013160314431833388,-0.005403335542892835,0.00977528479107181,0.9877987104033591
2013-06-10,1,9.611753564112472e-05,0.0006720033925467462,-0.003999894240637717,0.012460047260728559,0.9860802330063286
2013-06-12,1,7.971882235499909e-05,0.0005817387368375175,-0.0005323740185627702,0.012460047260728559,0.9854961194913413
2013-06-14,1,0.0004264716397927703,0.0009450806355103302,-0.0005323740185627702,0.012460047260728559,0.9859619015910103
2013-06-18,1,0.0013556038960147346,0.001706967425431076,-0.0013330672549375267,0.015285825964744282,0.985439202539349
2013-06-20,1,0.0006975140057609624,0.0010809286685569256,5.505164391933579e-05,0.015285825964744282,0.9857298886833533
2013-06-24,-1,-0.0017836615902123596,-0.0010695460685235495,0.001687744816351725,0.015285825964744282,0.9866920221832859
2013-06-26,0,-0.00019353196784881806,0.00027127773447134453,0.00040829761210348526,0.012344744596300188,0.9883888209472691
2013-06-28,1,0.0005604894009991167,0.000901826072392713,-0.00050986323067374,0.012344744596300188,0.9889836368387552
2013-07-02,0,-0.00028195234118901023,0.00024688907904298475,0.00040829761210348526,0.012304023498763307,0.9900051850815647
2013-07-05,1,0.0003943145719032938,0.0008233108455034603,-0.003978586411070495,0.012304023498763307,0.9869705862847853
2013-07-09,1,0.002067453658367194,0.0022450394014337377,-0.006703055659129374,0.007387280936195674,0.987457118535254
2013-07-11,1,0.0005658898112340411,0.0009504088235092014,-0.006703055659129374,0.009281430435080312,0.9872533159279113
2013-07-15,1,0.0007362361532002898,0.0011816772849251467,-0.006703055659129374,0.007387280936195674,0.9880956047029107
2013-07-17,1,0.002330779106515401,0.0025422035049229162,-0.006703055659129374,0.009281430435080312,0.9877442730145252
2013-07-19,1,0.0019967354675664096,0.00222873815775077,-0.015107960615752734,0.009281430435080312,0.9859558360032076
2013-07-23,1,0.002577044502607721,0.002671530756269349,-0.015107960615752734,0.009281430435080312,0.9852936025569126
2013-07-25,1,0.0020917679608504474,0.0022648809697474485,-0.015107960615752734,0.009919521069323431,0.9852684838430766
2013-07-29,1,0.0021914181219733126,0.002339450244732967,-0.015107960615752734,0.011953078613064565,0.9841580045494502
2013-07-31,1,0.0033688600786503705,0.0034423842093315314,-0.017591935551384476,0.009919521069323431,0.9825463886458263
2013-08-02,1,0.0005958752401317248,0.0007982208378695448,-0.009938488013864318,0.012204611952565222,0.9848762053411403
2013-08-06,1,0.0005168729072360262,0.0007098843611025843,-0.007131366580137136,0.014996350291488615,0.9850727437198685
2013-08-08,-1,-0.0006671991848780758,-0.00029507540305998415,-0.006361134746545809,0.014996350291488615,0.986167942148912
2013-08-12,-1,-0.0006370664118240702,-0.00022958765809005495,-0.007131366580137136,0.010977773249157876,0.9863900584330795
2013-08-14,1,0.0006082747685124425,0.0008470126699528801,-0.011168778760144573,0.006798915455901386,0.9860188558839772
2013-08-16,-1,-0.0004215606047211571,-0.00011966944737076639,-0.007131366580137136,0.010722619098705711,0.986921970534982
2013-08-20,-1,-0.0004909124705567243,-0.00020163024439430412,-0.007541463495563888,0.010722619098705711,0.9863347524322101
2013-08-22,-1,-0.0016504856331939714,-0.0011250436206353635,-0.016910267145645815,0.010042371896482124,0.9835458068910525
2013-08-26,-1,-0.0015047964559968831,-0.0009331261122813414,-0.019063113774640268,0.010042371896482124,0.9764715741195161
2013-08-28,-1,-0.002541218364354343,-0.001844295510485949,-0.019063113774640268,0.010042371896482124,0.9746051452935864
2013-08-30,-1,-0.0023025965726040203,-0.0015471665880386811,-0.019063113774640268,0.010042371896482124,0.9756495022779617
2013-09-04,-1,-0.0016108025802594357,-0.0009496181218527344,-0.019063113774640268,0.006560925917913133,0.9758139377559517
2013-09-06,-1,-0.00335796156828723,-0.002390091767793882,-0.019063113774640268,0.009184068144432163,0.9753962851501312
2013-09-10,-1,-0.003143571106547346,-0.002239012584106164,-0.019063113774640268,0.01197534973439998,0.9742008772970473
2013-09-12,-1,-0.004451764969695809,-0.003459325350791895,-0.016040965819717114,0.01197534973439998,0.9746983716027072
2013-09-16,-1,-0.0033307012064526494,-0.00245765747989262,-0.016040965819717114,0.009294338614070015,0.975037977228071
2013-09-18,-1,-0.004102250226724685,-0.003135826825618866,-0.013626150216335887,0.011204203426297563,0.9751093100687065
2013-09-20,-1,-0.0072934657154974224,-0.006003837538930733,-0.01205014351201325,0.011204203426297563,0.9768769840513695
2013-09-24,-1,-0.005902412643870578,-0.0049291854198926875,-0.009791116943900443,0.009294338614070015,0.9851394423071023
2013-09-26,-1,-0.009675815009144335,-0.008281053590481893,0.000823111256600883,0.012732583031170254,0.9845972744003545
2013-09-30,-1,-0.007947462643632828,-0.006798781637244029,0.000823111256600883,0.013213136832574421,0.9851476701064343
2013-10-02,-1,-0.005961325195547534,-0.005239988264063779,0.001863077061905543,0.013213136832574421,0.9860040691959231
2013-10-04,-1,-0.004177978798284993,-0.0037451289295524818,0.001863077061905543,0.01892092449695998,0.9821822226664298
2013-10-08,-1,-0.003043059107027036,-0.002746329605363285,-0.004258342578831959,0.018870373199142903,0.9825292020811585
2013-10-10,-1,-0.00271374906022167,-0.0024592023793787885,0.0026148645312163163,0.020165483926757436,0.9798496057608441
2013-10-14,-1,-0.002955416931213005,-0.0025492847521917487,-0.002183809256651475,0.020165483926757436,0.9793634120060152
2013-10-16,-1,-0.002642060693355346,-0.0022973249647610054,0.004345553226433133,0.020165483926757436,0.9793870366910417
2013-10-18,-1,-0.0038599465756830177,-0.003302445350798984,0.004399101963518941,0.020165483926757436,0.9784956392808267
2013-10-22,-1,-0.0033868743906372047,-0.0029155862646019987,0.004399101963518941,0.020165483926757436,0.9780327569088947
2013-10-24,-1,-0.002143845981648046,-0.0017704409058556954,-0.00018460366629405474,0.02045101560993088,0.9786189305256088
2013-10-28,-1,-0.0007345886968341507,-0.0005318196468146945,-0.002183809256651475,0.015961689575391458,0.9791689588003483
2013-10-30,-1,-0.0008715692031051263,-0.0006388954419809243,-0.0009911001527226158,0.015961689575391458,0.9789729362274324
2013-11-01,1,0.0034995958974857596,0.0037707229341684056,-0.004901608355797116,0.012564198827174952,0.9843970280412906
2013-11-05,1,0.004197266095950544,0.004651380364492739,-0.004901608355797116,0.012010779830924929,0.9848825466699609
2013-11-07,1,0.007241803435139983,0.008133420798138372,-0.004901608355797116,0.010274317861869761,0.9872335885275031
2013-11-11,1,0.008073765708134086,0.009014742028353246,-0.014871336591042698,0.010067822462189818,0.9878691512017089
2013-11-13,1,0.007508167710163318,0.008235521776848189,-0.017546963702962555,0.009880628375440084,0.9858593512658282
2013-11-15,1,0.007587834209521922,0.008384895434772565,-0.017546963702962555,0.007878943358272964,0.9862888456623723
2013-11-19,1,0.007159431746993742,0.0079321814959061,-0.010497831217821814,0.007878943358272964,0.9859819571287848
2013-11-21,1,0.008941690006783092,0.009988238588068615,-0.017546963702962555,0.007878943358272964,0.9842602351750054
2013-11-25,1,0.008696259086717499,0.009738202202701926,-0.01385999443287387,0.007878943358272964,0.9845692273126064
2013-11-27,1,0.009716541500291293,0.010976715668139956,-0.01385999443287387,0.004625907612992701,0.9833768865206587
2013-12-02,1,0.008272541289320005,0.009286760931400396,-0.01385999443287387,0.007878943358272964,0.9840544399310606
2013-12-04,1,0.00788070949779993,0.008920108875495842,-0.009378953744166035,0.008325795412687347,0.9858984366164433
2013-12-06,1,0.008790444968584027,0.010030569438960815,-0.009378953744166035,0.009582296172425835,0.9858767317954373
2013-12-10,1,0.008166819722456559,0.009314357857485397,-0.006765887566164248,0.015812928974589472,0.9851002854053048
2013-12-12,1,0.006865971069636134,0.007835890020443976,-0.006765887566164248,0.016346350095172338,0.985355551637243
2013-12-16,1,0.006780416215419048,0.007733527415374638,-0.009378953744166035,0.016346350095172338,0.983622004280858
2013-12-18,1,0.007795555545981862,0.008889925743262165,-0.013338387895534596,0.015710283176470392,0.9838220262504221
2013-12-20,1,0.0076279073014289284,0.008739090627136053,-0.009348182351195021,0.012674372086700253,0.9855130017925893
2013-12-24,1,0.005616490673242403,0.0062423177068051255,-0.012487656225259644,0.010622705813968021,0.9843391683080378
2013-12-27,1,0.004648930374409665,0.005081903464476203,-0.012487656225259644,0.010622705813968021,0.9848497245770763
2013-12-31,1,0.003587625096881429,0.0038551976892320533,-0.011999537416866319,0.010622705813968021,0.9848952518515389
2014-01-03,1,0.003862342549533844,0.004203503391425325,-0.01366584427930414,0.01285217912689454,0.9822471430369119
2014-01-07,1,0.005084640285464593,0.005661018167999654,-0.01366584427930414,0.011753214204020927,0.9814650966589925
2014-01-09,1,0.0065446445589265115,0.00719630141344051,-0.01366584427930414,0.011753214204020927,0.982388894991474
2014-01-13,1,0.005618543042911294,0.0061294516280306814,-0.011999537416866319,0.008403945797641714,0.9841644277379527
2014-01-15,1,0.004325622271345402,0.004658431546404995,-0.009740601348662675,0.00996178520716624,0.9855979554575223
2014-01-17,1,0.003898841327347967,0.004244039181621991,-0.005601915462850799,0.01756446454247865,0.9860471920136261
2014-01-22,1,0.002811639717429578,0.0029421418084703086,-0.005601915462850799,0.01756446454247865,0.9860662870455854
2014-01-24,1,0.0018565378343999668,0.0019452801480650346,-0.004166773628102554,0.01756446454247865,0.9881195745987743
2014-01-28,1,0.0022954486502484977,0.002483148751833489,-0.004166773628102554,0.01756446454247865,0.9879843029541558
2014-01-30,1,0.002540341154397694,0.002741088729907648,-0.004166773628102554,0.010130332968958634,0.9881287575019484
2014-02-03,1,0.0014315076517226392,0.001444013537505864,-0.004166773628102554,0.010130332968958634,0.988866000582944
2014-02-05,0,-0.00019469525603124204,6.604797108544986e-05,-0.0019385592236326585,0.017835439691964272,0.9876353556391344
2014-02-07,1,0.0019413208652702373,0.001991121936962187,-0.002870112983495644,0.010140907861600627,0.9889486347596987
2014-02-11,1,0.0016029904849559542,0.0016270176245850687,-0.002870112983495644,0.010596499318966295,0.9888582694763303
2014-02-13,1,0.0009592828414545188,0.0012307580692970926,-0.0046047718744094,0.008298560557931139,0.9841295385456537
2014-02-18,1,0.00105125838345742,0.0013302651575637673,-0.007992151496723965,0.008045071700883883,0.9842659689908054
2014-02-20,-1,-0.0021999188504256933,-0.0013248178263512368,-0.015901841025590235,0.008298560557931139,0.9817880604541114
2014-02-24,-1,-0.0020005240979981778,-0.0011945457224007048,-0.015901841025590235,0.017308746298400755,0.9798265466530545
2014-02-26,-1,-0.002579928538072532,-0.0016672241498544723,-0.017470092614952012,0.017308746298400755,0.9787038117662693
2014-02-28,-1,-0.003759013289235453,-0.002721823299997423,-0.017470092614952012,0.017308746298400755,0.9796728233804912
2014-03-04,-1,-0.0030875420205204334,-0.002168621636251288,-0.017054055559428308,0.013953068454221043,0.9804523365736434
2014-03-06,-1,-0.0019873295291920443,-0.0011772968772729322,-0.017054055559428308,0.008298560557931139,0.9821944664414621
2014-03-10,-1,-0.0017145238524677677,-0.0009757208533895854,-0.02395633018601082,0.006796828377866682,0.9794163163995642
2014-03-12,-1,-0.0021073951602501306,-0.0013075842540137624,-0.02395633018601082,0.007915684756284931,0.9779782861022207
2014-03-14,-1,-0.00813924841313334,-0.00660477787226149,-0.02110507201354752,0.007915684756284931,0.9835007344356634
2014-03-18,-1,-0.008810345586815399,-0.007191703781644558,-0.02110507201354752,0.013303414094402315,0.9825612960921795
2014-03-20,-1,-0.007378926715798041,-0.005998589773250111,-0.015049365700227723,0.012377481571461143,0.9840451740343932
2014-03-24,-1,-0.005094486529947084,-0.004030558052385334,-0.015049365700227723,0.012215393408475817,0.9846859062318819
2014-03-26,-1,-0.006994270559324606,-0.005703922729787739,-0.011985066423335923,0.012215393408475817,0.9857635266260938
2014-03-28,-1,-0.0051500656173387544,-0.004305335129093678,-0.01352689958542164,0.012215393408475817,0.9849919576349839
2014-04-01,-1,-0.0044929828465129565,-0.0037218218041577614,-0.01352689958542164,0.009512827183544712,0.9857834100751343
2014-04-03,-1,-0.0031390198720897093,-0.0026632072128231505,-0.01817201222254926,0.009512827183544712,0.9836165007599273
2014-04-07,-1,-0.004997540642114093,-0.004377633079672497,-0.01352689958542164,0.009512827183544712,0.9858314395589745
2014-04-09,-1,-0.003671027096274213,-0.0032459691732350357,-0.0217638164242123,0.007065111130150008,0.9856319005488695
2014-04-11,-1,-0.005196552489322511,-0.004588594390039204,-0.016946672235011413,0.012215393408475817,0.9844781495771978
2014-04-15,-1,-0.004256047178706979,-0.0037421507866158923,-0.01794371122926635,0.007065111130150008,0.9852392061197279
2014-04-17,-1,-0.0025660317869313906,-0.0023323258734743377,-0.01794371122926635,0.004800179478212279,0.9844439388109375
2014-04-22,-1,-0.0012724889331399798,-0.0011794683331248492,-0.0217638164242123,0.0005516244196517178,0.9828504294305128
2014-04-24,-1,-0.0015220916274374012,-0.0014284171677608473,-0.0217638164242123,0.005192599983769561,0.9819199514198006
2014-04-28,-1,-0.003467518499607222,-0.0031155935277356033,-0.01794371122926635,0.014434392788775917,0.9825230161558791
2014-04-30,-1,-0.004261701053265527,-0.0037832631873751885,-0.01794371122926635,0.014434392788775917,0.9817937726032548
2014-05-02,-1,-0.00549497287825052,-0.004892195513789901,-0.016400821872177875,0.016558428096573305,0.9815440289464268
2014-05-06,-1,-0.00675522237790402,-0.00599465982915311,-0.014574299408598418,0.016558428096573305,0.9817454761298857
2014-05-08,-1,-0.00908889644796473,-0.008010966050555948,-0.004953790938965584,0.018844247229500878,0.9809012955117182
2014-05-12,-1,-0.006918344725430767,-0.00610286145003594,-0.008834790332113795,0.015196332499751775,0.984404335936728
2014-05-14,-1,-0.006746543268387729,-0.0060081386676363036,-0.008433839354542758,0.015196332499751775,0.9845476560165297
2014-05-16,-1,-0.006741223743360331,-0.00599237364590895,-0.004953790938965584,0.015040658344468473,0.9848703651156877
2014-05-20,-1,-0.007247009923381566,-0.0064509191886562185,-0.0035835574039706263,0.012467879553661998,0.9867434979239618
2014-05-22,-1,-0.006339808539311997,-0.005653033447181292,-0.0027890291016213595,0.009264279209179578,0.9881420084463284
2014-05-27,-1,-0.006065836147404982,-0.005398224919785719,-0.0027890291016213595,0.007246937456527572,0.9894701079321178
2014-05-29,-1,-0.004802941091750562,-0.0043140937791270656,-0.0027890291016213595,0.008642684639181244,0.9888664511785871
2014-06-02,-1,-0.002509218019251735,-0.0023320852811318793,-0.0027890291016213595,0.008642684639181244,0.9908266842769585
2014-06-04,-1,-0.0007975609501686221,-0.000622110248722881,-0.00031954196095684644,0.011540741793143837,0.9911276334444765
2014-06-06,0,-5.55320042396032e-05,0.00020429757402366246,-0.0027890291016213595,0.007841818117269226,0.9916761640448951
2014-06-10,-1,-0.0007019651487018637,-0.0005790347513843742,-0.0027890291016213595,0.009646213849984755,0.9903236825191271
2014-06-12,-1,-0.0010948580219654236,-0.0010657717742612758,-0.0021419784469900514,0.009646213849984755,0.990742569280872
2014-06-16,-1,-0.0007069330655216035,-0.0006352482034587549,-0.0021419784469900514,0.007477264310186871,0.9911489988293716
2014-06-18,-1,-0.0012549922324469973,-0.0011846865167076427,-0.0035270866281902212,0.007135819713442019,0.9906836110250458
2014-06-20,-1,-0.0009937493320349418,-0.0009668853233888528,-0.0035270866281902212,0.011463087541106606,0.9891826469013314
2014-06-24,-1,-0.0007378873298713354,-0.0006814266536498931,-0.0022143169138852743,0.014581390458545365,0.9885977033252604
2014-06-26,1,0.0009111493825213551,0.0011503938092144504,-0.0022143169138852743,0.011463087541106606,0.990731065187147
2014-06-30,1,0.0016572735499756227,0.001965751297117315,-0.0022143169138852743,0.009646213849984755,0.991881443703913
2014-07-02,1,0.0029542179147034227,0.00352030233804894,-0.0035331410874962187,0.010369426119859543,0.9893651701854618
2014-07-07,1,0.002671117111542178,0.003197770343034514,-0.0035331410874962187,0.010369426119859543,0.9894257953318418
2014-07-09,1,0.002949159101486145,0.0035932920581374962,-0.0024834781895090997,0.008223585790399161,0.9906339280485131
2014-07-11,1,0.003317229620422265,0.0040580688074096935,-0.0030227441940778414,0.008223585790399161,0.990695284982124
2014-07-15,1,0.003341007077113071,0.0040752832741013725,-0.0030227441940778414,0.013475299729963867,0.990310746023483
2014-07-17,1,0.002917970231028395,0.0036095502389872857,-0.002656071880884851,0.013475299729963867,0.9905350282922539
2014-07-21,1,0.004280093886828173,0.005171757213337838,-0.004213631650185468,0.00661659397107125,0.9898660799434432
2014-07-23,1,0.004556390696447855,0.005429876420460247,-0.007161780430450687,0.00661659397107125,0.9888954291223594
2014-07-25,1,0.00544306744455835,0.006458286589788757,-0.010545160180479358,0.00402699729476812,0.9881176718958355
2014-07-29,1,0.006129242524133072,0.007313826054406132,-0.010545160180479358,0.00998491150029235,0.9873844838569238
2014-07-31,1,0.005409052633859077,0.006507453392219323,-0.007161780430450687,0.008955686117900239,0.9901678177375602
2014-08-04,1,0.005235438169205726,0.006325141461399304,-0.005588930417323493,0.008955686117900239,0.990505099043938
2014-08-06,1,0.002864191810018712,0.00336954691840426,-0.010545160180479358,0.008955686117900239,0.9895179255711894
2014-08-08,1,0.0026831790960904637,0.0031455434245143835,-0.010545160180479358,0.009782813483743156,0.9891679871326348
2014-08-12,1,0.0032883000354195467,0.003874791445618601,-0.012291863109393782,0.008955686117900239,0.9888785371037732
2014-08-14,1,0.003640551577410662,0.0043721901599189155,-0.010530503643061136,0.009782813483743156,0.9887537417346451
2014-08-18,1,0.0033046875817696266,0.0039016861971341594,-0.012291863109393782,0.008955686117900239,0.9889279579206695
2014-08-20,1,0.002512250785175376,0.0029597055953479745,-0.007519505019317764,0.009461571138572404,0.9899412914125082
2014-08-22,1,0.002628358042950218,0.0031300772856447147,-0.007519505019317764,0.009461571138572404,0.9895578338035379
2014-08-26,1,0.003908591143651287,0.004566632108667453,-0.007519505019317764,0.007798723574479747,0.9903040337152212
2014-08-28,1,0.002723641435732338,0.0030751687846643674,-0.008748871179724726,0.006334895328400132,0.9903254473889277
2014-09-02,1,0.0028088536577494296,0.0032204145750819053,-0.009062132968988367,0.006334895328400132,0.9903294324693656
2014-09-04,1,0.0009430962343551903,0.0010227609602826851,-0.0076771799787289955,0.006334895328400132,0.9913243913166179
2014-09-08,1,0.0017839767451075345,0.002027572543184373,-0.009062132968988367,0.006334895328400132,0.9901207953663911
2014-09-10,1,0.0012693263429743257,0.0014683980525955183,-0.00954313314980347,0.007954371386245761,0.9894341185282574
2014-09-12,1,0.0022923671864317164,0.002697591677456559,-0.019090773742604063,0.006334895328400132,0.9868058386168144
2014-09-16,1,0.0016105202574716176,0.001880125811944489,-0.0160130948576451,0.009907912650048515,0.9868831020275894
2014-09-18,1,0.0016106809270815922,0.0018024698533888727,-0.0160130948576451,0.004512039830152548,0.9875750039611041
2014-09-22,1,0.0007268071258831207,0.0007773341086886562,-0.011355020712212598,0.006986075749667716,0.987329180386937
2014-09-24,1,1.866351998900225e-05,0.0001341704605911799,-0.01568759405327813,0.010391872722375212,0.9862141556182319
2014-09-26,-1,-0.0012341536235116934,-0.0009044745029185339,-0.01568759405327813,0.012802902008030333,0.9854437399234347
2014-09-30,-1,-0.002443591040769231,-0.0019033623162374056,-0.01568759405327813,0.015513630155693658,0.9840796834076703
2014-10-02,-1,-0.002259961947500871,-0.0018106842025646696,-0.004096838392919565,0.017093980882415795,0.9793741206013262
2014-10-06,-1,-0.002839121246046246,-0.002312798038507904,-0.0027135947072009325,0.018240445865633455,0.9783250427821345
2014-10-08,-1,-0.0027087722583189104,-0.0022056016655649015,-0.005355291668718386,0.018240445865633455,0.9791511968411288
2014-10-10,-1,-0.005790506500925386,-0.00488842350389834,-0.0010492282477037158,0.018240445865633455,0.9797068113969961
2014-10-14,-1,-0.00406067760558831,-0.0033948183139125765,-0.0010492282477037158,0.018240445865633455,0.9807598902837623
2014-10-16,-1,-0.004301700091616163,-0.003612440893285343,-0.002075423467530654,0.018240445865633455,0.98000004658367
2014-10-20,-1,-0.002875881295830262,-0.0023744717261994885,-0.0037774589746046895,0.017093980882415795,0.9812580321459441
2014-10-22,-1,-0.0025512622273297135,-0.0021512911096970696,-0.0037774589746046895,0.017500028026159305,0.9808858444319457
2014-10-24,-1,-0.0019393426682251835,-0.0016026320923010293,-0.0037774589746046895,0.015820788029027356,0.9815123047779125
2014-10-28,-1,-0.00034912719468871515,-0.000229969452031566,-0.0037774589746046895,0.015771139137005768,0.9828197599897
2014-10-30,1,0.0030991379280625093,0.0034040348535573682,-0.005014173653746274,0.014968525748396369,0.9880163643530175
2014-11-03,1,0.003605903897524746,0.003961677108324903,-0.005014173653746274,0.01302674880947791,0.989531436291661
2014-11-05,1,0.001726910116304053,0.0018442155239421687,-0.002075423467530654,0.01302674880947791,0.990544079088496
2014-11-07,1,0.0021434622022747855,0.002314735585828678,-0.0027371147348897343,0.013150005354831532,0.9900358270447134
2014-11-11,1,0.0024379088300512104,0.002636353162250764,-0.0043959875633505,0.013150005354831532,0.9882734666132035
2014-11-13,1,0.0027472127107653023,0.002979410849919347,-0.006968965249752615,0.011652185359057595,0.9883228135815393
2014-11-17,1,0.0037126666459421785,0.004160046716799903,-0.007313484418604539,0.00897743918149178,0.9885381979035356
2014-11-19,1,0.004023846493991946,0.004537296815809659,-0.0036741061734134875,0.00897743918149178,0.9892401071442694
2014-11-21,1,0.004502703209012684,0.005087284911433711,-0.007810988564337117,0.00897743918149178,0.9870029405087263
2014-11-25,1,0.004519315981463623,0.005095770638442475,-0.007810988564337117,0.008042782288926652,0.9871586143388635
2014-11-28,1,0.00421716031425394,0.004722408497763391,-0.005466638659488311,0.0066570873604580045,0.987546674484818
2014-12-02,1,0.004119172700082656,0.004586954831337886,-0.005060743772798255,0.005062511800261873,0.9876925515023898
2014-12-04,1,0.0042697396577686935,0.004757448267084668,-0.008226521380100257,0.004014101047111097,0.9859878495357717
2014-12-08,1,0.004381227763280367,0.0048451084943483625,-0.009841785743085795,0.004014101047111097,0.984559111643257
2014-12-10,1,0.00499159488965051,0.005598043550595346,-0.009841785743085795,0.004014101047111097,0.9843612177769067
2014-12-12,1,0.0047051939181157335,0.005279354527726034,-0.008226521380100257,0.005130997005020888,0.9854958598926051
2014-12-16,1,0.004420328582099155,0.004987562224347986,-0.010612410497691144,0.005130997005020888,0.9841432091777848
2014-12-18,1,0.005235692887200872,0.0058962180713222866,-0.010612410497691144,0.005130997005020888,0.9839023655277165
2014-12-22,1,0.0072343471020457125,0.008111467459518398,-0.009394725837620974,0.005130997005020888,0.9839631682408937
2014-12-24,1,0.006254137424975411,0.006962054769720699,-0.009394725837620974,0.008329429805056705,0.9845694906148921
2014-12-29,1,0.0056820442939262035,0.006297682463577359,-0.01419509432291272,0.0158573679983039,0.9794195423938441
2014-12-31,1,0.0024900773485892463,0.0027321261086530086,-0.01419509432291272,0.023841750932151948,0.9781958311319332
2015-01-05,1,0.0021715581572447893,0.002379195458786943,-0.010849806037417913,0.023841750932151948,0.9788324763671283
2015-01-07,1,0.0029361433925704328,0.0032081069221967804,-0.003628410719028449,0.0241923201692244,0.9795535161524943
2015-01-09,1,0.0028598148643625273,0.0031434702403993027,-0.003628410719028449,0.0241923201692244,0.9793650794829629
2015-01-13,1,0.003099217386377314,0.0033802269070520425,-0.003628410719028449,0.0241923201692244,0.9781375985076648
2015-01-15,1,0.0016005238538961634,0.0016709563929243976,0.0013800930260987453,0.0241923201692244,0.9789696348775029
2015-01-20,1,0.0026181034066503238,0.0028855149870342187,0.0015035299316593907,0.0241923201692244,0.9804030185375666
2015-01-22,1,0.00358625203278322,0.003961856514336918,-0.0008249679357712431,0.021686434688585464,0.9817339288422795
2015-01-26,1,0.0031674710032447003,0.003467398167838842,-0.0013213643114168658,0.021686434688585464,0.9813950516734337
2015-01-28,1,0.0037580054374203756,0.004086132691217046,-0.0013213643114168658,0.02013941143990448,0.9862456633919895
2015-01-30,1,0.004478833528965131,0.0049233826281121305,-0.0013213643114168658,0.02013941143990448,0.9878197759994427
2015-02-03,1,0.004760491774839332,0.0051865160293251954,-0.0029248321017660253,0.0188345797651564,0.9862108673016283
2015-02-05,1,0.005408866578107608,0.005924011251482026,-0.0033148498720940002,0.015989447747822072,0.9869056705026007
2015-02-09,1,0.005188810729159605,0.005659179702178452,-0.00440465122520528,0.014218255825882882,0.9884242281723915
2015-02-11,1,0.006119437016551882,0.00672724308207793,-0.006772763663920472,0.013017755834695013,0.9869841884419364
2015-02-13,1,0.005831060075929434,0.0063532236998171945,-0.006772763663920472,0.007872620425696551,0.9870229617164393
2015-02-18,1,0.005985139629544229,0.006518111954024256,-0.008545892858179003,0.007872620425696551,0.9861732368613637
2015-02-20,1,0.005250767773222922,0.005650170943643677,-0.012655219258323091,0.011379667301220591,0.9857676245230924
2015-02-24,1,0.00499168186912773,0.005337600615562635,-0.012655219258323091,0.014876051691797832,0.9811110502275934
2015-02-26,1,0.005175233658707604,0.005457966669198304,-0.017086376423373136,0.012720280063324013,0.9794828229273951
2015-03-02,1,0.005201134624300341,0.00544598782331112,-0.017086376423373136,0.018226685315381748,0.978206466962887
2015-03-04,1,0.004468904117487237,0.004610431998554874,-0.01807462273496068,0.01282560004309676,0.9778933986020939
2015-03-06,1,0.001636179758567933,0.00197118810233149,-0.01807462273496068,0.013216929971156855,0.9789074709633948
2015-03-10,1,0.0015053269285152464,0.0018065197068254577,-0.01807462273496068,0.013216929971156855,0.9790561219374532
2015-03-12,1,0.002372372472787634,0.0025967714399435264,-0.01807462273496068,0.01105036161524905,0.9809580822603506
2015-03-16,1,0.0016919454141007637,0.0019645277526764288,-0.018619228344231027,0.01105036161524905,0.9801666800507112
2015-03-18,1,0.0008554748426168185,0.001263323626344023,-0.018405106535021545,0.011731773260795176,0.9808090587815596
2015-03-20,1,8.644964513429294e-05,0.0005665335779897528,-0.016967006172883978,0.01408717512361495,0.980137929789112
2015-03-24,1,0.004191239721600606,0.0042323783912505365,-0.016967006172883978,0.006971167621677252,0.9841922710459766
2015-03-26,1,0.002558034520990019,0.0026160042720875226,-0.011674486530491128,0.006971167621677252,0.9867243193278545
2015-03-30,1,0.00539486893908121,0.005772401723459775,-0.01511224436286662,0.004183718293496782,0.9856181084449631
2015-04-01,1,0.0021752624759446178,0.0023209261169735095,-0.01511224436286662,0.004183718293496782,0.9866760841304956
2015-04-06,1,0.0023431390706927634,0.0024558734831118694,-0.01511224436286662,0.0063647770192183685,0.9858383814684744
2015-04-08,1,0.0010084488218620989,0.0012239284261432015,-0.015993468886709838,0.009912601453418527,0.98121430213621
2015-04-10,1,0.0009068827247213526,0.001134860256099999,-0.021535801626221873,0.009912601453418527,0.9772632921308899
2015-04-14,1,0.0003720642900184873,0.0006889238535336931,-0.021535801626221873,0.012974242238636094,0.9767342041827997
2015-04-16,1,0.000790611039855018,0.0010528488427894013,-0.024621808005367868,0.015858977160777384,0.9742152456339449
2015-04-20,1,0.0013563786919896658,0.0015414918282530238,-0.024621808005367868,0.0150530139318024,0.9748191098529329
2015-04-22,1,0.0008706509370145372,0.0011127338646555276,-0.024621808005367868,0.0150530139318024,0.9740663196845684
2015-04-24,1,5.5130133708166306e-05,0.00041721050251090214,-0.028393339311644103,0.0150530139318024,0.9724766716516421
2015-04-28,0,-0.0001792116635894853,0.00021876710350686055,-0.028393339311644103,0.018023125898374428,0.9722811197873975
2015-04-30,-1,-0.0029865288900867235,-0.0022573124589002173,-0.025328876624655945,0.018023125898374428,0.9741978308641576
2015-05-04,-1,-0.0015935127714905102,-0.0010492397289983916,-0.025328876624655945,0.012271151308285742,0.9742545374874868
2015-05-06,0,-0.00010710880308829754,0.00025954624881332653,-0.025328876624655945,0.018023125898374428,0.9765809379207593
2015-05-08,-1,-0.0025677256754095936,-0.0018890785602982295,-0.017966079211522747,0.018023125898374428,0.9805492603352535
2015-05-12,-1,-0.002803862854783593,-0.0020596393954116,-0.021745470693146383,0.018023125898374428,0.9802669337730261
2015-05-14,-1,-0.0028735143843139797,-0.002164284658503231,-0.017966079211522747,0.012271151308285742,0.9826594114980172
2015-05-18,-1,-0.0019497624800840245,-0.0014379661852159248,-0.017966079211522747,0.01252775804448255,0.9822420337010574
2015-05-20,-1,-0.002731727596445468,-0.0020601890734063657,-0.015698796333946698,0.018782479721420702,0.9820611918024693
2015-05-22,-1,-0.004547057013380646,-0.003653694168357993,-0.011272545773255309,0.018782479721420702,0.982622248866861
2015-05-27,-1,-0.0056967989212485855,-0.004646552476476103,-0.011272545773255309,0.013035677920973258,0.9845449527653776
2015-05-29,-1,-0.007375072989948232,-0.006087666856179419,-0.00953356964379052,0.013035677920973258,0.9842363446487424
2015-06-02,-1,-0.007383593323953591,-0.0061052922944244605,-0.00953356964379052,0.013035677920973258,0.9839492018793353
2015-06-04,-1,-0.005256681658537833,-0.0042665187287687445,-0.011166134402056146,0.009625694660594302,0.9870099943401162
2015-06-08,-1,-0.005444947925708233,-0.004437409032433838,-0.00953356964379052,0.009625694660594302,0.9870388190939946
2015-06-10,-1,-0.00636603683282992,-0.005189088029995881,-0.00953356964379052,0.009625694660594302,0.9872304219788353
2015-06-12,-1,-0.005988989304506213,-0.004875429348998805,-0.00953356964379052,0.010601528186590962,0.9862132827283504
2015-06-16,-1,-0.004837140058569051,-0.0038893734771860387,-0.011856518804792646,0.009625694660594302,0.9867486788966102
2015-06-18,-1,-0.004178151358653025,-0.0033215556275352307,-0.011856518804792646,0.012034753444487288,0.9845676442880571
2015-06-22,-1,-0.0037784127686807936,-0.002985610017067906,-0.011856518804792646,0.017033010096220325,0.9833241794282579
2015-06-24,-1,-0.0041829180092700586,-0.003406912149410916,-0.010341470041702097,0.017033010096220325,0.9828781627462916
2015-06-26,-1,-0.0035537383316346033,-0.0028964678484977267,-0.007559118538943916,0.017033010096220325,0.9837441738049849
2015-06-30,-1,-0.003128433292078438,-0.002609030700866591,-0.005221847076265036,0.019498322396552054,0.982903151074587
2015-07-02,-1,-0.0029693571581464796,-0.002505056486579733,-0.0034770903901869417,0.020341941497799575,0.9824819110381454
2015-07-07,-1,-0.0017322765722365134,-0.0014871016454737762,-0.0034770903901869417,0.020913401285055425,0.9783847650763592
2015-07-09,-1,-0.0012100682066822723,-0.001074309461122615,-0.0021587870226614002,0.025090849785764965,0.9773396460330289
2015-07-13,1,5.5022456918170525e-05,7.97424196612813e-05,-0.001648134479826175,0.02059993287973729,0.9785909299999063
2015-07-15,-1,-0.00022719082096536383,-0.0002057250468764705,-0.001648134479826175,0.027780160507079335,0.977500885069437
2015-07-17,1,0.0026336010515369043,0.0030067643022126545,-0.0029204408895950633,0.027780160507079335,0.978054093235662
2015-07-21,1,0.004113791922608648,0.004683036039940781,-0.0035283724469244602,0.022351941368847814,0.9787394113076551
2015-07-23,1,0.0028308500183706715,0.003271935898423621,-0.0031341511450224957,0.022351941368847814,0.9789415187786891
2015-07-27,1,0.0026941122850623715,0.003073593161598067,-0.006285820081165322,0.022351941368847814,0.9755950073350144
2015-07-29,1,0.0033425415347276667,0.003775941080396388,-0.00904189969624778,0.02733998077682472,0.9750848147650085
2015-07-31,1,0.0034353880227577793,0.003844994035482565,-0.00904189969624778,0.02733998077682472,0.9755433600497023
2015-08-04,1,0.007234649393312131,0.008229822295781623,-0.018621970588125883,0.01763232685812403,0.9768136164705239
2015-08-06,1,0.008114514797914977,0.009191984858253587,-0.018621970588125883,0.016900664047858387,0.97657794844376
2015-08-10,1,0.007850681072517851,0.00887496503385979,-0.018621970588125883,0.0246011534468834,0.9759976380447333
2015-08-12,1,0.009136650772756218,0.010290925380521882,-0.02146962850921584,0.015643630255793357,0.9768074643773474
2015-08-14,1,0.011851509776468396,0.013604476473905454,-0.02146962850921584,0.011896637510507301,0.9784202916599349
2015-08-18,1,0.010047492848925269,0.01139759274169649,-0.02146962850921584,0.011896637510507301,0.9784589897295913
2015-08-20,1,0.010211173322839974,0.011710561885147143,-0.01940947144412533,0.015899144519891235,0.9780700429749669
2015-08-24,1,0.008254204111851397,0.009387466474676007,-0.012142393825845463,0.015899144519891235,0.9814623519683081
2015-08-26,1,0.008218911142716771,0.009361657218782172,-0.01608564477489003,0.011896637510507301,0.980240078505381
2015-08-28,1,0.00784543169136613,0.00888804123320881,-0.02065237258038185,0.011896637510507301,0.9777583458438235
2015-09-01,1,0.0057709150891826,0.006523684946253305,-0.019259642610230998,0.015899144519891235,0.9776659721891995
2015-09-03,1,0.005532069636547168,0.006198017098771203,-0.02065237258038185,0.012349544478593436,0.9774767857516958
2015-09-08,1,0.006447863367257493,0.007258161872732588,-0.021929577472819477,0.012349544478593436,0.9736155954452758
2015-09-10,1,0.006454123549636085,0.007287740893195471,-0.02551881553443432,0.012896930635319513,0.9731509112376326
2015-09-14,1,0.0066156506532025795,0.0074505375297021555,-0.02551881553443432,0.013913665834302695,0.9725456832218772
2015-09-16,1,0.006734150659420733,0.007551375259624,-0.02551881553443432,0.013913665834302695,0.9733870231626294
2015-09-18,1,0.008169345056478408,0.00914628618103341,-0.02551881553443432,0.013913665834302695,0.9718559001913987
2015-09-22,1,0.006353576537086137,0.006928649213112282,-0.02551881553443432,0.015462926089986097,0.9723438248140941
2015-09-24,1,0.004975677971653104,0.00542853289347944,-0.02551881553443432,0.015462926089986097,0.9716104113110701
2015-09-28,1,0.005138204315091837,0.005726131784189079,-0.014199288851538979,0.0177578803954522,0.971665226613947
2015-09-30,1,0.003071544133566335,0.0032137354423005067,-0.008159200932526691,0.0177578803954522,0.9731860355390027
2015-10-02,1,0.0021081256456201274,0.002115424764091718,-0.008159200932526691,0.023544267410469395,0.9685181945019051
2015-10-06,-1,-0.0009700211933840305,-0.000606625558358198,-0.006208025380785801,0.03976627752056988,0.969204624244888
2015-10-08,-1,-0.001618776554296395,-0.0011815240464770566,-0.00368123417599658,0.03976627752056988,0.9699262871696495
2015-10-12,-1,-0.0022191879689302434,-0.0016579020901170635,-0.00585791605425867,0.03976627752056988,0.9698461758154016
2015-10-14,-1,-0.0024590916887495123,-0.0017702262916659253,-0.0071088729529452995,0.03976627752056988,0.9690819482087052
2015-10-16,0,-0.00019157906572311433,0.0002963739670743509,-0.0071088729529452995,0.030542834334596716,0.9730716348410104
2015-10-20,-1,-0.0009592742939946641,-0.0003019133101907932,-0.011202473054400293,0.030542834334596716,0.9732913011257069
2015-10-22,-1,-0.004225509973644365,-0.0031650446476519266,-0.006682655386746709,0.030542834334596716,0.9756723201099059
2015-10-26,-1,-0.0012523344634064674,-0.0006472051298321111,-0.006682655386746709,0.030542834334596716,0.9767406009418564
2015-10-28,1,0.0008578631316667948,0.0012511879914260265,-0.006682655386746709,0.019393267511712303,0.9793356568809847
2015-10-30,-1,-0.0016166405619905708,-0.0009348039910358665,-0.006682655386746709,0.016719857343531576,0.984371649182286
2015-11-03,1,0.0015441620111955288,0.0018623005596523049,-0.006682655386746709,0.012013941054725877,0.9865954928447823
2015-11-05,1,0.0022117544481026256,0.0024135974110968245,-0.009923820355804523,0.01216675989205263,0.9832598240498162
2015-11-09,1,0.0011729045446799884,0.0014694977015040512,-0.00782317229230832,0.017630570834671854,0.9802168727087185
2015-11-11,1,0.0009527473965844151,0.001264528460918247,-0.00782317229230832,0.017630570834671854,0.9797125809274402
2015-11-13,1,0.00027018471949687,0.0007272468999167648,-0.01751149098859913,0.017630570834671854,0.9781117464913524
2015-11-17,-1,-0.0008672689017531078,-0.00027073960564491474,-0.011209546798110521,0.023009062431335502,0.9756759518957211
2015-11-19,-1,-0.0020699209195917,-0.0012880561350885411,-0.012414029909609823,0.023144013761567446,0.974436416865812
2015-11-23,-1,-0.0009729742935744492,-0.00029004109009815853,-0.012414029909609823,0.022393359005082047,0.9760648354925474
2015-11-25,-1,-0.0012585480627064472,-0.0005392574197622371,-0.012414029909609823,0.02278858921339675,0.975002756358418
2015-11-30,-1,-0.002212808184175653,-0.0013622126629774358,-0.011303867824887844,0.023924850395815718,0.9740296256577833
2015-12-02,0,-0.00039719364169055497,0.0001981493246072069,-0.016166074658433362,0.02278858921339675,0.9747665903524119
2015-12-04,-1,-0.0026949115574578845,-0.0018074353012982039,-0.016166074658433362,0.02278858921339675,0.9764487240289231
2015-12-08,1,0.0021147701165199874,0.002307427699206154,-0.019615918058594528,0.022393359005082047,0.9779557400215353
2015-12-10,1,0.0013417426812573478,0.0015498146081687793,-0.016166074658433362,0.02278858921339675,0.9794603052271175
2015-12-14,-1,-0.00213663464038439,-0.001430232952793897,-0.011303867824887844,0.023924850395815718,0.9785545294826158
2015-12-16,0,-4.9693870790336716e-05,0.0004435343566517333,-0.011303867824887844,0.02278858921339675,0.980624270936251
2015-12-18,1,0.0008477311998905772,0.0011789362059910807,-0.016285431804428593,0.012056750582156264,0.9796555972313937
2015-12-22,1,0.0009664549611650647,0.0012498719951096666,-0.016285431804428593,0.0237078343132434,0.9780707665739732
2015-12-24,1,0.0038721014046854494,0.004115399169591064,-0.022085344208325627,0.02561998456437734,0.9759110341404221
2015-12-29,1,0.005784388358806795,0.006401831686191833,-0.02879019222353744,0.009755033311165881,0.9748284384360651
2015-12-31,1,0.004746003539114056,0.005245627327777575,-0.02879019222353744,0.02561998456437734,0.9751191605023811
2016-01-05,1,0.0035627606013351014,0.004015033827721122,-0.021322025391045843,0.02561998456437734,0.9778986719175305
2016-01-07,1,0.0027309846844624603,0.00314101907860916,-0.021322025391045843,0.030700756484110636,0.9712646811129736
2016-01-11,1,0.0042712191142912645,0.0049056850917053585,-0.02879019222353744,0.02561998456437734,0.9672018175891571
2016-01-13,1,0.003999840849665787,0.004537305534314234,-0.021692809271021418,0.02060820070305156,0.969700745520784
2016-01-15,1,0.0030603207786750733,0.003303531901955838,-0.021692809271021418,0.022105125557390356,0.9679050539022744
2016-01-20,1,0.0016980143904024086,0.001815647015586158,-0.013448893670196882,0.027476094583254645,0.9686474873838483
2016-01-22,1,0.003244581546328589,0.003581489175932282,-0.013448893670196882,0.023722768889356604,0.9696006290202362
2016-01-26,1,0.0019809995965196095,0.002019800069112802,-0.012304329351195183,0.02026853598294899,0.9710646339361894
2016-01-28,0,-9.915374260263915e-05,8.535025790377547e-05,-0.011503756091558001,0.02026853598294899,0.972240196340133
2016-02-01,1,0.0019091990557921598,0.0020048112253658085,-0.011503756091558001,0.02026853598294899,0.9717892642778783
2016-02-03,1,0.0012853152870032632,0.0012959795723631578,-0.012304329351195183,0.02026853598294899,0.9709223085618073
2016-02-05,1,0.0007461720604345708,0.0008012898775418867,-0.008854915746830627,0.015394862269012021,0.9785406986083051
2016-02-09,-1,-0.0029539204834744255,-0.0025013670985852077,-0.008681151969208982,0.02026853598294899,0.9803758598963898
2016-02-11,-1,-0.0005658075230648165,-0.0005044173814241887,-0.011091823202884077,0.020345673127707225,0.9803541888594137
2016-02-16,1,0.001927886674176502,0.002156813449497345,-0.011091823202884077,0.015420574650598099,0.9836526756972869
2016-02-18,1,0.0014046549453813396,0.0014492255638206431,-0.01178303801833025,0.013933670835487546,0.9842297785023406
2016-02-22,1,0.0016118045622282068,0.0016402740525435931,-0.01178303801833025,0.014391533567530843,0.984140768209655
2016-02-24,1,0.000498976128031512,0.000673656169296715,-0.01225032415748852,0.016452307311198445,0.9816645340081658
2016-02-26,-1,-0.0005344666827384371,-0.00018207060024635923,-0.01043108601650447,0.016452307311198445,0.9825957863511374
2016-03-01,-1,-0.0008583666171574631,-0.0003230817734964245,-0.01043108601650447,0.016452307311198445,0.9840305758369036
2016-03-03,-1,-0.0020386531420860045,-0.001325471538684324,-0.009964334324024837,0.01923505759699569,0.983432837830616
2016-03-07,-1,-0.00132761017850618,-0.0006946845087841141,-0.009964334324024837,0.01923505759699569,0.9843636694785944
2016-03-09,1,2.7963889555246944e-05,0.00045559973579766835,-0.009964334324024837,0.01923505759699569,0.98464399942988
2016-03-11,1,0.001834301468407881,0.0018884627434242107,-0.009964334324024837,0.018785121729430768,0.9851449740404464
2016-03-15,1,0.0016964029025962782,0.0017501722911968391,-0.009400941159108812,0.019815834401920127,0.9843524946035159
2016-03-17,-1,-0.0010819184432561654,-0.000562366939031907,-0.009400941159108812,0.019815834401920127,0.9844735485735453
2016-03-21,1,0.0014253025544704013,0.001553450376958081,-0.009400941159108812,0.019815834401920127,0.9843841054877014
2016-03-23,1,0.0036751207091847977,0.0039270245027470075,-0.008134403010605348,0.018785121729430768,0.9875213748923204
2016-03-28,1,0.0016871176612038182,0.001816311321056893,-0.00634085776904115,0.018785121729430768,0.9876297803041018
2016-03-30,1,0.004153049594168887,0.004506504397609241,-0.00634085776904115,0.01408148274135646,0.9891691158617959
2016-04-01,1,0.005680201998152723,0.006274800510728122,-0.009820767722714015,0.009386300767043252,0.9874731136584246
2016-04-05,1,0.004369580732657476,0.004724373489094685,-0.008843503036813772,0.011655445454914207,0.9877042670179466
2016-04-07,1,0.004280425436328235,0.004616688539150882,-0.008843503036813772,0.009386300767043252,0.9870791398390771
2016-04-11,1,0.003865492489753193,0.0041453823319175815,-0.004672295536310201,0.011655445454914207,0.9873196293068727
2016-04-13,1,0.0046131678951415265,0.004946721642028298,-0.0069909335472674505,0.005724330487768924,0.9878862247354757
2016-04-15,1,0.003936227343360501,0.004142410704791009,-0.0069909335472674505,0.004642306509343403,0.9876834666835207
2016-04-19,1,0.005292964658759329,0.005766156570346417,-0.009799442330385766,0.004642306509343403,0.9864763427910004
2016-04-21,1,0.0056614278525725596,0.006179244469632696,-0.009799442330385766,0.0037988121542889834,0.9863166303759563
2016-04-25,1,0.005268381944527337,0.0057075805101554095,-0.009799442330385766,0.005114914450557417,0.98589130625395
2016-04-27,1,0.005588675319756326,0.006143907113607317,-0.009880126893262148,0.011280836514716164,0.9848180778482273
2016-04-29,1,0.0024670615640803983,0.00249197978469938,-0.0043997240136309295,0.011280836514716164,0.9878202306142821
2016-05-03,1,0.004152227502460294,0.0045547042606557874,-0.004912999728015122,0.011280836514716164,0.9875315277498911
2016-05-05,1,0.002077835790407627,0.0021539284312175827,-0.0033136243051936124,0.011280836514716164,0.9898809541622872
2016-05-09,1,0.0014534523331018458,0.0015592632657281448,-0.0033136243051936124,0.012443519804253001,0.9894420291085537
2016-05-11,1,0.002551280643400865,0.0027228599709233584,-0.002256848094897389,0.012443519804253001,0.9897184452741975
2016-05-13,1,0.0018462736725646885,0.0019444380886874735,-0.0033136243051936124,0.012443519804253001,0.9895861997385841
2016-05-17,1,0.0017262668690826036,0.0018035859197161955,-0.0018065183328442953,0.010007236950042171,0.991512290180255
2016-05-19,1,0.002595685233523933,0.002846320979431784,-0.0049398945823072495,0.009732857287634223,0.9898253879730933
2016-05-23,1,0.003575269438696507,0.004010151325928496,-0.0049398945823072495,0.009732857287634223,0.9894118075484479
2016-05-25,1,0.00358226175901777,0.0039517826128125065,-0.0021390476630544584,0.009732857287634223,0.9897989477140926
2016-05-27,1,0.0024183630190670064,0.0025076383097415497,-0.005086530613848261,0.009023496720081079,0.9884410937302177
2016-06-01,1,0.0021391520558971975,0.0021741692407529394,-0.002295376600770002,0.013729579656354718,0.9867258162092862
2016-06-03,1,0.0026538009400608894,0.0027501801323254896,-0.002295376600770002,0.013773366170576305,0.9862199319779762
2016-06-07,1,0.003454081410101914,0.0036671349757677143,-0.004167701201875003,0.011500350543744283,0.9864494674158137
2016-06-09,1,0.003599076020300753,0.0038558371255941683,-0.004167701201875003,0.015682881208650714,0.9860028150618559
2016-06-13,1,0.0013828990573615746,0.0015187159516012521,0.0001475155951578666,0.016461942172918114,0.9855492595491612
2016-06-15,1,0.00250276481904578,0.00257457319515959,-0.0009729956882923317,0.016461942172918114,0.9860930795643105
2016-06-17,1,0.0007655963307709689,0.0009106025798698921,0.0001475155951578666,0.016461942172918114,0.9871659716897702
2016-06-21,1,0.00010533060085299566,0.00044480073665705705,-0.0009729956882923317,0.015685289793844946,0.9871792086215988
2016-06-23,1,0.0018199661455039165,0.0018859842527942173,-0.002363748041805814,0.0149145501325574,0.987907721999661
2016-06-27,1,0.00015665284007566102,0.0004412024967466897,-0.0030617427204371927,0.0149145501325574,0.9887782220032729
2016-06-29,1,0.002279394223428045,0.002370044722747629,-0.0036730434630650537,0.014278883946924763,0.991205356061785
2016-07-01,1,8.819793344190226e-06,0.0005275740972257058,-0.0036730434630650537,0.014713539369630125,0.9900571439026483
2016-07-06,1,0.0004538956774890958,0.0009348794386326146,-0.005061369539513069,0.014333399520596693,0.9905533261228263
2016-07-08,1,0.0027244448690360917,0.0028067558715899684,-0.00594821992364586,0.014333399520596693,0.9897149407336739
2016-07-12,1,0.003801489294070785,0.0038627987363861783,-0.00594821992364586,0.013265084054457055,0.9893078150810423
2016-07-14,1,0.004052868473882715,0.004215376237883262,-0.00594821992364586,0.013265084054457055,0.9894371954170004
2016-07-18,1,0.0031837544540097885,0.003195809029535721,-0.005575734850477991,0.013265084054457055,0.9894955805352285
2016-07-20,1,0.0028711260761813307,0.0029367437588266316,-0.006171365518817867,0.007069480966908421,0.9897287702436528
2016-07-22,1,0.0027107437646566967,0.0027292399446544346,-0.005131937720156823,0.007069480966908421,0.9904705762561643
2016-07-26,1,0.001298322226402989,0.001513625450954975,-0.005131937720156823,0.007069480966908421,0.9915865013464076
2016-07-28,1,0.0017774526604997496,0.0019046302282065878,-0.005131937720156823,0.0037618399686338844,0.9906788674928297
2016-08-01,1,0.003404955198079314,0.003523804314519793,-0.005131937720156823,0.0037618399686338844,0.9903390488602072
2016-08-03,1,0.0028495527893411866,0.0028852792886746173,-0.006578345622583204,0.0037618399686338844,0.9898040410072139
2016-08-05,1,0.0029263735357147862,0.002950493841162706,-0.0058517873698444006,0.0016192547558672708,0.990908476215438
2016-08-09,1,0.0030548765032914413,0.0030729766226333327,-0.0058517873698444006,0.0036570455129827065,0.9917250662206701
2016-08-11,1,0.003648482619028333,0.0037744639367423023,-0.006578345622583204,0.0036570455129827065,0.9898960976204323
2016-08-15,1,0.0036323781865437335,0.0038169562687473614,-0.008490194603889868,0.0052558658616566065,0.9885094386610502
2016-08-17,1,0.002592299072540068,0.0026003082476019216,-0.007531460156969467,0.009166424873806107,0.9875690313326748
2016-08-19,1,0.0027987389348287407,0.002880206247420778,-0.007531460156969467,0.01085633386784135,0.9873618229191836
2016-08-23,1,0.0031032158863865313,0.0032950355907244554,-0.005776049874338446,0.014314036959698859,0.9871837777686405
2016-08-25,1,0.0012794071123123224,0.0013593117837566305,-0.005969765006395832,0.014314036959698859,0.987491425184729
2016-08-29,1,0.002394993109337237,0.002450301910865771,-0.005969765006395832,0.014314036959698859,0.986833642251582
2016-08-31,1,0.0010453346262493438,0.001173753952044854,-0.0030155011286935474,0.014314036959698859,0.987261209122376
2016-09-02,1,0.0014738585806858217,0.0014880566046287205,-0.004648943621901611,0.014314036959698859,0.9872419052585514
2016-09-07,1,0.0016859635968680107,0.001689420397665262,-0.004648943621901611,0.014314036959698859,0.9874603912594606
2016-09-09,1,0.0010589099657789403,0.0010953228329041616,-0.003567602727293987,0.014314036959698859,0.9888449141090752
2016-09-13,1,0.0015801735872285855,0.001637111433779263,-0.003567602727293987,0.014314036959698859,0.9881106601688527
2016-09-15,1,0.003182201605338991,0.003446548488244978,-0.003567602727293987,0.009751214628651974,0.9898340214614108
2016-09-19,1,0.0034603346917808854,0.003747457819521097,-0.004404797513866739,0.007313057341053707,0.9898004791861031
2016-09-21,1,0.0028471878410515363,0.0029282665719565495,-0.005333814344967159,0.007313057341053707,0.9897348934367918
2016-09-23,1,0.0018748057922111723,0.0018834730905463997,-0.005333814344967159,0.007313057341053707,0.9900422703014101
2016-09-27,1,0.0023078977592897003,0.0023520464396583366,-0.006874018372844995,0.005585594720615928,0.9902443099957211
2016-09-29,1,0.0023176941891392224,0.002383294340405764,-0.012056286151069927,0.003701052004169929,0.9830823965723932
2016-10-03,1,0.0012573384188355882,0.0013959803340908483,-0.012056286151069927,0.006316631488741803,0.9829646131438489
2016-10-05,1,0.00032012461815356184,0.0006097826516488918,-0.01628898628301504,0.007063121362726027,0.9823975781549448
2016-10-07,1,0.00034288061997389595,0.0006401229383213914,-0.017034888732725604,0.007063121362726027,0.9810070609172494
2016-10-11,1,5.8440058804405236e-05,0.0003692914942342937,-0.015189549809994995,0.007063121362726027,0.9823697295537677
2016-10-13,1,0.00011618353476747375,0.0004043494866500317,-0.016330254181579205,0.007617479007123821,0.9811813275446691
2016-10-17,1,0.0002492338513349451,0.0005040917962147646,-0.016330254181579205,0.009465529614701656,0.9804973152741324
2016-10-19,1,9.687913870353815e-05,0.0003593434752891464,-0.016330254181579205,0.012291781905656388,0.9806755151047333
2016-10-21,-1,-0.0005154824529811413,-0.00021280856557396525,-0.015189549809994995,0.015151299756142676,0.9808523099764964
2016-10-25,-1,-0.001703662823286616,-0.0012491830645908386,-0.015189549809994995,0.017733116342375857,0.9793681198099279
2016-10-27,-1,-0.006621398917729007,-0.005636089185558198,-0.001416881498781756,0.017733116342375857,0.9830459028236711
2016-10-31,-1,-0.00677349373910072,-0.005761849145698848,-0.004443416552518948,0.016956992029743687,0.9838586215802415
2016-11-02,-1,-0.007850983155725426,-0.006665184318785716,-0.004443416552518948,0.016956992029743687,0.9823654290486413
2016-11-04,-1,-0.007305852612319235,-0.006207937023187618,-0.0012869841007825981,0.014892591651931953,0.9825165090454775
2016-11-08,-1,-0.007217269866397909,-0.0060559703300545635,-0.0012869841007825981,0.016956992029743687,0.9811838337108159
2016-11-10,-1,-0.0069744385693724445,-0.005882167460540818,-0.0012869841007825981,0.016956992029743687,0.9816205391257156
2016-11-14,-1,-0.005848024007172886,-0.004931868758293639,-0.0020942670238735094,0.016938427182764854,0.9826847403312875
2016-11-16,-1,-0.0062344289856605915,-0.005200792068891855,-0.0036312742002389724,0.016938427182764854,0.9832044923669714
2016-11-18,-1,-0.004177305915031719,-0.003516722391064047,-0.007293793613285665,0.014457064800983315,0.9849783066256631
2016-11-22,-1,-0.0047097902127819675,-0.004010386757413997,-0.007293793613285665,0.012639566248405211,0.9861427826321186
2016-11-25,-1,-0.0032102392225029394,-0.0027119860895784397,-0.009597605850996685,0.01050475014763507,0.9866761938892976
2016-11-29,-1,-0.0034524720014652427,-0.002968410536031125,-0.008710766273715951,0.012141076545713038,0.9862095617275648
2016-12-01,-1,-0.004232709642915933,-0.003721131126509178,-0.008053031320398987,0.012141076545713038,0.9875189402430106
2016-12-05,-1,-0.0032070007966608425,-0.002812696481898951,-0.008053031320398987,0.012141076545713038,0.9874491149113692
2016-12-07,-1,-0.0003486080338964344,-0.0002836004848080072,-0.008136514296337844,0.007180251919260346,0.9896104454372069
2016-12-09,-1,-0.0006261537803191651,-0.0005426090152698226,-0.008136514296337844,0.007180251919260346,0.9879769546588059
2016-12-13,-1,-0.0004500858862811376,-0.00035799346196411055,-0.00849077249907286,0.007180251919260346,0.9881167017057485
2016-12-15,-1,-0.0009476710194963353,-0.0007605808685162396,-0.008862200110751924,0.008051897648374983,0.9865207264504503
2016-12-19,-1,-0.001216243757235109,-0.0010233894240186522,-0.008821192118569743,0.008051897648374983,0.9865561864395895
2016-12-21,-1,-0.0014243014044055277,-0.001268633914811153,-0.00849077249907286,0.008051897648374983,0.9881400581928541
2016-12-23,-1,-0.001864982831565031,-0.0016403691397089363,-0.008136514296337844,0.010439889575232418,0.9878981928056934
2016-12-28,-1,-0.0015895440894965205,-0.0014258012146612133,-0.008186992242016501,0.011074988221263092,0.9838824753820209
2016-12-30,-1,-0.0007740759828982331,-0.0007662938390325634,-0.008821192118569743,0.011074988221263092,0.9831589194193886
2017-01-04,1,0.0006013426062299583,0.0007840371855263341,-0.010546403356794975,0.0073787352984744274,0.9835907730636184
2017-01-06,1,0.00018280873135182758,0.00029556126070842795,-0.010546403356794975,0.011074988221263092,0.9813671089344261
2017-01-10,-1,-0.000811139048123608,-0.0007766267542819394,-0.009770110775111383,0.00866744949779569,0.9834411868610905
2017-01-12,-1,-0.0007504594029607414,-0.0007196612732823741,-0.009770110775111383,0.006972579008721921,0.9841151799089544
2017-01-17,-1,-0.00039631840150005217,-0.0003918801068649381,-0.009770110775111383,0.006972579008721921,0.9848755254668223
2017-01-19,-1,-0.0017244702367289456,-0.0015105642270424207,-0.008251214680283149,0.014844333251910749,0.9833509633428472
2017-01-23,-1,-0.0010063164931956984,-0.0009438263544608426,-0.008251214680283149,0.01650282252248294,0.9818663514341291
2017-01-25,-1,-0.00038892799035324934,-0.00034969741731000334,-0.008251214680283149,0.014844333251910749,0.9830656125427502
2017-01-27,-1,-0.0022360915762454905,-0.001976717049080654,-0.006989831330419498,0.011656554445224683,0.9873725095069876
2017-01-31,-1,-0.0028670619333621672,-0.002565961587574254,-0.005519752627480825,0.014844333251910749,0.9869030981290482
2017-02-02,-1,-0.00422409242468569,-0.003721265088838527,-0.0031983966294795406,0.014844333251910749,0.9863613299590002
2017-02-06,-1,-0.0009299388528219647,-0.0008352236165424989,-0.005519752627480825,0.011656554445224683,0.9901412517924718
2017-02-08,-1,-0.0006649129151595649,-0.0006053655482405153,-0.0013489433933819562,0.011656554445224683,0.9907752948913501
2017-02-10,-1,-0.00035447816249742635,-0.000233252691739006,-4.4276835491130484e-05,0.011656554445224683,0.9904949059660367
2017-02-14,1,0.00025608461402709367,0.0004997706537087196,-4.4276835491130484e-05,0.011786770808811433,0.9907011781237671
2017-02-16,1,0.0016652532048406269,0.002031817824492183,-0.0006009720582305742,0.00863173583677064,0.9928459006398731
2017-02-21,1,0.0035740381093833985,0.004304273757447717,-0.004017837031117457,0.005955596940786757,0.9928867686945271
2017-02-23,1,0.003330282938239752,0.004015068797207462,-0.0011322522891450467,0.007278139825624477,0.9933618905108939
2017-02-27,1,0.003505422600479472,0.004203188967747129,-0.0011322522891450467,0.00863173583677064,0.9932479417470833
2017-03-01,1,0.004621726717021669,0.005459384245917555,-0.0020237034068704817,0.006404275814335338,0.9936613049246629
2017-03-03,1,0.004555270492093456,0.005409066883934733,-0.0014387532932944984,0.005126116881300807,0.9940705003237852
2017-03-07,1,0.0042801959398110455,0.005083522688172703,-0.0014387532932944984,0.005126116881300807,0.9940424472110932
2017-03-09,1,0.004324797820629243,0.005140150660138912,-0.0020237034068704817,0.00863173583677064,0.993343240422126
2017-03-13,1,0.004867176086959546,0.005756554768695058,-0.0027385583561759267,0.0043780159371157815,0.9926638223918234
2017-03-15,1,0.005318567026896691,0.006264014932281611,-0.0027385583561759267,0.0036401546788929606,0.9934192867033554
2017-03-17,1,0.005112389016035394,0.005983771310137756,-0.0036939068939039342,0.0024414678558620285,0.9915070687915503
2017-03-21,1,0.003965472237920648,0.004630265670230425,-0.002746841580166374,0.004151522535554291,0.992748119269338
2017-03-23,1,0.0017191573092712738,0.0017333494045888185,-0.002746841580166374,0.004151522535554291,0.9929170884016655
2017-03-27,1,0.0021512553966490794,0.0022371534295045122,-0.002746841580166374,0.004151522535554291,0.9914971807445074
2017-03-29,1,0.0015673285376952254,0.0015904759201767198,-0.002746841580166374,0.006623885724650818,0.9915037239884962
2017-03-31,1,0.0015635679110116902,0.0015803023369036998,-0.0034695428709835743,0.009365483019806362,0.9900834732813563
2017-04-04,1,0.0016872902034931769,0.0017427520917914759,-0.0034695428709835743,0.009365483019806362,0.9888352036348611
2017-04-06,1,0.0018837724500828784,0.001940428700329856,-0.002746841580166374,0.009365483019806362,0.9889622857964943
2017-04-10,1,0.0020010554422459524,0.002128026821254344,-0.0034695428709835743,0.009365483019806362,0.9883717420889473
2017-04-12,1,0.0022255955324247813,0.002409650665380804,-0.0051705105508676255,0.009365483019806362,0.9881585845425395
2017-04-17,1,0.0010311491857916064,0.001087283866468496,-0.0008816192898976165,0.016312645084072926,0.9886735332648411
2017-04-19,1,0.0012648938287214096,0.0013045441155138762,-0.004682418388973562,0.009584997732466231,0.9879990396801048
2017-04-21,1,0.002189222636916943,0.002405641003308807,-0.004682418388973562,0.010941163788308575,0.9878620257387211
2017-04-25,1,0.0029277441166038953,0.0031979571537139803,-0.005537738524794512,0.009246180308986666,0.9888416320850573
2017-04-27,1,0.002466575371373142,0.0025751999384976973,-0.005537738524794512,0.009246180308986666,0.988777830103514
2017-05-01,1,0.003497392728774018,0.0037880063496592044,-0.005537738524794512,0.009246180308986666,0.9894018708495615
2017-05-03,1,0.0034312734832743124,0.003851937131642052,-0.005537738524794512,0.01188623878408681,0.9892526718114187
2017-05-05,1,0.0041319237305360475,0.004632647133928697,-0.005537738524794512,0.009246180308986666,0.990043044450762
2017-05-09,1,0.0036941434389811943,0.004166011032694764,-0.0017200884317775844,0.009246180308986666,0.990911986774603
2017-05-11,1,0.0035702071853884257,0.004020611767589774,-0.0017200884317775844,0.009246180308986666,0.990764292064993
2017-05-15,1,0.0041978785421319855,0.004689017337268815,-0.00568716624725163,0.008347975237179665,0.9910508578449964
2017-05-17,1,0.0022469571542435927,0.002413758627347241,0.0007322624702770552,0.009246180308986666,0.9920626638931969
2017-05-19,1,0.003017129746700876,0.003256885902753117,0.0007322624702770552,0.00866300023577241,0.9926755757541412
2017-05-23,1,0.002865008544359165,0.0030803443496057615,0.0007322624702770552,0.007486937152598372,0.992663378154091
2017-05-25,1,0.002989859388370977,0.0032119930049017862,-0.0025666759831064873,0.00743777888636923,0.9923470243055293
2017-05-30,1,0.004389662478420375,0.004854806693467665,-0.00922646505958789,0.005016255960385596,0.9914514332244591
2017-06-01,1,0.0044492863518322875,0.004901037755171035,-0.00922646505958789,0.005016255960385596,0.9920767320277328
2017-06-05,1,0.004193307970660988,0.004527213357470101,-0.00922646505958789,0.005917766417307572,0.9908921852355199
2017-06-07,1,0.003951216267353749,0.004244689011224597,-0.01042368262137705,0.005917766417307572,0.9900611401805728
2017-06-09,1,0.0037745198133388594,0.0040622437030763524,-0.00922646505958789,0.00833221176147096,0.9898823826223644
2017-06-13,1,0.0029712820896184698,0.003104871230620882,-0.007821445161495438,0.012251183875470433,0.9898895694969728
2017-06-15,1,0.0032477500300118257,0.003394693766441361,-0.008209193127795986,0.01391294008640127,0.9892617750367987
2017-06-19,1,0.004349311955260395,0.0047024598834244265,-0.008209193127795986,0.00885208225709289,0.9891479892042899
2017-06-21,1,0.0025957893511641744,0.002624818286326854,-0.007216391821442465,0.00828800012357639,0.9901377889458205
2017-06-23,1,0.0012308744105876028,0.0014306802070412502,-0.007216391821442465,0.01391294008640127,0.9899578498860787
2017-06-27,-1,-0.000820830248979397,-0.00031830646311803846,-0.007061193320276427,0.01391294008640127,0.9901011367463542
2017-06-29,1,0.00044675444007178603,0.0006730528942943957,-0.007061193320276427,0.014301151700920639,0.9896574209379869
2017-07-03,1,9.068638324477595e-05,0.00042378004963573173,-0.007216391821442465,0.012990722220498463,0.9900468153367308
2017-07-06,-1,-0.0009685752101699901,-0.0005012988271065005,-0.0065269254492933675,0.012990722220498463,0.9902833590535272
2017-07-10,-1,-0.000850895472318142,-0.0003883954281065378,-0.003512304483682667,0.014301151700920639,0.98947358720447
2017-07-12,1,0.0009882316621240617,0.001139495779425515,-0.003512304483682667,0.014783797995094423,0.9897484965363162
2017-07-14,1,0.0016999217209857085,0.001717633381183188,-0.003512304483682667,0.0133098136300238,0.9885238409721397
2017-07-18,1,0.0009847190707537295,0.0011038167681041283,-0.0018762207308694362,0.015730035951824376,0.9880723081783406
2017-07-20,1,0.0007981476766303822,0.0009337211661784328,-0.0039487641556677396,0.015730035951824376,0.9875366668396204
2017-07-24,1,0.0022775096039964393,0.0023794506701637712,-0.008986888009796294,0.0133098136300238,0.988015438534759
2017-07-26,1,0.0010758503428461024,0.0011509806586740244,-0.008986888009796294,0.0133098136300238,0.9880338330829865
2017-07-28,1,0.0012969671399248141,0.0013652384685777256,-0.008986888009796294,0.011314472163108116,0.9880934517531721
2017-08-01,1,0.0008981525946404091,0.0010231089071702198,-0.009594670150890298,0.010149293664295393,0.9882276425546921
2017-08-03,1,0.0014891831197610056,0.0015213150931986151,-0.009594670150890298,0.014655262850908528,0.9871766569556466
2017-08-07,1,0.0027810920275718972,0.0029331808265649845,-0.009594670150890298,0.009522609756706607,0.9883862733936241
2017-08-09,1,0.003147548073485974,0.0033497987246449944,-0.009594670150890298,0.009522609756706607,0.9883852876687375
2017-08-11,1,0.001552212638233765,0.0015997919704687472,-0.00869765670126206,0.011762955236736358,0.9896274560344233
2017-08-15,1,0.0023715392049361047,0.0024481552806088153,-0.00869765670126206,0.008540109545512542,0.9903788789407214
2017-08-17,1,0.002167278908536883,0.0022350415334105216,-0.004845796735783985,0.008540109545512542,0.9908258931109306
2017-08-21,1,0.001790164687270701,0.001794133622332701,-0.004482685032954058,0.008204453738059898,0.9910367626861242
2017-08-23,1,0.0013939919575799281,0.001448302775888888,-0.0038027448495241032,0.009075169937696262,0.9915525686742097
2017-08-25,-1,-0.0004947931295234968,-0.00019464861948580723,-0.0022792516285782115,0.014475024671381948,0.9904949098845695
2017-08-29,-1,-0.0010463323281465493,-0.0006969224400873123,1.8946661722929318e-05,0.014844899215023587,0.990075155992311
2017-08-31,1,0.0003071708527801253,0.0005139533422157243,-0.0022792516285782115,0.014844899215023587,0.9901225623354405
2017-09-05,0,-6.501775458168707e-05,0.00018423604042505236,-0.002441038841091397,0.014844899215023587,0.9895886374840538
2017-09-07,0,-0.0002793666143708557,8.077613334175437e-05,-0.002441038841091397,0.015764711678545082,0.9892524232701515
2017-09-11,1,0.0008557414661687564,0.0010512603710801389,-0.004482685032954058,0.011840020175074658,0.9901397988161832
2017-09-13,1,0.0012213198142856023,0.0013557946632521594,-0.005072115601320419,0.011840020175074658,0.9896685525735099
2017-09-15,1,0.001591522851948871,0.0016279123186209007,-0.005072115601320419,0.011840020175074658,0.9897186991559013
2017-09-19,1,0.0013799302110387148,0.0014114103390566047,-0.005406447314914846,0.012207072395678007,0.988767096457923
2017-09-21,1,0.0022352168994241354,0.002353563109962751,-0.005406447314914846,0.010890632532193984,0.9893584396583609
2017-09-25,1,0.0013730124381263213,0.0014327410518550484,-0.004481277754172655,0.010890632532193984,0.9905692148299737
2017-09-27,1,0.002555417146444676,0.0026818224836167143,-0.005406447314914846,0.008619247696026336,0.9901239823549847
2017-09-29,1,0.0028634159345045955,0.00300805222772001,-0.004481277754172655,0.008872861485254336,0.9900039744394343
2017-10-03,1,0.0024081401479241356,0.0024892092656356125,-0.004481277754172655,0.010890632532193984,0.986445071186443
2017-10-05,1,0.003776175403304336,0.004086094039439422,-0.00601219980955749,0.007987440927113492,0.9864726246193088
2017-10-09,1,0.0028277359953078306,0.002928268282610778,-0.005404277170324231,0.009163866571518962,0.9855843923646086
2017-10-11,1,0.002922661355131139,0.003090253039441395,-0.001982412698374521,0.009163866571518962,0.9860681765585849
2017-10-13,1,0.002874537905794939,0.0030275719020992904,-0.005023984923054731,0.009163866571518962,0.9854741522739935
2017-10-17,1,0.0025657635321976987,0.0026887413395395576,-0.004977035935276043,0.008297272831695995,0.9862629063861555
2017-10-19,1,0.0027615800740442764,0.0029582732706423965,-0.004245475271642256,0.008679727406607638,0.9860524021344449
2017-10-23,1,0.0033991301991041245,0.0037000104892095445,-0.004245475271642256,0.008297272831695995,0.9864082673075827
2017-10-25,1,0.0025819106216002138,0.002770784886895186,-0.0033793124903553134,0.008679727406607638,0.9868697677490954
2017-10-27,1,0.0037808004184184366,0.004120803279511892,-0.004320296123827692,0.007018147728739248,0.9887082366110265
2017-10-31,1,0.006069166584198945,0.006695614196471831,-0.005847395473657821,0.0062397584599670035,0.9904762614947571
2017-11-02,1,0.004548222500659428,0.004953593808769648,-0.004116615109281737,0.004952824881735466,0.9920513290328218
2017-11-06,1,0.005729175120991274,0.0063122204330076405,-0.006611887167426632,0.0034069485329949207,0.9902238447247611
2017-11-08,1,0.005946827057543155,0.006584836412804928,-0.006611887167426632,0.003771786440686563,0.9899304131176948
2017-11-10,1,0.005174889000178452,0.0056931388383013905,-0.005847395473657821,0.005283635952691644,0.9906309090817711
2017-11-14,1,0.004454515200110054,0.004843472086585957,-0.005241557523492889,0.005283635952691644,0.9912364824280099
2017-11-16,1,0.003947817721142797,0.004207504739507307,-0.005847395473657821,0.00453551867294407,0.9904855964233565
2017-11-20,1,0.003664623711435196,0.0038704839137373185,-0.005847395473657821,0.005451454374278155,0.9900908588241973
