JNU-Tangyin/eata/results/Batch4_SP500/Batch4_SP500-K.csv
Date,Action,Predicted_Q25,Predicted_Q75,Actual_Q25,Actual_Q75,RL_Reward
2010-12-14,0,0.0,0.001216750667448443,-0.002640890992056175,0.0016183154081293397,0.9979605576137481
2010-12-16,0,0.0,0.0,-0.00292724277417346,0.001954307521396833,0.9967075750914655
2010-12-20,-1,-0.0010063056340992903,-0.000744716482149516,-0.00292724277417346,0.0018646174614946995,0.9969011528058643
2010-12-22,0,0.0,0.0,-0.002640890992056175,0.0029916623945737187,0.9962514153010046
2010-12-27,0,0.0,0.0,-0.0023723968731375012,0.0029916623945737187,0.9962637561841612
2010-12-29,0,0.0,0.0,-0.0031817416373608525,0.0029916623945737187,0.9955338305686706
2010-12-31,0,0.0,0.0,-0.004008920902125242,0.0029916623945737187,0.9950452307293107
2011-01-04,0,0.0,0.0,-0.0038947169486263484,0.002855626530647677,0.9953819008002649
2011-01-06,1,0.0002624194087989906,0.00029240299337865384,-0.00285070039305681,0.004104660280545561,0.9927885914426742
2011-01-10,0,0.0,0.0,-0.0033275133210873375,0.004104660280545561,0.9927049384339587
2011-01-12,0,0.0,0.0,-0.003933915719116648,0.003696552688767436,0.9925695125748529
2011-01-14,0,0.0,0.0,-0.003614874387812048,0.005243850992989577,0.9928006594102302
2011-01-19,-1,-0.00036091381792362936,-0.000291730602651431,-0.003933915719116648,0.005243850992989577,0.9926140762877946
2011-01-21,1,4.222138028441088e-06,2.275271774321835e-05,-0.003933915719116648,0.0017886837097632912,0.9933132861599063
2011-01-25,0,0.0,0.0,-0.003933915719116648,0.0038157314195610944,0.993097955854513
2011-01-27,0,0.0,0.0,-0.003614874387812048,0.0038157314195610944,0.9935613043866098
2011-01-31,0,0.0,0.0,-0.0032780815705805415,0.005132613871562612,0.9931905886465833
2011-02-02,0,0.0,0.0,-0.0032780815705805415,0.005813003329217111,0.992536640820144
2011-02-04,0,0.0,0.0,-0.0032780815705805415,0.005132613871562612,0.9950259871408085
2011-02-08,0,0.0,0.0,-0.0031001356001995606,0.006618099256413612,0.9945560422836408
2011-02-10,0,0.0,0.0,-0.0003301872397368809,0.006618099256413612,0.9948764642862397
2011-02-14,0,0.0,0.0,-0.003892279507449882,0.00545728093845348,0.9946264176061506
2011-02-16,0,0.0,0.0,-0.004479414500190238,0.00545728093845348,0.9945670891594125
2011-02-18,0,0.0,0.0,-0.004479414500190238,0.006618099256413612,0.9939121224755416
2011-02-23,0,0.0,0.0,-0.005991472413704889,0.006618099256413612,0.9939281694824428
2011-02-25,0,0.0,0.0,-0.004235029621571647,0.006618099256413612,0.9940585458760233
2011-03-01,0,0.0,0.0,-0.0037289233800121245,0.006566851053329969,0.9945130851496665
2011-03-03,0,0.0,0.0,-0.0037289233800121245,0.003592737722544705,0.9953340628697068
2011-03-07,0,0.0,0.0,-0.0037289233800121245,0.003018655995815203,0.9955810858141123
2011-03-09,0,0.0,0.0,-0.004089833173698546,0.0025638410148097622,0.9957060837598914
2011-03-11,1,0.0019180231697144652,0.0021135135414697193,-0.004469924091659398,0.0017644260086180426,0.9948384949693838
2011-03-15,1,0.0012001247229686612,0.0012914200600492468,-0.0037289233800121245,0.003018655995815203,0.9954017525375184
2011-03-17,1,0.000815108257937565,0.0008567304900391683,-0.0018500347837932046,0.004730161649126001,0.9956945013595009
2011-03-21,1,0.0010336687539835789,0.001086816877832295,-0.0027051996248106617,0.0042923239835441565,0.9961234781655058
2011-03-23,1,0.0007120025752106419,0.0007219688468811801,-0.0013948141742822554,0.004730161649126001,0.9962870800570462
2011-03-25,1,0.0009968464199423123,0.0011015642194327803,-0.0012389213096959896,0.004730161649126001,0.996363217478742
2011-03-29,0,0.0,0.0,-0.0012389213096959896,0.005949157595346823,0.9957429509309564
2011-03-31,0,0.0,0.0,-0.0012389213096959896,0.007190179765480527,0.9950204513430086
2011-04-04,0,0.0,0.0,-0.0012389213096959896,0.007190179765480527,0.9951027030743053
2011-04-06,0,0.0,0.0,-0.002152327623307999,0.007190179765480527,0.994873565716776
2011-04-08,0,0.0,0.0,-0.0017255048163783383,0.007190179765480527,0.9946942850835856
2011-04-12,0,0.0,0.0,-0.003634001748295889,0.007190179765480527,0.9946596249197079
2011-04-14,0,0.0,0.0,-0.003634001748295889,0.007571178750752106,0.9944163715564103
2011-04-18,1,0.0009223634618158675,0.0009308684787006819,-0.0037192397654591345,0.007571178750752106,0.9945201369022163
2011-04-20,1,0.0010658589119225499,0.001092118375675899,-0.0037192397654591345,0.007571178750752106,0.9946148664312741
2011-04-25,1,0.0006699396963992536,0.0007054898431745795,-0.004077830832172955,0.007571178750752106,0.9943962802107983
2011-04-27,1,0.0014086555978368679,0.0014752567787639293,-0.005229655894514636,0.0031104491760238864,0.9944680201707394
2011-04-29,1,0.001626988573784293,0.001705243705564972,-0.00540958537464488,0.0027102704096344313,0.9942548448043443
2011-05-03,1,0.0016763770229941866,0.0017756432891172947,-0.005839897830870743,0.0028523562612913452,0.9934377308777973
2011-05-05,1,0.0011328066622202147,0.001158566939317686,-0.005988818105159812,0.0028523562612913452,0.9930555698718947
2011-05-09,1,0.0013353516274590492,0.0014274663857245485,-0.005839897830870743,0.0036512343126473175,0.9931652904665956
2011-05-11,1,0.0014444335622569799,0.001549677698511499,-0.005458961687082751,0.003430129906524027,0.9936605215177542
2011-05-13,1,0.00191795201389394,0.0020902817216795965,-0.006022339982769646,0.003430129906524027,0.9929588339411434
2011-05-17,1,0.0015978510998239355,0.001723096932348781,-0.008459809238701276,0.003430129906524027,0.9923039648585438
2011-05-19,1,0.0013682326065791554,0.001450191139441407,-0.008459809238701276,0.005873772684476298,0.9921884510446738
2011-05-23,1,0.0009243005946260377,0.0009421832261757723,-0.008459809238701276,0.006189634878729726,0.9922625610867747
2011-05-25,1,0.0005453369089221505,0.000576172325935382,-0.009621608891902632,0.006189634878729726,0.9920119315214978
2011-05-27,1,0.0007087973118541684,0.0007162458852725996,-0.009621608891902632,0.006189634878729726,0.992227757923391
2011-06-01,1,0.0003974139005963285,0.00045668382429449577,-0.00860605579294357,0.006102705993172568,0.9928763567193012
2011-06-03,-1,-0.0005840598397352909,-0.00041133857025370214,-0.004984214856402499,0.006102705993172568,0.9938051373454919
2011-06-07,-1,-0.0003754053595701649,-0.00022351629075467884,-0.004984214856402499,0.006102705993172568,0.9937237167375725
2011-06-09,-1,-0.00032452771628949854,-0.00016687404318754432,-0.006394800513703372,0.006102705993172568,0.9934797753835984
2011-06-13,-1,-0.0006281948731782924,-0.0004372184045443007,-0.004984214856402499,0.006102705993172568,0.9942383586594702
2011-06-15,-1,-0.0010613556070121273,-0.0008568634249692209,-0.003332731304705181,0.006102705993172568,0.9948888368774202
2011-06-17,-1,-0.000833445248683963,-0.0006433506625873982,-0.004696347412170386,0.004610295303654241,0.9953344039937271
2011-06-21,-1,-0.001360795915822751,-0.0010697319293491087,-0.003332731304705181,0.004704227770660013,0.9953884870923444
2011-06-23,-1,-0.001971974012903984,-0.0015984445137164152,-0.0013570412217663477,0.0064205892537329765,0.9951677469525689
2011-06-27,-1,-0.0016297249360290146,-0.0012950452823274373,-0.0018833148691914283,0.004704227770660013,0.9960426640730968
2011-06-29,1,4.347884715114651e-05,7.885299400923676e-05,-0.0023440532627238236,0.004323225511095147,0.9960216267957301
2011-07-01,1,6.738459503060875e-05,0.00010833482359926649,-0.003234905554397268,0.004323225511095147,0.9957342889780795
2011-07-06,0,-6.478830375911305e-05,8.384262804903063e-06,-0.003234905554397268,0.0009019363095982704,0.9954884482326416
2011-07-08,-1,-0.0006790621327158826,-0.0005276973960359863,-0.003234905554397268,0.001081025924543361,0.9937895760285018
2011-07-12,-1,-0.00034978508961741204,-0.00023324086954086255,-0.0044483498251959705,0.001081025924543361,0.9917255492455774
2011-07-14,-1,-0.0005820734858786745,-0.0004416585904889561,-0.005772306173314455,0.005646455981328661,0.9903464010002018
2011-07-18,-1,-0.000735675057708078,-0.0005899992666867895,-0.00533288536926149,0.01084163704307661,0.9891638168339268
2011-07-20,-1,-0.0006700395354558554,-0.0005207443838709286,-0.00533288536926149,0.01084163704307661,0.9895403328124488
2011-07-22,-1,-0.0004526059652230241,-0.00032054902822428586,-0.010803074582328431,0.006900335766766197,0.9889520563847475
2011-07-26,-1,-0.00014930988470263619,-8.744309457747225e-05,-0.010803074582328431,0.01100469136134089,0.9880275413381266
2011-07-28,-1,-0.0001132392495658574,-5.9588839840662874e-05,-0.012254955273070434,0.01100469136134089,0.9876507320815824
2011-08-01,-1,-0.00022244923530404973,-0.00017603234880452027,-0.012254955273070434,0.013120912642989143,0.9868187658193875
2011-08-03,-1,-0.0006038997602343999,-0.0005116602419375322,-0.01071125044483345,0.013120912642989143,0.9869301857764846
2011-08-05,-1,-0.0011412710250235242,-0.0009639865494162895,-0.007559610244155206,0.01100469136134089,0.9889846044733344
2011-08-09,-1,-0.0016807553735905883,-0.0014216783702284662,-0.006500049082873928,0.01100469136134089,0.9904572050714158
2011-08-11,-1,-0.0016986719084573706,-0.0014535738302672752,-0.006500049082873928,0.00912922031021445,0.9909408674219246
2011-08-15,-1,-0.0011891218317537826,-0.0009903804692511483,-0.007121834411388738,0.007434760004012011,0.9919614932220587
2011-08-17,-1,-0.0014852896911105216,-0.0012441208527272478,-0.007121834411388738,0.007863832668237156,0.9907560509132891
2011-08-19,-1,-0.0020299275945336185,-0.0017399963899891562,-0.006500049082873928,0.007863832668237156,0.9909766253173172
2011-08-23,-1,-0.0012952735393378175,-0.001094816638111408,-0.007121834411388738,0.005897229844726208,0.9912861496083761
2011-08-25,-1,-0.001474009374939546,-0.0012667598724604582,-0.006500049082873928,0.005897229844726208,0.9917349204629007
2011-08-29,-1,-0.0006661797519965206,-0.0005509355422649077,-0.006500049082873928,0.006232284788661724,0.9914763301229446
2011-08-31,-1,-0.0007228950515295732,-0.000590820725016991,-0.007121834411388738,0.004352944084349773,0.9916090434789019
2011-09-02,-1,-0.0009066735986386969,-0.0007755730828640366,-0.008618129806913007,0.004352944084349773,0.9913738538366482
2011-09-07,-1,-0.00020065200997116685,-0.00017060511858470336,-0.008618129806913007,0.004352944084349773,0.991655842016822
2011-09-09,-1,-0.0012287344359957998,-0.0010764925529489432,-0.00649013480037025,0.005563149889511076,0.9922245912567087
2011-09-13,-1,-0.0012960533188037034,-0.001147891380559273,-0.004981465399511806,0.0065904230618296445,0.9920050459565641
2011-09-15,-1,-0.0006287341573130721,-0.0005526464211703856,-0.006575347605319912,0.005563149889511076,0.9927390597146958
2011-09-19,-1,-0.0003468763535475093,-0.0003327875079174213,-0.004981465399511806,0.0065904230618296445,0.9926419522038858
2011-09-21,-1,-0.000625094067946708,-0.0006014865476609097,-0.004981465399511806,0.0065904230618296445,0.9930213929920582
2011-09-23,-1,-0.0003644103374132626,-0.00034909378973587736,-0.004981465399511806,0.008469041894320255,0.9928522327368872
2011-09-27,1,0.00015051734329806459,0.00020898025081914534,-0.005921617787993596,0.00455597938718179,0.9933989425135757
2011-09-29,0,-2.1999310007187337e-05,1.2934191807526413e-05,-0.004981465399511806,0.008469041894320255,0.9929044977326166
2011-10-03,-1,-0.0003275256931056135,-0.0003241026944606887,-0.00484094646792945,0.008469041894320255,0.9929755908088546
2011-10-05,0,-1.9954038439917488e-05,5.263068917229881e-05,-0.0055000609932465295,0.009034920509098392,0.9925408769580958
2011-10-07,1,0.00032728172808210124,0.000435570664115085,-0.006855848651339943,0.00839602448322461,0.9893404110295512
2011-10-11,1,0.0006479657339524833,0.0008024008007298197,-0.009214091591024898,0.009150831294899804,0.9887236264321647
2011-10-13,1,0.00041202582554230433,0.0005215702751760827,-0.010529946435705062,0.009150831294899804,0.9883154971591056
2011-10-17,1,0.0006861704654760725,0.0008177020138369395,-0.010529946435705062,0.007404512002227139,0.9886516012229982
2011-10-19,1,0.0005495420563159413,0.0006713985984141958,-0.011175613599050973,0.007404512002227139,0.988288696094096
2011-10-21,1,0.0008819857226520598,0.0010479380633413378,-0.011175613599050973,0.006305685657841019,0.988633288449836
2011-10-25,-1,-7.741807090470842e-05,-7.620031956945683e-05,-0.010529946435705062,0.006305685657841019,0.9892121192864588
2011-10-27,1,0.0006920070135811248,0.0008048631078877019,-0.011175613599050973,0.0047313304233728365,0.9890231094942687
2011-10-31,1,0.0003601596114078892,0.0004405736167164613,-0.011175613599050973,0.0047313304233728365,0.9894646226947246
2011-11-02,1,0.0002972640593474887,0.00035662402248537743,-0.007304750386348439,0.0047313304233728365,0.9894923517446601
2011-11-04,1,5.0604232361741005e-05,5.307106263931914e-05,-0.005845439129937983,0.006305685657841019,0.9923391232115325
2011-11-08,1,0.00010563385896264566,0.0001257665088223024,-0.0049337483216087405,0.0047313304233728365,0.9932051123793181
2011-11-10,-1,-6.057448479625966e-05,-5.9891469786890026e-05,-0.0049337483216087405,0.004924562416415364,0.9932999141634421
2011-11-14,-1,-0.00012088985733410056,-9.67354151355834e-05,-0.006564078894332561,0.003333565385650966,0.9926516310738771
2011-11-16,-1,-0.00028611424281462005,-0.00025871297250196234,-0.005845439129937983,0.0032114618120612747,0.9933504649629072
2011-11-18,0,0.0,0.0,-0.005845439129937983,0.0017928197535399802,0.9934596454746338
2011-11-22,0,0.0,0.0,-0.0041858702222700205,0.010195621649682223,0.9927135166215169
2011-11-25,0,0.0,0.0,-0.0033177799857787753,0.008996618232848023,0.9933065109039999
2011-11-29,0,0.0,0.0,-0.002150802313684534,0.008996618232848023,0.9932523311822944
2011-12-01,0,0.0,0.0,-0.002150802313684534,0.008262338677205603,0.9938135533497021
2011-12-05,0,0.0,0.0,-0.002432211103797142,0.004699930579382516,0.9946334801735599
2011-12-07,0,0.0,0.0,-0.0018938059817953487,0.004699930579382516,0.9947335987106923
2011-12-09,0,0.0,0.0,-0.0014844790115732278,0.005005873783556316,0.9948824885733533
2011-12-13,0,0.0,0.0,-0.0010879776579034053,0.005005873783556316,0.9957024379570476
2011-12-15,0,0.0,0.0,-0.0014844790115732278,0.005005873783556316,0.9951194160280211
2011-12-19,0,0.0,0.0,-0.0014844790115732278,0.006015330942367487,0.9948785129191683
2011-12-21,1,0.0007938010028079728,0.0008536230849597141,-0.0018938059817953487,0.003653683990155162,0.9960633872683178
2011-12-23,1,0.0006266846539848714,0.0006346113722090784,-0.0022132707733926995,0.003653683990155162,0.9956674446039764
2011-12-28,1,0.0004803278564788355,0.0004988977362348348,-0.003058410979354032,0.0032225537849352474,0.9949339402761251
2011-12-30,1,0.0005092290599620996,0.0005195078945163486,-0.003058410979354032,0.0019590499467552697,0.9950788558942392
2012-01-04,0,-9.723408029382408e-05,2.1196490998793183e-05,-0.00448078991414884,0.003324534852993181,0.9937941282397886
2012-01-06,1,0.00020557995139085084,0.0002413965397015812,-0.00448078991414884,0.0042051424121825704,0.9934541468978945
2012-01-10,1,0.0005908728601026538,0.0005919241248811115,-0.005207861762871673,0.0028500235109821647,0.9936416884600423
2012-01-12,1,0.00019038591905620828,0.0002642378577921201,-0.005912772836373277,0.0018714453151222402,0.9934398510397322
2012-01-17,1,0.00011681999098149803,0.0001771387575075677,-0.005207861762871673,0.0043974238034694465,0.9936622308733107
2012-01-19,-1,-4.0516165099757436e-05,-2.5616694619274914e-05,-0.005386997204831814,0.0043974238034694465,0.9911450833084146
2012-01-23,1,0.00033358748351814343,0.0003945709798968134,-0.006389168195500778,0.0043974238034694465,0.9907115668587209
2012-01-25,1,0.00025116052060799763,0.0002932708115379708,-0.005386997204831814,0.005105700159335706,0.9905563304984696
2012-01-27,0,0.0,0.0,-0.005386997204831814,0.005105700159335706,0.9912408387897359
2012-01-31,0,0.0,0.0,-0.006045371561286931,0.005105700159335706,0.9909992732936586
2012-02-02,0,0.0,0.0,-0.006045371561286931,0.0043974238034694465,0.9922583978728082
2012-02-06,0,0.0,0.0,-0.006045371561286931,0.0031867237124395664,0.9924014585592504
2012-02-08,0,0.0,0.0,-0.005065387389420504,0.004561435897061761,0.9924524601452441
2012-02-10,0,0.0,0.0,-0.0033525116859370457,0.006057585389576558,0.992586939499272
2012-02-14,0,0.0,0.0,-0.005065387389420504,0.003992006176253773,0.9926139943316306
2012-02-16,0,0.0,0.0,-0.00501676925334682,0.003992006176253773,0.9947321221405743
2012-02-21,0,0.0,0.0,-0.0033525116859370457,0.003992006176253773,0.9952033792354207
2012-02-23,1,0.0005793041200284655,0.0006784035949950976,-0.004047237671565635,0.0015747390642917478,0.9960312692622361
2012-02-27,1,0.0004842053238270921,0.0005614016971964011,-0.003101795688267513,0.0015747390642917478,0.9959796794301072
2012-02-29,0,0.0,0.0,-0.0027156434583564446,0.004149336519930953,0.9960726945320086
2012-03-02,0,0.0,0.0,-0.0009538886606525761,0.004696440395118054,0.9960029280130214
2012-03-06,1,0.0003963487467147026,0.0004892705158063813,-0.0009510987002931487,0.004696440395118054,0.9960397928818927
2012-03-08,1,0.0005935268580308145,0.0006922027115340174,-0.002494969590727368,0.003948151438738409,0.9963468915884531
2012-03-12,1,0.0009636398954937172,0.0011380410035698061,-0.0029472187868993076,0.002479772480575362,0.996440237829616
2012-03-14,1,0.0005108103938644082,0.0006127516121205792,-0.002494969590727368,0.003629652539898036,0.9966437099817688
2012-03-16,1,0.0004602391895962333,0.0005569447414653583,-0.0015931568289444579,0.003629652539898036,0.9970967731908262
2012-03-20,1,0.0004780930291985926,0.0005594605876437131,-0.002494969590727368,0.003948151438738409,0.996742108818862
2012-03-22,1,0.0005126818501427243,0.0006173185313477303,-0.0015931568289444579,0.004203284691969899,0.9966947157013335
2012-03-26,1,0.0008443610903043645,0.0009956081312265767,-0.002758639617579949,0.003850827898086539,0.9939902168988258
2012-03-28,1,0.000497615465133308,0.0005828325535865168,-0.003603500718762798,0.003544801846731326,0.9940347007992929
2012-03-30,1,0.0005254219110839734,0.0005919570954462014,-0.003603500718762798,0.003544801846731326,0.9940701009027271
2012-04-03,1,7.843432021962426e-05,8.03508152448847e-05,-0.003603500718762798,0.003714696957641866,0.9932756688676454
2012-04-05,1,0.00011546011578833153,0.00012029109560460971,-0.004120461632911398,0.003993860702636902,0.992936219298924
2012-04-10,1,0.00019249909715687106,0.00021096496399320097,-0.003603500718762798,0.004171830483003745,0.9929411766185221
2012-04-12,1,0.00015968826046408547,0.0001610562623003105,-0.003603500718762798,0.004171830483003745,0.9929938018005527
2012-04-16,1,0.0003343161196201908,0.0003501078709755327,-0.003603500718762798,0.003993860702636902,0.9932155257355141
2012-04-18,-1,-0.00016455587194891348,-0.00011013479509304038,-0.001626838442499411,0.003637856428396338,0.9934796738505092
2012-04-20,1,0.0005246527321716825,0.0005949549948978941,-0.00457112196143962,0.002772206882004672,0.9933665710205782
2012-04-24,-1,-0.0005504819637087396,-0.00045785946781914537,-0.001626838442499411,0.002772206882004672,0.9964716307892821
2012-04-26,-1,-0.0002945429142779246,-0.00023858954900158837,-0.0018154909564136747,0.002772206882004672,0.9963664255161778
2012-04-30,-1,-5.0495928815326365e-05,-4.931234039581207e-05,-0.0018154909564136747,0.002772206882004672,0.9963846897669811
2012-05-02,-1,-5.447802977447778e-05,-2.9870139970171464e-05,-0.004727869108240985,0.0021420148443497375,0.9958241882889982
2012-05-04,-1,-0.0003799495678913241,-0.00032987225847498267,-0.004727869108240985,0.0015448255902299592,0.9957124893499548
2012-05-08,-1,-0.0004721006048590478,-0.0003815108979750616,-0.004727869108240985,0.0012321899488925065,0.9959205917225323
2012-05-10,-1,-0.0004737800428703423,-0.00038708160520522497,-0.004727869108240985,0.0012321899488925065,0.9958276639937826
2012-05-14,-1,-0.0004619831289702207,-0.0003731898332907563,-0.004727869108240985,0.0009707074300936309,0.9957144890558821
2012-05-16,-1,-0.00015718886947593022,-0.0001486224717852771,-0.004727869108240985,0.0015448255902299592,0.9949625413204957
2012-05-18,-1,-0.00045803408448505606,-0.0004108953596379149,-0.0023663254006744752,0.002593287338465704,0.9951459187423364
2012-05-22,-1,-0.000592019471878993,-0.0005019642709981882,-0.0028159479866449845,0.003061960917529487,0.9948587424621815
2012-05-24,-1,-0.0004009138762094726,-0.00034509536822999393,-0.0028159479866449845,0.0031525245595738585,0.9944767389986597
2012-05-29,-1,-0.0005907259076168541,-0.0005003421584084695,-0.005163540016818893,0.003061960917529487,0.9943085923499039
2012-05-31,-1,-0.0012170187553728565,-0.0010518755892303187,-0.0028159479866449845,0.0034338624639727727,0.9953056497716761
2012-06-04,-1,-0.0008115003698599196,-0.0007256827739102893,-0.0023663254006744752,0.003938187107268305,0.9953380854693501
2012-06-06,-1,-0.0008632814487813167,-0.0007611654321813447,-0.0023663254006744752,0.003938187107268305,0.9953878465428073
2012-06-08,-1,-0.0007780574498774498,-0.0006761153530807384,-0.0036446010869933244,0.0034338624639727727,0.9949833206208544
2012-06-12,-1,-0.0011141187138443774,-0.0009708417601396518,-0.0036446010869933244,0.004378268110257867,0.9941567392751895
2012-06-14,-1,-0.00015772236956399402,-0.00012668223789474934,-0.005163540016818893,0.004378268110257867,0.9944281341717566
2012-06-18,-1,-9.872311748476993e-05,-9.744604317680293e-05,-0.006231767296254339,0.004378268110257867,0.993524499457062
2012-06-20,-1,-0.0006897015832373186,-0.0005916553501625687,-0.006729106308923758,0.004267934123100516,0.9935430195038247
2012-06-22,-1,-0.0008088537681314666,-0.0006914735739516602,-0.00717422899646246,0.004267934123100516,0.9934583876962896
2012-06-26,-1,-0.0009845535881264546,-0.0008610013660816941,-0.007843558437228022,0.004267934123100516,0.9932777496987277
2012-06-28,-1,-0.0004976907342317186,-0.0004316760903879868,-0.007843558437228022,0.003520207272292581,0.9930307535370586
2012-07-02,-1,-0.000520550308357297,-0.0004368196349963967,-0.007843558437228022,0.004919892099734191,0.9930706818801248
2012-07-05,-1,-0.0007373490494867699,-0.000627053985398277,-0.007843558437228022,0.006442599199941295,0.9913429570564095
2012-07-09,-1,-0.0013327615881998276,-0.0011586187076827105,-0.006729106308923758,0.006970082492958005,0.9907971218115857
2012-07-11,0,0.0,0.0,-0.006729106308923758,0.0066295777667487,0.9912972221218527
2012-07-13,0,0.0,0.0,-0.0058243605568601515,0.004981282419479299,0.9917050008597386
2012-07-17,0,0.0,0.0,-0.005509506638476272,0.004981282419479299,0.9925018119061935
2012-07-19,0,0.0,0.0,-0.0016954615612118215,0.004981282419479299,0.9925474543024367
2012-07-23,0,0.0,0.0,0.00128348986708274,0.005691901642267705,0.9932156152698157
2012-07-25,0,0.0,0.0,0.0013810633195751616,0.005691901642267705,0.993568797996434
2012-07-27,-1,-0.0018309095630205379,-0.0016583336107760425,0.0013703664385651326,0.005673347407060825,0.9927535515938735
2012-07-31,-1,-0.0011419681067671218,-0.0010727795368836225,0.00019434127609091573,0.00476888375872247,0.993525342964179
2012-08-02,1,0.0007124050453221903,0.0008944196790454612,-0.001308221978196793,0.003829232543386936,0.9952853956424808
2012-08-06,1,0.0009914683576737605,0.0011960926396443676,-4.892455542472677e-05,0.003375462188692179,0.996454531801052
2012-08-08,1,0.0014348615068662648,0.0017003892780925055,-0.001308221978196793,0.00318731046481176,0.9963526411284078
2012-08-10,1,0.0016578555496745357,0.001959365075125645,-0.0029475011002475645,0.0028472721174578855,0.9962011539359623
2012-08-14,1,0.0014931572759804834,0.0017701849217771864,-0.0014876973441935682,0.003157439935451417,0.9963893388486402
2012-08-16,1,0.0017410659068805966,0.0020566811437961125,-0.0029475011002475645,0.0032126802758320897,0.9953790032404438
2012-08-20,1,0.002065332059503959,0.002442029171973723,-0.003687730948104354,0.0032126802758320897,0.9951031282316565
2012-08-22,1,0.0019258602317781775,0.0022909976336081862,-0.0026281470003855323,0.004532831821097448,0.994943981221165
2012-08-24,1,0.002136743474262215,0.002517695482366868,-0.0026281470003855323,0.0044986569886040035,0.9949241335918462
2012-08-28,1,0.0021589539406315994,0.002539794735871,-0.0031560140760555173,0.0044986569886040035,0.9947986803635129
2012-08-30,1,0.0016016892009243005,0.0019048676145966502,-0.0014876973441935682,0.0044986569886040035,0.9958368109027994
2012-09-04,1,0.001701515581505701,0.002007217202858385,-0.0014876973441935682,0.005280405550579766,0.995638634105729
2012-09-06,0,0.0,0.0,-0.0013258731485758745,0.005280405550579766,0.9959646736107982
2012-09-10,0,0.0,0.0,-0.0012292073088626052,0.005280405550579766,0.9959588783801688
2012-09-12,0,0.0,0.0,-0.002027613550415041,0.005280405550579766,0.9957447614495669
2012-09-14,0,0.0,0.0,-0.0014441094161560196,0.003939745651839017,0.9965140608520444
2012-09-18,0,0.0,0.0,-0.0010621883069158956,0.003939745651839017,0.9965741764936681
2012-09-20,1,0.0016167738265700545,0.001841644333281769,-0.0014441094161560196,0.003356778827205596,0.9965117593476988
2012-09-24,1,0.00189677489692927,0.0021593624179131717,-0.002027613550415041,0.0025146520483130606,0.9960328182729521
2012-09-26,1,0.0016243002701321896,0.0018340075651387335,-0.002027613550415041,0.0027123876567988568,0.9958993520009162
2012-09-28,1,0.0017915413993497633,0.002042637774490945,-0.002027613550415041,0.0037856935141791876,0.9952487746274499
2012-10-02,1,0.0018986760478657625,0.0021575080934896048,-0.003626740133973431,0.004096271160686468,0.9938600588812336
2012-10-04,1,0.0017979881339637229,0.002052902031223372,-0.003626740133973431,0.0058079673418514055,0.9938316153805336
2012-10-08,1,0.001726865354897343,0.0019693980362408417,-0.005992542230335263,0.006640763311251613,0.9927620931852584
2012-10-10,1,0.0010701404233598437,0.0012325606482118205,-0.006697287014536487,0.006640763311251613,0.9924603446923137
2012-10-12,1,0.001238614182166705,0.0014126521242430622,-0.006697287014536487,0.006640763311251613,0.9924577282284655
2012-10-16,1,0.0014043921291705353,0.001596859041018744,-0.006697287014536487,0.0058079673418514055,0.9925446739634772
2012-10-18,1,0.0016642619157939574,0.0018946912848010135,-0.004385516596802367,0.0058079673418514055,0.993053444519125
2012-10-22,1,0.0007996312535052319,0.000857661684348983,-0.0028359709383861775,0.0058079673418514055,0.9931217023874246
2012-10-24,1,0.0005091396299046903,0.0005152383743209924,0.0004457503621565248,0.0058079673418514055,0.9932239693774463
2012-10-26,1,0.0012184155257179393,0.0013203748494449424,0.0001621265821748634,0.005293732347251682,0.9942988150873991
2012-11-01,1,0.0015234447465156307,0.0016727483463352079,-0.0025387940635431096,0.004445592198673197,0.9956620239535128
2012-11-05,1,0.0014634478797028762,0.0015889905575041097,-0.0027576812614477355,0.003982926028811309,0.9955832356223293
2012-11-07,1,0.0017095198349882698,0.0018984834563825228,-0.0025387940635431096,0.003982926028811309,0.9965703917915006
2012-11-09,1,0.0011800467826644208,0.0012977133951878107,0.0006767230955795661,0.004143604444436094,0.9969880627677886
2012-11-13,1,0.0013892512985068043,0.001532410374606686,-0.0006718926564615979,0.004445592198673197,0.9967411738136671
2012-11-15,1,0.0012183493410495687,0.0013074803354879583,-0.0005321761611224482,0.004445592198673197,0.9968221233344191
2012-11-19,1,0.0014418963568372178,0.0015348517024551085,-0.0006718926564615979,0.0038925960751205685,0.9971757075037532
2012-11-21,1,0.0015551868357098627,0.0016802380908157084,-0.001423722939611868,0.0038925960751205685,0.9965566393881417
2012-11-26,1,0.0018285749601727975,0.0020025770880882088,-0.0026952231800210077,0.003175576712155595,0.9961100363156523
2012-11-28,1,0.0019123349652237832,0.0020937953551824003,-0.0033217805793341825,0.002702320656964179,0.9957808840287306
2012-11-30,1,0.0013433182384509417,0.0014078851692428704,-0.0038478303789939118,0.003175576712155595,0.995481448050536
2012-12-04,1,0.0015700963357926359,0.0016958576625059362,-0.005077165855772586,0.004995868937929035,0.9945742474304982
2012-12-06,1,0.0016203344524102937,0.0017546862961790575,-0.005077165855772586,0.003175576712155595,0.9947819089863688
2012-12-10,0,0.0,0.0,-0.005077165855772586,0.002825980646208352,0.9949025387928674
2012-12-12,0,0.0,0.0,-0.005442822888281796,0.002825980646208352,0.9948939316393914
2012-12-14,0,0.0,0.0,-0.005442822888281796,0.003918737258313565,0.9945146805351397
2012-12-18,0,0.0,0.0,-0.005442822888281796,0.005789657203522998,0.9941520762587019
2012-12-20,0,0.0,0.0,-0.0046634782057511336,0.005789657203522998,0.9945303653797998
2012-12-24,0,0.0,0.0,-0.0023145328856151604,0.0065402513621221,0.9945498086391448
2012-12-27,1,0.00045301042375613554,0.0005014337382149329,-0.0023145328856151604,0.0065402513621221,0.9944370086242419
2012-12-31,1,0.0006928192873264853,0.0007012814237908943,-0.0016492553629492452,0.00649002448057626,0.9948271573214856
2013-01-03,0,0.0,0.0,-0.0016492553629492452,0.005789657203522998,0.9956940223482678
2013-01-07,1,0.0012920370403600623,0.001388792937284927,-0.002296813916106836,0.006456365635298997,0.9951937593849576
2013-01-09,0,0.0,0.0,-0.002296813916106836,0.006918366872543083,0.994876002040496
2013-01-11,0,0.0,0.0,-0.0016492553629492452,0.006918366872543083,0.9951524773425225
2013-01-15,0,0.0,0.0,-0.0015379779745169672,0.006918366872543083,0.9955473175102172
2013-01-17,0,0.0,0.0,-0.0006391387350908014,0.005389598043871069,0.9958594038367143
2013-01-22,1,0.001910174661031935,0.0020158777125518956,-0.001611600384545325,0.00521601568759433,0.9959838131316276
2013-01-24,1,0.001806407307776702,0.0019004759101492197,-0.0017223694643761956,0.005092923144567835,0.9959764933998921
2013-01-28,1,0.001983453610487941,0.002006637417055489,-0.0017223694643761956,0.00582110097307938,0.9949460851137015
2013-01-30,1,0.0019128453380903893,0.001923651301966231,-0.001562349341659284,0.00582110097307938,0.9949344363379962
2013-02-01,1,0.0016640393860607216,0.0016893110961202083,-0.000257389957141675,0.006363960958435602,0.9949033877781868
2013-02-05,1,0.002060467363602055,0.0020704328040693012,0.00012396662162057341,0.006093036130989688,0.995439169612642
2013-02-07,1,0.0021558005314506776,0.0021692933013956026,0.00012396662162057341,0.005788653482689655,0.9957237079994775
2013-02-11,1,0.0018552726055482312,0.0018892486544670507,0.0005476629100846268,0.005788653482689655,0.9959700636059774
2013-02-13,1,0.0016848277209339374,0.0017495004643310248,0.0006513665711360443,0.005788653482689655,0.9958392863504041
2013-02-15,1,0.0021192683778982965,0.0021381758858194334,0.00012396662162057341,0.005788653482689655,0.9958406874422855
2013-02-20,1,0.002067997746482949,0.0020902056973982975,0.0006513665711360443,0.005788653482689655,0.9959003402423604
2013-02-22,1,0.0018858617665007257,0.0018938833920028003,0.0006513665711360443,0.006485014738125776,0.9952848965903159
2013-02-26,1,0.0016608572874797704,0.0017035237477396785,0.0006513665711360443,0.006485014738125776,0.9963713179251379
2013-02-28,1,0.0017746874586441646,0.001800768383282675,0.0006100443639291865,0.006485014738125776,0.996205506292358
2013-03-04,1,0.0017934746552425356,0.0018273319106412343,-0.00011831037855229018,0.005738523610561374,0.9958622507186601
2013-03-06,1,0.001673762433146226,0.0017301726076185708,-0.0004754468817501773,0.0065093682061427805,0.9950608451202082
2013-03-08,1,0.001174424177954065,0.001314339990686246,-0.0010194349045366546,0.0065093682061427805,0.9945562254238425
2013-03-12,1,0.0011024669795340067,0.0012521396460400383,-0.0018303390525714828,0.009201719306729715,0.9939393753549082
2013-03-14,1,0.0012551063543474732,0.0013836915784206194,-0.0032890605259822403,0.009201719306729715,0.9936427042512548
2013-03-18,1,0.001117208528523931,0.0012535737888369858,-0.005391289965770572,0.009556482211264697,0.9920021162295694
2013-03-20,1,0.0013355094862278765,0.0014387005994488734,-0.005391289965770572,0.009201719306729715,0.9921473588241888
2013-03-22,1,0.0012351714930277792,0.0013616872760496268,-0.005242144768928729,0.009201719306729715,0.9922949031950303
2013-03-26,1,0.0017371882706747484,0.001774360368398153,-0.005391289965770572,0.007186406078863561,0.9917389254411391
2013-03-28,1,0.001958727319734004,0.0019617660290445036,-0.005391289965770572,0.0058746766778193914,0.9919589166840012
2013-04-02,1,0.002230680338853046,0.0022742457739883585,-0.005391289965770572,0.0058746766778193914,0.9919215519066358
2013-04-04,1,0.0021392559754886487,0.0021726142985519664,-0.005988122330458945,0.005302820177365162,0.9915898685355228
2013-04-08,0,0.0,0.0,-0.005599022759691679,0.005039656853601287,0.9920467503775676
2013-04-10,0,0.0,0.0,-0.005599022759691679,0.005169599951963752,0.9920982795224872
2013-04-12,1,0.0016261319908112187,0.001636625827097021,-0.005579577419772259,0.005169599951963752,0.9921274285047541
2013-04-16,1,0.0018402447194924264,0.001899161852904973,-0.00492929920330941,0.005169599951963752,0.9932766587200175
2013-04-18,0,0.0,0.0,-0.0037987033122943645,0.005727674760412105,0.9930707315382545
2013-04-22,0,0.0,0.0,-0.00527321363412608,0.005169599951963752,0.9933440444974673
2013-04-24,0,0.0,0.0,-0.004881279946653988,0.005727674760412105,0.9937167708517792
2013-04-26,0,0.0,0.0,-0.005357175041353887,0.005242334396675407,0.9935769031995377
2013-04-30,0,0.0,0.0,-0.005357175041353887,0.005242334396675407,0.9930208279773699
2013-05-02,1,0.00014730191106524095,0.0002642842922964883,-0.005357175041353887,0.005242334396675407,0.9930782337545188
2013-05-06,0,0.0,0.0,-0.005357175041353887,0.006842264454947059,0.9926040641351552
2013-05-08,0,0.0,0.0,-0.007317387855954185,0.00613591408656777,0.9920245132815856
2013-05-10,1,0.0006236142996917625,0.0006672468591000088,-0.007317387855954185,0.007148825559924139,0.9911950420876384
2013-05-14,0,0.0,0.0,-0.007317387855954185,0.004818525902537037,0.9918123450526946
2013-05-16,0,0.0,0.0,-0.007317387855954185,0.004818525902537037,0.9912439129912204
2013-05-20,-1,-0.0001679192597019095,-2.2582156847341804e-05,-0.005360568128824244,0.006741854872151595,0.9915033905109238
2013-05-22,-1,-0.00033344946547237233,-0.0001503797913028355,-0.011356064747909157,0.004818525902537037,0.9904160696601984
2013-05-24,0,0.0,0.0,-0.011356064747909157,0.006741854872151595,0.990248875433097
2013-05-29,0,0.0,0.0,-0.006380013706364589,0.006741854872151595,0.9909698479009186
2013-05-31,0,0.0,0.0,-0.0026420886252313033,0.0074738475226211395,0.9913409338449364
2013-06-04,0,0.0,0.0,-0.0026420886252313033,0.007705892440198348,0.9914582628857556
2013-06-06,0,0.0,0.0,-0.0015833631824323667,0.007705892440198348,0.9923909346380283
2013-06-10,0,0.0,0.0,-0.0011485525277601851,0.006189003165648481,0.9932755580509169
2013-06-12,0,0.0,0.0,-7.529079736182299e-05,0.007259182431319031,0.9929995033469193
2013-06-14,0,0.0,0.0,-0.0005301740555834223,0.006189003165648481,0.9940618095239935
2013-06-18,0,0.0,0.0,-0.0014385549695032371,0.005528310774762336,0.9943307858331876
2013-06-20,0,0.0,0.0,-0.0005301740555834223,0.00733521236003645,0.9952893954295771
2013-06-24,-1,-0.0008952153689817873,-0.000684562487128821,-0.0008921312603978042,0.0062143464752209545,0.9953755288037108
2013-06-26,0,0.0,0.0,-0.0010660953592087291,0.0062143464752209545,0.9955535993856708
2013-06-28,0,0.0,0.0,-0.0009119195041098314,0.004719997395121611,0.996328517435722
2013-07-02,0,0.0,0.0,-0.002259568368387165,0.0032438257889372403,0.9965234974113951
2013-07-05,-1,-0.0002911116678925973,-0.00016819992228995524,-0.0031577630687580484,0.0022823415117269557,0.9960808906631551
2013-07-09,0,-2.324917616586329e-05,6.650658760309691e-05,-0.0031577630687580484,0.0016414646909045896,0.9959905599946828
2013-07-11,1,0.00042280704100989907,0.00044832080289348064,-0.003222534066381123,0.001617536711543611,0.995986046624576
2013-07-15,1,0.0003193340070298631,0.00036033870846188993,-0.003222534066381123,0.001617536711543611,0.9960508335951809
2013-07-17,1,0.0001454998073103724,0.00020056117801651888,-0.003582875443007563,0.0020078267316004325,0.9958778448889173
2013-07-19,1,0.0003467633766417079,0.0003894336609221745,-0.005660570960428055,0.0009448389141024075,0.994732126231936
2013-07-23,1,0.0004371945072396248,0.0004602300256036187,-0.005660570960428055,0.00041873953363791473,0.9946501477022336
2013-07-25,1,0.00039612327869824847,0.0004078222336163271,-0.006754453797246106,0.00041873953363791473,0.9942545272963046
2013-07-29,1,0.0004114267984474257,0.0004117460292336196,-0.00773885354601321,0.001066959594334355,0.9932889660732912
2013-07-31,0,-9.170153621171931e-06,3.563517912218798e-05,-0.00896915252010477,0.001066959594334355,0.9934226760651261
2013-08-02,-1,-0.0004525740868442471,-0.00036287380896714327,-0.008247773010341117,0.001981355092201193,0.9937913269818057
2013-08-06,1,4.037796538784356e-05,5.8318649719356854e-05,-0.008247773010341117,0.0010661117076549349,0.9941130160808413
2013-08-08,-1,-6.288092380295198e-05,-3.246006119799441e-05,-0.008247773010341117,0.0006844921482112192,0.9939779358228584
2013-08-12,1,0.00031303952341184445,0.00035519557901859174,-0.00896915252010477,0.0006585597453404475,0.9932470142718327
2013-08-14,1,0.00010656788845640881,0.00012348486046054278,-0.00896915252010477,0.0006605965176039465,0.9932513998920265
2013-08-16,-1,-0.0011652523915515964,-0.0010434212140142851,-0.006570502639420648,0.002726975174986921,0.9945066455930656
2013-08-20,-1,-0.0010493878909383827,-0.0009604870271974937,-0.006570502639420648,0.005126499995295878,0.9939168888577158
2013-08-22,-1,-0.0010927787476745228,-0.0009983858226319305,-0.006570502639420648,0.002726975174986921,0.9942544858901818
2013-08-26,-1,-0.0018667059598760493,-0.0016717155219230005,-0.0057033439455610345,0.0009944248158331166,0.9949775151074891
2013-08-28,-1,-0.0020864265769346313,-0.0018686303159074543,-0.005480057011511598,0.0009944248158331166,0.9952690016247833
2013-08-30,-1,-0.001949969891813526,-0.0017702181907987367,-0.005480057011511598,0.0006605965176039465,0.995011460152041
2013-09-04,-1,-0.001810939105753499,-0.0016498924955688095,-0.005480057011511598,0.0010950400980630458,0.9949321103434812
2013-09-06,-1,-0.002265945154553845,-0.0020495523022261816,-0.005047255311473692,0.00318894193359022,0.9945822518862218
2013-09-10,-1,-0.0028770108088434863,-0.002588409844114791,-0.004714488997521637,0.0034232770763780195,0.9946464660489087
2013-09-12,-1,-0.0018632550367008902,-0.0017301542652465903,-0.004714488997521637,0.0034232770763780195,0.9945904563011495
2013-09-16,-1,-0.0016326663126221789,-0.0015047817979759943,-0.005047255311473692,0.0018321228251118073,0.9950553596456897
2013-09-18,-1,-0.0011270768391578503,-0.00106986252502619,-0.004929187277801965,0.0018321228251118073,0.995024554316046
2013-09-20,-1,-0.0016703419938175323,-0.0015368321404086948,-0.004714488997521637,0.003216554488557661,0.9945434314946971
2013-09-24,-1,-0.0024960623109328613,-0.0022122714631628553,-0.002229043336631047,0.005580229860356827,0.9935639205199306
2013-09-26,-1,-0.0022829636557894,-0.0020367129197753743,-0.0035149698719788604,0.007206112298957843,0.9932860150744809
2013-09-30,-1,-0.0025857416020812997,-0.0023292681344899363,0.00012586581149182685,0.00799527307597334,0.992544326890493
2013-10-02,-1,-0.002332176060050801,-0.0021031875194461053,-0.0007621896166535286,0.008862354977596347,0.9920231018176814
2013-10-04,-1,-0.0016491041189037293,-0.0015297907482713228,-0.005359298123087811,0.008862354977596347,0.9918417185605426
2013-10-08,-1,-0.0010880280441051124,-0.0010088504302358144,-0.005359298123087811,0.008862354977596347,0.9915515304259556
2013-10-10,-1,-0.0005466909380619343,-0.0005102231179446746,-0.006787753144757225,0.007220383072768807,0.9914237742598577
2013-10-14,-1,-0.0007413319252943185,-0.0006803823040142621,-0.005359298123087811,0.007220383072768807,0.9915766330883096
2013-10-16,-1,-0.0005562422358691436,-0.0005138640191689835,-0.004642299727119737,0.00691435355689525,0.9919302060048475
2013-10-18,-1,-0.000379384639652289,-0.0003236536491697799,-0.006787753144757225,0.00691435355689525,0.9914676196551413
2013-10-22,-1,-0.00022761527358119524,-0.00016305510929487792,-0.007833472773616327,0.006802375090202325,0.991810725806698
2013-10-24,1,0.000164131881909533,0.0001719483522809714,-0.008658155125880224,0.006802375090202325,0.9913722766655194
2013-10-28,1,0.00046291551646038937,0.0004694162714476047,-0.008658155125880224,0.006802375090202325,0.9915468259585383
2013-10-30,1,0.0008150470800264482,0.0008941190439842306,-0.00957306288716581,0.006116604897597239,0.9915243446331468
2013-11-01,-1,-4.494142663984479e-05,-6.3193580935036936e-06,-0.007137790497102375,0.006116604897597239,0.992519045533366
2013-11-05,1,9.147511888892364e-05,0.00010836328766476738,-0.007137790497102375,0.0047829944093377,0.9924917007425476
2013-11-07,-1,-0.0005149809746054491,-0.0004794944304315916,-0.005691495613022878,0.0073046694230803275,0.9926884004086234
2013-11-11,-1,-0.0008223710878831822,-0.0007190927792029637,-0.007137790497102375,0.0073046694230803275,0.9921457711586719
2013-11-13,1,1.66168519267433e-05,2.496534926282841e-05,-0.007224015571470876,0.0058783120942874755,0.9919958787476792
2013-11-15,1,3.776378619108111e-05,5.814341098178962e-05,-0.0064668797729342435,0.0006029002405465978,0.9930053134952027
2013-11-19,-1,-0.00014473605365101814,-0.00013529850121827614,-0.005691495613022878,0.0035783397182388875,0.9935627197452085
2013-11-21,1,0.00023040348212918543,0.0003215295729272745,-0.0053015365399953565,0.0016545348878405283,0.994252646234902
2013-11-25,1,0.00045037028678164185,0.0005795972892075807,-0.004270284245094986,-0.0003247274702381811,0.9947507713381522
2013-11-27,0,-1.9475805229341646e-05,5.8647219671780084e-05,-0.003171287778766895,0.00343208097677245,0.9953887055750712
2013-12-02,1,0.00022945161496759614,0.00036321437647776915,-0.003006049340695446,0.004359354008025774,0.9952207502868917
2013-12-04,1,0.00046038733547560154,0.0006268347357200546,-0.003271700343022316,0.00343208097677245,0.9953595111212784
2013-12-06,1,0.0008332258543495363,0.0010407376917924952,-0.003271700343022316,0.00343208097677245,0.9956671881806576
2013-12-10,1,0.000727203387892317,0.0009582172282472502,-0.003271700343022316,0.002033442335409487,0.9960401577437489
2013-12-12,1,0.0005760379783833726,0.0007805820681535876,-0.003271700343022316,0.00343208097677245,0.9958177600282575
2013-12-16,1,0.0005325910458239545,0.0007318337361228285,-0.003271700343022316,0.004359354008025774,0.9955772605267182
2013-12-18,1,0.0007400880006597706,0.0009644937269145662,-0.00390104429625704,0.004359354008025774,0.9950034189339002
2013-12-20,1,0.0005130100222293405,0.0006829162478552188,-0.00390104429625704,0.004642666675894937,0.9947149400300034
2013-12-24,1,0.00033434193524496745,0.00046343112120155133,-0.005525141361640289,0.004642666675894937,0.9939343099516182
2013-12-27,1,0.0008770264548333733,0.0010970032036902136,-0.005525141361640289,0.004233824223360796,0.9944243930073863
2013-12-31,1,0.0008842506318643386,0.00109496062381995,-0.006408650664924815,0.0036152576696902366,0.9931321115125262
2014-01-03,1,0.0007241668198313254,0.0009354296903369327,-0.008818781306599847,0.0036152576696902366,0.992499179709316
2014-01-07,1,0.0008282619894983929,0.0010441713213015747,-0.008818781306599847,0.0036152576696902366,0.992896257893022
2014-01-09,1,0.00011072042020978661,0.00014679496791430435,-0.006408650664924815,0.005178497039871208,0.9925156647419018
2014-01-13,1,3.195169345421296e-05,5.751877122050483e-05,-0.005173563040569068,0.006357477539270406,0.99192320472628
2014-01-15,1,0.0005783823925031991,0.0006753325657046004,-0.007852288539288153,0.005178497039871208,0.9921669253976851
2014-01-17,-1,-2.9440655571509963e-05,-9.305488620911046e-06,-0.005004573193101604,0.006357477539270406,0.9921791369920069
2014-01-22,1,0.0002936812303379817,0.00030097247878429345,-0.006786086606304947,0.006971673513773544,0.9919050248714063
2014-01-24,-1,-0.0004771310869598374,-0.0003915643524652722,-0.004287271542420046,0.008679240494277055,0.9919246516257092
2014-01-28,-1,-0.0002868522472571364,-0.00023045239673486124,-0.0052323230446041005,0.008679240494277055,0.9916500216669848
2014-01-30,-1,-0.0014120766951676027,-0.0012064334970514445,-0.003316924047670278,0.008882761562014289,0.9924622932974061
2014-02-03,-1,-0.002304548255584308,-0.0019742218953062965,-0.001576701138985409,0.00925737513479778,0.9924087137034064
2014-02-05,-1,-0.0014222644819544836,-0.0012201470087052093,-0.001576701138985409,0.00925737513479778,0.9930317047743477
2014-02-07,-1,-0.00069112073146974,-0.0005936499823793768,-0.001576701138985409,0.008882761562014289,0.9939266332543957
2014-02-11,1,0.00019090561240175835,0.00020973522987804963,-0.001576701138985409,0.006632170525820423,0.9951334215603902
2014-02-13,-1,-0.00013254456224913363,-9.027072890273266e-05,-0.001791950732854014,0.006632170525820423,0.9945685781670682
2014-02-18,-1,-0.00033695469122943387,-0.0002640087555076579,-0.001791950732854014,0.006632170525820423,0.9943410467278129
2014-02-20,1,9.7122019522e-05,0.00013809448041195074,-0.0015725238814022374,0.0035746960422784026,0.9949348576008095
2014-02-24,1,3.154446027772771e-05,0.00011595922317317908,-0.002159587479506889,0.00252769114127496,0.9954232594999771
2014-02-26,-1,-0.00025195416036184363,-0.00013894231483027028,-0.0015725238814022374,0.003011990959004344,0.9956453635379325
2014-02-28,-1,-0.00010937891771618932,-4.6084556142988786e-05,-0.0009782956893893678,0.003011990959004344,0.9958576328971162
2014-03-04,1,0.0003803136919879231,0.00041352210737481107,-0.0014388797673711498,0.003011990959004344,0.9959362524317233
2014-03-06,1,0.0007648580831875079,0.0008071901200034036,-0.0014388797673711498,0.004307184911968356,0.9931556904204468
2014-03-10,1,0.0005426847785883637,0.0005574191898709554,-0.0015725238814022374,0.005992418238706599,0.9903287359909213
2014-03-12,1,0.0007552280724183357,0.0008028475538751867,-0.002185878427453928,0.006827041127784619,0.9887729663636765
2014-03-14,1,0.00021893919407371188,0.00022987683724979684,-0.002185878427453928,0.006827041127784619,0.9892592891296306
2014-03-18,1,0.000901630530674569,0.001016079090938118,-0.003404294036829241,0.004307184911968356,0.9898097376806166
2014-03-20,1,0.0009179586404734916,0.0010388674444377333,-0.003404294036829241,0.006827041127784619,0.9892769601316167
2014-03-24,1,0.0009253211274916029,0.001084412435058343,-0.0028574334286327946,0.006827041127784619,0.9892865364371062
2014-03-26,1,0.0011302445572823109,0.0013229536877811337,-0.0028574334286327946,0.006827041127784619,0.989237111325606
2014-03-28,1,0.0010232521402130923,0.0011645535730970568,-0.0028574334286327946,0.008854590350408371,0.9890115341055618
2014-04-01,1,0.0015094241286491656,0.001758041970981066,-0.004268190275126008,0.0062656632020416,0.9890975683039208
2014-04-03,1,0.0031653523789318804,0.0035938359575760645,-0.0051329619024022746,0.00477409511951195,0.9906041157089059
2014-04-07,1,0.0025097450711752726,0.00285532774513778,-0.0051329619024022746,0.004480194985836756,0.9930043335411823
2014-04-09,1,0.00312723991788664,0.003568688747458678,-0.004268190275126008,0.004480194985836756,0.9942050205539242
2014-04-11,1,0.0029546021732503583,0.0033736102090434197,-0.0031293097051543943,0.0062656632020416,0.9934056992086131
2014-04-15,1,0.00243094684265822,0.002752351069528397,-0.004142110883632888,0.0062656632020416,0.9930882948319308
2014-04-17,1,0.0029331240983205063,0.0033190537757285922,-0.004692858614988642,0.004562822120988882,0.9931929535156095
2014-04-22,1,0.002851373778110203,0.0032331505412212212,-0.004142110883632888,0.0044962543438656416,0.9935675222756563
2014-04-24,1,0.00257521924220795,0.002884073086777292,-0.004142110883632888,0.0044962543438656416,0.9934145148045413
2014-04-28,1,0.0027150651193479183,0.0030332274100074033,-0.004142110883632888,0.0044962543438656416,0.9932992502274107
2014-04-30,1,0.0024869926058712234,0.002780752440219039,-0.002681595087907491,0.005012445726226485,0.9934653761307504
2014-05-02,1,0.0021668138316269783,0.0024376794421464795,-0.00151412474721848,0.005012445726226485,0.9946601432452459
2014-05-06,1,0.0017741068653984006,0.0019708094819658544,-0.0007866831550455723,0.005012445726226485,0.9950347064136656
2014-05-08,1,0.0019210181621872819,0.0021225507272152277,-0.00151412474721848,0.00451838645268678,0.9950746330777485
2014-05-12,1,0.0028279790727222622,0.003140011007734227,-0.002681595087907491,0.003017370704313573,0.9954621519741851
2014-05-14,1,0.002384560313288753,0.0026396922287722554,-0.0028436503282995426,0.003017370704313573,0.995660091762328
2014-05-16,1,0.002259838517193787,0.0024889734880918376,-0.00151412474721848,0.0029635552495310617,0.9960043148789587
2014-05-20,1,0.0021990139052135422,0.002411108290458882,-0.0029540016617540196,0.002429746052215379,0.9954412395806969
2014-05-22,1,0.0022194362601150666,0.0024498200805290627,-0.0024029340832947086,0.003475975253423705,0.9956154865675884
2014-05-27,1,0.0022230123023055607,0.0024499030949673654,-0.006940390928373299,0.002429746052215379,0.9947309665657892
2014-05-29,1,0.0023455442755502733,0.002570318850578724,-0.00805216601301938,0.0020469089993898058,0.9941121111012758
2014-06-02,1,0.002465355357033171,0.002708030498321198,-0.00805216601301938,0.002114160554528089,0.9936652009827847
2014-06-04,1,0.002313511278731794,0.0025161717362930528,-0.00805216601301938,0.0022287053252551285,0.9939817194718525
2014-06-06,1,0.0019625661539200007,0.0021115901711701093,-0.008318920428089231,0.0025477620135557575,0.9940192209831163
2014-06-10,1,0.0016599640053580258,0.0017878969941979514,-0.007029309066729916,0.002922882877789982,0.9947332051960548
2014-06-12,1,0.0009378168135351279,0.0009442233075553225,-0.0045667144487127175,0.002922882877789982,0.9951891605491401
2014-06-16,1,0.0011962714003525715,0.0012516390688597995,-0.008318920428089231,0.002922882877789982,0.9947446874929257
2014-06-18,1,0.0004096865989314276,0.0004896654835198658,-0.0045667144487127175,0.0032252113694491834,0.9948969580426573
2014-06-20,1,0.0005235973404075743,0.0005852455110927944,-0.0045667144487127175,0.0032252113694491834,0.9949028985021947
2014-06-24,-1,-0.0008545202622054226,-0.000585173626029796,-0.0020816189060521868,0.0032252113694491834,0.9950747202286541
2014-06-26,-1,-0.0018322550691331277,-0.0014094840941783334,-0.0020816189060521868,0.0036982743472509026,0.9950898614463621
2014-06-30,-1,-0.001224087694695986,-0.0008854663080548777,-0.0036761859209109827,0.003194385903857795,0.9956114666184168
2014-07-02,-1,-0.0009842033433782051,-0.0007017961682285023,-0.008312621015538698,0.003194385903857795,0.9921635304914257
2014-07-07,-1,-0.0009185167579416942,-0.0006892152333767865,-0.005641035432133494,0.0036982743472509026,0.9909120223433022
2014-07-09,-1,-0.0009936239257603082,-0.0007422029138187111,-0.008720435083708834,0.0038292354612582662,0.9895586720238648
2014-07-11,-1,-0.0009475505112364735,-0.0007064813103137864,-0.008720435083708834,0.004712632148715822,0.988781971108962
2014-07-15,-1,-0.001205701410701169,-0.0009347959727151326,-0.0068797376072577306,0.0075156642338792615,0.9887362263774815
2014-07-17,-1,-0.0010075306922501226,-0.0007674060063519989,-0.0068797376072577306,0.008518080326154486,0.9886358339678162
2014-07-21,-1,-0.0011880906606646785,-0.000907666724472526,-0.0068797376072577306,0.008518080326154486,0.9885494005729646
2014-07-23,-1,-0.0016367356757879415,-0.0013145032867573723,-0.005824173675367201,0.008518080326154486,0.9886771541416547
2014-07-25,-1,-0.0014123298500779927,-0.0011317449695209033,-0.0068797376072577306,0.008518080326154486,0.9886451291528134
2014-07-29,-1,-0.0017793434310378249,-0.0014594535349673515,-0.005824173675367201,0.008668506776060588,0.9885123038573216
2014-07-31,-1,-0.00482502394139249,-0.004157231541041057,-0.0025669370113612015,0.008668506776060588,0.9901397620739455
2014-08-04,-1,-0.0029067328328859048,-0.002476214162704108,-0.0034883251797477276,0.008227235636000203,0.9927198022569634
2014-08-06,-1,-0.0030864472921707927,-0.0025953323259334284,-0.0018491259426463506,0.006117970742849035,0.9938881646945905
2014-08-08,-1,-0.002462633911244621,-0.002075724072877502,-0.0018491259426463506,0.004638450164770743,0.9943797025055597
2014-08-12,-1,-0.0024024379647049916,-0.0020214439863422496,-0.0016220574010595585,0.004212449703337206,0.9948897947962623
2014-08-14,-1,-0.0023511590178702745,-0.0019568002628606597,-0.0020893084862725,0.00394925147344174,0.994789313967603
2014-08-18,-1,-0.0021802563241625286,-0.001811142563806973,-0.002570854959210097,0.0035181711264161437,0.9950719123844822
2014-08-20,-1,-0.0017598700239711267,-0.0014555928838720451,-0.00410759908361008,0.0024969941015611937,0.9948495720925306
2014-08-22,-1,-0.001995358929066916,-0.0016735827019685205,-0.004219095585460801,0.0024969941015611937,0.9950127754892183
2014-08-26,-1,-0.0006086993527032876,-0.0005599934566492355,-0.00645836335014922,0.0024969941015611937,0.9942847839659446
2014-08-28,-1,-0.0011653390863838155,-0.0010235266836370574,-0.0071150900476567615,0.002169802890876693,0.994551955608133
2014-09-02,-1,-0.0007227893364004548,-0.0006521853461503323,-0.0071150900476567615,0.0019394902236508347,0.9946038589794138
2014-09-04,-1,-0.000833242641965019,-0.0007376265854701304,-0.010748363673457485,0.0015412711878163466,0.9939814608143038
2014-09-08,-1,-0.0012654557412731383,-0.0011082252906830276,-0.0071150900476567615,0.0015412711878163466,0.9942580268116499
2014-09-10,-1,-0.0006933158433926037,-0.0006333224923078048,-0.010748363673457485,0.0016240321126970686,0.9929457077728278
2014-09-12,-1,-0.001106037068418829,-0.0009957321426178893,-0.008208373740098382,0.0012238994947162093,0.9932490530569537
2014-09-16,-1,-0.0008882552095408507,-0.0008113434013883771,-0.010149107880834406,0.0012238994947162093,0.9925294659261594
2014-09-18,-1,-0.0010703995249999978,-0.000991857350495928,-0.0080094894365859,0.0011397031428856388,0.9932010798973728
2014-09-22,-1,-0.0014739918937976602,-0.001344076214309241,-0.0080094894365859,0.007857221137475298,0.9918920496362017
2014-09-24,-1,-0.0016519059133010454,-0.0014696862974737058,-0.006414555957774875,0.006068004208623075,0.9926703966196441
2014-09-26,-1,-0.002039158016059848,-0.001804134906589985,-0.005151320327701261,0.006068004208623075,0.9928853356595827
2014-09-30,-1,-0.001868300604911007,-0.0016719723734865374,-0.005151320327701261,0.007857221137475298,0.9922622357750215
2014-10-02,-1,-0.0015012993811877775,-0.0014068164883407218,-0.004697830915347911,0.008772505367829728,0.991600682912883
2014-10-06,-1,-0.0016810556846833633,-0.001550005014436956,-0.004697830915347911,0.008772505367829728,0.9919699728132992
2014-10-08,-1,-0.0013846893997758794,-0.0012914589189643743,-0.004697830915347911,0.006184820264459446,0.9929817106643613
2014-10-10,-1,-0.0018099708425144542,-0.0016789559610096289,-0.004509577796432769,0.008772505367829728,0.9922116986462252
2014-10-14,-1,-0.001698286857882195,-0.0015810320825710247,-0.0031185355868942515,0.006749656327304763,0.9928292268924188
2014-10-16,-1,-0.0016737512527336376,-0.0015712740566354872,-0.0015237962752294816,0.006749656327304763,0.9928210898278559
2014-10-20,-1,-0.000119289032513878,-2.7670802501164843e-06,-0.0015237962752294816,0.004205175300509477,0.9939106006796576
2014-10-22,1,0.00019703068692166837,0.000370952866636648,-0.0015237962752294816,0.005080984135875826,0.993775935597012
2014-10-24,1,0.00034951926197843055,0.0005564073171462553,-0.0024080453340205492,0.005080984135875826,0.9938677545322213
2014-10-28,1,0.0007656681925673134,0.0010166051641458695,-0.00289094288265713,0.003932727429360364,0.9941534082100204
2014-10-30,1,0.001321326407224615,0.0016221818913082563,-0.0027483451546668767,0.003932727429360364,0.9944203203563059
2014-11-03,1,0.001152074495938631,0.001407649414362182,-0.0027483451546668767,0.005080984135875826,0.9941000614214931
2014-11-05,1,0.0011048383826983302,0.0013656249335613408,-0.0030589332063945007,0.005080984135875826,0.9940336558509792
2014-11-07,1,0.000925852990486864,0.001144692374382003,-0.0030589332063945007,0.004488222379562352,0.9947830224330536
2014-11-11,1,0.001112412776386301,0.001368901251909419,-0.0038293160994050737,0.004488222379562352,0.9939661278480925
2014-11-13,1,0.0007506149973819088,0.0009260311147846819,-0.004043192625146607,0.005283413975498869,0.9913577696813942
2014-11-17,1,0.0011423978518696645,0.0013407965278254583,-0.004481417914290416,0.004488222379562352,0.9909917474224357
2014-11-19,1,0.0017436250981113567,0.002046204119882127,-0.004481417914290416,0.005371543107178165,0.9898849215635429
2014-11-21,1,0.0015750772402914788,0.001865871063161283,-0.004481417914290416,0.008446769010055859,0.9898683598499968
2014-11-25,1,0.0014295409960793648,0.001694794854367103,-0.004043192625146607,0.008446769010055859,0.9898635669639624
2014-11-28,1,0.002057219161812474,0.002413340682143744,-0.004043192625146607,0.006229014659509409,0.9906591351743664
2014-12-02,1,0.002178261174028293,0.0025462481102271673,-0.004883855221721498,0.0049764760699624756,0.9897470483069707
2014-12-04,1,0.0019006967325482839,0.002208929555819617,-0.0077203828893131045,0.0049764760699624756,0.989320301166792
2014-12-08,1,0.001951737545858946,0.0022762566022570957,-0.0077203828893131045,0.00726156789840879,0.988659399533397
2014-12-10,1,0.001361692948300912,0.001614443837897041,-0.006709552225492044,0.011687718290126646,0.9884627876963539
2014-12-12,1,0.0016054587397709597,0.0018689501726946623,-0.006709552225492044,0.008498483158884209,0.9901701781266342
2014-12-16,1,0.0008308270352430703,0.0009906543233182002,-0.003723311104432201,0.011687718290126646,0.9902987022328384
2014-12-18,1,0.0016758636896457993,0.0019315270167515755,-0.003723311104432201,0.011669711912949455,0.9909200737954763
2014-12-22,1,0.0005409428021394837,0.0005827103583266761,-0.003723311104432201,0.011573813548728063,0.9908130754279161
2014-12-24,1,0.00118644424361367,0.0012886671489121392,-0.006709552225492044,0.011573813548728063,0.9903692206268481
2014-12-29,1,0.0012395720284984703,0.0013697082314241074,-0.012279228822294194,0.011573813548728063,0.9893556825127722
2014-12-31,1,0.0006951678322788224,0.0007640053081005478,-0.012279228822294194,0.011573813548728063,0.9891172620723463
2015-01-05,1,0.00015671171464176517,0.0001604818925237283,-0.007801142214355578,0.011919984425583561,0.9891442833991975
2015-01-07,1,0.0010427829695957211,0.0011785272695107193,-0.007801142214355578,0.011573813548728063,0.9903956405829474
2015-01-09,1,0.0013291990634182248,0.0015106674580415138,-0.00800344573347933,0.008492481033158479,0.9908681480942563
2015-01-13,1,0.0012123775418908592,0.0013929411547444152,-0.006597894441760489,0.00869311208312179,0.9915496540425566
2015-01-15,1,0.0015278205485370336,0.0017330071030160136,-0.00800344573347933,0.0056704002163539165,0.9902476039613017
2015-01-20,1,0.002018040009312539,0.0022967330116885724,-0.00800344573347933,0.003647091555825104,0.9904066606648017
2015-01-22,1,0.002340422332075584,0.0026605127846469198,-0.00800344573347933,0.0033597235144225625,0.9906273784069771
2015-01-26,1,0.0019392049453789625,0.0022047220172422347,-0.006597894441760489,0.0035162273488544217,0.9913346816280942
2015-01-28,1,0.0013555975292242708,0.001545754610465948,-0.0022846003076669313,0.004990227706831051,0.9920463657543644
2015-01-30,1,0.0005361066550591191,0.00060485852271052,-0.0029401065191603645,0.004990227706831051,0.9931862908768673
2015-02-03,1,0.0009571851608682141,0.0010812916184462468,-0.0029401065191603645,0.004990227706831051,0.9934335206830498
2015-02-05,1,0.0009499001235889902,0.0010571906554371492,-0.004731257693905124,0.0035162273488544217,0.991897740852723
2015-02-09,1,0.0004355678462710776,0.0004735406405404795,-0.0029401065191603645,0.0035162273488544217,0.9929429093041715
2015-02-11,1,0.0003909004339681589,0.0003964539037797359,-0.003221067876053598,0.0035162273488544217,0.9925608875764708
2015-02-13,-1,-0.0011915081329685068,-0.0009970252927403499,-0.0029401065191603645,0.0048987767721892965,0.9942214790241783
2015-02-18,-1,-0.0009036937447382469,-0.000744787103952636,-0.003221067876053598,0.0048987767721892965,0.9936955053210353
2015-02-20,-1,-0.0009719478080782244,-0.0007904162331613762,-0.003984410642050276,0.0059425567242379854,0.9928284111660717
2015-02-24,-1,-0.0010917309688800976,-0.0008908406771205345,-0.005320590305608746,0.0059425567242379854,0.9924100429897746
2015-02-26,-1,-0.0011471560170364036,-0.0009147633630150976,-0.005320590305608746,0.0038740498466640644,0.9928094278365366
2015-03-02,-1,-0.0013295837977434991,-0.0010789948885772942,-0.005320590305608746,0.008258519413439728,0.9909533327330183
2015-03-04,-1,-0.0011625252109113992,-0.0009322739475656884,-0.005320590305608746,0.007928174260720445,0.9907784262424341
2015-03-06,-1,-0.002540921480214405,-0.0021283573269888965,-0.002916972265975281,0.007928174260720445,0.9917708831693846
2015-03-10,-1,-0.0025676654493741527,-0.002147585814604291,-0.004071347891918166,0.007928174260720445,0.9920187095247559
2015-03-12,-1,-0.0028825779108664273,-0.002413884252381782,-0.002916972265975281,0.007928174260720445,0.9923161794903558
2015-03-16,-1,-0.0020640859178805418,-0.0017385210393404504,-0.004000303182058099,0.004466119825151046,0.9928873328215119
2015-03-18,-1,-0.0018590107381099025,-0.001564466442809128,-0.004000303182058099,0.0035318475963305946,0.9937663878690546
2015-03-20,-1,-0.001418972160282513,-0.0011723514747415112,-0.0041788228731249235,0.0033743032199704337,0.9942806686352182
2015-03-24,-1,-0.0017480677292574746,-0.0014827362280140529,-0.0041788228731249235,0.0033743032199704337,0.9944053823891166
2015-03-26,-1,-0.0012211077743975731,-0.001048954454653353,-0.0041788228731249235,0.003138396585453542,0.9945676403053846
2015-03-30,-1,-6.311016683590671e-05,-2.9310875963133072e-05,-0.0041788228731249235,0.0020693536338289077,0.9962010563393023
2015-04-01,1,9.163887558141612e-05,0.00011597670562962914,-0.004432640239738771,0.0011657127833406514,0.99639324987738
2015-04-06,-1,-9.676150240840218e-05,-4.749069678964402e-05,-0.0041788228731249235,0.0018446903666965735,0.996255056140355
2015-04-08,-1,-0.0002311515500608223,-0.00016654135923980138,-0.00421950611015857,0.0018446903666965735,0.9957628379715886
2015-04-10,-1,-0.000197476858686051,-0.00013609922004111541,-0.00421950611015857,0.0018446903666965735,0.995522412496433
2015-04-14,1,8.083034306302277e-05,8.174011187241468e-05,-0.003156739710186477,0.0020693536338289077,0.9955194625397237
2015-04-16,1,2.747342701021693e-05,3.831230533360318e-05,-0.00219661532898894,0.00264822656626833,0.9952342843502132
2015-04-20,-1,-0.0004154787868786522,-0.0003590636581255784,-0.00219661532898894,0.002943485967466305,0.9949449441252088
2015-04-22,-1,-0.0006023047423242059,-0.0005222894602228426,-0.00219661532898894,0.002943485967466305,0.9952115674060947
2015-04-24,-1,-0.0004268795617353186,-0.0003922016119127235,-0.004247211357464222,0.002943485967466305,0.9949567229765104
2015-04-28,-1,-0.00030746322281701783,-0.0002937898225019949,-0.004421960284435944,0.0037697048699160923,0.9943689026741632
2015-04-30,-1,-0.0005643988858480775,-0.0005109754766388106,-0.0050236844261010265,0.0037697048699160923,0.9939029922916737
2015-05-04,-1,-0.00020037302658404811,-0.00018978167597251866,-0.006296764408154523,0.0028435709115316164,0.9941024824671681
2015-05-06,-1,-0.001073654158255835,-0.0009307994678692039,-0.004802077056319187,0.0028435709115316164,0.994846203615318
2015-05-08,-1,-0.0005884621147742841,-0.000521530398897182,-0.006296764408154523,0.0018745240171789484,0.9946755327299667
2015-05-12,-1,-0.0008515334730426755,-0.0007220493270379104,-0.006296764408154523,0.0032857362488509876,0.994275566748924
2015-05-14,1,8.115704871908746e-05,0.00011115576133980403,-0.006296764408154523,0.002870333706309724,0.9946873821654924
2015-05-18,1,0.0002473183409071479,0.00031721922560605943,-0.006296764408154523,0.002870333706309724,0.9946400384558259
2015-05-20,1,0.0001551608899259638,0.00021698199926010992,-0.004802077056319187,0.003469959702112026,0.9945519845427333
2015-05-22,-1,-3.9117973485720446e-05,-2.392466422809257e-06,-0.004147448082662141,0.003805022529015436,0.9947448897970136
2015-05-27,-1,-0.0005351260061959782,-0.00047649151268618355,-0.002584918402363284,0.0034684503944991986,0.9952888192770949
2015-05-29,-1,-0.0009951719500744932,-0.0008605316624964274,-0.002584918402363284,0.003397423857818791,0.995376712963398
2015-06-02,-1,-0.0007326217018245864,-0.0006692422768208649,-0.0016544282564795014,0.003397423857818791,0.995358560541279
2015-06-04,-1,-0.0005535869811718001,-0.0005180499611967668,-0.0016544282564795014,0.003966924874095116,0.9951190854704274
2015-06-08,-1,-0.0010363802875482926,-0.000938325118473493,-0.0010706332541064673,0.004578904781711898,0.994259456168283
2015-06-10,-1,-0.00023987650961879967,-0.0002056546099443028,-0.0026686350160112964,0.003966924874095116,0.9947752094742867
2015-06-12,1,0.00010512369218518958,0.00021438012487880501,-0.0026437622536540804,0.004578904781711898,0.9946503075663096
2015-06-16,1,0.00046072120380824576,0.0006376673256899704,-0.0026437622536540804,0.003966924874095116,0.9953387959100374
2015-06-18,1,0.0005573975537607904,0.0007291529171957603,-0.003327976813712612,0.003098170037104922,0.9950391450137143
2015-06-22,1,0.0003861777022739871,0.0005007466090839597,-0.004031314859530147,0.002602851271351156,0.9948830820699196
2015-06-24,1,9.3332097499192e-05,0.00013136518068207676,-0.004031314859530147,0.0033833266393366894,0.9946457280323683
2015-06-26,1,0.0002548085447349851,0.0003437602232393195,-0.002560051067658655,0.0036843375482091285,0.9949777642261873
2015-06-30,1,0.00022332428018851242,0.0003179734523007673,-0.0019846139352664217,0.0057352561147077045,0.994867089941128
2015-07-02,1,0.00018789748988017052,0.0002536872987181479,-0.0019846139352664217,0.005795019787735588,0.9946350110853114
2015-07-07,1,0.0007106759527372828,0.0008600379602121736,-0.0016011644527532225,0.005795019787735588,0.9949900850157285
2015-07-09,-1,-0.00013334691632612507,-0.0001023365700145737,-0.0010789334389656848,0.006067489030062462,0.9942303496350842
2015-07-13,1,0.0003218206898384003,0.0003655154516293245,-0.0010789334389656848,0.005795019787735588,0.9947307640697162
2015-07-15,1,0.00016966770923172752,0.00020281578464522793,-0.0010766468183878873,0.005795019787735588,0.9947241235406081
2015-07-17,1,0.0004708125479533585,0.0005414301264482552,-0.00034182261301518834,0.005795019787735588,0.9949801527346698
2015-07-21,1,0.0004828108337447942,0.000574999371491239,-0.00034182261301518834,0.005795019787735588,0.9949188027506031
2015-07-23,1,0.0005487059465387662,0.0006385040606214658,-0.0017425646950072803,0.005750788773680628,0.9948050017256969
2015-07-27,1,0.0009226500105167694,0.0010779403489092182,-0.0035793363330244342,0.005750788773680628,0.9928571159906403
2015-07-29,1,0.0004089560515299111,0.00042392530855524214,-0.004316507902573163,0.004706408502211859,0.991405067983356
2015-07-31,1,0.0007182929819247693,0.0007873357608241095,-0.004439042929644659,0.0037908014896520974,0.9913647043352704
2015-08-04,1,0.0010856796234388912,0.0011947912485375453,-0.00593791338992952,0.0029020947628726726,0.9913603669345191
2015-08-06,1,0.0016053270397496373,0.0017943766412795042,-0.00593791338992952,0.00378003668982484,0.9909582098495484
2015-08-10,1,0.001518240166554416,0.0016983402481543341,-0.00888373413883553,0.007028554308778027,0.9898161436706344
2015-08-12,1,0.0016700046780257724,0.0018921505842159942,-0.010086275245611027,0.007028554308778027,0.9890127224086926
2015-08-14,1,0.001619463546386443,0.0017924120905537981,-0.010086275245611027,0.007028554308778027,0.9889819994742528
2015-08-18,1,0.001399384035129448,0.0015494397148932562,-0.010086275245611027,0.009969242191610264,0.9884548584114489
2015-08-20,1,0.001603228760164584,0.0018400770293195495,-0.01118851055754141,0.009969242191610264,0.987704436549482
2015-08-24,1,0.0007953488160651264,0.000935016164638579,-0.009417328390528905,0.009969242191610264,0.9892726852197996
2015-08-26,1,0.0009819941933660056,0.001131538855346998,-0.008777739604549264,0.009041703731844868,0.9909030874679148
2015-08-28,1,0.0010091583639503699,0.0011621387814517228,-0.009768291642752228,0.009969242191610264,0.9894899718018841
2015-09-01,1,0.00048745503919120234,0.0005741506198272434,-0.005238654278288712,0.009969242191610264,0.9903112785550064
2015-09-03,1,0.0010449737769659708,0.0012015743362283186,-0.005821505595230753,0.009969242191610264,0.9904619929370734
2015-09-08,1,0.001082552708626402,0.0012339140685909654,-0.005366999067440098,0.009643248572398008,0.9908612826351642
2015-09-10,1,0.000505656577906012,0.0005621611679225565,-0.00407537819128475,0.010173799155950508,0.9907118994732017
2015-09-14,1,0.0006091403303319221,0.0006746837010265596,-0.002056240724874429,0.010173799155950508,0.9910454632016727
2015-09-16,1,0.0010445626292650595,0.0011587233234807049,-0.006921313564999836,0.007674563138367804,0.9913732269727116
2015-09-18,1,0.000502639080110329,0.0005467585593992802,-0.005176334340746705,0.008805150753303853,0.9918772415419904
2015-09-22,1,0.00045983693729921153,0.0004890741459202387,-0.005176334340746705,0.008805150753303853,0.9918457881935251
2015-09-24,1,0.0006556417818083872,0.0007244433159568894,-0.005176334340746705,0.009711434227178089,0.990054282523204
2015-09-28,-1,-0.00020764776343458588,-0.00014167200991892107,-0.004393329548891297,0.009370139671832659,0.9915552576355566
2015-09-30,1,9.354784762425233e-05,0.0001175024477933621,-0.005176334340746705,0.009370139671832659,0.9912360218814672
2015-10-02,1,0.0006207697974180862,0.0006727922784781096,-0.006648163352481225,0.008714398906917907,0.991973930522015
2015-10-06,1,0.0006877486185737261,0.0007641767555139403,-0.006648163352481225,0.008140207158132889,0.9910118735714002
2015-10-08,1,0.0011015388246146205,0.001231471265258949,-0.006648163352481225,0.008140207158132889,0.9913237408802056
2015-10-12,1,0.0011420179931197782,0.0012683489853130038,-0.006860725451589067,0.008140207158132889,0.9901425887012544
2015-10-14,1,0.0005523207307280603,0.0005868360643085213,-0.006658416947431732,0.008140207158132889,0.9908220873161577
2015-10-16,1,0.000929211819814869,0.001008846927474575,-0.006860725451589067,0.002034006857808547,0.9903096306844381
2015-10-20,1,0.00044336376080533334,0.000445093189339484,-0.006860725451589067,0.005396633282450566,0.9897671494825969
2015-10-22,1,0.0011958539836463872,0.0012800426433323803,-0.006860725451589067,0.0028698428683769416,0.9914459588534578
2015-10-26,1,0.0009993048265594091,0.0010566818965665578,-0.006860725451589067,0.004257148101023699,0.9900304211717331
2015-10-28,1,0.0005426514736803711,0.0005663507132439967,-0.0076673396829140044,0.005396633282450566,0.9890912679381992
2015-10-30,1,0.00041116929257354283,0.00043744658305495,-0.008002191492273216,0.005396633282450566,0.9890480189002732
2015-11-03,-1,-0.0004609844034253276,-0.000333746416749688,-0.0071014257289041625,0.008716334744389861,0.990129905234988
2015-11-05,1,0.0001303273743577366,0.0001851271553278776,-0.0071014257289041625,0.00544790709252471,0.9895579600527471
2015-11-09,-1,-0.0004999409911121932,-0.0003767603362196315,-0.005684929188765735,0.005744204364467591,0.9904686236045752
2015-11-11,-1,-0.00046783317025822843,-0.0003510160280651364,-0.005684929188765735,0.005744204364467591,0.9905385645110146
2015-11-13,-1,-0.001039822406193624,-0.0008572689706756653,-0.005684929188765735,0.009830117561548467,0.9904557139550328
2015-11-17,-1,-0.001327530813177809,-0.0011054476925662258,-0.0037887693483367015,0.0070420293673598144,0.9909686783292713
2015-11-19,-1,-0.0011841245979245989,-0.0009668948290652697,-0.005684929188765735,0.0070420293673598144,0.9907401720740394
2015-11-23,-1,-0.00040632989227862705,-0.00028771609942094146,-0.005684929188765735,0.0070420293673598144,0.9916325663304929
2015-11-25,1,5.5942223879865534e-05,0.00010345226288967666,-0.005058002216128009,0.0070420293673598144,0.9924133321683394
2015-11-30,-1,-0.0004353651861106142,-0.00031131027488639443,-0.003580386411719003,0.008804605382947847,0.9923092249191552
2015-12-02,-1,-0.00023015750502714704,-0.00014656275860079634,-0.004515381864441604,0.007020179103471664,0.9923167306824543
2015-12-04,1,9.948933223774748e-05,0.00016068387541528362,-0.004515381864441604,0.006145307793712739,0.9931715002521512
2015-12-08,1,0.00044931310748387484,0.0004543893327092985,-0.005872331766266763,0.006145307793712739,0.9923599566904602
2015-12-10,1,0.00012964352100652975,0.00017751542843619808,-0.005872331766266763,0.007020179103471664,0.9918160393237649
2015-12-14,1,0.0003591538118298091,0.00037835246481997774,-0.005745411917338799,0.006145307793712739,0.9924229567701631
2015-12-16,1,0.0006197860276784468,0.0006401904500397026,-0.00826461881258364,0.00505671177832614,0.9917546375206185
2015-12-18,1,0.00023509619630199518,0.0002501679315979092,-0.00826461881258364,0.008244928657996892,0.991446420118018
2015-12-22,1,0.0006966465379814871,0.0007506914800888154,-0.00826461881258364,0.008244928657996892,0.9911140373414014
2015-12-24,1,0.00087351347371892,0.0009699405004997303,-0.009991799722904857,0.008244928657996892,0.9906145842371303
2015-12-29,1,0.001232556406473644,0.0013956827838304273,-0.009991799722904857,0.00849568290442348,0.9900461731947557
2015-12-31,1,0.0008275559489183753,0.0009372573559358788,-0.00826461881258364,0.009143807200907265,0.9905148738062964
2016-01-05,1,0.0006874856261173566,0.0007799573965115592,-0.0094697373473574,0.009143807200907265,0.9901991025189023
2016-01-07,1,0.00042821706212326465,0.0004994765407041002,-0.007281316888451931,0.009143807200907265,0.9909905393548788
2016-01-11,1,0.0007028767039545303,0.000796066899305825,-0.007526959183202892,0.008281694603137218,0.9913262985165593
2016-01-13,1,0.00023807126494263737,0.0002601986285272251,-0.007423876181766526,0.009143807200907265,0.9894799183779481
2016-01-15,0,-4.199335733358551e-05,1.3019171032061498e-05,-0.007131846657281981,0.009143807200907265,0.989700030793786
2016-01-20,-1,-0.00011478805243045817,-6.623365180105572e-05,-0.0032603451752577462,0.009143807200907265,0.9904605218100103
2016-01-22,1,0.0004364347796996677,0.00045479582774745524,-0.007131846657281981,0.007818279373236748,0.9905070141534108
2016-01-26,0,-6.0581133202679364e-05,1.0731391878662078e-05,-0.004434390165524377,0.0057594425583027175,0.9913666967114533
2016-01-28,1,0.0006944888103835656,0.0007462126685174125,-0.007131846657281981,0.004909927051320434,0.9908281461754723
2016-02-01,1,0.0009187550855208677,0.0010011423233138924,-0.007131846657281981,0.004909927051320434,0.9908784968362001
2016-02-03,1,0.00023476072845018584,0.0002651302257122935,-0.004434390165524377,0.007525918993147736,0.9909807866438828
2016-02-05,1,9.780060067029256e-05,0.00013812369383833374,-0.0036688514983981525,0.007525918993147736,0.9908715343080431
2016-02-09,1,0.00030250745350909696,0.00031496261933442935,-0.0033876366149407635,0.007525918993147736,0.9910242158443319
2016-02-11,1,0.0006729117659932679,0.0007055019998998045,-0.002957257771600155,0.005770349868461007,0.9932681423276116
2016-02-16,1,0.0011013912822659862,0.0011872985081413715,-0.0033876366149407635,0.004910505485131243,0.9937589042861074
2016-02-18,1,0.0012323563630706076,0.0013374513170536333,-0.0033876366149407635,0.005706254043690814,0.9933531316167148
2016-02-22,1,0.00015304993497325292,0.0002124925138686984,-0.003412750611608901,0.005706254043690814,0.9938574027854549
2016-02-24,1,0.00038213981922452034,0.0004129418581422747,-0.0037441934884025656,0.007333631518837158,0.9931284666919938
2016-02-26,1,0.00023733275499178853,0.00026485188090013737,-0.003412750611608901,0.005795728730390704,0.9943386360095926
2016-03-01,1,0.0005251244894893509,0.0005272855530750328,-0.003412750611608901,0.005795728730390704,0.9941361391164982
2016-03-03,1,0.0010026844139138825,0.0011022158577833744,-0.0036490422145655146,0.005795728730390704,0.9940411426162947
2016-03-07,1,0.0010843319305620636,0.0012010962236995468,-0.0036490422145655146,0.005795728730390704,0.9935916384511434
2016-03-09,1,0.0008279540661763514,0.0008819312777729594,-0.0046670137541593056,0.007442444227126036,0.992752382040887
2016-03-11,1,0.001128375799831794,0.0012453859851062842,-0.0046670137541593056,0.007442444227126036,0.992757597244264
2016-03-15,1,0.0007633311152704363,0.0008112313601438693,-0.004900744730587673,0.007442444227126036,0.9924640428227969
2016-03-17,1,0.001499601303556388,0.0017031920297131968,-0.004900744730587673,0.0060467900588221804,0.9925920024267666
2016-03-21,1,0.0011179241504028622,0.001261254656540864,-0.0034353910249017216,0.0060467900588221804,0.993128956723969
2016-03-23,1,0.000897552883335549,0.0010003714110290675,-0.004886799368569799,0.00474214660446453,0.9923951287472987
2016-03-28,1,0.0009814574471423204,0.001082716449883361,-0.004886799368569799,0.005136419443640145,0.9922845640712725
2016-03-30,1,0.0009351581037296052,0.0009737695440593771,-0.006902877441372532,0.005136419443640145,0.991892844437559
2016-04-01,1,0.0014545470197942511,0.001590518192608385,-0.006902877441372532,0.0043725894759520404,0.9928109202501503
2016-04-05,1,0.0005352494500003926,0.0005594496537872158,-0.006654086554006369,0.005136419443640145,0.9928392461087285
2016-04-07,1,0.0006290516983303665,0.0006447683884662412,-0.006654086554006369,0.0043725894759520404,0.9925211319592875
2016-04-11,1,6.297384593847332e-05,0.00017721770074354568,-0.006654086554006369,0.0043725894759520404,0.9925462076597996
2016-04-13,-1,-0.00022234197628083745,-6.625643087779611e-05,-0.003637374068110813,0.004962983671735953,0.9923963366173548
2016-04-15,1,0.00016542710112846265,0.00026842919327719415,-0.0034490643089764165,0.004962983671735953,0.9924346861081799
2016-04-19,1,0.0005417466630299804,0.0005679670645194197,-0.006654086554006369,0.004962983671735953,0.9913671404587072
2016-04-21,-1,-0.00042671346311390276,-0.00029472171867256716,-0.0031255436056521575,0.004962983671735953,0.992585652386103
2016-04-25,-1,-0.0002262791291595423,-0.00010576044386779039,-0.005361935747657092,0.004277838374366002,0.9924789623224289
2016-04-27,0,-6.196589664463276e-05,4.0785005373403216e-05,-0.0031255436056521575,0.0034853893783596355,0.9932698549563007
2016-04-29,1,0.00033279292005579934,0.0003637989856985403,-0.005683524444033592,0.0034853893783596355,0.9926096042359984
2016-05-03,1,0.00037141094144510923,0.00038856451080156146,-0.0031255436056521575,0.0034853893783596355,0.9929546979786069
2016-05-05,-1,-0.00045147467496739393,-0.000332624426328871,-0.0031009289602039825,0.00498077219573979,0.9936598189447599
2016-05-09,-1,-0.00020921306826544346,-0.00012543251472839177,-0.004964571107988307,0.007284690083141747,0.9930708953655352
2016-05-11,1,0.0002237792656680894,0.00024289310602323863,-0.004964571107988307,0.007832023650580488,0.9922503219581923
2016-05-13,1,0.0002437856795527412,0.0002895010014627354,-0.005808628375795209,0.007284690083141747,0.9920355171525753
2016-05-17,-1,-0.0002387348078526791,-0.00016481516226491796,-0.005632348338360788,0.007284690083141747,0.9927800180532884
2016-05-19,0,-3.7886523573486984e-05,7.437391385134185e-07,-0.005558504402016263,0.007832023650580488,0.9925283428866813
2016-05-23,-1,-0.0002614333537971094,-0.00020858439966946763,-0.003766491196162932,0.007832023650580488,0.9928197732770995
2016-05-25,-1,-0.00043611972156108346,-0.0003379039231778531,-0.003766491196162932,0.007832023650580488,0.9927037562245725
2016-05-27,-1,-0.0007245462365214849,-0.0005810807033317903,-0.004732857352763605,0.007357491913592635,0.9930114687495277
2016-06-01,-1,-0.0010058949191677987,-0.0007942963141830928,-0.005558504402016263,0.008184920111527808,0.992085555868139
2016-06-03,-1,-0.0007673565504108035,-0.0005961006124668439,-0.005351405292239736,0.008800098472933735,0.990121835301404
2016-06-07,-1,-0.0009871384215728108,-0.000774614282182238,-0.0036974581595707566,0.008425013950816733,0.9902800381106769
2016-06-09,1,3.666242353774743e-05,0.00014438754221458914,-0.0036974581595707566,0.006137673276110736,0.991806585987692
2016-06-13,-1,-0.0005737463831849848,-0.00037620830258045684,-0.0036974581595707566,0.006137673276110736,0.9921953081528165
2016-06-15,-1,-0.000557182651222566,-0.0003928657145686568,-0.0027534488303094197,0.008425013950816733,0.990216089747337
2016-06-17,-1,-0.0006029450808181893,-0.0004172292032499854,-0.0030143864712716367,0.007911646130105287,0.9902462265177042
2016-06-21,1,0.0001485035268137308,0.00020579071489238256,-0.004480271082457408,0.010066919087920815,0.9872222449550921
2016-06-23,1,0.000583472896447014,0.0005969810985556571,-0.004480271082457408,0.010066919087920815,0.987200439663545
2016-06-27,-1,-0.00040955647233269704,-0.0002695884373452926,-0.0030143864712716367,0.010066919087920815,0.9869935893063478
2016-06-29,-1,-0.00027641251752327377,-0.00013476027279045688,-0.0030143864712716367,0.007911646130105287,0.9871122763710602
2016-07-01,1,0.0015041092200998847,0.0015589807802597834,-0.004187799793068606,0.007911646130105287,0.9892568172234232
2016-07-06,1,0.0024224005256746725,0.002663798910788462,-0.006558393353860104,0.00784662359755528,0.9888119114662661
2016-07-08,1,0.0027128635006797982,0.003034517452743619,-0.006558393353860104,0.008701650137118641,0.988479191633731
2016-07-12,1,0.0022752245312115974,0.0025530599414941044,-0.004831857747519739,0.008701650137118641,0.9892365677112068
2016-07-14,1,0.003309600391061823,0.0036622487698393415,-0.004831857747519739,0.006760002239323926,0.9909249374951904
2016-07-18,1,0.0032882866476233873,0.0036334726084019144,-0.004600570869368945,0.006119870232765883,0.9911388422647698
2016-07-20,1,0.0016760268873030177,0.0017890752710286945,-0.004600570869368945,0.004962108265274495,0.9940037421144287
2016-07-22,1,0.0019483520786995597,0.0021130292306126863,-0.004600570869368945,0.005594163512268197,0.9939000597937152
2016-07-26,1,0.0020102102457746876,0.0021975578329064926,-0.004166714450137235,0.004001402066138641,0.9942599251015536
2016-07-28,1,0.0014588956148547546,0.0015720489593659664,-0.0041412156122082565,0.004001402066138641,0.9951557752322387
2016-08-01,1,0.0016930756884797895,0.0018409587707992714,-0.004258248785706979,0.004001402066138641,0.995144146098536
2016-08-03,1,0.0010989863775253549,0.0011737663908744553,-0.0023152154262571552,0.00530598091238685,0.9951065084578463
2016-08-05,1,0.0015973379199295664,0.0017213651933925805,-0.004258248785706979,0.00530598091238685,0.995127321301594
2016-08-09,1,0.001927991590835284,0.002131293083309077,-0.004609417311677728,0.00530598091238685,0.993966323689547
2016-08-11,1,0.001828064753457056,0.0019861262495849885,-0.0072501219284640825,0.0025884603805401275,0.9918518947108756
2016-08-15,1,0.0015281187426072263,0.001628403206493104,-0.010336703271244752,0.00530598091238685,0.9902895045501857
2016-08-17,1,0.001228874167182152,0.0013039569174714864,-0.0072501219284640825,0.00530598091238685,0.9908453624000794
2016-08-19,1,0.0015995882924285617,0.0017534894008126476,-0.0072501219284640825,0.0029472905051226225,0.9908129001227456
2016-08-23,1,0.001595452246045933,0.0017752987207943678,-0.010364970839321471,0.004226023622279046,0.9904501806235005
2016-08-25,1,0.0013453260805874926,0.001461821932925326,-0.010364970839321471,0.004226023622279046,0.9902160922738525
2016-08-29,1,0.0014583941915681377,0.0015942632862248304,-0.010364970839321471,0.0026032940114229654,0.9905609151082424
2016-08-31,1,0.0009759930579539666,0.001041887342559015,-0.007903250729816628,0.0026032940114229654,0.9910390467871463
2016-09-02,1,0.0009165221209250221,0.0009628669365993637,-0.007903250729816628,0.0023123079342554833,0.9915196984517325
2016-09-07,1,0.00036855978657282545,0.00037292751382615117,-0.007903250729816628,0.0023123079342554833,0.9920230404755236
2016-09-09,-1,-0.0014577940600779687,-0.0012403929892263836,-0.004718427402088553,0.0030090688970769424,0.994016961186464
2016-09-13,-1,-0.001763131168063772,-0.0014466792288579267,-0.004461484178839167,0.0023123079342554833,0.9955950867808135
2016-09-15,-1,-0.0015203167938825373,-0.0012501045315934634,-0.005749269131982393,0.0030090688970769424,0.9951065006425234
2016-09-19,-1,-0.001431681753283085,-0.0011849597778940614,-0.006545922604904671,0.0030090688970769424,0.9949521716766173
2016-09-21,-1,-0.0016209216454285522,-0.0013619347232465902,-0.005909486301678125,0.0032561319163087405,0.9952057332177232
2016-09-23,-1,-0.0015680701917813547,-0.001315489278716554,-0.005935310104852243,0.0019567497695140105,0.9953929500182134
2016-09-27,-1,-0.0022973751098993235,-0.001915050012277489,-0.005935310104852243,0.0019567497695140105,0.9956033839200938
2016-09-29,-1,-0.0023400710140080183,-0.001957366571896845,-0.005545731631964918,0.0015370825336647209,0.9960605488899932
2016-10-03,-1,-0.002111239538177308,-0.0017756930361833385,-0.005545731631964918,0.002494798865913291,0.9954877609262597
2016-10-05,-1,-0.0023849451539078607,-0.002041640404516266,-0.004243241019926991,0.002494798865913291,0.9959614816151666
2016-10-07,-1,-0.0028363094316813603,-0.002396586344376183,-0.005545731631964918,0.0015370825336647209,0.9955958269337714
2016-10-11,-1,-0.002973737432487661,-0.0025163317950603727,-0.0044682917847766465,0.005048305379878352,0.9934661245634707
2016-10-13,-1,-0.0031691993925900236,-0.0026755239229160686,-0.005935310104852243,0.0023448465034921913,0.9916369192261153
2016-10-17,-1,-0.003494634822988091,-0.002970521161805432,-0.0044682917847766465,0.0023448465034921913,0.991517731742886
2016-10-19,-1,-0.0036225481052349177,-0.0030759520101551192,-0.002562470884114547,0.002695729911625773,0.9911541811327451
2016-10-21,-1,-0.0037782941984497737,-0.0032237699731687552,-0.002562470884114547,0.0034271453127313447,0.9912462097279094
2016-10-25,-1,-0.0037784158399698235,-0.0032291699384280085,-0.002562470884114547,0.006428100913016236,0.9902064425484693
2016-10-27,-1,-0.003753690619390313,-0.003209732692110244,-0.004301345482652018,0.00764777687667088,0.9893114296900876
2016-10-31,-1,-0.002506012729452466,-0.002166790610139384,-0.004301345482652018,0.005907506305764015,0.990431819029444
2016-11-02,-1,-0.002776469414253413,-0.002386524827621737,-0.014525108562340369,0.005907506305764015,0.9891113646107312
2016-11-04,-1,-0.003541099665339554,-0.003051349551754348,-0.0073897369848971006,0.007892061916497752,0.9889473118739199
2016-11-08,-1,-0.0018349822101027696,-0.001556713981723822,-0.0073897369848971006,0.005040876634087826,0.9906019091621079
2016-11-10,-1,-0.0037396211391588973,-0.0032513752866211833,-0.004000067139628863,0.00763117052112523,0.9917540576333386
2016-11-14,-1,-0.0035610710715685834,-0.0031070337057786807,-0.004000067139628863,0.009440496374909893,0.9911512125323623
2016-11-16,-1,-0.0034652477059493167,-0.0030000456544640604,-0.005705687995031299,0.007628540862749784,0.9912653500864195
2016-11-18,-1,-0.0033094742407717937,-0.0028815478789013258,-0.005713421644408717,0.007628540862749784,0.9914743577501234
2016-11-22,-1,-0.0012637655526113165,-0.0011649231797845922,-0.005713421644408717,0.005356177893655847,0.9923972449467645
2016-11-25,-1,-0.0010886784312372569,-0.0010312354582882356,-0.00400264502275467,0.005342820945205187,0.9932167934856883
2016-11-29,-1,-0.0011562702098082457,-0.0010986127246452118,-0.005208151122933039,0.005342820945205187,0.9929970107414519
2016-12-01,-1,-0.0026327372338549255,-0.0023832601433721465,-0.002073335025641408,0.006985361399469583,0.9936572903505588
2016-12-05,-1,-0.0010563396775123684,-0.0010469151938629594,-0.003688309582244148,0.005342820945205187,0.9944974306540403
2016-12-07,-1,-0.0004866679557599431,-0.0003914034747500437,-0.003688309582244148,0.004174511586321963,0.9951989385730166
2016-12-09,-1,-0.0008938883289259516,-0.0008602388537703781,-0.004721585021888524,0.003845935806016225,0.9953794538260522
2016-12-13,-1,-0.0002122937666178071,-0.0001281654633014564,-0.004721585021888524,0.003149339819906084,0.9956533283671228
2016-12-15,-1,-0.00034802407341937307,-0.00028426903593284906,-0.004721585021888524,0.003149339819906084,0.9956014370887768
2016-12-19,-1,-0.0005896468790915987,-0.0005713558594010379,-0.003688309582244148,0.003149339819906084,0.995790224180717
2016-12-21,-1,-0.0003394909649663278,-0.00027443778264889566,-0.003688309582244148,0.003149339819906084,0.9956972232148784
2016-12-23,-1,-0.0002915283090725505,-0.00024273633653019451,-0.004251933638625217,0.003149339819906084,0.9956668100831443
2016-12-28,1,8.20680864135068e-06,0.0001365294009787479,-0.0035680802437982498,0.0033045218644455416,0.995368364652455
2016-12-30,1,0.000290015749468186,0.00046846197885921806,-0.0042289214821710904,0.0015635519342145324,0.9956244289254388
2017-01-04,1,0.00024389900364864216,0.0004262938493326397,-0.0042289214821710904,0.0033045218644455416,0.9948768979230025
2017-01-06,1,0.0003580957459770272,0.0005610032611407627,-0.005019410809530412,0.004817590799536326,0.9938604543782343
2017-01-10,-1,-0.00028801970736024534,-0.00018424334166070765,-0.0033147808821016454,0.007418866500440652,0.9939683344889535
2017-01-12,1,6.625972437898929e-05,0.0002324734015832395,-0.0042289214821710904,0.008277135403377503,0.9919793370456911
2017-01-17,1,0.00018621494899014697,0.00036432431732822074,-0.0042289214821710904,0.007418866500440652,0.9923742465194966
2017-01-19,1,0.00018698604460517078,0.00037036877489543063,-0.00464042073630049,0.007418866500440652,0.9916343447908746
2017-01-23,1,0.0005794910445301017,0.0008116615830262285,-0.00518901798764779,0.008277135403377503,0.9895838291054082
2017-01-25,1,0.0004617493329728985,0.0006627822505887755,-0.00518901798764779,0.008277135403377503,0.98961927621718
2017-01-27,1,0.0008720113252315839,0.0011325746380180678,-0.007102163363123173,0.007418866500440652,0.9892569799696479
2017-01-31,1,0.000460505885965644,0.0006269077420989808,-0.007102163363123173,0.008277135403377503,0.9888779725411257
2017-02-02,-1,-0.00020224934937053266,-0.0001997678422114161,-0.006149964678300063,0.007418866500440652,0.9893052228428478
2017-02-06,-1,-6.220888094127618e-05,-2.7409766274247554e-06,-0.00518901798764779,0.006108806410626058,0.9902381851673077
2017-02-08,1,0.0006560580560830646,0.0008230177066657046,-0.00518901798764779,0.004015783373334542,0.9907361299354331
2017-02-10,1,0.0013519619119975923,0.0016081715173977163,-0.0040824577334865695,0.0034288072833760157,0.9929261830651944
2017-02-14,1,0.0013445300499922528,0.0015925775081307154,-0.0034619479477846263,0.0034774468922673485,0.9930730443849076
2017-02-16,1,0.000666457596333387,0.0008252659642052345,-0.003347961006782367,0.004291683498990016,0.993735983089621
2017-02-21,1,0.001021086663551672,0.0012227679223446647,-0.003347961006782367,0.0034774468922673485,0.9951303420771597
2017-02-23,1,0.0009689019379845118,0.0011560266739332344,-0.0034619479477846263,0.003607428191248823,0.9946288643803919
2017-02-27,1,0.0006198456791664489,0.0007698682483576022,-0.0034619479477846263,0.002741168768379679,0.9953399591434429
2017-03-01,1,0.0009621908039285101,0.0011367279517331425,-0.0034619479477846263,0.002716604853702331,0.9955986020333142
2017-03-03,1,0.0007237238994809469,0.0008667568076600378,-0.0034619479477846263,0.0018460309126970562,0.995682679761932
2017-03-07,1,0.0005742374427791911,0.0006930755166625233,-0.0034231308864172525,0.0018460309126970562,0.9956736987517949
2017-03-09,1,0.0006650102792854838,0.000794413318854747,-0.0036473475921420784,0.0022040973142589283,0.9954570667494831
2017-03-13,1,0.0005436324528167151,0.0006365292506464005,-0.004474609837875723,0.0030347142652056764,0.9951974384960808
2017-03-15,1,0.0006999818041315387,0.0008154708342170291,-0.004474609837875723,0.0024880090841673487,0.9953102187296307
2017-03-17,1,0.0007391036566909226,0.0008513640291721405,-0.004818558310855981,0.0024880090841673487,0.9950184567603585
2017-03-21,1,0.00012134368570368732,0.00014860871275767406,-0.004474609837875723,0.003121975836431335,0.9954416862380407
2017-03-23,0,-3.807043509495895e-06,3.2704760349746405e-06,-0.004474609837875723,0.0024880090841673487,0.9959761473814913
2017-03-27,1,5.345710175365741e-05,9.376747812449118e-05,-0.004474609837875723,0.003079329537702162,0.9958411372852409
2017-03-29,1,0.0002305704083051603,0.00028487133490599575,-0.005125806536612423,0.0024880090841673487,0.9951945635877393
2017-03-31,-1,-0.00019784995692304742,-0.00017525079795286563,-0.005125806536612423,0.0024880090841673487,0.9950596563154758
2017-04-04,1,0.00018374548501645928,0.0002640302539328532,-0.005383220347065676,0.0024880090841673487,0.9943847766105565
2017-04-06,-1,-0.0006454639914769396,-0.000542208772263435,-0.005383220347065676,0.002900937778131809,0.9938099283115295
2017-04-10,-1,-0.0006934814630741472,-0.0005911771491244985,-0.006182090070098275,0.004297722856754207,0.991499263960699
2017-04-12,-1,-0.0004300926128658933,-0.0003754179348011437,-0.006182090070098275,0.004297722856754207,0.991267799313277
2017-04-17,-1,-0.00046226622226491505,-0.0003994545749172418,-0.006182090070098275,0.003147030183726111,0.9915076279156969
2017-04-19,1,2.7401331241132428e-05,5.935477195491961e-05,-0.007918689804072733,0.0027175368651942817,0.9915731599777939
2017-04-21,-1,-0.00011074341434421892,-0.00010521555869740685,-0.007918689804072733,0.003147030183726111,0.9909176889700092
2017-04-25,-1,-0.0002902376073885599,-0.00026357310509303607,-0.007918689804072733,0.003986317190481322,0.9910218494998491
2017-04-27,-1,-0.0017980129300084453,-0.0015294431336781245,-0.00539520216533226,0.004141254955999913,0.9908418865621771
2017-05-01,-1,-0.001972915911175748,-0.0017058194230274491,-0.00539520216533226,0.004141254955999913,0.9907927394229099
2017-05-03,-1,-0.0021306480840168045,-0.0018693433778614247,-0.0021037884016896144,0.006332186618225537,0.9903746888474174
2017-05-05,-1,-0.0010772626084552947,-0.0009500906547337455,-0.0021037884016896144,0.004008241049297381,0.9920390226997367
2017-05-09,-1,-0.0009674663766003941,-0.0008711112195058341,-0.0012140453617071533,0.003951819843517362,0.9944498300933197
2017-05-11,-1,-0.000957387694635528,-0.0008517220727860821,-0.0012140453617071533,0.004037762915108033,0.9939744742734693
2017-05-15,-1,-0.0008514917110225955,-0.0007472396987421209,-0.0012140453617071533,0.004573967692102072,0.9938115403235085
2017-05-17,-1,-0.0010483324241592658,-0.0009252157697023815,-0.0012140453617071533,0.004573967692102072,0.9939479185278931
2017-05-19,-1,-0.0005279569172080927,-0.00048157245030473175,-0.0015482632095032613,0.004037762915108033,0.9942039327029896
2017-05-23,-1,-0.0003179452145305187,-0.000291158714250343,-0.006125270761879471,0.0032531475700956357,0.993811872217385
2017-05-25,1,0.00020604229040185353,0.00025282644800272785,-0.006125270761879471,0.0026966163678625605,0.9943314221066912
2017-05-30,-1,-0.0003328554881390302,-0.0002990219822598238,-0.006125270761879471,0.0032531475700956357,0.9936290646292932
2017-06-01,1,0.00026606254702599374,0.0003077991202510581,-0.00876962015560366,0.0028077214196783316,0.9938249173444603
2017-06-05,-1,-0.00013250927338591205,-8.8888886535865e-05,-0.009521993449876922,0.0032531475700956357,0.9928487023145351
2017-06-07,1,1.6368320191399202e-05,3.612674307651176e-05,-0.012045262002703862,0.0028077214196783316,0.9914954067279197
2017-06-09,-1,-0.0001467828274429106,-0.00011245025187732567,-0.010578539989171005,0.0026290514443048345,0.9919132726940735
2017-06-13,1,1.8984164906842176e-05,4.198050669754162e-05,-0.010578539989171005,0.002245723415269212,0.9915924087960518
2017-06-15,1,3.1376741653709765e-06,1.651079501197863e-05,-0.010578539989171005,0.0031199134946774433,0.9915086642937894
2017-06-19,-1,-0.0005880106275667798,-0.000503718845213592,-0.009847979220180113,0.004557614013991634,0.9919141980231799
2017-06-21,-1,-0.0010210072056749636,-0.0009041678484227475,-0.009847979220180113,0.005483179356180347,0.9923006605788144
2017-06-23,-1,-0.000947214239069437,-0.0008327274367995112,-0.009847979220180113,0.005687672041756339,0.9918283047012342
2017-06-27,-1,-0.0015807627500463188,-0.0013918272627454348,-0.008477537859193647,0.005687672041756339,0.9925173547302287
2017-06-29,-1,-0.0019886849114682786,-0.0017420362782886423,-0.007517156091955878,0.005687672041756339,0.9928032197046741
2017-07-03,-1,-0.0014739197077891365,-0.001319766796361737,-0.007490891458494964,0.0055162489633481405,0.9932524864910102
2017-07-06,-1,-0.001924335926847193,-0.001772415167060354,-0.004336378708031338,0.005687672041756339,0.9922662871430178
2017-07-10,-1,-0.0023144185086889507,-0.002131937828787732,-0.004336378708031338,0.006051956367788885,0.9917268677868479
2017-07-12,-1,-0.002553297688286523,-0.002312379863179135,-0.004336378708031338,0.005687672041756339,0.9918624145568572
2017-07-14,-1,-0.002367046598691307,-0.002170420033101806,-0.004600816404360265,0.005687672041756339,0.992346687987603
2017-07-18,-1,-0.0022737268639077164,-0.002094511234265699,-0.003936039008214706,0.006281038480336552,0.9920548471026585
2017-07-20,-1,-0.0021229266974590517,-0.0019408296186515508,-0.003936039008214706,0.005882290658322456,0.9922603546671758
2017-07-24,-1,-0.0015924214866603363,-0.0015039364784631363,-0.002912279930076885,0.005254497919869452,0.9927102528866811
2017-07-26,-1,-0.001253176529388731,-0.001197970116952162,-0.0026625465278473496,0.004086735494634791,0.9934441438009565
2017-07-28,-1,-0.0010059529781035698,-0.0009729273718654826,-0.003258975384919092,0.003611592557599807,0.9923691808942118
2017-08-01,-1,-0.001036773702718516,-0.001003601305648948,-0.004947286759888449,0.001548014213828039,0.9920851737675692
2017-08-03,1,0.0007827657252180559,0.0009917049811913996,-0.007623959306950728,0.0005392673398078205,0.9930626270540571
2017-08-07,1,0.0008744843595875493,0.001117476167609092,-0.004947286759888449,0.0005392673398078205,0.9931519916719035
2017-08-09,1,0.00047042111685370385,0.0006769337460664349,-0.003878173344604439,0.001548014213828039,0.9930576779306826
2017-08-11,1,7.334114345657571e-06,0.00010979204452366876,-0.0031515409316060275,0.003962054378935862,0.9927015266379496
2017-08-15,1,0.0005038150626906197,0.0006571609865963749,-0.004850573185581877,0.003611592557599807,0.9927618680302582
2017-08-17,1,0.000556920920761847,0.0007004391721613319,-0.005768692168090424,0.00384922141980018,0.9921303314779223
2017-08-21,1,0.0008036398396152106,0.0009983129553705738,-0.00725235333447309,0.0043522933154043365,0.9901561320324178
2017-08-23,1,0.0005439380310887457,0.0006893614735995322,-0.00978976142539927,0.0043522933154043365,0.9889885746507994
2017-08-25,-1,-0.0007736015163096821,-0.0007405862271629378,-0.008803856546435278,0.0060892202933121,0.9899447540656003
2017-08-29,-1,-0.0015536673393118097,-0.0014374350073174088,-0.008803856546435278,0.0060892202933121,0.9903809328449541
2017-08-31,-1,-0.002053211697040685,-0.0018781034355989607,-0.007774925231401663,0.0060892202933121,0.9905576861359379
2017-09-05,-1,-0.0012540087289965925,-0.00117838366718622,-0.008952383442363977,0.004909132992119352,0.9904204345720246
2017-09-07,-1,-0.0003075451950410265,-0.00026525293407248635,-0.008952383442363977,0.004909132992119352,0.9906966132748042
2017-09-11,1,0.00046343241297667977,0.0006211555866817546,-0.00993527708348906,0.004305003933551713,0.9899076770706348
2017-09-13,0,-4.913391043941367e-06,8.595992794026004e-05,-0.00993527708348906,0.004767264846561483,0.9901265065920773
2017-09-15,1,0.000268848113661568,0.0003966515260409085,-0.00993527708348906,0.004767264846561483,0.9895750543660091
2017-09-19,-1,-0.0017282251114239715,-0.0015684650331495122,-0.008952383442363977,0.004767264846561483,0.992247517055009
2017-09-21,-1,-0.0032428284125197437,-0.002884684740599164,-0.006920424495180422,0.004767264846561483,0.9936429997967925
2017-09-25,-1,-0.003415275921487363,-0.003004563297672358,-0.0062168519461966495,0.0017288223865149202,0.994401286425622
2017-09-27,-1,-0.0031848294826640096,-0.0028584585997621613,-0.0053115413536532815,0.0017288223865149202,0.9943178215764112
2017-09-29,-1,-0.003440247473385759,-0.00308694318157743,-0.004785868927549009,0.0019894976372354352,0.994240021659079
2017-10-03,-1,-0.003182468329389379,-0.002860729579626002,-0.004785868927549009,0.0019894976372354352,0.9908751761082911
2017-10-05,-1,-0.0017582672502348931,-0.0016003200642074422,-0.00531511782959561,0.0008967271195512358,0.9906525326313144
2017-10-09,-1,-0.002676469978242544,-0.0024039282165539116,-0.006772752955211342,0.0008967271195512358,0.9903757204142122
2017-10-11,-1,-0.0022481910871275067,-0.00204194072449895,-0.006772752955211342,0.002787128827147338,0.9885008845656004
