JNU-Tangyin/eata/results/Batch4_SP500/Batch4_SP500-HBAN.csv
Date,Action,Predicted_Q25,Predicted_Q75,Actual_Q25,Actual_Q75,RL_Reward
2010-12-14,0,0.0,0.0,-0.0034445566836201202,0.014412388197139653,0.9885722143231452
2010-12-16,0,0.0,0.0,-0.0034445566836201202,0.01620068145839519,0.9870854589424672
2010-12-20,0,0.0,0.0,-0.008304790701571056,0.014412388197139653,0.9878973923443458
2010-12-22,0,0.0,0.0,-0.008808074175922918,0.012232154433485663,0.9880035660718093
2010-12-27,1,0.005255367413294264,0.006035504319008893,-0.010320897107194438,0.011950043021966228,0.9860855179329252
2010-12-29,1,0.005108824432752813,0.005859424562866895,-0.010320897107194438,0.01620068145839519,0.9844713375661274
2010-12-31,0,0.0,0.0,-0.01179592628334591,0.019705133607514438,0.9831047342812147
2011-01-04,0,0.0,0.0,-0.01179592628334591,0.01620068145839519,0.9851404575114608
2011-01-06,1,0.0014576272760518576,0.0016225548698002052,-0.01179592628334591,0.018894945348994024,0.9836779618863591
2011-01-10,0,0.0,0.0,-0.014305185712431428,0.018894945348994024,0.9832281753678497
2011-01-12,0,0.0,0.0,-0.014305185712431428,0.018894945348994024,0.9841835176406041
2011-01-14,0,0.0,0.0,-0.01012427431517532,0.02044502474375049,0.9844326878441045
2011-01-19,1,0.0012418850810742232,0.0013568259555758891,-0.0050142441187559115,0.02044502474375049,0.9857895968664648
2011-01-21,1,0.0013336570373585716,0.0014247466730787498,-0.009838430741931484,0.015271511453116749,0.9858123455264878
2011-01-25,1,0.0015331660692153646,0.0015380523917853442,-0.01034281971652691,0.015271511453116749,0.9839533955929601
2011-01-27,1,0.0040220043466667075,0.004409114167313791,-0.01034281971652691,0.013450345493094337,0.9851564642110114
2011-01-31,1,0.0037032104622277432,0.004059011741335829,-0.015228678688535578,0.008331254267491603,0.9848600331863184
2011-02-02,0,0.0,0.0,-0.015228678688535578,0.013450345493094337,0.9849955720877372
2011-02-04,0,0.0,0.0,-0.01777659180071585,0.005089919081357101,0.985426714069843
2011-02-08,0,0.0,0.0,-0.015228678688535578,0.005089919081357101,0.9841603959640328
2011-02-10,1,0.0038935374625712065,0.004248946352356724,-0.01777659180071585,0.009153027303109774,0.9814967777297646
2011-02-14,0,0.0,0.0,-0.01777659180071585,0.003122190641924473,0.9826265895316656
2011-02-16,1,0.005487148406543709,0.005946108373987994,-0.01842838625274179,0.007602878322771875,0.9791688518819147
2011-02-18,1,0.0028249378060175934,0.0028635059320717333,-0.015318179859633688,0.010960299983521512,0.981839479450797
2011-02-23,0,0.0,0.0,-0.014992603544080683,0.010960299983521512,0.9838757129550011
2011-02-25,1,6.738116862383813e-05,0.00027997154943492633,-0.014992603544080683,0.010248868056986472,0.9838986959082938
2011-03-01,-1,-0.0013671984000463823,-0.0010604165150374248,-0.012346039268580156,0.01145237686400923,0.9861218449563087
2011-03-03,0,0.0,0.0,-0.014044553853777224,0.01145237686400923,0.9852851857094536
2011-03-07,-1,-0.0014316066318477393,-0.0011008359043106247,-0.012346039268580156,0.014526204366145472,0.9850719360465375
2011-03-09,0,0.0,0.0,-0.012346039268580156,0.014526204366145472,0.9867196431091936
2011-03-11,0,0.0,0.0,-0.01072812283764539,0.01145237686400923,0.9879759743548826
2011-03-15,0,0.0,0.0,-0.01072812283764539,0.01145237686400923,0.9879710114912084
2011-03-17,0,0.0,0.0,-0.01072812283764539,0.009450934571251568,0.9886487444558133
2011-03-21,0,-0.002933909843791702,0.0,-0.012737254356453774,0.007307569236614643,0.990164848078057
2011-03-23,0,0.0,0.0,-0.010282805722195087,0.007307569236614643,0.9894342864950039
2011-03-25,0,0.0,0.0,-0.01143531365142572,0.00605724573748304,0.9874714730337371
2011-03-29,0,0.0,0.0,-0.01143531365142572,0.013273982518592513,0.986666098131812
2011-03-31,-1,-0.0020891666021677245,-0.001682604380751411,-0.010282805722195087,0.011906757867369597,0.9876178203643682
2011-04-04,-1,-0.0022688902131741866,-0.0018033116755867794,-0.009142872542798651,0.011816827759445021,0.9886792242087198
2011-04-06,-1,-0.0005867973602727661,-0.0003950832406715678,-0.0135686859334338,0.006347841832775714,0.9880648783532027
2011-04-08,-1,-0.0022081836323342746,-0.0017623611342042387,-0.0135686859334338,0.010860852994331715,0.9885920474449165
2011-04-12,-1,-0.0030550972404620475,-0.0024399410017863776,-0.009853996636801345,0.010860852994331715,0.9894281959510346
2011-04-14,-1,-0.003860178188866436,-0.0031657349342791193,-0.009200922255203808,0.010860852994331715,0.9896282590114772
2011-04-18,-1,-0.005133220628445184,-0.004227865703441257,-0.009200922255203808,0.011816827759445021,0.9891324961570521
2011-04-20,-1,-0.005734488457059842,-0.004756729167947707,-0.009200922255203808,0.011816827759445021,0.9889745645828211
2011-04-25,-1,-0.003696760841816624,-0.003036833901425389,-0.009200922255203808,0.010860852994331715,0.9908900068554365
2011-04-27,-1,-0.0013692987522052026,-0.0010772380636252378,-0.009200922255203808,0.005798879320429483,0.9916612221898338
2011-04-29,-1,-0.0012345671913137467,-0.0009934917137699177,-0.008228568421395301,0.005798879320429483,0.99167783500882
2011-05-03,-1,-0.0006362579953149874,-0.0004779223100371561,-0.0111794158338542,0.005798879320429483,0.9899200220523764
2011-05-05,-1,-0.0009850742116735292,-0.0008476526755378791,-0.009843117211661027,0.005798879320429483,0.9900657223512097
2011-05-09,-1,-0.00246492335672463,-0.002008748600104586,-0.011314214813790772,0.005798879320429483,0.9887145459059443
2011-05-11,-1,-0.002503832255019465,-0.0020483258836122356,-0.011314214813790772,0.009755391776429269,0.9878561456514333
2011-05-13,-1,-0.0022915884544770088,-0.0019461294980593988,-0.014589090156725559,0.009755391776429269,0.9875396245960214
2011-05-17,-1,-0.0011756477440213607,-0.0010298716185639365,-0.011542245831527593,0.009755391776429269,0.9877572748299706
2011-05-19,-1,-0.0008863575423480284,-0.0008035023698781677,-0.011542245831527593,0.011260389748702767,0.9874514363975373
2011-05-23,-1,-0.0018056624550861072,-0.0016105305175064697,-0.010721659691543213,0.012714270399408291,0.987482881234413
2011-05-25,-1,-0.0015794484245369726,-0.0013994304692991465,-0.014620549771633327,0.012714270399408291,0.986935900931842
2011-05-27,-1,-0.0003754702792600616,-0.00036204407398052944,-0.01604945263243702,0.012714270399408291,0.9852148135213151
2011-06-01,-1,-0.0017023712007342806,-0.001561643945948204,-0.014620549771633327,0.013221940134460809,0.9857956328943481
2011-06-03,-1,-0.001715616987299601,-0.0016021074094641227,-0.014101818047216129,0.013221940134460809,0.9860895947761578
2011-06-07,-1,-0.0014097976426287768,-0.0013327407444011122,-0.00916625791894254,0.012714270399408291,0.9877917871747385
2011-06-09,-1,-0.0007260874937551854,-0.0007101615754526343,-0.014101818047216129,0.012714270399408291,0.9857362014958256
2011-06-13,-1,-0.0018585491341207596,-0.0016787947340916392,-0.014620549771633327,0.012714270399408291,0.9842356206453824
2011-06-15,-1,-0.0010531951285717564,-0.0009927968964206252,-0.014620549771633327,0.01147147944232085,0.9851267836776941
2011-06-17,-1,-0.0009124416788553972,-0.0008415977092038861,-0.014620549771633327,0.010772043670950776,0.985197433502389
2011-06-21,1,0.00013477868152882383,0.0003020490979362677,-0.014620549771633327,0.010772043670950776,0.9846697641080122
2011-06-23,-1,-0.0008384994902818934,-0.000814039006231499,-0.010535803774772116,0.010772043670950776,0.9839247757148954
2011-06-27,0,-7.01217786570925e-05,5.609248173549101e-05,-0.010993445974076988,0.008825289571497624,0.9853931355806752
2011-06-29,1,0.001419607007815368,0.0018104458878435514,-0.012311724494575058,0.006980177580580874,0.9861626340511568
2011-07-01,1,0.0017795451014141863,0.002191504229436825,-0.012311724494575058,0.005411154215236448,0.9860017662293665
2011-07-06,1,0.0013623472436750193,0.0017170575687367876,-0.02018718749775874,0.006980177580580874,0.9836413664886676
2011-07-08,1,0.0016165521968433592,0.002038884681767351,-0.02018718749775874,0.005411154215236448,0.982501786136682
2011-07-12,1,0.00014372665987704217,0.00032243334382030817,-0.013142862080478927,0.006980177580580874,0.9783848789326693
2011-07-14,0,0.0,0.0,-0.023374281858687083,0.008042914198816524,0.9693996842819065
2011-07-18,0,0.0,0.0,-0.03357012683209591,0.011829507322365922,0.9666233959001826
2011-07-20,1,0.00017440121364857545,0.0002631114759349584,-0.03357012683209591,0.00863283334721063,0.96677651515321
2011-07-22,-1,-0.0011866216073327675,-0.0010228213184776745,-0.039730986077159136,0.007458617235362992,0.9639852846112589
2011-07-26,-1,-0.0006744972403648036,-0.0006278811770583994,-0.039730986077159136,0.013097607046294295,0.9625028861050657
2011-07-28,-1,-0.0012012608343055131,-0.0010550375552196766,-0.039730986077159136,0.025963094165343568,0.9608259138503858
2011-08-01,-1,-0.0013644845922629596,-0.0012462910316801338,-0.039730986077159136,0.037426796570249686,0.958525444107713
2011-08-03,-1,-0.00167067386801049,-0.0015314726261155807,-0.037325702544627,0.037426796570249686,0.9591291314934657
2011-08-05,-1,-0.0038482769417397507,-0.003443876169042237,-0.037325702544627,0.037426796570249686,0.959714379257038
2011-08-09,-1,-0.004962190007169496,-0.00442627652514994,-0.03616975148577466,0.037426796570249686,0.9617880143053743
2011-08-11,-1,-0.003960192633656315,-0.0035152511521693627,-0.03616975148577466,0.022639079696412948,0.9672403903490548
2011-08-15,-1,-0.003447414508269413,-0.0030618377377670406,-0.03616975148577466,0.021170358352727976,0.9681417690293751
2011-08-17,-1,-0.003633826040098081,-0.0032743487893768944,-0.03616975148577466,0.03138332571503884,0.9664070928291383
2011-08-19,-1,-0.0060353996236796005,-0.005409685914294903,-0.028636498447376986,0.03138332571503884,0.9700663759124327
2011-08-23,-1,-0.005140755136027074,-0.004614058007460477,-0.03310898211970455,0.022389173030427784,0.9684894280654871
2011-08-25,-1,-0.00533160471920353,-0.004809848178397302,-0.03310898211970455,0.01866188123908595,0.9700158476538665
2011-08-29,-1,-0.002091783179704659,-0.0019986943816016805,-0.03310898211970455,0.01866188123908595,0.9686218058759108
2011-08-31,-1,-0.0028635293872072893,-0.0026396935953556487,-0.028636498447376986,0.022389173030427784,0.9688529679312501
2011-09-02,-1,-0.005126023967061063,-0.004655153808306674,-0.027175255755791754,0.022389173030427784,0.969642362980133
2011-09-07,-1,-0.0028919068033265755,-0.0026459735036487475,-0.027175255755791754,0.022389173030427784,0.9710085442541923
2011-09-09,-1,-0.0056255158442016645,-0.0050570771320318925,-0.02343745431501938,0.030183867214534102,0.968803509574991
2011-09-13,0,0.0,0.0,-0.02343745431501938,0.03413585958128997,0.9684137903352973
2011-09-15,-1,-0.002530673659118743,-0.002456780476321399,-0.027175255755791754,0.03183154300262424,0.9684360645855251
2011-09-19,-1,-0.002931463731597521,-0.002891949639375908,-0.028615114059579998,0.03183154300262424,0.9679141816273314
2011-09-21,-1,-0.0035497366710047847,-0.0033514533915863787,-0.02343745431501938,0.038611356859790044,0.9685446175144347
2011-09-23,-1,-0.003367373086364131,-0.0032096482535788583,-0.028615114059579998,0.038611356859790044,0.9661413794677137
2011-09-27,-1,-0.0012717969611030615,-0.0012120584253345593,-0.03151340622870636,0.038611356859790044,0.9662812519141855
2011-09-29,-1,-0.0006670470215430135,-0.0004995628597021577,-0.03151340622870636,0.04470127484743536,0.965137297382725
2011-10-03,-1,-0.002316175584195257,-0.002272807974857169,-0.03151340622870636,0.04470127484743536,0.9647505048042353
2011-10-05,-1,-0.0005235580842759249,-0.00035802595969979846,-0.03494603366064266,0.045628830534185115,0.9633646047745811
2011-10-07,0,0.0,0.0,-0.03151340622870636,0.03638117744082097,0.9679578656660625
2011-10-11,1,0.0014264736531651703,0.0018627372133139565,-0.03151340622870636,0.034036841866777155,0.9690353939746031
2011-10-13,1,0.0010248338903391001,0.0013481074174793225,-0.03324905194801512,0.029550375108541735,0.9684866983459846
2011-10-17,1,0.00014751563975915708,0.00037769465823627845,-0.021861216881995122,0.029550375108541735,0.9681952809676324
2011-10-19,1,0.001761876070635184,0.0022392566959317625,-0.021861216881995122,0.02733191193833085,0.9716157458392294
2011-10-21,0,0.0,0.0,-0.017764208275410396,0.02733191193833085,0.9730655147544938
2011-10-25,0,0.0,0.0,-0.020676705540173444,0.01962698401806337,0.974064546360688
2011-10-27,0,0.0,0.0,-0.02690364523328116,0.013659183843517502,0.9760144884379374
2011-10-31,0,0.0,0.0,-0.020676705540173444,0.01609673408736529,0.9777524281567405
2011-11-02,0,0.0,0.0,-0.017764208275410396,0.01609673408736529,0.9781025695658391
2011-11-04,0,0.0,0.0,-0.017764208275410396,0.018135481963906082,0.9775394937909939
2011-11-08,0,0.0,0.0,-0.017764208275410396,0.011261251031907239,0.9788000967291663
2011-11-10,0,0.0,0.0,-0.017764208275410396,0.01708932984405411,0.9791859784384322
2011-11-14,0,0.0,0.0,-0.018835687777535973,0.009640420544368634,0.9794539529628342
2011-11-16,1,0.9727015791577172,0.9746064280631479,-0.018835687777535973,0.01628415726700829,0.506645256769065
2011-11-18,0,0.0,0.0,-0.018835687777535973,0.010176561097295622,0.979329463800804
2011-11-22,0,0.0,0.0,-0.013929293742494867,0.02219090360611327,0.9786828798719311
2011-11-25,1,0.0008978848152195438,0.0013195825089190403,-0.01179197978449557,0.025709214956146878,0.9786819011677422
2011-11-29,1,0.0018731108785878473,0.0024301795027637275,-0.014740133786179915,0.022476311839724726,0.9784238386252061
2011-12-01,0,0.0,0.0,-0.016165223907764918,0.022233505339219525,0.98037738190417
2011-12-05,0,0.0,0.0,-0.016165223907764918,0.025524284173229692,0.9800181865216585
2011-12-07,1,0.0033564202847666987,0.0038249791097672015,-0.016165223907764918,0.025524284173229692,0.9803148526643688
2011-12-09,1,0.003851319636008265,0.004477738456960916,-0.014740133786179915,0.02089990954232881,0.9832964432371329
2011-12-13,0,0.0,0.0,-0.004435124829046586,0.02089990954232881,0.9837889239876022
2011-12-15,0,0.0,0.0,-0.0014648307442254739,0.02089990954232881,0.9846851321377229
2011-12-19,0,0.0,0.0,0.0012953664440053993,0.02089990954232881,0.9834793311002454
2011-12-21,0,0.0,0.0,-0.0036036215222463,0.01260016835392417,0.9853747463951158
2011-12-23,0,0.0,0.0,-0.0036036215222463,0.01260016835392417,0.9865159879432032
2011-12-28,0,0.0,0.0,0.0,0.012820271302640775,0.9851053983742752
2011-12-30,1,0.0023352646712309607,0.002496777732952647,0.0,0.010610094662134134,0.9874820786894617
2012-01-04,1,0.0035187409890200137,0.003848954071555375,0.0,0.010408787257799229,0.9888901855533846
2012-01-06,1,0.004596500943264588,0.005116043310211375,-0.0017543843505051044,0.010408787257799229,0.9886182528851589
2012-01-10,1,0.004748916541364305,0.005247711221305806,-0.0017543843505051044,0.011831441728859433,0.9877194818790505
2012-01-12,1,0.0034798997179053175,0.0036412058485970197,-0.00738538204264849,0.011831441728859433,0.9861604690483009
2012-01-17,1,0.004041944487638994,0.004352780889385597,-0.010589655864608166,0.011831441728859433,0.9850238664091225
2012-01-19,1,0.0026924587887166493,0.0028440080236079362,-0.00738538204264849,0.016315947679313787,0.986335022909767
2012-01-23,1,0.003466182383136457,0.003796811153959658,-0.00738538204264849,0.016315947679313787,0.9863041983460129
2012-01-25,1,0.0036224074221503097,0.003918046836666882,-0.008862544599509067,0.011831441728859433,0.9862997680010656
2012-01-27,1,0.00020216058815462174,0.00046566320552201277,-0.008862544599509067,0.011803248412286884,0.988236539283656
2012-01-31,1,0.001074172934983987,0.0011652872318000183,-0.010771641913698815,0.016235033294707275,0.9869551274714105
2012-02-02,0,0.0,0.0,-0.010771641913698815,0.016235033294707275,0.9868372032152938
2012-02-06,0,0.0,0.0,-0.017140270991438465,0.011415804090218853,0.9854920646003724
2012-02-08,0,0.0,0.0,-0.017140270991438465,0.011949060135563343,0.985148541395551
2012-02-10,0,0.0,0.0,-0.014011956592856107,0.012144594825487316,0.9853586579406594
2012-02-14,0,0.0,0.0,-0.010771641913698815,0.01963400065172085,0.9828171562751675
2012-02-16,0,0.0,0.0,-0.010771641913698815,0.020188187834678427,0.982208334402158
2012-02-21,0,0.0,0.0,-0.008895199297908715,0.017834801430740743,0.9836956225283868
2012-02-23,0,0.0,0.0,-0.010101935551676034,0.017834801430740743,0.9836172739071746
2012-02-27,0,0.0,0.0,-0.008739433099561246,0.017834801430740743,0.9834422287202265
2012-02-29,0,0.0,0.0,-0.008739433099561246,0.01748117861719359,0.9841873341741512
2012-03-02,0,0.0,0.0,-0.009306029015831161,0.01748117861719359,0.9839373228488121
2012-03-06,0,0.0,0.0,-0.00868592487694012,0.01748117861719359,0.9853422627676445
2012-03-08,0,0.0,0.0,-0.009181728811445862,0.017121427560518054,0.9868210263150441
2012-03-12,0,0.0,0.0,-0.00936036571104828,0.017121427560518054,0.9857522057044951
2012-03-14,0,0.0,0.0,-0.00936036571104828,0.016111901268102902,0.9871840575269372
2012-03-16,0,0.0,0.0,-0.010097194425826775,0.016111901268102902,0.9865223213047886
2012-03-20,1,0.0023782107629801656,0.0025651706064348996,-0.010097194425826775,0.016111901268102902,0.9862937919880935
2012-03-22,1,0.0020834079438273208,0.0023340478132869687,-0.009306029015831161,0.016111901268102902,0.9867022870056151
2012-03-26,1,0.001410905777877473,0.0014747050389925997,-0.010097194425826775,0.016111901268102902,0.9860420235027259
2012-03-28,1,0.002816396696117535,0.0032021664955304554,-0.010042857730609655,0.016111901268102902,0.986830931443838
2012-03-30,1,0.0025400436707556295,0.0028632932411563777,-0.009936669757963397,0.016111901268102902,0.9869923972453087
2012-04-03,1,0.0032526558313011166,0.003729214302313006,-0.008616084567473894,0.015577395036067341,0.987530957534791
2012-04-05,1,0.0019644339664694616,0.0021458891237956758,-0.010927727973658386,0.015577395036067341,0.9860517208689499
2012-04-10,1,0.000878599386800776,0.0009321152427272154,-0.006391838417895719,0.016085623503684823,0.9867197996253912
2012-04-12,1,0.0021942442713891144,0.002397568672060423,-0.008143319819639911,0.013221769261130164,0.9874450044144653
2012-04-16,1,0.0017075001213551892,0.001851991087518122,-0.008143319819639911,0.01208386302516697,0.9882777388858619
2012-04-18,1,0.0005577213387146328,0.0006844445294274025,-0.008143319819639911,0.01208386302516697,0.9881407731738026
2012-04-20,1,0.0020121601188891943,0.00203489631493514,-0.01239263255441939,0.007604913959020291,0.987348033682901
2012-04-24,1,0.0010490084917032841,0.0011436851019800414,-0.009838875427272568,0.007456296341868255,0.988521965557843
2012-04-26,1,0.0018876843733175823,0.00192126315727306,-0.009838875427272568,0.011512282129381669,0.9878279665407439
2012-04-30,1,0.002077119546989149,0.0021725465924039896,-0.009838875427272568,0.01208386302516697,0.9870835672921294
2012-05-02,1,0.0019446620444577597,0.0020233101079972756,-0.013147826996115284,0.012940021489227377,0.9858588029815784
2012-05-04,1,0.0002561116759596527,0.00042693732522912023,-0.021893056457268967,0.012940021489227377,0.9822520450698041
2012-05-08,-1,-0.0003928751912942223,-6.801977012125821e-05,-0.021893056457268967,0.012940021489227377,0.9812864305878523
2012-05-10,-1,-0.0009037826771019931,-0.000530008942698515,-0.013121694053848346,0.015059541038781203,0.981791071678003
2012-05-14,-1,-0.0021720736541694548,-0.0016083491553393983,-0.013121694053848346,0.01815837165679704,0.9807055134753757
2012-05-16,-1,-0.0006363002025842998,-0.00038089485975202793,-0.016739025321909413,0.01815837165679704,0.9798749085749556
2012-05-18,-1,-0.0012021724389666226,-0.0009345289990069793,-0.007084191808255846,0.01815837165679704,0.9804097137676595
2012-05-22,-1,-0.0014891697224258737,-0.0011303968017894437,-0.007084191808255846,0.01815837165679704,0.9807602234985224
2012-05-24,0,-0.00012013691978064701,8.453943856059172e-05,-0.014314674530693504,0.015146416256057331,0.9815412115192569
2012-05-29,1,0.0007757636127076186,0.000812401284028545,-0.016027214919167972,0.013411113231003548,0.9814894728789225
2012-05-31,1,0.0009580017376731111,0.0009596285243732448,-0.014314674530693504,0.010968111470419012,0.9831421117498571
2012-06-04,-1,-0.0028887243666665934,-0.0024598651298897885,-0.003592590164670147,0.013411113231003548,0.9856401841652718
2012-06-06,-1,-0.0008386721689339629,-0.0006708699597747704,-0.007091147315756119,0.01263763048781616,0.9874081529594343
2012-06-08,0,-6.076615369730843e-05,1.3578893733909346e-05,-0.00812911962069891,0.010359774502211509,0.9880909679374058
2012-06-12,-1,-0.0003374746798488094,-0.00018291731823458994,-0.006626025105784614,0.010359774502211509,0.9893432774536447
2012-06-14,-1,-0.0008623476388205193,-0.0006465165893243586,-0.006626025105784614,0.010359774502211509,0.987753288516248
2012-06-18,-1,-0.00047765240321466377,-0.0003600784254931828,-0.006626025105784614,0.010359774502211509,0.987505995536758
2012-06-20,-1,-0.0010539156842014569,-0.0007728241118071836,-0.007634918173770008,0.010359774502211509,0.9876090966191706
2012-06-22,0,0.0,0.0,-0.009315624200820919,0.008003041025976309,0.9860841189134235
2012-06-26,0,0.0,0.0,-0.007634918173770008,0.013209343102316161,0.9864684010941954
2012-06-28,-1,-0.001265498665659948,-0.001001953617896953,-0.007634918173770008,0.01553533011854093,0.9859932746273774
2012-07-02,1,0.000924587391567257,0.0009938888482922124,-0.013884311717250346,0.008463977383554864,0.9865861401327635
2012-07-05,-1,-0.0001847865378609025,-5.729662549167492e-05,-0.011942617839907462,0.008463977383554864,0.9870983873606938
2012-07-09,-1,-0.0007958487144530972,-0.0005619345012991314,-0.011942617839907462,0.01553533011854093,0.9861574352146351
2012-07-11,-1,-0.00011899105157549636,-8.62960231472914e-08,-0.011942617839907462,0.008463977383554864,0.9871038363414293
2012-07-13,0,0.0,0.0,-0.008490781396236675,0.006582738995869178,0.9893469205925346
2012-07-17,0,0.0,0.0,-0.008490781396236675,0.0047189051354572555,0.9903247305302936
2012-07-19,0,0.0,0.0,-0.005189945682158413,0.0047189051354572555,0.9906160241050926
2012-07-23,0,0.0,0.0,-0.001963667830529136,0.005492096047277261,0.9925954670698166
2012-07-25,0,0.0,0.0,-0.0019416220179313951,0.005492096047277261,0.9930132545300904
2012-07-27,0,0.0,0.0,-0.0019343661001852016,0.0047189051354572555,0.9938088289296937
2012-07-31,0,0.0,0.0,-0.0003875873000148596,0.0047189051354572555,0.994755122257622
2012-08-02,-1,-0.002178087921246955,-0.0017689782628038029,-0.0003875873000148596,0.005492096047277261,0.9933838626916558
2012-08-06,-1,-0.0002501733523933499,-0.0001861071678358627,-0.0019214865003262527,0.00544352915672486,0.995197356284369
2012-08-08,1,7.573973495319894e-05,9.623060437049747e-05,-0.003047778000985645,0.007665968111080075,0.9939136804266877
2012-08-10,1,0.0004978554088476072,0.0005866368276130777,-0.003047778000985645,0.007665968111080075,0.9938130723776081
2012-08-14,1,8.557828225771826e-05,8.800746116469741e-05,-0.003047778000985645,0.008476719669692542,0.9919642691191349
2012-08-16,1,0.0003515870741793782,0.00039829440299077795,-0.003047778000985645,0.013808899428352082,0.9905551581784706
2012-08-20,1,0.0006291012286599416,0.0007081684761223536,-0.003047778000985645,0.013808899428352082,0.990248877996408
2012-08-22,1,0.0007423275323978049,0.0008395243204056631,-0.0034212199433926835,0.013808899428352082,0.990249191931851
2012-08-24,1,0.00091910152760905,0.0010481644891495625,-0.00486780181387951,0.013808899428352082,0.9899966442988282
2012-08-28,1,0.000709378115755947,0.0007897635878082878,-0.00642866995646018,0.013808899428352082,0.9892217224504934
2012-08-30,1,1.1985437669604146e-05,7.13384624642542e-05,-0.0037088371870815477,0.013808899428352082,0.9897480913409524
2012-09-04,1,0.0007940282734051279,0.0008975161987822559,-0.0035971635401248854,0.013808899428352082,0.9898606657958742
2012-09-06,1,0.0007630954868455442,0.0008403943118922028,-0.0028431387119300434,0.014771152794749259,0.989397105086026
2012-09-10,0,0.0,0.0,-0.0035553194005745236,0.014771152794749259,0.9897566109621694
2012-09-12,0,0.0,0.0,-0.005605121126295018,0.006564810882359463,0.9911636380906466
2012-09-14,1,0.0036172865110179466,0.004114292064072705,-0.0060462485526940404,0.004328992875402174,0.9896176374846551
2012-09-18,1,0.003260460523598203,0.0037475391229311503,-0.0060462485526940404,0.005425340649165979,0.9900842355481122
2012-09-20,0,0.0,0.0,-0.0060462485526940404,0.008965257962219367,0.987256861674796
2012-09-24,0,0.0,0.0,-0.008463647810626432,0.008965257962219367,0.986492195295625
2012-09-26,0,0.0,0.0,-0.011486553243890607,0.008965257962219367,0.9862458315293241
2012-09-28,0,0.0,0.0,-0.011486553243890607,0.006941565502216753,0.9865019183951597
2012-10-02,1,0.0010399552727113797,0.001250255202953783,-0.011486553243890607,0.008965257962219367,0.9860830964810129
2012-10-04,1,0.0030207335520761936,0.00337899091182687,-0.011486553243890607,0.00395455762322166,0.98699618889342
2012-10-08,0,0.0,0.0,-0.013913588972119834,0.006941565502216753,0.9839548138313651
2012-10-10,1,0.0016518477971456226,0.0017584420066955931,-0.013913588972119834,0.006941565502216753,0.9838981598282595
2012-10-12,1,0.0011672628155640246,0.001233713062535871,-0.012898105840509858,0.00395455762322166,0.9851805152828472
2012-10-16,1,0.0015322168046188161,0.0017084072826794765,-0.01398143494957287,0.0020068827734616977,0.9845720639342015
2012-10-18,1,0.0005791448573102102,0.0006604731160000754,-0.011509168569708288,0.00395455762322166,0.9870877996172976
2012-10-22,-1,-0.0003424757119557014,-0.0002895198353934905,-0.010002263394803389,0.005274809983005174,0.9878513814362826
2012-10-24,0,0.0,0.0,-0.004929206835845374,0.011504129103359826,0.9876081147135243
2012-10-26,0,0.0,0.0,-0.0062096893978407924,0.011504129103359826,0.9868354413281198
2012-11-01,-1,-0.0012160563644560743,-0.0010212236280789304,-0.0062096893978407924,0.0068927246687067265,0.9875134921072034
2012-11-05,-1,-0.001194972862475846,-0.0009975564343532863,-0.010487857810888257,0.0068927246687067265,0.9866607852668607
2012-11-07,-1,-0.0022912611145368385,-0.001960181355370314,-0.008493275514657636,0.010587312062169268,0.9894620254450642
2012-11-09,-1,-0.0020281138423971466,-0.001734490377977821,-0.005820172410994434,0.010587312062169268,0.9892180293687565
2012-11-13,-1,-0.00241840359200685,-0.002082216836888325,-0.004929206835845374,0.010587312062169268,0.989532585700464
2012-11-15,-1,-0.003107897751503411,-0.002691283752118358,-0.0024370744895106495,0.010587312062169268,0.989996708658353
2012-11-19,-1,-0.002477304340049437,-0.002115089351875812,-0.0024370744895106495,0.010587312062169268,0.99010814399428
2012-11-21,-1,-0.0026749263604541173,-0.0022862925433117815,-0.0016207826188298277,0.010587312062169268,0.9903195278508741
2012-11-26,-1,-0.0008057719955912539,-0.0006968218357675187,-0.003917272894536385,0.004862244891819986,0.9922142196839774
2012-11-28,-1,-0.0018720522877330838,-0.001619399148090778,-0.001998058847706046,0.004862244891819986,0.9929620138973998
2012-11-30,-1,-0.0017760198703616627,-0.0015370179201082777,-0.003917272894536385,0.00974056074287283,0.9919262254159592
2012-12-04,-1,-0.002293562171726728,-0.002014453950598428,-0.0016033060999392835,0.01269818584240788,0.9905949552081632
2012-12-06,-1,-0.0011852355923544218,-0.0010484560954253648,-0.0016033060999392835,0.010325683703872577,0.9918878359194878
2012-12-10,-1,-0.0005029368141843394,-0.0004666929831506839,-0.003917272894536385,0.007555410876288375,0.9918762972711209
2012-12-12,-1,-0.0009196702546255804,-0.0008109818471001588,-0.006575232750799791,0.012551869867955772,0.990850487916181
2012-12-14,-1,-0.0020978664948904987,-0.0017825110208490001,-0.003917272894536385,0.012551869867955772,0.9907436583260383
2012-12-18,-1,-0.0008015755210965311,-0.0006512308746160543,-0.003917272894536385,0.012080273190255012,0.9903310120771387
2012-12-20,-1,-0.0007080127798556714,-0.0005919549586820697,-0.003917272894536385,0.012080273190255012,0.9897859423222676
2012-12-24,-1,-0.0015730772448653333,-0.0013152807955599546,-0.006032998634342507,0.012080273190255012,0.9893725424891515
2012-12-27,-1,-0.0015549935712365387,-0.0012879095997801963,-0.007162240938564586,0.012080273190255012,0.9891208804541123
2012-12-31,-1,-0.0006917776871129249,-0.0005640719151670612,-0.007097739512874857,0.011720310103931883,0.989688164705164
2013-01-03,1,0.0004667188222738109,0.00048733104628929957,-0.007097739512874857,0.011474175304780228,0.9908860899794009
2013-01-07,1,0.0006831484752071046,0.0007524943444050265,-0.007269139800705661,0.011720310103931883,0.9900943775313696
2013-01-09,0,-2.1646582453588618e-05,9.557265855838975e-06,-0.006032998634342507,0.011720310103931883,0.9907500982291196
2013-01-11,1,9.137619182784266e-05,0.00010148090191309598,-0.006032998634342507,0.011474175304780228,0.9910433155901522
2013-01-15,1,0.00047532885464777384,0.0005137287488981865,-0.007097739512874857,0.011720310103931883,0.9901295059544857
2013-01-17,1,0.0020321093844672365,0.0022875965884386305,-0.007522120851392572,0.009159655248063902,0.9918366014494211
2013-01-22,1,0.002119400822423521,0.002393483178103143,-0.008501846980927999,0.006326186511722885,0.9912166960787834
2013-01-24,1,0.001666921804940883,0.0018774520758124383,-0.00887849351511344,0.009205270023407746,0.9901747115447903
2013-01-28,1,0.001424661935941913,0.001594447442639705,-0.010099968812783525,0.009205270023407746,0.9892663471420701
2013-01-30,1,0.0017002546955208345,0.0019130262218553734,-0.010099968812783525,0.00981374777862205,0.9885253768636771
2013-02-01,1,0.002208225303832656,0.0025011007464362397,-0.010099968812783525,0.00981374777862205,0.9884112096485883
2013-02-05,1,0.0024498095578808915,0.0027878782866812045,-0.010099968812783525,0.006368259494864607,0.9890693028182602
2013-02-07,1,0.003089927156000213,0.0035803135871747185,-0.010099968812783525,0.00981374777862205,0.9887432306951744
2013-02-11,1,0.003308647115903709,0.003886628789648925,-0.005561418753743253,0.007778653785880249,0.9893447812455454
2013-02-13,1,0.0029082675679148193,0.0033906967336462665,-0.003067254251192879,0.007316190579437142,0.9901059677123606
2013-02-15,1,0.0026642400998360726,0.0030946608716881895,-0.003067254251192879,0.007316190579437142,0.9900696106277889
2013-02-20,1,0.0022290822466825007,0.0026028372918311064,-0.000675675022593382,0.008095895151971311,0.9909476100601222
2013-02-22,1,0.0019145379852570366,0.0022023242992362997,-0.003067254251192879,0.0059497963547953964,0.9917585640037785
2013-02-26,1,0.0014018622550927714,0.0016470156595337344,-0.003043292321951534,0.008095895151971311,0.9920958296578345
2013-02-28,1,0.002136287351775517,0.0024705232060370855,-0.004470213956335126,0.0059497963547953964,0.9930765300694682
2013-03-04,1,0.0037017125195891345,0.004322119968612928,-0.005737225515080011,0.005468839360548251,0.9928797607517115
2013-03-06,1,0.00324613829725003,0.0037812688420763973,-0.007008049343390849,0.005758458227152326,0.9925350496562257
2013-03-08,1,0.0034841628828779963,0.004032386170807022,-0.007008049343390849,0.005758458227152326,0.9919255845487958
2013-03-12,1,0.0034666552711267325,0.003981234710220379,-0.007008049343390849,0.007076893755833917,0.9920327770558152
2013-03-14,1,0.003796199361011304,0.004344529099243462,-0.00807047359975611,0.005764004045305176,0.9915491920194015
2013-03-18,1,0.002821068672684824,0.003165439640181262,-0.00807047359975611,0.007076893755833917,0.9905722166218056
2013-03-20,1,0.00258372189083642,0.0028682845654221566,-0.009724323016999716,0.006111396873809526,0.9880734861897544
2013-03-22,0,0.0,0.0,-0.00881652206333367,0.008175533051039473,0.9884016337363261
2013-03-26,0,0.0,0.0,-0.00881652206333367,0.008175533051039473,0.988561123076766
2013-03-28,1,0.001748932923701678,0.0018781096910261389,-0.00881652206333367,0.008175533051039473,0.9891751128495491
2013-04-02,1,0.0012791110437945054,0.0013475983924365075,-0.006815300781450236,0.008175533051039473,0.9896939395499841
2013-04-04,1,0.0008154549423160019,0.0008625862777552474,-0.006815300781450236,0.008213948064361268,0.9893705962666847
2013-04-08,0,0.0,0.0,-0.00482022879247535,0.008314459179460687,0.9889685397142962
2013-04-10,0,0.0,0.0,-0.00482022879247535,0.008821473394478148,0.988764455785964
2013-04-12,1,3.167719852494445e-05,0.00036426481559367267,-0.0031482240555341504,0.008821473394478148,0.9890309379804078
2013-04-16,-1,-0.0004448042273765137,-0.00018997883745240412,-0.000714285033089774,0.009239258422526176,0.9895324734759331
2013-04-18,0,0.0,0.0,0.0,0.009239258422526176,0.9913010774248766
2013-04-22,0,0.0,0.0,0.0,0.009239258422526176,0.9914097013003205
2013-04-24,0,0.0,0.0,-0.0019743372063019773,0.008314459179460687,0.9911663622136269
2013-04-26,0,0.0,0.0,-0.00430976669267317,0.008314459179460687,0.9908451154231545
2013-04-30,0,0.0,0.0,-0.00430976669267317,0.01091031308905903,0.9901584438608337
2013-05-02,-1,-0.0010303873120617872,-0.0007229998413248659,-0.00430976669267317,0.013292120378094557,0.9892002498359699
2013-05-06,0,-3.1621911300612894e-05,0.00014325395266544022,-0.005203729542925101,0.01091031308905903,0.9900092951874158
2013-05-08,1,0.0003180290515725052,0.00046460081338612616,-0.0072065891824646365,0.008709039332500827,0.9898626675010447
2013-05-10,0,-3.855470389442766e-06,0.0002054938271286652,-0.0072065891824646365,0.013090057521277832,0.9888549672475585
2013-05-14,1,0.0015505061389344435,0.001602143875533759,-0.013286434418845122,0.01091031308905903,0.9885104893072121
2013-05-16,1,0.0005861461983416499,0.000667722220154854,-0.013323929580637467,0.013090057521277832,0.9872440886332888
2013-05-20,1,0.0009365259265892823,0.0010044415092968838,-0.013323929580637467,0.01091031308905903,0.987743990837041
2013-05-22,0,-1.5673401612894427e-05,0.00016537804693465103,-0.013323929580637467,0.01091031308905903,0.9876640638837941
2013-05-24,1,9.769448350620529e-05,0.00023391110186009567,-0.013323929580637467,0.013090057521277832,0.9867462371627583
2013-05-29,1,0.0010689895564283255,0.0010797156668575641,-0.013323929580637467,0.01699994761260014,0.9862746555051656
2013-05-31,1,0.0007829899174109417,0.000802198964059713,-0.012027370000080109,0.01194384935263062,0.988067821928979
2013-06-04,-1,-0.00021540582398356834,-4.471034115884759e-05,-0.007825210453089235,0.01752519716677428,0.9866981517352758
2013-06-06,-1,-0.0003406655857021028,-0.00014703750367742218,-0.003456703706590548,0.0188273079831019,0.9857391537156505
2013-06-10,1,0.0008599749529658043,0.0008963219292531643,-0.003456703706590548,0.0188273079831019,0.9872562196933323
2013-06-12,1,0.00047595726013607967,0.00048481085384737325,-0.003456703706590548,0.0188273079831019,0.9869610158693268
2013-06-14,1,0.00020353369909355856,0.00023896917883997674,-0.002377110568565751,0.01874635010527543,0.9880028969881689
2013-06-18,1,0.000497975772349799,0.0005270214847828261,-0.003456703706590548,0.01874635010527543,0.9877793939417371
2013-06-20,0,-6.616901150670313e-05,3.556024221488852e-05,-0.0024243085522918165,0.019556422671652314,0.9879748963408658
2013-06-24,1,0.00015192088635193284,0.00022716232553487116,-0.0024243085522918165,0.018607385183187768,0.9879805511619745
2013-06-26,1,0.0011952298863819454,0.0012698496571692905,-0.0026979597041391925,0.018009126926565477,0.9885315516560734
2013-06-28,1,0.0012959208990905387,0.0013844326796676456,-0.004670875204746706,0.018009126926565477,0.9877481649469108
2013-07-02,0,0.0,0.0,-0.004708068961332202,0.013616547169489544,0.9891734141044766
2013-07-05,0,0.0,0.0,-0.004708068961332202,0.013616547169489544,0.9901678034201521
2013-07-09,1,0.0032036741866358427,0.0035417553424805406,-0.008732018090669164,0.013616547169489544,0.9895125210427499
2013-07-11,0,0.0,0.0,-0.004708068961332202,0.013616547169489544,0.9902741355803479
2013-07-15,0,0.0,0.0,-0.006412055326221529,0.010300558506735748,0.9908946308924307
2013-07-17,0,0.0,0.0,-0.004109989044065055,0.010300558506735748,0.9915448241920467
2013-07-19,0,0.0,0.0,-0.006412055326221529,0.0096986853213868,0.9912947958009874
2013-07-23,0,0.0,0.0,-0.006937778338867721,0.0096986853213868,0.9912483327684363
2013-07-25,0,0.0,0.0,-0.010357332464098045,0.0096986853213868,0.9908479781111396
2013-07-29,1,0.0035257808567263882,0.0037978221085738753,-0.010357332464098045,0.0096986853213868,0.9903529648095102
2013-07-31,1,0.0038087083504799897,0.004162052195651715,-0.01108896084355938,0.005856183980905918,0.9893191201775593
2013-08-02,1,0.004258574966268822,0.004666807820845248,-0.01108896084355938,0.005031307801991619,0.9896553750402306
2013-08-06,1,0.004050446308589785,0.004455313674425126,-0.01108896084355938,0.00691503336558205,0.9896682004810385
2013-08-08,1,0.0036168019878279113,0.0039410346270750424,-0.006985923674358027,0.006951405745555647,0.9905328257821633
2013-08-12,1,0.00276762069127478,0.0030649022602670306,-0.004441464261358878,0.00980780246130759,0.9903327782647354
2013-08-14,1,0.002343724425598849,0.0025489421570116665,-0.01151440896855558,0.00980780246130759,0.9890402206311142
2013-08-16,1,0.002390855655217134,0.002627756415660116,-0.010746601353838243,0.006951405745555647,0.9902987235202105
2013-08-20,1,0.0020629268999440894,0.0022155248029390243,-0.010746601353838243,0.006951405745555647,0.9903435604390989
2013-08-22,1,0.001871295125065103,0.0019650985161790294,-0.011497644562705259,0.006024357231193818,0.990025924562244
2013-08-26,1,0.0008545266939609373,0.0008905394859009604,-0.011497644562705259,0.006024357231193818,0.9899638534040784
2013-08-28,1,0.00023804487110138804,0.0003219185695043502,-0.010944366144117246,0.006951405745555647,0.990496372190815
2013-08-30,1,0.00029264971478258763,0.0003637640115488202,-0.010944366144117246,0.006885605790081715,0.9905009504153023
2013-09-04,1,0.0009158931572390873,0.0009289180813676701,-0.010944366144117246,0.006885605790081715,0.9909474424619492
2013-09-06,1,0.0006931556028754993,0.0007763587378168117,-0.010944366144117246,0.00722579342163392,0.9905703196283228
2013-09-10,1,0.00016271161889886646,0.00039975896070686395,-0.011564042645733115,0.004234569068775851,0.9895268767566918
2013-09-12,-1,-0.000703867634579295,-0.0003910758210396223,-0.010960910703176424,0.00722579342163392,0.9888629893733614
2013-09-16,-1,-0.0003783916950598318,-0.00013312120680573133,-0.010960910703176424,0.011155202906123464,0.9881300666543654
2013-09-18,-1,-0.0005738782033236822,-0.00029548104395193454,-0.011879715119248176,0.011155202906123464,0.9875154696193267
2013-09-20,-1,-0.0010675209199810013,-0.0007410283107839124,-0.006319016070496268,0.01197644631456622,0.9872565564667831
2013-09-24,-1,-0.0019116800120861637,-0.0014675830103642678,-0.004802028232776598,0.01197644631456622,0.9879129573386044
2013-09-26,-1,-0.001558870219585803,-0.0011986531948040982,-0.004802028232776598,0.012347334617417178,0.9880339196743402
2013-09-30,-1,-0.001081039101562132,-0.000802374388815855,-0.002882955134022973,0.012347334617417178,0.988100787428321
2013-10-02,-1,-0.0009027299321253909,-0.0006468206187957595,-0.0055394096852608085,0.012347334617417178,0.9883731334387733
2013-10-04,1,0.00025084417605730216,0.0003152355983023771,-0.007806080360303438,0.008289917617174038,0.9885809083543626
2013-10-08,-1,-0.002219092873318629,-0.0018208543713265192,-0.00450921854149594,0.008289917617174038,0.9898749262783673
2013-10-10,-1,-0.00020621521291904773,-7.623888590786027e-05,-0.007806080360303438,0.008163794928649595,0.9905420546631298
2013-10-14,-1,-0.0002650243185679228,-8.27203760228706e-05,-0.007876270304145967,0.007896302459409029,0.9891194561260049
2013-10-16,0,-2.2543684152985543e-05,0.00013124822578480154,-0.007876270304145967,0.007896302459409029,0.98978795692282
2013-10-18,1,0.0013850695672098646,0.0014333838409547966,-0.007876270304145967,0.006998826542773734,0.9905666557935006
2013-10-22,1,0.0011437463698623996,0.0011460288671095438,-0.007876270304145967,0.006998826542773734,0.990210272454107
2013-10-24,1,0.0009045567360314978,0.0009627784099516868,-0.00781721607742362,0.006998826542773734,0.9901848160288083
2013-10-28,1,0.0007550516155296126,0.0008418420067725227,-0.00781721607742362,0.008736187275205719,0.9897768853197327
2013-10-30,1,0.00091873750601603,0.0009340354114482392,-0.006999775895231173,0.011583500022898442,0.9894383604783747
2013-11-01,-1,-0.0002575406298433357,-3.721135850446439e-05,-0.006916287715287616,0.011583500022898442,0.9899048350986733
2013-11-05,-1,-0.001018487407336326,-0.0006872924265883903,-0.006916287715287616,0.012088270920432695,0.9894387240597403
2013-11-07,-1,-0.0010987977369801391,-0.0007862431730992762,-0.006916287715287616,0.012561681904441247,0.9889320809350343
2013-11-11,-1,-0.0006948894263882705,-0.0003961416141273384,-0.0065814595567753285,0.012561681904441247,0.9901732573264558
2013-11-13,-1,-0.0002782863595434448,-3.658461055114923e-05,-0.0065814595567753285,0.012651090635326417,0.9898950713305116
2013-11-15,1,0.00012886026984049805,0.00027185071518866466,-0.006878153091088286,0.01424730435756332,0.9892974626972362
2013-11-19,-1,-0.0003318549851507762,-0.00013523718920900227,-0.007461320863134296,0.01424730435756332,0.9884995351803976
2013-11-21,1,0.0011853596434679503,0.0012535523419846496,-0.007461320863134296,0.013878022003085144,0.9896363245072534
2013-11-25,1,0.0022889989161763336,0.0025765056648206493,-0.007461320863134296,0.012617595755540188,0.9903361103923087
2013-11-27,1,0.002417970575428109,0.002699603249690147,-0.007461320863134296,0.012617595755540188,0.9905934255636155
2013-12-02,1,0.001036119137985744,0.001054301374252729,-0.004964602007991187,0.012617595755540188,0.9907404425100521
2013-12-04,1,0.0016189608090224404,0.0017626383232644805,-0.004964602007991187,0.008952739397330356,0.991138421713251
2013-12-06,1,0.0016311943625036361,0.0017352704078091674,-0.0033775588607140306,0.008952739397330356,0.992144562897229
2013-12-10,1,0.0025879883074161163,0.002854398317837177,-0.0033775588607140306,0.007310679038793086,0.9930739440159403
2013-12-12,1,0.00256085659514919,0.002835476150476964,-0.0033775588607140306,0.0065437285285462905,0.9937282110735887
2013-12-16,1,0.002934426496493221,0.003283114166820573,-0.0023429658266844577,0.007310679038793086,0.9940111748649071
2013-12-18,1,0.002550994811942033,0.0028274587090642714,-0.0023429658266844577,0.0065437285285462905,0.9936802639458925
2013-12-20,1,0.0025160644564160613,0.0028088068180531812,-0.0023429658266844577,0.007310679038793086,0.9926658383907014
2013-12-24,1,0.0031301450020049595,0.0035311272255520044,-0.005958537599179479,0.0065437285285462905,0.990099790147259
2013-12-27,1,0.002577921086869347,0.002880906267125737,-0.009219152776568687,0.0065437285285462905,0.9901591505446901
2013-12-31,1,0.002673329977088786,0.002980251579381192,-0.01161354492127137,0.006347460358710327,0.9895378298177586
2014-01-03,1,0.0023526403485257955,0.002611946818287166,-0.014627520621106336,0.003945240366186707,0.9873413317828003
2014-01-07,1,0.002909396940077853,0.0032362216232183277,-0.014627520621106336,0.003945240366186707,0.9870477652051619
2014-01-09,1,0.002901987671826901,0.0032085951542987928,-0.014627520621106336,0.007476663907394569,0.9860640458293976
2014-01-13,1,0.0024196198081687928,0.0026593334586812955,-0.014627520621106336,0.010524535674058203,0.9864495639181972
2014-01-15,1,0.0031697829462871367,0.003515715246349336,-0.014627520621106336,0.003150237860039924,0.9865228766758939
2014-01-17,1,0.001713276207229552,0.0018216516874477642,-0.009908357391641694,0.004105671670161451,0.9882031151575735
2014-01-22,1,0.0019532241256798085,0.0020245812516414574,-0.014627520621106336,0.004105671670161451,0.9875569032684038
2014-01-24,1,3.879582745857838e-05,0.00019895291824031843,-0.007057306877568366,0.011130522241002276,0.9888817160141655
2014-01-28,1,5.442544664614822e-06,0.00014124004510982012,-0.004111805557516234,0.011130522241002276,0.9889279425679683
2014-01-30,-1,-0.00013075417414598048,-4.676832870629079e-06,-0.002515321455549343,0.011393838873284559,0.9890635446761756
2014-02-03,-1,-0.0019902412068541256,-0.0016860183104582744,-0.0010607602660686205,0.012771678224261136,0.9902231702528244
2014-02-05,-1,-0.001995958589006791,-0.0016486487944795155,-0.0010607602660686205,0.011393838873284559,0.9906883178953181
2014-02-07,-1,-0.0011682327861579237,-0.0009217378524507554,-0.0010607602660686205,0.011130522241002276,0.9916625182155991
2014-02-11,-1,-0.0007620724158973526,-0.0005652423954629336,-0.002367195639188432,0.010556830881334524,0.991945584193918
2014-02-13,-1,-0.0014992198965555648,-0.0011762173024717048,-0.004136554184839563,0.010556830881334524,0.9914439374758411
2014-02-18,-1,-0.0020421590959548612,-0.001628457167341538,-0.002576825332256687,0.01059689315185721,0.9907104456942849
2014-02-20,-1,-0.0025291445110254994,-0.0020598199262082885,-0.0013018762817824012,0.01069136213982622,0.9906463273990782
2014-02-24,-1,-0.0013799534056109924,-0.001037196813267513,-0.002576825332256687,0.008846916167270881,0.9924187143933314
2014-02-26,-1,-0.0009662633926770034,-0.0006857471233447846,-0.004136554184839563,0.008846916167270881,0.9923494502809186
2014-02-28,0,-0.00013371886996117255,3.53220453677682e-05,-0.005129775519189767,0.008846916167270881,0.9917905177849745
2014-03-04,-1,-0.000661491128900836,-0.00034368366322969773,-0.005129775519189767,0.010322671970181744,0.9912120228155799
2014-03-06,0,-2.0633644663936644e-05,0.00016570637103751034,-0.005129775519189767,0.010322671970181744,0.9912283432363177
2014-03-10,1,0.0006454597188543355,0.0007257594916926449,-0.008487867042638967,0.00886027025744511,0.9901217508571097
2014-03-12,1,0.00018764510454168315,0.00031308144888930864,-0.008088072226586706,0.00886027025744511,0.9904724251464356
2014-03-14,1,0.00040709602165145533,0.0004474218260748154,-0.009021090687754647,0.00886027025744511,0.9887698666420859
2014-03-18,1,0.0010330660448667705,0.0010659889208132806,-0.009021090687754647,0.007850703069119667,0.988906287916195
2014-03-20,1,0.0020623060961179516,0.002235873853195406,-0.012422357864519704,0.006273020913335344,0.9883719691257417
2014-03-24,1,0.0015778261100805914,0.001694394935149404,-0.011487241941654963,0.007850703069119667,0.9885284145165213
2014-03-26,1,0.0012293262119055012,0.0012767077835163444,-0.012955158287008418,0.009071508984538365,0.9881817159977351
2014-03-28,1,0.0008641722348115733,0.0008855897976677595,-0.012955158287008418,0.007317072919494577,0.9883446951714224
2014-04-01,1,0.0016376732370233598,0.0016829827225683922,-0.012955158287008418,0.004170509391124198,0.9888142262915467
2014-04-03,1,0.0015133525909212383,0.0015261209742969337,-0.012955158287008418,0.00409496893359398,0.9885724435992943
2014-04-07,1,0.0005588335814518007,0.0006160388028805056,-0.010094669266420064,0.00409496893359398,0.9897698844206523
2014-04-09,1,0.00043865688650128096,0.0005048272983960781,-0.010094669266420064,0.0070904515469039225,0.9891303963177929
2014-04-11,-1,-0.0014543542125471224,-0.0011710250212436896,-0.009838799750734654,0.009071508984538365,0.9904542795833182
2014-04-15,-1,-0.0015224041922307203,-0.0012086896871558019,-0.010094669266420064,0.0070904515469039225,0.9899748654911605
2014-04-17,-1,-0.0024379123918351936,-0.002038529624114655,-0.009838799750734654,0.0070904515469039225,0.9905988231569317
2014-04-22,-1,-0.0012818034333266191,-0.0010552697055396278,-0.010150586922871078,0.0070904515469039225,0.9901759552701214
2014-04-24,-1,-0.0012783095728520753,-0.0010683070995644965,-0.009838799750734654,0.007173274511292908,0.9905596329187358
2014-04-28,-1,-0.002785840083501582,-0.0023716930186627166,-0.006164310941049926,0.007986498048654029,0.9911826921129883
2014-04-30,-1,-0.0023377639448750164,-0.0019788079955650947,-0.006164310941049926,0.006879050296687845,0.9913102348757755
2014-05-02,-1,-0.002151414282725623,-0.0018388205728888368,-0.004645549877751772,0.007986498048654029,0.9912188701875334
2014-05-06,-1,-0.002130332986809259,-0.0018633911132143076,-0.004402893654509275,0.007986498048654029,0.9911188590984943
2014-05-08,-1,-0.0013069576618674628,-0.001135244784752356,-0.004402893654509275,0.007986498048654029,0.9916310805055094
2014-05-12,-1,-0.0001268532859340493,-0.00010975000854471978,-0.004402893654509275,0.007986498048654029,0.9923084534376737
2014-05-14,-1,-0.0012301809215912467,-0.0010869242421908897,-0.004402893654509275,0.007986498048654029,0.9922364547441245
2014-05-16,-1,-0.001791648918563106,-0.0015928366128731947,-0.0042634541017181945,0.007986498048654029,0.9923926078084685
2014-05-20,-1,-0.0013878556856686249,-0.0012589722259899396,-0.0018264739433344732,0.007986498048654029,0.9926791124060731
2014-05-22,-1,-0.0012598282971345977,-0.001137701221372729,-0.00025720752590300053,0.007461094714736778,0.9929052751456083
2014-05-27,-1,-0.0005956551387704965,-0.0005610805711938513,-0.0018264739433344732,0.007343366874548794,0.9930899458120168
2014-05-29,-1,-0.00036586333647779156,-0.0003493945653926274,-0.0018264739433344732,0.007343366874548794,0.993390146536462
2014-06-02,1,0.00040642384300870787,0.0005192036604513913,-0.002623924866079913,0.0058346024950212865,0.9940612488653009
2014-06-04,1,0.000777769224474114,0.0009525468313716311,-0.004461239495064611,0.007343366874548794,0.9935908362824336
2014-06-06,1,0.0011313040120029118,0.001330102295961534,-0.004461239495064611,0.007343366874548794,0.9934210491279508
2014-06-10,1,0.0022128181082889204,0.0026094403018263592,-0.005201708664025747,0.007343366874548794,0.993352543487575
2014-06-12,1,0.0008135148841125198,0.0009646976470672467,-0.004461239495064611,0.007343366874548794,0.9940535760659431
2014-06-16,1,0.0010108960213656593,0.0012541823039788256,-0.002600000372608105,0.007623529969289251,0.9941116198086849
2014-06-18,1,0.0007432047511349748,0.0008377522513794202,-0.0057016425281547385,0.005750963078126696,0.9923715191503498
2014-06-20,1,0.0006894331018268579,0.0007616052963017112,-0.0057016425281547385,0.006004014083700094,0.9902921219281626
2014-06-24,1,0.0002402975612894593,0.0002479287246766437,-0.004389466014649186,0.008823256103764261,0.9904418805662804
2014-06-26,-1,-0.0010203209957144813,-0.0007582955434158607,-0.004389466014649186,0.01032078997415038,0.9900184850734256
2014-06-30,-1,-0.0009863235443465074,-0.0007483609226134307,-0.0057016425281547385,0.01032078997415038,0.9895253144544556
2014-07-02,-1,-0.0003895162850598275,-0.00025872534332863675,-0.007705196790216812,0.008823256103764261,0.9894980466605724
2014-07-07,1,4.081946037659469e-05,0.00010461446536708791,-0.009396638618616886,0.007420846223639451,0.9896611336078356
2014-07-09,0,-8.667074258501394e-05,2.041069803183107e-06,-0.010810962749008377,0.005696957874160292,0.9897259637023909
2014-07-11,-1,-0.000419931893723939,-0.00028454547088122787,-0.010900204865362341,0.005742521805843097,0.989710624534392
2014-07-15,-1,-0.00024014658955353663,-0.00010203487243289034,-0.010900204865362341,0.005742521805843097,0.989632697359256
2014-07-17,-1,-0.001288874565874535,-0.0010891360452598042,-0.005425008837579545,0.006470793566172523,0.9913073468230776
2014-07-21,1,0.0005619620423606236,0.0005958185834637197,-0.0061484256648630334,0.006470793566172523,0.9930689258067331
2014-07-23,1,0.0012482241372063195,0.0014090912129808072,-0.0061484256648630334,0.005528189656534055,0.9931690522596708
2014-07-25,1,0.001911452719668957,0.002191878392814238,-0.0061484256648630334,0.005528189656534055,0.9929727035774026
2014-07-29,1,0.0014386601515885165,0.0016575912327655823,-0.005142780071994063,0.006470793566172523,0.9934946777251261
2014-07-31,1,0.0015455186253385059,0.0017988600766038702,-0.005142780071994063,0.005528189656534055,0.9936810845467192
2014-08-04,1,0.0009308807919584739,0.001079868100108238,-0.004437943530418233,0.006470793566172523,0.9940636053861749
2014-08-06,1,0.0002307784494185032,0.0002620633548475464,-0.002577426854983195,0.006470793566172523,0.9944902818150014
2014-08-08,1,0.0004021032621883744,0.0004942011138003111,-0.002022219486415437,0.006470793566172523,0.9951212092413558
2014-08-12,1,0.0011499045555840872,0.0013932307956224712,-0.002022219486415437,0.006470793566172523,0.9951674818406908
2014-08-14,1,0.0012500299283771479,0.0014858125950772817,-0.002022219486415437,0.007113790014099648,0.9945911173827432
2014-08-18,1,0.0014664558239738164,0.0017275297432290861,-0.002022219486415437,0.004802638144557614,0.9948049988760235
2014-08-20,1,0.001355714287712227,0.0015979957770392217,-0.0019985152301603562,0.007331348499877638,0.9944134967116814
2014-08-22,1,0.002287792782214907,0.002713142425130071,-0.002517965725738967,0.007113790014099648,0.9941487320557465
2014-08-26,1,0.0025583596159471263,0.0030273684370272884,-0.004743856789730395,0.004802638144557614,0.9938328686637987
2014-08-28,1,0.0017016593651076974,0.0019948239725857235,-0.005197316771238062,0.00637024327709344,0.993325552378812
2014-09-02,1,0.001969640031104723,0.0022952431081976997,-0.00754564969361578,0.004554789232222212,0.9927989577598331
2014-09-04,1,0.0010748227038126015,0.0011955368395533328,-0.00942442288110568,0.00658780176287143,0.9919725303364283
2014-09-08,1,0.0012266422125959834,0.0013761786946912887,-0.00942442288110568,0.00801847280567071,0.9914601093562988
2014-09-10,1,0.0006654828269437821,0.0006937059044999376,-0.009651432303006323,0.00807134923163631,0.9904655557752184
2014-09-12,1,0.0014455818913360879,0.0016011871516757583,-0.012147291472577912,0.00658780176287143,0.9895603959221886
2014-09-16,1,0.0009997971941951977,0.0010876234204289428,-0.012147291472577912,0.00807134923163631,0.9895789577570948
2014-09-18,1,0.0010947622756194712,0.001137457907985588,-0.012889633272258939,0.00379872354636599,0.988600658874635
2014-09-22,1,0.0006591965696007164,0.0006602917571331826,-0.0123042985004485,0.00379872354636599,0.9891630261310793
2014-09-24,1,0.0002172384832212085,0.000276335772457797,-0.010415647311276508,0.006675127037296129,0.9884424975590693
2014-09-26,-1,-0.0004281485093462496,-0.00027175866746195564,-0.007683015156881153,0.008832623559849841,0.9887810177373048
2014-09-30,-1,-0.0005600815053112521,-0.00041674960302513195,-0.007255077981227566,0.010404647624047959,0.9881773733168081
2014-10-02,-1,-0.0003044683206662248,-0.00022773310698198684,-0.005634344256571511,0.010404647624047959,0.9885015209074018
2014-10-06,-1,-0.000659697150190074,-0.0005000601616052534,-0.005634344256571511,0.010920935199672693,0.9882513840509225
2014-10-08,-1,-0.000984918426981466,-0.0007580838605357362,-0.005156694317260453,0.010920935199672693,0.9892359942060044
2014-10-10,-1,-0.0020107206908560973,-0.0016662414256201842,-0.004435957211764449,0.010920935199672693,0.990063920814761
2014-10-14,-1,-0.0017659925953649382,-0.0014557356315629112,-0.002082843481167821,0.009895116272954814,0.9905486540295111
2014-10-16,-1,-0.0026277813591477272,-0.0022344131317910635,-0.002082843481167821,0.009895116272954814,0.9913548478302764
2014-10-20,-1,-0.0027288773982523246,-0.002335159158054761,-0.0009879224693914535,0.009895116272954814,0.9913497971450268
2014-10-22,-1,-0.001797626837556321,-0.0015318719660109659,-0.0009879224693914535,0.007847009154218433,0.9930906784089284
2014-10-24,-1,-0.0011198006803815324,-0.0009422138461499251,-0.0012351898669586048,0.005560628654750568,0.9942018735905362
2014-10-28,-1,-8.515189554157832e-05,-5.0713075654621606e-05,-0.0019709038405454006,0.004937072288102999,0.995059104291291
2014-10-30,1,0.0002895503939683555,0.000326269358846419,-0.0019709038405454006,0.004937072288102999,0.9944541011645426
2014-11-03,1,0.00017252524198537863,0.00019184018870095312,-0.0019709038405454006,0.004937072288102999,0.9945090291013339
2014-11-05,1,0.0004990887225335148,0.0005000188336817635,-0.0019709038405454006,0.004937072288102999,0.9947429702647806
2014-11-07,1,0.0008524012048837336,0.0009294755844205527,-0.0019709038405454006,0.00494440282821279,0.9936706590645857
2014-11-11,1,0.0010048280594352308,0.0011123452555829986,-0.0031983965977251854,0.00494440282821279,0.9926093857038685
2014-11-13,1,0.0007747747522354607,0.0008377060758487264,-0.0031983965977251854,0.0049407447506751535,0.9921594548347457
2014-11-17,1,0.0007369105171946228,0.0007984356355612199,-0.005446721107865908,0.00496532114575296,0.9917923660113714
2014-11-19,1,0.0007240224375931423,0.0007731106028829047,-0.005446721107865908,0.007248085063449549,0.9902132354224311
2014-11-21,1,0.0007808296622588299,0.0008446729161046702,-0.008371860456547867,0.010725457659637363,0.9892982985564839
2014-11-25,1,0.0008022917706726409,0.0008795516762345594,-0.006942290169516349,0.011447701170437741,0.9888612235982368
2014-11-28,1,0.0007815724804012611,0.0008553576693028236,-0.004776897111403967,0.011291848483923391,0.9896310730586745
2014-12-02,1,0.00045020342931316503,0.00046901956612451184,-0.004776897111403967,0.011291848483923391,0.98955322819106
2014-12-04,1,0.0010485882906436585,0.0011711128868855938,-0.007010936055867568,0.011061164998621717,0.9886438440438517
2014-12-08,1,0.0009882420189769629,0.0010002262162083194,-0.0131927559344034,0.011061164998621717,0.9879578544147222
2014-12-10,1,0.0012734267813839138,0.001414477023222541,-0.0131927559344034,0.012454823187390805,0.9868046002487726
2014-12-12,1,0.0008581098707668106,0.0009695640909057873,-0.007010936055867568,0.012454823187390805,0.987583750638037
2014-12-16,1,0.0010818866573885223,0.0012489855431388813,-0.0131927559344034,0.012454823187390805,0.9866324347474822
2014-12-18,1,0.0022645073200107573,0.0025550460750700128,-0.013581985701225235,0.011061164998621717,0.9863366097911557
2014-12-22,1,0.0020589650729472726,0.0023153907229139454,-0.013403171458727233,0.01250044041197536,0.9855840339703084
2014-12-24,1,0.002143270044043723,0.002379567610899483,-0.013403171458727233,0.01246128253040962,0.9854110851432462
2014-12-29,1,0.002165765460251884,0.0023702639520043413,-0.014440156498405523,0.004738590557297645,0.9837921302533568
2014-12-31,1,0.0013116794602131042,0.001388716503412663,-0.014440156498405523,0.012987376500574858,0.983254675871016
2015-01-05,1,0.000218121453627547,0.0002645823871215768,-0.013877817085694374,0.015235435686244457,0.983453034179805
2015-01-07,-1,-0.00016874987108953074,-9.119371557018052e-05,-0.013877817085694374,0.015117962041547233,0.9842950567549413
2015-01-09,-1,-0.0002771113622655041,-0.00019851374784379263,-0.013210979463336433,0.010539836300673358,0.9861286206231727
2015-01-13,-1,-0.00040179717818236065,-0.0003042472861492042,-0.013210979463336433,0.015117962041547233,0.9848570162303664
2015-01-15,-1,-0.0011742895134989593,-0.0010089838483852867,-0.009784849685776862,0.020406800802074156,0.9851109953799907
2015-01-20,-1,-0.0007913791783743069,-0.0006818056000737725,-0.007265020230799382,0.014711164872518091,0.9865122446529665
2015-01-22,1,0.0004576678057539024,0.0004794906387741741,-0.007265020230799382,0.010539836300673358,0.9880979110585392
2015-01-26,1,0.0006769486858520134,0.0007473836197628543,-0.006099752929215539,0.012302782554182332,0.9877531980976394
2015-01-28,-1,-0.0007657134505283585,-0.0006607283796972222,-0.004047890869485675,0.012302782554182332,0.9893657765782943
2015-01-30,1,0.000268454282178625,0.0002940215079320484,-0.003011709099860314,0.009708709413245344,0.991145298792799
2015-02-03,1,0.0013456580805773916,0.0015056633593209913,-0.004047890869485675,0.00784066141732833,0.9921366825945597
2015-02-05,1,0.001476247653315672,0.0016935053890490917,-0.0036978375488575725,0.008063908472742297,0.9925773921386918
2015-02-09,1,0.0014279870542215868,0.001614717543581886,-0.003903272852604579,0.007329283365076648,0.9914126659821938
2015-02-11,1,0.002116178716500672,0.0024301358819440195,-0.0029635030942332823,0.007962498914751318,0.9910930771485801
2015-02-13,1,0.0023107163985515073,0.002613972708657184,-0.003903272852604579,0.007329283365076648,0.9916126746609613
2015-02-18,1,0.001900770209283136,0.002128831587122535,-0.00385130987722889,0.007329283365076648,0.9916167796379286
2015-02-20,1,0.0019376463053139732,0.002149019446441755,-0.004508307854599627,0.0077729927004404524,0.990865769759602
2015-02-24,1,0.0023438160250799046,0.002578000228821405,-0.0064857816157826206,0.007202519763602118,0.991015588405945
2015-02-26,1,0.00213950949337663,0.002331323251780064,-0.007646523846068232,0.007202519763602118,0.990079076333109
2015-03-02,1,0.002087494231788528,0.0022800393453916512,-0.007646523846068232,0.0077729927004404524,0.9893117772411383
2015-03-04,1,0.0015475621472174456,0.0016701257577362769,-0.0064857816157826206,0.0077729927004404524,0.9896989191602513
2015-03-06,1,0.0014030022830916092,0.0014404873246256487,-0.0064857816157826206,0.007202519763602118,0.9902277322960727
2015-03-10,1,0.0005981826324400458,0.0006553423295324502,-0.005013393955849055,0.005954324452293743,0.9916229345869476
2015-03-12,1,0.00109269917538269,0.0011468829507765466,-0.005013393955849055,0.003633883027229143,0.9932482158201625
2015-03-16,1,0.0005253523278643371,0.0006649212715938153,-0.005013393955849055,0.00411360148745637,0.9921396427189962
2015-03-18,1,0.000859623406279854,0.0009313657793036072,-0.005013393955849055,0.00411360148745637,0.992147581246108
2015-03-20,1,0.0013392186611962526,0.00134846578743044,-0.006108657135664934,0.003633883027229143,0.9923015007105507
2015-03-24,1,0.0008867477303683807,0.0008961238439318017,-0.00454257947503099,0.003633883027229143,0.9927823869741943
2015-03-26,1,0.00041062359084272846,0.00047294504483982885,-0.005486599001961053,0.0036207390346620584,0.9928119047489414
2015-03-30,1,0.0008990470120247265,0.0009092662085091497,-0.007600593786104678,0.0036207390346620584,0.9930970328717538
2015-04-01,1,0.0010605843825448528,0.0011216107703188511,-0.007600593786104678,0.003621564748404688,0.992932851465241
2015-04-06,1,0.0012090586765809604,0.0012954039486949385,-0.007600593786104678,0.004579886550854162,0.992354438978934
2015-04-08,1,0.001154112405828828,0.0012356471294683177,-0.008396538238535008,0.0045676793798321794,0.9918292913135195
2015-04-10,1,0.0010083700814317474,0.0010634201707331449,-0.008396538238535008,0.007664567198371258,0.9917030071027634
2015-04-14,1,0.001167697089745191,0.0012378363794184955,-0.007600593786104678,0.007647693547052345,0.9929446234303023
2015-04-16,1,0.0014399580215003077,0.0015469163577353485,-0.007600593786104678,0.007647693547052345,0.993064828246804
2015-04-20,1,0.0010410577920764007,0.0010931070531230347,-0.007600593786104678,0.008198705704763515,0.9924128964569067
2015-04-22,1,0.0005819281458381266,0.0005967406097360248,-0.007600593786104678,0.008439234281399739,0.9917606884491563
2015-04-24,-1,-0.0002521413012037654,-0.0001387212495586647,-0.006514841880085156,0.008439234281399739,0.9923409689678113
2015-04-28,-1,-0.00047387012138427393,-0.0003208100389988409,-0.006514841880085156,0.00907368685705705,0.9918662016913725
2015-04-30,0,-5.806562765330134e-05,2.6273939038660277e-05,-0.007474393830273408,0.008439234281399739,0.9918007348084483
2015-05-04,1,0.0008593142153792057,0.0009241816298846978,-0.008248093903156771,0.008439234281399739,0.991764430761966
2015-05-06,0,-1.6806351427191887e-05,5.867623549176291e-05,-0.008248093903156771,0.008966678462831813,0.9915244152111754
2015-05-08,0,-6.036113281545822e-05,4.973685336858596e-05,-0.008248093903156771,0.009700561043467028,0.9909837472669856
2015-05-12,1,0.00013348522132567022,0.00022385571391400876,-0.008248093903156771,0.010929638258025886,0.9906994508263769
2015-05-14,1,0.0011250959231186484,0.001225011101914489,-0.008248093903156771,0.010929638258025886,0.991005461577575
2015-05-18,1,0.0010791019747134404,0.0011658301234255875,-0.008248093903156771,0.009376370867684766,0.9916394978518885
2015-05-20,1,0.0014310691559644064,0.0015819055882338089,-0.008451866175195515,0.009376370867684766,0.9917262259120269
2015-05-22,1,0.0013316950966093997,0.001490714435932022,-0.009601617702750045,0.010929638258025886,0.9907097886310482
2015-05-27,1,0.0010424753413091489,0.0011307680709321457,-0.008808423132393526,0.009792481384497745,0.9909389576091722
2015-05-29,1,1.2569976812012388e-05,0.00010606652151017878,-0.008808423132393526,0.009792481384497745,0.9906896683748104
2015-06-02,-1,-0.0002330382760890933,-9.035328783058163e-05,-0.009601617702750045,0.009585920500875908,0.9900504368037426
2015-06-04,-1,-0.0004752659660915919,-0.0002908620400864921,-0.009777013974497883,0.010028044117984494,0.9897388484780105
2015-06-08,-1,-0.0003066119878970538,-0.00013550844800316257,-0.010492048654878761,0.009585920500875908,0.9903195212942285
2015-06-10,-1,-0.0004874349463564377,-0.0002519453220818943,-0.010765049369457061,0.007635390088658088,0.9900591571318063
2015-06-12,-1,-0.00029624971444298877,-9.446642895253525e-05,-0.010765049369457061,0.009585920500875908,0.9893319628768672
2015-06-16,1,0.00017084058950594293,0.0002617008759767759,-0.010765049369457061,0.009585920500875908,0.9893763046617939
2015-06-18,1,0.00014280102553138751,0.00023888813158534785,-0.010492048654878761,0.008447004136240645,0.9901958691072821
2015-06-22,-1,-0.0005247727800587099,-0.00029175038266461486,-0.009036773393303636,0.00792374461662105,0.991244736726436
2015-06-24,-1,-0.0002045481916749688,-3.4146824007031155e-05,-0.005206187310846289,0.00792374461662105,0.9914790280880954
2015-06-26,0,-8.143857605119142e-06,8.911372665227648e-05,-0.005206187310846289,0.00792374461662105,0.9914453674967744
2015-06-30,-1,-0.0005762197308015739,-0.0004049622086904004,-0.003445310197589445,0.007785700154953548,0.9923742041337698
2015-07-02,-1,-0.00047131533537918377,-0.00031530296361455485,-0.003445310197589445,0.007221323107290798,0.9930216508385041
2015-07-07,-1,-0.0006767662534359241,-0.0005112773760389217,-0.0027836442228878007,0.007221323107290798,0.9932142148915852
2015-07-09,-1,-0.0006668523925931207,-0.0005274740150732291,-0.0027726969224040852,0.007785700154953548,0.9936712995234747
2015-07-13,-1,-0.0001646370824549671,-7.386043398957933e-05,-0.003409495641317342,0.007221323107290798,0.9933881596530543
2015-07-15,1,0.0003790724559416702,0.00039745149021827954,-0.004714723321634236,0.004985498170529001,0.9928207748720697
2015-07-17,1,0.0006901306435305262,0.0007459004256685942,-0.004705805357171366,0.007961166762351014,0.9920924338413619
2015-07-21,1,0.0007386375982352815,0.0008008229541156124,-0.00467296345572022,0.007961166762351014,0.9923660343175054
2015-07-23,1,0.001060008455019396,0.0011595595359505503,-0.011104065720809898,0.005120311564994832,0.9906893723317088
2015-07-27,1,0.000570273072358383,0.0005714691905104446,-0.012391502498437281,0.005120311564994832,0.9875004948164756
2015-07-29,1,0.000891131371091889,0.0009754152077701316,-0.016268589027006168,0.00532292695200792,0.985124821282516
2015-07-31,1,0.00039625365411052177,0.0004132331653939398,-0.016268589027006168,0.008815978947317915,0.9843047827702865
2015-08-04,1,0.0009015698916366975,0.0010105917668369446,-0.0181765587684712,0.008815978947317915,0.9824134149657698
2015-08-06,1,0.0008563709961279393,0.0009507280888200915,-0.0181765587684712,0.011847865913316446,0.9818895191724575
2015-08-10,1,0.001013982407887294,0.0011324304118108452,-0.0181765587684712,0.011847865913316446,0.9813303888801902
2015-08-12,1,0.0004966156267739324,0.0005576885457527037,-0.0181765587684712,0.011847865913316446,0.9816444680085709
2015-08-14,1,0.0007606456825010645,0.0008235439850583495,-0.0181765587684712,0.010535915610203644,0.9825089466074693
2015-08-18,1,0.0006128093769191946,0.000636560389543601,-0.0181765587684712,0.010535915610203644,0.9820149411291461
2015-08-20,-1,-0.00042603458701916363,-0.00033538411036698,-0.023590087544498095,0.010535915610203644,0.9811354525419257
2015-08-24,-1,-0.002594523285794138,-0.002251230626729532,-0.015719692687867125,0.011847865913316446,0.9828755371418949
2015-08-26,-1,-0.0020421789647352426,-0.0017723413976641266,-0.012729296425127542,0.010535915610203644,0.9854856750279338
2015-08-28,-1,-0.0011637411032017898,-0.0009974290629470698,-0.015719692687867125,0.010535915610203644,0.9855705405856829
2015-09-01,-1,-0.0023428505799389454,-0.0020374638700739398,-0.012729296425127542,0.013692177328079168,0.9857981919583618
2015-09-03,-1,-0.0014345484612211087,-0.001249019707987447,-0.012729296425127542,0.011347362777189464,0.98641428311981
2015-09-08,-1,-0.0008714549325169194,-0.0007664569971175398,-0.010715626778508805,0.011347362777189464,0.9875684869191357
2015-09-10,-1,-0.0010497929299430695,-0.0009116840085671971,-0.0054682399633913335,0.012697171578212516,0.9878602055944398
2015-09-14,-1,-0.0011182892236561355,-0.0009590946286223982,-0.010693662275223389,0.012697171578212516,0.987237331123385
2015-09-16,-1,-0.0010483642438415927,-0.0008691474625248881,-0.013443800846628566,0.012697171578212516,0.986777606012809
2015-09-18,-1,-0.0026831022998674045,-0.002313416669296961,-0.010479897591939262,0.014764353804651232,0.9884844056211907
2015-09-22,-1,-0.002612353102777259,-0.002260062272208235,-0.0054682399633913335,0.012697171578212516,0.9893334403101927
2015-09-24,-1,-0.0024245359847978668,-0.002115998205179134,-0.010479897591939262,0.014764353804651232,0.9876567496168734
2015-09-28,-1,-0.0028361672857282814,-0.0024585770628452234,-0.010479897591939262,0.014764353804651232,0.9874050339218905
2015-09-30,-1,-0.0017746726172890152,-0.001536752263019824,-0.010479897591939262,0.0135637999352803,0.9870214183419492
2015-10-02,-1,-0.0016861802340809098,-0.001471294992840546,-0.011263478251672721,0.0135637999352803,0.9864602056847667
2015-10-06,-1,-0.0009341470831285145,-0.0008241272269171771,-0.011263478251672721,0.012243371575551784,0.9866412433367602
2015-10-08,-1,-0.00045804871419400555,-0.00040798576670615595,-0.011263478251672721,0.011895870566245154,0.9864600368939112
2015-10-12,-1,-0.0004430628367473824,-0.00040702351906082943,-0.00791263824138363,0.014082450806456853,0.9856409518481809
2015-10-14,-1,-0.001423137430127935,-0.0012630215506280284,-0.005471209146548937,0.014082450806456853,0.9865500277945699
2015-10-16,-1,-0.0009063038416746183,-0.0008089845572239786,-0.007358677837168453,0.011895870566245154,0.9862686012563925
2015-10-20,-1,-0.0007737202062278892,-0.0006755315417037331,-0.007358677837168453,0.014027840464842772,0.9857478088291268
2015-10-22,-1,-0.0005401747120304845,-0.0004750561312672248,-0.006502560235020433,0.014027840464842772,0.986644838325116
2015-10-26,-1,-0.0002689759564953372,-0.00023450774756268212,-0.005471209146548937,0.011895870566245154,0.9882387307008988
2015-10-28,1,0.0008357989745258179,0.0009591494236544148,-0.0051282613406940705,0.0076187488373566726,0.9906846818922964
2015-10-30,1,0.00016085107142853585,0.00021932348767281893,-0.0051282613406940705,0.009334059937722997,0.991540074899521
2015-11-03,1,0.0006639332799185659,0.000800989942645657,-0.005364043602259276,0.00878472273801421,0.9913276343129083
2015-11-05,1,0.001115375453328932,0.0013085305932364212,-0.006181063602151447,0.00878472273801421,0.9897453626198818
2015-11-09,1,0.0016897067551602048,0.0019609826620692826,-0.009379643631857814,0.005427815828866157,0.9890536077005998
2015-11-11,1,0.001740889927022481,0.0020282842608662834,-0.012047205414903516,0.005427815828866157,0.9885927680293014
2015-11-13,1,0.000973372695665741,0.001160775587824059,-0.012047205414903516,0.005427815828866157,0.9889598931759332
2015-11-17,1,0.0014297301432975148,0.001660562681707043,-0.012047205414903516,0.008658460077816722,0.9878275175359928
2015-11-19,1,0.0018644641437862083,0.0021303246328948787,-0.016761349462115258,0.0041784304019382825,0.986262473490795
2015-11-23,1,0.0016812120079005152,0.0019276388487335222,-0.016761349462115258,0.008658460077816722,0.9862645952793012
2015-11-25,1,0.0014865863981759508,0.0016864911733931033,-0.016761349462115258,0.009031016493323149,0.9855598229301605
2015-11-30,1,0.0013943661401384995,0.0015649329497295862,-0.016761349462115258,0.0102831456302355,0.9853269495508072
2015-12-02,1,0.0016343703662111378,0.0018713339595902438,-0.016761349462115258,0.00990435764964303,0.9851731937615734
2015-12-04,1,0.0019920440689157825,0.002299782269883482,-0.016761349462115258,0.006262091261160382,0.9858341137933386
2015-12-08,1,0.0007825795752219453,0.0009319343166511652,-0.016527378429575072,0.006262091261160382,0.9857436226954925
2015-12-10,1,0.0005023381337015305,0.0006199417519212348,-0.017830150656730583,0.006262091261160382,0.9854981273571056
2015-12-14,1,0.00013085359017790048,0.00022227529953643414,-0.017830150656730583,0.008166776627923374,0.984322364973812
2015-12-16,1,0.0012158712329589964,0.001434619194347397,-0.020645758689137872,0.006016098859426288,0.9846073814323917
2015-12-18,1,0.00017164175229189896,0.00027013423745143514,-0.018998103921158693,0.006016098859426288,0.9852293717069107
2015-12-22,1,0.0005458084066645508,0.0006854492603797935,-0.024257813039505017,0.006016098859426288,0.9837414122668724
2015-12-24,1,0.0012033357866574456,0.0014385378174179243,-0.028641286971010798,0.002645687085677485,0.978400772353525
2015-12-29,1,0.0013773457249349782,0.001636514727719976,-0.028641286971010798,0.005711553503258647,0.9768721532006397
2015-12-31,1,0.0009759398558728546,0.0011965469578694094,-0.028641286971010798,0.008504700515019609,0.9773138091544621
2016-01-05,-1,-0.00012543667349332723,-9.144358263117255e-05,-0.027577854144174026,0.010640461648983891,0.9770828850376816
2016-01-07,-1,-0.0009114291649841816,-0.0008866176431014661,-0.026818123263371522,0.012114308807261876,0.977937787305224
2016-01-11,-1,-0.00110435854886643,-0.0010667947113488078,-0.026818123263371522,0.012114308807261876,0.9778486077893979
2016-01-13,-1,-0.0027298795231819116,-0.002444521240902794,-0.026818123263371522,0.012114308807261876,0.9781085240348113
2016-01-15,-1,-0.004748324696854828,-0.004116641966908235,-0.024060116485768487,0.016901365231720842,0.9755770235354894
2016-01-20,-1,-0.005459797317017722,-0.004767944439790624,-0.026984764482964434,0.016901365231720842,0.9751983306605638
2016-01-22,-1,-0.005245321597690027,-0.004628435856335101,-0.02151525333873721,0.018106154003712977,0.9750573705121858
2016-01-26,-1,-0.010212367150637882,-0.008955241778973673,-0.012738862479604639,0.018106154003712977,0.978515264062544
2016-01-28,-1,-0.007761270177690009,-0.006836523543642874,-0.012738862479604639,0.01760558808345948,0.9792646481643161
2016-02-01,-1,-0.006654572328454178,-0.005885199062725748,-0.020446733631366572,0.018106154003712977,0.9774758666200477
2016-02-03,-1,-0.006912588881359946,-0.006117301857567207,-0.012738862479604639,0.023048203701978277,0.9765617397926145
2016-02-05,-1,-0.006421486345427751,-0.005696168499094701,-0.012053967325042837,0.023048203701978277,0.9771583812380457
2016-02-09,-1,-0.0062816071431377055,-0.0056059328876957425,-0.012687172074638126,0.023048203701978277,0.9772342765072867
2016-02-11,-1,-0.008915453380874825,-0.007841369178826978,-0.008424322429644256,0.030354872590164825,0.9753098422369418
2016-02-16,-1,-0.00592984391369558,-0.005205679293945114,-0.008486946335167559,0.020059202688390787,0.9809044892062248
2016-02-18,-1,-0.006632029229991893,-0.005829188525674217,-0.008486946335167559,0.020059202688390787,0.9811000846483829
2016-02-22,-1,-0.005285815838382847,-0.004640947798263814,-0.008486946335167559,0.014777388458942557,0.9823555336227161
2016-02-24,-1,-0.00562912203299223,-0.004997091990154483,-0.008163360176688592,0.014777388458942557,0.9830031152989287
2016-02-26,-1,-0.003952925714780383,-0.003519777876249906,-0.008163360176688592,0.012128257954543222,0.9859127415380388
2016-03-01,-1,-0.0025272850336969955,-0.0022949865669427572,-0.007449005643163532,0.008533659508415958,0.9888792680246362
2016-03-03,-1,-0.000598372829764088,-0.000576100605597502,-0.007449005643163532,0.00654487254761889,0.9910075047449429
2016-03-07,-1,-0.0006615283859872257,-0.0006537477506233422,-0.007449005643163532,0.0031463510049139043,0.99110647392921
2016-03-09,-1,-0.001992216192639555,-0.0017971232373132089,-0.007449005643163532,0.006567972652749013,0.9904567596395287
2016-03-11,1,5.538443405085831e-05,0.0001372469185876488,-0.007449005643163532,0.003759102577761056,0.9924613382656318
2016-03-15,-1,-0.0001871710263951801,-0.00011360751791319228,-0.00548674914897487,0.006567972652749013,0.9905493896208619
2016-03-17,-1,-0.0003467931384511729,-0.000284858965846961,-0.005424097104690694,0.006994695114204598,0.9910471738891665
2016-03-21,1,0.00032570347945205097,0.0004978065032148533,-0.005424097104690694,0.006994695114204598,0.9910376841072717
2016-03-23,1,0.000783140911758691,0.0010809212946487354,-0.005381739952584474,0.010271969319362155,0.9904461488670795
2016-03-28,1,7.773014625161263e-05,0.00022670076523944845,-0.005381739952584474,0.010271969319362155,0.9902422123969618
2016-03-30,1,0.0005967806971962814,0.0008443891056091102,-0.005381739952584474,0.010835693713090375,0.9902451444134148
2016-04-01,1,0.0009008821260167564,0.0012240812154239245,-0.0059480889582176205,0.010835693713090375,0.9896337754183117
2016-04-05,1,0.0009228851211288264,0.0012905418430751692,-0.0059480889582176205,0.013145561613971258,0.9890370996072207
2016-04-07,1,0.000728045025204564,0.0010717104043502827,-0.0059480889582176205,0.010612513346052975,0.9900933436840252
2016-04-11,1,0.0006843185579923108,0.0009782247958885061,-0.0066995901861665276,0.010612513346052975,0.9899005690598318
2016-04-13,1,0.002656204188928508,0.003250542032120554,-0.0066995901861665276,0.009278832985364461,0.9911543723908808
2016-04-15,1,0.003190182564187404,0.003897752462476699,-0.008862708788499901,0.004726480133989198,0.9898468863266962
2016-04-19,1,0.003703490762081829,0.00447167986176324,-0.008862708788499901,0.004662185248933384,0.9895865102907008
2016-04-21,1,0.004205483709839297,0.005051460780353214,-0.008862708788499901,0.004662185248933384,0.9875259956232042
2016-04-25,1,0.004170886778730776,0.00502026177042759,-0.008295380031914755,0.003221305868356444,0.9877331141874933
2016-04-27,1,0.004546498606353215,0.005446269187187026,-0.008295380031914755,0.011762109464477316,0.9865313679623735
2016-04-29,1,0.004136723732590222,0.004996317349211256,-0.008295380031914755,0.011834793575699883,0.9868646426081441
2016-05-03,1,0.0034319395108606647,0.004125891722029889,-0.008295380031914755,0.011399580240732657,0.9876295844793799
2016-05-05,1,0.0029129795373335123,0.003518773700975284,-0.008295380031914755,0.011399580240732657,0.9876080457664731
2016-05-09,1,0.002416969566954383,0.002921471963880848,-0.008867048466270405,0.01270651684330094,0.9869721077333679
2016-05-11,1,0.0036937993347146,0.004447542229420639,-0.011618836987413401,0.011399580240732657,0.9865189172243772
2016-05-13,1,0.0022499292696932806,0.0027386372361438748,-0.011618836987413401,0.011399580240732657,0.9866755606231444
2016-05-17,1,0.002900817784488403,0.0035091962565334278,-0.012981983915518884,0.007174316378311913,0.9848964744212096
2016-05-19,1,0.0045867944565346,0.00545484489277882,-0.01526347347353865,0.005003460743886992,0.9859966627881965
2016-05-23,1,0.004718312437507737,0.005620459369138044,-0.01526347347353865,0.005003460743886992,0.9858232516584078
2016-05-25,1,0.005539578281729763,0.006512058132786916,-0.01526347347353865,0.00038374419935393537,0.9853660363181042
2016-05-27,1,0.0048371767367836015,0.005658696320527484,-0.01777836625302824,-0.0018507739220203505,0.9794534043980755
2016-06-01,1,0.003932528014054157,0.0045554793573714565,-0.01777836625302824,0.00038374419935393537,0.978927289453731
2016-06-03,1,0.0033204094097472273,0.0038396579746175982,-0.01623998059663026,0.0032967147852064702,0.9773335987239384
2016-06-07,1,0.0029027582699947658,0.003307325555028827,-0.018451569348059062,-0.0005118250452187242,0.9768517729255728
2016-06-09,1,0.0020344188724477985,0.0022925231811154363,-0.01730021675227216,0.009360906964062004,0.977773728405004
2016-06-13,1,0.0005607882587295905,0.0005650743073113652,-0.01319220864986933,0.01641940362484293,0.9777314167434601
2016-06-15,-1,-0.0010290645777202003,-0.0008247834323618645,-0.006315790834452846,0.016571447703981966,0.9789356428373538
2016-06-17,-1,-0.004147356794193429,-0.0033776713414491195,-0.0027283018573598305,0.016571447703981966,0.978392984167255
2016-06-21,-1,-0.0033642018601411,-0.002767445385148411,-0.0035071524503361823,0.016571447703981966,0.9787644467432844
2016-06-23,-1,-0.002493633767380246,-0.0020246520896258047,-0.0045917400538914455,0.01636773783612869,0.9792100191300213
2016-06-27,-1,-0.007782930139486798,-0.006671422514098196,-0.0024548337251967117,0.01636773783612869,0.9821018776716123
2016-06-29,-1,-0.005839622862329812,-0.004968852347320619,-0.0024548337251967117,0.013552385691466065,0.9855018262984404
2016-07-01,-1,-0.0048897877975857176,-0.004105750832356318,-0.0024548337251967117,0.012146045974156517,0.9883360876689445
2016-07-06,-1,-0.007340628247296515,-0.006177273606436828,-0.0024548337251967117,0.012174754260482552,0.9875650953899391
2016-07-08,-1,-0.004604212300215554,-0.003910286557841454,-0.003205143720289686,0.012174754260482552,0.9883596420864073
2016-07-12,-1,-0.0037367062980541307,-0.0031031458601433097,-0.0032284132211776264,0.006196717608559756,0.9912586846552423
2016-07-14,-1,-0.002596780355505172,-0.0021536110812758816,-0.0034539329901723094,0.004264622863156635,0.9916081308199816
2016-07-18,-1,-0.003023060612853845,-0.002479311693029292,-0.00524457942439603,0.006141690270384007,0.9907364749879911
2016-07-20,-1,-0.0024410088701892173,-0.0020335053837569287,-0.005263670654299248,0.006141690270384007,0.9905039036331085
2016-07-22,-1,-0.0018718531714961855,-0.0015688159362270634,-0.005450271740167656,0.004232814424443343,0.9908593134432695
2016-07-26,-1,-0.0005749250064676297,-0.0004923225072061782,-0.005450271740167656,0.004232814424443343,0.9909016753081495
2016-07-28,-1,-0.0004427094026804093,-0.0003725411389842995,-0.009985064255922556,0.005537178873844294,0.9900695758903422
2016-08-01,-1,-0.0012217327347040547,-0.0010210571302337124,-0.005450271740167656,0.009397121689404035,0.9900882256137749
2016-08-03,-1,-0.0002450584633999396,-0.0002366569286059431,-0.004113136103977967,0.010131167700293084,0.9898961251144128
2016-08-05,1,0.0006497843260303254,0.000730382717604332,-0.004347926484216909,0.009397121689404035,0.9916730342019858
2016-08-09,1,0.00029964960488127433,0.00031303219536021047,-0.006097369191174826,0.009397121689404035,0.9909365726982498
2016-08-11,1,0.00013275497500498857,0.0001492082915089443,-0.004347926484216909,0.009397121689404035,0.9916744248966898
2016-08-15,1,0.0003705918882522609,0.00040737843566581594,-0.004347926484216909,0.009397121689404035,0.9918965678412421
2016-08-17,1,0.00011327822304709334,0.0001278227053314016,-0.005770557495431432,0.009397121689404035,0.9917299555355513
2016-08-19,-1,-0.0002907419131472006,-0.00023830408664223213,-0.005278454362309079,0.009397121689404035,0.9921991495767161
2016-08-23,1,6.987881220879009e-05,8.581392274011655e-05,-0.005278454362309079,0.007761736129596584,0.99277065335792
2016-08-25,-1,-0.0003907658809731682,-0.0002957181465939062,-0.0035238332540835793,0.007761736129596584,0.9930910165687095
2016-08-29,-1,-0.00011454155809403313,-3.16839625378281e-05,-0.005278454362309079,0.007551467908761918,0.9918001241754011
2016-08-31,1,0.0007815585547746831,0.0008185587356487089,-0.00662084877668643,0.00454862817634568,0.9909140040923752
2016-09-02,1,0.0016025516530331302,0.0018438696444840609,-0.00662084877668643,0.006424490511693787,0.9903182518704015
2016-09-07,1,0.0012853135462504886,0.0014895117779007176,-0.006096040470085953,0.013695395444442466,0.9897964480010384
2016-09-09,1,0.0014444800928279566,0.0017014591447358006,-0.006096040470085953,0.013695395444442466,0.9901104086078547
2016-09-13,1,0.0016900094427058743,0.0019993271832445757,-0.006096040470085953,0.009504339980123148,0.9905156945214182
2016-09-15,1,0.001356886411609199,0.0016127091921359139,-0.006096040470085953,0.009504339980123148,0.9894970927707348
2016-09-19,1,0.0013263907829117042,0.0015970483271830944,-0.008008720982202252,0.011097901977665785,0.9887011258079018
2016-09-21,1,0.0010626185872727426,0.001263413719641704,-0.008008720982202252,0.01472366653742619,0.9870760128658275
2016-09-23,1,0.0015051851870203463,0.0017568753345574058,-0.0093620208429331,0.013768888223732557,0.9869208614491985
2016-09-27,1,0.0008370053257103728,0.0009758654700173718,-0.0065362386991701955,0.011848567234542227,0.9884008792556631
2016-09-29,1,0.0006490439419386241,0.0007489612951891897,-0.005263813762042384,0.011848567234542227,0.9876711602020694
2016-10-03,1,0.0012312849416094992,0.0014420397847316993,-0.005714913715619333,0.01045779498126901,0.9878840906331214
2016-10-05,1,0.001754874249750469,0.0019781223173395692,-0.0093620208429331,0.009255110250850445,0.9880694876100858
2016-10-07,1,0.001966211578094703,0.002234299332789013,-0.010030243941633462,0.009255110250850445,0.9871285853983764
2016-10-11,1,0.002186413502934709,0.002565853384407012,-0.010658693016192863,0.01045779498126901,0.9857896755939305
2016-10-13,1,0.0013181047487010214,0.0015818643998987796,-0.008112279592801164,0.016736927191515438,0.9812867670367229
2016-10-17,1,0.0018730242755174223,0.002289880313698269,-0.007780704409837988,0.02253401675721795,0.9814675818293771
2016-10-19,1,0.003016471236790021,0.0035792490950226972,-0.007780704409837988,0.01378093042310973,0.9829838330744989
2016-10-21,1,0.0030124297557224894,0.0035626998954125977,-0.0047662924682694875,0.02295333771645104,0.981916486796526
2016-10-25,1,0.0032355131809613307,0.00379137997839212,-0.005536131766956195,0.02295333771645104,0.9817123541239465
2016-10-27,1,0.004960125045606825,0.005751773989311324,-0.005536131766956195,0.022113234363600704,0.9834435462017056
2016-10-31,1,0.004081622629100494,0.0047113580991533805,-0.005536131766956195,0.022113234363600704,0.9830502638206094
2016-11-02,1,0.0027436873480192487,0.003136901215635952,-0.004173793389667705,0.02295333771645104,0.98195744811378
2016-11-04,1,0.0014721269992236277,0.0016186522798056924,-0.0028725158176701087,0.02295333771645104,0.9819621552252993
2016-11-08,1,0.0013733089596468927,0.0014710873266825678,-0.001194419929845215,0.022113234363600704,0.9834656809304968
2016-11-10,1,0.004959324579171493,0.00551672249414532,-0.001194419929845215,0.015724768399789417,0.9894258170955504
2016-11-14,1,0.0061737278957208494,0.006913262793565809,-0.003810821253248519,0.01460083321495903,0.98890801080983
2016-11-16,1,0.0035693764667251784,0.0036420715364075813,-0.004173793389667705,0.015573652390068072,0.9878942187569612
2016-11-18,1,0.005666623163986095,0.006106153748453673,-0.0053268124838380705,0.009036769552527277,0.988332037595181
2016-11-22,1,0.005980079933842037,0.0065269257039372855,-0.004700572304169838,0.01460083321495903,0.9877450891503179
2016-11-25,1,0.0050145116260338985,0.005349170215885634,-0.004546346894306731,0.01460083321495903,0.9880506051167357
2016-11-29,1,0.004301136945751473,0.004574497079692306,-0.004546346894306731,0.01460083321495903,0.9885612853739598
2016-12-01,1,0.006779567429348049,0.007449559497544922,-0.008010543402211592,0.007892239876876123,0.9893049436816264
2016-12-05,1,0.0067193783284108756,0.007393819528122724,-0.005649741069173851,0.011030542876459208,0.9898118287353903
2016-12-07,1,0.006918621800713617,0.007620632787021228,-0.011698093054429405,0.008349037369467328,0.9890841230962818
2016-12-09,1,0.007156190646825274,0.007860925486427688,-0.011698093054429405,0.006954837826778377,0.989084978511469
2016-12-13,1,0.006150863185279071,0.006717847579046564,-0.009526603875991992,0.0077361991401216496,0.9903422548079501
2016-12-15,1,0.0061967618057736425,0.006785994143644572,-0.009903971003608444,0.0077361991401216496,0.9893451541194139
2016-12-19,1,0.005304337180036034,0.005773586056641011,-0.009358007826031963,0.008864875536684372,0.9897569809518221
2016-12-21,1,0.005362371218874428,0.005810162755001341,-0.009358007826031963,0.008302779993225932,0.9902194640021018
2016-12-23,1,0.005291537721859886,0.005711118109347451,-0.009358007826031963,0.010842868787934173,0.9875439738846116
2016-12-28,1,0.005085301668651707,0.005547997495930842,-0.009358007826031963,0.010842868787934173,0.9873652977772684
2016-12-30,1,0.004647154799577999,0.0050278162680290435,-0.009358007826031963,0.009156582157558858,0.9871519836874001
2017-01-04,1,0.004697090076346611,0.005044744004227442,-0.010887511202932569,0.008302779993225932,0.986067112838665
2017-01-06,1,0.003983181206356241,0.004253473501707724,-0.009358007826031963,0.009156582157558858,0.9857758338998446
2017-01-10,1,0.0037140252640324384,0.003932251830556781,-0.009358007826031963,0.009156582157558858,0.9852238999418624
2017-01-12,1,0.003070107109951037,0.003162116686879093,-0.007617541012365976,0.011210880772832946,0.9857159958469837
2017-01-17,1,0.002093026916786165,0.002113028283095609,-0.006103019675518981,0.014099636137461458,0.9867375197076538
2017-01-19,1,0.0018216410486594134,0.001892361543544842,-0.005892197212318862,0.011883082840922956,0.98754204930395
2017-01-23,1,0.0019527819391368323,0.001991039183667132,-0.005892197212318862,0.011883082840922956,0.9878049906198735
2017-01-25,1,0.004348602282394076,0.004660251523285804,-0.005892197212318862,0.005645066811243344,0.9902854658882556
2017-01-27,1,0.0035042443417028883,0.003692718849942,-0.004241135603417347,0.005645066811243344,0.9914758332906644
2017-01-31,1,0.0023947447446142156,0.002404602913604038,-0.0035610172296436306,0.008110153253943821,0.9908276691329169
2017-02-02,1,0.0012150911731045378,0.0013609170938707251,-0.0035610172296436306,0.008571768233780053,0.9905991218171596
2017-02-06,1,0.0016455750917708577,0.001744078586399604,-0.003994561580709807,0.007236051708119472,0.99152159509561
2017-02-08,1,0.00076931107188649,0.000995628848827466,-0.003690502239458435,0.007236051708119472,0.9919172882356426
2017-02-10,1,0.0008119215631500377,0.0010575176581657047,-0.003690502239458435,0.004955230015039187,0.9925006298089272
2017-02-14,1,0.0016720585890861832,0.0018266732459064218,-0.004900318704794866,0.0021156369764141056,0.9928010110581071
2017-02-16,1,0.001739730597167104,0.0018721280910790174,-0.005257051297415201,0.0015860159224920763,0.9923992620502681
2017-02-21,1,0.0010293350503171818,0.0012800043852034778,-0.009524716771394827,0.00035236889279618327,0.9892454969592347
2017-02-23,1,0.000571196083522765,0.0009182496580576694,-0.009524716771394827,0.0021156369764141056,0.9884656667061791
2017-02-27,1,0.00040644135613067357,0.0007726131962640275,-0.009524716771394827,0.0031615294037187092,0.9879506624482682
2017-03-01,1,0.001871767804665365,0.0020194667194457223,-0.009524716771394827,0.0031615294037187092,0.9886798088751763
2017-03-03,1,0.0008706427869898974,0.0011434784642342405,-0.009524716771394827,0.0031615294037187092,0.988593942044438
2017-03-07,0,-0.00027881347285669124,0.00016671710440162692,-0.009524716771394827,0.0031615294037187092,0.9892389531387112
2017-03-09,-1,-0.00147209629445702,-0.0008119635316647124,-0.011402402436399877,0.006452500170701685,0.9884736072990852
2017-03-13,-1,-0.002075029092056738,-0.0013185619784370438,-0.011402402436399877,0.006452500170701685,0.9881258001770503
2017-03-15,-1,-0.002432314178786058,-0.00168713932624961,-0.011489308778693324,0.006452500170701685,0.9884425506018906
2017-03-17,-1,-0.0033346095924344176,-0.0024731976030369232,-0.011756115198566258,0.007670898275023547,0.9869508931734216
2017-03-21,-1,-0.006275806027625555,-0.005084334664371424,-0.009552063910091177,0.007670898275023547,0.9893557718012923
2017-03-23,-1,-0.004201878102985335,-0.003356617867567946,-0.009767779096551778,0.007670898275023547,0.9900002689003758
2017-03-27,-1,-0.004663237591730471,-0.0037399841888297986,-0.009767779096551778,0.010041254478437952,0.9885956450045922
2017-03-29,-1,-0.004910117606383644,-0.003907725752233359,-0.010123723340487379,0.0070878354248450175,0.9890185613951515
2017-03-31,-1,-0.005143921678045114,-0.004073345633404451,-0.009933335849735516,0.0070878354248450175,0.9897786672141642
2017-04-04,-1,-0.005542774064438159,-0.00442637711178667,-0.010179583728991496,0.010041254478437952,0.9887502758225826
2017-04-06,-1,-0.003266786046582066,-0.0026354778186950998,-0.009933335849735516,0.007182638680916313,0.9893916180932679
2017-04-10,-1,-0.00331451993174624,-0.0027250964767017902,-0.009933335849735516,0.007182638680916313,0.9891660602615421
2017-04-12,-1,-0.003881185529989243,-0.0032170234987617024,-0.009552601150489778,0.007182638680916313,0.9894792552928154
2017-04-17,-1,-0.0027279141950130687,-0.0022801739479806783,-0.009255033313570438,0.007182638680916313,0.9906830718944301
2017-04-19,-1,-0.003594246184512446,-0.0030477657482784245,-0.009255033313570438,0.007793780187925316,0.9884700131982451
2017-04-21,-1,-0.003449307876493214,-0.0029268786266303743,-0.0086941774144608,0.008880328158232467,0.9880083957231544
2017-04-25,-1,-0.002761242724038374,-0.0022807414019954926,-0.0086941774144608,0.008880328158232467,0.9885797225625937
2017-04-27,-1,-0.0017316088078391375,-0.0014685274219557506,-0.007268771231738671,0.008880328158232467,0.9888426235525756
2017-05-01,-1,-0.0014722599774668209,-0.0012390119130729828,-0.007268771231738671,0.005937436398207351,0.9897736110910396
2017-05-03,-1,-0.0010553001410047,-0.0008934982830200035,-0.007268771231738671,0.005937436398207351,0.9895073320896198
2017-05-05,-1,-0.0009647258047080164,-0.0008518003264436458,-0.0086941774144608,0.005937436398207351,0.9894531294000257
2017-05-09,-1,-0.0014990444394004216,-0.0012923245059373043,-0.008728141833250996,0.008800886967636886,0.9887190850736035
2017-05-11,-1,-0.0017695067477608965,-0.0015426125395607182,-0.00640577513958604,0.015439453186811104,0.9866197926716217
2017-05-15,-1,-0.0017016696120379744,-0.0014513743639786533,-0.00640577513958604,0.01503733497649935,0.9871104454952399
2017-05-17,-1,-0.003123988047765021,-0.0027396398086621107,-0.006310096729317587,0.01503733497649935,0.9891298565995479
2017-05-19,-1,-0.002084994335812518,-0.00183547044957321,-0.006310096729317587,0.009261712654661506,0.9901356988297755
2017-05-23,-1,-0.0013844599418573636,-0.0011967018060934525,-0.00904421583939004,0.006405731664757205,0.9908271933798611
2017-05-25,-1,-0.0014563389439896514,-0.0012572495363520437,-0.009385070929385883,0.006405731664757205,0.9901002569873149
2017-05-30,-1,-0.0013980561939055105,-0.0012395133575740977,-0.009277951656856966,0.008018770069678478,0.989598511455138
2017-06-01,-1,-0.0017527737058462976,-0.0015296737068155645,-0.009008509415213735,0.011490662121403442,0.989157265504553
2017-06-05,-1,-0.0020376611722378924,-0.0017882626925093481,-0.007304710632612291,0.017212771266186637,0.9880800997763721
2017-06-07,-1,-0.0016493856091788404,-0.00144585769964756,-0.007304710632612291,0.012100502781034052,0.9889006275594833
2017-06-09,-1,-0.0005272197179960112,-0.0004068006553628406,-0.007304710632612291,0.008018770069678478,0.9912659745343604
2017-06-13,-1,-0.00029474985471702087,-0.0002089229834102171,-0.007304710632612291,0.008018770069678478,0.991489960922077
2017-06-15,-1,-0.00041417965231725585,-0.000320042504281607,-0.00601507120313985,0.009585909523552167,0.9913359563341885
2017-06-19,1,0.0010096238214343453,0.00123469851060985,-0.006877865530060645,0.009585909523552167,0.9919359839844415
2017-06-21,1,0.00012315085340234444,0.0001983295715082269,-0.006136168366091302,0.009585909523552167,0.9920982381037364
2017-06-23,-1,-0.0011339973679133787,-0.001024267200364551,-0.0019890181750135075,0.010263357199704597,0.9899680312659168
2017-06-27,-1,-0.0010020656345602823,-0.0008710170984134922,-0.006136168366091302,0.011827841756412199,0.9893279425148591
2017-06-29,1,0.0007620840974438576,0.0008932981004147279,-0.006136168366091302,0.005407411389914709,0.9910739465039032
2017-07-03,1,0.0015166540409148103,0.0017266429631789672,-0.006136168366091302,0.004178991594484603,0.9919326934264802
2017-07-06,1,0.0015610679747272826,0.0018101660107290069,-0.006136168366091302,0.004178991594484603,0.9918542963368471
2017-07-10,1,0.002253642709960313,0.002668016887543873,-0.006136168366091302,0.005480848305138345,0.9912145644288466
2017-07-12,1,0.00244339268996356,0.0028913005820558006,-0.007985601187499105,0.005480848305138345,0.9903790847500373
2017-07-14,1,0.0025936656831963955,0.0030630426299889206,-0.010667200477856785,0.005274098915992816,0.9891678972481307
2017-07-18,1,0.0023963270224523284,0.002838340199782574,-0.010667200477856785,0.005480848305138345,0.9889566961703746
2017-07-20,1,0.0021010062950349755,0.0025094306456279773,-0.012379792759192198,0.005480848305138345,0.9881519523037257
2017-07-24,1,0.0019207507763289516,0.0023790044890011873,-0.00827232981211957,0.005274098915992816,0.9907807256254167
2017-07-26,1,0.0016321884654875993,0.002016186491930953,-0.005310913975425329,0.005274098915992816,0.9918908731000525
2017-07-28,1,0.0014901217309480031,0.0018362237744156454,-0.005310913975425329,0.005274098915992816,0.9921353163953149
2017-08-01,1,0.0018978858095146903,0.0022960801677768686,-0.007824363246336717,0.0034959232405363393,0.9915919897401427
2017-08-03,1,0.001547930416417806,0.0019020117837280602,-0.006492034552485117,0.004861115239358499,0.9918275082140238
2017-08-07,1,0.0015483027615137562,0.0018635635962225721,-0.007824363246336717,0.004861115239358499,0.9907412972187143
2017-08-09,1,0.0010314798941329197,0.001249106797178013,-0.007824363246336717,0.005131892737191553,0.9898751031245724
2017-08-11,-1,-0.0016177346844621872,-0.0013682864851417911,-0.0051330012243864355,0.00813661310125587,0.9899520576122631
2017-08-15,-1,-0.00031531372116084714,-0.0002604743235730948,-0.0051330012243864355,0.008634598113196959,0.9897693972824491
2017-08-17,-1,-0.001327962254149921,-0.0011543849880128682,-0.0051330012243864355,0.008634598113196959,0.990590004882806
2017-08-21,-1,-0.0010680746357115555,-0.0009524078024022377,-0.003929625344691305,0.01074916329469294,0.9889265001913443
2017-08-23,-1,-0.0005336320499165265,-0.0005050715206566504,-0.003929625344691305,0.01074916329469294,0.9888791863378019
2017-08-25,-1,-0.00035871355317014097,-0.00034157364791809197,-0.003929625344691305,0.01074916329469294,0.989266580372749
2017-08-29,-1,-0.0009699743608266884,-0.0008682898939038335,-0.0013413815412145935,0.011676416667776104,0.988334692241269
2017-08-31,-1,-0.0012471583026425455,-0.001088284832812305,-0.0007463717076976618,0.011676416667776104,0.9879879727949015
2017-09-05,-1,-0.002027807350704287,-0.0017603769294152983,-0.0007463717076976618,0.011676416667776104,0.9884883211760793
2017-09-07,-1,-0.002500235527041001,-0.00218548831652979,-0.0007463717076976618,0.012801011839870575,0.9888405218739067
2017-09-11,-1,-0.001983767224036754,-0.001686585338118776,-0.003243014608187512,0.009601213115045013,0.9905741014885489
2017-09-13,-1,-0.0009603955840827531,-0.000782865145426208,-0.003772306713883552,0.008892003487086207,0.9914764812310942
2017-09-15,-1,-0.000617038818245657,-0.0005403382131981476,-0.0043065582725276795,0.008892003487086207,0.9914864731636543
2017-09-19,1,0.0006350814862383107,0.0007057478280121028,-0.004880739991001973,0.008408211762050413,0.9922354489895794
2017-09-21,1,0.0011034795597578144,0.001250264479820754,-0.004880739991001973,0.008892003487086207,0.9922260498967808
2017-09-25,1,0.001059981699197176,0.0012073491259985071,-0.005859945786954758,0.009574049791173522,0.9913944296407243
2017-09-27,1,0.0016842449658590313,0.0018901604513702785,-0.006870428189744225,0.008892003487086207,0.9911777908065278
2017-09-29,1,0.00203461458359681,0.0022748533773834017,-0.006870428189744225,0.007661954753473228,0.9917204156780939
2017-10-03,1,0.001615422481969441,0.0017757593493083232,-0.006870428189744225,0.007661954753473228,0.9917551472732474
2017-10-05,1,0.00189142425657185,0.0021091441392585256,-0.005859945786954758,0.005030279080973548,0.992818098159387
2017-10-09,1,0.0006818630989994157,0.0007273871211553773,-0.006498246777061615,0.005030279080973548,0.9927958624120977
2017-10-11,1,0.001014642744209659,0.001049251499351121,-0.006870428189744225,0.002720132071211776,0.9918486979376342
2017-10-13,1,0.0010087870871103423,0.001091142190072713,-0.006842195428237598,0.002720132071211776,0.9918487776821415
2017-10-17,1,0.0011741080719001526,0.0012716286561257665,-0.006136877357801398,0.005030279080973548,0.9913951567129301
2017-10-19,1,0.0013003641480151583,0.0013909130799487006,-0.0075461630352849545,0.002720132071211776,0.9909680076584823
2017-10-23,1,0.0015132847775735975,0.0016216014939053503,-0.0075461630352849545,0.002747887938804313,0.9914817328937525
2017-10-25,1,0.000583002678445351,0.0006229768321543524,-0.006703501071662262,0.002187881728841219,0.9928532841156367
2017-10-27,1,0.0008463911415859415,0.0008501976984229467,-0.006703501071662262,0.0024046695372150545,0.9924898352380643
2017-10-31,1,0.0013246163359709353,0.001488549709716668,-0.006136877357801398,0.005870426002576358,0.9897460226490759
