JNU-Tangyin/eata/results/Batch4_SP500/Batch4_SP500-LOW.csv
Date,Action,Predicted_Q25,Predicted_Q75,Actual_Q25,Actual_Q75,RL_Reward
2010-12-14,0,0.0,0.0054506298753208265,-0.005812256456988376,0.0038748021895564783,0.9938793407938977
2010-12-16,0,0.0,0.0,-0.005812256456988376,0.004549291025903079,0.9918944948276949
2010-12-20,0,0.0,0.0,-0.005812256456988376,0.003826276327289315,0.991978440784412
2010-12-22,0,0.0,0.0,-0.007248139496684595,0.003826276327289315,0.9898543955145129
2010-12-27,0,0.0,0.0,-0.007217013870133478,0.004597080813309375,0.9891429042079287
2010-12-29,1,0.0032292140566831853,0.00340036784983074,-0.002649059437983441,0.011844136365968115,0.9895884347252776
2010-12-31,1,0.002653714963296279,0.002695797393023275,-0.013052261900500354,0.011844136365968115,0.9867555060668468
2011-01-04,1,0.001557090179073864,0.0016730953817998809,-0.013052261900500354,0.011844136365968115,0.986155308001826
2011-01-06,1,0.00035531937091505083,0.0006228143054453222,-0.007217013870133478,0.011844136365968115,0.9864740132328375
2011-01-10,1,0.0017995193018816738,0.0018002700254338986,-0.0055972373504739,0.010256085866777289,0.9872310658655497
2011-01-12,1,0.0015102643146958365,0.0015672298773790568,-0.011350472226318199,0.010256085866777289,0.986513177153809
2011-01-14,1,0.0012757204452415781,0.0014831156013726072,-0.011350472226318199,0.010256085866777289,0.9862152336526527
2011-01-19,1,0.0011527291406057058,0.0012904794699282096,-0.005559924180539999,0.012281170909483989,0.986371873352088
2011-01-21,1,0.002276418253853928,0.002295292119418744,-0.0021365054501822035,0.011902189703690043,0.9882463852534658
2011-01-25,1,0.003952600738207105,0.004229187676006272,-0.010331182160350508,0.010256085866777289,0.988204430986085
2011-01-27,1,0.00541830009740643,0.005992525995541663,-0.011431632362014364,0.008300030925672011,0.9877180640486259
2011-01-31,1,0.0025013466923435074,0.002598938384937085,-0.010331182160350508,0.008901747945236063,0.987425930320174
2011-02-02,1,0.0022145689160660183,0.002279883116580825,-0.005232598548528735,0.011628087303568386,0.9879239960229573
2011-02-04,1,0.002610426065225936,0.0027108913629046217,-0.009360713747507644,0.011628087303568386,0.9879266822550016
2011-02-08,0,0.0,0.0,-0.009360713747507644,0.014250625747014798,0.9865232807446616
2011-02-10,0,0.0,0.0,-0.006201554996009054,0.014250625747014798,0.9864251246325649
2011-02-14,0,0.0,0.0,-0.007042273610223712,0.011628087303568386,0.9873522256220179
2011-02-16,0,0.0,0.0,-0.009360713747507644,0.010053956698729006,0.9872254063396769
2011-02-18,-1,-0.0034185941319176474,-0.003168423370280315,-0.009360713747507644,0.008355085544554542,0.9876922155077054
2011-02-23,0,0.0,0.0,-0.005500201925895698,0.010053956698729006,0.9876009012861232
2011-02-25,0,0.0,0.0,-0.00492417393598994,0.011108890334455892,0.9883659220825651
2011-03-01,1,0.001968693896881442,0.0020825521395604887,-0.00492417393598994,0.010053956698729006,0.9905847223550701
2011-03-03,0,0.0,0.0,-0.005500201925895698,0.007867422924833821,0.9905658203765398
2011-03-07,0,0.0,0.0,-0.005410856689724098,0.008355085544554542,0.99022034629593
2011-03-09,0,0.0,0.0,-0.005410856689724098,0.007608192091161633,0.9911881613260196
2011-03-11,0,0.0,0.0,-0.0051150682378898905,0.007608192091161633,0.9913881205802956
2011-03-15,0,0.0,0.0,-0.003501235715845411,0.007962151758459867,0.9912947255858977
2011-03-17,1,0.00042784656482102254,0.0004758040406124708,-0.003501235715845411,0.007962151758459867,0.9920844019947472
2011-03-21,0,0.0,0.0,-0.004576559120227935,0.007962151758459867,0.9912780563633583
2011-03-23,0,0.0,0.0,-0.004576559120227935,0.007633785751317415,0.9921159825179682
2011-03-25,0,0.0,0.0,-0.0061487870716317,0.007533014422216308,0.9922166307504713
2011-03-29,1,0.0005210231996694353,0.0006945050768215304,-0.004576559120227935,0.007533014422216308,0.992446499842423
2011-03-31,0,-0.00014668168971412952,8.760306081138697e-05,-0.005422569384086911,0.007533014422216308,0.9927187879362818
2011-04-04,-1,-0.0008690191312973341,-0.0004844414999255217,-0.00558781686029466,0.006897851742470799,0.9928728582970825
2011-04-06,0,-9.212124090365067e-05,0.00013514873132130319,-0.007766497093253152,0.005386505383498517,0.992734196266046
2011-04-08,-1,-0.0012286305793766275,-0.0007682692790796201,-0.007766497093253152,0.004748252283129572,0.9930448853056105
2011-04-12,-1,-0.0008578262063538619,-0.0004451378530760813,-0.010509117514214543,0.004748252283129572,0.9922618279418817
2011-04-14,-1,-0.00046014962900789577,-0.00014194291729639655,-0.010509117514214543,0.0023265413470574675,0.9923424731952855
2011-04-18,-1,-0.0018092489795511497,-0.0013336268661344375,-0.010509117514214543,0.0023265413470574675,0.9917584601407302
2011-04-20,-1,-0.0017212071673016085,-0.0012527882419189431,-0.010866889148849208,0.0023265413470574675,0.9911313872705572
2011-04-25,-1,-0.0014784779148449636,-0.0011014203055473596,-0.010866889148849208,0.0023265413470574675,0.9909955592581972
2011-04-27,0,0.0,0.0,-0.010866889148849208,0.0023265413470574675,0.9905977674848238
2011-04-29,0,0.0,0.0,-0.010420613939748354,0.0023265413470574675,0.991319184032649
2011-05-03,1,0.0008010059560306267,0.0008028985407531397,-0.010420613939748354,0.00038549544482655956,0.9907064784513917
2011-05-05,-1,-0.000271052786882138,-0.00011329209266341728,-0.00965079704157523,-0.0005389299801148838,0.9911370200363586
2011-05-09,-1,-0.0004169119531426536,-0.00022967186436397816,-0.010420613939748354,-0.0005389299801148838,0.9903020387673253
2011-05-11,1,0.00010343098225315675,0.00021248881521163863,-0.011019853344029136,-0.0005389299801148838,0.990713882456548
2011-05-13,-1,-0.00019438336228980613,-6.171176622643212e-05,-0.012036618572309496,-0.0021592154588842417,0.9897983423988232
2011-05-17,-1,-0.001485092810913306,-0.001205172437549153,-0.012036618572309496,-0.0003742367594449475,0.989569846703079
2011-05-19,-1,-0.0016662700202090858,-0.0013525429234838198,-0.012036618572309496,0.0029623164062108106,0.9890497072767876
2011-05-23,-1,-0.002585430407053043,-0.002148858756464888,-0.010011569205762754,0.0069271840444526155,0.987900527580308
2011-05-25,-1,-0.002441029970584504,-0.0020347055179791374,-0.01315782056463408,0.008026453350681912,0.9866145263807665
2011-05-27,-1,-0.0030741827435034567,-0.002535456278582759,-0.017899148904553068,0.008026453350681912,0.9859086570174785
2011-06-01,-1,-0.004155386851618965,-0.0034627706598450375,-0.01365845716955328,0.01265416601897179,0.9860277310025299
2011-06-03,-1,-0.0041796395436668864,-0.003504742900000056,-0.01365845716955328,0.01583691896011094,0.9850047458932253
2011-06-07,-1,-0.004874208476196002,-0.004117553308513533,-0.012376624027759683,0.01583691896011094,0.9855419064519514
2011-06-09,-1,-0.0035882543001546393,-0.0030633764068166017,-0.014665269232610651,0.02201512298994602,0.9839085516027498
2011-06-13,-1,-0.004762051336643109,-0.004055326153155404,-0.014665269232610651,0.02201512298994602,0.9841352960903348
2011-06-15,0,0.0,0.0,-0.010595666982356028,0.01583691896011094,0.9862240003837236
2011-06-17,0,0.0,0.0,-0.014642309057887284,0.01265416601897179,0.9865075099626595
2011-06-21,0,0.0,0.0,-0.014642309057887284,0.006691280489572418,0.9869071508054045
2011-06-23,0,0.0,0.0,-0.014030496295262434,0.005102051983207481,0.9879650857467464
2011-06-27,0,0.0,0.0,-0.01160072553993253,0.008142592773176499,0.9886042221411476
2011-06-29,0,0.0,0.0,-0.014642309057887284,0.005102051983207481,0.9871983350142427
2011-07-01,-1,-0.003925781177011707,-0.003581027113862418,-0.01577101794986367,0.0010785200620488972,0.9881365746969825
2011-07-06,-1,-0.005214826994654613,-0.004708879191429056,-0.016039305046161818,0.0010785200620488972,0.9878858793003591
2011-07-08,-1,-0.0020455189060058897,-0.0018317884860793443,-0.015970424521991714,-0.0003315725633560057,0.988984857830614
2011-07-12,-1,-0.0018332080311776158,-0.0016606972483854208,-0.015970424521991714,0.0007469474986928916,0.9848979673957337
2011-07-14,-1,-0.003103699855890856,-0.0029247395075994312,-0.018154693303727192,0.0015349192337047843,0.9805721496401117
2011-07-18,-1,-0.003860312131622845,-0.003432207953184688,-0.018154693303727192,0.009078230438103182,0.9799706997923762
2011-07-20,-1,-0.0037693599760242487,-0.0033035798598399055,-0.018154693303727192,0.009078230438103182,0.9800025423471118
2011-07-22,-1,-0.004165456135782985,-0.003807737566092286,-0.02349731645782629,0.009078230438103182,0.9794141480106631
2011-07-26,-1,-0.003054812561695668,-0.0028741432407235206,-0.02349731645782629,0.013753174405390828,0.9777502676310966
2011-07-28,-1,-0.004495970887384498,-0.00412345823150115,-0.016018753210459136,0.013753174405390828,0.9786401901900201
2011-08-01,-1,-0.004844439023201695,-0.004475968937653601,-0.011928210175436025,0.014472165411059753,0.9783449753959796
2011-08-03,-1,-0.005476588900306488,-0.005064554533977866,-0.011928210175436025,0.014472165411059753,0.9786903796526425
2011-08-05,-1,-0.005714006820519595,-0.0052738719829130525,-0.015954686270381744,0.014472165411059753,0.9770906689601407
2011-08-09,-1,-0.005972126818670542,-0.005492119719114627,-0.011928210175436025,0.01589993147795181,0.9794968322201443
2011-08-11,-1,-0.007745594412604164,-0.007011881040533246,-0.011928210175436025,0.01282770081810258,0.9829198182288107
2011-08-15,-1,-0.005487154309230254,-0.005180705816188051,-0.011928210175436025,0.011632787790136304,0.9844745935206203
2011-08-17,-1,-0.0038308822042891835,-0.0036531951955680363,-0.011928210175436025,0.01282770081810258,0.9836635351940161
2011-08-19,-1,-0.006854022392276178,-0.006362142256624421,-0.007342773169885264,0.015569031305740211,0.9824842932124317
2011-08-23,-1,-0.00516970453029285,-0.004863923756186507,-0.013019559593919388,0.01282770081810258,0.9840280543204291
2011-08-25,-1,-0.005281745328360294,-0.004980596353052183,-0.01548768236336832,0.015569031305740211,0.982214298248981
2011-08-29,-1,-0.0018466992055616556,-0.0017833402988779354,-0.01548768236336832,0.019867225103838777,0.9819742863850603
2011-08-31,-1,-0.004247223914849996,-0.0040766727897257864,-0.015395579690755189,0.019867225103838777,0.9817410179802744
2011-09-02,-1,-0.005284705613663688,-0.005015556655261605,-0.017878694294282606,0.019867225103838777,0.981401638561407
2011-09-07,-1,-0.004089710462688812,-0.003982804616357626,-0.017878694294282606,0.019867225103838777,0.9814986733578018
2011-09-09,-1,-0.00526456232164485,-0.0049709251081899095,-0.015395579690755189,0.021002475189481933,0.9806840059539269
2011-09-13,-1,-0.00429584287593294,-0.004117876103207222,-0.016311457854498536,0.021506621587080846,0.9798646921963887
2011-09-15,-1,-0.0025582276687761527,-0.002542525365336148,-0.016311457854498536,0.01992997358189643,0.9818300717684206
2011-09-19,-1,-0.0026124052985561953,-0.0025451157975189863,-0.014903868435031543,0.021761005312835556,0.9823801481648
2011-09-21,-1,-0.004523515914505567,-0.004338720156431433,-0.014903868435031543,0.02393621477081269,0.9812620863022803
2011-09-23,-1,-0.0027465578588343775,-0.002705507387567681,-0.010138256340829054,0.02393621477081269,0.9818042423326826
2011-09-27,-1,-0.0023210926392134897,-0.0022452455406251895,-0.015816611550079355,0.02393621477081269,0.9822917647738185
2011-09-29,-1,-0.0022119320350256324,-0.0020922987971193846,-0.013251427764712559,0.02393621477081269,0.9824543739694792
2011-10-03,-1,-0.003723705415040475,-0.0036912097100803847,-0.013251427764712559,0.02393621477081269,0.9825429230438621
2011-10-05,-1,-0.002042003203710426,-0.0018696399514719893,-0.015816611550079355,0.02393621477081269,0.982558875996942
2011-10-07,-1,-0.0020082164306591847,-0.0018643239748603751,-0.015816611550079355,0.022978213942639304,0.9833198806762586
2011-10-11,-1,-0.0014837811375120534,-0.00125364990510132,-0.013251427764712559,0.022978213942639304,0.982509818473937
2011-10-13,-1,-0.0017209475766623414,-0.0015478852809928684,-0.015956204237361108,0.022978213942639304,0.9812929698788825
2011-10-17,-1,-0.0007280160857179002,-0.0004145992180130912,-0.015956204237361108,0.024196665106226548,0.980422964479906
2011-10-19,-1,-0.00045202412418908424,-9.963337166782001e-05,-0.013528335369436779,0.0211673676040647,0.9816727930309542
2011-10-21,1,0.0007990050722821421,0.0012808711453083156,-0.013528335369436779,0.01476744253836714,0.9838989736064132
2011-10-25,0,-0.0002389865533778758,8.609644016376516e-05,-0.012286349742352428,0.01476744253836714,0.9841409245238879
2011-10-27,0,-9.637105109067123e-07,0.00033063945870002347,-0.013191277706080617,0.01476744253836714,0.9838697297798409
2011-10-31,-1,-0.001418653253022504,-0.0012833390212640327,-0.010110107980184102,0.022699053112377538,0.9822239394459505
2011-11-02,-1,-0.001313996822244326,-0.001220692612638976,-0.010062014132241979,0.017811488773241166,0.9841537237876701
2011-11-04,-1,-0.0008829207444706659,-0.0007238941047677392,-0.010062014132241979,0.018979491570236488,0.9840188780664709
2011-11-08,1,0.0014025987716275697,0.001911343526615728,-0.010062014132241979,0.01727627744779279,0.98548914844735
2011-11-10,1,0.0019487392532556156,0.002593477444033103,-0.010062014132241979,0.01727627744779279,0.9865532982568794
2011-11-14,1,0.0033219096931111987,0.004152527247324537,-0.011982209785543575,0.013687083333997336,0.9865497843082296
2011-11-16,1,0.00296380578596067,0.00369676235159963,-0.011393584661107634,0.013617302841782662,0.9872176999001665
2011-11-18,1,0.0029223855990751133,0.003671864047987389,-0.011948200251766131,0.015261039445725464,0.9866332618084663
2011-11-22,1,0.0026589050397618783,0.0034176960577931683,-0.011393584661107634,0.01727627744779279,0.9858405234340752
2011-11-25,1,0.002312684732928055,0.0029805490533002296,-0.011393584661107634,0.01727627744779279,0.9853098330059754
2011-11-29,1,0.00478479134662038,0.005822075896769257,-0.011948200251766131,0.012954828383045307,0.9870569195915624
2011-12-01,1,0.003808457123620191,0.00468834590658056,-0.011759328860598585,0.015261039445725464,0.9865895496522565
2011-12-05,1,0.00467997346132161,0.0056601649016187906,-0.011759328860598585,0.015261039445725464,0.9858765242582938
2011-12-07,1,0.005396261888502091,0.0064112415980057645,-0.011759328860598585,0.011115197175803924,0.9862076812293534
2011-12-09,1,0.005272334228954649,0.006296600907385475,-0.011330627530718451,0.012466105899544213,0.9861974298010217
2011-12-13,1,0.004069314530293884,0.004921583150454224,-0.00787487681471061,0.012466105899544213,0.9876199341653223
2011-12-15,1,0.00497104825318961,0.00596823829481119,-0.00787487681471061,0.013132397536484826,0.9870900804269825
2011-12-19,1,0.004113870224759378,0.004734679668280518,-0.005823478428769811,0.014042022511259824,0.9868766599041779
2011-12-21,1,0.005149742262202203,0.005856716732885601,-0.007931900194546745,0.011174386893617097,0.9863229464510898
2011-12-23,1,0.0033599720752299144,0.003918156054643213,-0.005842486222048524,0.014042022511259824,0.987524118275592
2011-12-28,1,0.002972433380057555,0.0033044302837104264,-0.004869869680716184,0.014042022511259824,0.988585469539906
2011-12-30,1,0.0027716799713994604,0.0029971470119218935,-0.004016885230049591,0.007298073066628155,0.9899312538666729
2012-01-04,1,0.004440174517095382,0.004872068966458112,-0.004016885230049591,0.0023435662447396023,0.9905256340065913
2012-01-06,1,0.002810656139693342,0.002896758443316123,-0.004869869680716184,0.00599861400487662,0.9908735676484073
2012-01-10,1,0.0030116904173760205,0.003177876497226465,-0.0036918975640168284,0.0023435662447396023,0.9913337301301502
2012-01-12,1,0.0019472076100670052,0.0020299913644317266,-0.0030616390646439305,0.003069911478172608,0.9920167745999137
2012-01-17,1,0.003260663844795497,0.0034796465100622315,-0.0036918975640168284,0.003069911478172608,0.9915138218481742
2012-01-19,1,0.004752565943797334,0.00522244914091704,-0.00360206614448212,0.003069911478172608,0.991610503908846
2012-01-23,1,0.002268044200560869,0.0023665490287818106,-0.0024159313742932492,0.007223422431486181,0.9942516301021638
2012-01-25,1,0.0022738216656297654,0.002293384139955385,-0.0030616390646439305,0.004733431955907153,0.9935580793290518
2012-01-27,1,0.0022159767936447018,0.0022778981569302973,-0.0030616390646439305,0.00664279702139982,0.9935255300491751
2012-01-31,1,0.002398269943247452,0.0024954349183383974,-0.0024159313742932492,0.00938861669246757,0.992293894961073
2012-02-02,1,0.001687128525562432,0.0019152641381920397,-0.003319217914506248,0.00938861669246757,0.9918821429260472
2012-02-06,1,0.001325500924200269,0.001445849488518335,-0.003319217914506248,0.007223422431486181,0.9919374794482262
2012-02-08,1,0.0018803831989289838,0.0019112460470195915,-0.0010937006735172677,0.011688938026732348,0.9898996938785557
2012-02-10,1,0.0017262432994029672,0.0017670782987668375,-0.0010937006735172677,0.013536979529844886,0.9895040105303013
2012-02-14,1,3.324854747145125e-05,0.0004827115387989868,0.0017635126070168644,0.013536979529844886,0.9889410937128208
2012-02-16,1,0.0008700205511582797,0.001097435248335496,0.0017635126070168644,0.013536979529844886,0.989089158232134
2012-02-21,1,0.0015204054988528135,0.0016687496356543466,0.0014739468864955162,0.013185574784983422,0.9898729669280399
2012-02-23,1,0.0005561629290768584,0.0008451405565239406,0.002254828235848703,0.013185574784983422,0.9905963839860396
2012-02-27,-1,-0.0006753309656145736,-0.000102752426208403,0.0014739468864955162,0.013641077108323185,0.9895210076559209
2012-02-29,1,0.0013551967472240586,0.0015823981100402007,0.0,0.009887242729114041,0.9920140911949846
2012-03-02,1,0.0009526015321595556,0.0011778352587313817,0.0009621313611421215,0.009887242729114041,0.9921084380755587
2012-03-06,1,0.0005355089807520085,0.0008024118250690591,0.0,0.009887242729114041,0.9922795926289298
2012-03-08,1,0.0023642467140980554,0.0024176975278927685,0.0,0.007069848453261807,0.9949353314648572
2012-03-12,1,0.0028184855551237537,0.002818878590195917,-0.0019365284243522507,0.00646771483559958,0.9936017058864438
2012-03-14,1,0.003206100770915572,0.003250520173003473,-0.0019365284243522507,0.00646771483559958,0.9927360785354729
2012-03-16,1,0.0036631056417460697,0.0038406820949884895,-8.007870837424029e-05,0.007034433834434663,0.9929875700186604
2012-03-20,1,0.0029439550732861634,0.002952256417525069,-0.0011754195706693475,0.007034433834434663,0.9926485397189506
2012-03-22,1,0.00333151926304913,0.003378948972283353,-0.00450184263586941,0.006133097785845421,0.9920702572494847
2012-03-26,1,0.0013453984460313965,0.0015088631609040937,-0.004878917367884927,0.006133097785845421,0.992390332593023
2012-03-28,1,0.0021560820606851385,0.002261889415248046,-0.008583788781952824,0.00691650204499669,0.9913499633148847
2012-03-30,1,0.0020830730799251194,0.0021973754584744803,-0.008583788781952824,0.00691650204499669,0.9911454556113439
2012-04-03,1,0.003210284977100318,0.0032303022889943107,-0.005395131369124158,0.009054429586213155,0.9910641974920807
2012-04-05,1,0.003068384202049301,0.003136689513628481,-0.00982544104488526,0.009054429586213155,0.9894199567276435
2012-04-10,0,0.0,0.0,-0.009503408156227255,0.009054429586213155,0.9904150672407896
2012-04-12,0,0.0,0.0,-0.009926959654288603,0.005803207293451225,0.9915046163528576
2012-04-16,1,0.003302890753556224,0.0033681213175284514,-0.010804151118930162,0.002050875501742409,0.9899511357254184
2012-04-18,0,0.0,0.0,-0.011629914685434905,0.004768297461597006,0.9902070947608751
2012-04-20,0,0.0,0.0,-0.01446674654452149,0.004768297461597006,0.9890275146075922
2012-04-24,0,0.0,0.0,-0.01476274065160581,0.004020147684662247,0.9851692177541941
2012-04-26,1,0.0005803676920032515,0.0007350683090035082,-0.01476274065160581,0.004768297461597006,0.9830355179420396
2012-04-30,1,0.0008548897966033044,0.000960594694677848,-0.01476274065160581,0.006168941789109926,0.982828469795884
2012-05-02,1,0.001867692233707858,0.0019431698548850395,-0.01794814043198487,0.004199474302414543,0.981851157987667
2012-05-04,0,0.0,0.0,-0.014587152690990599,0.006168941789109926,0.9828853562579332
2012-05-08,1,0.0003788368227794918,0.0006650026193278919,-0.014587152690990599,0.00938066783503666,0.9812456040445497
2012-05-10,0,-5.673642363184623e-05,0.0002482318035000755,-0.014587152690990599,0.00938066783503666,0.9813655485001187
2012-05-14,-1,-0.0010816905658990166,-0.0006515519807160069,-0.014587152690990599,0.010337436324620072,0.9798943793078948
2012-05-16,1,0.0005987250235773593,0.000757357088904371,-0.014651862350745856,0.01279806405365317,0.9786793608925816
2012-05-18,0,0.0,0.0,-0.010871043015493161,0.014422882510624733,0.9791412012684984
2012-05-22,0,0.0,0.0,-0.00897128528142816,0.014422882510624733,0.9838264431308174
2012-05-24,-1,-0.0035942635528076645,-0.002996091461728594,-0.010871043015493161,0.010407297028701287,0.9842473593669485
2012-05-29,-1,-0.002610131262960028,-0.00218311972692999,-0.013583325934141827,0.011599135400793197,0.9840036896143894
2012-05-31,1,0.00015170462593268384,0.00042311196703783056,-0.009838606175641374,0.011599135400793197,0.9853981549786709
2012-06-04,0,-1.051906788867153e-06,0.0002835991284259713,-0.007338617664061981,0.012577310525095683,0.9841449086700019
2012-06-06,1,0.0010536427702939307,0.001221834603461043,-0.008660404407568146,0.010625581514690603,0.984854494371497
2012-06-08,1,0.0012512809067025108,0.001377553468028021,-0.015537768210415423,0.010625581514690603,0.9840494176591407
2012-06-12,1,0.001137158602253054,0.0012320900065270674,-0.015036377464107244,0.009862984247556142,0.9852777055010566
2012-06-14,1,0.00027958118753632804,0.0005632773211549409,-0.008660404407568146,0.007194273228747514,0.9875209349317094
2012-06-18,0,0.0,0.0,-0.015036377464107244,0.004313242927613861,0.9863775108240257
2012-06-20,-1,-0.0013911062127923118,-0.0011431407853338103,-0.015036377464107244,0.0058163690221420365,0.9861767445699443
2012-06-22,0,0.0,0.0,-0.010746013735915024,0.0058163690221420365,0.9875796044920147
2012-06-26,0,0.0,0.0,-0.009337571878514205,0.004640343460214372,0.9885349429213017
2012-06-28,0,0.0,0.0,-0.009337571878514205,0.007194273228747514,0.9859488907950802
2012-07-02,-1,-0.001646478901884164,-0.0013554971433951844,-0.011868104557853379,0.004640343460214372,0.9858338775002198
2012-07-05,0,0.0,0.0,-0.010151282719956543,0.004640343460214372,0.9860917699443352
2012-07-09,0,0.0,0.0,-0.009337571878514205,0.004640343460214372,0.9861580666638446
2012-07-11,-1,-0.003249409923005657,-0.002777652074265411,-0.009104442357830018,0.015146450772543741,0.9856519206156789
2012-07-13,-1,-0.002773207981717661,-0.002375289914936328,-0.009104442357830018,0.017413073436672484,0.9849174572949075
2012-07-17,-1,-0.004045553147515384,-0.0034839225122707375,-0.007872773711621673,0.017413073436672484,0.9863252946419775
2012-07-19,-1,-0.003398752931717083,-0.0029144050399194095,-0.007872773711621673,0.017888496879624443,0.985661341782911
2012-07-23,-1,-0.0024607345675884858,-0.0021505223442244608,-0.007872773711621673,0.017888496879624443,0.9825357838592462
2012-07-25,-1,-0.0031224911820120615,-0.0027098471617937646,-0.007872773711621673,0.019419546844139258,0.9807703840550422
2012-07-27,-1,-0.0016555866058415765,-0.0014047325454200098,-0.007872773711621673,0.01763242345109965,0.9828289560563025
2012-07-31,-1,-0.00240304887845709,-0.002137125606435579,-0.003654488109295326,0.01763242345109965,0.9850883545216836
2012-08-02,-1,-0.00263183463257809,-0.002344343016051185,-0.001595983276991926,0.017832321589070065,0.9846305115198676
2012-08-06,-1,-0.0017460638284760085,-0.0015922937838068283,-0.0012502604023405233,0.017394348339821026,0.9857768086818052
2012-08-08,-1,-0.0003580809966376757,-0.00035006250227453983,-0.0026173194853411183,0.013967651554465133,0.9871891101855697
2012-08-10,-1,-0.00029588210215140964,-0.00027216666870915794,-0.0018452299501768908,0.013179589262582458,0.987628274161099
2012-08-14,-1,-0.0003479648576410043,-0.0003103968217260689,-0.002369856308655686,0.013179589262582458,0.9872446193675583
2012-08-16,1,0.0007389923855291116,0.0009270748865286179,-0.002369856308655686,0.013201629505957168,0.9871842962220743
2012-08-20,-1,-0.00025189071880526634,-0.00018833735013002597,-0.002369856308655686,0.013072348273939893,0.9901442849802892
2012-08-22,1,0.0009199971675796735,0.001144385228038208,-0.002369856308655686,0.013201629505957168,0.9908013160816013
2012-08-24,1,0.0009583756378247206,0.0011785858826789618,-0.003764171340527556,0.013072348273939893,0.9906340820523668
2012-08-28,1,0.0010040067722393326,0.0012439266717442755,-0.004683222293102076,0.013072348273939893,0.990186916013777
2012-08-30,1,0.0008078565465115043,0.0009803093012677579,-0.003443337104299289,0.01186079415589532,0.9908510551698034
2012-09-04,1,0.00165379273491131,0.001999351333988036,-0.003443337104299289,0.01186079415589532,0.9914035672294661
2012-09-06,1,0.0017786660152956375,0.002156725066229689,-0.002369856308655686,0.013072348273939893,0.9916065929720602
2012-09-10,1,0.00206703873528796,0.0024772404311916895,-0.003443337104299289,0.01320474512700626,0.9907569705333142
2012-09-12,1,0.0015573809486215586,0.0018919462045508871,-0.0047173699414625615,0.01320474512700626,0.9904389740937756
2012-09-14,1,0.002412079500001864,0.0028528684297331667,-0.0047173699414625615,0.01192570920588703,0.991482648708599
2012-09-18,1,0.002377409217601504,0.002820027939326022,-0.004004135398545406,0.013377450033606676,0.99053015104435
2012-09-20,1,0.0031528347625399177,0.003701719470701912,-0.00494914095543735,0.01192570920588703,0.9907050116925392
2012-09-24,1,0.003050518598612241,0.0036222761398287317,-0.004004135398545406,0.01192570920588703,0.9915426005889514
2012-09-26,1,0.004301172020871377,0.004790170269006406,-0.0045908882971089455,0.009579082744756552,0.9910718436585164
2012-09-28,1,0.004409427153701567,0.004892499489030054,-0.007121007025026108,0.0094386571364263,0.9895827830231708
2012-10-02,1,0.0038048871445368927,0.004163746526051745,-0.007121007025026108,0.01355218936358493,0.9879841587945285
2012-10-04,1,0.0039993827059043524,0.004342997433376173,-0.007121007025026108,0.013393824441110369,0.9881899692131604
2012-10-08,1,0.004503361763595056,0.0049594733319555905,-0.00891579551308016,0.008548940673867633,0.9886467727414482
2012-10-10,0,0.0,0.0,-0.012782360461328746,0.008548940673867633,0.9880150417458804
2012-10-12,0,0.0,0.0,-0.012782360461328746,0.008618103388862848,0.9880487579336016
2012-10-16,0,0.0,0.0,-0.014015873933083903,0.006062736418146621,0.9889732662365501
2012-10-18,1,0.0027860662080407836,0.003131469451865756,-0.014015873933083903,0.009269254746704593,0.9857899042878664
2012-10-22,0,0.0,0.0,-0.014015873933083903,0.014873071635035982,0.9854107199412621
2012-10-24,1,0.004708824846804039,0.005162206429775538,-0.014015873933083903,0.016495989179289145,0.9854588556581155
2012-10-26,1,0.0039259192629233506,0.0043479080119282025,-0.0009132610982856293,0.016495989179289145,0.9866479573527156
2012-11-01,1,0.0062477652734786865,0.007009715767444866,-0.0031544568941362,0.013716707360234387,0.9878130051939007
2012-11-05,0,0.0,0.0,-0.006268206530621713,0.013716707360234387,0.9870776102665481
2012-11-07,0,0.0,0.0,-0.006268206530621713,0.013716707360234387,0.9875617900531877
2012-11-09,0,0.0,0.0,-0.0023977020177653537,0.013716707360234387,0.9890181354436788
2012-11-13,0,0.0,0.0,-0.003056798812609212,0.012495479770604678,0.989686015320942
2012-11-15,0,0.0,0.0,-0.003056798812609212,0.012495479770604678,0.9902085091146756
2012-11-19,1,0.0023054992963233096,0.002393822657620885,-0.003056798812609212,0.007309241055562524,0.991524788776737
2012-11-21,1,0.002733109834243715,0.0028749306158076704,-0.004794446345019963,0.006189892439102838,0.9906221325863561
2012-11-26,1,0.004309875132008431,0.004721111635036707,-0.00645518714865915,0.001642365202301,0.9899850748402317
2012-11-28,1,0.003953481755877111,0.00426165942277036,-0.00645518714865915,-0.00034653344525435216,0.9901821210429553
2012-11-30,1,0.003352804845357339,0.0035465439971086323,-0.00645518714865915,-0.00034653344525435216,0.9904453881733779
2012-12-04,1,0.002209804078594154,0.002211688871731042,-0.00645518714865915,0.001642365202301,0.9905817668576224
2012-12-06,1,0.001942063978529953,0.0019870903544977093,-0.007784603655750124,0.001642365202301,0.9898398911625853
2012-12-10,0,0.0,0.0,-0.006201870928285285,0.003583407208247185,0.9910914623215932
2012-12-12,0,0.0,0.0,-0.006201870928285285,0.007736673209501029,0.9899037108926727
2012-12-14,1,0.0005525541125332648,0.0006344072050590613,-0.00799718183440569,0.009766582640866604,0.988949119867746
2012-12-18,0,0.0,0.0,-0.00799718183440569,0.009766582640866604,0.9890096699061083
2012-12-20,0,0.0,0.0,-0.00522264608761803,0.012983380093243829,0.9897609364453086
2012-12-24,0,0.0,0.0,-0.004315698340665112,0.01435299453040039,0.9892505211441284
2012-12-27,1,0.05593620135070883,0.05838739202099514,-0.00483025544972625,0.01435299453040039,0.9499553725242517
2012-12-31,0,-3.4581370831525805e-05,0.00010746825944071413,-0.00483025544972625,0.012621905213115871,0.9897569365616137
2013-01-03,1,0.0007636048784982207,0.0009005431351711346,-0.003460059684110536,0.011855493560628325,0.9906925996621413
2013-01-07,0,-0.0004661743269560978,8.542640871101294e-05,-0.0011748380323583136,0.011855493560628325,0.9910023208329468
2013-01-09,0,0.0,0.0,-0.0011748380323583136,0.011855493560628325,0.9903796979932509
2013-01-11,0,0.0,0.0,-0.0011748380323583136,0.010647655601795994,0.991342362435902
2013-01-15,0,0.0,0.0,-0.0005232297996074712,0.010647655601795994,0.9917805217963617
2013-01-17,0,0.0,0.0,-0.0011748380323583136,0.00983622261363206,0.9929102101757707
2013-01-22,1,0.0017586327258269847,0.0018215607129714174,-0.0036040187897990895,0.009074798532255415,0.9923288317929528
2013-01-24,0,0.0,0.0,-0.00526213276679191,0.006754210967959633,0.9922520474996751
2013-01-28,0,0.0,0.0,-0.006488408069039482,0.0073913043079033534,0.9894041226665448
2013-01-30,0,0.0,0.0,-0.006488408069039482,0.00983622261363206,0.987517174464593
2013-02-01,0,0.0,0.0,-0.006488408069039482,0.00922254877387568,0.9876576386137141
2013-02-05,0,0.0,0.0,-0.0016342216087944423,0.008657802412945212,0.9884369354695755
2013-02-07,0,0.0,0.0,-0.0037681995063188574,0.009357256666479168,0.9880631780209759
2013-02-11,0,0.0,0.0,-0.006488408069039482,0.009785434326392128,0.9872065637591098
2013-02-13,0,0.0,0.0,-0.006523827497701995,0.009173751649732088,0.9874451171878887
2013-02-15,0,0.0,0.0,-0.0062943619315045645,0.009173751649732088,0.9876471468321633
2013-02-20,-1,-0.0002837571066450003,-0.00023631573452941843,-0.0062943619315045645,0.009173751649732088,0.988063041394718
2013-02-22,0,0.0,0.0,-0.0062943619315045645,0.009173751649732088,0.9883993664800513
2013-02-26,0,0.0,0.0,-0.003780005982539695,0.008729715575341286,0.9912463435789204
2013-02-28,1,0.00021753657872130563,0.00039741687357879073,-0.005509596970784557,0.006438065143045807,0.9930630221800738
2013-03-04,1,0.0007010285826397154,0.0008011992566110081,-0.007594668945849682,0.007896094900240644,0.9921773313249721
2013-03-06,1,0.0009689798440120929,0.0010162880587517506,-0.007594668945849682,0.008038820786878297,0.9913821833618772
2013-03-08,1,0.0008344679367706252,0.0009367510386529034,-0.007594668945849682,0.008038820786878297,0.9912994238394505
2013-03-12,1,0.00028810685088855406,0.0004460674441340695,-0.006362099446271621,0.005250618121506912,0.9922945147834872
2013-03-14,1,0.0010213848325179994,0.0010455896750119996,-0.006362099446271621,0.0038126900173547106,0.9925482901288096
2013-03-18,0,0.0,0.0,-0.006362099446271621,0.0038126900173547106,0.9918348839138981
2013-03-20,0,0.0,0.0,-0.006903121369185561,0.0028679496851614283,0.9918171875373641
2013-03-22,0,0.0,0.0,-0.006903121369185561,0.004617749522658956,0.9911320331291981
2013-03-26,0,0.0,0.0,-0.007360240166719213,0.004823877349798403,0.9908328136654144
2013-03-28,0,0.0,0.0,-0.007360240166719213,0.004823877349798403,0.9909974515808866
2013-04-02,0,0.0,0.0,-0.006455316830327507,0.005455874416794604,0.9912352423896178
2013-04-04,0,0.0,0.0,-0.006480711766743129,0.005455874416794604,0.9912202637174782
2013-04-08,0,0.0,0.0,-0.006480711766743129,0.010014940680505267,0.9898585113617024
2013-04-10,0,0.0,0.0,-0.007360240166719213,0.015459692423895343,0.9870520793082422
2013-04-12,0,0.0,0.0,-0.008551761652567729,0.015459692423895343,0.9863481817749137
2013-04-16,-1,-0.00044332478975190833,-0.00017673387878746412,-0.007360240166719213,0.016813120712852216,0.9869637179875052
2013-04-18,-1,-0.0009772599760988735,-0.0006733448667819797,-0.00665817841210912,0.016813120712852216,0.9866144503370693
2013-04-22,-1,-0.00035617886144071755,-0.00015060285640371,-0.006384087482224086,0.015039981647074381,0.9879263899057718
2013-04-24,-1,-0.00017316366203687112,-8.63688188185185e-06,-0.003347862602443992,0.015039981647074381,0.9880458798635909
2013-04-26,0,-7.794455170993331e-06,0.00011814373267839319,-0.006314076950750647,0.015039981647074381,0.9879130508638128
2013-04-30,1,0.00014608807485174357,0.00027248056619782774,-0.006314076950750647,0.013285639558528666,0.9883587081425521
2013-05-02,1,0.0001625170037846726,0.0003273696128226672,-0.00759198742004707,0.010951643186480602,0.9884339637708447
2013-05-06,1,0.002044122236769693,0.002073046610150383,-0.010202367379493385,0.006248166472596369,0.9886863361782094
2013-05-08,1,0.0030612869437828963,0.0032048844678881387,-0.010202367379493385,0.006248166472596369,0.9886395850399765
2013-05-10,1,0.0022936018076747744,0.002336428061838528,-0.010008367947952618,0.007082362069133822,0.988196158272756
2013-05-14,1,0.0034912470591183416,0.0037582027966993224,-0.010008367947952618,0.005508931621994272,0.9877893176771528
2013-05-16,1,0.00287079647555639,0.0030286210129438704,-0.007776486908540199,0.005508931621994272,0.9882712776715444
2013-05-20,1,0.002347462560216871,0.002422216099199981,-0.007776486908540199,0.005508931621994272,0.9889249638164175
2013-05-22,1,0.0024294537316894016,0.002496374131095555,-0.010164945136511401,0.005211202069203881,0.9872351544592529
2013-05-24,1,0.0020905579488405897,0.0021322916381372103,-0.010164945136511401,0.005211202069203881,0.9872419779850209
2013-05-29,1,0.00192735756055685,0.0019650526669624923,-0.010164945136511401,0.005310721949165521,0.9864112166956557
2013-05-31,1,0.0005865655412227633,0.0007330029695542717,-0.0078057343261356965,0.007961610017823023,0.9868969835622624
2013-06-04,-1,-0.0007167045818150221,-0.00041349012733743105,-0.006896276619306786,0.014351302723076676,0.9871530429875756
2013-06-06,-1,-0.00034850295281893236,-0.0001278431598485838,-0.00679729545453501,0.011661143749316441,0.989544364450947
2013-06-10,1,8.866390959326551e-05,0.0002599005987067249,-0.006251631401864872,0.011661143749316441,0.9899392651206689
2013-06-12,1,0.00012240515615654003,0.00023033002184517692,-0.00341513833508952,0.011661143749316441,0.990095421947589
2013-06-14,1,0.0007913607820836644,0.0008099837662157586,-0.00341513833508952,0.0106722437176148,0.9902134561851476
2013-06-18,1,0.0013828524200595424,0.0014893173946205992,-0.00341513833508952,0.010767124374925581,0.9900558182439524
2013-06-20,1,0.0002591509760054234,0.0002992589240322882,-0.0013413655909878298,0.010767124374925581,0.991887559125006
2013-06-24,-1,-0.00021546430749746397,-0.00010964677342337794,-0.0004539212109170686,0.010767124374925581,0.9913349745805714
2013-06-26,1,0.0008790066765333934,0.0009162816562910431,-0.0013413655909878298,0.010638103955146826,0.9918082034005516
2013-06-28,1,0.0008296918477505807,0.0008399131947507028,-0.002275368653293305,0.009701722771315901,0.9919861439990282
2013-07-02,1,0.002167081090277612,0.002375490125275287,-0.002275368653293305,0.010638103955146826,0.9924337345064604
2013-07-05,1,0.002419012557688475,0.002670018453161795,-0.002275368653293305,0.010390499913018849,0.9924592661533407
2013-07-09,1,0.003509374880104348,0.003935279326700844,-0.004659360599130218,0.010390499913018849,0.9920644508477445
2013-07-11,1,0.002760990734190129,0.003063738775399124,-0.004659360599130218,0.010622114549802598,0.9902604494960371
2013-07-15,1,0.0023742722022106672,0.0026028462236428198,-0.008420024843997842,0.010406137393444884,0.9902349954188685
2013-07-17,1,0.002426255313447492,0.002686098904536254,-0.010812385631469093,0.009629730385863329,0.9891726158154652
2013-07-19,1,0.001597034350460396,0.001653824815112207,-0.012216138408759085,0.009629730385863329,0.9879369863255252
2013-07-23,1,0.003094416108548239,0.003389873923922721,-0.012216138408759085,0.009621137288931228,0.9877284751478006
2013-07-25,1,0.0012469755668925483,0.0013531067955525392,-0.010812385631469093,0.011067170472088411,0.985680827288499
2013-07-29,1,0.0009062033082086784,0.0009829607163602697,-0.009088359276075215,0.011067170472088411,0.9859832544062836
2013-07-31,1,0.001864398100829783,0.0020869947185249175,-0.01097479242139443,0.009621137288931228,0.9858082297390943
2013-08-02,1,0.0019536455885686707,0.002171597959573209,-0.0127588767841828,0.008542839724515229,0.9855735182270688
2013-08-06,1,0.00255055048061183,0.0028625093529007547,-0.01097479242139443,0.007984987593352214,0.9860721957607433
2013-08-08,1,0.0022486358641306014,0.002481112387522064,-0.009088359276075215,0.007377215004568476,0.988142613458378
2013-08-12,1,0.0017231642976576476,0.0018568271626427638,-0.007110598220699943,0.008542839724515229,0.9873722931114841
2013-08-14,1,0.0006862191630302408,0.0007185202006506007,-0.006953169687434002,0.008542839724515229,0.9883391655844468
2013-08-16,0,-0.00010887794060103164,4.709013636888858e-06,-0.005901338212153811,0.008542839724515229,0.9895764124202598
2013-08-20,-1,-0.0002471972523781797,-0.00010088260240957286,-0.004854717434395287,0.00898357676153772,0.989407170778716
2013-08-22,1,0.0014042126830264613,0.001456163481981906,-0.00625758065739011,0.007984987593352214,0.9902899908719492
2013-08-26,1,0.0012392075246185142,0.0012747400709907648,-0.00625758065739011,0.00898357676153772,0.9894889016450497
2013-08-28,1,0.0007236684116946625,0.0007529125987004267,-0.00625758065739011,0.008707671569776143,0.9901419586164798
2013-08-30,1,0.0002994153998543828,0.00036672140013849165,-0.004854717434395287,0.008707671569776143,0.9905564610567034
2013-09-04,-1,-0.0003026505233743652,-0.00014331917521922193,-0.003929403224004838,0.011409289722906257,0.9904402501722803
2013-09-06,-1,-0.0008381518928909432,-0.0005757155877412459,-0.004517508679255767,0.011409289722906257,0.9900855789425143
2013-09-10,0,-0.00014572651543032266,7.003281710722328e-05,-0.01003847128269491,0.005339975664424876,0.9901669069850972
2013-09-12,-1,-0.0002492117258375984,-3.413277979282057e-05,-0.01003847128269491,0.008567209991412635,0.9894293384057324
2013-09-16,-1,-0.0005489813229505204,-0.00029858867820685084,-0.01003847128269491,0.013209057323869407,0.9884333412571573
2013-09-18,1,1.6653925351978898e-05,0.000209978954645465,-0.01003847128269491,0.008567209991412635,0.9890013051396418
2013-09-20,1,0.00014407246479831022,0.00029212120852094504,-0.01003847128269491,0.008358444051978546,0.98947497703195
2013-09-24,1,0.0006052766492368135,0.0006837162649768304,-0.00907661937823723,0.007410020990894552,0.9903600292414846
2013-09-26,1,0.0012617925666827522,0.001345331305762107,-0.004711299438708931,0.011555975000894236,0.9891630953681799
2013-09-30,1,0.0016129457931553335,0.0018106584738912792,-0.008969803055148218,0.011555975000894236,0.9891193764546904
2013-10-02,1,0.0019082818741029451,0.0021290659835569384,-0.009188828977497843,0.010320338394529116,0.9888514028314357
2013-10-04,1,0.0018724087309148845,0.0021127893102295663,-0.009188828977497843,0.010320338394529116,0.9884145815402888
2013-10-08,1,0.0006571953683973448,0.0007354446404817545,-0.007732705722978821,0.011509594214388996,0.989079947409113
2013-10-10,1,0.0012073420822963173,0.0013379977656522843,-0.00887006870173876,0.010320338394529116,0.9892985616298616
2013-10-14,1,0.0021532358325415417,0.002425498334035708,-0.00887006870173876,0.008672930422215362,0.989600079537838
2013-10-16,1,0.0017676862363260645,0.0019854177695932556,-0.007805714363762029,0.011509594214388996,0.9881970766166785
2013-10-18,1,0.0013878142588942596,0.0015749509065755224,-0.007193957660477226,0.012263952658507549,0.9892073907197744
2013-10-22,1,0.0010539665343967783,0.0011456630307169213,-0.00890423624695202,0.012263952658507549,0.9881517732561845
2013-10-24,1,0.0025022943682738415,0.002724055679634064,-0.009188828977497843,0.010482723547457964,0.9863116414723099
2013-10-28,1,0.0019033690012582169,0.0020231062660963387,-0.00890423624695202,0.010482723547457964,0.9862814208788178
2013-10-30,1,0.001859353882479601,0.001997651602608602,-0.007744094904716575,0.009177605797454556,0.9868385961599409
2013-11-01,1,0.0005210098796119759,0.0006799548320957215,-0.008631616599944412,0.009177605797454556,0.98697010497882
2013-11-05,1,0.00086606426728074,0.0009187542016167883,-0.008631616599944412,0.007756365212912101,0.9870379026288655
2013-11-07,1,3.469345520094126e-05,0.00018076555853845783,-0.0074897982255531705,0.009116101670512394,0.986714696991513
2013-11-11,-1,-0.0006492578899338379,-0.00037375444061095485,-0.008421692114416887,0.009072851860909158,0.9870377824581466
2013-11-13,1,0.0006691789522845333,0.0008302302586646103,-0.008631616599944412,0.0005694524165127533,0.988113121966694
2013-11-15,1,0.0011972493818401785,0.0012569014304399115,-0.008631616599944412,0.001491375529874692,0.9884397711092758
2013-11-19,1,0.00034916192541384854,0.0004907536205317577,-0.008421692114416887,0.004880141287857303,0.9879295441224942
2013-11-21,1,0.00028874648679057203,0.0003927762731840894,-0.008421692114416887,0.002259466402965294,0.9913633752376545
2013-11-25,0,-0.00011498728723436931,1.7861521011386307e-05,-0.008421692114416887,0.005633326057358763,0.9912023672180927
2013-11-27,1,0.0003454212287067069,0.00039255444987618013,-0.008421692114416887,0.006342783326640197,0.9909745273255905
2013-12-02,-1,-0.0011023162639164216,-0.0008395596477364562,-0.0057629812873155025,0.007017592047514684,0.9913970662374278
2013-12-04,-1,-0.0010892881410992342,-0.0008564514485248111,-0.006095070795423643,0.006342783326640197,0.9916090369783519
2013-12-06,-1,-0.0003555476434078572,-0.00022066236447040454,-0.008451231688726366,0.006118099087618159,0.9924511578627061
2013-12-10,-1,-0.0009557899073593553,-0.000748573704495216,-0.005229165186968098,0.006118099087618159,0.9925788517111698
2013-12-12,-1,-0.0010426655002028814,-0.000854906335219741,-0.005229165186968098,0.006342783326640197,0.990992519558257
2013-12-16,-1,-0.00033144785701382103,-0.00021025265178646477,-0.00898732120164538,0.006342783326640197,0.9905873486697548
2013-12-18,1,0.00030805653740026103,0.0003891880622497862,-0.00898732120164538,0.006118099087618159,0.9922226654125941
2013-12-20,1,0.0005101395973735681,0.0006073410299349857,-0.0055370448874185385,0.006118099087618159,0.9924610310086244
2013-12-24,1,0.001124597031741571,0.0012086584621131924,-0.007462158840288004,0.0052220015167954575,0.9924065558686272
2013-12-27,1,0.0010780174104655636,0.0011477567582442248,-0.010390877404571092,0.004541168329715002,0.9916922291485147
2013-12-31,1,0.002000191449573639,0.0021081193096766817,-0.011991583962017027,0.004192314879887681,0.9906294664591845
2014-01-03,1,0.0011458893220782703,0.001199119742661415,-0.012879853789892856,0.004192314879887681,0.9903303471410891
2014-01-07,1,0.000300524711313468,0.0003865550370492387,-0.01308235720674806,0.004541168329715002,0.9898010456560022
2014-01-09,-1,-0.00028762343311319546,-4.327298996406408e-05,-0.01308235720674806,0.005793411576581784,0.9886533847863712
2014-01-13,-1,-0.0005305454176642867,-0.0002572226001921763,-0.011991583962017027,0.005793411576581784,0.9898841027447002
2014-01-15,1,0.0006004669341595378,0.0006151627719797523,-0.011169370082792781,0.00540236290630925,0.9903213226326625
2014-01-17,-1,-0.0002607051535138176,-0.00012706893667083143,-0.00828924403042242,0.009165054317619308,0.9901765339016697
2014-01-22,-1,-0.0005210942873861418,-0.0003300665363578727,-0.008969914821055958,0.009165054317619308,0.9899828085822565
2014-01-24,-1,-0.0009186078510243968,-0.0006596790036825979,-0.008969914821055958,0.009311822312561852,0.9901266044124738
2014-01-28,-1,-0.0015119171042417732,-0.0011748879232337337,-0.007629565457232532,0.01376079304350708,0.987639966144072
2014-01-30,-1,-0.0032051979790502674,-0.0026505263837127975,-0.007629565457232532,0.01376079304350708,0.9880415092502877
2014-02-03,-1,-0.0024354144545953686,-0.0020526503979863726,-0.003133785017877402,0.01376079304350708,0.9880558050993227
2014-02-05,-1,-0.002572619567205272,-0.0021664844672577466,-0.0052554571647154495,0.010005580111283796,0.9891670994459555
2014-02-07,-1,-0.002237729374121967,-0.0018670344755736708,-0.0052554571647154495,0.008621198343243217,0.9902013431355826
2014-02-11,-1,-0.0017369507116320225,-0.0014496756120430704,-0.005998445631629731,0.007084247784527021,0.9908011243772946
2014-02-13,-1,-0.001720907251471407,-0.001505650463004109,-0.007629565457232532,0.007994142677019525,0.9897555884698246
2014-02-18,-1,-0.0010834530953950934,-0.000979659415724624,-0.006225335895174244,0.007837115962572168,0.9899550916400536
2014-02-20,-1,-0.001359767233906575,-0.0012158704704186923,-0.0052554571647154495,0.007837115962572168,0.990242167161529
2014-02-24,-1,-0.0009905083099363272,-0.0008822817530557412,-0.005661395610603008,0.007255532278246081,0.9906999758025744
2014-02-26,1,0.0006058639520977388,0.0007310574407138464,-0.006672929448480398,0.004283473427259404,0.9931179488371565
2014-02-28,-1,-0.00024036024236752344,-0.0002357552969681279,-0.005661395610603008,0.00670947914287623,0.9936811819084508
2014-03-04,-1,-0.0005515802845775526,-0.0004398788397011424,-0.005661395610603008,0.00670947914287623,0.9938375397960324
2014-03-06,1,0.0001336032273714891,0.00020516810856949783,-0.006672929448480398,0.00670947914287623,0.9936803340832822
2014-03-10,1,0.00012658503399267306,0.00019535901088966437,-0.009768897437669595,0.00440485084619558,0.9920955485599917
2014-03-12,-1,-0.00016181417799464087,-0.00013818686483253007,-0.0069136411482118255,0.007255532278246081,0.9918262223927253
2014-03-14,-1,-0.0012319387205994405,-0.0010692623975746677,-0.00968300251841512,0.00440485084619558,0.9917239736979819
2014-03-18,1,4.590392918616277e-05,8.146882203935842e-05,-0.00968300251841512,0.002244385774687306,0.991889416455724
2014-03-20,1,0.0008399829050586972,0.0010939112660265328,-0.00968300251841512,0.002244385774687306,0.9920644830292945
2014-03-24,1,0.0006193078908197042,0.0008347502705397297,-0.00968300251841512,0.004417909919031675,0.9915028886415579
2014-03-26,0,-6.76290055495402e-05,6.89958271099281e-05,-0.00968300251841512,0.007301520328689692,0.9901015588108728
2014-03-28,1,4.305750196489805e-05,0.00011628914426488346,-0.010803019745362786,0.003147031698686459,0.9896446499072385
2014-04-01,1,0.000932284015651803,0.001165991526837599,-0.011508824419971624,0.001580828257325145,0.9895135241453429
2014-04-03,1,0.0003012191333697662,0.0003965162318960159,-0.011508824419971624,0.007849281684202604,0.9890332014025215
2014-04-07,-1,-0.0017338593569802198,-0.001554386584903121,-0.012071516837047536,0.007849281684202604,0.9894602024813449
2014-04-09,-1,-0.0006231478827718328,-0.000549924192904749,-0.012071516837047536,0.0029071002547727035,0.9901385568738486
2014-04-11,-1,-0.0008003344177435639,-0.000710399425673834,-0.007426465916191106,0.010632165904873704,0.9899109148425225
2014-04-15,-1,-0.0008193660031085654,-0.0008097193655903291,-0.01165031404549351,0.010632165904873704,0.9892602603503992
2014-04-17,-1,-0.0010549721628527024,-0.0010096571402890622,-0.012189420299550356,0.012641202124914246,0.9880897299009493
2014-04-22,-1,-0.0007190377062693755,-0.0006951265096808434,-0.012189420299550356,0.010632165904873704,0.9888309299384151
2014-04-24,-1,-0.0008443286234958308,-0.0008178354177018129,-0.011415667328407673,0.010632165904873704,0.9894728862092714
2014-04-28,-1,-0.0019809706082488015,-0.0017563702755310382,-0.011208740196550888,0.012641202124914246,0.9892741120015386
2014-04-30,-1,-0.0026554170782350428,-0.002358360675986714,-0.011415667328407673,0.012641202124914246,0.9883689459012315
2014-05-02,-1,-0.0014409873920785017,-0.0013258917908260896,-0.011415667328407673,0.007934421685350633,0.9895809073495178
2014-05-06,-1,-0.0030535410972235824,-0.0027279683224547303,-0.003354583403260609,0.007934421685350633,0.9903144273142468
2014-05-08,-1,-0.0035008095934878363,-0.003110612340386085,-0.0017193124577858535,0.008971891447808208,0.9893732929168845
2014-05-12,-1,-0.0021489499915575082,-0.0019294895328310262,-0.002649745004089185,0.005262686731805229,0.9914676120061483
2014-05-14,-1,-0.0026484377633058847,-0.0024140600218458255,-0.002649745004089185,0.005262686731805229,0.9903184867964517
2014-05-16,-1,-0.0021841662011766955,-0.0019743032108652486,-0.0022506505633439334,0.004569410325300305,0.9918226129815311
2014-05-20,-1,-0.001694354322508773,-0.0015738181956342677,-0.0022506505633439334,0.005262686731805229,0.9916777515658364
2014-05-22,-1,-0.00045195441459338557,-0.00041677170572230397,-0.001664018113893459,0.004569410325300305,0.9934164518549101
2014-05-27,1,9.869689980162888e-05,0.00023134772426753773,-0.001664018113893459,0.004569410325300305,0.9939213893214385
2014-05-29,0,-7.698745539948466e-05,3.650785048857141e-05,-0.001165929822914315,0.004569410325300305,0.9945982846122523
2014-06-02,-1,-0.0005529405968221804,-0.0005132005046453196,-0.000759826791791584,0.005608509985957754,0.9937164702088978
2014-06-04,-1,-0.000361000337229305,-0.00031781195811747645,-0.00048009783575702275,0.005608509985957754,0.9938920893566519
2014-06-06,1,0.000477554434532524,0.000640620159994623,-0.00048009783575702275,0.004229137193705222,0.9946194858913705
2014-06-10,1,0.00028163245881549463,0.00040629033379143716,-0.000476047633646609,0.004229137193705222,0.9943554926253813
2014-06-12,-1,-0.001203401467341314,-0.0011286325776328173,-0.0002595335397022666,0.004766896542583095,0.9947715498778924
2014-06-16,-1,-0.0013738765008505576,-0.0012845356705510676,-5.195375030385612e-05,0.005348876297274185,0.9942053446668716
2014-06-18,-1,-0.0008116398903558058,-0.0007955866114742214,-0.0002595335397022666,0.004766896542583095,0.9945578672034326
2014-06-20,-1,-0.0011988669759623654,-0.0011134101111138165,-0.001470362420621292,0.005348876297274185,0.9939142902234942
2014-06-24,-1,-0.0011447252830016656,-0.001035904566273674,-0.001470362420621292,0.004766896542583095,0.9941392512708017
2014-06-26,-1,-0.001011122833663548,-0.0008802376384112686,-0.004680711498712023,0.004475440296087466,0.9946484545844803
2014-06-30,-1,-0.00041573357403436545,-0.000350858142512814,-0.004680711498712023,0.0034713466530361574,0.9953143344057309
2014-07-02,1,0.0006353714838915588,0.0006855333789261989,-0.00517052053425031,0.004581374922360655,0.9945258912436113
2014-07-07,1,0.0009636525374547547,0.0010897842336770537,-0.005637704957771276,0.005348876297274185,0.9941155907930026
2014-07-09,1,0.00012924728610361698,0.00017877316864002354,-0.005484102996450749,0.006287076760635487,0.9936936928500195
2014-07-11,1,0.00040645161102752974,0.00048487528103918797,-0.004966427485031382,0.006877849700524622,0.9926310992879803
2014-07-15,1,0.00010805161092620444,0.00016437085942592601,-0.004966427485031382,0.006877849700524622,0.9929520276921731
2014-07-17,1,0.00019146552822148417,0.00028641482524355597,-0.004009332490111008,0.007742054862201884,0.9929585189022921
2014-07-21,1,0.001549841658186246,0.0019078613530014586,-0.004165060631284664,0.007742054862201884,0.993182169626104
2014-07-23,1,0.0011663016927661103,0.0013786982488927103,-0.004165060631284664,0.00916394453795221,0.9915849382314993
2014-07-25,1,0.0015635473540202155,0.0018391057927522431,-0.0029290886418814593,0.00916394453795221,0.9916089873579227
2014-07-29,1,0.0015161074012395082,0.0017689020463596428,-0.0029290886418814593,0.00916394453795221,0.9916916215227677
2014-07-31,1,0.001358323009864236,0.0015864503247805927,-0.0023722766907101262,0.00916394453795221,0.9925511148555732
2014-08-04,1,0.0011916125103681083,0.0013757923036407126,-0.001425113167584653,0.00916394453795221,0.9930054615315946
2014-08-06,1,0.0014500100721708225,0.001676798242874018,-0.0007365312640008598,0.009558443693000187,0.9930010441347407
2014-08-08,1,0.002115248359932767,0.00244667682474808,-0.0007365312640008598,0.009081665959608885,0.994148732168646
2014-08-12,1,0.0023874922285869325,0.0027424657991787548,-0.001425113167584653,0.009081665959608885,0.9935240550152437
2014-08-14,1,0.002617905361641914,0.0029932540402397307,-0.0023722766907101262,0.007341470229534819,0.9934015523372164
2014-08-18,1,0.0024788669895910737,0.0028072395568144487,-0.0021235211814546323,0.007423120930354641,0.9938231409824795
2014-08-20,1,0.0035773898200640378,0.004070091009232207,-0.0021235211814546323,0.00590103227157573,0.9950771364417031
2014-08-22,1,0.004394474254952495,0.005016811638082217,-0.0021235211814546323,0.0054638408584357055,0.9942105146349867
2014-08-26,1,0.004234939415821427,0.004806833443168996,-0.003005837572643935,0.005973898014571911,0.9938930793774113
2014-08-28,1,0.003395098745990934,0.0037631675916163553,-0.005944688387097728,0.005973898014571911,0.9936999589301357
2014-09-02,1,0.0030277250650280105,0.0034082262928990747,-0.006784920460618796,0.005973898014571911,0.9935069175820731
2014-09-04,1,0.0038039500362140005,0.004248675321718757,-0.006784920460618796,0.005735415482395093,0.9931169586189579
2014-09-08,1,0.003860781096993699,0.004322922302086404,-0.006125117777140778,0.005735415482395093,0.9935667524026379
2014-09-10,1,0.0038751396050491103,0.004335448274507856,-0.006125117777140778,0.006081987756266034,0.9929029268771516
2014-09-12,1,0.003556424200920513,0.003988280206327774,-0.006728870398238985,0.006081987756266034,0.9928281101342044
2014-09-16,1,0.0034400920640556424,0.0038270083739274686,-0.007949855616092693,0.0037435786969122788,0.9913082727973659
2014-09-18,1,0.0032709788353899732,0.0036072896672410485,-0.008236732774278333,0.0033738675710521587,0.9905552349736646
2014-09-22,1,0.0019309895619829993,0.002033368664874628,-0.007949855616092693,0.008531419242123302,0.9901136744210969
2014-09-24,1,0.002289353186072255,0.002476421215066361,-0.008236732774278333,0.008771204857144978,0.9892757691209543
2014-09-26,1,0.0012544907890604618,0.001265944417758947,-0.007949855616092693,0.01258585894063606,0.9888105738250208
2014-09-30,1,0.0006851964324139672,0.0007864475852831885,-0.007855126489319311,0.01264308098504259,0.9888348333829319
2014-10-02,1,0.001316944663427519,0.0013483304884552142,-0.007855126489319311,0.01264308098504259,0.9889319177500797
2014-10-06,1,0.0011965045261392274,0.0012426882888544437,-0.007855126489319311,0.017061390723435533,0.9885324817826313
2014-10-08,1,0.0018180307725216304,0.0018232715051000512,-0.006169690011493158,0.012109152454784763,0.9894667586874141
2014-10-10,1,0.0009340818826642911,0.0010519001731495445,-0.0047417652508373685,0.012430088458064467,0.9895671413319099
2014-10-14,0,-9.395101313999983e-05,9.070620037612462e-05,0.0007364837881908603,0.012430088458064467,0.9905797652397474
2014-10-16,1,0.00013786742580267113,0.00025940899474005653,0.0023412146108827228,0.012430088458064467,0.9910979474105968
2014-10-20,1,0.000407018457911276,0.000533097567532525,0.0014353410164947645,0.008840771049674397,0.9929061480897752
2014-10-22,1,0.001007671346074743,0.001078862117641031,0.0014353410164947645,0.008840771049674397,0.9913277905697931
2014-10-24,1,0.001674741001354342,0.0017046728144365958,0.0014353410164947645,0.008840771049674397,0.992102562706068
2014-10-28,1,0.002510111222753575,0.002658753025954857,-0.0012106944401188565,0.007084597222740329,0.99210484205123
2014-10-30,1,0.001953358718950094,0.001964569285418552,-0.0007413050395089887,0.00779011305460447,0.9916498005090026
2014-11-03,1,0.0007456637347825446,0.0008790578947618592,-0.0018990979232009655,0.00779011305460447,0.9910580641130695
2014-11-05,1,0.00034443078292775264,0.0005505391407126697,0.0014353410164947645,0.00779011305460447,0.9910482011667137
2014-11-07,1,0.0007913159184270428,0.0009402904274169349,0.0016921552014461504,0.008230187323418299,0.9907101789543112
2014-11-11,1,0.0008201576903868397,0.0009632181920482888,-0.002017961577496119,0.008230187323418299,0.9901062514983406
2014-11-13,1,0.0011901129209978248,0.0012702179994875853,-0.004365316215015906,0.01046092643227652,0.9894349199040651
2014-11-17,1,0.0014661766148943286,0.0014807174032457414,-0.007208992588509088,0.01046092643227652,0.9885710986944841
2014-11-19,1,0.0021791012780753806,0.0022753401028285792,-0.005461206170094919,0.010825623507744124,0.99057797190897
2014-11-21,1,0.002823848507314514,0.003011054420333963,-0.005461206170094919,0.010825623507744124,0.990714602644674
2014-11-25,1,0.002697680383357373,0.002868518597596838,-0.004419320103772873,0.010825623507744124,0.9909872953454699
2014-11-28,1,0.0031498828310749386,0.0033570885292877883,-0.004419320103772873,0.010825623507744124,0.9911400230180002
2014-12-02,1,0.0028275103423797193,0.0029655280930888017,-0.0011643980266867037,0.009794602838763884,0.9919883092887142
2014-12-04,1,0.003115825160400458,0.0033083467246008396,-0.007442764841084354,0.009794602838763884,0.9899346938530629
2014-12-08,1,0.003281412121773247,0.0034539962231272814,-0.007442764841084354,0.009794602838763884,0.9894120635430897
2014-12-10,1,0.002662998652343292,0.002751414611128728,-0.008130352026138848,0.011132160999096577,0.9884589417206463
2014-12-12,1,0.0023246126561065794,0.0023728054100275683,-0.006503034104795944,0.011132160999096577,0.9890065807268699
2014-12-16,1,0.001428031821598394,0.0015273610773720238,-0.006950727033697895,0.011132160999096577,0.9889651762282905
2014-12-18,1,0.002375457688202155,0.002404476653648043,-0.0091267290114683,0.006664878735516935,0.9881422477995739
2014-12-22,1,0.0028597127122898473,0.002935207367605364,-0.0091267290114683,0.01298284035188693,0.9867042128948396
2014-12-24,1,0.0021153000441040677,0.002151717612069192,-0.0091267290114683,0.01298284035188693,0.986927577996379
2014-12-29,1,0.002695995183672151,0.002735153367270763,-0.010622608625194338,0.01086062882535267,0.9865110622922847
2014-12-31,1,0.002615768465918098,0.0026557773552251555,-0.015571542887760989,0.01086062882535267,0.984720576794071
2015-01-05,1,0.0007729489422486206,0.0009290368132243132,-0.008536806103107218,0.013478267373173954,0.9857937358920902
2015-01-07,1,0.0022649154872281907,0.002308914583787495,-0.008536806103107218,0.012753904644978659,0.9861564497998387
2015-01-09,1,0.001560422429827685,0.0016040228879210315,-0.008536806103107218,0.01149682433868837,0.9870949574217744
2015-01-13,1,0.0021892551998357102,0.002295933944223748,-0.008536806103107218,0.011569049247369165,0.9869630326657144
2015-01-15,1,0.0015581779695237746,0.0015787491720580494,-0.005543010390703578,0.011569049247369165,0.987418092338873
2015-01-20,1,0.0015026971627377797,0.0015112641452830473,-0.0026041605888436374,0.01134433919038714,0.9894069340857048
2015-01-22,1,0.0025947586537983774,0.0027354112580177184,-0.0035282819854983204,0.010809928854277008,0.9907148039205999
2015-01-26,1,0.003032548448954308,0.0032241462425209406,-0.0035282819854983204,0.01134433919038714,0.9906884100688784
2015-01-28,1,0.0025121420837893064,0.002661651519834575,-0.0030031970510927225,0.01134433919038714,0.991105360889489
2015-01-30,1,0.0016502190417306284,0.0016758790009694336,-0.002191264365968343,0.011681906754816732,0.9922467924268623
2015-02-03,1,0.00243654253035795,0.0025490318915910443,-0.0030031970510927225,0.01134433919038714,0.9925944643660021
2015-02-05,1,0.0028387528432935426,0.002981536569081627,-0.0034870402570755057,0.008131457981744259,0.9925202849218128
2015-02-09,1,0.002539416353563951,0.0026616299969411178,-0.0034870402570755057,0.010311974177301151,0.9922198130833298
2015-02-11,1,0.002623953717893967,0.0027641824019516608,-0.0030031970510927225,0.010311974177301151,0.9917459084978067
2015-02-13,1,0.002421721790289169,0.0025037259624428603,-0.0034870402570755057,0.010771503591460169,0.9910209584493486
2015-02-18,1,0.003389418665128164,0.0035850939850700257,-0.005927368013146291,0.010771503591460169,0.9901824202056608
2015-02-20,1,0.0025209796712518037,0.0025867787019997336,-0.005927368013146291,0.009290270476515317,0.9909991506980372
2015-02-24,1,0.0024276169841070563,0.0024615082950935592,-0.005927368013146291,0.007718036106343225,0.9914508066882444
2015-02-26,1,0.0019326874563150914,0.001972404692552404,-0.011948862986741299,0.007718036106343225,0.9901589597767646
2015-03-02,1,0.0023457649566131725,0.0023630156353631076,-0.011948862986741299,0.009290270476515317,0.9896331364614093
2015-03-04,1,0.001859146973642708,0.001883198075220765,-0.010689327429528274,0.009290270476515317,0.9901614909932646
2015-03-06,1,0.0010836847830317908,0.0012300107189121196,-0.00671307662642496,0.009290270476515317,0.9910176043015703
2015-03-10,0,-7.298230364763316e-05,0.0002705105486743826,-0.00671307662642496,0.009100941601679718,0.9912749273428542
2015-03-12,1,0.0002405620561879221,0.0005695073549484729,-0.008216275912942975,0.008812204369530539,0.9917596428388421
2015-03-16,1,0.0007748065359840487,0.0009955270247699283,-0.008497293309298553,0.006725426716576412,0.9922502578175145
2015-03-18,1,0.0004153526618825285,0.0006714004581398144,-0.007540393555230302,0.008812204369530539,0.9920895718264395
2015-03-20,1,0.001100122243801057,0.001243106772224185,-0.008942710748643477,0.006725426716576412,0.9914362862343121
2015-03-24,1,0.00129501027169631,0.0014017127606808476,-0.008942710748643477,0.008487613846424942,0.9910057213273296
2015-03-26,0,-0.00022552662644992826,6.384700925247564e-05,-0.005982398586348386,0.008487613846424942,0.9925657701194921
2015-03-30,1,0.0005963141531616216,0.0007711741045831325,-0.007540393555230302,0.004591560219103382,0.9928059728947649
2015-04-01,0,-6.966547719836904e-05,0.0002077406148981852,-0.013130573304188436,0.004591560219103382,0.9911934871899521
2015-04-06,1,0.00013315675952107293,0.0003819284403256822,-0.013130573304188436,0.007934230154891215,0.9899087717972156
2015-04-08,0,-0.0002651883500077713,2.2226869098381126e-05,-0.012269773148474291,0.005565425417710946,0.9902482552322295
2015-04-10,0,-0.00024407474777042625,3.4184302706006565e-05,-0.012269773148474291,0.007934230154891215,0.9893192549719155
2015-04-14,-1,-0.0008909730118233082,-0.0005430155111529623,-0.008655777363405429,0.007934230154891215,0.9898343137873158
2015-04-16,-1,-0.0004711172229331274,-0.00017809765168580027,-0.011538149620318565,0.006554213219531228,0.9897374490421931
2015-04-20,-1,-0.001206322427964538,-0.0008511263689153444,-0.008578266696302073,0.007934230154891215,0.9902134336384124
2015-04-22,-1,-0.0014277201785434044,-0.0010167211799686927,-0.012928576599318587,0.006554213219531228,0.9877782878806799
2015-04-24,-1,-0.001195798089472919,-0.0008192855930645928,-0.012928576599318587,0.00870609937110188,0.9872617258692522
2015-04-28,-1,-0.002327353640137148,-0.0018153925701999316,-0.011538149620318565,0.011597782912528786,0.9869227838246601
2015-04-30,-1,-0.004031860992948326,-0.0033365226188584074,-0.006903838868371546,0.011597782912528786,0.9879903359410536
2015-05-04,-1,-0.0025113408693383946,-0.0020400036229085055,-0.006903838868371546,0.007480919726437416,0.9898789145377002
2015-05-06,-1,-0.0033076641315146196,-0.0027088496530736916,-0.006808159040001668,0.008217242418509322,0.9898208855394824
2015-05-08,-1,-0.002037334745757456,-0.0015695519479217255,-0.00731439356107456,0.003945227490611042,0.9911739410785613
2015-05-12,-1,-0.002243278307721231,-0.0017191159531149381,-0.00731439356107456,0.004190668387968344,0.9910917371296505
2015-05-14,-1,-0.002352698762959015,-0.001906656978836739,-0.0054103255554981515,0.004190668387968344,0.9916616378193659
2015-05-18,-1,-0.0017034203384243183,-0.0013586158293084382,-0.0054103255554981515,0.0034578280276002264,0.9919877574407729
2015-05-20,-1,-0.003023586107398661,-0.0025097559169961516,-0.002592531518598699,0.004869584332079247,0.9937819662527889
2015-05-22,-1,-0.00202793949001625,-0.0016642909568026487,-0.0026651426283192457,0.004218759202371303,0.9947817151718834
2015-05-27,-1,-0.0012501308099158296,-0.0009886130855663927,-0.00411094980045298,0.004218759202371303,0.9952522240093128
2015-05-29,-1,-0.0028849485376804393,-0.002369073924887801,-0.005240779786626146,0.004218759202371303,0.9945183049353588
2015-06-02,-1,-0.0023131521549442247,-0.0019350078091690853,-0.007255383225538079,0.004218759202371303,0.9940190977095791
2015-06-04,-1,-0.0023427995802047233,-0.001978669105192828,-0.00753178073773758,0.004072759862605073,0.9941246465435292
2015-06-08,-1,-0.00345963782073284,-0.002941518369264186,-0.00690128385739397,0.004218759202371303,0.9935369201473226
2015-06-10,-1,-0.003573630141853861,-0.002992994681208142,-0.00753178073773758,0.004218759202371303,0.9932554732526298
2015-06-12,-1,-0.003711113415660527,-0.003122042597105355,-0.00753178073773758,0.004965785220116662,0.9921966066488692
2015-06-16,-1,-0.002295095344878677,-0.001975836617047804,-0.00753178073773758,0.004965785220116662,0.9925905497610827
2015-06-18,-1,-0.0016030706357131436,-0.0013747988087493162,-0.008096354551259463,0.004317344112306199,0.9927825944521358
2015-06-22,-1,-0.0021317622969903413,-0.0018101240647558213,-0.008784301832741448,0.004126270672996988,0.9925399507870092
2015-06-24,-1,-0.0028088265877867238,-0.0023616618588518643,-0.008784301832741448,0.004681790498946179,0.9920239136568257
2015-06-26,-1,-0.003139674692853001,-0.0026964002222719897,-0.008096354551259463,0.004681790498946179,0.9924938399068937
2015-06-30,-1,-0.003279755248256704,-0.0028862430973517214,-0.006980159958366089,0.008357936664091117,0.9917713978007825
2015-07-02,-1,-0.0034947859711923976,-0.0030614538004952105,-0.005172375139290789,0.008357936664091117,0.991544770072423
2015-07-07,-1,-0.0026603718310077196,-0.002322545720604846,-0.0051076911331917815,0.0072870986942985706,0.9923360118746591
2015-07-09,-1,-0.0027130007374523398,-0.0024023620803104296,-0.0051076911331917815,0.007536380755496962,0.9924193971231625
2015-07-13,-1,-0.0016432325502386868,-0.0014737010024090317,-0.0051076911331917815,0.006712936525988018,0.9934439608965421
2015-07-15,-1,-0.0013049525802675413,-0.0012017285511865777,-0.006483639784391844,0.006712936525988018,0.9933217796366979
2015-07-17,-1,-0.000860530834075089,-0.0008457459412841897,-0.005106289322172449,0.009105782847686292,0.991486235227558
2015-07-21,-1,-0.001661268595576868,-0.0015405048607593623,-0.0021019892747331835,0.009105782847686292,0.9912838201705984
2015-07-23,-1,-0.0004362940621443596,-0.0003944647666740329,-0.0032376522761902926,0.009105782847686292,0.9910298371341084
2015-07-27,-1,-0.0021189544538996663,-0.0019358926995047727,-0.006483639784391844,0.009105782847686292,0.9877887706690591
2015-07-29,-1,-0.00021439088391489892,-0.00017614226531686967,-0.007117831513962504,0.007678227293230897,0.9872826741698835
2015-07-31,1,0.0003484405676448248,0.00039621737949807243,-0.008876628659913779,0.007678227293230897,0.9871512005583369
2015-08-04,1,0.0008056872751375952,0.0009792436176368118,-0.010756119787491221,0.008901307301181717,0.9863579049447898
2015-08-06,1,0.0008081249836424479,0.0010631936500510573,-0.010624958043904512,0.01104865776144258,0.9863606500783175
2015-08-10,1,0.0009451511581457189,0.0010511545219168104,-0.016704143006225712,0.01410106442361669,0.9844160110078709
2015-08-12,1,0.000716386288192315,0.000897766366492273,-0.017688418715652982,0.01410106442361669,0.9838994041216053
2015-08-14,1,0.002978949632452636,0.0034539567579473947,-0.017688418715652982,0.010358171620331333,0.9850900446522491
2015-08-18,1,0.0034232063075220814,0.0038408085709457232,-0.017688418715652982,0.012511026251201974,0.9842731882032643
2015-08-20,1,0.003320825015559795,0.003851134637172065,-0.018940853085059897,0.010358171620331333,0.9841478916640027
2015-08-24,1,0.0034684011520067994,0.003967688246822271,-0.014349924120386376,0.01262119539442806,0.9861142715062299
2015-08-26,1,0.0032341791298466367,0.0037733834678043005,-0.009965199469831357,0.010358171620331333,0.9878769419514609
2015-08-28,1,0.00038076032737470954,0.0005368029193465788,-0.014349924120386376,0.010358171620331333,0.9873064815670439
2015-09-01,1,0.0008994053508165948,0.0010184775511050523,-0.008585991382691558,0.012460721977455048,0.9869875199102967
2015-09-03,1,0.0014026027503514676,0.0015647600626157506,-0.008585991382691558,0.010884353257465326,0.9870667966680178
2015-09-08,1,0.001388566652811323,0.0015494297952986175,-0.007265795630351249,0.010884353257465326,0.9876059663414617
2015-09-10,1,0.00042438408058632216,0.0004308678418324444,-0.005992774767745565,0.014199740305830044,0.9871912380645756
2015-09-14,1,0.0006131144187852302,0.0006506758870937889,-0.004142827472365966,0.014199740305830044,0.9877434145434169
2015-09-16,1,0.001602076339647394,0.0017680097377888422,-0.00890609860018817,0.009476939120065312,0.9880037606379819
2015-09-18,1,0.0006437585197478059,0.000646905974939284,-0.006264606435565002,0.0095064877041986,0.9892323659610646
2015-09-22,1,0.00016089985746214636,0.0002957500728565331,-0.006253013059534967,0.008583406338313754,0.990007671423883
2015-09-24,1,0.0013439641118885405,0.0014200838502731112,-0.006253013059534967,0.009104764708927973,0.9899879498975571
2015-09-28,1,0.0008436397110017674,0.0008512513360440829,-0.002650295888571968,0.009104764708927973,0.9906375461064703
2015-09-30,1,0.002150482487832038,0.0023713833021935565,-0.003244263911956786,0.008583406338313754,0.992343840857713
2015-10-02,1,0.002677750221694574,0.00297437679746477,-0.003528527005539638,0.008437977826184738,0.9926874039608927
2015-10-06,1,0.0027124575532985885,0.002984304897117002,-0.0017421338705735253,0.008327296367953593,0.9939479338817381
2015-10-08,1,0.003596741246116704,0.003999823896679218,-0.003528527005539638,0.0065508686217283195,0.9939137547929948
2015-10-12,1,0.0032215287020836815,0.003515011225455823,-0.008082554420315222,0.006434190888727112,0.992810712309734
2015-10-14,1,0.00265120553738645,0.0028964760964797147,-0.006493668434943674,0.006998216577717293,0.9927722741127273
2015-10-16,1,0.002984545717556215,0.0032923903238319925,-0.008082554420315222,0.006969984814566905,0.9908479591921489
2015-10-20,1,0.003104545171526213,0.0034061723168459005,-0.006541305725569476,0.008208990435106853,0.9900567894969697
2015-10-22,1,0.003196215039380857,0.003514830880182046,-0.006541305725569476,0.008208990435106853,0.9901142071764247
2015-10-26,1,0.003426048385543878,0.003772579646316209,-0.006541305725569476,0.00945549856416833,0.988588744838316
2015-10-28,1,0.002811172554755534,0.0030286136239996196,-0.003014777440624389,0.01001270231135262,0.9889837849824341
2015-10-30,1,0.0025509095807951234,0.0027478451399358802,-0.006876967529845502,0.01001270231135262,0.9884696805885833
2015-11-03,1,0.0024098043961177486,0.0025822185614574463,-0.009866329625736537,0.01001270231135262,0.9877573447885063
2015-11-05,1,0.0022413740985428162,0.0024026779951079754,-0.009866329625736537,0.013131052734968951,0.9867972432472226
2015-11-09,1,0.0017260279551633915,0.0018296721847350643,-0.005421000296561141,0.013131052734968951,0.9872682965561014
2015-11-11,1,0.0017971070827286924,0.0019137621631675384,-0.005421000296561141,0.010032970580436562,0.9881844524211076
2015-11-13,1,0.0009514295765921351,0.000958585156453331,-0.005421000296561141,0.010032970580436562,0.9890401832302324
2015-11-17,1,0.001150702244612573,0.0011679245742059565,-0.009654604579666926,0.009397668283491423,0.9895718885581468
2015-11-19,1,0.0008639973668018843,0.0009799257765225802,-0.01144190209162069,0.009397668283491423,0.9885649960797399
2015-11-23,1,0.0024513739660155503,0.002518577188863173,-0.01144190209162069,0.008746868543933653,0.9897163147633171
2015-11-25,1,0.002838614057704042,0.002974920729640722,-0.01144190209162069,0.008753624633628299,0.9894482024333301
2015-11-30,1,0.0024157259628822332,0.0024880561342274466,-0.01144190209162069,0.009124448717952255,0.9900466250384483
2015-12-02,1,0.002422813243639142,0.0025256122982199834,-0.011372726849131758,0.009124448717952255,0.9899879504725263
2015-12-04,1,0.002337835514993457,0.0024191966200934685,-0.010163261767528273,0.008655795355420597,0.9912044426528644
2015-12-08,1,0.0022407114103584055,0.00228860907751427,-0.01351507200721108,0.004837055457760841,0.9894430516074406
2015-12-10,1,0.0009868283216008748,0.0011433410349897082,-0.013920766106029034,0.008655795355420597,0.9884057520404045
2015-12-14,1,0.001123979750570951,0.0012324179291588893,-0.014152635516767976,0.008344949460375995,0.9869007782961922
2015-12-16,1,0.0009099260553322663,0.001050992650375286,-0.014152635516767976,0.0047334401594126396,0.9874702400377608
2015-12-18,1,0.00021124226725909186,0.00037583142546925957,-0.013997833994371562,0.007138881112292905,0.9877160481334203
2015-12-22,1,0.0008731879786498642,0.0009577315749620437,-0.013997833994371562,0.008344949460375995,0.9867857523230239
2015-12-24,1,0.0013555892059399868,0.0013711505305530752,-0.013997833994371562,0.007138881112292905,0.9868580484316766
2015-12-29,1,0.0015116934835029746,0.0015187041113458232,-0.013997833994371562,0.0032972352545025145,0.9865397300366543
2015-12-31,1,0.000752858983948278,0.0008440824953217423,-0.013997833994371562,0.00957699104509534,0.9852599111171546
2016-01-05,1,0.0003711522635848444,0.0005376321056325087,-0.017354656584105232,0.00957699104509534,0.9823486241431043
2016-01-07,-1,-0.00032024186280691264,-0.00019419154046266038,-0.013997833994371562,0.00957699104509534,0.9826935284989345
2016-01-11,1,6.328675042512765e-05,0.00013578242657154052,-0.014872771554191345,0.008448649816889864,0.9825545103877217
2016-01-13,-1,-0.0009135154933453214,-0.0007381399758155038,-0.011444391652294075,0.008367485113289094,0.9847374313604744
2016-01-15,-1,-0.0030358669303324117,-0.0025656123661884724,-0.010445226953147903,0.014721716535245444,0.982284338405547
2016-01-20,-1,-0.003248593512867097,-0.002759257680606982,-0.008958657377740608,0.014721716535245444,0.9829624310250472
2016-01-22,-1,-0.0020246099130860696,-0.001668671848921422,-0.008958657377740608,0.012326119100509621,0.983476362199796
2016-01-26,-1,-0.0028753727408384845,-0.0023887825943774664,-0.010445226953147903,0.012326119100509621,0.9823425512848836
2016-01-28,-1,-0.0026355874906532134,-0.002196277902468814,-0.010445226953147903,0.012326119100509621,0.9820505931455952
2016-02-01,-1,-0.0005406737378282056,-0.0003448351624763576,-0.0138043465072554,0.010906205493892075,0.9826590766720911
2016-02-03,-1,-0.003844011593829572,-0.0032249178416139347,-0.005663916717570912,0.011899489150665968,0.9845338617223371
2016-02-05,-1,-0.004718655194199979,-0.004002659576110026,-0.002081674990906779,0.011899489150665968,0.9850556477218517
2016-02-09,-1,-0.004995529506740676,-0.004307719610399868,-0.001545292766415918,0.011899489150665968,0.9864724370367154
2016-02-11,-1,-0.006037445968996403,-0.00518055519529372,5.008859591477412e-05,0.01258474272751763,0.98481436329307
2016-02-16,-1,-0.003277400921241439,-0.00275609643997056,5.008859591477412e-05,0.010906205493892075,0.9890968407027046
2016-02-18,-1,-0.0031775378758367233,-0.0026660890492000875,0.0010553551203446993,0.010906205493892075,0.9888347530333929
2016-02-22,-1,-0.002585156492741789,-0.0021043669344945615,0.0010553551203446993,0.009627709187804243,0.9897464199572056
2016-02-24,-1,-0.002401422762211895,-0.001987545327987047,0.0006428171141175889,0.008877134374289665,0.9911546203096346
2016-02-26,-1,-0.0013787394722859225,-0.0011211415548757057,0.0002656718565679485,0.008877134374289665,0.9919549546107067
2016-03-01,-1,-0.0009884560367246866,-0.0008019083317854185,0.0006428171141175889,0.008818521897861828,0.9935871349033445
2016-03-03,1,0.0003112926618297702,0.00033820119090335454,0.0002656718565679485,0.008818521897861828,0.9942862344576786
2016-03-07,1,0.0010374764249517577,0.0011818752701851253,-0.002008367779129929,0.008818521897861828,0.9946303773856606
2016-03-09,1,0.0005619339156526363,0.0005821612810367814,-0.0024757910964019044,0.008818521897861828,0.9940890643452248
2016-03-11,1,0.0013816692340600021,0.001532798270370455,-0.0036810590565790895,0.005792082320871416,0.9951386366603974
2016-03-15,1,0.001856807353122311,0.002069702023078619,-0.0036810590565790895,0.008055411321318111,0.9949176376550337
2016-03-17,1,0.0024279987867924747,0.002734585671125368,-0.0036810590565790895,0.008055411321318111,0.9947672985178644
2016-03-21,1,0.0031483965987055412,0.003570044138510575,-0.00409770873610194,0.0053984755727415484,0.994264959859038
2016-03-23,1,0.0027960609369451885,0.003162881165330588,-0.00409770873610194,0.0053984755727415484,0.99430467603398
2016-03-28,1,0.0027872752490711353,0.003138229972990584,-0.00409770873610194,0.0053984755727415484,0.9943999394475795
2016-03-30,1,0.003286709226196149,0.003702962633434107,-0.00409770873610194,0.004105412278248472,0.9942127098362114
2016-04-01,1,0.0032654546974240327,0.003666031915235547,-0.004198962929631235,0.004105412278248472,0.9934777261473325
2016-04-05,1,0.0023648680565388847,0.002596218307945336,-0.004597006937882901,0.004105412278248472,0.9940411010152017
2016-04-07,1,0.002015127978471479,0.0022016168136719115,-0.004597006937882901,0.004105412278248472,0.9941675838483828
2016-04-11,1,0.0012546758293836271,0.0012720454996632343,-0.002977263141432666,0.005922042944652617,0.9941862770972998
2016-04-13,1,0.002362407736859427,0.002629930212165794,-0.005905763539687567,0.0043093630923390835,0.9930239820269288
2016-04-15,1,0.002715360208865056,0.003047366948857646,-0.005905763539687567,0.0036882071548577744,0.9931231341124066
2016-04-19,1,0.003143982316065938,0.0036317505925191657,-0.005905763539687567,0.0043093630923390835,0.9920141085908043
2016-04-21,1,0.0029393022575604686,0.0034276015877317484,-0.005291178074298682,0.008181921709994697,0.990671852821386
2016-04-25,1,0.0028648532719096676,0.0033149545672099935,-0.006510454898400333,0.008181921709994697,0.9898209122815995
2016-04-27,1,0.003115070971616718,0.0035888357244691855,-0.006510454898400333,0.008581302896746097,0.9897898890089362
2016-04-29,1,0.0027956645481689866,0.0032360828953712966,-0.005291178074298682,0.0063064832069231296,0.991123822824273
2016-05-03,1,0.002733648885822112,0.003177202421329557,-0.0033466286997115976,0.0063064832069231296,0.9912825731593187
2016-05-05,1,0.0021717948224803762,0.002511604871594873,-0.0033466286997115976,0.006892270459078641,0.9910844994088175
2016-05-09,1,0.0023511499210983216,0.0026930882905417675,-0.006200998041648097,0.010415324906682105,0.989683926625758
2016-05-11,1,0.002070181847515288,0.002391121055258792,-0.005953743642358373,0.006892270459078641,0.9908312921692718
2016-05-13,1,0.001424113784291507,0.0015978327074244758,-0.00854501218798159,0.006892270459078641,0.9902819502736445
2016-05-17,1,0.0021908611642921048,0.0024964744487831923,-0.00854501218798159,0.006892270459078641,0.9906638952189498
2016-05-19,1,0.004165476453569969,0.004760872465672432,-0.00854501218798159,0.004729671616245045,0.9915588685015803
2016-05-23,1,0.0039007334958998906,0.004488676036893307,-0.005506503309483485,0.004729671616245045,0.9922420670357923
2016-05-25,1,0.004018373906470351,0.004589617937386381,-0.005506503309483485,0.002905486117573493,0.9921216383052636
2016-05-27,1,0.003964732548074448,0.004516589811595945,-0.009365801391497015,0.002905486117573493,0.9904847711764535
2016-06-01,1,0.00299955868817338,0.003328926551978994,-0.009365801391497015,0.003924735038685271,0.9901539247990951
2016-06-03,1,0.0028867679345918377,0.0032148228724933675,-0.008624038193627843,0.00722808672756561,0.9901201367540297
2016-06-07,1,0.001827457615777346,0.0019261484549700277,-0.005506503309483485,0.006182550508166838,0.9913559322988966
2016-06-09,1,0.0009851799166076492,0.0010499514588920677,-0.0037391447715798623,0.009481675534336383,0.9907869517753841
2016-06-13,0,-6.579680799397329e-05,0.00015396917233599693,-0.0025230426081179003,0.009481675534336383,0.9911167645451703
2016-06-15,1,0.0005780962856523701,0.0006537763396617857,-0.0025230426081179003,0.006518058575539798,0.9917135820703843
2016-06-17,1,0.000908503599186814,0.0009658050924545747,-0.0033462205635098213,0.005659680056456575,0.9921618147577349
2016-06-21,1,0.0004169728823314228,0.0005602020362069501,-0.003995339908883962,0.005659680056456575,0.9919126023385765
2016-06-23,1,0.0015502484060641347,0.001641125121873593,-0.00572652821457887,0.005968599512498175,0.9911718150742969
2016-06-27,-1,-0.0012484778459416024,-0.0008627368095070933,-0.0027994469203652243,0.005968599512498175,0.9920058249114826
2016-06-29,-1,-0.0011834567488194806,-0.0007611210654037573,-0.0028596322313463435,0.005968599512498175,0.9922183347755086
2016-07-01,-1,-0.0009486686883946431,-0.0005086075373961494,-0.0028596322313463435,0.005659680056456575,0.9934361515292974
2016-07-06,-1,-0.001222731578653608,-0.0007134912583784004,-0.003808349651490752,0.005048875728966382,0.9936919601802244
2016-07-08,1,0.0008210695603004692,0.0009539671887320281,-0.004498227127954053,0.004558444667384644,0.9940782430453857
2016-07-12,1,0.0010043196020737112,0.0011150351576835428,-0.004498227127954053,0.003349750103686916,0.9939464285216799
2016-07-14,1,0.0009922799271459772,0.0010738773607141022,-0.004204455862927658,0.003349750103686916,0.9944001940344472
2016-07-18,1,0.00040505284935902174,0.0005383821900132977,-0.003808349651490752,0.002064836519880784,0.9948536111082202
2016-07-20,1,3.239759518591513e-05,0.00018390718812113827,-0.003808349651490752,0.002064836519880784,0.9925160856798654
2016-07-22,1,0.00019296025197089954,0.00034038837781241374,-0.003808349651490752,0.002064836519880784,0.9922650684457578
2016-07-26,1,0.0004999722674280604,0.0005988080327077329,-0.004204455862927658,0.0007944129307261896,0.9919994880533529
2016-07-28,1,0.0008979466859524155,0.0009386414693357743,-0.004405319226939673,0.0007944129307261896,0.992356450103712
2016-08-01,1,0.0008235055836332385,0.000876681293337222,-0.004782645066547985,0.001921180223271556,0.9919157723255342
2016-08-03,1,0.0009233259671563188,0.0009447447911539353,-0.0060925719817430555,0.001921180223271556,0.9916470061402571
2016-08-05,1,0.0009269898889917513,0.0009347403215481243,-0.004782645066547985,0.001921180223271556,0.9923525154404876
2016-08-09,1,0.0008323078409206289,0.0008326363489871884,-0.0069473503564171195,0.001921180223271556,0.991640685727637
2016-08-11,1,0.0010405910567343694,0.001083491209716433,-0.007632557988960951,0.0004340282370560081,0.98964750171096
2016-08-15,1,0.000862941628033344,0.0008642403658603345,-0.00911091241159992,0.0010073269564814555,0.9884466947627891
2016-08-17,-1,-0.00037960841777377714,-0.00023585559430854718,-0.007632557988960951,0.0029138701008106886,0.9916046139100655
2016-08-19,1,0.0002889386916961186,0.000333619628810393,-0.007632557988960951,0.0029138701008106886,0.9921271598799568
2016-08-23,1,0.0001681370912451526,0.0002179657176150799,-0.007632557988960951,0.003999308434280006,0.9920230655107511
2016-08-25,1,1.7632463734844263e-05,9.889401664241689e-05,-0.007632557988960951,0.0036672551087457515,0.9923964500284691
2016-08-29,-1,-0.0003147125885391529,-0.00018164314960586914,-0.00911091241159992,0.004077844615873566,0.9914127668760048
2016-08-31,-1,-0.0007494135078144883,-0.0005592182542310966,-0.008710265630795496,0.004077844615873566,0.9913797090473341
2016-09-02,-1,-0.00032830805529191826,-0.000216688614954053,-0.008710265630795496,0.003663742957869465,0.9916746017655733
2016-09-07,-1,-0.0007378549370527991,-0.0005878533208667361,-0.005333736648805335,0.004077844615873566,0.9918308887022947
2016-09-09,-1,-0.002083231289841664,-0.0017467287875201323,-0.002923034929776972,0.004077844615873566,0.9931932477207086
2016-09-13,-1,-0.0026140661966538603,-0.0022031399758233334,-0.004733364619833421,0.003663742957869465,0.9938777029394744
2016-09-15,-1,-0.002535385947156159,-0.002137887946402069,-0.004733364619833421,0.004077844615873566,0.9932865529789962
2016-09-19,-1,-0.0022958998440099935,-0.0019375515880680281,-0.005018712225352667,0.003663742957869465,0.9927118110895019
2016-09-21,-1,-0.0021531900735250677,-0.0017980477649747121,-0.006955836683474187,0.0036561122771967105,0.9928101432028583
2016-09-23,-1,-0.002101127829682731,-0.0017471251269031826,-0.006955836683474187,0.003864203500550118,0.992271666667248
2016-09-27,-1,-0.002651250347089096,-0.0022284803624554473,-0.006955836683474187,0.003864203500550118,0.9917844237081573
2016-09-29,-1,-0.0024571697958072664,-0.0020860500793710777,-0.009680114126374746,0.003864203500550118,0.9916531995386892
2016-10-03,-1,-0.0025632870123540874,-0.00216451145596703,-0.009680114126374746,0.003864203500550118,0.9918373240984749
2016-10-05,-1,-0.002610437544062364,-0.0022019793863267715,-0.011318742132782035,0.003864203500550118,0.991049269174018
2016-10-07,-1,-0.002612416861351702,-0.002207914316988918,-0.010040424767080388,0.003864203500550118,0.9912041839737594
2016-10-11,-1,-0.002235575369077309,-0.0019586685993790076,-0.006998974835099836,0.0044009909163291675,0.9907066753263587
2016-10-13,-1,-0.0020040376441815685,-0.001720990778357978,-0.006998974835099836,0.006221769474387535,0.9896051943002812
2016-10-17,-1,-0.0023753919470850295,-0.0020751948699480817,-0.0058136211359933725,0.006221769474387535,0.990087205625953
2016-10-19,-1,-0.0024189984116943924,-0.0021312605072970735,-0.008113551079386687,0.006221769474387535,0.9888229841740505
2016-10-21,-1,-0.001697916706303152,-0.0014673002217966387,-0.008113551079386687,0.013949933570817696,0.987914583222535
2016-10-25,-1,-0.0022626742817069543,-0.0019571503482664894,-0.0058136211359933725,0.014325891501792282,0.9880743954617605
2016-10-27,-1,-0.002909340289911473,-0.0025450768950993127,-0.005246628407410815,0.014325891501792282,0.9879422669070189
2016-10-31,-1,-0.0033398891890985757,-0.0029076329974192603,-0.006405970941559844,0.014325891501792282,0.9873013880761784
2016-11-02,-1,-0.003552394234215331,-0.003074314745042071,-0.005391187029034337,0.014105470903848415,0.9881638781042146
2016-11-04,-1,-0.003560249534053394,-0.0030862358234053314,-0.003258854742222923,0.01494858663979158,0.986947472315328
2016-11-08,-1,-0.002765506425066261,-0.0024057375278502737,-0.0023851827338056027,0.016175294502221913,0.9855032966279827
2016-11-10,-1,-0.0015483664034940383,-0.0013326529300763674,-0.006988964794621874,0.008252923607453354,0.9870496794580531
2016-11-14,-1,-0.0011369289615459528,-0.0009734999016900664,-0.006988964794621874,0.008252923607453354,0.9873804873852302
2016-11-16,-1,-0.0024163462924103227,-0.002066592691763529,-0.003784954916307882,0.008252923607453354,0.9884466731085391
2016-11-18,-1,-0.00046119103671507283,-0.0003734352738614015,-0.006988964794621874,0.005162949114779516,0.9899242988152088
2016-11-22,1,0.001404532740238196,0.0016126110604127413,-0.006988964794621874,0.005162949114779516,0.9904829545396463
2016-11-25,1,0.0020937125603596746,0.0024066206988859577,-0.009659341185205315,0.002619289540378523,0.9890464876864004
2016-11-29,1,0.0018989846207718487,0.0022346273346756586,-0.009262536026972431,0.002619289540378523,0.9896717839464002
2016-12-01,1,0.002394375991658343,0.0028231060833550327,-0.009262536026972431,0.0015912732469151678,0.9892774843643496
2016-12-05,1,0.0030641118185999495,0.0035648927417719868,-0.009262536026972431,-3.7347059509683714e-05,0.9889586079675966
2016-12-07,1,0.004656081757305591,0.0053628667819400015,-0.009659341185205315,-0.0008632024247795477,0.9895152002618033
2016-12-09,1,0.003852511650783373,0.004438345756376446,-0.009262536026972431,0.0015443823793474594,0.9914538120331949
2016-12-13,1,0.003759596593536952,0.004316996978042033,-0.009262536026972431,0.0015443823793474594,0.9918130097371363
2016-12-15,1,0.0033892495207609894,0.003906589407556766,-0.004694644882089354,0.0022743461728134337,0.9928757866904211
2016-12-19,1,0.003322941003746001,0.0038596442413839764,-0.004694644882089354,0.0031085207599259625,0.9928886974252135
2016-12-21,1,0.00412007872861184,0.004765604183215465,-0.004694644882089354,0.0031085207599259625,0.9928948535166588
2016-12-23,1,0.0033502096264253966,0.003887630905516239,-0.0031162216793460943,0.003513456276425766,0.9934457114857167
2016-12-28,1,0.0030237884942763476,0.0035137453727484653,-0.002563739301131975,0.003513456276425766,0.9942276096293808
2016-12-30,1,0.002669295001826555,0.0031018651531178306,-0.0018639880142256743,0.004399095735690408,0.9944440030964161
2017-01-04,1,0.0031531687474163073,0.003659342240724217,-0.005811599548951385,0.003482957057106944,0.993882524355763
2017-01-06,1,0.0026182400500722918,0.0030495531105341513,-0.005811599548951385,0.004399095735690408,0.9936179044013502
2017-01-10,1,0.0019748603164933608,0.002288370622174837,-0.005811599548951385,0.004399095735690408,0.9933080050701079
2017-01-12,1,0.0023758029171831226,0.0027717471795822516,-0.005811599548951385,0.006478767503517597,0.9927487994615724
2017-01-17,1,0.0025895664033872756,0.003004949095643611,-0.005811599548951385,0.007344732629284841,0.9917712612678019
2017-01-19,1,0.002345309776105986,0.0027369454507197685,-0.005811599548951385,0.012296945218889091,0.9914652411591517
2017-01-23,1,0.002755775510490454,0.0031935407854021417,-0.005811599548951385,0.008711098349963602,0.9915867015092761
2017-01-25,1,0.0027614841060190154,0.003180060733244873,-0.006033976033205493,0.006149450339643011,0.9919386001909907
2017-01-27,1,0.00291406594159978,0.003366491480221095,-0.006033976033205493,0.006149450339643011,0.992019925934111
2017-01-31,1,0.0024370828597432034,0.0027244262520007743,-0.006286741245093666,0.008711098349963602,0.9864704680100587
2017-02-02,1,0.001110039705415514,0.0011264361704291024,-0.006286741245093666,0.015109100405436041,0.9856531786148514
2017-02-06,1,0.0010715659243567615,0.0011186323267118785,-0.006286741245093666,0.008711098349963602,0.9864135998485228
2017-02-08,1,0.000723701526202145,0.0008182284752134674,-0.006286741245093666,0.008711098349963602,0.9864048562802519
2017-02-10,1,0.0012670217815688683,0.0013008819989361957,-0.006286741245093666,0.006207529259297548,0.987070302599334
2017-02-14,1,0.0018975393727101901,0.0019558758370022437,-0.006286741245093666,0.006207529259297548,0.9875106397762273
2017-02-16,1,0.001873607018479497,0.0019279052425575133,-0.0031225589430340173,0.005642696510745848,0.9884363530934271
2017-02-21,1,0.0018707661852097979,0.00190669151399375,-0.006388991965834061,0.0045724333748932006,0.9877056164776322
2017-02-23,1,0.0014658755580886776,0.001486508785497109,-0.0029716628547290604,0.005100636190716999,0.9886054938436708
2017-02-27,1,0.0018019542662721121,0.0018240483847206859,-0.005892863984388512,0.005100636190716999,0.988121915212533
2017-03-01,1,0.0019410096174908434,0.0019753159583373093,-0.003488526661574888,0.005100636190716999,0.9934701824100365
2017-03-03,1,0.0019763635983106346,0.002038660149587415,-0.0024570984370538866,0.0045724333748932006,0.9946980496127596
2017-03-07,1,0.0010930003376649552,0.0011704866247700628,-0.0024570984370538866,0.0045724333748932006,0.9950952026227319
2017-03-09,1,0.0012694978572399154,0.001312606554397533,-0.0024570984370538866,0.004319322786841988,0.9952411611444635
2017-03-13,1,0.0007078311814998888,0.0008692982181868912,-0.0024570984370538866,0.00386581398042899,0.9954384723915145
2017-03-15,1,0.001021420799467608,0.001158482923721788,-0.003488526661574888,0.0024076301839797308,0.9958961530848717
2017-03-17,1,0.0011304998279762953,0.001234290876954774,-0.005287510380621793,0.0024076301839797308,0.9950323487338347
2017-03-21,0,-5.5537149377927705e-05,0.00021734224513157208,-0.0024570984370538866,0.0024995486428649153,0.9960981958765541
2017-03-23,-1,-0.0004220671417392021,-6.113248591225204e-05,-0.0024570984370538866,0.0024995486428649153,0.9955574768305359
2017-03-27,-1,-0.0010486503962281555,-0.0005923973482265484,-0.0017954186217367899,0.0041016548599426585,0.9952880052009611
2017-03-29,-1,-0.0010315130278102267,-0.0005744938505375975,-0.001246358048018847,0.0041016548599426585,0.9953764644650868
2017-03-31,-1,-0.0013619978486511112,-0.0008531864560378281,-0.0026943145459862546,0.0041016548599426585,0.9950085804408375
2017-04-04,-1,-0.0017164783932371943,-0.0011745045502181129,-0.0005170991616411268,0.005312661837699709,0.9942997715146215
2017-04-06,-1,-0.0014357655748853274,-0.0009602132618581067,-0.0015660786415204856,0.007365859816334334,0.9943500326545412
2017-04-10,-1,-0.0012524906775381508,-0.000811809718291222,-0.001714506392929499,0.007365859816334334,0.9947034268552235
2017-04-12,-1,-0.0015112662457305661,-0.0010491900082814562,-0.001714506392929499,0.007365859816334334,0.9940557084420156
2017-04-17,-1,-0.0008094844936384191,-0.0004913946731917609,-0.0015660786415204856,0.005028094129109902,0.9948448030302676
2017-04-19,-1,-0.0003727926122501975,-0.00015864507998144596,-0.001575977773640522,0.005028094129109902,0.9941130976699116
2017-04-21,1,0.0005504719768307311,0.0006220644153444175,-0.001575977773640522,0.004877825111717528,0.9947187372583217
2017-04-25,1,0.000506757225169991,0.0006084858808323597,-0.004844023117915712,0.0037771472754605726,0.9939129381666795
2017-04-27,1,0.0008328666402527095,0.0008929300086051472,-0.005837157747537262,0.0037771472754605726,0.9918839018498858
2017-05-01,1,0.0006448063688977186,0.0006830064917526445,-0.008738474589020717,0.0037771472754605726,0.9912102031044683
2017-05-03,1,0.0018471786960997964,0.0020493754550854207,-0.009995378714620473,0.0037771472754605726,0.9902730160333488
2017-05-05,1,0.0016658054611044032,0.0018145321668689269,-0.011243168182972338,0.0027301187564199277,0.9899277975574876
2017-05-09,1,0.0014168861183619312,0.0015272318795583359,-0.012622869269265962,0.0027301187564199277,0.9890518592178684
2017-05-11,1,0.0009134411353358602,0.0009327381822105949,-0.010183146029358891,0.0037771472754605726,0.989284554294394
2017-05-15,1,0.0006931414060733027,0.0007142150173658334,-0.010183146029358891,0.005229789582106768,0.9889909361200413
2017-05-17,1,0.00048820311287397036,0.0004907145522208315,-0.00941726789738258,0.006779789541281826,0.9893818907131559
2017-05-19,1,0.00039228492748454843,0.00043808851816628684,-0.00941726789738258,0.008740101304900133,0.988721962450821
2017-05-23,-1,-0.00037895642873515725,-0.00022881935593700492,-0.00941726789738258,0.008740101304900133,0.9891126638976715
2017-05-25,1,0.0010526544387831594,0.0010538909993877826,-0.009819610956055054,0.005584912061802816,0.9890155035341096
2017-05-30,1,0.0008546432633107909,0.0008652380728002983,-0.00941726789738258,0.007954320134204048,0.9896984603616754
2017-06-01,1,0.001108481601614741,0.0011154444499780005,-0.00941726789738258,0.007954320134204048,0.990340153303304
2017-06-05,1,0.0009655939779598891,0.0009869422552971538,-0.008063920571246976,0.009133659277522103,0.9901270019124564
2017-06-07,1,0.00012396032643506848,0.0002392715564784131,-0.00825547909026723,0.009133659277522103,0.990224692290876
2017-06-09,1,0.00047684779274530405,0.0005483551916748486,-0.00825547909026723,0.008471264164746646,0.9903975751079979
2017-06-13,1,0.0006929853386214294,0.0007529760069621846,-0.009053120958340866,0.008471264164746646,0.9904019737537378
2017-06-15,1,0.000978990959390129,0.0009872693294901693,-0.009053120958340866,0.007554248078172822,0.9904770911037827
2017-06-19,1,0.001297242948822317,0.0013393516537714308,-0.009053120958340866,0.005476394538939341,0.9910011611313112
2017-06-21,1,0.0006152154061081405,0.0006576646640090872,-0.009053120958340866,0.007554248078172822,0.9891588336243331
2017-06-23,-1,-0.0007735626136059875,-0.0005541175325656771,-0.006045974849122048,0.008471264164746646,0.9900863812997716
2017-06-27,-1,-0.0008542276539770037,-0.0005948751067324911,-0.006045974849122048,0.009133659277522103,0.9895703827527232
2017-06-29,-1,-0.0005677665202042246,-0.00035349683048941434,-0.0063003760753188665,0.009925173326063842,0.9893214757958971
2017-07-03,1,0.00018377424219757693,0.0003212576263878558,-0.0063003760753188665,0.008347153884446235,0.9895564382332338
2017-07-06,1,6.845033377127132e-06,0.0001360282219210415,-0.00373880881270147,0.008347153884446235,0.9905442095700555
2017-07-10,1,0.00037803766589474956,0.0004343956773789301,-0.0019814007544532207,0.007637206160369226,0.9907920141385315
2017-07-12,1,0.0001915048090109803,0.00026694352132775414,-0.0019814007544532207,0.011597390673928497,0.9898030538255072
2017-07-14,1,0.00024401954379662982,0.00030070558298216554,-0.002015887043031304,0.011597390673928497,0.9893087020738824
2017-07-18,0,-2.0375859170720294e-05,8.635555243061149e-05,-0.002166829403493873,0.011597390673928497,0.9873348063569013
2017-07-20,-1,-0.0007149662585529227,-0.000538353049947951,-0.002166829403493873,0.0123780833355579,0.98888581889407
2017-07-24,-1,-0.0022418650206011874,-0.0019732426367852925,-0.006545323244114376,0.007472748414208693,0.989133532764934
2017-07-26,-1,-0.001634053877515803,-0.001454541519140518,-0.008608060611518397,0.007472748414208693,0.9874537734063018
2017-07-28,-1,-0.000528047329750776,-0.00043956523124019935,-0.008400180698926198,0.007013283401015768,0.9879286973428595
2017-08-01,1,0.00018336271248053422,0.00018424601913843806,-0.008400180698926198,0.005999190321108613,0.9883253610173263
2017-08-03,1,0.0002955069810485531,0.00031677490368912454,-0.008400180698926198,0.006166987758789255,0.9880490663446196
2017-08-07,1,0.0007358570990007126,0.0008526055354220284,-0.008400180698926198,0.010214950288297308,0.9873193876914774
2017-08-09,1,0.0007863946946765027,0.0009173940071537105,-0.005728049200241805,0.010214950288297308,0.9875324915483306
2017-08-11,1,6.796349024300842e-06,1.4653655703946089e-05,-0.005728049200241805,0.010546314430996155,0.9870837598521113
2017-08-15,-1,-0.0010129223131301684,-0.0009015321471811084,-0.005728049200241805,0.011945795434868975,0.9880865136930682
2017-08-17,-1,-0.001220674440136129,-0.0010700526351027798,-0.0056066240061988185,0.010546314430996155,0.9888684833845515
2017-08-21,-1,-0.0011765135299037905,-0.0010464096235506535,-0.0049266530213707225,0.010546314430996155,0.9891230573384424
2017-08-23,-1,-0.0012301773204866557,-0.0010943939546348477,-0.00426297223755886,0.010214950288297308,0.9917769533413647
2017-08-25,-1,-0.0010277612328385161,-0.0009040022815625452,-0.002763897399956837,0.010546314430996155,0.9916828736690287
2017-08-29,-1,-0.0008430746190614563,-0.0007495628705280207,-0.0011468890619339678,0.010546314430996155,0.9922571541946635
2017-08-31,-1,-0.0005111655802528074,-0.0004664154634392896,-0.0011468890619339678,0.010546314430996155,0.9922076957187895
2017-09-05,1,8.268759602358749e-05,9.944222104191965e-05,-0.0011468890619339678,0.008437828504213278,0.9926868640068023
2017-09-07,1,0.0008930438040848094,0.0010188980953072836,-0.0011468890619339678,0.008234791800626135,0.9937435992793991
2017-09-11,1,0.0007311227619060392,0.0008356721684840318,-0.0016788384926557727,0.0071251703691348756,0.9945214622453961
2017-09-13,1,0.0011961343056414281,0.0013938990094328114,-0.0016788384926557727,0.0063584828525849405,0.9954590254623973
2017-09-15,1,0.0014466956658114984,0.001701811771197078,-0.0009340015305203865,0.0063584828525849405,0.995656854225643
2017-09-19,1,0.0013493140179298806,0.0016096878405503826,-0.0008445961217153117,0.0063584828525849405,0.9952333504200269
2017-09-21,1,0.00140606774822224,0.0016537334328679248,-0.0011977347348269673,0.006562570342481424,0.9948939913028237
2017-09-25,1,0.0021743913756862793,0.002551402158948216,-0.002209069334982202,0.006235499421142604,0.9945705342688448
2017-09-27,1,0.002275604479014714,0.002676708679885848,-0.002680630547288847,0.006562570342481424,0.9943225133185789
2017-09-29,1,0.0025134365378280685,0.0029408133603165782,-0.004544480618747734,0.006733506129420621,0.9936195550725391
2017-10-03,1,0.0028660706022302137,0.003315664741304628,-0.0056044109990274526,0.006496565506685486,0.9930797219060267
2017-10-05,1,0.0032451499589137823,0.003751369421639895,-0.008693314402480284,0.005076938916194948,0.9910550924574398
2017-10-09,1,0.0027434418321269326,0.0031558362385189064,-0.008693314402480284,0.006496565506685486,0.9906488300922486
2017-10-11,1,0.002672933264172219,0.003095597122627991,-0.0077298700404925084,0.006496565506685486,0.991122919031236
2017-10-13,1,0.0024088821990689738,0.0027376618968834613,-0.008488344214008441,0.006054046226158759,0.9908663598834154
