JNU-Tangyin/eata/results/Batch4_SP500/Batch4_SP500-AVY.csv
Date,Action,Predicted_Q25,Predicted_Q75,Actual_Q25,Actual_Q75,RL_Reward
2010-12-14,0,0.0,0.0,-0.003499116472246006,0.001932611422661121,0.9951101359949556
2010-12-16,0,0.0,0.0,-0.004307811057717486,0.001932611422661121,0.994621192810253
2010-12-20,0,0.0,0.0,-0.006083838785736486,0.0025828624877598716,0.9936057075449968
2010-12-22,0,0.0,0.0,-0.006083838785736486,0.0017637807418616576,0.9937064165133443
2010-12-27,0,0.0,0.0,-0.006083838785736486,0.003630098912093139,0.9932056409375115
2010-12-29,0,0.0,0.0,-0.005214635421146679,0.004169331601927755,0.9931439858330444
2010-12-31,1,0.0,0.0023674303007461903,-0.006925631722215761,0.007428231315249084,0.9924119881315598
2011-01-04,0,0.0,0.0,-0.007080038392589841,0.007428231315249084,0.9910982443936314
2011-01-06,0,0.0,0.0,-0.008100296620296332,0.007428231315249084,0.9892027621562482
2011-01-10,0,0.0,0.0,-0.008100296620296332,0.00806294845123549,0.9886146018747418
2011-01-12,0,0.0,0.0,-0.00872183032212442,0.00806294845123549,0.9883193868209
2011-01-14,0,0.0,0.0,-0.00872183032212442,0.00806294845123549,0.9885791189944644
2011-01-19,-1,-0.0004328503486381495,-0.00019380359564290445,-0.007287216293199204,0.009757474322279929,0.9893012205836844
2011-01-21,0,0.0,0.0,-0.007287216293199204,0.009757474322279929,0.9893480615387228
2011-01-25,0,0.0,0.0,-0.011214961065847724,0.008420582477754568,0.9877110778303532
2011-01-27,0,0.0,0.0,-0.011214961065847724,0.007308853399149802,0.9878771050013894
2011-01-31,1,8.854054639069334e-05,0.00029692248614924263,-0.00872183032212442,0.007308853399149802,0.9888197228239177
2011-02-02,-1,-0.0007376110288087125,-0.0004305072038098608,-0.004749950954744911,0.01141580301650386,0.9874677116287242
2011-02-04,-1,-0.002292875746693864,-0.001832096643495989,-0.0038889346762316108,0.01141580301650386,0.9893095121219584
2011-02-08,-1,-0.001852293596982703,-0.0014528960440775098,-0.0038889346762316108,0.01141580301650386,0.9897652270956036
2011-02-10,-1,-0.0009164908397141759,-0.0006919840893638422,-0.0038889346762316108,0.01141580301650386,0.9893622273930521
2011-02-14,-1,-0.0010055620019919353,-0.0007251582303554439,-0.005523049971745094,0.007811291942220048,0.989309224582513
2011-02-16,-1,-0.00034484877578999933,-0.00017135964768024803,-0.009438611555452878,0.006299891913436441,0.9888355319983595
2011-02-18,-1,-0.00015251641229856568,-1.7266432055435368e-05,-0.009438611555452878,0.014441991405579313,0.9871454941738789
2011-02-23,-1,-0.0012864807931599054,-0.0010475445017507424,-0.005274138915338169,0.014441991405579313,0.9888691259648961
2011-02-25,-1,-0.0014059960949692049,-0.0011422149493855328,-0.005274138915338169,0.014441991405579313,0.9891664654650234
2011-03-01,-1,-0.0006616287531408209,-0.0005241027334946751,-0.005867044923170019,0.00886720422866763,0.9896680329200721
2011-03-03,1,0.0009033240578569183,0.000972283263994764,-0.005867044923170019,0.0036827017130570965,0.9904620927126482
2011-03-07,1,0.00043606831514517077,0.0004382788260816762,-0.004305321041744322,0.004022293320508578,0.990919249138461
2011-03-09,1,0.0006219718596398838,0.0006379886550686756,-0.004305321041744322,0.004221192109832738,0.9908269413639391
2011-03-11,1,0.0007027178682936045,0.0007199127683480052,-0.004305321041744322,0.0030697701914004626,0.9919934239805628
2011-03-15,1,0.0004479275346416306,0.0004889778824143411,-0.004305321041744322,0.0030697701914004626,0.9920362322677486
2011-03-17,-1,-0.00031413700206267585,-0.00022809840708865473,-0.003938590449392522,0.0030697701914004626,0.9930958094976368
2011-03-21,1,0.0007028215206110523,0.0007543801267234217,-0.004725091573004266,0.0020468049295679458,0.9929644310780067
2011-03-23,-1,-0.0003483361483294515,-0.00021385647696473882,-0.003938590449392522,0.0030697701914004626,0.9928069357992823
2011-03-25,0,0.0,0.0,-0.003938590449392522,0.0030697701914004626,0.9927313022604103
2011-03-29,0,0.0,0.0,-0.002928094942279129,0.004221192109832738,0.9913412587366904
2011-03-31,0,0.0,0.0,-0.005974011282626975,0.0030697701914004626,0.991270564528364
2011-04-04,0,0.0,0.0,-0.005974011282626975,0.004192748026883004,0.9908465835055001
2011-04-06,-1,-0.0006670663555959741,-0.0003572639539981612,-0.010180291123108039,0.003260359157594246,0.9907587089633856
2011-04-08,0,0.0,0.0,-0.005760454260812819,0.0072374509419180205,0.9905563627776633
2011-04-12,-1,-0.002018939535811317,-0.0015813821594777872,-0.005760454260812819,0.0072374509419180205,0.9905021850347372
2011-04-14,0,0.0,0.0,-0.010221026333431627,0.0072374509419180205,0.9902066729558523
2011-04-18,0,0.0,0.0,-0.004470111732859465,0.006028041255809244,0.991781572294173
2011-04-20,0,0.0,0.0,-0.004470111732859465,0.0072374509419180205,0.9917283961154387
2011-04-25,0,0.0,0.0,-0.011426406922721682,0.0072374509419180205,0.9901005578303556
2011-04-27,0,0.0,0.0,-0.011426406922721682,0.0072374509419180205,0.9911597147787682
2011-04-29,0,0.0,0.0,-0.005968964433657076,0.007607537742118212,0.9920795706595553
2011-05-03,1,6.25839963915454e-07,3.839436396004403e-05,-0.010221026333431627,0.007607537742118212,0.9908692283898172
2011-05-05,0,0.0,0.0,-0.011426406922721682,0.007607537742118212,0.9904078528525795
2011-05-09,1,0.0011014059682131361,0.0012544837465189606,-0.015810769162195523,0.006304780739898349,0.9868759616223888
2011-05-11,1,0.0011424474566171861,0.001324412409277799,-0.015810769162195523,0.007547416057021046,0.9869546583654322
2011-05-13,1,0.0007004458416110236,0.000821360113527206,-0.018046912853000866,0.008422309698761215,0.9864529129944499
2011-05-17,1,0.0008295161731476813,0.0009833877545517998,-0.021779917485693218,0.008930115190013466,0.9849422491368189
2011-05-19,1,0.0014188258392064074,0.001651165559823981,-0.021779917485693218,0.008799059523898997,0.9850153325317182
2011-05-23,1,0.00019074264088754563,0.00025977062266515955,-0.017469280295311126,0.008996391963028805,0.9859831116494289
2011-05-25,1,0.0003321302712247303,0.0004151856107555468,-0.017469280295311126,0.009459438266652707,0.9853083638416925
2011-05-27,1,0.000593589798885232,0.0006900587713796355,-0.017469280295311126,0.008799059523898997,0.9848308319068034
2011-06-01,-1,-8.899470677093012e-05,-5.985021138487135e-05,-0.015768786082824116,0.008799059523898997,0.9858167593052377
2011-06-03,-1,-0.0011064524305792944,-0.0009524302307743119,-0.010525407593218072,0.010910498637942644,0.9857735925111233
2011-06-07,-1,-0.0038735258514727305,-0.003436635080691072,-0.008042885998233565,0.010910498637942644,0.9887441703519311
2011-06-09,-1,-0.003500599336618123,-0.003121996632081519,-0.009504366057625405,0.013560269335820774,0.9875266906768744
2011-06-13,-1,-0.00385100529579182,-0.0034140090256376135,-0.009504366057625405,0.013560269335820774,0.9880324644088544
2011-06-15,-1,-0.003995876431274447,-0.0035423459616936263,-0.005714485097705432,0.010910498637942644,0.9895724512049642
2011-06-17,-1,-0.003371437045238373,-0.0030174826743849894,-0.009504366057625405,0.010910498637942644,0.9892023949707268
2011-06-21,-1,-0.00199967719529254,-0.0018067778531505034,-0.011617354010796306,0.007565619157167894,0.9852275786159747
2011-06-23,-1,-0.0015690116713027134,-0.0014281544419619385,-0.011617354010796306,0.007905058999605774,0.9852199005319403
2011-06-27,0,0.0,0.0,-0.010674737619668213,0.007905058999605774,0.9854228720270769
2011-06-29,0,0.0,0.0,-0.011617354010796306,0.00661757445006674,0.9840678153458778
2011-07-01,0,0.0,0.0,-0.011617354010796306,0.0018975727127596717,0.9850753030668048
2011-07-06,0,0.0,0.0,-0.012809009763790031,0.0018975727127596717,0.9835276172426527
2011-07-08,-1,-0.0007570273263938559,-0.0006607021310260989,-0.015741725465957104,0.001512637078917978,0.9839567017689147
2011-07-12,-1,-0.0012359907008986598,-0.001098687708060124,-0.020051781389654046,0.004869277446246619,0.9790717350616086
2011-07-14,-1,-0.0011103032470407663,-0.000994777125357546,-0.033993139207496734,0.006126019422072807,0.9755891383050406
2011-07-18,-1,-0.0020606699662888994,-0.0017791363797181553,-0.033993139207496734,0.007569299613540614,0.9756716142639633
2011-07-20,-1,-0.003975270995197087,-0.0034757786150897583,-0.01945324468431506,0.0076927898688335635,0.9799041123868628
2011-07-22,-1,-0.003248291140723641,-0.0028512365475247188,-0.033993139207496734,0.005198125744069319,0.9791761253520674
2011-07-26,-1,-0.0029572613526865216,-0.0026602987219150553,-0.033993139207496734,0.0076927898688335635,0.9760420226739098
2011-07-28,-1,-0.004394900383158524,-0.003915754648985857,-0.029929202944506628,0.009703394419328262,0.9758922750089917
2011-08-01,-1,-0.0038256484016965173,-0.0034308111748655255,-0.029929202944506628,0.0204891040358507,0.9724638708968841
2011-08-03,-1,-0.004918069809199935,-0.004410330552809204,-0.018449064910433275,0.0204891040358507,0.9733234161491
2011-08-05,-1,-0.005871167888334659,-0.005240662475157921,-0.02626330384244986,0.0204891040358507,0.9722342042398201
2011-08-09,-1,-0.007647670918478514,-0.006783062021835996,-0.02626330384244986,0.021468791530228144,0.9746267322673927
2011-08-11,-1,-0.00650315461337911,-0.005832748868985934,-0.02626330384244986,0.014059935629745139,0.9762848482881774
2011-08-15,-1,-0.006256487331545513,-0.005618722408146629,-0.02626330384244986,0.019748612381203057,0.9764253484819603
2011-08-17,-1,-0.006440658811028918,-0.0057852519951420486,-0.02626330384244986,0.0240944614097496,0.9745926283719062
2011-08-19,-1,-0.0076552251757105805,-0.006865404283647014,-0.021672474299957965,0.0240944614097496,0.9755060750950967
2011-08-23,-1,-0.005704485444545444,-0.005179780624201321,-0.021672474299957965,0.023370331347726467,0.9770977787335373
2011-08-25,-1,-0.005664058994717819,-0.005170873235735532,-0.026442968812696456,0.023370331347726467,0.9761332588143486
2011-08-29,-1,-0.0028700818808184347,-0.002731086614404134,-0.026442968812696456,0.016259246377903186,0.9784606267431593
2011-08-31,-1,-0.0027948464245463487,-0.002653767786032699,-0.02699445769121917,0.023370331347726467,0.9765160642626608
2011-09-02,-1,-0.0050108189971356425,-0.004591469786886796,-0.030426844703163067,0.023370331347726467,0.9754445873064677
2011-09-07,-1,-0.004172861982529522,-0.00386868766234245,-0.027911854722008994,0.0240944614097496,0.9737074415587276
2011-09-09,-1,-0.006072198204830252,-0.005556030876156463,-0.017068224347628613,0.0240944614097496,0.9750149012859346
2011-09-13,-1,-0.004591036147310932,-0.004281883066364163,-0.017068224347628613,0.025099504063499613,0.9747919913456333
2011-09-15,-1,-0.002723656315833006,-0.002640821949449548,-0.017068224347628613,0.017481790284891774,0.9764176250610093
2011-09-19,-1,-0.001904468376465913,-0.0018088849019379939,-0.027911854722008994,0.024379457755595142,0.9735598257351097
2011-09-21,-1,-0.004110845510589806,-0.0038932277790673193,-0.027911854722008994,0.026437802395328457,0.9712650130990156
2011-09-23,-1,-0.0031426287458567936,-0.0030657554315969013,-0.016239707877184408,0.026437802395328457,0.972285229676446
2011-09-27,-1,-0.002475457554446317,-0.0024600263183028087,-0.028607917261532542,0.03111266553079859,0.9703383478967427
2011-09-29,-1,-0.0014811078462036308,-0.0013304443296465907,-0.033829063515624085,0.03246476788010623,0.9671866227808598
2011-10-03,-1,-0.004166254314711877,-0.0039758486723737285,-0.017365257957175383,0.03246476788010623,0.9694674819663501
2011-10-05,-1,-0.0005572880239505517,-0.00031360796860710764,-0.031238601406280524,0.024379457755595142,0.9717584850776213
2011-10-07,-1,-0.000771548722148427,-0.000541580520566977,-0.031238601406280524,0.026111377092798645,0.9704610681003836
2011-10-11,0,-5.506988450171193e-05,0.00031110724451648315,-0.031238601406280524,0.02549084026699807,0.9714985289931808
2011-10-13,1,6.055767015092687e-05,0.0003831788347615553,-0.033829063515624085,0.02549084026699807,0.9702404192761905
2011-10-17,-1,-0.0005417302451542767,-0.0002741795070087949,-0.031238601406280524,0.023474639814903907,0.972170581074579
2011-10-19,0,0.0,0.0,-0.024578717150965285,0.02006567559976831,0.9746647456404954
2011-10-21,0,0.0,0.0,-0.024578717150965285,0.018745212875399417,0.9757861534009722
2011-10-25,1,0.0002316025238124084,0.0005923657474224157,-0.024578717150965285,0.01632075033711563,0.9769500459139074
2011-10-27,1,0.001758996768616589,0.0022004565544519565,-0.024578717150965285,0.00980020393592648,0.98094271122867
2011-10-31,0,-0.00014058902843662935,6.22632548153393e-05,-0.016050245828370314,0.016362699336372983,0.9812646004248048
2011-11-02,-1,-0.00022031822768121768,-3.40986520834353e-05,-0.013689001599918892,0.018745212875399417,0.9810684738174797
2011-11-04,1,0.00038645646069322215,0.0006468884623494174,-0.013689001599918892,0.016362699336372983,0.9824726105604379
2011-11-08,1,0.0006947256173757837,0.0010188784095794675,-0.013689001599918892,0.016362699336372983,0.9825650545886275
2011-11-10,1,0.00015470641325231378,0.0004446148525409125,-0.013689001599918892,0.018745212875399417,0.980921799039315
2011-11-14,1,0.0019921718814345226,0.0025785397082362573,-0.018654120340712108,0.016362699336372983,0.9810037562281356
2011-11-16,1,0.0010334261157018028,0.0014553218030809326,-0.01478511171541704,0.015454139689558371,0.9819512943997786
2011-11-18,1,0.0012615863409544989,0.001743370107298608,-0.018654120340712108,0.015454139689558371,0.9813079932257078
2011-11-22,1,0.0007167430409483369,0.0011745010972668397,-0.013123097955851672,0.01832848998085323,0.9814824427016016
2011-11-25,1,0.0002432586739216031,0.0006220513815935553,-0.001840540895619083,0.01832848998085323,0.9819638036166408
2011-11-29,1,0.0018845715789263169,0.0025198574244019675,-0.008942740536959603,0.014579596717016247,0.9841144551969003
2011-12-01,1,0.0033687734203111394,0.004170728169550842,-0.008942740536959603,0.012523119450105948,0.986259419768843
2011-12-05,1,0.0037169649629406254,0.004568710709630474,-0.008942740536959603,0.013616588491934093,0.9858478441202518
2011-12-07,0,0.0,0.0,-0.008942740536959603,0.012583359148648113,0.9849263736239166
2011-12-09,0,0.0,0.0,-0.0071059565089579765,0.010750964994021433,0.9882802771577754
2011-12-13,0,0.0,0.0,-0.003444550946264554,0.010750964994021433,0.9898714369782393
2011-12-15,0,0.0,0.0,-0.004994012277750983,0.010750964994021433,0.9885386744443764
2011-12-19,0,0.0,0.0,-0.003444550946264554,0.013616588491934093,0.9885015700354798
2011-12-21,1,0.00394483042338375,0.004704345576097495,-0.004994012277750983,0.012583359148648113,0.9902777984951717
2011-12-23,1,0.003948674378474711,0.004627330875995313,-0.0071059565089579765,0.007916114620222849,0.9901862197643329
2011-12-28,1,0.0032727052314134074,0.0038118148430281587,-0.007578028197610008,0.012583359148648113,0.9893907140760805
2011-12-30,1,0.0024527074500364865,0.0027537744502229553,-0.010208799419605402,0.007916114620222849,0.9870874868062238
2012-01-04,1,0.0028891752408924136,0.0032534969413015604,-0.010208799419605402,0.009913950136726437,0.9854261942715402
2012-01-06,1,0.0032734164018149332,0.003720344230262637,-0.010208799419605402,0.00928590292131444,0.9854497646082466
2012-01-10,1,0.0012689666817111266,0.0014071095869281544,-0.010208799419605402,0.012213160295509028,0.9846474541718361
2012-01-12,0,0.0,0.0,-0.011594482537279766,0.012213160295509028,0.9839914744809044
2012-01-17,0,0.0,0.0,-0.010208799419605402,0.015641073699962715,0.9841418358311148
2012-01-19,1,0.0018749482641104841,0.0020816524836004833,-0.010208799419605402,0.013110751239702147,0.98423392855652
2012-01-23,1,0.001918120938878401,0.0023653690070667708,-0.008756994218925514,0.014757433651673073,0.9846400117499012
2012-01-25,1,0.0021447985575962242,0.00262431264681961,-0.006341358332151027,0.016808561173469214,0.9846341117912796
2012-01-27,1,0.0010194800365559776,0.0012001628547654826,-0.003532820576945951,0.014088522058813458,0.9855946231031487
2012-01-31,1,0.0012371576651480146,0.0014698340175299726,-0.005556970115004306,0.014088522058813458,0.9875740087900527
2012-02-02,1,0.0014602615881025224,0.0016211274488465701,-0.006341358332151027,0.011758130472910484,0.9892912457388963
2012-02-06,1,0.0016953155781399068,0.001926918900032636,-0.012753204827567016,0.011758130472910484,0.9875963193811182
2012-02-08,1,0.002810692820117377,0.0032736531961852205,-0.012753204827567016,0.008951888008938019,0.987597661825345
2012-02-10,1,0.002033802019435783,0.002370650449515006,-0.007916415570928752,0.013257333427695406,0.988171013585841
2012-02-14,1,0.0015193712541518873,0.0016805665966997392,-0.00694128214216478,0.013257333427695406,0.9888811111706601
2012-02-16,0,0.0,0.0,-0.00694128214216478,0.013257333427695406,0.9893853240739962
2012-02-21,0,0.0,0.0,-0.008740205780831808,0.008902728189876016,0.9893686203001143
2012-02-23,0,0.0,0.0,-0.012753204827567016,0.004382838822092423,0.9889875717239236
2012-02-27,0,0.0,0.0,-0.012753204827567016,0.013478774686027779,0.9875249723347376
2012-02-29,0,0.0,0.0,-0.0098278045412751,0.01446619268377904,0.9871081279064136
2012-03-02,0,0.0,0.0,-0.007376080743161624,0.01446619268377904,0.9880360775116879
2012-03-06,0,0.0,0.0,-0.0052368700178599,0.01446619268377904,0.9900710520459577
2012-03-08,0,0.0,0.0,-0.004437927634539849,0.013478774686027779,0.9908498541461211
2012-03-12,0,0.0,0.0,-0.006332710250610931,0.006088588372405925,0.9898993149047819
2012-03-14,0,0.0,0.0,-0.005077234010553752,0.01446619268377904,0.9881452227452121
2012-03-16,0,0.0,0.0,-0.006332710250610931,0.006015646326175213,0.9883841457005133
2012-03-20,1,0.0007002786693809463,0.000977317010607063,-0.005077234010553752,0.015857333540987045,0.9879595162365652
2012-03-22,1,0.0020979360629287507,0.002215172817611956,-0.004754896756457209,0.015857333540987045,0.9883868251596696
2012-03-26,1,0.0021566505235412013,0.0022066334590439204,-0.0061303662314187,0.00769072832970576,0.9890804809349671
2012-03-28,1,0.002063518464229653,0.002111331735831825,-0.004754896756457209,0.009314619836071396,0.9888967108045451
2012-03-30,1,0.001903128350648865,0.001947203199098561,-0.0061303662314187,0.009314619836071396,0.9883686399152887
2012-04-03,1,0.0015480970930438734,0.0015586847884230357,-0.0061303662314187,0.012232219507959042,0.9884103004896746
2012-04-05,1,0.0008061304910151413,0.0009618208363284227,-0.006834845505243478,0.012232219507959042,0.9871760376795564
2012-04-10,1,0.0005237849183825304,0.000624578626088159,-0.006834845505243478,0.012232219507959042,0.9881578886614553
2012-04-12,1,0.002013629542071224,0.0020395579389276023,-0.007329628940445476,0.006368435683919033,0.9903414769625873
2012-04-16,1,0.0011589208651408165,0.0012579651943515073,-0.007329628940445476,0.006368435683919033,0.9902542551869558
2012-04-18,1,0.0009320288844714545,0.0011009451055870193,-0.009517360798903227,0.0028473337046969823,0.9903854960224711
2012-04-20,0,-6.6863949005758865e-06,0.0003029516890340583,-0.01086326525102475,0.0016857923502418075,0.989895493314463
2012-04-24,1,2.2875947011806105e-05,0.0002984558729073965,-0.01086326525102475,0.0016857923502418075,0.9899899431875752
2012-04-26,1,0.001554974828558826,0.0015773885152591703,-0.01086326525102475,0.0013348036322524853,0.990110190077942
2012-04-30,1,0.0010240984706258566,0.00111020263422188,-0.009517360798903227,0.002413399736889056,0.9893246154895902
2012-05-02,1,0.0016674518377302369,0.0016822909897630997,-0.010877022961189226,-0.001632695141782383,0.9873257572921628
2012-05-04,1,0.001402973833762522,0.0014262599814949583,-0.013846678273637543,-0.001632695141782383,0.985952117940409
2012-05-08,1,0.00029448907008673166,0.0004826796278845901,-0.013846678273637543,0.002245126652578383,0.9857843759232954
2012-05-10,-1,-0.0004578977248880414,-0.00016129733226169876,-0.013846678273637543,0.005115539709756998,0.9859230273608874
2012-05-14,-1,-0.0017850366509236,-0.0012671463957062811,-0.013948782517721895,0.005115539709756998,0.9862531301703104
2012-05-16,-1,-0.0017236406533420465,-0.0012673381827360474,-0.01832455146286181,0.005115539709756998,0.9859334469748237
2012-05-18,-1,-0.0023803929668596404,-0.001885064965046151,-0.007648895769953107,0.009675444623706574,0.985787196130291
2012-05-22,-1,-0.002287287794302402,-0.001782000588024845,-0.013131698428227607,0.009675444623706574,0.9849704177446147
2012-05-24,-1,-0.0017863004956759,-0.00135159081775198,-0.019121780911872614,0.005115539709756998,0.9843923380535906
2012-05-29,0,-0.0001847838978504408,3.0137006815436737e-05,-0.023777952737141467,0.0021139163439579797,0.9839527557870547
2012-05-31,-1,-0.0015206541330455663,-0.001150677334005884,-0.019121780911872614,0.005057953380565179,0.9856147470703928
2012-06-04,-1,-0.0035915352756705496,-0.002980483640909513,-0.007708214371117583,0.00851018236125415,0.9871077037741657
2012-06-06,-1,-0.0024823009309317768,-0.002000095815576448,-0.011958769468120693,0.00851018236125415,0.9872620023761409
2012-06-08,-1,-0.0031056850246689556,-0.002494707603786832,-0.011958769468120693,0.005380184834487683,0.9876227504892965
2012-06-12,-1,-0.0031999070572343627,-0.0026371209321657237,-0.007708214371117583,0.009743053814221263,0.9874093722971466
2012-06-14,-1,-0.004348052991007795,-0.003622042978030882,-0.007708214371117583,0.012957632224051925,0.9865315633321036
2012-06-18,-1,-0.003557758870472523,-0.002924562534948758,-0.007708214371117583,0.011904063484485214,0.9869803577251293
2012-06-20,-1,-0.003639342581616554,-0.002986141399279666,-0.004892657093085743,0.011904063484485214,0.9870734445590565
2012-06-22,-1,-0.003913994501144959,-0.003337750422999378,-0.008043175075565574,0.011904063484485214,0.986838780726096
2012-06-26,-1,-0.0043371179476844705,-0.003783452004966402,-0.0065328159283854405,0.016628117568442145,0.9840929251956322
2012-06-28,-1,-0.0038550357789447582,-0.0033428605017820617,-0.0065328159283854405,0.01849134072089958,0.9833529481519775
2012-07-02,-1,-0.0024466622851382624,-0.0021428361518438244,-0.013021976772358862,0.01661257305863314,0.9835609948711045
2012-07-05,-1,-0.002757547716241918,-0.0023847196962021354,-0.007693730318936698,0.0149307911738954,0.9849163707160292
2012-07-09,-1,-0.0022705539995705286,-0.001975131228652697,-0.007693730318936698,0.01661257305863314,0.9839968835113846
2012-07-11,-1,-0.0014906268527706628,-0.001316072080615331,-0.007693730318936698,0.01661257305863314,0.984198554880288
2012-07-13,-1,-0.0007340873812294986,-0.000675983772014744,-0.0031699687782800355,0.0149307911738954,0.9858661948982896
2012-07-17,1,0.0003423728367846878,0.0004622733341247436,-0.006047002374283612,0.013674386258300503,0.986655221907579
2012-07-19,1,0.000853702043631518,0.0010483396776641799,-0.006047002374283612,0.013674386258300503,0.9867562915023861
2012-07-23,-1,-0.0005960563594138901,-0.0005692478040765581,-0.0037273422551958534,0.013674386258300503,0.987981323326796
2012-07-25,1,0.0012774783568651397,0.001471805578403114,-0.0037273422551958534,0.009347202799357803,0.9918254089295274
2012-07-27,1,0.0014152840636003513,0.0015381097082576983,-0.005517552626595505,0.006294861353600552,0.9925069133012707
2012-07-31,1,0.0013713288132627514,0.0015028269025175668,-0.005517552626595505,0.005639941448385978,0.9932373366873373
2012-08-02,1,0.0013315104999093816,0.0014818648173615075,-0.005705232023977335,0.006294861353600552,0.9927329353266947
2012-08-06,1,0.0023471378948627217,0.0026555519328420995,-0.007152566365993485,0.006294861353600552,0.9906512452178929
2012-08-08,1,0.0027331175960578664,0.003112746299636101,-0.007152566365993485,0.006606199403672889,0.9892247341672165
2012-08-10,1,0.002539818633057526,0.002861085649756011,-0.007152566365993485,0.006565908243089462,0.989036266923651
2012-08-14,1,0.001679237014619625,0.0018349610905341123,-0.006247757823541716,0.006565908243089462,0.9896826100093712
2012-08-16,1,0.002672938003503024,0.0030334596079378486,-0.005852373817004302,0.007760452904873986,0.989047326633639
2012-08-20,0,0.0,0.0,-0.008799602297091586,0.007760452904873986,0.9884092906618313
2012-08-22,0,0.0,0.0,-0.009592167110041792,0.007760452904873986,0.9881013780560749
2012-08-24,0,0.0,0.0,-0.009389534194495428,0.009001756871875335,0.9881201421140456
2012-08-28,0,0.0,0.0,-0.005804288044227139,0.009001756871875335,0.9887243699493818
2012-08-30,0,0.0,0.0,-0.0031372693216473483,0.009099994784958905,0.9889002797809926
2012-09-04,0,0.0,0.0,-0.002520851351844159,0.009099994784958905,0.9915921952907517
2012-09-06,0,0.0,0.0,-0.005804288044227139,0.004072421442346276,0.990875062393774
2012-09-10,0,0.0,0.0,-0.004065106864764294,0.004072421442346276,0.99111251923585
2012-09-12,0,0.0,0.0,-0.005144972421980786,0.004072421442346276,0.9910917184142299
2012-09-14,0,0.0,0.0,-0.009270139321962344,0.0036095699490610155,0.9919375355734819
2012-09-18,0,0.0,0.0,-0.0029174974475652308,0.004890951419681901,0.9915561169550869
2012-09-20,0,0.0,0.0,-0.0029174974475652308,0.006528259647678161,0.9908158804963739
2012-09-24,1,0.003554230731720039,0.004189900605888062,-0.008676527273711402,0.004890951419681901,0.9894437461405969
2012-09-26,1,0.0038698980962271244,0.004540959261679009,-0.009490773888864818,0.006758793958104363,0.9851636295739384
2012-09-28,1,0.003153249501186,0.003474971727493772,-0.009490773888864818,0.005644008294660068,0.9851639880164431
2012-10-02,1,0.0027653047188255617,0.003007217512675419,-0.009490773888864818,0.007626385181976272,0.9849709593624502
2012-10-04,1,0.0015598348190436226,0.0016191180149818733,-0.006994492840351515,0.011934044325360965,0.9868767760636644
2012-10-08,1,0.0007881158142789822,0.0008814096980121924,-0.008676527273711402,0.011934044325360965,0.9855086366004183
2012-10-10,1,5.881107565466957e-05,0.0002801378000208168,-0.009373367895669359,0.011934044325360965,0.9852255477326385
2012-10-12,-1,-0.00045920038943026743,-0.00019948421916341776,-0.008676527273711402,0.011934044325360965,0.985613437286445
2012-10-16,1,0.0009367494978229006,0.0010179109095822345,-0.009998544580404622,0.010355884090004808,0.985582147789832
2012-10-18,1,0.0026030724876417374,0.0027981600654065483,-0.009998544580404622,0.010355884090004808,0.9862112955566239
2012-10-22,1,0.000668793148405719,0.0007961678775477768,-0.008174218557775368,0.010756729444442238,0.9864294326532711
2012-10-24,1,0.0008973708424599188,0.000970332381838956,-0.006757592525624474,0.010756729444442238,0.9902417424453066
2012-10-26,1,0.00214535604683379,0.002307268960394194,-0.0063367350557937815,0.010756729444442238,0.9906999557528579
2012-11-01,1,0.0020346393822318356,0.002153587616284276,-0.0063367350557937815,0.010355884090004808,0.9908249480763076
2012-11-05,1,0.0021078363391895927,0.0021886689833897142,-0.008174218557775368,0.006115641253152736,0.9910490231170594
2012-11-07,1,0.0011939388924206654,0.0012667715066322278,-0.0063367350557937815,0.006034511335438206,0.9924056553270402
2012-11-09,1,0.0011669081236031812,0.0012144438535475128,-0.005570479332326501,0.00699840938346876,0.9925609269106429
2012-11-13,1,0.0007351424492633577,0.0008208702520016501,-0.002895949890785265,0.00699840938346876,0.992853104041516
2012-11-15,-1,-0.0006042962975681115,-0.00036816247274539405,-0.002059319904978754,0.00699840938346876,0.9935673963428859
2012-11-19,-1,-0.0010931675325277514,-0.0007406754451031463,-0.002059319904978754,0.006378059783472272,0.9933379336134505
2012-11-21,1,0.0003788714347018685,0.0005648451668966437,-0.002059319904978754,0.006376365036744144,0.9945519202718268
2012-11-26,1,0.00021370542419368556,0.0003058472951327885,-0.0022927353302067315,0.00585477144134422,0.9950380288928627
2012-11-28,1,0.0025739091535399803,0.00266592111075847,-0.002059319904978754,0.00585477144134422,0.9951386893098942
2012-11-30,1,0.00025314488633470383,0.0004367706052036363,-0.0014145369066490532,0.006376365036744144,0.994224685958983
2012-12-04,1,0.001601450849765318,0.0017545073508237763,-0.000947666809747818,0.006949515428131238,0.9941641889031989
2012-12-06,1,0.001281034323863786,0.0014501477848024183,-0.00043150574705871176,0.007743697580031285,0.9933354616163473
2012-12-10,1,0.0015558593900544858,0.0016744620798240164,-0.0011606142172302834,0.006944431187946856,0.9925477906336825
2012-12-12,1,0.0009658170666646466,0.0010030376376385004,-0.003240558085427379,0.006944431187946856,0.9922294509803469
2012-12-14,0,-4.0814341549442286e-05,0.00016123612478280143,-0.0016831915531711076,0.006944431187946856,0.992346560943491
2012-12-18,-1,-4.204642442815942e-05,-4.054939164983445e-05,-0.0033301507017550053,0.006667286635454003,0.9929988744563754
2012-12-20,1,0.0010867493387202692,0.0012167411125447482,-0.00374955418774711,0.006442207183679247,0.9930958584198903
2012-12-24,1,0.0007787696356462827,0.000848769602870945,-0.00319877260671746,0.006442207183679247,0.9931449689555967
2012-12-27,1,0.00021571759072901064,0.00026575022780358376,-0.00319877260671746,0.006442207183679247,0.9932465109936793
2012-12-31,1,0.003194320452038194,0.0034754305267000623,-0.001806972663084,0.006442207183679247,0.9916035483221765
2013-01-03,1,0.001435283133635,0.0016247916922880515,-0.001806972663084,0.005221939931875725,0.9923872267372561
2013-01-07,1,0.0022924088146696426,0.002609417492167714,-0.00319877260671746,0.004018056803969558,0.9925278736302988
2013-01-09,1,0.001982569382807905,0.002249879887093297,-0.0024871239993848847,0.004018056803969558,0.9931783200800678
2013-01-11,1,0.0013584013709801552,0.0015354469138551138,-0.001389429580240957,0.004175636303463291,0.9935769931706343
2013-01-15,1,0.001178028440447338,0.0013237960613250196,-0.001389429580240957,0.005221939931875725,0.9932982132036257
2013-01-17,1,0.0015059187850122065,0.0017149887905824853,-0.0011116885864351361,0.005221939931875725,0.9936807464844086
2013-01-22,1,0.0011461839399764203,0.0012746376444868943,-4.648453617298422e-05,0.005383209366837489,0.9929731462776227
2013-01-24,1,0.0018590983099385223,0.002011588019802468,-4.648453617298422e-05,0.006052429545080754,0.9927238754318461
2013-01-28,1,0.0009651602024050858,0.0010385104613051391,-0.0013384757504124353,0.007672329977642309,0.9902224832176465
2013-01-30,1,6.702767055577193e-05,0.00029025838637499206,-0.0013384757504124353,0.007672329977642309,0.9920003016691157
2013-02-01,1,0.00025353026724852666,0.00029547236105120615,-0.0013384757504124353,0.007672329977642309,0.991967261029975
2013-02-05,1,0.0006207349101966781,0.0007547036162576658,-0.0013384757504124353,0.007672329977642309,0.9921830407028304
2013-02-07,1,0.0012028784634374287,0.0012552063773611645,0.00029606033811451816,0.007672329977642309,0.9925301966989841
2013-02-11,1,0.0022412212085811184,0.0023720667907420473,0.0009394896382706619,0.008692148319626794,0.9924510223286934
2013-02-13,1,0.0014572471327253026,0.0015009744092887379,0.0009394896382706619,0.009608474187144996,0.991844955433375
2013-02-15,-1,-0.0004971649929648089,-0.0003398744148494598,-4.723376968551827e-05,0.009608474187144996,0.990580579771643
2013-02-20,1,0.001429915722233739,0.0014665570446340912,-4.723376968551827e-05,0.009608474187144996,0.9915347109717741
2013-02-22,1,0.0021082407335962375,0.0021499789632409435,-4.723376968551827e-05,0.009608474187144996,0.991951314318987
2013-02-26,1,0.0020345295082003475,0.0021843427147019163,-3.124224962242983e-05,0.006860416472435255,0.9940387458198899
2013-02-28,1,0.0025420691553000845,0.0027439874836222592,-0.0023443334768030776,0.006222483862594392,0.9947256000849866
2013-03-04,1,0.0023093304772472774,0.0024216247580624546,-0.003217933744745699,0.006034200008851403,0.9936829112437077
2013-03-06,1,0.002402337380934402,0.002520925590184764,-0.005139964138382377,0.0059017990417673406,0.9935745770177088
2013-03-08,1,0.0023430558273181547,0.0024361500083803986,-0.007188227991791032,0.0059017990417673406,0.9924213823110961
2013-03-12,1,0.001549272762934045,0.0016972567414235652,-0.007188227991791032,0.004999938123143166,0.9924766647687556
2013-03-14,1,0.003234688425292046,0.003456590951737554,-0.0075317242862248494,0.004999938123143166,0.9917405896233502
2013-03-18,1,0.0035077119132245205,0.0037853666428032313,-0.008796660413103626,0.006146353380731227,0.9899683242892365
2013-03-20,1,0.0026220175234556047,0.0027330783044324076,-0.014268797913129965,0.006146353380731227,0.988788741253072
2013-03-22,1,0.0019381789296572605,0.0020723329961101888,-0.014268797913129965,0.006646994927696725,0.9888670799299322
2013-03-26,1,0.0013066737610704512,0.0013745075437974527,-0.014268797913129965,0.009821632810432843,0.9876675094322944
2013-03-28,1,0.002115654344155316,0.0023583805816450774,-0.015143765965306897,0.009821632810432843,0.98703757743686
2013-04-02,0,0.0,0.0,-0.014268797913129965,0.009821632810432843,0.9874282740813832
2013-04-04,0,0.0,0.0,-0.014521346721393769,0.011046161989596438,0.9868249177710305
2013-04-08,0,0.0,0.0,-0.014521346721393769,0.011046161989596438,0.9868428346200518
2013-04-10,0,0.0,0.0,-0.014521346721393769,0.010666073222118207,0.9865402328867998
2013-04-12,0,0.0,0.0,-0.013646641727881331,0.011550466367613074,0.9863345370032589
2013-04-16,0,0.0,0.0,-0.012942244258974195,0.012995763824115898,0.9872269234110685
2013-04-18,0,0.0,0.0,-0.0044326137584560135,0.014944484079710166,0.987894715421478
2013-04-22,0,0.0,0.0,-0.0044326137584560135,0.012995763824115898,0.9885198796362253
2013-04-24,0,0.0,0.0,-0.007895727501981009,0.011550466367613074,0.9889874621548403
2013-04-26,1,3.0601114023588206e-05,0.0002785026090161352,-0.0044326137584560135,0.011550466367613074,0.9897535192993836
2013-04-30,0,-9.178351988887393e-05,0.0001674063197950503,-0.006094864222793249,0.012995763824115898,0.9888906728327109
2013-05-02,0,-6.39927199040163e-05,0.00019104605386712728,-0.005771303922946884,0.011550466367613074,0.9896891076088855
2013-05-06,1,0.0005225502862547949,0.0007000451577248354,-0.007035019397467277,0.010666073222118207,0.9906573951842046
2013-05-08,0,0.0,0.0,-0.01191179799545362,0.007387046112604115,0.9901536993103619
2013-05-10,0,0.0,0.0,-0.007035019397467277,0.007387046112604115,0.9905226879112939
2013-05-14,0,0.0,0.0,-0.007784235116939285,0.005609387460960278,0.9909259105174538
2013-05-16,0,0.0,0.0,-0.007784235116939285,0.005609387460960278,0.9913049728621892
2013-05-20,0,0.0,0.0,-0.007784235116939285,0.009866211250352138,0.9903911551764177
2013-05-22,0,-0.0003688687921917866,0.0,-0.012020673257458795,0.009866211250352138,0.9892360117391078
2013-05-24,0,0.0,0.0,-0.013369139051044185,0.009866211250352138,0.9884151022071738
2013-05-29,0,0.0,0.0,-0.012020673257458795,0.009866211250352138,0.9885878300545654
2013-05-31,0,0.0,0.0,-0.008216670678790824,0.011674633712287207,0.9887270876765994
2013-06-04,0,0.0,0.0,-0.008216670678790824,0.012339960826651957,0.988151884971411
2013-06-06,-1,-0.002134092850691947,-0.0017735045136994735,-0.005211589637456544,0.013645420629255627,0.9882307464877226
2013-06-10,-1,-0.0018267903751030383,-0.001498510667534338,-0.005211589637456544,0.012339960826651957,0.9885220254516051
2013-06-12,-1,-0.002479970798912102,-0.0020859257032906156,-0.003971952103995422,0.012339960826651957,0.9881326845753561
2013-06-14,-1,-0.002157698658908888,-0.0017899127726346729,-0.003606850304055303,0.011649584767476538,0.9887584748898405
2013-06-18,-1,-0.0010483021640929815,-0.0008198678840148445,-0.006915855929339019,0.008668671364068462,0.989425773970084
2013-06-20,-1,-0.00253298926212749,-0.0021335122109061005,-0.0035793348600887086,0.011649584767476538,0.9903205024063498
2013-06-24,-1,-0.002823098966248854,-0.0024008623974084795,-0.001642200466682585,0.011649584767476538,0.9902038446338719
2013-06-26,-1,-0.001625192113557613,-0.001279740345364318,-0.0035793348600887086,0.008668671364068462,0.991129340416599
2013-06-28,-1,-0.0011913944820514883,-0.000893864670401475,-0.0035793348600887086,0.0065803260362028255,0.9920133317308816
2013-07-02,-1,-0.0005647876441092901,-0.0003529503046823042,-0.0020150649095468536,0.0065803260362028255,0.9924370660941152
2013-07-05,1,0.0002892428023110013,0.0003998090385941378,-0.005506486607433682,0.0065803260362028255,0.9918820210765519
2013-07-09,1,0.0008330597730640438,0.0008666036034647266,-0.008196327331625803,0.005252710262658385,0.9912529705891329
2013-07-11,1,0.0005437300415245425,0.000610975010434963,-0.006926673089657815,0.005252710262658385,0.9911036531964998
2013-07-15,1,0.0003507925634324147,0.0004483937758164792,-0.007730481655148377,0.005252710262658385,0.9907828517071224
2013-07-17,-1,-0.0002543169863024971,-7.975565797868178e-05,-0.007730481655148377,0.006808527982009236,0.9901935550497452
2013-07-19,1,0.00018391331031219858,0.0003016329363661041,-0.008196327331625803,0.005252710262658385,0.9896779790457174
2013-07-23,1,0.0004982973007143687,0.0005356412463046681,-0.007730481655148377,0.005111193199191219,0.9902418720101903
2013-07-25,1,0.0001924771692494547,0.0002552749935327209,-0.007730481655148377,0.005773569214707963,0.990380933810792
2013-07-29,1,0.0003880637870026171,0.000405274600364594,-0.007730481655148377,0.0059294344058520645,0.9899985979493927
2013-07-31,1,0.0009578956931146173,0.0010339791407743665,-0.008217923879764687,0.0048181620071388286,0.9890992558692564
2013-08-02,1,0.0019239801097052614,0.002159200388488513,-0.010502359618235656,0.0048181620071388286,0.9895023787634423
2013-08-06,1,0.0013959961604010172,0.0015919028289109755,-0.007922398070022086,0.0048181620071388286,0.9907246918858789
2013-08-08,1,0.0021258970439998956,0.0024081732261917576,-0.007922398070022086,0.00398224674885794,0.9914048648271008
2013-08-12,1,0.0016878312450707969,0.0018956415573322099,-0.0053263197954411205,0.00575318742597917,0.9902265735777157
2013-08-14,1,0.0013861026613067654,0.0015441858228283894,-0.0053263197954411205,0.0048181620071388286,0.990786036309724
2013-08-16,1,0.0006055234800137122,0.000656766373103311,-0.004082494890708492,0.004314485682496143,0.9919440940712912
2013-08-20,1,0.0006884770745070611,0.0007565982366439659,-0.004082494890708492,0.0052017648517296445,0.9916259293957439
2013-08-22,1,0.00030791408810665625,0.00032993334429575025,-0.003882293107741808,0.004314485682496143,0.9920611086411595
2013-08-26,1,6.562552925571969e-05,0.00013450103597040057,-0.003911639928325496,0.0038143546406437115,0.9919050505609348
2013-08-28,-1,-0.000648077234011703,-0.0005220162256037962,-0.003911639928325496,0.004542223335942858,0.9924943854720754
2013-08-30,-1,-0.0007496644249402817,-0.0006388647960812865,-0.003911639928325496,0.0038143546406437115,0.9934792041026946
2013-09-04,-1,-0.0006972534873943808,-0.0005800155400982586,-0.005792805962880277,0.0038143546406437115,0.9931967136474357
2013-09-06,-1,-0.0013575981877544884,-0.0011139439373575527,-0.005792805962880277,0.004413806672950646,0.993334026593848
2013-09-10,-1,-0.0007400905414486568,-0.0005000136968038062,-0.007500722355816085,0.0018812923743182163,0.9945175927527878
2013-09-12,-1,-0.0010930947512100796,-0.0008428098506851283,-0.006792979958404147,0.0030626084304974854,0.9942003324499241
2013-09-16,-1,-0.00019520436506475548,-0.0001077121029245693,-0.007010641801712503,0.0016660137486481112,0.9938734844408512
2013-09-18,-1,-0.000520439725513543,-0.00036166894449840857,-0.007322206704509273,0.0016660137486481112,0.9934763901633902
2013-09-20,-1,-0.0008514963521189404,-0.0006502119227489459,-0.007322206704509273,0.006443931708879081,0.9922558241811926
2013-09-24,-1,-0.0012842358076759857,-0.0010267816941647305,-0.007322206704509273,0.006443931708879081,0.99209877721798
2013-09-26,-1,-0.0006066774272171154,-0.00047684898962883687,-0.007322206704509273,0.005570285935699262,0.9921250076953749
2013-09-30,-1,-0.00038769780494450515,-0.00032354200494311624,-0.0071273237953865635,0.007310436092895197,0.9882080207368076
2013-10-02,-1,-0.0008050511394536488,-0.0006912881241071257,-0.0071273237953865635,0.007310436092895197,0.9882686506519062
2013-10-04,-1,-0.0006718737012262431,-0.0005763474155414731,-0.0071273237953865635,0.007310436092895197,0.9882530689819216
2013-10-08,-1,-0.0008835167213043311,-0.000785045566434515,-0.006945680832004933,0.007310436092895197,0.9882266369312841
2013-10-10,-1,-4.539394270892124e-05,-3.604653342102083e-05,-0.0071273237953865635,0.0055210046931754774,0.9887071557745768
2013-10-14,-1,-0.0005572452836173316,-0.0004748042033283279,-0.0071273237953865635,0.007310436092895197,0.9873691103108398
2013-10-16,-1,-0.00036598367544699213,-0.00031347392924711636,-0.006014667817834661,0.006945586077618944,0.9876565170500264
2013-10-18,1,0.0004980019215070058,0.0005565382297732884,-0.006014667817834661,0.0055210046931754774,0.9889025897978017
2013-10-22,1,8.664567860040999e-05,9.180849316284346e-05,-0.005147182718584449,0.0055210046931754774,0.9893400665774921
2013-10-24,-1,-0.00011527524902418018,-7.32908972027939e-05,-0.0031479482435081948,0.005594782441837834,0.9888679156567426
2013-10-28,1,0.0019180403274979309,0.0021254158606278605,-0.005147182718584449,0.0051435832026121234,0.9925461681938892
2013-10-30,1,0.001768933219379383,0.001980748525836474,-0.004766016958420485,0.005594782441837834,0.9927819585112114
2013-11-01,1,0.0015024693286153701,0.0016446770829125542,-0.004766016958420485,0.00664236115682367,0.9924882701575849
2013-11-05,1,0.0013115064008597716,0.0014379135493764019,-0.004766016958420485,0.00664236115682367,0.9928837831315385
2013-11-07,1,0.0011457630975024577,0.0012866019796035017,-0.004766016958420485,0.007707039022646045,0.9921700740665663
2013-11-11,1,0.0009902680288068405,0.0010285982266270166,-0.005349967697163967,0.00664236115682367,0.9931059814504317
2013-11-13,1,0.0009323931279450783,0.0009375007341823989,-0.00652653360873915,0.005432762807714066,0.9925126809570741
2013-11-15,1,0.0014022037354864808,0.0014959773230523207,-0.00652653360873915,0.007441944525648444,0.9918841662028717
2013-11-19,1,0.0013739042005595854,0.0014815204429198087,-0.00652653360873915,0.008516985138567003,0.9918140508874479
2013-11-21,1,0.002053874297902016,0.0022704865657536336,-0.00652653360873915,0.007441944525648444,0.9921588505363439
2013-11-25,1,0.0021791743726255345,0.00244680651123253,-0.0061552855539204025,0.007441944525648444,0.992665501845718
2013-11-27,1,0.0023464213056835106,0.002652671422025136,-0.0061552855539204025,0.008516985138567003,0.9923174993691797
2013-12-02,1,0.002381292413900945,0.002680156137513099,-0.0061552855539204025,0.005856016238104712,0.9924115133285069
2013-12-04,1,0.002162174987279974,0.0024291751764873772,-0.0061552855539204025,0.005856016238104712,0.9921063636745859
2013-12-06,1,0.002221909573216796,0.0024754159282886945,-0.005522675413139793,0.004740591168875381,0.9934443443354637
2013-12-10,1,0.0019568282304699212,0.002191526544363532,-0.0032574790034891688,0.005856016238104712,0.9937975209751084
2013-12-12,1,0.0013686826533593338,0.0015160772163209612,-0.0032574790034891688,0.008288189335325031,0.9934712704313435
2013-12-16,1,0.0016828220594781258,0.0018537248391754134,-0.0032574790034891688,0.0059238700384270735,0.9934105324405847
2013-12-18,1,0.0018791388970047901,0.0020707460597693783,-0.0032574790034891688,0.004740591168875381,0.9935464611030886
2013-12-20,1,0.0019244023662710814,0.0021391434133025515,-0.0026224567952907478,0.005596551401497062,0.993342443136122
2013-12-24,1,0.00232556632151112,0.0026262288663558677,-0.003854470228645995,0.0050057814864595184,0.9903204200562358
2013-12-27,1,0.0013254955226403788,0.0015170024000662626,-0.004695620874247016,0.004722961423909088,0.9909108723771735
2013-12-31,1,0.0015952468922643224,0.0018796673948473328,-0.005083643861336815,0.007643290548640824,0.9901905845902564
2014-01-03,1,0.0009375780209355926,0.0011142381953904218,-0.007438240235689999,0.007643290548640824,0.9890075556558554
2014-01-07,1,0.0011818314556350006,0.0013961457276622843,-0.009343057856102132,0.007643290548640824,0.9883082970650202
2014-01-09,1,0.0010936108655382106,0.0012513378066274148,-0.009343057856102132,0.00865931930164636,0.9880754011125177
2014-01-13,1,0.0014201062282107797,0.0016153061252391692,-0.007438240235689999,0.00865931930164636,0.9882835436798406
2014-01-15,1,0.0018694780936542661,0.0021215309088700126,-0.007438240235689999,0.006726585885455383,0.9889897570484582
2014-01-17,1,0.001911260442784883,0.002177021677235555,-0.007438240235689999,0.006726585885455383,0.989130055138724
2014-01-22,1,0.001595065698452416,0.0017555984247959154,-0.007438240235689999,0.004521673666342226,0.9894722058139671
2014-01-24,-1,-0.0009980508863985777,-0.0008031040113265251,-0.005965880795910214,0.004521673666342226,0.9920223551945049
2014-01-28,-1,-0.0010619623785569868,-0.0008650641122299795,-0.005965880795910214,0.004521673666342226,0.9917846608637632
2014-01-30,-1,-0.0007970575544522822,-0.0006282712612930036,-0.006260474788810394,0.004521673666342226,0.9918200030193598
2014-02-03,-1,-0.001265871156740248,-0.0010859273012229988,-0.0050215886067854695,0.008025434701011348,0.9907503604032731
2014-02-05,-1,-0.0022365037267614895,-0.0019179238620962852,-0.0029475967543865396,0.008025434701011348,0.9904409342858764
2014-02-07,-1,-0.0015573393980516546,-0.0013282339034184376,-0.005937755327592512,0.005192719865012685,0.9909703333921995
2014-02-11,-1,-0.0003045141833433251,-0.0002290176231312393,-0.0071109715848818415,0.0027861297128127707,0.9918899479240063
2014-02-13,-1,-0.0003543758687586498,-0.0002607252725583331,-0.007792420202935888,0.0028162810785389743,0.9915615124618798
2014-02-18,-1,-0.0006357884100708479,-0.0004945302257842305,-0.007792420202935888,0.005261430447882229,0.9912511010911841
2014-02-20,-1,-0.0009108475363020934,-0.0007322841282586632,-0.007792420202935888,0.0070258954635442315,0.9908956461628639
2014-02-24,-1,-0.0014378728692591338,-0.0011853833051790638,-0.007792420202935888,0.0070258954635442315,0.9904346531493633
2014-02-26,-1,-0.0012438856337637818,-0.0009900895289684864,-0.00816692561529182,0.005710798184020051,0.9904202021829231
2014-02-28,-1,-0.0009968366855430334,-0.0007675266383793304,-0.007880215849692219,0.005710798184020051,0.9909899741553346
2014-03-04,-1,-0.0014515281923836402,-0.0011534304378761251,-0.007666253208701097,0.006917297329264376,0.9925390809087954
2014-03-06,-1,-0.0016672086789686258,-0.001374395927187302,-0.0070052026388925555,0.008679503846812864,0.9924625501988178
2014-03-10,-1,-0.001455625072175096,-0.0011885957702000203,-0.008607446184665113,0.006917297329264376,0.992245995327315
2014-03-12,-1,-0.0017700058283440065,-0.0014681798086469658,-0.007666253208701097,0.008679503846812864,0.9920403598396014
2014-03-14,-1,-0.0006061900567517796,-0.00040906084851112946,-0.011071494272203157,0.008679503846812864,0.9904598260652407
2014-03-18,-1,-0.0006720737034312494,-0.00044957349099089344,-0.011071494272203157,0.008679503846812864,0.9899854515095924
2014-03-20,-1,-0.0008253482009268737,-0.0005845908229994969,-0.011071494272203157,0.009209816832585153,0.9894650309971977
2014-03-24,1,0.00032397175202524713,0.00033702247313022676,-0.004228632054263456,0.010588927491248974,0.9894679286668266
2014-03-26,-1,-0.0005069898047274527,-0.0003908125931348701,-0.009569269544019016,0.010588927491248974,0.9876012084479644
2014-03-28,-1,-0.0002862624903112045,-0.00019764158251718756,-0.009569269544019016,0.010588927491248974,0.9877276027727856
2014-04-01,1,9.689001884379637e-05,0.0001538908201973985,-0.009569269544019016,0.009209816832585153,0.9886087643862707
2014-04-03,1,6.997131223456763e-05,0.0001515809018151242,-0.009569269544019016,0.00813943356233333,0.9889188198438146
2014-04-07,-1,-0.0002317338545083685,-0.0001455098516312263,-0.008242729829204149,0.00813943356233333,0.9894962818749388
2014-04-09,1,0.0002186326080859553,0.00024094607553566162,-0.008242729829204149,0.00813943356233333,0.9889962058819471
2014-04-11,-1,-0.0009076941853435213,-0.0007638271869561076,-0.0032273061112659054,0.00813943356233333,0.9911277034595992
2014-04-15,-1,-0.0005473768434419424,-0.0004389235544524548,-0.006636215382050732,0.00618786240630697,0.9912850095970411
2014-04-17,1,0.0002760055816514052,0.0002904453886534152,-0.008242729829204149,0.0018064254042290786,0.991159487707259
2014-04-22,1,0.0006615892690046924,0.0007216275532746102,-0.009581065278850767,-0.0003069968205394614,0.9911592769145822
2014-04-24,-1,-0.0005626087370893846,-0.0004748084911415756,-0.006636215382050732,0.003261980361864394,0.9926480601097145
2014-04-28,-1,-0.0007172322206090971,-0.0006175320359603086,-0.005818399762046773,0.004377632284506142,0.9926070962107125
2014-04-30,-1,-0.0007545084688053143,-0.0006439708715562562,-0.005818399762046773,0.007120017439785103,0.9922093662755649
2014-05-02,-1,-0.0007165580197872068,-0.0006247210544250844,-0.007404186174509897,0.007622908387863278,0.9901807336807364
2014-05-06,-1,-0.0011640345995041718,-0.0010043554055439673,-0.007199883851098907,0.007622908387863278,0.990237153966486
2014-05-08,-1,-0.001015018085922296,-0.0008498803041888066,-0.007199883851098907,0.007120017439785103,0.9910374271728994
2014-05-12,-1,-0.0005871408044560924,-0.0004964133594743917,-0.007199883851098907,0.006698463910848073,0.9910160809601557
2014-05-14,-1,-0.0008348750602210008,-0.0007290519730518686,-0.006710676911900309,0.006698463910848073,0.9911352225101696
2014-05-16,-1,-0.0013128850028959593,-0.0011508947119337645,-0.0016784507963804674,0.007622908387863278,0.9910372344000901
2014-05-20,-1,-0.0014546054297784885,-0.0012844332262971928,0.0008548018080555516,0.007972057508515686,0.991016032572194
2014-05-22,-1,-0.0004042997479200108,-0.00037184956074666855,0.0008548018080555516,0.007875115476795792,0.9926621785398179
2014-05-27,-1,-0.0002770215728843993,-0.00025349201389858196,-0.0003200517287404458,0.006784361755004975,0.9926801824767573
2014-05-29,-1,-0.00015281482340486873,-0.0001290622575146405,-0.003116572321323766,0.006784361755004975,0.9926654346330892
2014-06-02,1,0.00020333567841652783,0.0002247970993672103,-0.003116572321323766,0.005548753402018807,0.9947518819404076
2014-06-04,1,6.803058470182725e-05,7.834931146952303e-05,-0.003116572321323766,0.005548753402018807,0.9947751524074727
2014-06-06,1,0.00030197453028990296,0.00035645889735376506,-0.004286574514284558,0.006784361755004975,0.9940541245839047
2014-06-10,1,0.0006988561091192623,0.0008297222491621417,-0.004286574514284558,0.0059021762439288895,0.994175788536585
2014-06-12,1,0.0003866979799065019,0.00047421586918850215,-0.003906713732484068,0.0059021762439288895,0.9943909116808025
2014-06-16,1,0.0009507645962885912,0.001139327857601167,-0.003906713732484068,0.005814126129722178,0.994617211867722
2014-06-18,1,0.0005096600870905165,0.0005630283241116615,-0.005114135053517944,0.0032427296676737862,0.9946031598197589
2014-06-20,1,0.0007109449291640441,0.0007933711601640391,-0.006912381509824855,0.0032427296676737862,0.9944158157326164
2014-06-24,1,0.0006661049920728792,0.000752735808373079,-0.005067161100849385,0.0032427296676737862,0.9947373459115021
2014-06-26,1,0.00036681209628302967,0.00037074937580500704,-0.006912381509824855,0.0032427296676737862,0.9935234675320621
2014-06-30,0,-2.0392757824514964e-05,5.656135407776123e-05,-0.007059873329495695,0.0032427296676737862,0.9926628261531786
2014-07-02,1,0.0009031633014871407,0.0009327044319181397,-0.007059873329495695,0.0032427296676737862,0.9920168272234798
2014-07-07,1,0.0012381716406972383,0.0013694693349686183,-0.006912381509824855,0.0032427296676737862,0.9926071164740371
2014-07-09,1,0.0012224809459402163,0.0013542437881188907,-0.007059873329495695,0.0023255738442099754,0.992328817231376
2014-07-11,1,0.0010451225475726987,0.0011572791567782826,-0.006912381509824855,0.0036905428819107374,0.9923513530757039
2014-07-15,1,0.001041529372791613,0.0011344613643834527,-0.006912381509824855,0.00320919421042578,0.9927490762783194
2014-07-17,1,0.0007901298255220444,0.0008261857447286861,-0.006133506219741164,0.0033505655779343074,0.9930937913251049
2014-07-21,1,0.00097171740063061,0.0010539668337614932,-0.004283132899093766,0.0033505655779343074,0.9930588018309842
2014-07-23,1,0.0010158197094387808,0.001109914840847594,-0.005995553354013832,0.004477792381887037,0.9922057669033543
2014-07-25,1,0.00012771117967612158,0.00019717609243953497,-0.005995553354013832,0.0033505655779343074,0.9932750878786076
2014-07-29,-1,-0.0007603714499187183,-0.0006997370953022417,-0.004142999256482245,0.0036547426633036294,0.9941770605350018
2014-07-31,-1,-0.0011845180951335172,-0.0010801143718080835,-0.0032599322353311644,0.004091592410281143,0.9945935854937933
2014-08-04,-1,-0.0009547518902718469,-0.0008630573909712404,-0.0032599322353311644,0.0036547426633036294,0.9951121520004845
2014-08-06,-1,-0.0012804000487297578,-0.0011467306611704369,-0.002652683363769136,0.004475118948013662,0.994865123438931
2014-08-08,-1,-0.000834741093545401,-0.0007678051142061543,-0.002652683363769136,0.004332153107926331,0.9951457559626303
2014-08-12,-1,-0.000642709448250564,-0.0005977995149025919,-0.003581485352274034,0.004332153107926331,0.9951261685948635
2014-08-14,-1,-0.0005616057916435765,-0.0005195584090836107,-0.004116334949607858,0.004475118948013662,0.9945467945880824
2014-08-18,-1,-0.000664254117467413,-0.000582244328079586,-0.0048940858562843146,0.004332153107926331,0.9948500351839324
2014-08-20,-1,-0.00024785580342141577,-0.00022709375060174985,-0.0048940858562843146,0.004332153107926331,0.9951359044000855
2014-08-22,-1,-0.0003041946886877584,-0.0002987603789671627,-0.0032634709042666794,0.004332153107926331,0.9957363511486229
2014-08-26,-1,-7.695402662324022e-05,-2.0783046401970964e-05,-0.003971362056094839,0.004332153107926331,0.9949471415001858
2014-08-28,-1,-0.00031809741707225416,-0.00030731375504895465,-0.004946148977413318,0.004336748633096849,0.9941961089292674
2014-09-02,-1,-5.7497034258410665e-05,-1.676356949567901e-05,-0.009522134893378015,0.004336748633096849,0.9923704341899029
2014-09-04,-1,-0.00045762241096292816,-0.00038624966277084924,-0.0116434782609658,0.0035502743548400883,0.9920856213655177
2014-09-08,-1,-0.001646348468052694,-0.001378749578016484,-0.0116434782609658,0.0035502743548400883,0.9924464879598089
2014-09-10,-1,-0.0016361312847194627,-0.001397764087684863,-0.015742649959402763,0.003638987769122373,0.990785136964481
2014-09-12,-1,-0.0012167113368846327,-0.0010691292156292096,-0.01685782708270167,0.0035502743548400883,0.9898068798484574
2014-09-16,-1,-0.0013762931514288163,-0.0012040495161058122,-0.01685782708270167,0.003638987769122373,0.9888095356121911
2014-09-18,-1,-0.0016789821216934872,-0.0014632257307394952,-0.01685782708270167,0.003638987769122373,0.9886369875680537
2014-09-22,-1,-0.0018479829094957974,-0.0016196619679155334,-0.01685782708270167,0.005474300178132553,0.9875485856645831
2014-09-24,-1,-0.0019178029505236879,-0.0016739759469489351,-0.016306902282814086,0.008564985448429447,0.9866706660174721
2014-09-26,-1,-0.0025822151511803604,-0.0022396310837442526,-0.01601208541857793,0.013436118440602782,0.9849931586549544
2014-09-30,-1,-0.0027051082530926106,-0.0023892795938041792,-0.015577054827756459,0.013783285072086695,0.984606888667352
2014-10-02,-1,-0.0032446105197573624,-0.0028875022456235563,-0.013897285196163078,0.013783285072086695,0.9839171177671913
2014-10-06,-1,-0.0032954255915353444,-0.0029064856967674817,-0.013897285196163078,0.014914930710700366,0.9833910936294786
2014-10-08,-1,-0.0038613451993909087,-0.003373237354860142,-0.012925131205193261,0.014262850919656532,0.9845216938066337
2014-10-10,-1,-0.0054093029939177,-0.004729232521348178,-0.002623027001170143,0.014262850919656532,0.9841249511082689
2014-10-14,-1,-0.004275463367581521,-0.003816141142612686,-0.001491879679952796,0.014165446300453372,0.9853381177873608
2014-10-16,-1,-0.0035687678405695615,-0.003212429430676184,-0.0005722282437745629,0.013403650234201729,0.9863923046620426
2014-10-20,-1,-0.002284382779647382,-0.00210232930501082,-0.0027964643389118563,0.010390740500423478,0.9874468472529355
2014-10-22,-1,-0.0020649012925409425,-0.0019157976635622736,-0.0008854129509631075,0.008202090820719488,0.9891840522946725
2014-10-24,-1,-0.0021152532895836375,-0.0019443333359649383,-0.0015114434100779697,0.007947180713074637,0.991394055983879
2014-10-28,-1,-0.0018507288672636162,-0.0017259429049454188,-0.0015114434100779697,0.007947180713074637,0.992517185624695
2014-10-30,-1,-0.001447759103795246,-0.0013761976269656064,-0.000834121748424261,0.007101831881877578,0.9933906913695093
2014-11-03,-1,-0.0010577422185153124,-0.0010129329514337695,-0.000834121748424261,0.007101831881877578,0.9936002941171954
2014-11-05,-1,-0.0003106632473135034,-0.00022633768544291956,-0.0015114434100779697,0.007947180713074637,0.9932631938835895
2014-11-07,1,0.0005355102579004943,0.0007585765579737357,-0.0017576463884680007,0.006339362067880714,0.993654563023169
2014-11-11,1,0.0009400234893591508,0.0012360884249758247,-0.001603772780851461,0.006599684430912506,0.9938117634104637
2014-11-13,1,0.0009311178786720987,0.0012126318834127787,-0.0018527468928232677,0.007169179159916602,0.9934708473977167
2014-11-17,1,0.0008497793399953705,0.0011433811044742497,-0.0018527468928232677,0.007842053870497781,0.9935106598367981
2014-11-19,1,0.0010328561081768728,0.001349841710559498,-0.0018527468928232677,0.008110700081530935,0.9929636444490598
2014-11-21,1,0.0013770727899857188,0.0017370669369140776,-0.0021513417841043914,0.008125076444586703,0.9925939102509967
2014-11-25,1,0.0021741122657580147,0.0026389209217439866,-0.001969454176139185,0.007842053870497781,0.993307984135474
2014-11-28,1,0.002487406606331856,0.0029980957332273526,-0.001969454176139185,0.008125076444586703,0.9931608073167039
2014-12-02,1,0.003049594462259211,0.0036248343375441267,-0.001969454176139185,0.007842053870497781,0.9932935987751588
2014-12-04,1,0.0033007880370422896,0.003924077795136134,-0.001969454176139185,0.007587292326716649,0.9933504569479364
2014-12-08,1,0.00342252960178666,0.004064161630304225,-0.001749111015664889,0.00827480455903852,0.9933884534002732
2014-12-10,1,0.0035270350640641164,0.004181022915958845,-0.001969454176139185,0.009227362810495965,0.9915386798389969
2014-12-12,1,0.003788814032625665,0.004482319523227068,-0.0019264475016358752,0.009227362810495965,0.9916433684140068
2014-12-16,1,0.0027544909142414734,0.0032201996828818084,-0.0019264475016358752,0.009227362810495965,0.9911980928411699
2014-12-18,1,0.0030677398417457554,0.0035366333367611823,-0.0019264475016358752,0.009227362810495965,0.9911251921949564
2014-12-22,1,0.0031943291702959996,0.0036362549576324163,-0.0036331712117513163,0.009227362810495965,0.9908900730716221
2014-12-24,1,0.0036495671451843162,0.004171386924095203,-0.01008566535296368,0.009227362810495965,0.9897612777433007
2014-12-29,1,0.0036853766215814814,0.00419502002927633,-0.011583146204117703,0.008173610912820326,0.9887506376012895
2014-12-31,1,0.0032098146566608933,0.0036620102803807293,-0.009827518758231917,0.009896817182244918,0.988633380030292
2015-01-05,1,0.002997981403881961,0.0034331625199813874,-0.009827518758231917,0.010554158075641295,0.9880500895009107
2015-01-07,1,0.0031121783944572396,0.003565171378386394,-0.009827518758231917,0.012947932914441549,0.9875928154129094
2015-01-09,1,0.0026723721663924295,0.0030723528690957767,-0.009297563642860194,0.008781735677870215,0.9890521587341301
2015-01-13,1,0.0027297852249779046,0.0031344465589940446,-0.009297563642860194,0.012947932914441549,0.9880384062511519
2015-01-15,1,0.001462529575960511,0.0016651803921570098,-0.009194670213809486,0.012947932914441549,0.9888691321970555
2015-01-20,1,0.0015928940726654566,0.0018143484817430666,-0.009194670213809486,0.009562399704558747,0.9897356426459433
2015-01-22,1,0.001904566722724617,0.002168558959916375,-0.008302427111478829,0.007867632853299387,0.990402267109041
2015-01-26,1,0.0011987943948787569,0.0013646484078795186,-0.006779079229531309,0.007848092621396229,0.9915739563726466
2015-01-28,1,0.0007197926319051798,0.0008433244982322752,-0.004176881771668105,0.007848092621396229,0.9921665546789452
2015-01-30,1,0.0010337687979604863,0.0012094615106982066,-0.004176881771668105,0.007217483354096656,0.9925031615821807
2015-02-03,1,0.0010178287746618261,0.0011672277210203709,-0.004176881771668105,0.005677429904210588,0.9933544238211345
2015-02-05,1,0.0011534628489553646,0.0013175380377872799,-0.0045350379906095376,0.004089760324774065,0.993452887781569
2015-02-09,1,0.0008864363863483121,0.0010022153173992973,-0.0045350379906095376,0.004089760324774065,0.993023040715386
2015-02-11,1,0.0006255690029513371,0.0006884017469158552,-0.0045350379906095376,0.004089760324774065,0.9938032277892794
2015-02-13,1,0.0008712757902707207,0.0009529022736962799,-0.005411948444020759,0.004089760324774065,0.993342939145831
2015-02-18,1,0.0008145384723352172,0.0008880043465847136,-0.0067689025713740724,0.005677429904210588,0.992528470627852
2015-02-20,1,0.0006472146086465851,0.0006726450211453859,-0.0067689025713740724,0.007217483354096656,0.9924940190344286
2015-02-24,1,0.0014510678137312286,0.001467697412574769,-0.006826072410657228,0.004187423360579038,0.9921628962986413
2015-02-26,1,0.0006808747449985591,0.0007932234595487391,-0.009190731051663223,0.004187423360579038,0.9919628192525376
2015-03-02,1,0.0003891905858803115,0.0005318072665958479,-0.006826072410657228,0.005331449645093793,0.9916889284858061
2015-03-04,-1,-0.00043771864265543844,-0.00017898624752982358,-0.006826072410657228,0.005331449645093793,0.9916813163673288
2015-03-06,-1,-0.0018818560258082554,-0.0013976633376081194,-0.006134162638785018,0.00797172762312979,0.9919841807102903
2015-03-10,-1,-0.0025740092438287588,-0.0019909676811272594,-0.005249416493402757,0.009513235795125608,0.99210659718615
2015-03-12,-1,-0.001969992640791152,-0.001488169334250599,-0.005249416493402757,0.00797172762312979,0.99263161482387
2015-03-16,-1,-0.0015990906397648267,-0.001182960641809778,-0.005268473106497142,0.006354405116949714,0.992841742204255
2015-03-18,-1,-0.0013960908301728304,-0.0010239208816693389,-0.007286511253896063,0.004509322795273105,0.9928307173448297
2015-03-20,-1,-0.00034289578941955107,-0.00013225299813869834,-0.010708384451724687,0.004509322795273105,0.9921604821590049
2015-03-24,-1,-0.001053507021649711,-0.0007385941626568026,-0.010708384451724687,0.005566853947875254,0.9923170965628412
2015-03-26,-1,-0.001718868356782189,-0.0013283094342920042,-0.006690131849827867,0.006229895521907432,0.9923299467907074
2015-03-30,-1,-0.0005931784993951786,-0.00034954655339459323,-0.006690131849827867,0.005566853947875254,0.9936672208658001
2015-04-01,-1,-0.0007706404093759661,-0.0005564769932018271,-0.003253084540481697,0.007173669816361951,0.9908248716015873
2015-04-06,-1,-0.0015500813405629876,-0.0012834841425228235,-0.003253084540481697,0.007960884334743479,0.9902442237864412
2015-04-08,-1,-0.0013497091225979523,-0.0011144694003771523,-0.003253084540481697,0.007960884334743479,0.9897786363360398
2015-04-10,-1,-0.0012600803897607816,-0.0010359585179784622,-0.0030356805911588964,0.00857662810202248,0.9896829844169349
2015-04-14,-1,-0.0023115416162497217,-0.001944791820815749,-0.0012205157026457078,0.00857662810202248,0.9898418087788468
2015-04-16,-1,-0.0015117823090201894,-0.0012199888668018855,0.0006357660726747864,0.010531597087292104,0.9891045061869257
2015-04-20,-1,-0.0017233472548174472,-0.0014128181125161467,3.7345868905698846e-05,0.010531597087292104,0.9898306666533577
2015-04-22,-1,-0.001310529387169548,-0.0010687748010646996,3.7345868905698846e-05,0.011804297375669466,0.9897382938249819
2015-04-24,-1,-0.0011535216430825766,-0.0009397292381386194,0.0004101617625013752,0.013577171960337203,0.9891096264512048
2015-04-28,-1,-0.0010991162510284574,-0.0009015789589420947,0.0004101617625013752,0.015019410240544576,0.9880464692712647
2015-04-30,1,0.0007346404408063094,0.0007399405609616527,-0.00047426574446927483,0.011804297375669466,0.9913945327109207
2015-05-04,1,0.0010439731815257433,0.0010798871718243471,-0.0019237276963855248,0.011804297375669466,0.9912841424423583
2015-05-06,1,0.0015171022908772242,0.0016245151459828675,-0.005305788885965685,0.010346244360161521,0.991334845857375
2015-05-08,1,0.001675543497625584,0.0018097376738466775,-0.005305788885965685,0.010346244360161521,0.9914908933429114
2015-05-12,1,0.0015929718047092488,0.0017112532276251603,-0.005305788885965685,0.011804297375669466,0.9906947515956621
2015-05-14,1,0.002657483241137534,0.002940029164789717,-0.005305788885965685,0.009174894066814874,0.9921384421905248
2015-05-18,1,0.0025930308008286574,0.0028850735586357116,-0.006389643239067009,0.010493247328621244,0.9912769520050652
2015-05-20,1,0.0029193152321789484,0.003258086407614875,-0.006389643239067009,0.010134331233863977,0.9915040388302193
2015-05-22,1,0.0035458076763513822,0.003977368798936258,-0.006668467602948888,0.006790807678129914,0.9917654765133015
2015-05-27,1,0.0034423024598308873,0.003831881449910461,-0.006682287412612215,0.004494360619095649,0.9921137844058636
2015-05-29,1,0.0026459662380785734,0.002901141371179153,-0.004598370584731817,0.006790807678129914,0.9928306577570104
2015-06-02,1,0.0022358623593218456,0.002464040438336618,-0.004598370584731817,0.006790807678129914,0.9928207552934746
2015-06-04,1,0.0012583809932688681,0.0015054451583990896,-0.0035394339220722517,0.009302725046591442,0.9926108722939913
2015-06-08,1,0.0014082476095253807,0.0016798470266767376,-0.004598370584731817,0.009302725046591442,0.9921446609065127
2015-06-10,1,0.0011474336271982638,0.00133238909968151,-0.006682287412612215,0.003543717985523623,0.991899256189836
2015-06-12,1,0.002459866767600032,0.0027453197041057177,-0.006682287412612215,0.010876740267950945,0.9906367258240548
2015-06-16,1,0.0023584611506538974,0.0026335634298718944,-0.004598370584731817,0.01065367197285106,0.9914020782279487
2015-06-18,1,0.002304454970336528,0.002545347112175728,-0.008237824687262873,0.00811651002398717,0.990233849283669
2015-06-22,1,0.0018855587196588517,0.0020356067279694635,-0.008237824687262873,0.00811651002398717,0.9901887928050872
2015-06-24,1,0.0016106143593050148,0.0017283803875512527,-0.008984619133254938,0.00811651002398717,0.9901455731412483
2015-06-26,1,0.0015971966198526314,0.0016954937017605465,-0.009863903127662036,0.006290055475883289,0.9896629296365256
2015-06-30,1,0.0011552590096771099,0.0012012085608312777,-0.008984619133254938,0.00811651002398717,0.989524260340222
2015-07-02,1,0.001476703813841694,0.0015453293078717728,-0.009863903127662036,0.00811651002398717,0.9893636836467903
2015-07-07,1,0.001571403876396514,0.0016839595877172213,-0.009358473117159148,0.00811651002398717,0.989536892834444
2015-07-09,1,0.0011223393191807647,0.0012912799740802468,-0.007886738524707714,0.011335666114589754,0.9896718491432706
2015-07-13,1,0.002052225594082319,0.002345326817532028,-0.007886738524707714,0.011335666114589754,0.9889631355449446
2015-07-15,1,0.002803980261328386,0.0031926442713914385,-0.008984173271583625,0.009150232124042278,0.9885715072929977
2015-07-17,1,0.001971232056542396,0.0022719000171774004,-0.006070575391781121,0.009150232124042278,0.9900219215330354
2015-07-21,1,0.001177844242323805,0.0012467580667021511,-0.0065484075130706355,0.009150232124042278,0.9895927600601798
2015-07-23,1,0.0013754097815057327,0.001556638684556974,-0.0065484075130706355,0.009150232124042278,0.9889165028167134
2015-07-27,1,0.0004466755742356628,0.0004589097377350579,-0.009868560522577112,0.009150232124042278,0.9863535736328642
2015-07-29,-1,-0.0002525882991403271,-0.00013304399476835342,-0.011300914993547233,0.009150232124042278,0.9848493204580995
2015-07-31,-1,-0.001334106839779396,-0.0010621190246151288,-0.009868560522577112,0.010504431834692995,0.9848006930746976
2015-08-04,-1,-0.0015514622566539548,-0.0012759210438324014,-0.023319388641566012,0.010504431834692995,0.9825399305662615
2015-08-06,-1,-0.0001623971841537028,-6.890929237559403e-05,-0.023319388641566012,0.01148163165753192,0.9822407998861113
2015-08-10,1,0.0005040234493131781,0.0005293171656805164,-0.023319388641566012,0.00835822654828166,0.9823971125284819
2015-08-12,1,0.0001223897370493098,0.00018079438952316477,-0.023319388641566012,0.00835822654828166,0.9824552935259769
2015-08-14,1,5.0028146232522215e-05,0.00013336467114301274,-0.023319388641566012,0.00835822654828166,0.9824961429545421
2015-08-18,-1,-0.0004642717906377687,-0.0003121244007123899,-0.023319388641566012,0.011166058019801887,0.9822600039017289
2015-08-20,-1,-0.0011242155387729167,-0.0009443469293925218,-0.019823275876951815,0.011166058019801887,0.9825687128276791
2015-08-24,-1,-0.002453408138899549,-0.0020879266738563747,-0.012044874252933208,0.011166058019801887,0.9847954410788584
2015-08-26,-1,-0.0013092994852578585,-0.0010962905881056314,-0.009694458416184262,0.009128188899672061,0.9874302213226709
2015-08-28,-1,-0.00024278380265177913,-0.00016327045867784232,-0.012030439912521729,0.00687468511908631,0.987742132831897
2015-09-01,-1,-0.0026036829303716686,-0.002255055968007757,-0.008176966673959186,0.009128188899672061,0.9895273903854676
2015-09-03,-1,-0.0019747597739258934,-0.0016659824290807443,-0.008176966673959186,0.011166058019801887,0.9886096494598473
2015-09-08,-1,-0.002061544875206223,-0.0016991125093373087,-0.008216228998918919,0.0069562410698214925,0.9899921257094877
2015-09-10,-1,-0.0021929098564443927,-0.0018286489708103026,-0.0073723782250571315,0.006935839695011376,0.9901092527356099
2015-09-14,-1,-0.00220551512693945,-0.0018496142249640598,-0.0073723782250571315,0.008175831338512508,0.9897362733105992
2015-09-16,-1,-0.0008695584917410233,-0.0006728263883690319,-0.00837919689961198,0.003834240251354436,0.9904803842137168
2015-09-18,-1,-0.0017316929872999696,-0.00143145917496528,-0.0073723782250571315,0.008065507182284035,0.9904786576421643
2015-09-22,-1,-0.0015547226254427904,-0.0012986776960138648,-0.0027738714722478283,0.00914965110883184,0.990996561382304
2015-09-24,-1,-0.0017181801795059628,-0.0014520713555490415,-0.0027738714722478283,0.010380399426371952,0.9890446858720989
2015-09-28,-1,-0.002206518831950804,-0.0019187685110755078,-0.0027738714722478283,0.013298762947508903,0.9886585922285002
2015-09-30,-1,-0.0020549575309523577,-0.0017913859052791628,-0.004316609723969591,0.013298762947508903,0.9884999383479357
2015-10-02,1,0.00028759886675935094,0.0003000308918498954,-0.004316609723969591,0.010380399426371952,0.990409499091967
2015-10-06,-1,-0.00011132484102540314,-8.966047120816678e-05,-0.004316609723969591,0.011338998718643432,0.9901076685651929
2015-10-08,1,8.945529694615843e-05,0.0001006777390828605,-0.005353606532626511,0.011338998718643432,0.9898117817348036
2015-10-12,1,0.0002812175598989053,0.00030623076881730794,-0.005353606532626511,0.011338998718643432,0.989954135165857
2015-10-14,1,6.601509661200928e-05,8.893590752391383e-05,-0.005353606532626511,0.01266157137559375,0.9886834511318263
2015-10-16,1,0.0011470363943550917,0.001347480369660704,-0.007100033463920982,0.011890744552057972,0.9877388982921544
2015-10-20,1,0.001269753344361308,0.001442673546498306,-0.007100033463920982,0.014625698837873884,0.9875229144322009
2015-10-22,1,0.0020941285523170244,0.0023399215483647616,-0.007100033463920982,0.014625698837873884,0.9882723551609552
2015-10-26,1,0.0024789382127987855,0.002761541921012204,-0.007100033463920982,0.011890744552057972,0.9889792923257095
2015-10-28,1,0.002664058669172102,0.0029827640512187616,-0.004756996456510917,0.009882812665193703,0.9899555509441079
2015-10-30,1,0.0029271389747573882,0.0033091326423233063,-0.004756996456510917,0.006936298806681159,0.9904172503807331
2015-11-03,1,0.0029720995890485206,0.0033535090378963963,-0.004756996456510917,0.005826871571234252,0.9905852087377667
2015-11-05,1,0.002322202046567228,0.0025842815374280403,-0.004756996456510917,0.006936298806681159,0.9891171647681891
2015-11-09,1,0.0027189917934457965,0.00306236811685061,-0.009369542391087938,0.006936298806681159,0.9879822082354952
2015-11-11,1,0.0020815809531465014,0.002327516324132247,-0.008457337674549266,0.004363670200633673,0.9893850220940295
2015-11-13,1,0.00047627262182518804,0.000491269208971488,-0.007751065314171855,0.004363670200633673,0.9911588699707421
2015-11-17,1,0.0007936300741910054,0.0008494842168243464,-0.007751065314171855,0.006475750484775819,0.9907437663726248
2015-11-19,1,0.002407359197270141,0.0026636305098963705,-0.012234721454551279,0.0017769645842373952,0.9898003898888312
2015-11-23,1,0.002616101318306494,0.002956895874919415,-0.012234721454551279,0.004023374192425856,0.9896836816099691
2015-11-25,1,0.0029220589284045797,0.0033214904594093073,-0.012234721454551279,0.004411747847920497,0.989247942265026
2015-11-30,1,0.002621195691074253,0.0029357677670590896,-0.012234721454551279,0.004411747847920497,0.9891415774439171
2015-12-02,1,0.0026726481503930688,0.0030552082056964865,-0.01103452751926651,0.003937223007743711,0.988928406876258
2015-12-04,1,0.003936899251647668,0.004550931845975535,-0.01103452751926651,0.003937223007743711,0.9890008128578569
2015-12-08,1,0.0026272729109642744,0.0030014555623644836,-0.01173899205963511,0.003937223007743711,0.9885649438145662
2015-12-10,1,0.0019362086439332713,0.0021920334259829238,-0.01173899205963511,0.007650577608651982,0.9889943133255858
2015-12-14,1,0.0014670217102859392,0.0016589060705416454,-0.012759733711158818,0.007650577608651982,0.9887584285659311
2015-12-16,1,0.0018386194714630475,0.0020311668757963513,-0.016140269763620072,0.004306489641370356,0.9880094122701075
2015-12-18,1,0.0011947132037555186,0.0013052139195304968,-0.01097053833596395,0.004306489641370356,0.9900919632396453
2015-12-22,1,0.0007819829005191819,0.0007961439573728546,-0.01097053833596395,0.004306489641370356,0.9892004684983997
2015-12-24,1,0.000952743881925789,0.0009706500517786178,-0.012886077259141256,0.004306489641370356,0.9865381196890188
2015-12-29,1,0.001598768404988459,0.0017432753292172171,-0.012886077259141256,0.004306489641370356,0.9864619979091552
2015-12-31,1,0.0015161871589759726,0.0016994215407227732,-0.012886077259141256,0.008170122640469037,0.9861667966121331
2016-01-05,1,0.0012665049089582328,0.0013957542025248065,-0.012886077259141256,0.01260007413409838,0.9836077316884956
2016-01-07,-1,-8.428051179151214e-05,-4.838167157272943e-05,-0.008526838724322663,0.01278196228542581,0.9841651628991606
2016-01-11,-1,-0.00018589713949489713,-0.0001194776726429379,-0.016933525071560877,0.0223398765317747,0.9819938677834399
2016-01-13,-1,-0.0013202137350423802,-0.0010689237423298114,-0.013171728558343882,0.0223398765317747,0.982330334764033
2016-01-15,-1,-0.001461308644604058,-0.0011796750192518432,-0.007410981441248161,0.025057459154784717,0.9820615467921208
2016-01-20,-1,-0.0011476289931271636,-0.0009331829326406537,-0.010302316558043166,0.025057459154784717,0.9818292281839076
2016-01-22,-1,-0.0007660300055527522,-0.000629575424359112,-0.010302316558043166,0.01619688751589342,0.982771544098818
2016-01-26,-1,-0.0021479394192702077,-0.0017779336225670246,-0.010302316558043166,0.012580584425693654,0.9844024376376369
2016-01-28,-1,-0.0018898827042148274,-0.0015845847586891085,-0.010302316558043166,0.015598529819471262,0.9833714521260077
2016-02-01,-1,-0.0009641588617251782,-0.0007597083275860829,-0.013040047083825033,0.015598529819471262,0.9829158257440554
2016-02-03,-1,-0.0014876796858442963,-0.0012116054026231169,-0.010302316558043166,0.012580584425693654,0.9856892477551056
2016-02-05,-1,-0.0018594378638136534,-0.001532289603281284,-0.006605855631694496,0.012580584425693654,0.9866128485720659
2016-02-09,-1,-0.0020511411317503375,-0.001751182107956474,-0.0016257410050544744,0.012580584425693654,0.9881741876366753
2016-02-11,-1,-0.002862429843575596,-0.002437847255035088,0.0008063249756666193,0.012580584425693654,0.987750261852411
2016-02-16,-1,-0.001623228529707534,-0.0013377293015942274,-0.00377550827462195,0.010339342874942368,0.9901047154824559
2016-02-18,-1,-0.002180511091866523,-0.0018155677883509602,8.973588581079415e-05,0.010339342874942368,0.9896247310254782
2016-02-22,-1,-0.002260270248531879,-0.0018506408454680527,8.973588581079415e-05,0.010339342874942368,0.9894428671542815
2016-02-24,-1,-0.0022355717496651615,-0.0018266351320744571,0.000569230046558692,0.009562062427268474,0.990357991744852
2016-02-26,-1,-0.0005899375340028964,-0.00045163016025747516,-0.0017393480830511037,0.008866839146325068,0.9919727550470953
2016-03-01,1,0.00015028562572478265,0.0002215285704800235,-0.0006255955995576991,0.008866839146325068,0.9936498822456312
2016-03-03,1,0.0007135334950825995,0.0007202398994089543,-0.0017393480830511037,0.007920171642894255,0.9941159329756953
2016-03-07,1,0.0005517970636772277,0.0005648056476897415,-0.0017393480830511037,0.007920171642894255,0.9938077305722844
2016-03-09,1,0.0007881918155133196,0.0007958994407199327,-0.003384757279687185,0.007920171642894255,0.9929761392455825
2016-03-11,1,0.001194325283945223,0.0012703544071362982,-0.004259035262575645,0.007596286991393654,0.9931166690269658
2016-03-15,1,0.0009855140081391181,0.0010555330392300012,-0.001946274797443491,0.008866839146325068,0.9932530302457125
2016-03-17,1,0.0017397526803756111,0.001961281856340674,-0.00404133821613195,0.00840464962794609,0.9932747648429366
2016-03-21,1,0.0019158547966446964,0.002180878212298805,-0.00404133821613195,0.00848454918408844,0.9933957846401852
2016-03-23,1,0.002066456663055302,0.0023556258629104567,-0.004366437642378454,0.00848454918408844,0.993171077256311
2016-03-28,1,0.0018981168083385892,0.002166491441867479,-0.004366437642378454,0.00975732873628012,0.9926668733856805
2016-03-30,1,0.0024493049497251833,0.002794066887384104,-0.004366437642378454,0.00975732873628012,0.9922077375355887
2016-04-01,1,0.002639148352015528,0.0029980594938185594,-0.006263500518193813,0.008478615974243896,0.991361942078779
2016-04-05,1,0.0024227244194262474,0.0027598629860779095,-0.005025045651751487,0.01008655736444624,0.9907626791301035
2016-04-07,1,0.0018196177491160634,0.0020519021503805,-0.005025045651751487,0.00975732873628012,0.9914727432359568
2016-04-11,1,0.0010346264607467039,0.0011016329160631418,-0.004371954512420403,0.010065633388491773,0.9911792517692426
2016-04-13,1,0.0013332737417929069,0.0014524353834195313,-0.0059067495915389985,0.01095807243248031,0.9904823568018367
2016-04-15,1,0.0023869395050309015,0.0027095000008899414,-0.008858960507178812,0.01095807243248031,0.9901953745738222
2016-04-19,1,0.002492553444846838,0.002820542380365983,-0.010033006885337915,0.010960089693614977,0.9890695285465408
2016-04-21,1,0.002360263614985014,0.0026768530764918136,-0.01058373262902666,0.010960089693614977,0.9890112915653869
2016-04-25,1,0.002248140770673492,0.0025429648981059563,-0.011397187453324093,0.010960089693614977,0.9889706807414217
2016-04-27,1,0.0025672796088243056,0.0028885543996327013,-0.011397187453324093,0.010960089693614977,0.9894191582530402
2016-04-29,1,0.0019660276431704028,0.0022101096288663904,-0.00896275410537347,0.010960089693614977,0.9902952010090139
2016-05-03,1,0.002386573875761847,0.002656388280199435,-0.00896275410537347,0.006007499792743547,0.9912232124656184
2016-05-05,1,0.0018991746685671365,0.002089255800400718,-0.007532049082440112,0.008374125556172925,0.9913163727007028
2016-05-09,1,0.001966333362237149,0.0021418551598370215,-0.007532049082440112,0.006562476982141572,0.9917121849429171
2016-05-11,1,0.0026189910758564598,0.002952470392750277,-0.004714991221724584,0.005901830794274978,0.9927854822002061
2016-05-13,1,0.0022110042817729716,0.0024595747496972513,-0.004714991221724584,0.005901830794274978,0.9924176144554294
2016-05-17,1,0.0017502622029716823,0.0019305542476620065,-0.0031892156102007953,0.005574549372955338,0.9937900402131207
2016-05-19,1,0.001622928902369272,0.001805628323559855,-0.0031892156102007953,0.005574549372955338,0.9937719707719631
2016-05-23,1,0.0015959735100061492,0.001777904629837532,-0.002913847340189776,0.005901830794274978,0.9940249025710727
2016-05-25,1,0.0016395069522158697,0.0018090340739909862,-0.002913847340189776,0.005901830794274978,0.9943586773326463
2016-05-27,1,0.0016155882907328187,0.001784508945988785,-0.0031892156102007953,0.005901830794274978,0.9908285848693402
2016-06-01,1,0.0009740312507835017,0.000984486986273396,-0.0005274722951146213,0.007777507472186064,0.990082459771688
2016-06-03,1,0.0014964831356382737,0.0015808348188488005,-0.004974523177238778,0.007777507472186064,0.9884687903131463
2016-06-07,1,0.001147208771822332,0.0011548012721295153,-0.012939276448241652,0.009763657940713412,0.9870466559933813
2016-06-09,1,0.0013367192740168469,0.001362224342132117,-0.012939276448241652,0.010311883258141759,0.9864464240061156
2016-06-13,1,0.0008310003500797041,0.0008712656527937099,-0.0059720496791863965,0.010311883258141759,0.9872759033033736
2016-06-15,1,0.0011393298423797134,0.001163513635692052,-0.0059720496791863965,0.010311883258141759,0.9873927733103175
2016-06-17,1,3.151427584440142e-06,0.00018266781029422827,-0.0013655652940206013,0.010311883258141759,0.9876272774952032
2016-06-21,1,0.00014898119395603143,0.0003198944033439628,-0.006220296125199644,0.009763657940713412,0.9875568553233567
2016-06-23,1,0.0006049658588032071,0.0006814452381698736,-0.012787964753733335,0.007774171432641344,0.9872039026692703
2016-06-27,-1,-0.0022599386700231866,-0.0018150032717257666,-0.004342735579656219,0.010122658404778283,0.9873514492857612
2016-06-29,-1,-0.001716064239351395,-0.0013249464006229426,-0.004785438218117771,0.007774171432641344,0.9872177261334549
2016-07-01,-1,-0.0018737562761259134,-0.0014683475295739553,-0.004342735579656219,0.005437963403104262,0.9895411302411293
2016-07-06,-1,-0.002548022956765454,-0.002040816115882602,-0.004342735579656219,0.004074283028975782,0.990552430221973
2016-07-08,-1,-0.0013284200665421458,-0.0010207969120231647,-0.004342735579656219,0.003455539458917269,0.9909070195890319
2016-07-12,-1,-0.0017382467346952557,-0.0013669718853940981,-0.004049894238215358,0.003455539458917269,0.990720885822278
2016-07-14,-1,-0.001481158301826955,-0.001154150794805295,-0.004751396226798269,0.003455539458917269,0.9909574954704392
2016-07-18,-1,-0.0014471600905480832,-0.001120546916705061,-0.004751396226798269,0.003322057096183377,0.9913395567449156
2016-07-20,-1,-0.0012475759431312414,-0.0009770954204957147,-0.004751396226798269,0.003314543307904677,0.9917369138463628
2016-07-22,-1,-0.0015901805718251567,-0.0012814836289841676,-0.004470087288215731,0.0033198803689143946,0.9920607750538851
2016-07-26,1,0.00013184967331697001,0.00021264556370002445,-0.00397887491814155,0.0033198803689143946,0.9941753069776705
2016-07-28,1,0.0005804812559949148,0.0006187188432663847,-0.00397887491814155,0.0033198803689143946,0.9948532133417107
2016-08-01,1,0.0007357661301596623,0.0007373083941635574,-0.004538338266576845,0.003915242538877257,0.9942261434775084
2016-08-03,1,0.00048191713220955754,0.0005016558283719504,-0.003907965483572615,0.003915242538877257,0.994812503133275
2016-08-05,1,0.0006098075742499143,0.0006331095242686669,-0.003907965483572615,0.003915242538877257,0.9949310207355521
2016-08-09,1,0.0007678629218279169,0.000774783638804389,-0.003907965483572615,0.003542296526131717,0.994878073848204
2016-08-11,1,0.0007658623462518243,0.0007936703349831335,-0.005565351875747715,0.003542296526131717,0.9932499142750304
2016-08-15,1,0.0007432757107943294,0.0007708393195508918,-0.008951071515207099,0.005914069232714119,0.9923463689229896
2016-08-17,1,0.00034685995821939845,0.0003730010693674044,-0.005527641181295051,0.006585840619097705,0.9920949266124939
2016-08-19,1,0.000579884327559409,0.00060337692733394,-0.006425301712289982,0.00772363219064211,0.9916620027216746
2016-08-23,1,0.0008328167450711209,0.0008975155897795493,-0.006425301712289982,0.006833636911201276,0.9921195246711195
2016-08-25,1,0.0005436769135820723,0.0005513090931300382,-0.0060678277085723644,0.007328367859030058,0.9921217094680121
2016-08-29,1,0.00019048773910230763,0.000237009021196809,-0.0060678277085723644,0.007328367859030058,0.9923360259572823
2016-08-31,1,8.73638477399908e-05,0.00015231633950573868,-0.00784093880960158,0.007328367859030058,0.9913397151674376
2016-09-02,1,0.00048733846725969256,0.0004891068070095911,-0.00784093880960158,0.007328367859030058,0.9912969000771155
2016-09-07,1,0.0005535255210182895,0.0005614121585154146,-0.008951071515207099,0.007328367859030058,0.9898299019708658
2016-09-09,-1,-0.00043755506743570953,-0.0003425313229604305,-0.00784093880960158,0.009022862340449784,0.9903830755232532
2016-09-13,-1,-0.0005070376511291663,-0.000391380089934745,-0.007744869742346039,0.007328367859030058,0.9909497491296421
2016-09-15,-1,-7.273813445888224e-05,-6.627520616908216e-06,-0.007744869742346039,0.00684159205410524,0.9913111532330804
2016-09-19,1,0.0004838502539589114,0.0005166710188744189,-0.007744869742346039,0.00684159205410524,0.9918275424790195
2016-09-21,1,0.00028245985359404434,0.00031461272554620566,-0.007744869742346039,0.0068310578007083796,0.992022379571617
2016-09-23,1,0.000785954734273801,0.0008704364165683131,-0.008745153943381694,0.004801889295422514,0.9920773816224543
2016-09-27,1,0.0003766502658036752,0.0003820681849159266,-0.00637960720517463,0.005677043951164018,0.9923963403947055
2016-09-29,1,0.00030967067990985493,0.0003287707407234239,-0.008473855994143815,0.004294835608964294,0.989963360659138
2016-10-03,1,0.0007433762076831808,0.0008318545997154233,-0.008745153943381694,0.004294835608964294,0.9884406944502253
2016-10-05,1,1.1959649201613222e-05,2.3747795305110764e-05,-0.008546112977669829,0.003384938875665594,0.9896209041474548
2016-10-07,1,8.274196422596018e-05,9.116118259675967e-05,-0.008473855994143815,0.0037730892747341194,0.989659512211281
2016-10-11,-1,-0.00043384828576823733,-0.0003513902254975035,-0.006361197685978478,0.00569402631326558,0.9894087364838141
2016-10-13,-1,-0.0006823891289222436,-0.0005474706012481461,-0.008490884420081373,0.0037730892747341194,0.989409074763871
2016-10-17,-1,-5.5313004182859724e-05,-2.070253937868086e-05,-0.008796239221194366,0.0037730892747341194,0.9884077330517748
2016-10-19,-1,-8.893298634403131e-05,-4.485912940155875e-05,-0.008796239221194366,0.005457617561283736,0.988160064819593
2016-10-21,-1,-0.0006891951290937769,-0.0005644464841550204,-0.009044639372525578,0.0064136293620192875,0.9876792510879979
2016-10-25,-1,-0.00021936847119416155,-0.0001795612792219029,-0.009044639372525578,0.009173530607550225,0.9867163640552854
2016-10-27,-1,-0.0022627470864330693,-0.001990814876058146,-0.0069623479997755686,0.009173530607550225,0.989679567100758
2016-10-31,-1,-0.0022935174207837487,-0.002030783197319945,-0.005270022615815138,0.008882245166897866,0.9906792846001028
2016-11-02,-1,-0.0027386250326421526,-0.002410643038219572,-0.007409789116818647,0.008882245166897866,0.9900383593396964
2016-11-04,-1,-0.001964746892836107,-0.001728000905740883,-0.007409789116818647,0.008882245166897866,0.9902120245281824
2016-11-08,-1,-0.0018387041960061482,-0.0016061120854879252,-0.007409789116818647,0.007651162080677984,0.9905302708785101
2016-11-10,-1,-0.0018996684718852559,-0.0016866028760392593,-0.007409789116818647,0.007651162080677984,0.9900484313549118
2016-11-14,-1,-0.0014690007701678523,-0.0013242718416325225,-0.0051110279551169245,0.007056648188238469,0.9913206601565736
2016-11-16,-1,-0.0027358962632506767,-0.002321589129892046,-0.007466405569162435,0.007056648188238469,0.9912794217941495
2016-11-18,-1,-0.002621799628848504,-0.0022582974634561426,-0.007106639065982192,0.006877489902644947,0.9920018686722605
2016-11-22,-1,-0.002303296853240945,-0.001969698022847707,-0.007106639065982192,0.005646372615004267,0.9928874035199208
2016-11-25,-1,-0.0025130198132850504,-0.0021367472424110245,-0.004389408875448683,0.005094394977370475,0.9933081651909001
2016-11-29,-1,-0.0014945301975301957,-0.0012711668424606102,-0.009534129023489237,0.0034352193644591076,0.9937341835899258
2016-12-01,-1,-0.002454021639317283,-0.002110826511388859,-0.0035118530454347433,0.0034352193644591076,0.9944061329919068
2016-12-05,-1,-0.0015726520604277057,-0.0013418975390276575,-0.0035118530454347433,0.0030374676908851506,0.9942350285015601
2016-12-07,-1,-0.001153748475031364,-0.0009822185627934178,-0.006541695030267173,0.0030374676908851506,0.9936346321739609
2016-12-09,-1,-0.0015900596512587327,-0.0013590208855047865,-0.0035118530454347433,0.0024891345842982917,0.9942170080423097
2016-12-13,-1,-0.0018516093095692697,-0.0015714459671187734,-0.006208213474300417,0.0024891345842982917,0.9939976339431101
2016-12-15,-1,-0.0012386058779356296,-0.0011183350512174255,-0.0035118530454347433,0.0030374676908851506,0.9941744179437142
2016-12-19,-1,-0.0008622843363345523,-0.0008295437116226576,-0.0035118530454347433,0.0034352193644591076,0.9938512232861647
2016-12-21,-1,-0.0006163735637523635,-0.0006149373701949301,-0.0035118530454347433,0.0037694529753900382,0.9937608631774324
2016-12-23,-1,-0.0008592308076658917,-0.0008123800597864155,-0.0032171172278079637,0.007206494876182188,0.9927814808985391
2016-12-28,-1,-0.0007504583708191487,-0.0007464702957336155,-0.0032171172278079637,0.007206494876182188,0.9925257212137639
2016-12-30,-1,-0.0008483576557497624,-0.000842007783274773,-0.0028145860357731665,0.007206494876182188,0.9921733008253276
2017-01-04,1,3.330343269186792e-05,0.00010695156480973879,-0.0027877494798650504,0.007206494876182188,0.9892116272419792
2017-01-06,1,0.00015513194574096837,0.00024580182198218623,-0.0027877494798650504,0.006054545685748464,0.989532164399372
2017-01-10,1,0.00016271746107925414,0.00024017242773428905,-0.005450261916278178,0.006054545685748464,0.989336600889217
2017-01-12,1,3.5531546037358174e-05,0.00010059950854319138,-0.005095750728803399,0.006054545685748464,0.9891694715148431
2017-01-17,1,0.0002991338716050271,0.00041416593415245605,-0.005095750728803399,0.006054545685748464,0.9892530441457968
2017-01-19,1,0.0003132141913269754,0.0004267786817491896,-0.002673730777202669,0.006054545685748464,0.9896937314939523
2017-01-23,1,0.0003950783395222563,0.0005111142433581169,-0.005095750728803399,0.006346044520423466,0.9890604599561046
2017-01-25,1,0.0009393029886473576,0.0011297051513668465,-0.006496945886982997,0.005830094473036262,0.9893942467569542
2017-01-27,1,0.0008539447678007678,0.0010463998428691345,-0.005325388819471786,0.005660351462537001,0.9899044045515101
2017-01-31,1,0.0006940947898023427,0.0008706090779079964,-0.004730083153113042,0.006313031185345147,0.9898227510340797
2017-02-02,1,0.00229230026568978,0.002624102707531612,-0.004730083153113042,0.005660351462537001,0.9943693381867016
2017-02-06,1,0.0021508520185381597,0.0024674188699802925,-0.005325388819471786,0.004918923435419112,0.9941980871174378
2017-02-08,1,0.0022566712112140393,0.002607054887849232,-0.005616794687148592,0.004918923435419112,0.9940260947566107
2017-02-10,1,0.002266497461213951,0.0026272208921809146,-0.00505685653300703,0.006114455582809171,0.9940755478766512
2017-02-14,1,0.0023419882742410237,0.002723338199130338,-0.005259909146663044,0.007675343546161655,0.9936223459996345
2017-02-16,1,0.002606436073495407,0.0030247213816518683,-0.00569134902758873,0.007638138466949158,0.9929754501012125
2017-02-21,1,0.0025615721673534556,0.0029649304518711015,-0.0069362575936008485,0.006114455582809171,0.992761979790473
2017-02-23,1,0.0025325456481332326,0.002919224439631482,-0.0059069977128861665,0.006114455582809171,0.9932136725860746
2017-02-27,1,0.0026832123772076626,0.0031061133575222156,-0.0059069977128861665,0.0029558367106326177,0.9933416432034016
2017-03-01,1,0.002552200153914305,0.0029206649528601683,-0.0059069977128861665,0.0029558367106326177,0.9935628929715238
2017-03-03,1,0.00248764459575428,0.0028511551721036405,-0.0059069977128861665,0.0032158876936008727,0.9938079947770208
2017-03-07,1,0.0019724453740764722,0.0022520530014282403,-0.00417902572261323,0.005351830289682324,0.9946819759835365
2017-03-09,1,0.0018514381849500895,0.002116470454741468,-0.00417902572261323,0.005351830289682324,0.994542653134987
2017-03-13,1,0.0020370215066241332,0.0023384053362556423,-0.0042193010951867,0.003882133043055681,0.9946061122609722
2017-03-15,1,0.0020932246650951364,0.002402942308266819,-0.003841973400345648,0.0022185050070772116,0.9949172640024158
2017-03-17,1,0.0018368572632973489,0.0020916974176261203,-0.0031112643636923495,0.0022185050070772116,0.9952963169831046
2017-03-21,1,0.0014250109287040652,0.0016285541443371546,-0.0020054763795784762,0.0048441149001426445,0.9960496078028287
2017-03-23,1,0.00024183437073934603,0.0002502136666000227,-0.002224785593979367,0.0048441149001426445,0.9957450230009234
2017-03-27,-1,-8.4893561471045e-05,-3.6087868267042705e-05,-0.002224785593979367,0.006412595033913338,0.9953548494680609
2017-03-29,1,0.00012143555647748698,0.00016859115244843164,-0.002224785593979367,0.006412595033913338,0.9952193702954991
2017-03-31,1,0.00016652770398722252,0.00020137183570543375,-0.0031112643636923495,0.006412595033913338,0.9949313215924803
2017-04-04,1,4.151590958509577e-05,9.418225749687148e-05,-0.002224785593979367,0.006412595033913338,0.9951963394828178
2017-04-06,-1,-0.0006855050125961086,-0.0005235308046126308,-0.0018467837131610687,0.006420591946511869,0.9951527651903048
2017-04-10,-1,-0.0004049787103466811,-0.00028986266872332107,-0.0020054763795784762,0.006420591946511869,0.9949304606107602
2017-04-12,-1,-0.00043600681246312294,-0.00032814643679553293,-0.0018479552143807428,0.006997679857549239,0.9946164873890102
2017-04-17,-1,-0.0005367269762987466,-0.00041280930805785265,-0.002063490345240014,0.006997679857549239,0.9945714139753585
2017-04-19,1,0.00026691842236317275,0.0002715386979692142,-0.003140904897590772,0.0058076701380839445,0.9943152473386324
2017-04-21,-1,-5.913403691943877e-05,-5.135021942055836e-06,-0.002063490345240014,0.0049190239123377815,0.9948151183722773
2017-04-25,1,0.0001764496076577084,0.00018373960234399183,-0.003140904897590772,0.004814134609799674,0.9947952677836545
2017-04-27,-1,-0.00023403420492349754,-0.00013626582024455896,-0.003140904897590772,0.004814134609799674,0.9948669438943484
2017-05-01,1,6.296173069737767e-05,8.877297395586353e-05,-0.002063490345240014,0.005268633887296825,0.9949423375451624
2017-05-03,1,6.13743643021536e-05,7.541655656226207e-05,-0.002139211744571357,0.005519290382590471,0.9941270453352246
2017-05-05,1,9.410706884478831e-05,0.00012287634076028073,-0.004733803792525597,0.005268633887296825,0.9936790289364554
2017-05-09,0,-2.3379747986329065e-05,2.0240196482146467e-05,-0.003325362553692644,0.005268633887296825,0.9940412413908424
2017-05-11,-1,-0.00016184191574453058,-8.693281371112784e-05,-0.0039534254011408905,0.005268633887296825,0.9937392440295095
2017-05-15,1,0.00018225195420177448,0.00021868077503288418,-0.0039534254011408905,0.005268633887296825,0.9935528073177897
2017-05-17,-1,-0.00043860488847220205,-0.00033406632142799083,-0.0023485660270541058,0.005268633887296825,0.9945103884695955
2017-05-19,-1,-0.0004491398538791772,-0.0003365409618746052,-0.0023485660270541058,0.006547012410019967,0.9940644442803102
2017-05-23,-1,-0.001013864155000988,-0.000809772761833574,-0.0019616780283912847,0.010271869781340438,0.993623070349758
2017-05-25,-1,-0.00048203350922778373,-0.0003436256414415824,-0.002079063950445109,0.0067148154581343515,0.9940150364754078
2017-05-30,1,0.00012284615719554068,0.00014231578529800214,-0.002079063950445109,0.0067148154581343515,0.994226929385538
2017-06-01,1,0.0008608083850476185,0.0009441016145930492,-0.002547884540617116,0.006298706225395283,0.9944731146641765
2017-06-05,1,0.000867737412048581,0.0009563109292407359,-0.001588103256968943,0.006298706225395283,0.9951845148989743
2017-06-07,1,0.0003939524450795207,0.0003989646885787591,-0.0007055292437607586,0.006298706225395283,0.995169342898894
2017-06-09,1,0.0005233596970939454,0.000550987133497065,-0.00040393915565686546,0.007385577926892913,0.9946965827318296
2017-06-13,1,0.0012761110607985094,0.001415927007195081,-0.00040393915565686546,0.007385577926892913,0.9948890513220432
2017-06-15,1,0.0012184237028406955,0.0013492886752540284,-0.0007055292437607586,0.00857101495293546,0.9943815318614431
2017-06-19,1,0.0017377348219826043,0.0019681124751909766,-0.0012260707728685449,0.007385577926892913,0.994580252055188
2017-06-21,1,0.0015999704108603653,0.001782479979463954,-0.0007055292437607586,0.007163495210894813,0.9949999213416828
2017-06-23,1,0.0015731350119215976,0.0017658928615345093,-0.0007055292437607586,0.007163495210894813,0.9951705133229535
2017-06-27,1,0.0014191010763589644,0.0015956011009780572,-0.0007974446781037936,0.007395510531838897,0.9933043921478276
2017-06-29,1,0.001987827771383486,0.002170502825930813,-0.0007974446781037936,0.007163495210894813,0.9937268674877932
2017-07-03,1,0.0021388410818392136,0.0023337154983857755,-0.0007974446781037936,0.007824929977975063,0.9934031466717778
2017-07-06,1,0.002085615263594069,0.0022644837344387814,-0.0015781972034727056,0.007824929977975063,0.9928541443933357
2017-07-10,1,0.002870845279302505,0.0031481419547436497,-0.0019451718913384517,0.006930338222098791,0.9934808694663585
2017-07-12,1,0.003643311054715129,0.004041212055906591,-0.0031341081604731036,0.005828345607799112,0.9933057975516542
2017-07-14,1,0.003855766846605474,0.004279600914321027,-0.00550313772265501,0.005828345607799112,0.9927291790158932
2017-07-18,1,0.003605801914870731,0.003995439998531052,-0.0031341081604731036,0.0069108032578391555,0.9930680531350725
2017-07-20,1,0.003683112981261334,0.0040776345473785055,-0.00550313772265501,0.0069108032578391555,0.992042735622041
2017-07-24,1,0.003859569868242055,0.0043021010635631435,-0.00550313772265501,0.0069108032578391555,0.9918943906688715
2017-07-26,1,0.003013755808698943,0.003336091191594201,-0.0032191703701357063,0.005828345607799112,0.9937207140778913
2017-07-28,1,0.002383953186628319,0.0025758739364824578,-0.0023870288766477212,0.0069108032578391555,0.9937863514887912
2017-08-01,1,0.0026788673163002357,0.002886544315915238,-0.0028415646433869748,0.005661799263203567,0.9938445267041517
2017-08-03,1,0.002543945572360159,0.0027376925002911175,-0.0023870288766477212,0.005501109011693359,0.9944581088256885
2017-08-07,1,0.0025435779305871937,0.0027381126857570397,-0.002275735747193374,0.006428732503308529,0.9943327769535001
2017-08-09,1,0.002052204127730841,0.0021670461980990577,-0.0028415646433869748,0.006428732503308529,0.9936519721100416
2017-08-11,1,0.0014828273254089423,0.0014987594624983284,-0.002275735747193374,0.006428732503308529,0.9941551408355445
2017-08-15,1,0.0017360561846268769,0.0017715878368317482,-0.002350679599372595,0.006564331478176541,0.9939206814401438
2017-08-17,1,0.0013408348385378105,0.0013650439681617671,-0.0022352652515474645,0.007701739325493952,0.9944958492172389
2017-08-21,1,0.001205249821387022,0.0012330823123664382,-0.0022352652515474645,0.0079096081172473,0.9935242840245094
2017-08-23,1,0.0011918040546984102,0.001220804640388253,-0.0022352652515474645,0.0079096081172473,0.9935835038855559
2017-08-25,1,0.0013162188863275227,0.001335919809935349,-0.0022352652515474645,0.0079096081172473,0.9939264732455416
2017-08-29,1,0.0006982260385829267,0.0008186436903570623,-0.0022352652515474645,0.007970378242946285,0.9936042990309194
2017-08-31,1,0.0008411201308801287,0.0009516472460364802,-0.0024405109612388267,0.007970378242946285,0.9929188036218874
2017-09-05,1,0.0007792366708198153,0.0009089164129419515,-0.0024405109612388267,0.008664383894598983,0.9928039785241339
2017-09-07,-1,-0.000271098654759925,-2.7736148429037826e-05,-0.000857678444243585,0.008664383894598983,0.9935243346472287
2017-09-11,1,0.0006652282268060914,0.0007725122277230847,-0.000857678444243585,0.007923271072663114,0.9941144029853207
2017-09-13,1,0.0009359654554492656,0.001015017018699011,-0.0006068635415406119,0.005972461123646274,0.9946758415774956
2017-09-15,1,0.001799606185350681,0.0018385727191432485,-0.000857678444243585,0.004733132958117683,0.99486139830769
2017-09-19,1,0.002569328349534208,0.0027379720970458384,-0.000857678444243585,0.004512073049113926,0.9957603322151671
2017-09-21,1,0.002516523354395674,0.0026703588653986476,-0.0031362983859642996,0.004512073049113926,0.9943518115085858
2017-09-25,1,0.0022382040812875923,0.002340695777536792,-0.004506201870406913,0.004733132958117683,0.9937661982090817
2017-09-27,1,0.0024455925512953313,0.0025923167333555567,-0.004506201870406913,0.004733132958117683,0.9916959899193821
2017-09-29,1,0.0010840360404185969,0.0010997532996458205,-0.002219706683140025,0.008166687607002931,0.9917576574302397
2017-10-03,1,0.0013411270271642167,0.0013622140066248494,-0.004506201870406913,0.007856178241976512,0.9916676306196144
2017-10-05,1,0.0014878880620946076,0.0015336390793013498,-0.004506201870406913,0.008403333103876868,0.9909772811105277
