JNU-Tangyin/eata/results/Batch4_SP500/Batch4_SP500-VMC.csv
Date,Action,Predicted_Q25,Predicted_Q75,Actual_Q25,Actual_Q75,RL_Reward
2010-12-14,1,0.0,0.012720934716868713,-0.013784078600409339,0.000748762000471494,0.9855611906087107
2010-12-16,1,0.005481169963998259,0.00640234362740694,-0.010902579286143813,0.000748762000471494,0.985415938299847
2010-12-20,1,0.004339350120004474,0.0050451509039600925,-0.009255277183970371,0.000748762000471494,0.9874251715176834
2010-12-22,1,0.005006491503901192,0.005857109654400266,-0.009255277183970371,0.002495746425191667,0.9872640806285254
2010-12-27,1,0.007484510401159929,0.008678368321681843,-0.008266298665761592,0.005044489398788775,0.9855073823037818
2010-12-29,1,0.007069582932639065,0.008110537475369772,-0.008266298665761592,0.005044489398788775,0.9860352942076779
2010-12-31,1,0.006293265410501281,0.00719892286104246,-0.007049557082017396,0.005622848906455445,0.9855655925928248
2011-01-04,1,0.003836955354593532,0.004287963467102276,-0.00581416175597676,0.00849139015243168,0.9884604193541926
2011-01-06,1,0.0007664804199549201,0.0007950774976725791,-0.00510086590938831,0.012390984492891409,0.9894022499137319
2011-01-10,1,0.0009142506730998734,0.000983942195735785,-0.00510086590938831,0.01326262033378323,0.9877142291745215
2011-01-12,1,0.0013676969569300697,0.0014502299616582135,-0.00581416175597676,0.01326262033378323,0.9872745774835704
2011-01-14,-1,-0.0005463610984978696,-0.0003018659788140022,-0.00581416175597676,0.012390984492891409,0.9875444829079809
2011-01-19,-1,-0.00033948413745786923,-0.00016026110790330606,-0.004148486433680331,0.01466355520403124,0.9857424984202944
2011-01-21,1,1.476419021017672e-05,0.00014612894755941682,-0.005556461644044716,0.019419090292235337,0.9844042586442658
2011-01-25,1,0.0008203140031563528,0.000898189808818744,-0.011061068095619679,0.01466355520403124,0.9829642330821416
2011-01-27,0,0.0,0.0,-0.011061068095619679,0.014901935525363242,0.9819574792171507
2011-01-31,1,0.0014054555284284318,0.0014361470532300584,-0.011061068095619679,0.014760512631977989,0.981181720263433
2011-02-02,1,0.0021747500496145217,0.0023276257384978747,-0.011061068095619679,0.01399366017646219,0.9815240594198593
2011-02-04,1,0.0017414529906141611,0.0017892482506035698,-0.01543556858685395,0.012925362949933659,0.98079722858843
2011-02-08,1,0.002878674107812088,0.0030175133231851677,-0.01543556858685395,0.012925362949933659,0.9811998461250198
2011-02-10,0,0.0,0.0,-0.01604468597134866,0.012925362949933659,0.9804298075118428
2011-02-14,0,0.0,0.0,-0.01604468597134866,0.013435078961760513,0.9798682054527826
2011-02-16,0,0.0,0.0,-0.017232776518411215,0.011244525559458941,0.9807697389395662
2011-02-18,0,0.0,0.0,-0.017232776518411215,0.011899832642853582,0.9813501389066692
2011-02-23,0,0.0,0.0,-0.015567759998566298,0.011899832642853582,0.9838840414827936
2011-02-25,0,0.0,0.0,-0.015567759998566298,0.012746583085703117,0.9833905719836575
2011-03-01,0,0.0,0.0,-0.01161634243748076,0.011672842202400419,0.9859454407039239
2011-03-03,0,0.0,0.0,-0.01161634243748076,0.012609043976431979,0.9860973607309255
2011-03-07,0,0.0,0.0,-0.005865582016710205,0.013014937079249198,0.986490082121261
2011-03-09,0,0.0,0.0,-0.005865582016710205,0.012609043976431979,0.9874839910607944
2011-03-11,0,0.0,0.0,-0.007689222593988911,0.012609043976431979,0.9883003103532669
2011-03-15,-1,-0.002475037614820939,-0.0018668777573088756,-0.009927708828910805,0.012609043976431979,0.9880648781794875
2011-03-17,-1,-0.003171563318675006,-0.002485637298879813,-0.009412894839861172,0.012609043976431979,0.9894108873121952
2011-03-21,-1,-0.0021928225830332862,-0.0016169788320123826,-0.009927708828910805,0.004498687773963166,0.9895937436563007
2011-03-23,-1,-0.003344271405659003,-0.002600101460931128,-0.009412894839861172,0.006280648449969399,0.9898633558565982
2011-03-25,0,0.0,0.0,-0.009412894839861172,0.004498687773963166,0.9907176183475441
2011-03-29,1,1.3954607429585955e-05,0.00023811329669331984,-0.007689222593988911,0.00463581624698314,0.9911592655817039
2011-03-31,1,0.00223042744565407,0.0024569529845606293,-0.007689222593988911,0.00463581624698314,0.9908779680497121
2011-04-04,1,0.002002202588092847,0.00217053220597168,-0.0071815948118745,0.00463581624698314,0.9914084075376617
2011-04-06,1,0.001937762818118382,0.002073651922836304,-0.010755665649099492,0.004456346414647302,0.9872137510723943
2011-04-08,0,-0.00020739966887229472,1.8292759676286335e-05,-0.010112448236934203,0.004456346414647302,0.9876474853114846
2011-04-12,-1,-0.0015666429712739352,-0.0011511827150446673,-0.00992722076648763,0.005475541445986856,0.986445028614405
2011-04-14,-1,-0.001623329836403324,-0.0012245079711975457,-0.012033829477774526,0.005475541445986856,0.9858447559834779
2011-04-18,-1,-0.002857961924554289,-0.002292190016745228,-0.00992722076648763,0.006776361664255189,0.9863448299248587
2011-04-20,-1,-0.0030329185060655093,-0.002423558940525884,-0.00992722076648763,0.005698329236558472,0.9867858672364016
2011-04-25,-1,-0.001278891718550968,-0.000949446239126322,-0.012033829477774526,0.005475541445986856,0.9867588513634177
2011-04-27,1,7.080854273371843e-05,0.000155215431228351,-0.015998250509027152,0.005698329236558472,0.9852666362679585
2011-04-29,1,0.00044043393241354313,0.0005201796155577965,-0.015998250509027152,0.0066482194851107766,0.9853444894822224
2011-05-03,1,0.0005670944938469518,0.0006048094758776205,-0.019824514310988323,0.008119829502607537,0.9829885925449664
2011-05-05,-1,-0.002023157127184621,-0.001724878752472553,-0.015998250509027152,0.008119829502607537,0.9861294634314381
2011-05-09,-1,-0.00039224233580595553,-0.0002955715596963225,-0.015998250509027152,0.008119829502607537,0.9865118825876452
2011-05-11,0,-4.7669851490172066e-05,7.372710996376714e-05,-0.010871554292689475,0.0066482194851107766,0.9882474046359438
2011-05-13,-1,-0.0017734178362285627,-0.0016031059142374389,-0.010247533867012748,0.008119829502607537,0.9880364066357237
2011-05-17,-1,-0.0010977056270386428,-0.0009970385809439483,-0.015054237861692302,0.008600580412448924,0.9861194862956958
2011-05-19,0,0.0,0.0,-0.015054237861692302,0.01056980743191135,0.984823398496225
2011-05-23,0,0.0,0.0,-0.010247533867012748,0.011835081296634416,0.9854904753681015
2011-05-25,0,0.0,0.0,-0.011324704115112064,0.011835081296634416,0.9859861221106049
2011-05-27,0,0.0,0.0,-0.011324704115112064,0.007954407807321472,0.9864054279997898
2011-06-01,0,0.0,0.0,-0.00992590766972422,0.005769554268137097,0.9890042912216215
2011-06-03,0,0.0,0.0,-0.008601279654879015,0.007954407807321472,0.9890519968419368
2011-06-07,0,0.0,0.0,-0.008601279654879015,0.007954407807321472,0.9887648814725081
2011-06-09,0,0.0,0.0,-0.008960336404245454,0.010451920413321528,0.9869537962270064
2011-06-13,-1,-0.004775215696870939,-0.004054151006419651,-0.008960336404245454,0.006655723572342526,0.9869655614564803
2011-06-15,-1,-0.004326966994831273,-0.003663418299474229,-0.008960336404245454,0.005769554268137097,0.9883891589357622
2011-06-17,-1,-0.002317275881538524,-0.0019691261376495895,-0.011472808056753395,0.002198765332613376,0.9888849901738533
2011-06-21,-1,-0.0011985320788923796,-0.000990184711598256,-0.011472808056753395,0.0010260856796997977,0.9888563094155254
2011-06-23,-1,-0.0020652797688650165,-0.0017671191959237604,-0.00788225362906662,0.0026076114977330164,0.9886593372649556
2011-06-27,-1,-0.0025886237312717887,-0.0022363457486253248,-0.007157399446769457,0.0026076114977330164,0.9887775523108383
2011-06-29,0,0.0,0.0,-0.01868421584797491,0.0006184656807663172,0.986386438297258
2011-07-01,-1,-0.0012413861391848524,-0.0011695832281119866,-0.021027315751832858,0.0006184656807663172,0.9866635279698918
2011-07-06,-1,-0.0007652390204427967,-0.0007377416954138416,-0.022715000478621378,0.0029244963834357124,0.9814395469645407
2011-07-08,0,0.0,0.0,-0.021027315751832858,0.007845010506593784,0.9825765135864699
2011-07-12,0,0.0,0.0,-0.021027315751832858,0.007845010506593784,0.9819315572600186
2011-07-14,0,0.0,0.0,-0.021027315751832858,0.01284677953210356,0.9793063479659185
2011-07-18,0,0.0,0.0,-0.01896586572495551,0.014288944246685198,0.9758850053242134
2011-07-20,0,0.0,0.0,-0.021909503134606514,0.014288944246685198,0.9750132613550975
2011-07-22,-1,-0.0006163149408666806,-0.0005901987393590611,-0.02397858202432201,0.010709722201835317,0.9723109453152382
2011-07-26,0,0.0,0.0,-0.02397858202432201,0.015762118668774448,0.9688935252809552
2011-07-28,0,0.0,0.0,-0.021909503134606514,0.016414563810319926,0.9685961919986709
2011-08-01,0,0.0,0.0,-0.01601704548194231,0.022290607307520503,0.9680091780985238
2011-08-03,0,0.0,0.0,-0.0137641704716237,0.017571859555784716,0.9730134674199049
2011-08-05,-1,-0.002898603529401732,-0.0026063133165848884,-0.022225298996390523,0.017571859555784716,0.9708046392162892
2011-08-09,-1,-0.004822190236510853,-0.004293938470021052,-0.01601704548194231,0.022290607307520503,0.9676286048993252
2011-08-11,-1,-0.007106688168252781,-0.006436640270659592,-0.022225298996390523,0.022290607307520503,0.966567507545874
2011-08-15,-1,-0.004386993597822636,-0.004025944085301089,-0.022225298996390523,0.020413020652252124,0.9693551446633528
2011-08-17,-1,-0.0032858937399318127,-0.003162240873653824,-0.01596964338063206,0.020413020652252124,0.9702016920171386
2011-08-19,-1,-0.006416066474932802,-0.00593045744533779,-0.009757734089212922,0.020413020652252124,0.9705717858670285
2011-08-23,-1,-0.002488584952807368,-0.002481367582535826,-0.02403424045613082,0.01993574586110928,0.9738319118405362
2011-08-25,0,-3.222478802392668e-05,0.00032212278304488023,-0.02816416242172058,0.017209310284523355,0.9743726129192274
2011-08-29,1,0.0021106208807480245,0.002778492778110901,-0.02816416242172058,0.014153936579295564,0.9744063172782578
2011-08-31,1,0.0012997520228178385,0.0018267937940459704,-0.02816416242172058,0.014153936579295564,0.9727382975718538
2011-09-02,-1,-0.0015671069897651524,-0.0014562997289789496,-0.03286584091487399,0.014153936579295564,0.9717147704688863
2011-09-07,1,0.0018808651724329752,0.00243898159666165,-0.03286584091487399,0.014153936579295564,0.9720899976996153
2011-09-09,-1,-0.002018562951086181,-0.002013928951252361,-0.029576159765660963,0.017209310284523355,0.9744262017739025
2011-09-13,0,-0.00016492363457406341,9.648074309646665e-05,-0.029576159765660963,0.025387428326765184,0.9713349204915038
2011-09-15,0,0.0,0.0,-0.029576159765660963,0.025387428326765184,0.9708909632648253
2011-09-19,0,0.0,0.0,-0.029576159765660963,0.025387428326765184,0.9696205252691992
2011-09-21,0,0.0,0.0,-0.02822879622183664,0.02588041072934043,0.9696751818163298
2011-09-23,0,0.0,0.0,-0.022497136602459285,0.02588041072934043,0.9709765249596701
2011-09-27,0,0.0,0.0,-0.02822879622183664,0.026942677011565122,0.9694288996414314
2011-09-29,0,0.0,0.0,-0.024898096170639226,0.03618030579918931,0.9657227946562928
2011-10-03,0,0.0,0.0,-0.024898096170639226,0.03618030579918931,0.9656717235102011
2011-10-05,0,0.0,0.0,-0.03450512800449025,0.02348753071632079,0.9669183624906557
2011-10-07,0,0.0,0.0,-0.024589247196677152,0.02348753071632079,0.9683244222156557
2011-10-11,0,0.0,0.0,-0.024589247196677152,0.022791641309712823,0.9711633610130955
2011-10-13,0,0.0,0.0,-0.03538849540133539,0.02348753071632079,0.9672466357328742
2011-10-17,0,0.0,0.0,-0.024589247196677152,0.023958711042234446,0.9699881135081425
2011-10-19,0,0.0,0.0,-0.02437284376090182,0.02449521544989173,0.9685568260452196
2011-10-21,1,0.0005518485908742129,0.0008870890106066941,-0.02437284376090182,0.026957595472379352,0.9678338164173722
2011-10-25,-1,-0.0003615031744963182,-0.00019046700165906692,-0.021572684538543635,0.02449521544989173,0.9694841220830721
2011-10-27,1,0.0026580356302303414,0.0032271982096011486,-0.02468768987851282,0.022670353282537917,0.9723820110319343
2011-10-31,-1,-0.0007732385393320878,-0.000659319124880522,-0.019529335395137366,0.022670353282537917,0.9758403252220545
2011-11-02,-1,-0.0008155237288765597,-0.000695264489724412,-0.018938824279641032,0.02449521544989173,0.9752477212015541
2011-11-04,-1,-0.0006536740404699147,-0.0004979712582854325,-0.01739472728970249,0.02449521544989173,0.9756039522145815
2011-11-08,1,0.0010838016827491859,0.001544088408738647,-0.01739472728970249,0.02449521544989173,0.9763012626362075
2011-11-10,1,0.0006297681206695199,0.0010735233034208731,-0.01739472728970249,0.025412867179549346,0.9769809453708213
2011-11-14,1,0.0019901804862778373,0.0025278605282989886,-0.01739472728970249,0.02971055066135221,0.9735586345860091
2011-11-16,1,0.0029215751549834267,0.0035652924005076326,-0.017358905159935857,0.02285342853873168,0.9755177639647732
2011-11-18,1,0.003891544935327511,0.004681186414521262,-0.017358905159935857,0.019213355031052152,0.9766345831815657
2011-11-22,1,0.0030507639637543074,0.003795933209669439,-0.00788942315419945,0.019213355031052152,0.9782187000946508
2011-11-25,1,0.0014498134700882729,0.0019711905187906617,0.001938956954475257,0.019213355031052152,0.9794608348166218
2011-11-29,1,0.0023335836590836967,0.0029036784535991992,-0.0012330444989628938,0.016032475472355236,0.9800493031168099
2011-12-01,1,0.003614325409196774,0.004297979350507795,0.00037908373612436394,0.013687510806458697,0.9831617299180074
2011-12-05,0,0.0,0.0,-0.0023941599369498227,0.013687510806458697,0.981517153477192
2011-12-07,0,0.0,0.0,-0.008640967583097648,0.009993517046178287,0.9825834162165297
2011-12-09,0,0.0,0.0,-0.0020822692153826083,0.008789639532216571,0.9860793496895204
2011-12-13,0,0.0,0.0,-0.0017031854792582445,0.008789639532216571,0.9899788950538053
2011-12-15,0,0.0,0.0,0.0019827684918640866,0.00847595780709765,0.9913264851821632
2011-12-19,0,0.0,0.0,0.0035817625527577173,0.008830859344387394,0.9914041902362452
2011-12-21,0,0.0,0.0,0.0019827684918640866,0.008830859344387394,0.9904266255072691
2011-12-23,0,0.0,0.0,0.0015502191988648105,0.008841195588906925,0.9899805284924568
2011-12-28,0,0.0,0.0,0.002331026564319306,0.008841195588906925,0.9909452331116888
2011-12-30,0,0.0,0.0,0.0018234908226423374,0.008489697744487924,0.9913943866177658
2012-01-04,0,0.0,0.0,0.0018234908226423374,0.008306819373842556,0.9920425054505332
2012-01-06,0,0.0,0.0,0.002331026564319306,0.009012449460962515,0.9914624485694086
2012-01-10,1,0.002013946940634267,0.0022923701254075235,0.002331026564319306,0.009796778167423102,0.9927805371861677
2012-01-12,1,0.0007677521448344155,0.0008038691125608705,0.0018234908226423374,0.009796778167423102,0.9905946467444309
2012-01-17,0,0.0,0.0,0.001358093995422421,0.009796778167423102,0.9904066525395441
2012-01-19,0,0.0,0.0,0.001358093995422421,0.009796778167423102,0.9908731983665822
2012-01-23,1,0.003945486618545343,0.004565604303954968,0.001358093995422421,0.008157273606835307,0.9932169604184747
2012-01-25,0,0.0,0.0,0.00036203001903808497,0.006346047807811828,0.992077364411872
2012-01-27,1,0.006789794768855762,0.007583470929832251,-0.0021053911388022655,0.006346047807811828,0.9915133051985722
2012-01-31,1,0.008146833182325331,0.009291992862997256,-0.006143902102745601,0.005269526052801291,0.988734247338962
2012-02-02,1,0.006046872289034648,0.00670492427761815,-0.010167053659592171,0.005269526052801291,0.9888565865377049
2012-02-06,1,0.007104161291161055,0.007957358127530532,-0.010167053659592171,0.0037476673993290387,0.9878194586309262
2012-02-08,1,0.007370435123944212,0.008263406992582732,-0.010167053659592171,0.00436296227131742,0.9872389767827461
2012-02-10,1,0.006911535317570265,0.00762560631822394,-0.01198296515668619,0.00436296227131742,0.9877626759535482
2012-02-14,1,0.005799412720862764,0.006271731969852925,-0.013468694940593759,0.005269526052801291,0.9872662149922001
2012-02-16,1,0.005108449655501598,0.005407254251332467,-0.013468694940593759,0.006576706097449229,0.9870007833801155
2012-02-21,1,0.00489467181553993,0.005234495765613115,-0.01198296515668619,0.006576706097449229,0.9873932081541522
2012-02-23,1,0.0035512444038491133,0.0036271468461237318,-0.01198296515668619,0.0052811371176673064,0.9872261027768461
2012-02-27,1,0.0008857050427056893,0.001284167886987651,-0.01198296515668619,0.0052811371176673064,0.9886747686255594
2012-02-29,1,0.0009289596712098715,0.0011979024766469205,-0.011074512355565093,0.0052811371176673064,0.9884203650879844
2012-03-02,0,0.0,0.0,-0.009062878884403436,0.007845968011853607,0.9887632570518364
2012-03-06,0,0.0,0.0,-0.008693576740104323,0.008920319632660838,0.988636513165017
2012-03-08,1,0.001702967831559729,0.0017605878166456897,-0.011092962091452142,0.004094244350319266,0.9892309147270061
2012-03-12,1,0.0008950280124020807,0.0011098514120557305,-0.01137755690129772,0.0022123466107379893,0.9898844672955919
2012-03-14,1,0.0007472027649877926,0.0009864199174189933,-0.01100951206630332,0.004094244350319266,0.990709640830067
2012-03-16,1,0.0008222830720372069,0.0010355523679262497,-0.011320256809208026,0.0022123466107379893,0.9906542827479218
2012-03-20,1,0.00024885154574989235,0.0005397517894235424,-0.011456006700475106,0.004094244350319266,0.9894501885062316
2012-03-22,1,0.0017256939991832033,0.0017746195768774233,-0.011320256809208026,0.004811745187644888,0.9896311190389327
2012-03-26,0,-0.0002962543318416628,3.8412332044920135e-05,-0.011320256809208026,0.006659946978056191,0.9897754985993571
2012-03-28,-1,-0.001802470932586312,-0.001260889506792613,-0.008833759148780877,0.007996042205238309,0.9905995029220404
2012-03-30,-1,-0.002250042995225625,-0.0016356124055428032,-0.008833759148780877,0.010347207645161996,0.9901795262916433
2012-04-03,0,0.0,0.0,-0.008833759148780877,0.009574813314535646,0.9902627621658231
2012-04-05,0,0.0,0.0,-0.008833759148780877,0.009574813314535646,0.9892608186171105
2012-04-10,0,0.0,0.0,-0.007988864773666404,0.009574813314535646,0.9899077409867703
2012-04-12,0,0.0,0.0,-0.008859909081840004,0.005095001066257571,0.9898688170221375
2012-04-16,0,0.0,0.0,-0.00956702128446247,0.005095001066257571,0.9892965805866469
2012-04-18,0,0.0,0.0,-0.014897883013389651,0.004093332974512457,0.9865857552307129
2012-04-20,0,0.0,0.0,-0.018003016103145676,0.005095001066257571,0.9843015711517148
2012-04-24,0,0.0,0.0,-0.02214581847687539,0.006067599267786038,0.9810117299540354
2012-04-26,-1,-0.0045661571164061845,-0.0036432770516841174,-0.02214581847687539,0.006067599267786038,0.9810726935409256
2012-04-30,0,0.0,0.0,-0.02214581847687539,0.005810860551843114,0.9800258858044859
2012-05-02,0,0.0,0.0,-0.02596527797810816,0.004120009334404977,0.9786225576221887
2012-05-04,-1,-0.006199761718006041,-0.005068817072191405,-0.02596527797810816,0.004120009334404977,0.9789306317896558
2012-05-08,-1,-0.003704363842814909,-0.0030883618432742334,-0.02596527797810816,0.011173165686909972,0.9776238272595156
2012-05-10,-1,-0.0047594200649054095,-0.00401786794178953,-0.02596527797810816,0.013310110223530647,0.9770771105967965
2012-05-14,-1,-0.006154572361073717,-0.005210081529561287,-0.028884406241808606,0.013366450763380566,0.9760253053341469
2012-05-16,-1,-0.009582364607399705,-0.008288806029297083,-0.028688874207633924,0.013765612197213612,0.9779441049890799
2012-05-18,-1,-0.008885661876271454,-0.0077189795227865995,-0.0205807788868439,0.013765612197213612,0.9782015784640838
2012-05-22,0,0.0,0.0,-0.013927288676313647,0.013366450763380566,0.9822709272488355
2012-05-24,0,0.0,0.0,-0.012250165237118143,0.013765612197213612,0.9822169180564057
2012-05-29,0,0.0,0.0,-0.013633689597256825,0.013765612197213612,0.9817900827817884
2012-05-31,0,0.0,0.0,-0.012250165237118143,0.01618217010210887,0.9806977330260059
2012-06-04,0,0.0,0.0,0.0023117397340588195,0.021338644022847054,0.9808443255091254
2012-06-06,0,0.0,0.0,0.0023117397340588195,0.021338644022847054,0.9804752544959725
2012-06-08,0,0.0,0.0,-0.0012703011518816465,0.021338644022847054,0.9815670296360631
2012-06-12,0,0.0,0.0,-0.0012703011518816465,0.021154602686152445,0.9823370828216066
2012-06-14,-1,-0.006493788640092346,-0.00574908252254777,0.002857489363865222,0.023373899527846142,0.9785885392176586
2012-06-18,-1,-0.004434104323100496,-0.003994941616537939,0.0018520364014536167,0.021154602686152445,0.9807548437534641
2012-06-20,-1,-0.00468459935898753,-0.004221546929907086,0.002366953604860526,0.021154602686152445,0.9807552559145666
2012-06-22,-1,-0.003267679170728663,-0.002983076040015213,0.0013015681438769207,0.01631289937298637,0.9830603345419031
2012-06-26,-1,-0.002713147653998028,-0.0025052792380397225,-0.0004090257559136848,0.01428766969688507,0.9836203475257893
2012-06-28,1,5.716902009568719e-06,0.0002079940346135504,-0.0013605107797038485,0.01428766969688507,0.9807908299284717
2012-07-02,1,0.0019175481784301678,0.00239858037510608,-0.005259664214265203,0.013934995460931212,0.9825865151935261
2012-07-05,1,0.0035330336598436408,0.004280024595578327,-0.01613295077791911,0.006890547105874709,0.980950512909128
2012-07-09,1,0.003654103465574885,0.004419164056648041,-0.01613295077791911,0.013934995460931212,0.9792768170371723
2012-07-11,1,0.0038314290612188884,0.004643031680509774,-0.01345666611558541,0.013934995460931212,0.9793250039543971
2012-07-13,1,0.005283385189573062,0.0062485668854903986,-0.01345666611558541,0.00835054250364424,0.9796982181763136
2012-07-17,1,0.0055227300398698696,0.006517190937574281,-0.01345666611558541,0.0050487263151477325,0.9787388790048531
2012-07-19,1,0.0054920431937299265,0.006466140687994001,-0.01345666611558541,0.009224926030342955,0.9782508811166645
2012-07-23,1,0.004982228115180122,0.0058204076811583065,-0.01345666611558541,0.015267578031059699,0.9784377173307004
2012-07-25,1,0.0031385743376820723,0.003697954686764156,-0.009189978978006037,0.015267578031059699,0.9805148251803112
2012-07-27,1,0.002302067342794533,0.0027522565764442463,-0.009189978978006037,0.015267578031059699,0.9852864980119012
2012-07-31,1,0.0017978159496369734,0.0022553491999475917,-0.009189978978006037,0.015267578031059699,0.9858079500594383
2012-08-02,1,0.00040805122541468235,0.0006864603931139377,-0.008953837850973843,0.015267578031059699,0.9859491562847392
2012-08-06,1,0.0021253626721310535,0.0026487555722249506,-0.009189978978006037,0.011823180273723236,0.985877716997626
2012-08-08,1,0.0026495740654059975,0.003255202983844365,-0.008953837850973843,0.01180594613649959,0.9866135380961113
2012-08-10,1,0.0030894446366912,0.0037456843791365715,-0.008953837850973843,0.014513888635535321,0.9842709830241009
2012-08-14,1,0.0022568642884967494,0.002760217576844305,-0.008171051671922018,0.015267578031059699,0.9801167763427845
2012-08-16,1,0.003389646113663959,0.004066892418596119,-0.008171051671922018,0.01767760216896992,0.9787157374980344
2012-08-20,1,0.003124978948710667,0.0036914788525488533,-0.011217677385321404,0.017625899757298984,0.9761037019598885
2012-08-22,1,0.0032089276070105827,0.003796259262340977,-0.011217677385321404,0.02761794487887319,0.9754985335963461
2012-08-24,1,0.004226803823234523,0.004963902352545273,-0.005633245721621653,0.01789828514940912,0.9774936818509682
2012-08-28,1,0.0032121389042568576,0.0037932247801610213,-0.007923408918438358,0.01789828514940912,0.9755545277536927
2012-08-30,1,0.0009662921837443565,0.0011852141403933657,-0.005300430691394715,0.02761794487887319,0.9743323778922103
2012-09-04,1,0.0008327563154680612,0.001089857338938333,-0.004464056001829761,0.02761794487887319,0.975407697926555
2012-09-06,1,0.0014642583252183206,0.0017731078107252316,-0.005300430691394715,0.02761794487887319,0.975010960734229
2012-09-10,1,0.003984565207400079,0.004612953081528447,-0.008978993111255298,0.015443666726576552,0.9779860331755736
2012-09-12,1,0.008075353041163523,0.009239510125073427,-0.01317695350741364,0.014861168263461268,0.9800068875303695
2012-09-14,1,0.009404857983893532,0.01073418890841494,-0.01317695350741364,0.014861168263461268,0.9800477256045792
2012-09-18,1,0.007279144837667994,0.008359475276391054,-0.012438258774036221,0.015339126758967783,0.9835831549959806
2012-09-20,1,0.008649395831864692,0.009952696042759931,-0.012438258774036221,0.015339126758967783,0.9823975866369102
2012-09-24,1,0.008730280228468355,0.010030963096362373,-0.01317695350741364,0.015339126758967783,0.9805406812231869
2012-09-26,1,0.006207966953792244,0.007100249749558751,-0.01317695350741364,0.015339126758967783,0.9828724169749156
2012-09-28,1,0.006938607405667201,0.00789877919542746,-0.01247102150106293,0.012290474034705182,0.9847976825712832
2012-10-02,1,0.00709777353298895,0.008023145874566082,-0.01247102150106293,0.012764432803203472,0.98357932120396
2012-10-04,1,0.006526058780998559,0.007317975879487048,-0.01247102150106293,0.00984766261114783,0.9834904679075112
2012-10-08,1,0.0035400851188205082,0.003720306830272232,-0.013199922752181608,0.012764432803203472,0.9800325943427599
2012-10-10,1,0.0020926177715778777,0.0021005350044544092,-0.011859999154334801,0.012764432803203472,0.9817834512877953
2012-10-12,1,0.001879200360252867,0.0018944724125904602,-0.011325328630232147,0.01229666058929417,0.9822479170631125
2012-10-16,1,0.002946116807273088,0.003066855317848863,-0.012468567577973037,0.009141617006210707,0.9826701357929786
2012-10-18,1,0.0035177915097810456,0.003749761242467617,-0.012048213370842999,0.009141617006210707,0.9832516182473942
2012-10-22,1,0.0015251021128775042,0.0016222996682629695,-0.009194218769348353,0.008758593682204205,0.9854545312739165
2012-10-24,-1,-0.000534580232232694,-8.288179550527009e-05,-0.006246596428997014,0.01228399867924696,0.9854114296610772
2012-10-26,0,-0.0002827815258608212,9.987796886129475e-05,-0.006910260359610496,0.01485192847868381,0.9847986334904603
2012-11-01,1,0.001066421155404926,0.0012675830667020853,-0.002348116076462144,0.015779024580033153,0.9841600345789668
2012-11-05,0,-0.00032425387757122016,6.401833203809786e-05,-0.002348116076462144,0.015779024580033153,0.9843714458893562
2012-11-07,-1,-0.0012733526249764223,-0.0007340710777551625,-0.002348116076462144,0.01556885166152804,0.9861184256784017
2012-11-09,-1,-0.0007492361971365902,-0.00031931544362511486,-0.0016822071842841331,0.01556885166152804,0.9865290181125402
2012-11-13,-1,-0.0006103056185894306,-0.00016561317435896715,-0.006621521959313198,0.01553086593138641,0.9867373764380254
2012-11-15,-1,-0.0012661649493822765,-0.0007801853345657992,-0.0006978937039087167,0.01553086593138641,0.9869293999337199
2012-11-19,1,6.226123316820206e-05,0.0003939633155978096,-0.0006978937039087167,0.01553086593138641,0.9877774245778345
2012-11-21,1,0.0009894069607065366,0.001115326506620437,-0.0015840298506234454,0.01553086593138641,0.9880157880963365
2012-11-26,1,0.002431558251314406,0.002563418210199284,-0.0037766019573090967,0.014590895367330395,0.9875402391748092
2012-11-28,1,0.0029534337687710842,0.003205255195282298,-0.00477299529141888,0.010226310288899067,0.9877549191304017
2012-11-30,1,0.0045694414253502,0.005026109988269267,-0.009760949045920725,0.008728483037194257,0.9888052890583018
2012-12-04,1,0.00406546815161003,0.004445360799058953,-0.007707341992407535,0.010226310288899067,0.9877768151712032
2012-12-06,1,0.004386256840447028,0.00489884655199515,-0.004028613403785843,0.007832176976595752,0.9896766269420295
2012-12-10,1,0.0042201882412265445,0.004721119334696546,-0.004028613403785843,0.007832176976595752,0.9896739705656074
2012-12-12,1,0.003427266813548091,0.003820931911122395,-0.002426438047107379,0.008555686135805955,0.9905860345312013
2012-12-14,1,0.003705506168545391,0.004133491675200484,-0.004028613403785843,0.009150218179386809,0.989920805221575
2012-12-18,1,0.0036248893894193267,0.003941784030347296,-0.005211775394182107,0.008599481424403536,0.9898532338810292
2012-12-20,1,0.002828818124546378,0.0029995997317733758,-0.005211775394182107,0.01433986247499531,0.9874742472973587
2012-12-24,1,0.001912953254467322,0.0019427665081340425,-0.005211775394182107,0.011111586146458541,0.9878922222638605
2012-12-27,-1,-0.0005565835277298501,-0.0001443471676541119,-0.005530161704104329,0.011111586146458541,0.9887503153242359
2012-12-31,1,0.0007321443803329986,0.0009321786962727632,-0.005530161704104329,0.011672956904424468,0.9867451901503919
2013-01-03,1,0.0011966014690278194,0.001336375579178469,-0.00486760927753573,0.008599481424403536,0.9882227915346544
2013-01-07,1,0.0014300082610964728,0.0015247894175207156,-0.005530161704104329,0.008599481424403536,0.9880161861011327
2013-01-09,1,0.0006619907113144,0.0008833624764931745,-0.007488525343705007,0.008599481424403536,0.9873141467944112
2013-01-11,1,0.0014303279148924883,0.0015303284753899952,-0.008387857972363738,0.009984132042581776,0.9868163395336698
2013-01-15,1,0.0012795076611223208,0.0013908799059673164,-0.006768290251796769,0.00935712568145861,0.9873072523846825
2013-01-17,1,0.0013254003269426323,0.0014403147130532738,-0.008387857972363738,0.006354676212188347,0.9874364948099604
2013-01-22,1,0.0033754568450736332,0.003553670013507487,-0.011513349489176804,0.001795117632436358,0.9866822315611105
2013-01-24,1,0.0017761312641260021,0.001862578327174691,-0.008387857972363738,0.001795117632436358,0.9880671998060416
2013-01-28,0,-7.809888462515413e-05,0.00032881600017616464,-0.011513349489176804,0.003601411155477104,0.9860961010242654
2013-01-30,-1,-0.0010990073301121723,-0.0005282698704868866,-0.008387857972363738,0.003601411155477104,0.9889998183787383
2013-02-01,-1,-0.0006070982543434195,-0.00013122989777955845,-0.008387857972363738,0.004298384272641655,0.9881978890102651
2013-02-05,1,0.0002410763460268491,0.0005039935837499378,-0.006647381899618714,0.008904365831727087,0.9868713057575161
2013-02-07,1,0.0015532318696917207,0.001656830804158361,-0.0050515001055926444,0.010733436485593878,0.9865857765958556
2013-02-11,1,0.002048071797510968,0.0022909414122509403,-0.0050515001055926444,0.009299134704334674,0.9870057572064117
2013-02-13,1,0.0009430591870526182,0.0009584274902588311,-0.004575154634754136,0.009299134704334674,0.9872731956763413
2013-02-15,1,0.0010923337704235577,0.00114545290121819,-0.004997733900778152,0.009299134704334674,0.9875559683208063
2013-02-20,-1,-0.0007489396944479951,-0.0005833737541980901,-0.004997733900778152,0.0110099076977522,0.9885257507762284
2013-02-22,-1,-0.0014416644876481142,-0.0011186978753006825,-0.007049227771540007,0.0110099076977522,0.9868340644431749
2013-02-26,-1,-0.001350013533108256,-0.0010792582660291991,-0.005068056267368805,0.009299134704334674,0.990038236800039
2013-02-28,-1,-0.0011689215960838167,-0.0009399129297301519,-0.006931733800694804,0.009713897080550652,0.9897242859640437
2013-03-04,-1,-0.0004260780496177574,-0.00028681364091098457,-0.010246796992694982,0.007201674538639919,0.9882718488683568
2013-03-06,-1,-0.00027448955656119047,-0.00012411814019894788,-0.014808548448156263,0.005697732633767416,0.9889536478238072
2013-03-08,0,-6.2059529799858e-05,0.00010331812619826129,-0.014808548448156263,0.0036972380253008615,0.9895813843811204
2013-03-12,-1,-0.0007134419853235411,-0.0004591370651688348,-0.014808548448156263,0.005697732633767416,0.9890231304643428
2013-03-14,1,0.00035848594501179144,0.00042476976836356816,-0.01666865581800602,0.00590165904463272,0.986715843759514
2013-03-18,1,7.038535812015675e-05,0.00015656594727233466,-0.02126346439278432,0.008555396791294368,0.9808454113572432
2013-03-20,-1,-0.000635785508054384,-0.0004386552598615546,-0.02663699548117978,0.00590165904463272,0.9798182988833427
2013-03-22,-1,-0.0023575137757365396,-0.0019273056984259586,-0.02135590558051607,0.008555396791294368,0.9809343934302971
2013-03-26,-1,-0.002293804643898879,-0.0018678506210970953,-0.02135590558051607,0.012320695485874123,0.9798924037051515
2013-03-28,-1,-0.0014593090199721776,-0.0011824811991756534,-0.02135590558051607,0.008936366136442227,0.9797994974538414
2013-04-02,-1,-0.003928387446555803,-0.0033153644388719834,-0.01562992645235715,0.015186888739573854,0.9782324326417722
2013-04-04,-1,-0.005285860451011756,-0.004448733251772198,-0.019163603559852596,0.01696290232756713,0.974931043959719
2013-04-08,-1,-0.00487625899940845,-0.0040977572960834915,-0.019163603559852596,0.019379793213647765,0.9729234168745082
2013-04-10,-1,-0.0038752280626361984,-0.0032438652830777594,-0.019163603559852596,0.019379793213647765,0.9730187618527671
2013-04-12,-1,-0.005286274569394998,-0.004447260975804199,-0.010084020083811965,0.01829943788465176,0.9751491807228951
2013-04-16,-1,-0.004168697266206839,-0.0035247904956452764,-0.007584011952517262,0.01462165626931907,0.9808435134447697
2013-04-18,-1,-0.006431995769722079,-0.005529842152229417,-0.005469607843299301,0.01462165626931907,0.9816973263732787
2013-04-22,-1,-0.005229854948636318,-0.004505830293409436,-0.005469607843299301,0.01462165626931907,0.9823144392226851
2013-04-24,-1,-0.004288197114965145,-0.003682723630285293,-0.007341741000736832,0.012504711128985282,0.9833095775310086
2013-04-26,-1,-0.0037698636994957582,-0.003334355610794717,-0.005452730214278508,0.012504711128985282,0.983701739194206
2013-04-30,-1,-0.0011121167592271918,-0.000981110732915082,-0.007291108113674455,0.010850268801932595,0.9867375459571838
2013-05-02,-1,-0.00048741120415675973,-0.00041172852408706355,-0.007291108113674455,0.008283357919489708,0.9895586842978408
2013-05-06,1,0.0009881075705844092,0.001093500693074927,-0.008109615485880226,0.007534707335577986,0.9907013401931724
2013-05-08,1,0.001274330282920206,0.0013792843025168997,-0.008550777913172259,0.005253281072465062,0.9898189062549129
2013-05-10,1,0.0011664268499380996,0.0012727342217107272,-0.008550777913172259,0.009577053668026766,0.9887257330819256
2013-05-14,1,0.0017191599901116086,0.0019549500218489116,-0.009532669717615173,0.007988832790134952,0.9888304414560045
2013-05-16,1,0.001451172855191075,0.0016502918129621719,-0.013350527706369885,0.009577053668026766,0.9874050781283643
2013-05-20,1,0.0016706144697575288,0.0018899723085269386,-0.013350527706369885,0.010541729420830205,0.9868011395043186
2013-05-22,1,0.0004177238708411522,0.00041988031470487026,-0.013350527706369885,0.010541729420830205,0.9855192719096103
2013-05-24,1,0.0006483653437951958,0.0006987201336984851,-0.020081017012117487,0.010541729420830205,0.9826407642224162
2013-05-29,1,0.0012142009881225173,0.0013803312725297195,-0.020081017012117487,0.01021958069412103,0.9829128681250543
2013-05-31,1,0.0008579006796448132,0.0009881424706662109,-0.021113812529234607,0.012950904472492258,0.9813326729143159
2013-06-04,-1,-3.235018326602215e-05,-2.154262084506908e-05,-0.02069932318806007,0.012950904472492258,0.9813428412768007
2013-06-06,1,0.0002762705224252882,0.0003587915814364799,-0.016135237103509645,0.01021958069412103,0.9822044478369285
2013-06-10,1,0.0011824597566209365,0.0013798105696393001,-0.016135237103509645,0.01021958069412103,0.9815977203824029
2013-06-12,1,0.0011520041395335144,0.0013695636808872134,-0.016135237103509645,0.013235859369079214,0.9808694489774168
2013-06-14,1,0.0023542793517620283,0.0028334478891663554,-0.014542287233582401,0.01021958069412103,0.9821649059885762
2013-06-18,1,0.002360438133829993,0.0028074980717075868,-0.02034480271030794,0.01021958069412103,0.9815208453072746
2013-06-20,1,0.0007616953738480544,0.0009801988127218888,-0.013291054325207708,0.01021958069412103,0.9837709078518786
2013-06-24,-1,-0.0012428376074727747,-0.0012012805396994354,-0.00895465015223803,0.01021958069412103,0.9861577875992336
2013-06-26,0,0.0,0.0,-0.012086129139355578,0.00813719132924155,0.9857540174245214
2013-06-28,-1,-0.0001667111683869983,-6.4782026291216e-05,-0.012086129139355578,0.00813719132924155,0.9868536741194397
2013-07-02,0,0.0,0.0,-0.011751926391713022,0.006132851389214976,0.9873981851187938
2013-07-05,0,0.0,0.0,-0.011751926391713022,0.010506981199362934,0.9852489689374851
2013-07-09,0,0.0,0.0,-0.013895678269033446,0.006132851389214976,0.9854425810892085
2013-07-11,0,0.0,0.0,-0.013895678269033446,0.0048957624670087005,0.9856902081703828
2013-07-15,0,0.0,0.0,-0.013895678269033446,0.0048957624670087005,0.9857694264878406
2013-07-17,-1,-0.0004954772849991964,-0.00043926838761525926,-0.011751926391713022,0.004247422858349212,0.9873304666164682
2013-07-19,0,0.0,0.0,-0.013895678269033446,0.003816479332966109,0.9860510578158722
2013-07-23,-1,-0.0010986472084895814,-0.0009408296220210333,-0.013895678269033446,0.0059004381972054334,0.9849776981631647
2013-07-25,-1,-0.001706912807851497,-0.0015168652159190433,-0.011341762155920011,0.012338323969912706,0.9850833018599949
2013-07-29,-1,-0.0011821789927450995,-0.0011004072740457447,-0.011341762155920011,0.0059004381972054334,0.9854014532642184
2013-07-31,-1,-0.0011405102144827002,-0.0011046685194079041,-0.009465876717240529,0.0059004381972054334,0.985694767503277
2013-08-02,1,0.00018556335551004656,0.0003082484275738858,-0.006576197198189305,0.003816479332966109,0.9883946727930216
2013-08-06,-1,-0.0005125974503679757,-0.00046108586396872216,-0.004592103991267107,0.007802973164484697,0.9891815514021308
2013-08-08,-1,-0.000301818620622622,-0.00024197017618117706,-0.0042070539828644735,0.0069470075319022495,0.9903170619913084
2013-08-12,-1,-0.0003311902603160299,-0.00028297012323217426,-0.0042070539828644735,0.012169311250201662,0.9883087954924896
2013-08-14,-1,-0.0009425082104191384,-0.0008426837624951235,-0.004592103991267107,0.014604210469071543,0.9870184604118125
2013-08-16,-1,-0.0012844580911521002,-0.0011488903841330113,-0.004235634319689977,0.015540394493620375,0.9876724041877077
2013-08-20,1,0.00011341582841527005,0.00015378319721374547,-0.004592103991267107,0.015540394493620375,0.9880285673831641
2013-08-22,-1,-0.0009311230231124342,-0.0007522667742304285,-0.005957297886036437,0.015033356334487245,0.9881952849037682
2013-08-26,-1,-0.002367226879845771,-0.002004085321180106,-0.005957297886036437,0.015033356334487245,0.9883841661133832
2013-08-28,-1,-0.0022918210559746237,-0.001953695488224448,-0.0053443215867797515,0.015033356334487245,0.9880008816702578
2013-08-30,-1,-0.0019193644544250547,-0.0016579383112355303,-0.008267997445865278,0.015033356334487245,0.9872093312951638
2013-09-04,-1,-0.0015540361641282257,-0.0013030916903060113,-0.008267997445865278,0.017156288393524535,0.9865565328645857
2013-09-06,-1,-0.0014658575000771846,-0.001219286275927365,-0.009709357219265182,0.017156288393524535,0.9859720955358912
2013-09-10,-1,-0.0009893405915255165,-0.0006962537684487846,-0.013904513636547967,0.013372832088023276,0.9871760713038854
2013-09-12,-1,-0.0006840587657675998,-0.00044758050234511694,-0.012651971039023352,0.013372832088023276,0.9865269352445676
2013-09-16,1,0.00015690687587123253,0.00025596529334479743,-0.012651971039023352,0.0105114630483913,0.986887043369641
2013-09-18,1,0.0001795245875058456,0.0003254099678823181,-0.015464343851261683,0.009362229689395724,0.9872591424084174
2013-09-20,1,0.0006114874547206297,0.0006403871715818959,-0.012651971039023352,0.009362229689395724,0.9883064917538522
2013-09-24,1,0.0006867596228042078,0.0007705003341832563,-0.007229839638360484,0.0105114630483913,0.9873250550908558
2013-09-26,1,0.001949301934722136,0.0023054841089644486,-0.011419562246975101,0.0117024428285682,0.9865975358966883
2013-09-30,1,0.002193473347473954,0.0026256577477286004,-0.007077374126303105,0.011123110260356152,0.9875957363597453
2013-10-02,1,0.0032727475220245884,0.003837345134293912,-0.009289379039224128,0.003873358295693164,0.9877265604881933
2013-10-04,1,0.002809402633923735,0.003318926524977271,-0.008269811684475277,0.003873358295693164,0.9884081042959681
2013-10-08,1,0.0019136491610361969,0.0022999983917006716,-0.008269811684475277,0.0056243186334222345,0.9854283290334681
2013-10-10,1,0.0028077906238335093,0.0033364728227378215,-0.008269811684475277,0.003873358295693164,0.9860660498618748
2013-10-14,1,0.0027815205288729207,0.0032628266255191126,-0.008269811684475277,0.003873358295693164,0.985047122885778
2013-10-16,1,0.0020502143686936753,0.002430806646611217,-0.007900946849569266,0.004065567089341399,0.9861542288200509
2013-10-18,1,0.0024827269304984897,0.0029427693648270497,-0.007900946849569266,0.00670756867678406,0.9853299590410586
2013-10-22,1,0.0036551012084324198,0.004247583353107112,-0.008269811684475277,0.004536015353119845,0.9855856274377396
2013-10-24,1,0.0035361191420296987,0.004053369837639846,-0.007900946849569266,0.004536015353119845,0.9868739706477351
2013-10-28,1,0.003296507358160286,0.0037643230011603556,-0.007900946849569266,0.00863755025214252,0.9867705787227603
2013-10-30,1,0.0033778218476420195,0.003923987881276566,-0.006194785846650914,0.00863755025214252,0.9872629940440321
2013-11-01,1,0.003064563038638484,0.0035551479163246653,-0.006194785846650914,0.00863755025214252,0.9871228787178595
2013-11-05,1,0.005054936900354784,0.00583078903264158,-0.009102891218432583,0.006695479782623765,0.9891533060718397
2013-11-07,1,0.004499193170413687,0.0052177976887713366,-0.006194785846650914,0.00863755025214252,0.9897954295453489
2013-11-11,1,0.00415478813096402,0.004723126925531328,-0.00878566440610142,0.006695479782623765,0.9899319321713251
2013-11-13,1,0.00259743691618062,0.0028058674227777088,-0.012005799348651388,0.008221771997736311,0.9894127832355036
2013-11-15,1,0.003230686106021774,0.003564653473430472,-0.012005799348651388,0.00967973130710787,0.9884763587456405
2013-11-19,1,0.002218498750141731,0.0023847298781505045,-0.00707983584792618,0.010531101782578212,0.9887207769562757
2013-11-21,1,0.002214696747548747,0.0023476344655551282,-0.010455938780872398,0.00967973130710787,0.9885674295635842
2013-11-25,1,0.0023322486848227275,0.002434785412404287,-0.010455938780872398,0.006943419880278889,0.9889317797703846
2013-11-27,1,0.0026914640022420284,0.002920437526204414,-0.010455938780872398,0.007127783382695804,0.9892673031369531
2013-12-02,1,0.0029104826855516396,0.0032397491777436337,-0.00666895792944357,0.00967973130710787,0.9894017030399446
2013-12-04,1,0.0013238305444600903,0.0014199586635802398,-0.0042954030759218996,0.00967973130710787,0.9901121119940314
2013-12-06,1,0.0020335948772874585,0.002207650073445408,-0.006419165567219488,0.00967973130710787,0.9903101151320843
2013-12-10,1,0.0014999156769594053,0.0016197240290814047,-0.0021201438609513845,0.00967973130710787,0.9905601106399026
2013-12-12,1,0.0007423554403234523,0.0007586579154539178,-0.004581193601929817,0.009083938308010063,0.9906548959333304
2013-12-16,1,0.0014363705759950233,0.0014372337734586532,-0.004581193601929817,0.008120287939531028,0.991992391581739
2013-12-18,1,0.0018189615525417702,0.0018582355198280393,-0.00492654941671167,0.00792382572873386,0.9929679911119627
2013-12-20,1,0.0009816603803465892,0.0010809016356484683,-0.004838727070569537,0.00792382572873386,0.9929040607488537
2013-12-24,1,0.002076332491286984,0.0021929370759081798,-0.006423285350733434,0.008120287939531028,0.9906706495412436
2013-12-27,1,0.0016578102939278606,0.0016626066069356773,-0.007276537145243237,0.008844671518395499,0.9867150455169622
2013-12-31,1,0.001990756582031674,0.002047787896512839,-0.009113353799413313,0.008844671518395499,0.9865137254724256
2014-01-03,1,0.0013140977306778455,0.001351927520139689,-0.009113353799413313,0.008844671518395499,0.985113372737267
2014-01-07,1,0.0013654107588657379,0.001399300163016101,-0.007343999531163095,0.008844671518395499,0.9854029920143715
2014-01-09,1,0.0014728284776405337,0.0015276036857388058,-0.010184375328082047,0.009792661600599727,0.9810266835059117
2014-01-13,1,0.0012938007888636366,0.0013083708113927083,-0.007080532492736697,0.009792661600599727,0.9816161978583563
2014-01-15,1,0.0017246034000507583,0.0017602804540992852,-0.007080532492736697,0.009872920794576199,0.9818038718570234
2014-01-17,1,0.0007099603413403695,0.0008649468873685805,-0.007080532492736697,0.009872920794576199,0.9819131315472276
2014-01-22,1,0.0003193403280080828,0.0005349617627345303,-0.010413555168391318,0.009872920794576199,0.9810247659211716
2014-01-24,1,5.014551538120421e-06,0.0002686581327158231,-0.009649229808425818,0.007309513716266593,0.9828835727776881
2014-01-28,1,0.001560459468996089,0.0016142372857134008,-0.004159920056286119,0.008368047618929153,0.9860568539350352
2014-01-30,1,0.0014771666049778922,0.001537058563429936,-0.0006103282723309662,0.008368047618929153,0.9863218354939849
2014-02-03,1,0.0006680705936464733,0.0007431510674341154,0.0012437879614989914,0.009489425236706811,0.9875295334792784
2014-02-05,1,0.0013041775645042976,0.001305289871790582,-0.002600776216807869,0.008368047618929153,0.987754197671535
2014-02-07,1,0.00380495223304327,0.004156595719928893,-0.002600776216807869,0.008368047618929153,0.9924881850713111
2014-02-11,1,0.0042534618092771904,0.004696453754694084,-0.008534426605356232,0.008368047618929153,0.9914726059440954
2014-02-13,1,0.003771917601517012,0.00409103459577337,-0.009842476928001161,0.0070150814457305725,0.9908291341089459
2014-02-18,1,0.0035864631642521143,0.003853255245944722,-0.009842476928001161,0.008374408116754863,0.9904666409947125
2014-02-20,1,0.0029740200175841103,0.003170203002095335,-0.008534426605356232,0.008374408116754863,0.9911922305269352
2014-02-24,1,0.002482650795307719,0.0025953989991080338,-0.009842476928001161,0.008374408116754863,0.9903510071150927
2014-02-26,1,0.0038000315451598102,0.004148176079149172,-0.010668571034388109,0.00803921306323075,0.9898204855696461
2014-02-28,1,0.0037545036495088106,0.004053191583605478,-0.010668571034388109,0.008181181727546541,0.9895644362868524
2014-03-04,1,0.003514118851833678,0.0037145031183998685,-0.010668571034388109,0.0075967713956849505,0.9896683683864913
2014-03-06,1,0.0031168093881552925,0.003288158416672818,-0.010592205287151817,0.008162526992929358,0.9897976094978086
2014-03-10,1,0.0031147579860343615,0.0032963215338312267,-0.01193174427783266,0.0075967713956849505,0.9889324491021478
2014-03-12,1,0.0018590025775793552,0.00189897035203755,-0.01193174427783266,0.008162526992929358,0.9893493249954639
2014-03-14,1,0.0012843192488891987,0.0013896249524152813,-0.01193174427783266,0.008162526992929358,0.989466579964309
2014-03-18,1,0.002445694161924707,0.0025493865998540838,-0.01193174427783266,0.002996675464693326,0.9894348218590463
2014-03-20,1,0.002249711901973866,0.0023454351453004053,-0.01193174427783266,0.008162526992929358,0.9889988434900299
2014-03-24,1,0.0010034649557120697,0.0010724011019702941,-0.005678753305318088,0.008162526992929358,0.9901269848584093
2014-03-26,1,0.00012216770008802668,0.0003288489147872237,-0.0034350903281107907,0.008162526992929358,0.9910414515491016
2014-03-28,1,0.0007733494775406847,0.0009213121587672031,-0.009872736594473427,0.002876666977504434,0.9895874843567782
2014-04-01,1,0.0017408635153786925,0.0018032138301818706,-0.009872736594473427,0.008569395142814056,0.9873666572522087
2014-04-03,1,0.0010723371336663597,0.0011360340093513712,-0.005678753305318088,0.007514337315062299,0.988193009667448
2014-04-07,0,-4.791917577418633e-05,0.00012120531826166078,-0.005678753305318088,0.007514337315062299,0.9886478690463517
2014-04-09,1,0.0002903012007283714,0.00042889381037847403,-0.017031073839098083,0.006098437953648348,0.9877981054938674
2014-04-11,-1,-0.0003893403771504611,-0.00019022003045084828,-0.017431688596337997,0.007514337315062299,0.9862274381596887
2014-04-15,-1,-0.0010045742659124913,-0.0006972102699366408,-0.017431688596337997,0.007514337315062299,0.9856154143037782
2014-04-17,-1,-0.0003074721447972902,-9.623288971540489e-05,-0.018102837343002238,0.007514337315062299,0.9850079174900206
2014-04-22,0,-0.00014517627163070058,1.9509094164844507e-05,-0.018102837343002238,0.0063540691574654725,0.9848347948875747
2014-04-24,0,-5.9591852426169154e-05,0.00010942924284356809,-0.018102837343002238,0.0063540691574654725,0.9846703500562584
2014-04-28,-1,-0.0023293859473501465,-0.001872657135382178,-0.016807691053843474,0.009098429921210361,0.9861914767154734
2014-04-30,-1,-0.0017600162967972286,-0.0012999080556612033,-0.016807691053843474,0.004333545820806772,0.9879758086235129
2014-05-02,-1,-0.0010451502313229275,-0.000708228346746105,-0.016807691053843474,0.0031912129468805728,0.9880450492285999
2014-05-06,-1,-0.0026323166380226286,-0.0020748919081370514,-0.013655548286892433,0.004796232654547171,0.9889940450375586
2014-05-08,-1,-0.00426512298065347,-0.0034975350772824257,-0.007747441623527271,0.011568569347386523,0.9882760459471808
2014-05-12,-1,-0.0029579116513376606,-0.0024038177126600307,-0.006967232676920574,0.011568569347386523,0.9898207608464332
2014-05-14,-1,-0.003434482187476184,-0.0028539006042578524,-0.005106141035566426,0.011568569347386523,0.9898618873916485
2014-05-16,-1,-0.003957455010670668,-0.0032999780116005884,-0.0035749009253263062,0.011844739111481014,0.9903409539732709
2014-05-20,-1,-0.00429765432441459,-0.003619355849325434,-0.0035749009253263062,0.01254681184833278,0.9895737539030466
2014-05-22,-1,-0.0038935131701056318,-0.003280383135565881,-0.0028816804746982353,0.011885184534824142,0.9902480264732263
2014-05-27,-1,-0.0027370242009816647,-0.002281517686697345,-0.003901498161238342,0.006596379220742064,0.9914375860883688
2014-05-29,-1,-0.003381606024810412,-0.0028232940691301674,-0.00483677258406901,0.006596379220742064,0.9914342238912521
2014-06-02,-1,-0.0031731325396687727,-0.00264347493414579,-0.00483677258406901,0.011885184534824142,0.9911699178554837
2014-06-04,-1,-0.0028283292479457382,-0.0023683748492548894,-0.00607840438179291,0.011885184534824142,0.9906184400850659
2014-06-06,-1,-0.0019613033066035006,-0.0015650311218542115,-0.007959519502422388,0.009755243601281717,0.9913569728013898
2014-06-10,-1,-0.0008613441859218953,-0.0006209832434901491,-0.007959519502422388,0.008999841219088343,0.9912810117734162
2014-06-12,-1,-0.0015322608220969037,-0.0012110084876447826,-0.006702503183129301,0.009789822715440828,0.9912303502873763
2014-06-16,-1,-0.0013064108961450733,-0.001006604027288822,-0.007959519502422388,0.008999841219088343,0.9913635457500242
2014-06-18,-1,-0.001036682881634807,-0.0007614407185772236,-0.007959519502422388,0.008784634868461209,0.9916133576712796
2014-06-20,-1,-0.0003519675341579792,-0.0002123091639211109,-0.008146048281135125,0.008999841219088343,0.9905320668052354
2014-06-24,-1,-0.0012397992039392572,-0.000999316263125692,-0.007463770286391666,0.01094064191690602,0.9898285747495492
2014-06-26,-1,-0.0027730056466783587,-0.002274336053707314,-0.008146048281135125,0.01094064191690602,0.9896853686241978
2014-06-30,-1,-0.0019524586167615884,-0.0015840834286092614,-0.009947361201924099,0.01094064191690602,0.9892480025210804
2014-07-02,-1,-0.0003247054069448783,-0.00028934592041371247,-0.009947361201924099,0.01094064191690602,0.9885380016732692
2014-07-07,1,6.438371804964947e-05,0.00010164975269255758,-0.008460113553831933,0.009789822715440828,0.9894322946805106
2014-07-09,1,0.0008371223367077047,0.0009913981307750495,-0.011010230823029694,0.005052994703123442,0.9893893777244088
2014-07-11,1,0.001106052056876567,0.0013105600928330135,-0.011560193130194645,0.00440541504191622,0.9891160576342165
2014-07-15,1,0.00028943332540096406,0.00035044699988142616,-0.011010230823029694,0.00440541504191622,0.9895121765773403
2014-07-17,-1,-0.00045745251748401913,-0.00041708357280124313,-0.008460113553831933,0.00440541504191622,0.9905725428027101
2014-07-21,1,0.000466054104523257,0.0006052518078596379,-0.009613101131366122,0.00440541504191622,0.9902356137485605
2014-07-23,1,0.0019955942711623693,0.002369068404448227,-0.009613101131366122,0.0026976978428478616,0.9914268719610757
2014-07-25,1,0.0019771095243307684,0.002382059019537037,-0.007171709565255404,0.003141580171653844,0.9915582514838056
2014-07-29,1,0.0018872617123582799,0.002251134810999324,-0.005013703014951376,0.003141580171653844,0.9917334933070835
2014-07-31,1,0.000778917664153319,0.0010056305040369278,-0.004224807384422316,0.003141580171653844,0.9932893687466382
2014-08-04,1,0.0005798634058110067,0.0007442576135694952,-0.005013703014951376,0.0026976978428478616,0.9929072879437368
2014-08-06,0,-3.4155429973969936e-05,2.8546718057769502e-05,-0.005013703014951376,0.0026681204930871613,0.9932813026833875
2014-08-08,1,0.00012277946554485847,0.00024583831467150105,-0.0045447025620106935,0.0026681204930871613,0.9936092424703054
2014-08-12,1,4.47173806683297e-05,0.00014844709052415491,-0.005092739449801828,0.0032529298042798466,0.9931142547639517
2014-08-14,-1,-0.00033763646079283395,-0.0003338686448001915,-0.007012237987848247,0.005563579728059246,0.991978493583402
2014-08-18,1,9.61424748760734e-05,0.00013483559806411226,-0.005218027371323115,0.005563579728059246,0.9930184426353922
2014-08-20,1,0.0005007984836550722,0.0006510774473483122,-0.007012237987848247,0.006062059178339521,0.9920773605732571
2014-08-22,1,0.0005393852237019955,0.0006999631277797347,-0.008522959842788471,0.006062059178339521,0.9920265412924534
2014-08-26,1,0.0011028927606342885,0.0013357075817675183,-0.008522959842788471,0.006062059178339521,0.9922041304578637
2014-08-28,1,0.00024952173351750157,0.0002986259141974725,-0.008897312359895609,0.006062059178339521,0.9917312158368977
2014-09-02,1,0.000295630215551633,0.0003837765946685454,-0.009201144805254378,0.006062059178339521,0.9914213273243477
2014-09-04,-1,-0.0004997498438640152,-0.00044758718413710253,-0.009306487907112793,0.006062059178339521,0.9910756694178058
2014-09-08,-1,-0.00026238134294638104,-0.00023626019143586983,-0.011134575240094197,0.006062059178339521,0.9909136233929658
2014-09-10,-1,-8.204555282546766e-05,-4.970241563203266e-05,-0.011134575240094197,0.006309710568964942,0.9900803556036009
2014-09-12,1,0.00022181824345158483,0.00029166752359778585,-0.012079099226975934,0.0014422545400910648,0.9899711456354631
2014-09-16,1,0.0004949359371738433,0.0006241769542595353,-0.013721768793514205,0.0014939517656954217,0.9889143184220033
2014-09-18,-1,-0.0007686218392066414,-0.0006357359861013478,-0.012214760268247688,0.006883699246184295,0.9896211007066525
2014-09-22,-1,-0.00022231518459649502,-0.0002094072107278045,-0.012214760268247688,0.00828191710406177,0.9876599843819854
2014-09-24,1,0.0005089786467744853,0.0006407593142975705,-0.014331010103469767,0.00828191710406177,0.9869600697723856
2014-09-26,-1,-0.0008066768002010045,-0.0007182910955966433,-0.012214760268247688,0.010500573840434313,0.9865168757888991
2014-09-30,-1,-0.0022868888661360985,-0.001959855505941223,-0.014331010103469767,0.012433501945589067,0.9855084206409908
2014-10-02,-1,-0.002890419736152787,-0.002526088668264214,-0.014331010103469767,0.01273264033202237,0.9847607816926636
2014-10-06,-1,-0.003504117765305737,-0.003030328362536938,-0.014331010103469767,0.013710482421456307,0.9835406109066244
2014-10-08,-1,-0.004037713140205266,-0.003488009941898277,-0.01206814023371708,0.014986326261318345,0.9833017612863059
2014-10-10,-1,-0.005356366356660151,-0.004626995743973574,0.006008563865599215,0.014986326261318345,0.9823921058009236
2014-10-14,-1,-0.005698306848046826,-0.004942756169844124,0.00512733798138562,0.014986326261318345,0.9829204708663096
2014-10-16,-1,-0.004226666436160877,-0.003692882165154233,0.00179573027643076,0.014986326261318345,0.9845132578809606
2014-10-20,-1,-0.0024216459019001427,-0.0020869418232481105,0.0009949389529231665,0.013710482421456307,0.9873856261390105
2014-10-22,-1,-0.0023517221142962536,-0.0020361888730704887,0.00179573027643076,0.014986326261318345,0.9873289779509122
2014-10-24,-1,-0.0010526450942735309,-0.000889243106572103,0.00179573027643076,0.011523054063537673,0.9889997581516407
2014-10-28,-1,-0.0006044374264270044,-0.0005647051216048386,0.0012624400870696645,0.011143875731343105,0.9902569416927043
2014-10-30,-1,-0.00021626308699038092,-0.0001603279784255012,-0.0002675011341464979,0.01069620846347216,0.9910737223690578
2014-11-03,1,0.0007722979039025081,0.0009281894021337623,-0.0019712470685805824,0.009650393153690356,0.9912926089165419
2014-11-05,1,0.001957040998592327,0.002290042535643154,-0.0019712470685805824,0.008954192012613937,0.9915746209617546
2014-11-07,1,0.0026702623448178033,0.0031197621636239077,-0.007996271641401289,0.008576636990164052,0.9902663690218115
2014-11-11,1,0.0028642502557580775,0.003342671232800903,-0.012059896736517943,0.009399501246952435,0.9878353234207593
2014-11-13,1,0.0025523046644262927,0.002941296833623955,-0.012059896736517943,0.009399501246952435,0.9870579838660947
2014-11-17,1,0.00249048773269363,0.0028402690507551174,-0.014295306225757948,0.009095931195120218,0.986645967740019
2014-11-19,1,0.0036660229340470486,0.004195277450924851,-0.014295306225757948,0.01042632370459834,0.9852798739494597
2014-11-21,1,0.004006265453011825,0.004569303983168556,-0.014295306225757948,0.012492649187477028,0.9840081447698921
2014-11-25,1,0.0034458651127146534,0.003939432224467976,-0.011869432259824694,0.012492649187477028,0.9849419453538345
2014-11-28,1,0.0029504837889593443,0.0034189803369759925,-0.010631984195394493,0.012492649187477028,0.9861131671431372
2014-12-02,1,0.002650977823669575,0.0030885734499230396,-0.010366323791261529,0.01042632370459834,0.986879467545365
2014-12-04,1,0.0033993234982778505,0.003898736865811207,-0.010631984195394493,0.01042632370459834,0.9856189025661739
2014-12-08,1,0.0017744527847844047,0.002014395722100695,-0.010262687255524837,0.013697711828330692,0.9866380691954691
2014-12-10,1,0.0007528285790839441,0.000877556927871084,-0.007496223190711363,0.01895092349654426,0.9878314239260751
2014-12-12,1,0.0010456419390116399,0.0012932358194095062,-0.007496223190711363,0.01895092349654426,0.9878254122459028
2014-12-16,1,0.0007646532698597507,0.0009569242596670083,-0.007496223190711363,0.01895092349654426,0.9875990599884225
2014-12-18,1,0.0029418538676370645,0.0034327625921871737,-0.007496223190711363,0.008181286737250028,0.9893580802803862
2014-12-22,1,0.0026123094209835494,0.0029726947081690257,-0.0033726999696550696,0.011282922911017127,0.9890737440044318
2014-12-24,1,0.0026612636824199193,0.0030306001066138675,-0.0035762369359420842,0.01208288842553062,0.9885631410439073
2014-12-29,1,0.00261227490248282,0.0029389499490406717,-0.0047296157465217675,0.01208288842553062,0.9882412493278387
2014-12-31,1,0.0016993547143734295,0.0018850443586224523,-0.003163941557155591,0.015760364247072237,0.9878816255174642
2015-01-05,1,0.0012241958286722298,0.0013404227945323691,-0.0026427440788374694,0.013586818715305581,0.989375263238362
2015-01-07,1,0.0018272566118750187,0.0020268134846670614,-0.003163941557155591,0.013586818715305581,0.9885016101025964
2015-01-09,1,0.003124521808099108,0.0035268116006349514,-0.003163941557155591,0.013586818715305581,0.9890335294501532
2015-01-13,1,0.0024437789716720794,0.0027438530371870834,-0.0026427440788374694,0.015204874421107944,0.9888994823146477
2015-01-15,1,0.0017190806446539199,0.0019173169472852588,0.0004776329492062214,0.016882448683178678,0.9890007772736366
2015-01-20,1,0.0023794721533696227,0.002698570102268092,0.0016712003617873998,0.016882448683178678,0.9892577076990274
2015-01-22,1,0.0037429085062755272,0.004221948231965082,-0.0026427440788374694,0.014013285542233094,0.9912734530450819
2015-01-26,1,0.0037840810810789932,0.004246664571594649,-0.002997316829159681,0.014013285542233094,0.9911708066911369
2015-01-28,1,0.0031680581383831587,0.003516842815004994,0.0017881164727196358,0.016882448683178678,0.9906558145033629
2015-01-30,1,0.0034178765022862267,0.0038080537969576514,0.0029007150862174085,0.016881278465574488,0.9913345480356376
2015-02-03,1,0.0037959687090205205,0.004216692971096479,0.0017881164727196358,0.016881278465574488,0.9916992263281541
2015-02-05,1,0.004901929464340946,0.005482883151410814,0.0017881164727196358,0.0134922780508782,0.9934684540503279
2015-02-09,1,0.005769461982348581,0.006459569895201386,-0.0021513445555219664,0.008338638834982684,0.9923282356269096
2015-02-11,1,0.006267988560154763,0.007005456985870089,-0.0021513445555219664,0.010155642243756004,0.9921153096304446
2015-02-13,1,0.006583341336069994,0.007326200019720991,-0.0028033012412946724,0.008009486407979601,0.9919245045233132
2015-02-18,1,0.007073108687395925,0.007901656201540843,-0.0028033012412946724,0.007521131230403188,0.9916623959511908
2015-02-20,1,0.006285203465456139,0.006951975324177324,-0.003121818084471169,0.007521131230403188,0.9910567904237726
2015-02-24,1,0.005568687566150148,0.006085807520823055,-0.0021513445555219664,0.008361424284023682,0.9917113256172558
2015-02-26,1,0.005487825148847872,0.005924721258380558,-0.003121818084471169,0.007521131230403188,0.9914750975231862
2015-03-02,1,0.005873256979614976,0.006337938855207851,-0.003121818084471169,0.0064003674691997,0.9913458584424114
2015-03-04,1,0.005250737585360031,0.005600776048256493,-0.00497931322358755,0.0064003674691997,0.9908720855110532
2015-03-06,1,0.004347397521354879,0.004508217038190246,-0.00497931322358755,0.0064003674691997,0.9912400391687943
2015-03-10,1,0.0025731791881629606,0.0026852601042220495,-0.0027755269066411696,0.0064003674691997,0.9924970393918046
2015-03-12,1,0.0036978307412731813,0.0037481608392596977,-0.0051353545457004275,0.003797365220415032,0.9927264208028361
2015-03-16,1,0.004223249318339398,0.004424864118622531,-0.004021714247648036,0.0027605774155810125,0.9925736683224465
2015-03-18,1,0.00407105308594994,0.004232784609514786,-0.006857784496622426,0.0027605774155810125,0.9921016475295005
2015-03-20,1,0.0036243402354090132,0.0037771863530893274,-0.006173218302062472,0.0027605774155810125,0.9927703099528769
2015-03-24,1,0.00350819650158119,0.003601930021673941,-0.006717223738108258,0.0018994732986747026,0.9922934241473439
2015-03-26,1,0.0024410986999018236,0.00249408751239503,-0.005109172257769378,0.003648059346816079,0.9926164724396526
2015-03-30,1,0.0034685563915476483,0.0035969694981307756,-0.005109172257769378,0.0020857661850865626,0.9921771977264687
2015-04-01,1,0.003175278028100038,0.0033154565567184435,-0.004900730645099241,0.003648059346816079,0.9918898888486373
2015-04-06,1,0.003304839452516934,0.003478856804056036,-0.004900730645099241,0.006664118633388985,0.9902850200985949
2015-04-08,1,0.002409450179761348,0.0024754653167021736,-0.004900730645099241,0.008506699730505768,0.9890648632083315
2015-04-10,1,0.002284376362954522,0.0023292433168039858,-0.004367752490949831,0.014772615334717657,0.9881401152200708
2015-04-14,1,0.002098577098497187,0.0021238255267955405,-0.005082065790447837,0.014772615334717657,0.9874512917909969
2015-04-16,1,0.002109221557880069,0.0021806160868233972,-0.004367752490949831,0.018252440097421864,0.9872871881064155
2015-04-20,1,0.0017410728828829542,0.0017853778635572096,-0.004367752490949831,0.018252440097421864,0.9875387465485455
2015-04-22,1,0.0007985358489816411,0.0009040002204962861,-0.003001208580007593,0.018252440097421864,0.9877806680264819
2015-04-24,1,0.0012433218629690115,0.0013453866352713534,-0.0032529304056099664,0.013218186063741045,0.9889569258727002
2015-04-28,1,0.000513269697246594,0.0007265861309864925,-0.003287591989331616,0.013218186063741045,0.988229039982198
2015-04-30,1,0.002035235238181923,0.002049680734257646,-0.005449498618837805,0.009507331530825757,0.9889299078504047
2015-05-04,1,0.002098666375075108,0.002144655705192113,-0.005449498618837805,0.00799813059039383,0.9901278449861785
2015-05-06,1,0.0007308450073656194,0.001002667139008292,-0.005949696806805522,0.007230462159072797,0.9918505206274484
2015-05-08,1,0.0013606720370995546,0.0015917641455927395,-0.006322721155658331,0.005989943899322338,0.9927734108202885
2015-05-12,1,0.0006967281360074711,0.0010244635967314648,-0.005949696806805522,0.005989943899322338,0.9928385793001511
2015-05-14,1,0.0023531753095736127,0.0023933267193076745,-0.006316644217868062,0.0018181356622530606,0.9927803818613062
2015-05-18,1,0.001985260157589552,0.0020638096473740617,-0.006316644217868062,0.0005193819753496338,0.9926757998335763
2015-05-20,1,0.0015607438466614472,0.0016959461382834353,-0.006316644217868062,0.0014959758978875639,0.9922512922001788
2015-05-22,1,0.0012242745420598454,0.001394962958200288,-0.006316644217868062,0.005771463559924662,0.9923566117987719
2015-05-27,1,0.00026045410859908396,0.0005847323808793325,-0.006377636301277364,0.004870268750793558,0.9925562145334526
2015-05-29,-1,-0.0007289070900222783,-0.0002517091776234007,-0.006661320962255501,0.004870268750793558,0.9927970246778774
2015-06-02,-1,-0.0006182764632453313,-0.00018296237732539126,-0.00853117095435388,0.001238709788626017,0.9918625655624642
2015-06-04,-1,-0.0009098910726200947,-0.0004849639836839424,-0.006661320962255501,0.004870268750793558,0.9918855525319814
2015-06-08,-1,-0.001506749126091717,-0.000987718811562615,-0.006643090148884694,0.0057568136149623635,0.9918912695271107
2015-06-10,-1,-0.0016590762927771111,-0.0011030995360972412,-0.008658610623783702,0.0057568136149623635,0.992123146818277
2015-06-12,-1,-0.0020558399453190785,-0.001456711283002073,-0.008658610623783702,0.006171440136756874,0.9896137701615837
2015-06-16,-1,-0.0018610242268843856,-0.0013512797774483647,-0.008260222394592162,0.006171440136756874,0.989620542546261
2015-06-18,-1,-0.001536414890902244,-0.001068062422869728,-0.008260222394592162,0.0064023302858457745,0.989020400031223
2015-06-22,-1,-0.0016062422576773275,-0.0011047636088587496,-0.008260222394592162,0.007915340251720115,0.9881595220810049
2015-06-24,-1,-0.0025834473732001227,-0.001965664422360753,-0.006894325076381871,0.007915340251720115,0.9878008785371141
2015-06-26,-1,-0.0030281361040697128,-0.0023733633448366973,-0.011066230292327728,0.007915340251720115,0.9866239526376953
2015-06-30,-1,-0.0037485649325338178,-0.0030494628774967976,-0.006894325076381871,0.012161311769405946,0.9857684091462443
2015-07-02,-1,-0.0026100958126272045,-0.0020917765518098253,-0.006894325076381871,0.010408271650424048,0.9866078643961111
2015-07-07,-1,-0.0017528588444205183,-0.0013721898945022726,-0.011066230292327728,0.012710383996365558,0.9832807877516636
2015-07-09,-1,-0.0016704479546167895,-0.001328942093115328,-0.011736305166104358,0.01546504135148625,0.982409297366802
2015-07-13,1,0.0006744381159274767,0.0007183724374254377,-0.011736305166104358,0.01466409645076989,0.9837870238071083
2015-07-15,0,-0.00012550981415287575,1.683014611571676e-05,-0.009952639439025562,0.01466409645076989,0.9839314389572194
2015-07-17,1,0.0008350176666834692,0.0008767589940874589,-0.009952639439025562,0.01161950428007275,0.9847788556155231
2015-07-21,1,0.0018233454384446774,0.0019468592427943506,-0.009952639439025562,0.010653792068349916,0.9859904775848749
2015-07-23,1,0.0015845206953415836,0.001725783567595453,-0.015521904657218592,0.010653792068349916,0.9842205740936476
2015-07-27,1,3.866425629178399e-05,9.749236475856403e-05,-0.01583737627130503,0.010653792068349916,0.9833174901270401
2015-07-29,1,0.00115023484969566,0.0012389464672443846,-0.019358771563697648,0.010653792068349916,0.9828202665323837
2015-07-31,1,0.0004584048959493165,0.0005125706622626326,-0.019358771563697648,0.01161950428007275,0.9805731623702373
2015-08-04,1,0.0028258264448071824,0.0031391423324563794,-0.019358771563697648,0.011273695398864393,0.9835097762104631
2015-08-06,1,0.0024256096793312124,0.0026811330296410123,-0.01825002654111177,0.013626669807144817,0.9826550590194166
2015-08-10,1,0.002585036997702366,0.0028742415050393563,-0.019333126211124874,0.01386561087484723,0.9811603356700122
2015-08-12,1,0.002537359926763166,0.0027755742536539874,-0.019333126211124874,0.01386561087484723,0.9811405974799029
2015-08-14,1,0.0027786939892611206,0.0030679511651167364,-0.019333126211124874,0.01386561087484723,0.9812678257155686
2015-08-18,1,0.002786658179361193,0.00304536533997831,-0.019333126211124874,0.01386561087484723,0.9811956801420941
2015-08-20,1,0.0011034312253009717,0.0011654337114819855,-0.01825002654111177,0.01386561087484723,0.9826281070942283
2015-08-24,-1,-0.0011665544970553515,-0.0009317164033220164,-0.007504964220105256,0.01386561087484723,0.9831211287168101
2015-08-26,-1,-0.0015362811482415866,-0.0012595794316857165,-0.015584330911852205,0.01216305642849064,0.9827461699502003
2015-08-28,1,7.383327424878062e-05,0.00019026973292971276,-0.019058731092043132,0.009689867399995954,0.9827668708445874
2015-09-01,-1,-0.00022043343190351726,-6.642915313896718e-05,-0.018508140848915285,0.009689867399995954,0.981154206020044
2015-09-03,1,0.001646551886266701,0.0017118408011771908,-0.018508140848915285,0.009689867399995954,0.9805222472325437
2015-09-08,1,0.0018138360239000374,0.0018784134084361048,-0.018626631445806962,0.008909251348687242,0.9816538020155311
2015-09-10,1,0.0012834717266906387,0.001315405750285312,-0.018626631445806962,0.011230676395971568,0.9808191629172341
2015-09-14,1,0.001402309596691998,0.0014470209376985944,-0.018626631445806962,0.011230676395971568,0.9806739780601411
2015-09-16,1,0.002245809445758872,0.002361071951679304,-0.023110841906199026,0.00942285434734578,0.978565684412989
2015-09-18,1,0.0011677644645120694,0.0012062184766412714,-0.019504271100520332,0.01226543940393018,0.9792898352939878
2015-09-22,1,0.0009599900034299074,0.0009766574633496242,-0.018537593735861852,0.01226543940393018,0.9797326459679968
2015-09-24,-1,-0.000353874284392835,-0.00023331282338250595,-0.013585887683825116,0.016471161344005482,0.9792766446403663
2015-09-28,-1,-0.0029965092042636915,-0.002546158069098358,-0.013585887683825116,0.016471161344005482,0.980693389712045
2015-09-30,-1,-0.001017577363682308,-0.0008637048503142702,-0.01215936181189473,0.016471161344005482,0.9817107223197858
2015-10-02,1,0.0014429022128754315,0.0015869090025490257,-0.01215936181189473,0.013572005218736615,0.9836627087265782
2015-10-06,1,0.0009427127297591074,0.001075121370239388,-0.01215936181189473,0.013572005218736615,0.9842522879868943
2015-10-08,1,0.0017203107050023161,0.0019415890691023498,-0.01215936181189473,0.017936323878488074,0.9819488666898966
2015-10-12,1,0.001167763827426348,0.0013085225785654363,-0.012949807369336298,0.017936323878488074,0.9818764706479647
2015-10-14,-1,-0.0005996216965181158,-0.000509786708509656,-0.007052241454372983,0.017936323878488074,0.9831031322827384
2015-10-16,-1,-0.00011569487492605333,-6.926936403897155e-05,-0.012802799328546673,0.01582657146291644,0.9827226297070668
2015-10-20,-1,-0.0013597648993354718,-0.001146060497827657,-0.007052241454372983,0.0196942310559013,0.9824652999458537
2015-10-22,1,0.0005172319086926551,0.0005287419491476967,-0.0046024325616026394,0.016663540093243757,0.9847355459156698
2015-10-26,-1,-0.0005010741359855164,-0.0003571450890514869,-0.0023641624919860725,0.016663540093243757,0.9859001776300915
2015-10-28,1,0.0005819694970297736,0.0006031944003588356,-0.005896318917638962,0.015265502230846262,0.9869826879102723
2015-10-30,1,0.0013903072267785492,0.0014946934635500318,-0.008788383126011934,0.014970389968887728,0.9870402438314922
2015-11-03,1,0.0004616567362953278,0.0004965224647032937,-0.006644157997776504,0.014970389968887728,0.9871447941403473
2015-11-05,1,0.0025790266389513687,0.0027872800876830384,-0.008788383126011934,0.009630064060812016,0.9879605435395654
2015-11-09,1,0.0023188019464755443,0.0025112983300094958,-0.008788383126011934,0.009630064060812016,0.9880001675931611
2015-11-11,1,0.0027191381385407373,0.0029807310814542174,-0.012742730957667273,0.009475126789629827,0.9867414070730597
2015-11-13,1,0.0012916285885060095,0.001309126486921559,-0.012742730957667273,0.009475126789629827,0.9871492558975644
2015-11-17,1,0.0016731546598022214,0.0017030587714290475,-0.012742730957667273,0.009475126789629827,0.9871287604129124
2015-11-19,1,0.001991949558791314,0.001995990185512155,-0.013196983727882614,0.009072456124225288,0.9864051313361993
2015-11-23,1,0.002316884412544403,0.0023823487279396715,-0.013196983727882614,0.009169479804362,0.9861732105851199
2015-11-25,1,0.0015805601971740206,0.00159267435091695,-0.013049367504765014,0.009475126789629827,0.9866582336795271
2015-11-30,1,0.0008981166933427647,0.0010097248176880772,-0.011275556768899964,0.009475126789629827,0.9867258782276892
2015-12-02,1,0.0019541307602191954,0.0020732048804889603,-0.011275556768899964,0.009169479804362,0.9865456915384453
2015-12-04,1,0.00019236673120013703,0.0003264932649274588,-0.011275556768899964,0.008062662171076847,0.9878347307051055
2015-12-08,1,0.0002551387285023883,0.0003305915185376493,-0.01639518783295162,0.008062662171076847,0.9864841251939345
2015-12-10,-1,-0.0004006899012318433,-0.0002858534165933519,-0.0163917554767889,0.005192288315967691,0.9874870256406908
2015-12-14,-1,-0.0012278254899384397,-0.0009832567709481634,-0.023219774155790806,0.008062662171076847,0.9862695701167941
2015-12-16,-1,-0.0010782998211319667,-0.0007747365530176129,-0.023219774155790806,0.002985703937831192,0.985964771820405
2015-12-18,-1,-0.0019206301445668184,-0.001576046536376443,-0.01872755218392151,0.002985703937831192,0.9866995615161342
2015-12-22,-1,-0.0013421130776874162,-0.0010610996298656317,-0.01872755218392151,0.0077528759848744504,0.9851847657317588
2015-12-24,1,0.0003398354828804529,0.00035927868955212925,-0.023219774155790806,0.0077528759848744504,0.9832067656949133
2015-12-29,1,8.02163085018877e-05,0.00010679112879719737,-0.023219774155790806,0.0030157885834617023,0.9835772322755605
2015-12-31,-1,-0.00040214169281813236,-0.0003304259805179188,-0.023219774155790806,0.008357302216769173,0.9810457653959072
2016-01-05,-1,-0.0010306745256701282,-0.0009094665606053289,-0.01872755218392151,0.010559559868908816,0.9819227358299009
2016-01-07,-1,-0.002465565578133457,-0.0021876080012198955,-0.013544888478816818,0.013445599407167282,0.9810404073969325
2016-01-11,-1,-0.003084136918748173,-0.002759976978360063,-0.013544888478816818,0.017140232384049398,0.9788835847441408
2016-01-13,-1,-0.005084608533754531,-0.004432261056017102,-0.013544888478816818,0.020313373108286483,0.9784118133933943
2016-01-15,-1,-0.006189307927367242,-0.005313701424538771,-0.011564533176600668,0.02068659438153827,0.9778808477510215
2016-01-20,-1,-0.007230691252141711,-0.00622002724234829,-0.008274446202385195,0.0223668939247501,0.976552270228749
2016-01-22,-1,-0.004344167187261059,-0.0037688111382590764,-0.008274446202385195,0.02062287603061852,0.9785766918345755
2016-01-26,-1,-0.004915468084070725,-0.00426592805182615,-0.008274446202385195,0.0223668939247501,0.9783851619456655
2016-01-28,-1,-0.003992886111153638,-0.003558303297765809,-0.0044049813186966755,0.0223668939247501,0.9776514468498618
2016-02-01,-1,-0.001923355749418017,-0.0017546383962170676,-0.0017123642694756966,0.0223668939247501,0.9803484323801395
2016-02-03,-1,-0.00144744949298879,-0.0013327932311937235,-0.0015461995063556773,0.0223668939247501,0.9805548537578346
2016-02-05,1,0.0010868710048805375,0.0013260006144835221,-0.003831658064324591,0.02062287603061852,0.9837898560812137
2016-02-09,1,0.0005253644963106009,0.0007213594873940471,-0.0036791031595812544,0.015682337620908725,0.9861847620906643
2016-02-11,-1,-0.00014994654650826828,-8.573571836823277e-05,0.0026512992046788452,0.012655363831799792,0.9878067031603566
2016-02-16,1,0.0007910868761038426,0.0009483895159226887,-0.002574989436385312,0.009694918626787077,0.9896427854541796
2016-02-18,1,0.00013585622782512114,0.0001653551448169276,-0.002073554725809648,0.009291151828405675,0.9905517058270473
2016-02-22,-1,-0.0005318913545455755,-0.00031458360618044656,-0.002574989436385312,0.007944987939528879,0.9908791387773125
2016-02-24,1,0.0004903998843860538,0.0005400341771534154,-0.002496401606651584,0.0071433509099581806,0.9931814440881336
2016-02-26,1,0.0021095164336416075,0.002403828086713412,-0.002496401606651584,0.006569701661990866,0.9937174061910828
2016-03-01,1,0.002506601468135793,0.002796537434864723,-0.0034134947787421727,0.006184658048211638,0.9950402705164644
2016-03-03,1,0.0032152234551424876,0.0036475813086220736,-0.0034134947787421727,0.006569701661990866,0.9946285644040596
2016-03-07,1,0.002999885296061355,0.0033733963463998115,-0.0037746853080476966,0.005265626451011158,0.994607748323825
2016-03-09,1,0.0019254034445759527,0.002061441874834352,-0.0037746853080476966,0.006569701661990866,0.9943504800690048
2016-03-11,1,0.002560712031416818,0.0028082590900975982,-0.004151652179286803,0.005400034842521077,0.9931532752914753
2016-03-15,1,0.0017961501572635657,0.00188765093418465,-0.004151652179286803,0.005400034842521077,0.9936032389892324
2016-03-17,1,0.002707690533071125,0.003007277368777338,-0.004151652179286803,0.004643887223043587,0.9937590555340061
2016-03-21,1,0.0023943886925715035,0.0026222822166835453,-0.0035389218188465123,0.004643887223043587,0.9937536791367788
2016-03-23,1,0.0026862380077274702,0.0030036217912532606,-0.004151652179286803,0.0057438116350601405,0.9934108521914524
2016-03-28,1,0.0031779893180460582,0.003592307885771864,-0.004151652179286803,0.008414601628253335,0.993157763013819
2016-03-30,1,0.002717043716856026,0.0030314954355485533,-0.002911383362409769,0.00898409713388346,0.9929312679813662
2016-04-01,1,0.004170277413494601,0.004803287390006905,-0.007072885288415335,0.008414601628253335,0.9915298567561962
2016-04-05,1,0.0035096580438578754,0.004036165051931407,-0.0035984140998976074,0.010175274275000649,0.9905323497407754
2016-04-07,1,0.003605210725966165,0.004157707885762726,-0.0035984140998976074,0.010891671705585302,0.9898035772560649
2016-04-11,1,0.00332954784411951,0.003799814552916987,-0.0020292832781490812,0.009995181575088597,0.9909359069452897
2016-04-13,1,0.0036795412216240027,0.0042359187871546505,-0.0035984140998976074,0.010891671705585302,0.9893766525601917
2016-04-15,1,0.004117618668797425,0.004783243334266912,-0.00482503508299586,0.010891671705585302,0.9891417281633782
2016-04-19,1,0.004396441703791761,0.005109908602434511,-0.004889043050264826,0.010793378224088167,0.9893187795731203
2016-04-21,1,0.004092344490643999,0.004728724157024073,-0.0055796255290429825,0.010793378224088167,0.9888722651020384
2016-04-25,1,0.004197797388290906,0.004833580260448908,-0.0055796255290429825,0.015124895952458141,0.9880809976048496
2016-04-27,1,0.004681260371399474,0.005385537130511238,-0.0055796255290429825,0.01389558110946872,0.9881888911862758
2016-04-29,1,0.003197286908164936,0.0036429068921494763,-0.004850781825559519,0.01389558110946872,0.9885926997646576
2016-05-03,1,0.004442156650430476,0.00502671782601106,-0.007449268747066426,0.010788980376313883,0.9901076034152593
2016-05-05,1,0.004001664762162213,0.004477320480883249,-0.007449268747066426,0.008408524586848529,0.9907830119771786
2016-05-09,1,0.0039606771645671265,0.004407322324159473,-0.007449268747066426,0.007765398265629814,0.9911408194083606
2016-05-11,1,0.00412302590952774,0.004634593508255071,-0.007449268747066426,0.007765398265629814,0.9918101512724368
2016-05-13,1,0.0034244040757573906,0.003774766944680412,-0.010725240024064003,0.006445430465965681,0.9909624919538864
2016-05-17,1,0.003499062902296084,0.0038811176293645135,-0.010725240024064003,0.006445430465965681,0.9907067212311125
2016-05-19,1,0.0031506156520648707,0.0035028132162829998,-0.009788478625012913,0.006445430465965681,0.9916290719977012
2016-05-23,1,0.0038313015234485662,0.004262136527491321,-0.009788478625012913,0.006445430465965681,0.9921584139491423
2016-05-25,1,0.003939857688623314,0.004350861279963274,-0.009788478625012913,0.005872751853601759,0.9912018581894219
2016-05-27,1,0.002787216053379991,0.0030030721782562638,-0.010725240024064003,0.005872751853601759,0.9901274914674052
2016-06-01,1,0.0016848751296575691,0.0016938974884039505,-0.0064950477146146525,0.009011628329708934,0.9891216828834138
2016-06-03,1,0.0006126840218309512,0.0007950215594558929,-0.004282972906137537,0.010847601468322152,0.9890269276767273
2016-06-07,1,0.00020016017799066822,0.0004688079219341535,-0.004282972906137537,0.011867324369841307,0.9887239127829031
2016-06-09,0,-0.00010802789315314922,0.00022588312470134253,-0.003769208720596376,0.014503380787156593,0.9891635575327664
2016-06-13,-1,-0.0015917623574282528,-0.001039013234303457,-0.0022369988435610526,0.014503380787156593,0.9891476488463217
2016-06-15,-1,-0.0013021958021054785,-0.0008338826565993764,-0.0022369988435610526,0.014503380787156593,0.9889314955981191
2016-06-17,-1,-0.0017365177497608258,-0.0011897411967185703,-0.0022369988435610526,0.014503380787156593,0.9888856636641499
2016-06-21,-1,-0.001681232676027377,-0.0011142578763146556,-0.003140828502820326,0.014503380787156593,0.989522773142154
2016-06-23,-1,-0.00035521698258229677,-1.77115081785265e-05,-0.0021363916377450305,0.013826423630548285,0.9909057397948304
2016-06-27,-1,-0.0016923958510591734,-0.0012136063310108796,-0.0021363916377450305,0.013826423630548285,0.9918512913308672
2016-06-29,1,0.0004002595261600032,0.0005752140860677403,-0.0021363916377450305,0.010253041703478866,0.9934318625897933
2016-07-01,0,-6.20108391353937e-05,0.000208883567992828,-0.0037987124072705585,0.008406881211317004,0.9900703310479424
2016-07-06,0,-8.458498527311414e-05,0.00024210574776486582,-0.0037987124072705585,0.008112395138288766,0.9904443291378209
2016-07-08,1,0.0008634353679024376,0.0010281830511795573,-0.0037987124072705585,0.008112395138288766,0.9908053805587423
2016-07-12,1,0.0013373353923353038,0.0014463607676319826,-0.0056976768040828615,0.008112395138288766,0.9906872762203385
2016-07-14,1,0.0011823761891425972,0.0012854784938815945,-0.004108214005879048,0.00930274854515098,0.9902020051760739
2016-07-18,1,0.0011881779474497796,0.0012674039893710697,-0.0056976768040828615,0.00930274854515098,0.9890053092064996
2016-07-20,1,0.0013358551207871148,0.0013838648036001069,-0.007087282428245301,0.00930274854515098,0.9884658497821179
2016-07-22,1,0.0018731650320236851,0.0019296031714254728,-0.010558522820242569,0.00930274854515098,0.988043728127499
2016-07-26,1,0.0013968642591323226,0.0013988750893776485,-0.00714272381572817,0.010253041703478866,0.9879828823781719
2016-07-28,1,0.0018706285969684266,0.0019335361906538619,-0.012543615040519509,0.007612802797702839,0.9874827707566204
2016-08-01,-1,-0.001298535567065418,-0.000966264007989554,-0.00714272381572817,0.007612802797702839,0.9905441619473085
2016-08-03,-1,-0.0007422626448704975,-0.000495197538772429,-0.012038100341623843,0.006761907854891235,0.9900204804481891
2016-08-05,-1,-0.0006093236171384327,-0.00036289057979095184,-0.012713246250789761,0.006761907854891235,0.98908083968513
2016-08-09,-1,-0.0003666360164496645,-0.00016253528373764037,-0.013133225049900167,0.006555818814816827,0.9891830332947297
2016-08-11,0,-3.6369816082063434e-05,0.0001322865552438038,-0.014011384507760747,0.0050383904770223125,0.987872551722905
2016-08-15,-1,-0.0006604676846564914,-0.00040517276255587,-0.014011384507760747,0.0050383904770223125,0.986391475846492
2016-08-17,-1,-0.0012618445127836673,-0.0009487886313864266,-0.013410948912505685,0.006100883851989253,0.9866688657074264
2016-08-19,-1,-0.0016889139168190296,-0.0013210543814700377,-0.013410948912505685,0.006100883851989253,0.9866759581113431
2016-08-23,-1,-0.0006277663876673202,-0.0004081372306112968,-0.013410948912505685,0.006100883851989253,0.9860953368776358
2016-08-25,-1,-0.0016668561108159781,-0.0012951685430747204,-0.013133225049900167,0.006126720007791282,0.9862131132633384
2016-08-29,-1,-0.001976466429911243,-0.0015666851828011054,-0.013133225049900167,0.00759706322808393,0.9861938498532911
2016-08-31,-1,-0.0027929645762072566,-0.00230149346839171,-0.012906846574703455,0.012458440548065003,0.986494626010902
2016-09-02,-1,-0.0026246244838776323,-0.0021542827068401268,-0.01295492665907568,0.00759706322808393,0.9864521855862621
2016-09-07,-1,-0.0031497186128507408,-0.0026186363951212245,-0.012996255734346523,0.00759706322808393,0.9865044508545383
2016-09-09,-1,-0.004685406881858621,-0.003986023975134106,-0.010784288200798572,0.012458440548065003,0.9856956530506148
2016-09-13,-1,-0.0039310052017478775,-0.003323228941380236,-0.007992992847779375,0.008454928343870636,0.9878855599589308
2016-09-15,-1,-0.0037659491278816924,-0.0031946419280595916,-0.007992992847779375,0.012458440548065003,0.9872200007446724
2016-09-19,-1,-0.004222749688185345,-0.003623542414712715,-0.006142631610057236,0.01262911246332676,0.9857410285651357
2016-09-21,-1,-0.004147508352349783,-0.0035023105850090037,-0.008985599907186326,0.012458440548065003,0.9867293944828385
2016-09-23,-1,-0.0023043936165340357,-0.0019708504035781393,-0.008985599907186326,0.012458440548065003,0.9876274476145632
2016-09-27,-1,-0.001490312945614961,-0.0012629848535025828,-0.010237733117145625,0.010049846530172542,0.9875582922768623
2016-09-29,-1,-0.0010129942431392944,-0.0008587340123787672,-0.010237733117145625,0.009985591279376631,0.9876595925066982
2016-10-03,-1,-0.0024875630363550057,-0.0021567599541497803,-0.005790889971136962,0.009985591279376631,0.9884916575428953
2016-10-05,-1,-0.0028456747638637677,-0.0024809629647465853,-0.005790889971136962,0.012425996312428862,0.9868294564814638
2016-10-07,-1,-0.003808872958383524,-0.0033334367471599307,-0.0036187784715326445,0.012630646361387006,0.9873611725186581
2016-10-11,-1,-0.004057844975281739,-0.003526190453369428,-0.002771720117162575,0.012961103528883307,0.9862246620325987
2016-10-13,-1,-0.0021275702026679814,-0.0018839021658280234,-0.002771720117162575,0.01589993840635194,0.981516807055064
2016-10-17,-1,-0.00041798882448904415,-0.00041066556473215644,-0.004560239587109344,0.01392768492915063,0.9828705826943387
2016-10-19,-1,-0.001349498456476435,-0.001208427168869169,-0.002771720117162575,0.01392768492915063,0.9819678967210809
2016-10-21,-1,-0.0011298370030759653,-0.0010006558998321186,-0.0056401906436349455,0.01392768492915063,0.9821123094195603
2016-10-25,-1,-0.0015348256026313928,-0.0013409828155334085,-0.0031621935187254174,0.01392768492915063,0.9830746775335729
2016-10-27,-1,-0.0009621992435030957,-0.0008551665939135293,-0.0015656127037383667,0.015246356937824005,0.9823698279009365
2016-10-31,-1,-0.0005756338737904708,-0.0005117806203754305,-0.0055938224855035905,0.015246356937824005,0.9797665856854567
2016-11-02,-1,-0.0012182336243198818,-0.0010423023928161402,-0.0033114440017377785,0.01392768492915063,0.9818358358473501
2016-11-04,-1,-5.877098984997229e-05,-7.244471085666895e-06,-0.0033114440017377785,0.01256488922582688,0.9828710556608389
2016-11-08,1,0.0007972156478826249,0.0008569275989325678,-0.0033114440017377785,0.012377977576231198,0.9831878389939145
2016-11-10,1,0.00516382432569483,0.005831880856740556,-0.005005521573854887,0.008370968686142864,0.9880174244804245
2016-11-14,1,0.005343368707588339,0.006077405398240352,-0.005005521573854887,0.008370968686142864,0.987239520440025
2016-11-16,1,0.0033840275865849425,0.003764620205048224,-0.00582326919637789,0.008370968686142864,0.9889705586202233
2016-11-18,1,0.00346400315367385,0.003935063647019787,-0.004842772849016521,0.008370968686142864,0.9896478266583373
2016-11-22,1,0.0035113287912731644,0.004006438276228192,-0.004842772849016521,0.011791408176290258,0.9894943449061999
2016-11-25,1,0.004681802532640383,0.00535679662724761,-0.00582326919637789,0.006258529479346728,0.9896247278496779
2016-11-29,1,0.0034595226961374012,0.004003768166477682,-0.005472695017836864,0.006258529479346728,0.9924339133621451
2016-12-01,1,0.0035671451994719458,0.004158208149579917,-0.00582326919637789,0.006258529479346728,0.991991657121185
2016-12-05,1,0.003933927223961219,0.004557289749644564,-0.00582326919637789,0.006258529479346728,0.9908535125959784
2016-12-07,1,0.004567761517502246,0.005277629871288183,-0.006317185493442295,0.0030674075292548763,0.9889797510815701
2016-12-09,1,0.004231003547236272,0.0049026025874783176,-0.006494059340914257,0.0038433452223002517,0.9894117531945288
2016-12-13,1,0.0035487791336453814,0.004144281141402888,-0.006494059340914257,0.0038433452223002517,0.9904810658319176
2016-12-15,1,0.0028472436652386473,0.003316536020424447,-0.006204814302167254,0.00624808357155023,0.9906834906183772
2016-12-19,1,0.0032996141720922426,0.0038713815209983436,-0.00713338443573379,0.009002576406193338,0.9891828063691892
2016-12-21,1,0.0022571907056286806,0.0025154539918820994,-0.00713338443573379,0.00923388793351836,0.9885443476711565
2016-12-23,1,0.002228289855484224,0.0025016312617059736,-0.006364548957514646,0.01708783187077601,0.9871192993476686
2016-12-28,1,0.002675474323308554,0.003028172085986325,-0.006838448706627564,0.016826810277427065,0.9875176459926537
2016-12-30,1,0.0022531294508348993,0.0025573837324394545,-0.007673306140348158,0.016826810277427065,0.9860865311780588
2017-01-04,1,0.003140113636150511,0.003585747490243064,-0.007673306140348158,0.00923388793351836,0.9868362172765195
2017-01-06,1,0.001815388003803056,0.002060701659207142,-0.006838448706627564,0.00923388793351836,0.9883959660143697
2017-01-10,1,0.0013025680785941716,0.0014426053531450594,-0.007673306140348158,0.008891999542694515,0.986158155343853
2017-01-12,1,0.0008354818960199401,0.0008965364243505067,-0.0068991664451997555,0.0157408848230655,0.985982479713398
2017-01-17,1,0.0014664545848610345,0.0016538895668489853,-0.0068991664451997555,0.009454162344746246,0.986770527897562
2017-01-19,1,0.001806473823887351,0.0020058552100963335,-0.008034649098787478,0.003959999817919961,0.987285633613831
2017-01-23,1,0.0024023866077316327,0.0026644412446727933,-0.009764627899146797,0.003959999817919961,0.987357296639621
2017-01-25,1,0.0031835089624728894,0.00349430016114229,-0.013887643133590678,0.001880942787193919,0.9864582798440003
2017-01-27,1,0.0029793724053645532,0.0032628276366270643,-0.013887643133590678,0.003959999817919961,0.9858104049028237
2017-01-31,1,0.0011248276790938334,0.001129314900727808,-0.009096866930083993,0.008255894972081259,0.9871179215910363
2017-02-02,0,-0.00014120042808555644,8.395005086718173e-05,-0.010394107063227215,0.008255894972081259,0.9861924243978228
2017-02-06,1,0.00010274319563063016,0.00026997870197607003,-0.013145152890672225,0.0054194694067464565,0.9855398494507442
2017-02-08,-1,-0.002275506280903069,-0.0018240465687719646,-0.011565065385929316,0.007847250302717476,0.9871808662750219
2017-02-10,-1,-0.002143784702847697,-0.0016704440062347617,-0.011565065385929316,0.00846381596342308,0.9870379130926573
2017-02-14,-1,-0.0017650282433982374,-0.0013722681060266285,-0.01419492762381569,0.00881822938909851,0.9862397832633101
2017-02-16,-1,-0.002184614107873309,-0.001769016900872291,-0.01419492762381569,0.00881822938909851,0.9863968012627932
2017-02-21,-1,-0.0015949344553362736,-0.0012778052740469868,-0.01419492762381569,0.007191791180269003,0.9867898005589096
2017-02-23,-1,-0.0030233316522009224,-0.0025470482426693123,-0.012593246092558037,0.008288936087421893,0.9877796016718468
2017-02-27,-1,-0.0026094686082947845,-0.0021134892870391113,-0.01419492762381569,0.006457087711004923,0.9888621759513542
2017-03-01,-1,-0.0018644621545009744,-0.0014298199260587173,-0.01419492762381569,0.007191791180269003,0.9879575839095938
2017-03-03,-1,-0.0035153254555254023,-0.002831337769347821,-0.012593246092558037,0.008288936087421893,0.9878901412987104
2017-03-07,-1,-0.004623058803836141,-0.0038071394694104295,-0.010020119686902628,0.008288936087421893,0.988232011816313
2017-03-09,-1,-0.004762653553662675,-0.003962801563740275,-0.008802022563094567,0.009798102894446187,0.9885040911818235
2017-03-13,-1,-0.0031791763836275973,-0.002626651669279982,-0.010020119686902628,0.009798102894446187,0.9871945320242766
2017-03-15,-1,-0.0039217188752120775,-0.0032458238989029483,-0.010020119686902628,0.009798102894446187,0.9869843646820718
2017-03-17,-1,-0.004521060184841811,-0.003790412413278368,-0.008802022563094567,0.009798102894446187,0.9873110702557407
2017-03-21,-1,-0.005457785704580601,-0.004605643329032659,-0.008802022563094567,0.009798102894446187,0.9869400037226388
2017-03-23,-1,-0.004911023435345681,-0.004136554699726496,-0.008802022563094567,0.011835483537307272,0.9861359087336199
2017-03-27,-1,-0.005613604335572939,-0.004777396159566693,-0.006356399129539861,0.011835483537307272,0.9862517610953647
2017-03-29,-1,-0.003902883779759037,-0.003256764896870418,-0.00660556130385709,0.009524710894456539,0.9883525224095563
2017-03-31,-1,-0.002393773667148885,-0.0019889361525607663,-0.008802022563094567,0.009524710894456539,0.9879559782984052
2017-04-04,-1,-0.0021842972009075267,-0.0018496152326730006,-0.0071807393729880105,0.0114552437628229,0.9860053474068741
2017-04-06,1,0.0005486917066693317,0.0008151203903941252,-0.006120038986406203,0.01142152764196928,0.9864197230222431
2017-04-10,1,0.001112404030035204,0.0014378734902140214,-0.006120038986406203,0.008888218082636163,0.9886378224350891
2017-04-12,-1,-0.0004615337439687977,-0.0004188321127182441,-0.006120038986406203,0.01142152764196928,0.9876442121837952
2017-04-17,-1,-0.0006084114788671493,-0.0006012917464739918,-0.006265364984798247,0.017654605228908146,0.9870435777286708
2017-04-19,-1,-0.0008173823876920739,-0.0007859584459217027,-0.00711550961472722,0.017654605228908146,0.9856910715743704
2017-04-21,1,0.0009787081584960535,0.0012536638860183797,-0.00711550961472722,0.01125197205144084,0.9864858836488657
2017-04-25,1,0.00029380190337102593,0.0003808020322219544,-0.00711550961472722,0.01125197205144084,0.9867088124306214
2017-04-27,1,0.0006152765998653705,0.0007348646092929142,-0.009302422251424948,0.011760883274987864,0.9861712878375976
2017-05-01,1,0.0011016119285563375,0.0013200616190451467,-0.010478286259569957,0.00815751871486798,0.9867132989643486
2017-05-03,1,0.002641113783385667,0.0031025222284526447,-0.010478286259569957,0.00815751871486798,0.9876739464054465
2017-05-05,1,0.0024712173033453644,0.002886817515175728,-0.010478286259569957,0.00815751871486798,0.9875930240256233
2017-05-09,1,0.0015708168453122172,0.0018163813014445604,-0.010478286259569957,0.010061576388490043,0.9878078684396205
2017-05-11,1,0.0021169881312717597,0.0024074137799379148,-0.007174730378104219,0.012504083170277186,0.9888500718459518
2017-05-15,1,0.0025332935588049756,0.002880625885323655,-0.0070506462963738905,0.012504083170277186,0.988986374499248
2017-05-17,1,0.001267524647004828,0.0014807062487614143,-0.004859810657274951,0.012504083170277186,0.990036002897253
2017-05-19,1,0.0014561341153280873,0.001683549701405859,-0.004859810657274951,0.012504083170277186,0.9900523139020152
2017-05-23,1,0.001805572169881248,0.0020995356161083493,-0.0070506462963738905,0.012504083170277186,0.9895608058811702
2017-05-25,1,0.0018582069712216106,0.002130680423989258,-0.005520248661131442,0.012504083170277186,0.9898212441844745
2017-05-30,1,0.001500022373444902,0.0017690540221387847,-0.004714348371348259,0.012504083170277186,0.9898233641331703
2017-06-01,1,0.0014065130906805528,0.0015970611206881317,-0.006712886691540632,0.010185947147860884,0.9890086654832401
2017-06-05,1,0.0010905598146695298,0.0012346721165594431,-0.006712886691540632,0.010185947147860884,0.9891833750955453
2017-06-07,1,0.0011128705686795763,0.0012403754130732158,-0.006276499833760557,0.010305918964580135,0.9887647733237153
2017-06-09,1,0.002203152963390984,0.002491922201198044,-0.01005994552028286,0.007267439690601572,0.9884282186468369
2017-06-13,1,0.003015205141501096,0.003453921560676734,-0.01005994552028286,0.007123792936282857,0.9886301892351288
2017-06-15,1,0.0025061148218539003,0.002928881494294891,-0.00920822476787166,0.007123792936282857,0.9896010994445296
2017-06-19,1,0.003691989191766755,0.00436041496584305,-0.01005994552028286,0.004861867119307195,0.9884175633785954
2017-06-21,1,0.0030551514574515062,0.003625935831462203,-0.00920822476787166,0.008697546790645098,0.9888041062670408
2017-06-23,1,0.003281961699587407,0.0037907039243224167,-0.00920822476787166,0.004499129077448187,0.9896514279008168
2017-06-27,1,0.0029848403629874603,0.003447453235783904,-0.00920822476787166,0.00390915984564278,0.9902139446906447
2017-06-29,1,0.0018468056488029818,0.002158580098491862,-0.007415620582394353,0.00390915984564278,0.9915906649612426
2017-07-03,1,0.0008463374042861274,0.0008956037570315413,-0.010268062836434085,0.003028212972339012,0.9901077481343956
2017-07-06,1,0.0017840932770873826,0.001996357595525465,-0.011759580805967836,0.003028212972339012,0.9882976854751742
2017-07-10,1,0.0007595063894005359,0.000836529608677046,-0.009130784727054968,0.005333040173474132,0.9889916575880223
2017-07-12,1,0.00040947275955946223,0.00042060024328609746,-0.011759580805967836,0.003028212972339012,0.9885787484150647
2017-07-14,1,0.00013823150087732966,0.00016823316968538833,-0.01291850411549424,0.003028212972339012,0.9876246037618038
2017-07-18,-1,-0.0015102211409335929,-0.001209125875587642,-0.011759580805967836,0.007450681231405927,0.9877192300177841
2017-07-20,0,-1.2285978951555624e-05,4.70317537044627e-05,-0.013873955470681454,0.005333040173474132,0.9874088146036
2017-07-24,1,0.0009283145828867382,0.0010495752594524696,-0.013873955470681454,0.0009439047361905155,0.9867585742550072
2017-07-26,1,0.0001708100643313995,0.00019792278356602408,-0.013873955470681454,0.0018816073305114984,0.9865562634143936
2017-07-28,-1,-0.001005543038505625,-0.0007909428457440621,-0.0134768848082284,0.0012033095929516726,0.9871566524135335
2017-08-01,-1,-0.002903573486873815,-0.0024418804468420707,-0.011007836149172988,0.00949623035254787,0.9879495658937727
2017-08-03,-1,-0.0021459839973658416,-0.001811577020544932,-0.008924322137284802,0.00949623035254787,0.9880547141491326
2017-08-07,-1,-0.002114571567594246,-0.0017697839299765086,-0.011007836149172988,0.005746017855192822,0.9879396833459674
2017-08-09,-1,-0.003618691431340197,-0.003059196948101506,-0.006338369190701509,0.00790053779298569,0.9881332309676589
2017-08-11,-1,-0.005399073828332631,-0.0045918920750075785,-0.006338369190701509,0.00949623035254787,0.98639962805809
2017-08-15,-1,-0.004251445037531571,-0.003600890977194093,-0.008874451310026257,0.007913819599999664,0.9873094172633495
2017-08-17,-1,-0.005667847227274628,-0.004805669404081628,-0.010839769227995802,0.007913819599999664,0.9866116544636941
2017-08-21,-1,-0.0048331255949853515,-0.004167507288416411,-0.008874451310026257,0.010147818499845113,0.9859438501388261
2017-08-23,-1,-0.0036285981722369593,-0.003140967511306701,-0.010259810444873795,0.010147818499845113,0.985646365101194
2017-08-25,-1,-0.004328121665470558,-0.00374132161883833,-0.008766899572635004,0.010147818499845113,0.9857138419169709
2017-08-29,-1,-0.003127520138757982,-0.0026837255696882207,-0.008766899572635004,0.010147818499845113,0.9859493293606986
2017-08-31,-1,-0.0011825479782183283,-0.0009971196658712742,-0.008766899572635004,0.007913819599999664,0.9878856687273985
2017-09-05,-1,-0.0027859234762956965,-0.002362759984805027,-0.008118929537751784,0.007913819599999664,0.9884764831429212
2017-09-07,-1,-0.002263527648011533,-0.0019041025554665692,-0.008567826532109857,0.010147818499845113,0.9879525904932995
2017-09-11,-1,-0.003297383334976071,-0.0028041759491717858,-0.008118929537751784,0.007055604259610472,0.9903167989040582
2017-09-13,-1,-0.0025953427394025726,-0.0022392018782283504,-0.009471422619342106,0.004661752929639897,0.9901385533366142
2017-09-15,-1,-0.003722540781589881,-0.0032434526821252968,-0.008381642875509153,0.004901056717346315,0.9906650500233157
2017-09-19,-1,-0.0027514105511621083,-0.0024076781193116716,-0.008381642875509153,0.004901056717346315,0.9912928883895955
2017-09-21,-1,-0.0019467014190729928,-0.0017069741319417518,-0.0062157106676807095,0.004901056717346315,0.9915724011425812
2017-09-25,-1,-0.0016001087026295893,-0.0014686230953223998,-0.005309316118769608,0.00717634064792862,0.9910705731082817
2017-09-27,-1,-0.00041557460385961145,-0.000401964990724972,-0.006540485224304979,0.00717634064792862,0.9909054120011007
2017-09-29,-1,-0.00038157329664974417,-0.00037523053776277024,-0.006540485224304979,0.00717634064792862,0.9907570242207002
2017-10-03,1,0.00018813786627942054,0.00031568993916012995,-0.006247809892461936,0.006426541261505287,0.9909813422306938
2017-10-05,1,0.0008915974942720638,0.0011443573112898497,-0.005407798455158733,0.006426541261505287,0.99060919866961
2017-10-09,-1,-0.00015031169626894656,-0.0001357957069627676,-0.0069513883074324954,0.010042208333562373,0.9895475551022497
2017-10-11,-1,-0.0008614010611431655,-0.0008091643688308366,-0.004913368327627694,0.01085166327083583,0.9895291374017858
2017-10-13,-1,-0.0009831629295955625,-0.000929896821142084,-0.004597424633720593,0.01085166327083583,0.9898303882648604
2017-10-17,-1,-0.00046773064871471305,-0.0004365050481576349,-0.004597424633720593,0.01085166327083583,0.990357474907215
2017-10-19,1,0.00012343876451511026,0.00018835287123307408,-0.005048089714447844,0.01085166327083583,0.9897268704413211
2017-10-23,1,0.0007360194457740541,0.0009139977135125789,-0.006131978079107537,0.007586648260276476,0.9898550775009645
2017-10-25,1,0.000995130397584149,0.0011921797182609644,-0.006131978079107537,0.006407989330339298,0.9909482638995685
