JNU-Tangyin/eata/results/Batch4_SP500/Batch4_SP500-O.csv
Date,Action,Predicted_Q25,Predicted_Q75,Actual_Q25,Actual_Q75,RL_Reward
2010-12-14,0,-0.0005118359005283432,0.0,-0.006075168786102581,0.006824684100976839,0.9927222755068247
2010-12-16,-1,-0.000423044290437991,-0.00034519451446338124,-0.005076305470667052,0.006824684100976839,0.9934492107415269
2010-12-20,-1,-0.00029378970760026433,-0.00021805871415900847,-0.006075168786102581,0.005699038916433261,0.9929964990789842
2010-12-22,1,0.00016105506007638935,0.00016724540923715607,-0.006275317649655349,0.0027500843341425794,0.9930675149714299
2010-12-27,1,0.0002691399283653936,0.0003509129238262256,-0.006075168786102581,0.00423127071770641,0.9929370861469292
2010-12-29,0,-0.00014095303561852216,1.699047829133209e-05,-0.006075168786102581,0.006240668665726274,0.9925169805156753
2010-12-31,-1,-0.0006267785004354758,-0.00043138855997204356,-0.0052580014286010435,0.009339474957053034,0.991622840339153
2011-01-04,-1,-0.0014403550359382926,-0.0011002508965519751,-0.0052580014286010435,0.006240668665726274,0.9924972360427782
2011-01-06,-1,-0.0012308684744663794,-0.0009669005980849241,-0.005412726631291367,0.006240668665726274,0.9919154200542507
2011-01-10,-1,-0.0009539741115503282,-0.0007401206875529021,-0.005412726631291367,0.008304495360949175,0.9916733710368023
2011-01-12,-1,-0.0019880482225400472,-0.0015887884211424263,-0.004425733007792982,0.008304495360949175,0.9912679428582883
2011-01-14,-1,-0.00190494059191908,-0.0015159992654428355,-0.006989916708216727,0.008691924362891686,0.9908770923301794
2011-01-19,-1,-0.0011092396622428523,-0.0008307835771112851,-0.006989916708216727,0.008233300637247065,0.9919339811084672
2011-01-21,-1,-0.0019004903021706421,-0.0015427224615196028,-0.004285162918601741,0.008233300637247065,0.9915036626627519
2011-01-25,1,0.0003906039397153405,0.0003950282050601135,-0.006364120852857799,0.007389317615755305,0.99307337659218
2011-01-27,1,0.0010608075389644774,0.0011675355995314281,-0.0066059897704927525,0.007389317615755305,0.9925309330575791
2011-01-31,0,0.0,0.0,-0.0066059897704927525,0.007389317615755305,0.992213637912908
2011-02-02,0,-1.545441144387645e-05,5.2294538490611433e-05,-0.0066059897704927525,0.0078038809920209055,0.992011004308852
2011-02-04,1,0.00023262251650609124,0.00024197175527054538,-0.0066059897704927525,0.0078038809920209055,0.9924412873289646
2011-02-08,1,0.0005256482738018809,0.0005627164173020973,-0.007057346140699021,0.0078038809920209055,0.9918243470624232
2011-02-10,1,0.0010181472612323435,0.0011748145545866142,-0.007751897756195218,0.0078038809920209055,0.9915408819963047
2011-02-14,1,0.0005819027371520543,0.0006300144181040259,-0.007751897756195218,0.007326241117066894,0.9919319405326528
2011-02-16,1,0.0004979353371121036,0.0005307258234664835,-0.006813989292166287,0.0078038809920209055,0.9920663657107077
2011-02-18,1,0.000877134316508304,0.0009586840156566163,-0.006813989292166287,0.006083591237611693,0.9924376398661255
2011-02-23,1,0.0005574792317107049,0.0005885991473444367,-0.007751897756195218,0.006083591237611693,0.9919631496028302
2011-02-25,1,0.001130182955223479,0.0012642774226857229,-0.007751897756195218,0.005689890262359484,0.99275027813153
2011-03-01,1,0.0007157667084983229,0.000800983280616624,-0.006494813116897246,0.005536439989048641,0.9941123708322609
2011-03-03,1,0.0006232577270188622,0.000688707284480665,-0.005433270150534964,0.003980961039122469,0.994666183683756
2011-03-07,1,0.0005157347909749194,0.000580133216960916,-0.0045731358516576705,0.004391378294155562,0.9948153176099299
2011-03-09,1,0.00019606982386064452,0.00020681105469651836,-0.0021630873538477854,0.0036010248641616264,0.9957861918052169
2011-03-11,0,0.0,0.0,-0.002602632187511668,0.003463469327255422,0.9959145678755462
2011-03-15,0,0.0,0.0,-0.0015867577392597646,0.003463469327255422,0.9960588126889629
2011-03-17,0,0.0,0.0,-0.0015867577392597646,0.003463469327255422,0.9959922486275757
2011-03-21,-1,-0.007786106745559832,-0.0064518273093917295,-0.002378080247326493,0.0035994419901981627,0.9924855200191699
2011-03-23,-1,-0.00011917819677480996,-0.00010342629019792994,-0.001433841241036979,0.0043966314641661125,0.9953794367149394
2011-03-25,1,0.0003033398087997032,0.00034238202085443235,-0.001433841241036979,0.004008942852989849,0.9956067821566917
2011-03-29,1,0.0003586494725479072,0.00039589815722003684,-0.001433841241036979,0.004567113202956503,0.995309368439356
2011-03-31,1,0.0010312005169657017,0.001213133377770876,-0.0015867577392597646,0.004567113202956503,0.99496638900379
2011-04-04,1,0.0005543050843147292,0.0006112549477876999,-0.0015867577392597646,0.004564613936751632,0.9949689461246127
2011-04-06,1,0.000452663783556834,0.00048590893159903214,-0.0015867577392597646,0.004564613936751632,0.9949504144523359
2011-04-08,-1,-0.00014462934694517123,-9.075315954827504e-05,-0.0012044539750229826,0.004564613936751632,0.9947975676763318
2011-04-12,-1,-0.00027309825627498186,-0.00019488518854736162,-0.0017091481476486136,0.004564613936751632,0.9943735540627373
2011-04-14,1,8.489702310103526e-06,5.241634882105964e-05,-0.002688087181790237,0.0037477314478193092,0.9946739035192614
2011-04-18,-1,-0.00023023793605877644,-0.00016382944610668224,-0.0009140704680143579,0.0032570135962270022,0.9953658858561293
2011-04-20,1,0.0007397068219027078,0.0008265540007379523,-0.0009140704680143579,0.003115082757774609,0.9958514025996523
2011-04-25,0,0.0,0.0,-0.007183342494315228,0.00253400927460468,0.9953843601417076
2011-04-27,0,0.0,0.0,-0.007183342494315228,0.0014653547711296969,0.9957411068616123
2011-04-29,0,0.0,0.0,-0.003931649921108456,0.0019130930029068933,0.9960972613530962
2011-05-03,0,0.0,0.0,-0.007183342494315228,0.002698471437328997,0.9946145263363034
2011-05-05,1,6.845783463498749e-05,0.00015216547182580163,-0.007183342494315228,0.002698471437328997,0.9945722635088977
2011-05-09,1,0.00012749570308771797,0.0001449523463425645,-0.007183342494315228,0.002698471437328997,0.9942604746642011
2011-05-11,-1,-0.00027976068808637785,-0.00018745793948872708,-0.0073657059840988946,0.0019130930029068933,0.9938902429013131
2011-05-13,-1,-0.000202331128040929,-0.00013967527562450393,-0.0075686423181171945,0.0018151190258729002,0.9928215389808861
2011-05-17,0,0.0,0.0,-0.007954773047645882,0.002985472158554168,0.9913791194150896
2011-05-19,0,0.0,0.0,-0.007954773047645882,0.005632835042348522,0.9909072342227042
2011-05-23,0,0.0,0.0,-0.007490326089105344,0.005632835042348522,0.9912345541681724
2011-05-25,0,0.0,0.0,-0.008835594646425556,0.005632835042348522,0.990205542534665
2011-05-27,0,0.0,0.0,-0.008835594646425556,0.0047192722815496396,0.9903162826468568
2011-06-01,0,0.0,0.0,-0.007743554570501589,0.006400761704626059,0.9911299802476126
2011-06-03,-1,-0.0012066467030717478,-0.0009915942337938128,-0.007743554570501589,0.0072985153081360065,0.9901542523531442
2011-06-07,0,0.0,0.0,-0.007446025339727863,0.00857934963608511,0.9901801415237851
2011-06-09,0,0.0,0.0,-0.0028360717812598024,0.009176356740648095,0.9906745465398733
2011-06-13,0,0.0,0.0,-0.0028360717812598024,0.009176356740648095,0.991340013106102
2011-06-15,0,0.0,0.0,-0.00593433582610606,0.00857934963608511,0.9916704270734121
2011-06-17,0,0.0,0.0,-0.007429815438690661,0.0072985153081360065,0.9919775167416561
2011-06-21,0,0.0,0.0,-0.007429815438690661,0.007863947742661657,0.9917933913321115
2011-06-23,0,0.0,0.0,-0.0028360717812598024,0.007863947742661657,0.9925500529586618
2011-06-27,-1,-0.0015547352243308623,-0.001360137745079279,-0.005844523031961577,0.007863947742661657,0.9919404685953384
2011-06-29,-1,-0.0008849629261835487,-0.0007714942747183656,-0.009862052818273513,0.00630461937432473,0.9909123300315167
2011-07-01,-1,-0.0005138864974446068,-0.0004385827620690864,-0.009862052818273513,0.004982909391016754,0.9915911756693102
2011-07-06,1,0.00046451430679807313,0.000542568600494487,-0.012234866458274514,0.0035701740368751,0.991050517797364
2011-07-08,1,0.0005066255905697832,0.000595161416757879,-0.015301058438098706,0.002759737014017019,0.9891047411941699
2011-07-12,1,8.702630887037886e-05,0.00011232529844104067,-0.017077129929899387,0.0035701740368751,0.9820119349349485
2011-07-14,-1,-0.0003147983469783616,-0.00030607822587321596,-0.018686181971456568,0.004982909391016754,0.9800789214990098
2011-07-18,-1,-0.00037154543421644013,-0.00036369604538315795,-0.018686181971456568,0.004982909391016754,0.9782682389333646
2011-07-20,1,0.0002624984592253791,0.00035218469789364437,-0.018686181971456568,0.003856809618362543,0.9780609236151092
2011-07-22,1,0.00033470674463675345,0.00040868448510784363,-0.018686181971456568,8.82839888473678e-05,0.9772195645513799
2011-07-26,0,-1.7449024289085054e-05,1.0598291600902437e-05,-0.018686181971456568,0.00662429223618583,0.9761130873602936
2011-07-28,-1,-0.0015236140230343882,-0.0013646543785527862,-0.018686181971456568,0.01149154004575723,0.9764726327346523
2011-08-01,-1,-0.0018416264641323541,-0.001637783151954448,-0.018686181971456568,0.02357353456487161,0.9748946684574112
2011-08-03,-1,-0.0028513614876550623,-0.002524507938501202,-0.016764035731204077,0.02357353456487161,0.9758445212666605
2011-08-05,-1,-0.004691553261381374,-0.004146763176753627,-0.0157812290668304,0.02357353456487161,0.9762549708743054
2011-08-09,-1,-0.0027601450709817364,-0.0024543026673534405,-0.014656466468697272,0.02357353456487161,0.9823254307905286
2011-08-11,0,0.0,0.0,-0.014656466468697272,0.012608196397116403,0.9839366296180133
2011-08-15,0,0.0,0.0,-0.010182899661656492,0.010688588744897292,0.9854987301491748
2011-08-17,0,0.0,0.0,-0.010182899661656492,0.010688588744897292,0.9857858948007234
2011-08-19,0,0.0,0.0,-0.004231154341376364,0.010688588744897292,0.9859717215356395
2011-08-23,0,0.0,0.0,-0.013360284448692437,0.00984908833200885,0.9864596941103365
2011-08-25,0,0.0,0.0,-0.007625862325877952,0.008707296812559214,0.9878150917410704
2011-08-29,1,0.001100671834625835,0.00134523348485417,-0.007625862325877952,0.00737990785560547,0.9894005992361655
2011-08-31,1,0.0009515973241121695,0.0011666679242515235,-0.012830142232503897,0.00737990785560547,0.988817036012468
2011-09-02,-1,-0.00026485813121071284,-0.0002170831100710862,-0.012830142232503897,0.00737990785560547,0.9860336644247331
2011-09-07,1,0.0009480585070820242,0.0011643651639396133,-0.012830142232503897,0.00737990785560547,0.9856581221984143
2011-09-09,-1,-7.313085178373767e-05,-7.796654304954934e-06,-0.012830142232503897,0.008161035500070923,0.9848856955013722
2011-09-13,1,0.001253004501870474,0.0015020848000489924,-0.016429623618028924,0.00737990785560547,0.9830835541065907
2011-09-15,1,0.0017113305361703118,0.002040779386545093,-0.016429623618028924,0.00830051296447463,0.9825414233591379
2011-09-19,0,0.0,0.0,-0.016429623618028924,0.00936298054372307,0.9816520517318778
2011-09-21,0,0.0,0.0,-0.01309559818582267,0.012438346299613816,0.9811120827702675
2011-09-23,0,0.0,0.0,-0.01309559818582267,0.015028231505580181,0.980724761485708
2011-09-27,1,0.00334785063306821,0.0038699232609692245,-0.015252115580413714,0.01921614729802449,0.9796687662864781
2011-09-29,1,0.0007849525553026334,0.0009832750634830413,-0.014806253648518114,0.01921614729802449,0.9791425303987767
2011-10-03,-1,-0.00233244623272485,-0.002137108043000853,-0.012580421492539597,0.01921614729802449,0.9820891747132161
2011-10-05,-1,-0.001319604648611675,-0.0012371449423186512,-0.013686658469241483,0.017769988553191472,0.9826157458114225
2011-10-07,-1,-0.0018326345462595167,-0.0016927455353932706,-0.012580421492539597,0.01822274452472658,0.9833993403210747
2011-10-11,-1,-0.001074789908219551,-0.0010476352117448065,-0.009551418597364894,0.017624941511792343,0.9859063540575177
2011-10-13,-1,-0.0005577100829133155,-0.0005468982722932124,-0.012580421492539597,0.017624941511792343,0.9854751966931737
2011-10-17,-1,-0.0002507338226475303,-0.0002033023496074577,-0.009551418597364894,0.017624941511792343,0.9859681579853307
2011-10-19,0,0.0,0.0,-0.007103516077480521,0.015772807283665514,0.9873230031765913
2011-10-21,0,0.0,0.0,-0.007103516077480521,0.012396136031176803,0.98773022032109
2011-10-25,0,0.0,0.0,-0.007103516077480521,0.010958463153816312,0.9885918930135151
2011-10-27,0,0.0,0.0,-0.010413284874521532,0.007860610535810646,0.988682822004905
2011-10-31,0,0.0,0.0,-0.007103516077480521,0.01018423174900342,0.9884344110275091
2011-11-02,0,0.0,0.0,-0.007103516077480521,0.01018423174900342,0.9885526707705112
2011-11-04,0,0.0,0.0,-0.005539814997456136,0.007860610535810646,0.9894896998641709
2011-11-08,0,0.0,0.0,-0.005539814997456136,0.01018423174900342,0.9891803886880874
2011-11-10,0,0.0,0.0,-0.004572666530382425,0.011610465077821031,0.9894712172893102
2011-11-14,0,0.0,0.0,-0.005835821902598159,0.01018423174900342,0.9901475720115597
2011-11-16,-1,-0.00011933941474585408,-8.425181008032837e-07,-0.005835821902598159,0.011610465077821031,0.9895565516991089
2011-11-18,1,0.0007869044881187507,0.001059343224782942,-0.009028623508771717,0.009343012791997524,0.9891854206979895
2011-11-22,1,0.0006928986296073235,0.001010697561958593,-0.005835821902598159,0.014217286710504888,0.9889373326095603
2011-11-25,1,0.0010826683701202363,0.001481223110568976,-0.004247474096150513,0.014217286710504888,0.9899162231522826
2011-11-29,1,0.0005155646992791713,0.0008353581194669402,-0.005835821902598159,0.010750922081617252,0.9896983582289899
2011-12-01,1,0.000944304209204716,0.001361421030456931,-0.005835821902598159,0.008237449954083147,0.9910991110195916
2011-12-05,0,-5.5288925510500395e-05,0.00011856341392445398,-0.007617260489973372,0.008237449954083147,0.990418865704843
2011-12-07,1,5.350075345732686e-05,0.00022445723658934724,-0.007617260489973372,0.008237449954083147,0.990523513447234
2011-12-09,0,-3.458117604491801e-05,0.0001224639713225036,-0.005835821902598159,0.007896341761561222,0.9911788529207604
2011-12-13,1,0.0001302267706712716,0.0003846479018627095,-0.0029363969217543404,0.007896341761561222,0.9915657606188918
2011-12-15,1,0.0008374126766160385,0.0011059925419234524,-0.0029363969217543404,0.007368480586989947,0.9924585926999598
2011-12-19,-1,-0.0004386935426372439,-0.0004319136970449721,-0.002526324279359277,0.006877907850544771,0.9929551926785588
2011-12-21,0,0.0,0.0,-0.0029363969217543404,0.005717251433139246,0.9941244102110689
2011-12-23,0,0.0,0.0,-0.0029363969217543404,0.006865132866007498,0.9937349013363115
2011-12-28,0,0.0,0.0,-0.002526324279359277,0.006404806116584678,0.9945260845323112
2011-12-30,0,0.0,0.0,-0.002526324279359277,0.006404806116584678,0.9947546195119674
2012-01-04,0,0.0,0.0,0.0006746194250559483,0.006865132866007498,0.9945661109924976
2012-01-06,0,0.0,0.0,0.0006746194250559483,0.006865132866007498,0.994556578045378
2012-01-10,0,0.0,0.0,0.0006746194250559483,0.005997069227886273,0.9949605675036507
2012-01-12,0,0.0,0.0,-0.0030928756137311286,0.005997069227886273,0.9947791507758268
2012-01-17,1,0.0017287914021303066,0.001918338797457214,-0.00489225174997131,0.004906781579917603,0.9953106889921367
2012-01-19,1,0.0015369882091062154,0.0016996456858228378,-0.00489225174997131,0.004963244257416089,0.995139216547802
2012-01-23,1,0.0019552281692446476,0.0022328418868954435,-0.004908371475891086,0.004963244257416089,0.9951670759256988
2012-01-25,1,0.0024076758550581083,0.002743480793226688,-0.004908371475891086,0.004599835190996871,0.9948911091240342
2012-01-27,1,0.0018108974835917783,0.001997973691630587,-0.005292531701755283,0.004599835190996871,0.9943201164457017
2012-01-31,1,0.0023470896429973877,0.00266179672311312,-0.005292531701755283,0.005184159518314186,0.9939861122756751
2012-02-02,1,0.002332886556507809,0.002604250183942358,-0.005292531701755283,0.004599835190996871,0.9941998070943843
2012-02-06,1,0.002606572906449256,0.002945126408245519,-0.0051070635119569085,0.004599835190996871,0.9940935158441908
2012-02-08,1,0.002862470505745954,0.0032463218300398397,-0.005979790400299657,0.005184159518314186,0.9932726686432211
2012-02-10,1,0.002441512778726656,0.00275728117583086,-0.005196289864548252,0.006968741043703857,0.9936954970207516
2012-02-14,1,0.0016232467503266759,0.0017839499456729524,-0.004881642289708813,0.007918816694631953,0.9933688558255892
2012-02-16,1,0.0017071752017715882,0.0018731247810716426,-0.004881642289708813,0.007918816694631953,0.9935056877495314
2012-02-21,1,0.0017382078199533447,0.0019288981177443486,-0.0036733765916704703,0.007918816694631953,0.9937102273498866
2012-02-23,1,0.0016807492874617706,0.0018370206951591147,-0.003241890170381102,0.006968741043703857,0.994221656537475
2012-02-27,0,-0.00014912999092142934,1.8108170498639482e-05,-0.0024509192653212027,0.007906864168032325,0.9944281818029541
2012-02-29,1,0.0001492110257391015,0.00026645649038641944,-0.001381443926656982,0.0071540250645373855,0.9947331693269112
2012-03-02,-1,-0.0001796898280570638,-1.9479512767175164e-05,-0.001381443926656982,0.0071540250645373855,0.9945379466979594
2012-03-06,0,-5.597523557106482e-05,8.190381853951777e-05,-0.0008542009570124468,0.005507575240505201,0.9949618153349249
2012-03-08,1,4.734816193248392e-05,0.00016168478557926689,-0.001381443926656982,0.004612776289795963,0.993979520553639
2012-03-12,1,0.0004297150399188964,0.0004957778754134364,-0.005012702802260672,0.004216433163736929,0.9938512781388467
2012-03-14,1,0.0008485253486665377,0.0008496488565301387,-0.003040592809213787,0.004216433163736929,0.99388447901036
2012-03-16,1,0.0010794491242301473,0.001131420920715134,-0.005277300963160106,0.004612776289795963,0.993139485449076
2012-03-20,1,0.0010732951159635052,0.0011236538845659776,-0.005277300963160106,0.00499735349841519,0.9929457874603951
2012-03-22,1,0.001200780888119674,0.0012920404188615188,-0.005277300963160106,0.005507575240505201,0.9922721826922861
2012-03-26,1,0.0011911833437315564,0.0012617345048271872,-0.005277300963160106,0.0054997583612074715,0.9920707520586592
2012-03-28,1,0.001394238485342052,0.0014581912463639901,-0.005277300963160106,0.00669477542323952,0.9918322433465131
2012-03-30,1,0.0013957963092734533,0.0014714970449143136,-0.004311518351598742,0.00669477542323952,0.9919063060752663
2012-04-03,1,0.0014205680454370726,0.0015047018628309948,-0.0044993530845533975,0.00669477542323952,0.9916956675467956
2012-04-05,0,-0.00013132281931138297,2.0496390441466757e-05,-0.003957725962665044,0.00669477542323952,0.9933105768415316
2012-04-10,-1,-0.0004697525839766495,-0.0002915309154792505,-0.0030864716467314556,0.00669477542323952,0.9938230743075679
2012-04-12,1,0.0003026440542245371,0.0003748335538643361,-0.0038333322195168293,0.004495392368765503,0.9946544212570608
2012-04-16,1,0.0005133596643934354,0.0005581199859819724,-0.0038333322195168293,0.004495392368765503,0.994613940534314
2012-04-18,1,0.00016914994227142734,0.00028278161897344185,-0.003867368655661828,0.005287002197500161,0.9943961823516276
2012-04-20,1,9.069396494861139e-05,0.00025046675002069743,-0.004437048697837204,0.003754658091327863,0.9937538685979175
2012-04-24,1,0.0005466571051932143,0.0006399321430865354,-0.004437048697837204,0.005263888847574716,0.9935823761199921
2012-04-26,1,0.0008277943945162348,0.0008783138696392574,-0.004437048697837204,0.003754658091327863,0.9939498116457377
2012-04-30,1,0.0005899882115828146,0.0006753522505233157,-0.004437048697837204,0.005263888847574716,0.9934250260886972
2012-05-02,1,0.0006392674182922038,0.0006971592684366764,-0.005067614773262222,0.007734810416352872,0.9920124296196271
2012-05-04,1,0.0004873944814720677,0.0005628316818298874,-0.006644248819790117,0.007734810416352872,0.9916503092172277
2012-05-08,1,0.00021416062327613645,0.0003534482068409768,-0.006644248819790117,0.00841039474301826,0.9893204227787502
2012-05-10,1,0.0004771923603186861,0.0005538441591196878,-0.009740239111222185,0.009498728486242034,0.9881251466712235
2012-05-14,0,-4.082008191328378e-05,0.00012761011112642827,-0.01029814316475673,0.011295085545235334,0.9875738733915738
2012-05-16,1,0.0005470507004215815,0.0006009519597110439,-0.01029814316475673,0.011979136327883033,0.9875280202229905
2012-05-18,-1,-0.0006065127799020998,-0.0004303624329976948,-0.003653106119590841,0.013646869860253305,0.9882662874864752
2012-05-22,0,0.0,0.0,-0.003653106119590841,0.013646869860253305,0.9888077036254784
2012-05-24,0,0.0,0.0,-0.005174480208757051,0.013646869860253305,0.9885646806014504
2012-05-29,0,0.0,0.0,-0.005174480208757051,0.011979136327883033,0.9889139361597404
2012-05-31,0,0.0,0.0,-0.0026530381553339618,0.01298439069978437,0.9897713921078565
2012-06-04,0,0.0,0.0,-0.0009409795846035596,0.013227428896597738,0.9895294586913934
2012-06-06,0,0.0,0.0,-0.0026530381553339618,0.01176801421187092,0.9918627470256016
2012-06-08,0,0.0,0.0,-0.0026530381553339618,0.008453881174479807,0.9927143357680809
2012-06-12,0,0.0,0.0,-0.0026530381553339618,0.006713179954892895,0.993940497802054
2012-06-14,1,0.0005822784276257747,0.0006641130728845977,-0.0013125886644202427,0.006713179954892895,0.9939563201423335
2012-06-18,1,0.0013624826768269657,0.001412205228883689,-0.0013209789210054568,0.0062777831616806345,0.9945012730421007
2012-06-20,1,0.0013493947509180698,0.001435798159327126,-0.004358030161455052,0.005931448592481367,0.9940127114257463
2012-06-22,1,0.0008503612469885273,0.0008514324926683007,-0.004135945438519436,0.005931448592481367,0.9940369121021451
2012-06-26,0,0.0,0.0,-0.004135945438519436,0.005141269011524034,0.994122420180616
2012-06-28,0,0.0,0.0,-0.004358030161455052,0.004479294833511763,0.9936491956279849
2012-07-02,0,0.0,0.0,-0.004358030161455052,0.0033104071946664293,0.9945079731408736
2012-07-05,0,0.0,0.0,-0.0048251153681857116,0.003901726245716542,0.99415292697388
2012-07-09,0,0.0,0.0,-0.0048251153681857116,0.004040478130944797,0.9942495437224933
2012-07-11,0,0.0,0.0,-0.0059386203652878515,0.003500053857544618,0.9940392513605167
2012-07-13,0,0.0,0.0,-0.006708528536001998,0.002795178410271691,0.9944746790286828
2012-07-17,0,0.0,0.0,-0.0059386203652878515,0.0021530814786394686,0.9949131603461989
2012-07-19,0,0.0,0.0,-0.004513896925728441,0.002807055165136016,0.9943865454317421
2012-07-23,0,0.0,0.0,-0.0027472614601927094,0.00440224905030102,0.9942205442488398
2012-07-25,0,0.0,0.0,-0.0037788507303778925,0.00440224905030102,0.9941743958767983
2012-07-27,0,0.0,0.0,-0.0020651219534752584,0.00440224905030102,0.9948504306875516
2012-07-31,0,0.0,0.0,-0.0020651219534752584,0.005015068584623436,0.9941518352281735
2012-08-02,0,0.0,0.0,-0.0038922018451354986,0.00440224905030102,0.9939565359984163
2012-08-06,0,0.0,0.0,-0.003150539883096979,0.004807899515345092,0.9936391008752102
2012-08-08,0,0.0,0.0,-0.0038884972112816145,0.004807899515345092,0.9936611143713133
2012-08-10,0,0.0,0.0,-0.0038884972112816145,0.0077213402176049325,0.9931912773707152
2012-08-14,-1,-0.001251207956596425,-0.0011176017823243452,-0.005889678342127095,0.0077213402176049325,0.9929975252814814
2012-08-16,-1,-0.0010354048847163358,-0.000943027469990555,-0.005889678342127095,0.004807899515345092,0.9938643704941786
2012-08-20,1,0.0015207923849958345,0.0016603543043428879,-0.006014664302591937,0.001841498916765286,0.9933275428045231
2012-08-22,0,0.0,0.0,-0.006500614214107193,0.001841498916765286,0.9932652341791439
2012-08-24,0,0.0,0.0,-0.006500614214107193,0.001841498916765286,0.9936017228904666
2012-08-28,0,0.0,0.0,-0.007004834158867978,-0.00019032943385502237,0.9934613414577932
2012-08-30,0,0.0,0.0,-0.0063225094581371676,0.0026199660321435192,0.9939298328306987
2012-09-04,1,0.0009627493855700921,0.0009932542912666716,-0.0063225094581371676,0.0026199660321435192,0.9939528047864511
2012-09-06,1,0.00046985576466658573,0.0005471122173922286,-0.006014664302591937,0.0033645969625454623,0.9943856972776892
2012-09-10,1,0.0006604710155477052,0.000718704659091585,-0.005889678342127095,0.0026199660321435192,0.9950110760725118
2012-09-12,0,0.0,0.0,-0.004631395659886777,0.0033645969625454623,0.9953014843395002
2012-09-14,0,0.0,0.0,-0.004631395659886777,0.0028900630461827655,0.995368628027159
2012-09-18,0,0.0,0.0,-0.003640955202214986,0.004414175156386226,0.9951520062227462
2012-09-20,0,0.0,0.0,-0.0032331314970920656,0.004746795197899782,0.9954445225417028
2012-09-24,0,0.0,0.0,-0.003640955202214986,0.004285761351834385,0.995314037474288
2012-09-26,0,0.0,0.0,-0.0032331314970920656,0.004285761351834385,0.9957414918717901
2012-09-28,0,0.0,0.0,-0.00443397413506113,0.0033697174578940386,0.9946749252730218
2012-10-02,-1,-0.0007857874909000882,-0.0006654679430177976,-0.0053408812775626235,0.0033697174578940386,0.9947151617430692
2012-10-04,-1,-0.0006038612636284911,-0.000506710144384531,-0.0053408812775626235,0.0007383740365190177,0.9947271557921766
2012-10-08,-1,-0.0008638894154120415,-0.0007427408138084506,-0.007824972358197485,0.0013111496651213382,0.9943588243060055
2012-10-10,-1,-0.001797178320564443,-0.0014786419877378517,-0.007824972358197485,0.0001909252095341068,0.9947175987559811
2012-10-12,-1,-0.0016245156851606348,-0.0013644058714808445,-0.00879680814195177,0.0001909252095341068,0.9941223196743164
2012-10-16,-1,-0.0014396033615807816,-0.0011920820928234908,-0.009551141372909735,0.0001909252095341068,0.994158684922167
2012-10-18,0,0.0,0.0,-0.009551141372909735,0.0005816032716396931,0.9927758944567977
2012-10-22,0,0.0,0.0,-0.008911709288794084,0.0013733395889623564,0.9919999161334525
2012-10-24,1,0.002612187459934581,0.0031806553565440357,-0.008911709288794084,0.0013733395889623564,0.9911535194448705
2012-10-26,-1,-0.0031553019374653134,-0.00269407213585179,-0.00536687839060246,0.0013733395889623564,0.9938548159646114
2012-11-01,-1,-0.003182586873880252,-0.002716060726169093,-0.004846061162777556,0.0013733395889623564,0.9926267414892443
2012-11-05,-1,-0.0036390533895497208,-0.003107445048418083,-0.00536687839060246,0.002063199849786517,0.9920574583040379
2012-11-07,-1,-0.003932363805112878,-0.0033877157562567537,-0.004846061162777556,0.0028617727015165357,0.9918254727431035
2012-11-09,-1,-0.004093912080895514,-0.003556243294436367,-0.0036534647418745322,0.0028617727015165357,0.99162698635289
2012-11-13,0,0.0,0.0,-0.002363580151119657,0.0028617727015165357,0.9928676760931403
2012-11-15,0,0.0,0.0,-0.0017932291171242779,0.0028617727015165357,0.993232015806736
2012-11-19,0,0.0,0.0,-0.0017932291171242779,0.004269962584169969,0.9937106611498256
2012-11-21,0,0.0,0.0,-0.002363580151119657,0.004269962584169969,0.9942047030514757
2012-11-26,0,0.0,0.0,-0.0036534647418745322,0.002532596477337662,0.9942399495642015
2012-11-28,0,0.0,0.0,-0.004015054340566776,0.002532596477337662,0.9942355651952461
2012-11-30,0,0.0,0.0,-0.004161608496113162,0.0019864438360737294,0.9953721771243607
2012-12-04,0,0.0,0.0,-0.004015054340566776,0.00253148617185364,0.9947412802467676
2012-12-06,0,0.0,0.0,-0.0032288953874553576,0.004787940221444398,0.9946279192911984
2012-12-10,0,0.0,0.0,-0.0032288953874553576,0.006715526926797828,0.9941944356167514
2012-12-12,0,0.0,0.0,-0.0020308617675198963,0.007260946411834222,0.9936804872640884
2012-12-14,0,0.0,0.0,-0.001468806029441235,0.007668102424589004,0.9933817841339602
2012-12-18,0,0.0,0.0,-0.001468806029441235,0.007668102424589004,0.9934311285339147
2012-12-20,1,0.0005553264411911118,0.0006626321353604207,-0.00024635107025476675,0.007668102424589004,0.9943340718591653
2012-12-24,0,0.0,0.0,-0.00024635107025476675,0.007668102424589004,0.9939086127579171
2012-12-27,1,0.00014650161432249733,0.0001915735194452841,0.00017165352443419013,0.008761597532692294,0.9932663666317771
2012-12-31,0,0.0,0.0,-5.7375430936880654e-05,0.008761597532692294,0.9931019186693583
2013-01-03,0,0.0,0.0,-5.7375430936880654e-05,0.007668102424589004,0.9938982865633066
2013-01-07,0,0.0,0.0,-5.7375430936880654e-05,0.004962631926512574,0.9947423543832342
2013-01-09,0,0.0,0.0,-5.7375430936880654e-05,0.0027378981039718085,0.9952639763818695
2013-01-11,0,0.0,0.0,-0.0014306983343544423,0.0027378981039718085,0.995236844243607
2013-01-15,0,0.0,0.0,-0.0014306983343544423,0.0027378981039718085,0.9946779698314626
2013-01-17,0,0.0,0.0,-0.005234750193001785,0.0027378981039718085,0.994883176876994
2013-01-22,0,0.0,0.0,-0.005234750193001785,0.00302569562812801,0.9946516554121348
2013-01-24,0,0.0,0.0,-0.005234750193001785,0.003837631828065328,0.9945225493420746
2013-01-28,1,0.002920864941493494,0.003390168326270967,-0.003314170576477762,0.003837631828065328,0.9943432663114611
2013-01-30,1,0.0027508059654785372,0.003199132507131957,-0.0021284198391875848,0.005536036946937289,0.9948491465081962
2013-02-01,1,0.002523660887772154,0.002920804485475316,-0.0005033470010505973,0.00620979471333054,0.9951148379118577
2013-02-05,1,0.0025732122841787084,0.003019889913262629,-0.0021284198391875848,0.007730877038064006,0.9941838354871209
2013-02-07,1,0.002288437403112615,0.0026504347929982366,-0.002411422077249104,0.007730877038064006,0.9939127754178595
2013-02-11,1,0.0024861036175952184,0.002883540855550369,-0.003314170576477762,0.00620979471333054,0.9931792516935567
2013-02-13,1,0.002909918790421464,0.003339354442313734,-0.005320714726997532,0.00620979471333054,0.9934853813110681
2013-02-15,1,0.0025206789238236557,0.0028677743512831606,-0.005538040537247256,0.00620979471333054,0.993328935722277
2013-02-20,1,0.0026052976036314065,0.002970799938521393,-0.00676636249149842,0.00620979471333054,0.9930111390829427
2013-02-22,1,0.0020952623163960045,0.002348422312039241,-0.005538040537247256,0.007042647228179212,0.9932895608302161
2013-02-26,1,0.002478158898606333,0.0027931311737226005,-0.005893642182495187,0.007042647228179212,0.9928694773124412
2013-02-28,1,0.0027490232408954795,0.0031078846396773007,-0.005893642182495187,0.007042647228179212,0.9930172820399046
2013-03-04,1,0.0031018998284528454,0.003512367898149822,-0.005893642182495187,0.005438587511220217,0.9930017359174119
2013-03-06,1,0.0027514536991645484,0.003101909889390914,-0.005267441426585508,0.0051734869905816355,0.9937810932002784
2013-03-08,1,0.0025415202765200597,0.002862720352539436,-0.005267441426585508,0.006405421938717513,0.9939834859462211
2013-03-12,1,0.001481173647617825,0.0016520622711662433,-0.00115476533635688,0.007230088888850254,0.9952094543376878
2013-03-14,1,0.0016553468694664657,0.001863972995635248,0.0003600311800853072,0.00735811277445237,0.9949195945855127
2013-03-18,1,0.0013723773819280913,0.001538373610049488,0.000667995770273772,0.007552857017224691,0.9934279525551797
2013-03-20,1,0.0010959787098019278,0.001201267026881204,0.0010079847896200234,0.007842848368632414,0.993080182738135
2013-03-22,1,0.0010065290087303068,0.0010851755718890642,0.0011270758045557518,0.008495556094289583,0.992390813866277
2013-03-26,1,0.0007056418134815649,0.0007269149287519686,0.0011270758045557518,0.007842848368632414,0.9928263249250917
2013-03-28,1,0.001213992652294531,0.0012396396473414754,0.0011270758045557518,0.007498181966022208,0.9931395766871706
2013-04-02,1,0.001257288348924981,0.0012649670823965133,0.0011270758045557518,0.010479218481817239,0.9923018189308478
2013-04-04,1,0.0009086884145883991,0.0009658322324387138,0.0011270758045557518,0.010479218481817239,0.991810893929126
2013-04-08,1,0.0005224478768504845,0.0006372635810855374,-0.00010764567600215905,0.012611716791980738,0.9913737301856994
2013-04-10,1,0.00029351211315304954,0.0004658936798142094,-0.00010764567600215905,0.012611716791980738,0.9909440862481624
2013-04-12,0,0.0,0.0,-0.0025472025525802265,0.010479218481817239,0.9913759771264692
2013-04-16,0,0.0,0.0,-0.0004386171624497094,0.010479218481817239,0.9922965311211922
2013-04-18,0,0.0,0.0,-0.0004386171624497094,0.012611716791980738,0.9919820967081591
2013-04-22,0,0.0,0.0,-0.0025472025525802265,0.012611716791980738,0.991719010938941
2013-04-24,0,0.0,0.0,-0.00279824187260807,0.012611716791980738,0.989573252305817
2013-04-26,1,0.0029003909798525906,0.0031149584875689545,-0.0058235395466945065,0.012611716791980738,0.9875393716400752
2013-04-30,1,0.003407153824869157,0.0036607703035268,-0.009726440113383696,0.0088577077313223,0.9859124907245783
2013-05-02,1,0.003401625995844877,0.003661698600328271,-0.018027994902554655,0.007533890387367488,0.9843234997737573
2013-05-06,1,0.003511233423265661,0.003768627439403223,-0.020651679984661372,0.006039472711053621,0.982511267328214
2013-05-08,1,0.0037881962984400155,0.004054244019094515,-0.020651679984661372,0.006033810256063252,0.9809730224942057
2013-05-10,1,0.0033943310219131514,0.0035911731199447516,-0.020651679984661372,0.006033810256063252,0.98024822301729
2013-05-14,1,0.0041376533515200785,0.004455896085302858,-0.020651679984661372,-0.0017640286561201681,0.9791625183136419
2013-05-16,0,0.0,0.0,-0.020651679984661372,0.006033810256063252,0.9801164838229943
2013-05-20,0,0.0,0.0,-0.020651679984661372,0.006033810256063252,0.9802491465576122
2013-05-22,0,0.0,0.0,-0.026016017642502182,-0.005910834630347264,0.9788013124334272
2013-05-24,0,0.0,0.0,-0.020127233333646594,0.0010501148494255468,0.9810729647545428
2013-05-29,-1,-0.0014253164073201533,-0.0009700390321949089,-0.01689941967209479,0.00994925313240723,0.9825963655850465
2013-05-31,-1,-0.003004115238077704,-0.0023995938765975127,-0.014848615543623931,0.011071499577767615,0.9838148048262573
2013-06-04,-1,-0.004860552549988378,-0.004061983159191073,-0.013012661558898679,0.012340512822602161,0.983889655036559
2013-06-06,-1,-0.0024694839444565388,-0.0019801273179602483,-0.013972215622445772,0.011071499577767615,0.9854486199539115
2013-06-10,-1,-0.0034548840176821796,-0.0028711645148434186,-0.013972215622445772,0.012340512822602161,0.9852376427105078
2013-06-12,-1,-0.004479988803505983,-0.0038048328118448485,-0.005602571660956559,0.013920095956807085,0.9842529807461432
2013-06-14,-1,-0.0029043882196520326,-0.002440868965617909,-0.005602571660956559,0.011071499577767615,0.9860955382309785
2013-06-18,0,0.0,0.0,-0.0034086644075769276,0.011071499577767615,0.9871789042079969
2013-06-20,0,0.0,0.0,-0.0020026099437573303,0.011071499577767615,0.9901899169142885
2013-06-24,0,0.0,0.0,-0.0020026099437573303,0.012340512822602161,0.9895599823090461
2013-06-26,0,0.0,0.0,-0.0033383550727554673,0.009278483251030508,0.9892906112927168
2013-06-28,-1,-0.006058104173224074,-0.005204252072726805,-0.0020026099437573303,0.008050535629207569,0.9874758589436424
2013-07-02,-1,-0.004627478917989513,-0.003942553932392928,-0.004892581848223276,0.007259957870262545,0.989612213393688
2013-07-05,0,0.0,0.0,-0.004892581848223276,0.007897613777435083,0.9903325483371473
2013-07-09,0,0.0,0.0,-0.008073842684837863,0.007259957870262545,0.9904666459855936
2013-07-11,0,0.0,0.0,-0.008073842684837863,0.0066990744314620355,0.9917115721802948
2013-07-15,0,0.0,0.0,-0.01180570924700324,0.0066990744314620355,0.9912680496682741
2013-07-17,0,0.0,0.0,-0.012821043778284991,0.004859892381530132,0.9903072817203008
2013-07-19,-1,-0.001314606796414146,-0.0010576652183019685,-0.014077335077223746,0.003346022156969255,0.9898351554189947
2013-07-23,-1,-0.0004907330389828694,-0.0003649334221278554,-0.016119844194157407,0.003346022156969255,0.9883250444015307
2013-07-25,-1,-0.0016598829447450952,-0.0014193089271915507,-0.014077335077223746,0.00425260718216188,0.9897217529470612
2013-07-29,-1,-0.0015608439898752793,-0.0013290326901712563,-0.014077335077223746,0.004823555757538089,0.988901605555888
2013-07-31,-1,-0.0027841738630952793,-0.002402278170130563,-0.01295304217799875,0.004823555757538089,0.9896371163612225
2013-08-02,-1,-0.0037901891894088326,-0.003229927288349415,-0.012034668076534263,0.004380473598512426,0.9903366332692349
2013-08-06,-1,-0.004366426315235468,-0.003742216257994242,-0.012733439045890369,0.005243491630581772,0.9897002424825593
2013-08-08,-1,-0.004082986593908677,-0.003477338933223083,-0.015334200585316635,0.006208366779823451,0.9892035624168426
2013-08-12,-1,-0.00434105083388093,-0.003685606266893733,-0.015334200585316635,0.006208366779823451,0.988804988345791
2013-08-14,-1,-0.005379849793149049,-0.004622483633797324,-0.012666384210833005,0.006208366779823451,0.989367109377725
2013-08-16,-1,-0.007050693198434934,-0.006122783074537805,-0.011246469424928029,0.010589791066166015,0.989348746325941
2013-08-20,-1,-0.006402714358934594,-0.005578017577662875,-0.009068285493614364,0.010589791066166015,0.9898476325410986
2013-08-22,0,0.0,0.0,-0.011246469424928029,0.010589791066166015,0.9893260856138768
2013-08-26,0,0.0,0.0,-0.00924734086871243,0.008064677246584008,0.9897129327943252
2013-08-28,0,0.0,0.0,-0.008403542219670108,0.011912722094770893,0.9890335611219823
2013-08-30,-1,-0.00527654638102209,-0.004707162697548473,-0.011599475243545848,0.011912722094770893,0.988311003304459
2013-09-04,-1,-0.004606574212536775,-0.004164142552582078,-0.00925223960309526,0.01449653897302719,0.9881740999919738
2013-09-06,-1,-0.004502839451643169,-0.004088156608164041,-0.00925223960309526,0.01449653897302719,0.9887008477046233
2013-09-10,-1,-0.0038080009634384538,-0.0034910690668308406,-0.009020755845234419,0.008878428539009556,0.9898344217466036
2013-09-12,-1,-0.0032680950080165557,-0.0030664210399907518,-0.009020755845234419,0.01449653897302719,0.9885995869488826
2013-09-16,-1,-0.002112222084843598,-0.0020574886776137035,-0.009020755845234419,0.008968325906055931,0.9889651893014711
2013-09-18,0,0.0,0.0,-0.009020755845234419,0.008968325906055931,0.9894321455626987
2013-09-20,0,0.0,0.0,-0.007462645746910891,0.014213815865392289,0.9893812847324238
2013-09-24,-1,-0.0005933075860875874,-0.000438199211079589,-0.00862644284307755,0.014213815865392289,0.9890934625595981
2013-09-26,0,0.0,0.0,-0.00862644284307755,0.008502517890401453,0.9897461667218559
2013-09-30,0,0.0,0.0,-0.0038905318974700506,0.012885483455160548,0.9895555659058048
2013-10-02,1,0.0014220419566021254,0.0020568408760339787,-0.007468710855626244,0.008502517890401453,0.9907447123780102
2013-10-04,0,0.0,0.0,-0.007468710855626244,0.00851566988319203,0.9898339709659293
2013-10-08,0,0.0,0.0,-0.007468710855626244,0.00851566988319203,0.989792292633974
2013-10-10,1,0.0012332528647592492,0.0018430659884856508,-0.00807892986459674,0.0080558947250037,0.9904928694390063
2013-10-14,1,0.003427153676706339,0.004424935823776106,-0.008498365496008433,0.0080558947250037,0.9884371852498544
2013-10-16,1,0.0033354722826148893,0.004191970291781004,-0.008498365496008433,0.005560095748534846,0.9888367755968819
2013-10-18,1,0.0025171416065232653,0.0031292750609490617,-0.008498365496008433,0.006422355486507455,0.9896105312270976
2013-10-22,1,0.0008743001223242758,0.0011716137165778534,-0.00972138661929541,0.006422355486507455,0.9895762905886674
2013-10-24,1,0.0005543430045576356,0.0007017000943826713,-0.01076219113692125,0.005299941102382198,0.9890915207314439
2013-10-28,1,0.0029721283839285353,0.003548407081103477,-0.01253341126366343,0.0014459205882491354,0.9888386252701641
2013-10-30,1,0.0021154439832956626,0.0025247452085525746,-0.01253341126366343,0.005299941102382198,0.9888997189073733
2013-11-01,1,0.0009376308389447719,0.0011235014607122733,-0.010940340078252982,0.0014459205882491354,0.9900631483966826
2013-11-05,1,0.001398918090380813,0.0017481757255777258,-0.01253341126366343,0.0014459205882491354,0.9891582233929913
2013-11-07,1,0.001276998715820495,0.0015991928327442491,-0.011060292802640504,0.0014459205882491354,0.9895551905085526
2013-11-11,-1,-0.0018956026952106073,-0.0016367825733792443,-0.010271151649913608,0.005299941102382198,0.9916376738658736
2013-11-13,-1,-0.001982855309720591,-0.0017024358683440856,-0.011060292802640504,0.006177792504335734,0.9911310902063569
2013-11-15,-1,-0.0005186537678791042,-0.00046323756393747194,-0.011060292802640504,0.004167980924504018,0.9902149388670086
2013-11-19,-1,-0.0016155222692906023,-0.0014385681530562962,-0.007762877392283561,0.0077829199692898265,0.9896127344935841
2013-11-21,-1,-0.0016301811113006482,-0.0015222086234367676,-0.010465781942618973,0.0077829199692898265,0.9881828719078547
2013-11-25,-1,-0.0025569167924178095,-0.0023163457282495657,-0.007762877392283561,0.008474122775519195,0.9880175378825969
2013-11-27,-1,-0.0019319800120466773,-0.0018025796222361726,-0.006920807110169393,0.006972593092770074,0.9887613643280444
2013-12-02,-1,-0.0015628240870182658,-0.0015473251573308536,-0.007687954554029336,0.006972593092770074,0.9886487015941677
2013-12-04,-1,-0.0021451109313799952,-0.002099719378474816,-0.0056351898956879245,0.008291357165484372,0.9889528450364806
2013-12-06,-1,-0.0014600393541348707,-0.0013913587336096133,-0.005170204957980252,0.006972593092770074,0.989307491690588
2013-12-10,-1,-0.0008937815013546525,-0.0007511218962109098,-0.007687954554029336,0.006584374596958748,0.9894487762343903
2013-12-12,-1,-0.0007291739495556165,-0.0005307482439745615,-0.0070217965450999915,0.008291357165484372,0.989131909077064
2013-12-16,0,-7.848459172468355e-05,0.0001368376641607443,-0.0070217965450999915,0.008291357165484372,0.9901143381864921
2013-12-18,1,0.0017395114017591108,0.002207763415701423,-0.0070217965450999915,0.0053039796930406825,0.9915798067835615
2013-12-20,-1,-0.0007962919388437636,-0.0007157541795154083,-0.004754083408882411,0.006496122751489454,0.9924657916765629
2013-12-24,-1,-0.00023116300856936418,-8.499337120910854e-05,-0.004754083408882411,0.005502332910481068,0.9933132912696825
2013-12-27,-1,-0.0006733598011086493,-0.0006135036097066046,-0.004050899407830869,0.007123684017974382,0.9921572868040289
2013-12-31,-1,-0.0008731582423633967,-0.0008114494068791354,-6.164851627554809e-05,0.007123684017974382,0.9923316279251804
2014-01-03,-1,-0.0002773933779942246,-0.00013068784561778694,-0.0011574731189610355,0.005781739916409805,0.9920009273429945
2014-01-07,-1,-0.0003245404063668851,-0.00024637073801941814,-0.0011574731189610355,0.006145808083972545,0.9918856597962629
2014-01-09,-1,-0.0016744496535800947,-0.0014981859194502568,-6.164851627554809e-05,0.006622373504802114,0.9913395458545319
2014-01-13,-1,-0.0009359285898054815,-0.000853546399067967,0.0,0.006622373504802114,0.9924256325216156
2014-01-15,-1,-0.00027959832883873433,-0.0002783957587962755,0.0,0.006457026956156229,0.9928943735184401
2014-01-17,-1,-0.0006869409392595344,-0.0006370506700638552,0.0006102687801025916,0.007205842686475372,0.9918399484795739
2014-01-22,1,0.00022446210922326951,0.0002507081268981748,0.0006102687801025916,0.00715874825833601,0.993433438231543
2014-01-24,1,0.00017466781612955482,0.0001891564502266344,0.0029637343026816384,0.008426790008025816,0.9922769871131201
2014-01-28,1,0.001051394401450375,0.0011685178907412757,0.0021870972389576994,0.008426790008025816,0.9935283854842758
2014-01-30,1,0.001123788477292447,0.001237701145296522,0.0016766185933309982,0.008426790008025816,0.9936626716897259
2014-02-03,1,0.0002654118185005098,0.00028899568717002857,0.0021870972389576994,0.008426790008025816,0.9937070394436248
2014-02-05,1,0.0005323501532085155,0.0005723928697604053,0.0005489529244596211,0.008426790008025816,0.9925812437715282
2014-02-07,1,0.0012952817488495975,0.0014770755460727161,-0.002249949984428327,0.008285506723607733,0.9916932793955178
2014-02-11,1,0.0021876895211817016,0.002541018902242694,-0.002249949984428327,0.00822922447280626,0.9918621771517712
2014-02-13,1,0.0021347915321614447,0.002426855396647303,-0.002249949984428327,0.00822922447280626,0.9919220534632346
2014-02-18,1,0.0029761009741982557,0.0033758829307596805,-0.00376527929917201,0.006645663144782726,0.9924951419689688
2014-02-20,1,0.004005033300105494,0.00461065562233318,-0.005382342956324203,0.006246366051324276,0.9903836214470618
2014-02-24,1,0.004144437869058585,0.004682846637116692,-0.008104290676060655,0.004934815169102017,0.9901634330425322
2014-02-26,1,0.004997178264106709,0.005693452125441846,-0.00909568144595582,0.004934815169102017,0.9890586986918158
2014-02-28,1,0.004436201617987776,0.004999882451086712,-0.00909568144595582,0.004934815169102017,0.9893663847682181
2014-03-04,1,0.00395592952716501,0.004421798139262264,-0.008905738755622675,0.0032541277259984574,0.9896017957810438
2014-03-06,1,0.0030360940893871327,0.0034467888489389063,-0.007718438158502589,0.004458345295185991,0.9915550901243949
2014-03-10,1,0.0018989444541875752,0.002185155219126994,-0.005203655735403885,0.006761248608760952,0.9924243930107474
2014-03-12,1,0.00298876833041814,0.003468770196427653,-0.005203655735403885,0.005486369927127859,0.9922947565473794
2014-03-14,1,0.003306483777199886,0.0038437324689431862,-0.007718438158502589,0.005434859613756198,0.9916244941731674
2014-03-18,1,0.002692050349459736,0.003089738865714525,-0.007718438158502589,0.008582994412365931,0.9908484740462553
2014-03-20,1,0.0014883573655272526,0.0017637885499308726,-0.007718438158502589,0.008582994412365931,0.9916502689412299
2014-03-24,1,0.002408180522235924,0.0029016114257513865,-0.0038717689622399607,0.008781210615583346,0.992071937912908
2014-03-26,1,0.00222933067381298,0.0026736430119711184,-0.0027931568123615007,0.008781210615583346,0.9924940666866094
2014-03-28,1,0.0018798459550803633,0.0022393961757489556,-0.0027931568123615007,0.010127810355341325,0.9919197545044052
2014-04-01,1,0.0014020291496278446,0.0016683371658079438,-0.0027931568123615007,0.010127810355341325,0.9920068942291527
2014-04-03,1,0.001248369864445882,0.0014904481959124023,-0.0027931568123615007,0.010127810355341325,0.9921660959161386
2014-04-07,1,0.001681695966627736,0.00189926415149566,-0.003507893631995481,0.007849988070152629,0.992707568998313
2014-04-09,1,0.0019397598598441487,0.0021914308021594732,-0.004341818677225593,0.008100694611676012,0.992022064230784
2014-04-11,1,0.0019242075110741984,0.00221848011586885,-0.004291212682801517,0.008100694611676012,0.9921789554559601
2014-04-15,1,0.002420150293685492,0.002708950384696778,-0.004824395337713253,0.0069328597080918555,0.992688491859203
2014-04-17,1,0.0011642234993337669,0.0012285702824507685,-0.004824395337713253,0.008100694611676012,0.9928411250124789
2014-04-22,1,0.0012022801307912578,0.0012263118528962741,-0.00483337076578494,0.0069328597080918555,0.9930015422160827
2014-04-24,1,0.0014030230388227412,0.0014513963359583427,-0.005344628067427614,0.004345268419362219,0.9926112058995625
2014-04-28,1,0.0017727513932423238,0.0018327471066899154,-0.005344628067427614,0.002145216484178569,0.9930469604760477
2014-04-30,1,0.0007299508112339892,0.0008646372817279315,-0.005344628067427614,0.0047565792761087265,0.993578332075479
2014-05-02,1,0.00038036960009453264,0.0005516579205599723,-0.005053401393194436,0.0047565792761087265,0.9937319795018817
2014-05-06,1,0.0005162777889071234,0.0006552069263201657,-0.004865558238216166,0.004449474658556164,0.9938021501931281
2014-05-08,1,0.0008119006867818208,0.0009398074774380555,-0.004796485738195168,0.004449474658556164,0.9938041844461294
2014-05-12,1,0.001427245018866248,0.0014293313024107534,-0.005510238587350533,0.0017964888463698344,0.9930464491813603
2014-05-14,1,0.0016875440921252562,0.0018166651702649322,-0.004796485738195168,0.004453210779194475,0.9933299691208377
2014-05-16,1,0.0004847267635186274,0.0006341419081991649,-0.004796485738195168,0.00438924119602643,0.9943274813924662
2014-05-20,1,0.0004089523063479904,0.0005452873682575557,-0.004326406243417888,0.004683157046788651,0.9938552092915564
2014-05-22,-1,-0.0008237315265072255,-0.0005218250202966045,-0.0010260858559140657,0.0052822066910118495,0.9937014309896172
2014-05-27,-1,-0.0011354356967426921,-0.000759611817481802,-0.0030626816991850226,0.005061940003051626,0.993493516308899
2014-05-29,-1,-0.0008325477616497538,-0.0005101446966778655,-0.004247649150749147,0.005061940003051626,0.9936250493159989
2014-06-02,-1,-0.0006205801171160771,-0.0003384355445526789,-0.004247649150749147,0.005061940003051626,0.9934938879909536
2014-06-04,-1,-0.0014823181170743802,-0.0010746433125880354,-0.0031513469289191167,0.006070498690130112,0.9929282302512455
2014-06-06,-1,-0.00027760311527104766,-3.330809159879963e-05,-0.005001361916289231,0.006068515621246247,0.9935981615177797
2014-06-10,-1,-0.0009816556876551712,-0.0006774355246398036,-0.0031513469289191167,0.006068515621246247,0.9939949157050597
2014-06-12,-1,-0.0009557407057364758,-0.0006270032523829889,-0.0031513469289191167,0.007010817698481485,0.994199326808434
2014-06-16,-1,-0.0005504201396533508,-0.00033013750550254465,-0.0016885153235346693,0.007010817698481485,0.9945000169556887
2014-06-18,1,4.8340514378755316e-05,0.00020360173223973036,-0.00249231249344236,0.0060749733417567705,0.9952817467967345
2014-06-20,1,0.0013346068338168787,0.0013857346059849426,-0.0031513469289191167,0.004833044964066017,0.9952438260056122
2014-06-24,1,0.0007927458022328959,0.0008031053059841273,-0.0029464117971197976,0.004833044964066017,0.9955629951254049
2014-06-26,-1,-0.00033788709967863876,-0.00013329767544025385,-0.0029645336266621073,0.004833044964066017,0.9951597269878983
2014-06-30,1,0.00014548226040507045,0.0002730710627232482,-0.004496984321305474,0.004808674062347155,0.9952281826490769
2014-07-02,1,0.00041842151668756685,0.0004981795073813035,-0.005304467804766479,0.0024651505077521283,0.9942706150863461
2014-07-07,1,0.000574255574941565,0.0006139706159365502,-0.004496984321305474,0.0024651505077521283,0.9944772186610503
2014-07-09,1,0.0010171631089359121,0.0010548781302055837,-0.004496984321305474,0.001862788536491264,0.994407799832279
2014-07-11,1,0.0017162407629452343,0.0019002166010579323,-0.004496984321305474,0.0027720128707817335,0.9942112955334271
2014-07-15,1,0.0021361032510634516,0.0024013768946787055,-0.004496984321305474,0.0018935855514338978,0.9940346903561498
2014-07-17,1,0.0025081653473927974,0.0028802372756886324,-0.004496984321305474,0.0027720128707817335,0.993290278859578
2014-07-21,1,0.0030387102500991975,0.0035133162658145863,-0.0030003986069002666,0.003904917051947252,0.9935189500779507
2014-07-23,1,0.0027062053643274707,0.0031311693188293913,-0.0020125660035885803,0.004194785497930801,0.9942018712728276
2014-07-25,1,0.002088696647118567,0.0024263332846186994,-0.0020125660035885803,0.004194785497930801,0.9945889309827242
2014-07-29,1,0.0011047811453622027,0.001217952010117605,-0.0020125660035885803,0.004194785497930801,0.994308857664625
2014-07-31,-1,-0.0013174644933574594,-0.0010647965088066151,-0.00168107489583614,0.004194785497930801,0.9957143517701555
2014-08-04,-1,-0.0006077902443062265,-0.0004733078269136619,-0.001887827403581584,0.003688050506364683,0.9960172575861803
2014-08-06,-1,-0.0005150788978500321,-0.0004001289736006834,-0.0015071425543411992,0.003688050506364683,0.9961101154347708
2014-08-08,-1,-0.0001066407391834089,-3.5043361172416745e-05,-0.00213722621727923,0.0032531619467476166,0.9954270875128248
2014-08-12,-1,-0.0012361901107622304,-0.000948581131163969,-0.0036777211434625224,0.0032531619467476166,0.9948051986780332
2014-08-14,-1,-0.0005031439280517583,-0.0002987189191436128,-0.006814908007107691,0.0029460050162823694,0.9939396820274579
2014-08-18,0,-2.844969861089217e-05,0.00011870414064977353,-0.006814908007107691,0.0013932737911339227,0.9937604019487132
2014-08-20,1,0.00010749910698637136,0.0002453580299701687,-0.007066457682300201,-0.001002895511181235,0.9927552890119128
2014-08-22,-1,-0.0005299937320056354,-0.00030350565650445857,-0.007875596305665635,-0.0006134922086503752,0.9924900363227261
2014-08-26,-1,-0.0010932710194541955,-0.0007895028337705069,-0.0089680836137766,-0.0006134922086503752,0.9922489335520784
2014-08-28,-1,-0.0006980263330532947,-0.0004923110597964741,-0.0089680836137766,0.001885620280486485,0.99148969690372
2014-09-02,-1,-0.0005339560686844841,-0.0003638090688406309,-0.0089680836137766,0.0010398122125352945,0.9909590856076773
2014-09-04,-1,-0.0008794392943441836,-0.0006479916102077594,-0.0089680836137766,0.0022037352703091536,0.9909251376780492
2014-09-08,1,8.133195498715302e-05,0.00014541233330957098,-0.008822916361900766,0.0034746845622223056,0.9914212999571955
2014-09-10,-1,-0.0012930589255285784,-0.001034020322424794,-0.0076482562860277084,0.004387903299216747,0.991223139403598
2014-09-12,-1,-0.002592379007044023,-0.002204987679119176,-0.006963900401224581,0.005464832362619456,0.9919636927034229
2014-09-16,-1,-0.0020732469411480717,-0.0017616996520399258,-0.006963900401224581,0.005464832362619456,0.9915404883703469
2014-09-18,-1,-0.0026493882266790695,-0.002312510039820147,-0.005358317293449603,0.00939593938546442,0.9914148461612043
2014-09-22,-1,-0.002849969238136423,-0.002484250661632709,-0.005358317293449603,0.01179695564439588,0.9911768812453233
2014-09-24,-1,-0.0037351577101903985,-0.0032563517180490146,-0.001029562950134233,0.01179695564439588,0.9904828063767462
2014-09-26,-1,-0.003014208962861754,-0.0026258607620682833,-0.001029562950134233,0.008406321435944941,0.9911966566145058
2014-09-30,-1,-0.003166871257981582,-0.0027980785344283486,0.00033368374505616003,0.008406321435944941,0.9910418972828179
2014-10-02,-1,-0.002804559493998525,-0.0024852240534726047,0.001169309447486779,0.013462863315726853,0.9899996367001384
2014-10-06,-1,-0.0027243346476227837,-0.0023936520920173803,-0.0002739231752348233,0.01405318478321374,0.9892309102766268
2014-10-08,-1,-0.0015136675621747239,-0.0013402758497020142,-0.0002739231752348233,0.01405318478321374,0.9901196264831802
2014-10-10,-1,-0.0012184620429274214,-0.001070730163962846,-0.00044756547921892266,0.01352507325747087,0.9907623658454737
2014-10-14,-1,-0.0009290706888495425,-0.0007762971906588255,-0.0032559379202485167,0.012339042966529806,0.9913063219809474
2014-10-16,-1,-4.731807271617077e-05,-9.334772816879138e-06,-0.0061889254418695545,0.00872224916059475,0.9917094719502434
2014-10-20,1,0.0002531461778889989,0.0002610299719435815,-0.0061889254418695545,0.007424596705116006,0.9920290048995754
2014-10-22,1,0.0008286007264508298,0.0009184298923559627,-0.0061889254418695545,0.006860644956162337,0.9924012615686902
2014-10-24,1,0.0007756923978884096,0.0008341901438892129,-0.0061889254418695545,0.006860644956162337,0.9925595554156391
2014-10-28,1,0.0013817016003648454,0.0015743372266010477,-0.0061889254418695545,0.007735514724001494,0.9925620220635366
2014-10-30,1,0.0021206869046185304,0.0023621682512682826,-0.0061889254418695545,0.002522386782360727,0.9934761511838344
2014-11-03,1,0.0026128473456804493,0.0029410142169218716,-0.004848845702562284,0.001239027297971557,0.9944916817091538
2014-11-05,1,0.0026926797697523607,0.003014975157121822,-0.004652031008486916,0.0009223879377002713,0.9948787881049619
2014-11-07,1,0.002603817518151589,0.0029506998038951286,-0.004652031008486916,0.0009223879377002713,0.9946167478249258
2014-11-11,1,0.0028719072042016646,0.0032934385571115644,-0.0038900019424559056,0.001239027297971557,0.9948429555944901
2014-11-13,1,0.0019600806969499508,0.0022276861431080085,-0.0013074303069519116,0.0017354464223086452,0.9956430355374613
2014-11-17,1,0.0017005688780582745,0.0019176568840296347,-0.001088768580501443,0.0017227295481561276,0.9965082317090913
2014-11-19,1,0.0016534463499066198,0.0018792410146896469,-0.00021974013355767125,0.0023074656399997354,0.9955658279573514
2014-11-21,1,0.0017464809522015623,0.0019914595701305124,-0.00021974013355767125,0.00757010097083454,0.994567622558272
2014-11-25,1,0.0020608121319964368,0.002343653166916183,-0.001088768580501443,0.006930513325344972,0.9942747913008352
2014-11-28,1,0.002211255537311271,0.002527412451578203,-0.0018450853765271276,0.006930513325344972,0.9940383135579989
2014-12-02,1,0.0023099227263755897,0.002652670392559106,-0.0028074059598774707,0.006930513325344972,0.9921100680609738
2014-12-04,1,0.002075741410698098,0.002400023595106158,-0.0018450853765271276,0.01261189843094515,0.9910173410240932
2014-12-08,1,0.001456178304294513,0.001694290928748282,0.0005381981799103421,0.014263216862788789,0.9905207209140158
2014-12-10,1,0.001778196250193357,0.002072683653816044,-0.0018450853765271276,0.014263216862788789,0.9888965797956043
2014-12-12,1,0.00235507780524953,0.0027102297765089706,-0.0018450853765271276,0.013662286637043768,0.989221402347916
2014-12-16,1,0.0020444552511585446,0.0023248130083697686,0.000913308887758585,0.013662286637043768,0.9884988218908881
2014-12-18,1,0.003139272188898412,0.0035546369926196288,-0.001124803277443966,0.01321974049981741,0.9896431370836406
2014-12-22,1,0.0032768306111838766,0.0036220580145982996,-0.001124803277443966,0.0121711396251197,0.9901793350651328
2014-12-24,1,0.003385611992159504,0.0037541306387628547,-4.725577641663531e-05,0.013301717520609359,0.9896509838040036
2014-12-29,1,0.003316781403327719,0.0036709165094427655,0.0007286104480213128,0.013301717520609359,0.9897382666065254
2014-12-31,1,0.0019147318545922722,0.0021034382216321267,0.0008627059826721566,0.013301717520609359,0.9903748813279882
2015-01-05,1,0.0033490231537759126,0.0037196215319232947,-4.725577641663531e-05,0.011326409263379569,0.9912628204449867
2015-01-07,1,0.0047350871924649145,0.005325548015597556,-0.001689025029124618,0.010254911673648618,0.9915408046862914
2015-01-09,1,0.0042881836231865225,0.004844688707113734,-0.001689025029124618,0.009906973673713411,0.9907836739906111
2015-01-13,1,0.004926114982476637,0.005577588004142948,-0.001689025029124618,0.008722086815283076,0.9910825204256546
2015-01-15,1,0.005437681742307313,0.006131872484740029,-0.001689025029124618,0.00659041592357331,0.9914549285810338
2015-01-20,1,0.005481961795712545,0.006156174427383558,-0.004437300424110347,0.00659041592357331,0.9909722489028926
2015-01-22,1,0.005477871808025326,0.006133887564534748,-0.005613386795905655,0.00659041592357331,0.9896370497515617
2015-01-26,1,0.006388925301650137,0.007158917209215843,-0.01029866516602348,0.006375996232724901,0.9881380051919854
2015-01-28,1,0.006351618699782631,0.0071063954734108,-0.014396554901030215,0.006375996232724901,0.9868106024399633
2015-01-30,1,0.005744611538218836,0.006428765573056828,-0.01029866516602348,0.007130615409543324,0.9881434113112847
2015-02-03,1,0.004314068648720261,0.004751101144806306,-0.005568036865126035,0.007130615409543324,0.9889084026479669
2015-02-05,1,0.003309368566114702,0.0035236767579169756,-0.00929953394450055,0.007130615409543324,0.9872914768951122
2015-02-09,1,0.0015745083823112465,0.0015818020850911735,-0.004221257938540126,0.008778595382790588,0.9892344652405368
2015-02-11,1,0.0008788281516693551,0.0010104186986836673,-0.004221257938540126,0.009418548934820239,0.9885330426701855
2015-02-13,1,0.0010483780554053474,0.0011726729687545742,-0.004221257938540126,0.010442742188652649,0.9884566343962865
2015-02-18,1,0.0008017537513975222,0.000997031671165493,-0.0025192888583605564,0.010442742188652649,0.9880694921390449
2015-02-20,1,0.00030268289533219974,0.0005428663285470762,-0.0018397800434934598,0.010442742188652649,0.9882249027279072
2015-02-24,-1,-0.0012313142799829733,-0.0007719782828942391,-0.0023660873019838596,0.010442742188652649,0.9888776513056609
2015-02-26,-1,-0.0022735323102771607,-0.0016900748622686046,-0.0036946779887510293,0.010442742188652649,0.9890132439841877
2015-03-02,-1,-0.0016601696268449039,-0.0011568272898697148,-0.0038190615044765945,0.010442742188652649,0.9893811438782089
2015-03-04,-1,-0.0016243138893371142,-0.001164577962988928,-0.0035829376042828542,0.010442742188652649,0.9894312495756689
2015-03-06,-1,-0.0028963363234735615,-0.002298734904236932,-0.0035829376042828542,0.01100985452717086,0.9896204351444235
2015-03-10,-1,-0.0022361784759810438,-0.0017428935763259378,-0.0035829376042828542,0.01100985452717086,0.9903409274690473
2015-03-12,-1,-0.001304303607107609,-0.0009481524882802751,-0.005148086783690028,0.006063956643888836,0.9900780031410169
2015-03-16,-1,-0.001004790112670957,-0.0006893831685240933,-0.008275550010966418,0.006084763014599574,0.9894796255010341
2015-03-18,1,0.00021105636465494387,0.0003643273162282429,-0.010056329242867153,0.003384778679166275,0.9900470580427307
2015-03-20,1,0.0013342298360506457,0.0013541267075399684,-0.010056329242867153,0.000748940941578751,0.9906877669609321
2015-03-24,1,0.00043535099637294713,0.0005592242220550238,-0.008275550010966418,0.003089596955864097,0.9918154298044515
2015-03-26,0,-2.3250832402206024e-05,0.00010198733242082524,-0.0033629149497531852,0.003089596955864097,0.9930224480159601
2015-03-30,1,0.00033654934771779575,0.0004074310064271963,-0.0034517235452477817,0.002094762305062195,0.9932843908803065
2015-04-01,1,0.00027344246287974787,0.00034020517206202305,-0.008861495479098714,0.002094762305062195,0.9913546047395213
2015-04-06,-1,-0.0007107193641181998,-0.0005093447318652548,-0.005016234648917671,0.002094762305062195,0.9933622090074713
2015-04-08,-1,-0.0008315949685362984,-0.0006113985549406283,-0.008861495479098714,0.0012388007365015604,0.9923160369161674
2015-04-10,-1,-0.0020489293631304447,-0.0016571983817029313,-0.005016234648917671,0.0033353914190851898,0.9922442264749034
2015-04-14,-1,-0.0018426718267152012,-0.001469453139701999,-0.006000458038306114,0.0033353914190851898,0.9922021013533193
2015-04-16,-1,-0.002488290765384711,-0.0020281461744280577,-0.006299914317921893,0.004036554277191899,0.991161082780303
2015-04-20,-1,-0.0027634332464027698,-0.0022709022469188265,-0.009672661376428702,0.00585200436974659,0.9901958548647551
2015-04-22,-1,-0.0023094248015510335,-0.0018845261438225722,-0.009672661376428702,0.004593245348785907,0.9905557434363292
2015-04-24,-1,-0.002488428000816398,-0.002042228727756661,-0.009672661376428702,0.004593245348785907,0.9903296479798201
2015-04-28,-1,-0.002816581538101721,-0.002331392271217535,-0.012356500308007508,0.004593245348785907,0.9898203679186022
2015-04-30,-1,-0.004676718831099633,-0.003959296596753949,-0.009012057914686301,0.004593245348785907,0.9909284650407078
2015-05-04,-1,-0.004888561033277096,-0.004117895755300489,-0.009012057914686301,0.007476288282573079,0.9908787746704985
2015-05-06,-1,-0.0058011518617449055,-0.004934006529591292,-0.009012057914686301,0.007575272415248766,0.9907726459867783
2015-05-08,-1,-0.00417664569564107,-0.0035333918507718417,-0.009012057914686301,0.007476288282573079,0.9920876964115543
2015-05-12,-1,-0.004550514257335545,-0.0038636914412694704,-0.009012057914686301,0.004364679468513303,0.9924759313716299
2015-05-14,-1,-0.0034569174441239216,-0.0029549805671564263,-0.008572975520391877,0.004364679468513303,0.9934344373611051
2015-05-18,-1,-0.0027081150017932523,-0.00234063294611721,-0.008013940783698513,0.0038306917197106793,0.993845912215434
2015-05-20,-1,-0.0027166070354460972,-0.002354908169258833,-0.008013940783698513,0.007529483113293231,0.9923824348032686
2015-05-22,-1,-0.002908966191637523,-0.002531674844877568,-0.010658560813042714,0.007529483113293231,0.9917845833921867
2015-05-27,-1,-0.004135219740338623,-0.0035480597320394673,-0.009012057914686301,0.007529483113293231,0.9921475562863169
2015-05-29,-1,-0.0038927571913842177,-0.003406777568575799,-0.00811781271823353,0.007845347406052843,0.9916747747334336
2015-06-02,-1,-0.0029626292254308485,-0.002640851449399388,-0.00926731399040596,0.007845347406052843,0.9914669165353732
2015-06-04,-1,-0.003326111030155115,-0.0029390497032022733,-0.00811781271823353,0.008513046628145563,0.9910953036416768
2015-06-08,-1,-0.002835688098424092,-0.002537976927060549,-0.00811781271823353,0.010067905533789447,0.9905504939516895
2015-06-10,-1,-0.0025439543491077234,-0.002320800841981557,-0.007496393994236793,0.010067905533789447,0.9910813532814704
2015-06-12,-1,-0.0020090081839793583,-0.0018707102554153677,-0.007496393994236793,0.009618706336357401,0.9911731669935044
2015-06-16,-1,-0.0016713158771470469,-0.0015922232624288927,-0.007496393994236793,0.009618706336357401,0.9909821654823151
2015-06-18,0,-1.1469165793400664e-05,0.00018098678514249361,-0.007496393994236793,0.008762365122820748,0.991934009765174
2015-06-22,-1,-0.0005255932853162912,-0.00038072477022108676,-0.005065831283889658,0.008762365122820748,0.9926777235778279
2015-06-24,-1,-0.0010871476578996346,-0.0010384946899628937,-0.004347824183258379,0.008762365122820748,0.9924410480979181
2015-06-26,-1,-0.001112802722519552,-0.001098026407750797,-0.004098224667216745,0.006999871402347287,0.992816831321761
2015-06-30,-1,-0.0013328703881849966,-0.001328520745448479,-0.001977867658167686,0.008661805465485648,0.9926227473748502
2015-07-02,-1,-0.0011877584216587241,-0.0011301025018326115,-0.004098224667216745,0.008661805465485648,0.9930083287305134
2015-07-07,-1,-0.0003386209479365139,-0.0002814956628131854,-0.004347824183258379,0.00697129773360287,0.9931600563211177
2015-07-09,-1,-0.000282844189120184,-0.00019012341359505365,-0.004347824183258379,0.00697129773360287,0.9926370710102387
2015-07-13,1,0.00016565883800267827,0.0003449361034541657,-0.004131993647925634,0.00631509650683434,0.993278964154224
2015-07-15,1,0.00041367675046540713,0.0006045461676127507,-0.004131993647925634,0.005911755463531631,0.9936505202332325
2015-07-17,1,0.0003411912287565921,0.0004868339920533136,-0.0025868763646540952,0.0058861249121568305,0.9939523212138688
2015-07-21,1,7.409697839002118e-05,0.00014789918369949545,-0.0017867286232092438,0.00633613485594116,0.9936363933118229
2015-07-23,1,0.00025762369695139656,0.00038870634930460944,-0.0017867286232092438,0.00633613485594116,0.9940527800485188
2015-07-27,1,0.0005151027999945278,0.0006740912474948514,-0.0055648318695469086,0.004754239875737609,0.9921424079059756
2015-07-29,1,0.0004341968622090179,0.000524549690805651,-0.008840231836585367,0.004399545279913908,0.9901303785519007
2015-07-31,1,0.0009196608976695135,0.0010949215791767578,-0.009289495386899237,0.004399545279913908,0.9896964255866043
2015-08-04,1,0.0011765056763850608,0.001422420327332512,-0.011431247461953484,0.0036276390930927633,0.9885614592586071
2015-08-06,1,0.0009657715156075881,0.0012017847789450274,-0.009289495386899237,0.004399545279913908,0.9891363828030384
2015-08-10,1,0.0013149969639502592,0.0016447801349908822,-0.01168001920825041,0.006382866791729455,0.9875092134782092
2015-08-12,1,0.002019209201708904,0.0024978193359925646,-0.01168001920825041,0.006382866791729455,0.9869198088304542
2015-08-14,1,0.001969009627468015,0.002412249777756666,-0.01168001920825041,0.007240660957308035,0.9862640988392067
2015-08-18,1,0.0019809680274079228,0.0023804206138254977,-0.01168001920825041,0.01006219630661026,0.9858793333735626
2015-08-20,1,0.001969634213459201,0.002385761534372019,-0.01168001920825041,0.012892081508683236,0.9854098069730285
2015-08-24,1,0.0005983547286388178,0.000833896838074488,-0.009574202967619447,0.012892081508683236,0.9868404139328458
2015-08-26,1,0.00022259192232984673,0.000380074710898511,-0.008019784349357385,0.011059203551517686,0.9886876387735503
2015-08-28,1,0.0006169191983372076,0.0008294865565539922,-0.007986094868882111,0.01006219630661026,0.9896678761034525
2015-09-01,-1,-0.0009849661943918966,-0.0009574510923193492,-0.0029189646667085434,0.010177949988442419,0.9904228029294216
2015-09-03,-1,-0.0005560327324911938,-0.0005095894008470272,-0.0076229499403187295,0.010177949988442419,0.9896081043090756
2015-09-08,-1,-0.0005358372327077488,-0.0005017904341365187,-0.0038119195834738955,0.010177949988442419,0.9902260269993709
2015-09-10,-1,-0.0006021047316867346,-0.0005837016412457666,-0.00126985811391046,0.010177949988442419,0.9900842666903336
2015-09-14,1,0.0004280263340243236,0.0006021230595561495,-0.00126985811391046,0.009961409157951445,0.9913335670308172
2015-09-16,1,0.0010769098220589095,0.0013334994658953838,-0.0038119195834738955,0.00846399303649255,0.9919322335366564
2015-09-18,1,0.0018157037682033585,0.002158755562129377,-0.0038119195834738955,0.006498722657323654,0.9924478542185655
2015-09-22,1,0.000875167896115055,0.0010128977813172908,-0.0018826832331386406,0.006498722657323654,0.9926113382393206
2015-09-24,1,0.0008276294220387911,0.0009668726535487638,-0.0016407736164849075,0.00846399303649255,0.9917714253545472
2015-09-28,1,0.00014097099407949092,0.0001431815871613343,-0.0016407736164849075,0.00846399303649255,0.9913882264578245
2015-09-30,1,0.0011217868528553632,0.0013059864031436123,-0.0016407736164849075,0.007301524579585392,0.9922359981352579
2015-10-02,1,5.17676468656223e-05,7.460003104637139e-05,-0.0018826832331386406,0.007301524579585392,0.992152076671382
2015-10-06,1,0.0007865980640005832,0.0009221778389791717,-0.002352970944292164,0.007301524579585392,0.9921896344776944
2015-10-08,1,0.0012498141586022378,0.0014537007891393984,-0.004765732827994807,0.007301524579585392,0.9916932147120029
2015-10-12,1,0.0014767088691800627,0.0017045664874075564,-0.008463348653983528,0.006076724310503513,0.9883458686937879
2015-10-14,1,0.001062101812770941,0.0012203806907559495,-0.006557263585411559,0.010769450450011953,0.9879580186810997
2015-10-16,1,0.0013992915668501918,0.00158152267561839,-0.006557263585411559,0.007923453854710527,0.988671598922427
2015-10-20,1,0.001265568739643849,0.001395406823192395,-0.006557263585411559,0.010769450450011953,0.9879862609398078
2015-10-22,1,0.0020133966205727895,0.0022475550113909455,-0.006557263585411559,0.010769450450011953,0.9886239358956669
2015-10-26,1,0.0019079492328860788,0.0021167518237899725,-0.0055449918298448465,0.010769450450011953,0.9889883956321479
2015-10-28,1,0.0020351694017281966,0.0022574124954779728,-0.006296556775295685,0.010769450450011953,0.9887950534764766
2015-10-30,1,0.0011344064369756973,0.0012156948498819801,-0.00612157996732529,0.010769450450011953,0.9891279206316484
2015-11-03,1,0.0014913089396367011,0.001623924419867281,-0.00612157996732529,0.010769450450011953,0.9887824766641629
2015-11-05,1,0.0013104496570095884,0.0014145869441349863,-0.00612157996732529,0.010952885515207456,0.9879155852739436
2015-11-09,-1,-0.0004634128346608897,-0.00039234669186503517,-0.0006465085678928389,0.010952885515207456,0.9906571231615697
2015-11-11,-1,-0.00023426011822583366,-0.00015097910396633964,-0.00612157996732529,0.006673963035471916,0.9907450933501444
2015-11-13,-1,-0.000596490356875065,-0.0004445023571766896,-0.006493031062031478,0.009895296477600918,0.9897499533863358
2015-11-17,1,7.143098974945732e-05,0.00014362394956399338,-0.006493031062031478,0.012666112049188596,0.989001686776132
2015-11-19,1,0.0003575608850466051,0.00042005966926837544,-0.006493031062031478,0.009389679117486276,0.9896555579524376
2015-11-23,1,0.0008800844207131557,0.0009155718634001943,-0.006493031062031478,0.009389679117486276,0.9898549200653445
2015-11-25,1,0.0010531992018398668,0.0011457783397090969,-0.006493031062031478,0.009389679117486276,0.9897932975710079
2015-11-30,1,0.0008619975932225223,0.000911565981720947,-0.0048485510363747925,0.0096190725552971,0.9898371736079878
2015-12-02,1,0.0008571907483964454,0.0009112967294580762,-0.005133431888545204,0.008424886191532501,0.9912017763913388
2015-12-04,1,0.0012234187862583629,0.0013446672322510256,-0.005133431888545204,0.008424886191532501,0.9918038307247067
2015-12-08,1,0.0013092159839907698,0.0014503058740408547,-0.00567052481568402,0.008424886191532501,0.9910550851335269
2015-12-10,1,0.0005633631907890624,0.0006047886958396437,-0.005133431888545204,0.0096190725552971,0.9906934186861226
2015-12-14,1,0.0006914164670026551,0.0007398016810480088,-0.005133431888545204,0.008424886191532501,0.9909943348536668
2015-12-16,1,0.001832665534761504,0.002045766502573905,-0.005133431888545204,0.006813155394100428,0.9923931993967815
2015-12-18,1,0.0018616646733438718,0.0020979653599687573,-0.006368094042715617,0.008008993604364188,0.9909087984249898
2015-12-22,1,0.001997266525620457,0.0022654463664150094,-0.006368094042715617,0.009711779536597308,0.9891995228839817
2015-12-24,1,0.0019725595318850126,0.002230078942420684,-0.006368094042715617,0.013326452960230198,0.9883816257193649
2015-12-29,1,0.002176160198070828,0.0024357585319305453,-0.006368094042715617,0.013326452960230198,0.9884940649738138
2015-12-31,1,0.0017229390087169288,0.0019135125266729414,-0.005038448536165291,0.01597560407769861,0.9878064298611839
2016-01-05,1,0.002114550178222126,0.0023626024577318976,-0.0030349825552144372,0.01548915501357703,0.9889742804437257
2016-01-07,1,0.0017754519496227471,0.0019831401308914556,-0.0030349825552144372,0.01548915501357703,0.9885565883907473
2016-01-11,1,0.0022447402495053177,0.002533840913135508,-0.0023243849205054155,0.013252223298723737,0.9900450846745532
2016-01-13,1,0.001818463628543997,0.0020352043160014413,-0.0014047287081356739,0.01548915501357703,0.9875275607134579
2016-01-15,1,0.001312669815410075,0.001364523544711092,-0.0023243849205054155,0.01548915501357703,0.986845024876131
2016-01-20,1,0.0008174876989952912,0.0008448421756270326,-0.0006688492211835453,0.013252223298723737,0.9879210227464884
2016-01-22,1,0.0021938984570410627,0.0023571457553299086,-0.003033018225908145,0.010221485059962714,0.9895450774282974
2016-01-26,1,0.0019194642626288493,0.001956397300886718,-0.0032121282661346407,0.008104491979877013,0.9903982826645963
2016-01-28,1,0.0015928203279153394,0.0015966118653734768,-0.0032121282661346407,0.009948668211593197,0.9890977773671826
2016-02-01,1,0.0025266180375194307,0.0026326895300389447,-0.0032121282661346407,0.006354053009963452,0.9902878232462078
2016-02-03,1,0.002602943266597287,0.002705050455933846,-0.0032121282661346407,0.005254375270647322,0.9904688655192181
2016-02-05,1,0.0019743893578858863,0.00203609653176153,-0.004615960908910531,0.005254375270647322,0.9906970363919654
2016-02-09,1,0.002383710127085251,0.0025311505464556757,-0.004615960908910531,0.006354053009963452,0.990109710100652
2016-02-11,1,0.004725440951714593,0.005225110753846487,-0.004615960908910531,0.005569643237194663,0.9925352575740349
2016-02-16,1,0.004201950924323893,0.004608416306722327,-0.0032121282661346407,0.0050729266066134,0.9932155612922376
2016-02-18,1,0.004271114150015059,0.004668421250620886,-0.0032121282661346407,0.005676007675336605,0.9927801025623457
2016-02-22,1,0.0035032479204935903,0.0037751652554404475,-0.003600890499518952,0.005676007675336605,0.9928357090050183
2016-02-24,1,0.003400246575665902,0.003681951693223838,-0.00249122019781257,0.006986540952707607,0.993029030858784
2016-02-26,1,0.0021687192110151597,0.002222127084458286,-0.000637805481825839,0.006986540952707607,0.9941411153834864
2016-03-01,1,0.0024133254246941687,0.0025319090336547645,-0.001594001910975988,0.009173222097157235,0.9933728349625499
2016-03-03,1,0.0025274722428652112,0.0026796274195833194,-0.0044594518155016034,0.009173222097157235,0.9931400092165168
2016-03-07,1,0.0018225042297586298,0.001894239701388679,0.00024922100837318495,0.01074730209160828,0.9937046491237288
2016-03-09,1,0.002101843957677786,0.0021824632497745907,-0.0021241517536683494,0.009173222097157235,0.9941714390834477
2016-03-11,1,0.00258681924891368,0.0027618894292557074,-0.0021241517536683494,0.009173222097157235,0.9942096381967551
2016-03-15,1,0.0026300812722146114,0.0028162543108966537,-0.004389946316390506,0.01074730209160828,0.9931959341386353
2016-03-17,1,0.003794263979829857,0.004172637578281132,-0.005151292987929727,0.0063663803410893595,0.9935829982253367
2016-03-21,1,0.0031960137563659344,0.0034892208830792208,-0.0021241517536683494,0.0063663803410893595,0.994530435529017
2016-03-23,1,0.0035464434202807124,0.003888476858797538,-0.005436255787011477,0.005465576710031076,0.9910728664854384
2016-03-28,1,0.003399110815822341,0.0036614301334048057,-0.005436255787011477,0.005629929210500709,0.990854801459519
2016-03-30,1,0.0034669669083963964,0.003758074077968027,-0.005436255787011477,0.005465576710031076,0.9908972547381315
2016-04-01,1,0.0032326830264842064,0.0034754427725598473,-0.005436255787011477,0.005465576710031076,0.9908471127229767
2016-04-05,1,0.001862523359653945,0.0019594982641494276,-0.005436255787011477,0.005629929210500709,0.9908644081056547
2016-04-07,1,0.0018879921019515611,0.00195223543206271,-0.00502998412771091,0.006895879754727645,0.9898734126167712
2016-04-11,1,0.0017536962441296986,0.001846405621485788,-0.00502998412771091,0.010664518144413876,0.9890654351255753
2016-04-13,1,0.0019399534923830474,0.0019812737440286386,-0.00502998412771091,0.00800223433727976,0.989274946291446
2016-04-15,1,0.002008376338242119,0.002013098493348471,-0.005431884397053546,0.011165658204769252,0.9887753905788415
2016-04-19,1,0.002028466618888303,0.002030929376968427,-0.009064528581478198,0.011165658204769252,0.9874949939407799
2016-04-21,-1,-0.0010594038762685924,-0.0006746233332398683,-0.009064528581478198,0.011165658204769252,0.9880419837738147
2016-04-25,-1,-0.0003708085482859632,-7.405808918016e-05,-0.009064528581478198,0.00800223433727976,0.9889826049504714
2016-04-27,-1,-0.0011841144200347114,-0.000782476777023564,-0.005431884397053546,0.00800223433727976,0.9891860416360526
2016-04-29,-1,-0.0014140675835634102,-0.0009918069994765781,-0.0038008050792377778,0.009143870600672803,0.9888085876638948
2016-05-03,-1,-0.0005646156124959528,-0.0002397431020985661,-0.0038008050792377778,0.007615516696597984,0.9895149346238427
2016-05-05,0,-0.0003085439056428826,4.395217600521679e-05,-0.0038008050792377778,0.009443791582936758,0.9892212100016876
2016-05-09,1,0.0005871007017753745,0.0008237974173036107,-0.007736549096331742,0.009045096336194637,0.9896987232428821
2016-05-11,1,0.0006842075520044292,0.0008469020421939307,-0.0036772341916948364,0.009045096336194637,0.989991090924668
2016-05-13,1,0.0005473013069650728,0.0007402105879071619,-0.002473837317818053,0.007739581823922158,0.9906714904115165
2016-05-17,-1,-0.00039095025067517543,-8.356837923328313e-05,-0.0012222858307606667,0.007739581823922158,0.9915827210343503
2016-05-19,-1,-0.0027878624357148413,-0.002199143626125136,-0.00021031865030937376,0.009045096336194637,0.991804169032257
2016-05-23,-1,-0.0025587418763817604,-0.002024560955679395,-0.00021031865030937376,0.009300761543787159,0.9914748616904066
2016-05-25,-1,-0.0027558716587476246,-0.0021740916024713484,0.0003497836124103957,0.009300761543787159,0.9915272462210147
2016-05-27,-1,-0.002379398251360189,-0.0018522278744684624,0.0008160530391720772,0.010678703861144861,0.9902886612141952
2016-06-01,-1,-0.002272099002089293,-0.0017207151029518827,0.0008160530391720772,0.010678703861144861,0.9900551591642623
2016-06-03,-1,-0.0007292214692750014,-0.0003736462178408796,0.0008160530391720772,0.010032620514671223,0.9917593098324448
2016-06-07,-1,-0.0010897287877255676,-0.000669473117925786,0.0008160530391720772,0.01108936826248797,0.9909781598534655
2016-06-09,-1,-0.0006805633038810186,-0.00031185834590288525,-0.00035006406591002123,0.011639211759893405,0.9898957359699685
2016-06-13,-1,-0.0010317569401812221,-0.0005960227495115792,-0.0005596884696444659,0.011639211759893405,0.9894083116776812
2016-06-15,0,-7.75695088848662e-05,0.0001700144828292576,-0.00417102791203739,0.011639211759893405,0.9891492606422541
2016-06-17,1,3.662296089653307e-05,0.00023507919930970407,-0.00417102791203739,0.011639211759893405,0.9899410896612978
2016-06-21,0,-0.00018939514511545044,5.4739016826090914e-05,-0.004323722583277148,0.011639211759893405,0.9900511544601137
2016-06-23,1,0.0005368413170941006,0.0006372332011634067,-0.004323722583277148,0.011639211759893405,0.9899475175543099
2016-06-27,1,0.0021644097514656006,0.0022876349858748715,-0.004323722583277148,0.009148698989386998,0.9918047559485915
2016-06-29,1,0.0022837786515686456,0.00235398025787873,-0.006410224836341256,0.009148698989386998,0.9915147326377969
2016-07-01,1,0.002867419645729943,0.0030235681295433282,-0.006410224836341256,0.009635454029440074,0.9913936438037969
2016-07-06,1,0.0047554748392976956,0.005308191855552548,-0.007005442865591747,0.008887786395651418,0.9903050296011789
2016-07-08,1,0.003800575408481046,0.004208560967696576,-0.007005442865591747,0.006084263767627401,0.99158669695504
2016-07-12,1,0.003925044119107885,0.004365858159162279,-0.007005442865591747,0.005692774951018378,0.9918800350430615
2016-07-14,1,0.003631576237172829,0.003997909923254739,-0.007185486888927178,0.004832675445759779,0.991794625260876
2016-07-18,1,0.00317407662622831,0.003465061714270588,-0.007930107430692411,0.005589604369926834,0.9915862309823807
2016-07-20,1,0.0025878684831611145,0.002758618982005966,-0.01006614758877565,0.006850067705922999,0.9908337823334203
2016-07-22,1,0.0027841505720176255,0.002979381233235944,-0.01241476963551674,0.006850067705922999,0.9901147408502089
2016-07-26,1,0.002464266823918596,0.002616955419314645,-0.01241476963551674,0.007713319945824348,0.9899775439547197
2016-07-28,1,0.0021117471325618293,0.002159186618097604,-0.01241476963551674,0.006850067705922999,0.9903933103369092
2016-08-01,1,0.003058857126026337,0.0032692405576182264,-0.014094235802884164,0.005589604369926834,0.9898681939485325
2016-08-03,1,0.001521399168768945,0.0015484361712394317,-0.014094235802884164,0.005589604369926834,0.9913919085214568
2016-08-05,1,0.0010560301642363785,0.0010848426241071298,-0.010627099447060546,0.006850067705922999,0.9919984011391595
2016-08-09,1,0.0017026835506205526,0.0018157495650728333,-0.010627099447060546,0.008516638653343464,0.9913175029171563
2016-08-11,1,0.0008605849186170616,0.0008903391127598773,-0.010627099447060546,0.008516638653343464,0.9894078190945882
2016-08-15,1,0.0008301385485725086,0.0008452107838509456,-0.014114719036706885,0.009882417935855198,0.9877320144230961
2016-08-17,1,0.00074284523007053,0.0007477654601585693,-0.010323783496942233,0.008516638653343464,0.9884460447646781
2016-08-19,1,0.00018626314012415963,0.000256207616169963,-0.00855397088789809,0.009882417935855198,0.9886983154414671
2016-08-23,1,0.0003983113460149602,0.00044606912928329354,-0.00855397088789809,0.01032508140053077,0.988204377894959
2016-08-25,1,0.00015576250266315344,0.00021541645657981515,-0.001981788164055507,0.01173928740369914,0.9877053754793914
2016-08-29,-1,-0.00017680669484299553,-6.896234060045913e-05,-0.0017059423981138563,0.01173928740369914,0.9879374364935218
2016-08-31,-1,-0.000511082005469422,-0.0003734192974208825,-0.0017059423981138563,0.01173928740369914,0.9873775022325001
2016-09-02,-1,-0.00019577668460244406,-9.669807956106302e-05,-0.008765458065219923,0.01173928740369914,0.9863331020137095
2016-09-07,1,0.0007345362458546364,0.0007393507382011516,-0.019085229792025066,0.009290193838915401,0.9850506772330614
2016-09-09,-1,-0.0015216379679268274,-0.0012679036377760688,-0.011865281517427172,0.009290193838915401,0.9872945276281867
2016-09-13,-1,-0.003677853367650304,-0.0030368664973228912,-0.011865281517427172,0.009290193838915401,0.9880916858693372
2016-09-15,-1,-0.0027252881630448955,-0.0022363091458534826,-0.011865281517427172,0.010840319724912976,0.987280016406403
2016-09-19,-1,-0.002625155758069181,-0.0021162174887438476,-0.01244492440702702,0.010018247660910709,0.9872233603914655
2016-09-21,-1,-0.0019205834534700478,-0.0014803848800307546,-0.01244492440702702,0.009498362411651692,0.9884255922232467
2016-09-23,-1,-0.0006908127916726238,-0.00043800234103893933,-0.01244492440702702,0.009290193838915401,0.9887605481652861
2016-09-27,0,-6.977747783326344e-05,5.809031666749562e-05,-0.01244492440702702,0.007193276324920217,0.9890308360212945
2016-09-29,1,0.00010553926034688772,0.0001655135071737592,-0.017150770699771656,0.0017352110341010295,0.9877373159440387
2016-10-03,-1,-0.0016064023727649143,-0.0013197059430455494,-0.0119857650825137,0.007304601223066335,0.9887353563240264
2016-10-05,-1,-0.00368112621138131,-0.003163105912499747,-0.0119857650825137,0.007304601223066335,0.9892838437780392
2016-10-07,-1,-0.004387129015864989,-0.0037531237304951606,-0.0119857650825137,0.010018247660910709,0.9884494858187398
2016-10-11,-1,-0.006244203772045638,-0.005281106728336291,-0.010030180799790081,0.01040690244237806,0.9879123603950428
2016-10-13,-1,-0.00500026691102446,-0.0041816701328615345,-0.016377768707133866,0.0069423321457133145,0.986707772064749
2016-10-17,-1,-0.0049897420646918085,-0.004180442243218446,-0.016377768707133866,0.0069423321457133145,0.986044449066661
2016-10-19,-1,-0.004975073373133328,-0.004180251588033071,-0.016377768707133866,0.008443015027571023,0.9854908853693496
2016-10-21,-1,-0.005073062284961747,-0.004296491034411898,-0.0190779648541993,0.008443015027571023,0.9844652082470503
2016-10-25,-1,-0.003937064356457079,-0.003364022824914522,-0.0190779648541993,0.009499357902998171,0.9836043929422793
2016-10-27,-1,-0.005907040558451271,-0.005111451100566254,-0.011818808765993057,0.009499357902998171,0.9845074864339007
2016-10-31,-1,-0.005419520767572751,-0.004707904734093429,-0.010820048487630064,0.008443015027571023,0.9849985519827124
2016-11-02,-1,-0.006955649143821842,-0.006073351433036809,-0.012059424223712355,0.008443015027571023,0.9837861779679804
2016-11-04,-1,-0.006184507498348544,-0.005405447180734984,-0.012059424223712355,0.008443015027571023,0.9834725703415751
2016-11-08,-1,-0.005094336116887026,-0.004437738348779467,-0.012059424223712355,0.008169469474607229,0.9844884118076721
2016-11-10,-1,-0.008077053269559417,-0.0070838222840422255,-0.0028907933563919073,0.008169469474607229,0.9857292516454494
2016-11-14,-1,-0.006862758829094522,-0.00602194914669996,-0.0028907933563919073,0.008169469474607229,0.9871044753723763
2016-11-16,-1,-0.00532200419961182,-0.004740064902452891,-0.009150877933015585,0.00719540274275223,0.987537294459694
2016-11-18,-1,-0.0052772831041984014,-0.004751006450013939,-0.005036852625009172,0.011625937405209702,0.9854460411567946
2016-11-22,-1,-0.0035182685018388254,-0.003237784211186501,-0.009356645110174866,0.008576391717583813,0.9871361729781558
2016-11-25,-1,-0.00273951996225407,-0.002602986696716397,-0.009356645110174866,0.007753261067609803,0.9875961571385691
2016-11-29,-1,-0.0027887172458918737,-0.00261965715732687,-0.009356645110174866,0.006357882787656116,0.9878178193545254
2016-12-01,-1,-0.004809575285838938,-0.004418811348163381,-0.0034248399624531517,0.011439899958105496,0.9880616509824283
2016-12-05,-1,-0.0034848272929198566,-0.003267508475403318,-0.0034248399624531517,0.011427267344865098,0.9889928984120336
2016-12-07,-1,-0.0027682356529517816,-0.0026338690567400923,-0.0031293774892094534,0.011427267344865098,0.9886858960568257
2016-12-09,-1,-0.002412409337699507,-0.002322633374585662,-0.007805058827899551,0.011427267344865098,0.9884999690886227
2016-12-13,-1,-0.0015934430487717622,-0.0015581294779884979,-0.007805058827899551,0.014971801916231198,0.9883000836810505
2016-12-15,-1,-0.0028819725409848914,-0.002764064382709244,-0.006357096903698735,0.015699456088940487,0.9883343249701484
2016-12-19,0,-0.00018792242474899952,6.15709192779033e-05,-0.007613090291389924,0.01096031096275163,0.9912823549475457
2016-12-21,0,-0.00023975674116339676,5.819954198980242e-05,-0.005871806698269342,0.01096031096275163,0.9913294384993913
2016-12-23,-1,-0.0006998855848433955,-0.0005454500402061574,-0.006357096903698735,0.01096031096275163,0.990904900838839
2016-12-28,-1,-0.0008621645262383119,-0.0007405126518018137,-0.006477943654442249,0.01096031096275163,0.990741023152574
2016-12-30,1,0.0003273211295767447,0.0006261770464287047,-0.006477943654442249,0.00885067438439116,0.9915543967639642
2017-01-04,1,0.000846462377162262,0.001197389213044466,-0.007506078134104625,0.00885067438439116,0.9901777925244931
2017-01-06,1,0.0018652510091606688,0.0023514353193995413,-0.007506078134104625,0.007203240871881372,0.9910870689217669
2017-01-10,1,0.0011884408072363479,0.0015786773016304562,-0.00591208894851718,0.007203240871881372,0.9918537482588012
2017-01-12,1,0.0016449639368689172,0.002074871561044652,-0.00591208894851718,0.007203240871881372,0.9923793549587286
2017-01-17,1,0.0022614096470539133,0.0027942348718246403,-0.00591208894851718,0.006047000448001572,0.9927853347280788
2017-01-19,1,0.0016148785882184164,0.002046254137423484,-0.0035539544361065808,0.006047000448001572,0.9931070851821384
2017-01-23,1,0.002299899468586374,0.002816766070416301,-0.0035539544361065808,0.005755619836653411,0.9933556792845524
2017-01-25,1,0.0018105885269695862,0.0022446626180926375,-0.003436863748729377,0.006047000448001572,0.9922875269328548
2017-01-27,1,0.0019443584530702968,0.0024167900385496776,-0.001224341745938598,0.006047000448001572,0.9925008201199867
2017-01-31,1,0.0026289489182503554,0.0032481821310013366,-0.006524712606581029,0.006047000448001572,0.9908554011555288
2017-02-02,1,0.0015885270947134755,0.0019551503539484275,-0.00426881436249214,0.005615903675824492,0.9922519511897582
2017-02-06,1,0.001723204684774547,0.002089362367885492,-0.006524712606581029,0.005524527342830579,0.9918963595918381
2017-02-08,1,0.002411140675954542,0.002896623029838067,-0.009923229578390718,0.004545195631802421,0.9897599652834179
2017-02-10,1,0.003173440656219479,0.0037908842602294396,-0.009923229578390718,0.004545195631802421,0.9898693513094494
2017-02-14,1,0.0033689276931583682,0.004063800136999052,-0.008059226591643456,0.004545195631802421,0.9894446638242983
2017-02-16,1,0.0037397954117729484,0.004530608527050054,-0.0070156685351491065,0.005810452633517071,0.9891224245582064
2017-02-21,1,0.004406383032121923,0.0052918504485211446,-0.007394707625923753,0.005810452633517071,0.9884801466881741
2017-02-23,1,0.005191735766598661,0.006171028431865301,-0.007394707625923753,0.004462059215065519,0.9888822458055894
2017-02-27,1,0.004731222082445247,0.005577797276609174,-0.007394707625923753,0.0031866437570627366,0.9884289370065429
2017-03-01,1,0.002266714940541461,0.002670858957786104,-0.004893008825810846,0.0033422936502456833,0.9916421017723196
2017-03-03,1,0.001987472962870573,0.0023392432410270017,-0.004893008825810846,0.005022757896549537,0.9915233249739158
2017-03-07,1,0.0015327610172285611,0.0018034660038308043,-0.0038491422949713285,0.005022757896549537,0.9921262597735558
2017-03-09,1,0.0005816065927820986,0.0007951727994418201,-0.0029144052159595425,0.007145127953700446,0.994274384476466
2017-03-13,1,0.0010514474821059377,0.0013283421352096982,-0.0029144052159595425,0.007304855019817372,0.9943594981920295
2017-03-15,1,0.0019379048851721216,0.0023305903899030994,-0.0029144052159595425,0.007304855019817372,0.995039886391808
2017-03-17,1,0.002169226467655311,0.0025726827532583842,-0.002539355012590725,0.006151118356195048,0.9955777891060593
2017-03-21,1,0.0024341477987397647,0.002887953449915069,-0.0018417038237513558,0.004498091739877417,0.9960960166774717
2017-03-23,1,0.0012234468142160743,0.0014055903240279795,-0.0015593093973590207,0.004498091739877417,0.9963133540695122
2017-03-27,1,0.0009051269729700809,0.0010495650604233119,-0.0015593093973590207,0.004498091739877417,0.9952375742290809
2017-03-29,1,8.202651388745447e-06,6.744695136198613e-05,-0.0015593093973590207,0.0045046369670654375,0.9946279348283816
2017-03-31,1,0.0005017743333244702,0.0005232734148680469,-0.002007060203735573,0.0045046369670654375,0.9940242466917315
2017-04-04,1,0.0010889486644635378,0.0012437411381954235,-0.004409663978468281,0.0045046369670654375,0.9931003913587427
2017-04-06,-1,-0.00042576370816802185,-0.00023129801206380168,-0.006457284029189698,0.0045046369670654375,0.9908115822053337
2017-04-10,1,0.00039191102695351515,0.0004478264673162065,-0.013848751630271574,0.0040468426867693065,0.9897557881931213
2017-04-12,1,0.0008758488262751238,0.0008924337712802636,-0.01707718759953087,0.0040468426867693065,0.9886902470610873
2017-04-17,1,0.0006074084896965235,0.0006603108860385786,-0.01707718759953087,0.0040468426867693065,0.9883682454595117
2017-04-19,1,0.0011412190058252697,0.0011999513542594387,-0.018895622753957324,0.0043717914144028175,0.9870432220912883
2017-04-21,1,0.0008990174825306672,0.0009195794127419286,-0.018895622753957324,0.005760396544950006,0.9870878150602456
2017-04-25,-1,-0.0003562623695662066,-0.00023054107857302473,-0.01707718759953087,0.005760396544950006,0.9886813417448501
2017-04-27,-1,-0.0021287700722037346,-0.0016781032179572926,-0.01707718759953087,0.008282250745856437,0.9883904692968624
2017-05-01,-1,-0.002096386131588591,-0.001692182340456455,-0.013848751630271574,0.0075365696205759,0.9894818581227511
2017-05-03,-1,-0.002575923408487073,-0.002137629257014947,-0.009125337077456226,0.009124583947809736,0.9898713269587611
2017-05-05,-1,-0.003373366234650549,-0.0028468079163348073,-0.009125337077456226,0.009124583947809736,0.9901966695106359
2017-05-09,-1,-0.004332389703843395,-0.003712453248199671,-0.0017841288563520182,0.009124583947809736,0.9902532160770702
2017-05-11,-1,-0.0055569431384933,-0.004723409608157659,-0.0017841288563520182,0.007979857006196026,0.9902062222424056
2017-05-15,-1,-0.004186251086604045,-0.0036288898823938556,-0.0012774175449650816,0.009124583947809736,0.9902080122010787
2017-05-17,-1,-0.004891617637695873,-0.004218897256433219,-0.0008449778522053391,0.009124583947809736,0.9902367749977774
2017-05-19,-1,-0.004455025574764765,-0.003840282723304312,-0.0017841288563520182,0.009124583947809736,0.9912193467222475
2017-05-23,-1,-0.00458495789569267,-0.003945722573936192,-0.0035007801935262213,0.009124583947809736,0.990940368981906
2017-05-25,-1,-0.00322398497404652,-0.0027913278806424723,-0.005148029131916863,0.007836494867300519,0.9917939202520195
2017-05-30,-1,-0.002940729491368007,-0.0025707354319688,-0.008124449396727388,0.00906956889843707,0.9905331936541087
2017-06-01,-1,-0.0018412427889454006,-0.0016495658189901482,-0.009213347751647592,0.009269500077864874,0.989789336808569
2017-06-05,-1,-0.0023023804695457535,-0.0020233970719654793,-0.009151555052641288,0.009269500077864874,0.9904254274689768
2017-06-07,-1,-0.001728383663401814,-0.0015456895401192243,-0.011400984631794044,0.009269500077864874,0.989333808047292
2017-06-09,-1,-0.0016301821809391137,-0.001478610107281942,-0.011457883676269745,0.010735299535976905,0.9888531062538451
2017-06-13,-1,-0.0012551943710034583,-0.0011207857197299519,-0.011457883676269745,0.010735299535976905,0.9887277196820985
2017-06-15,-1,-0.0003716412527151854,-0.0003679107801095072,-0.011457883676269745,0.011377614720286299,0.9877539066629941
2017-06-19,-1,-0.001011066763410021,-0.0009222107913582652,-0.011457883676269745,0.011377614720286299,0.9879651873726301
2017-06-21,-1,-0.0015479126190362244,-0.0013929614445877111,-0.010641017056281673,0.011377614720286299,0.9877233307731712
2017-06-23,-1,-0.0014892705959078398,-0.0013495776090021053,-0.009151555052641288,0.011377614720286299,0.9885586084340049
2017-06-27,-1,-0.0009911243800850291,-0.0009049010136769656,-0.004476989750545543,0.010274601549309467,0.9894222772735454
2017-06-29,-1,-0.0009211172562287625,-0.0008570403355559841,-0.004476989750545543,0.008961858634914048,0.990390803498444
2017-07-03,-1,-0.00041030982132596945,-0.00038944040781624183,-0.0024440688312238248,0.008961858634914048,0.9911521858223016
2017-07-06,-1,-0.001289550794590842,-0.001231429218779639,-0.0013988225777135407,0.008961858634914048,0.9919083792332989
2017-07-10,-1,-0.001685807407603812,-0.0015709112734298718,-0.00039353462366386026,0.008443621998560542,0.9927191602205837
2017-07-12,-1,-0.0008915057217371349,-0.0008673776452946258,-0.0013988225777135407,0.007494514987708503,0.993901901624294
2017-07-14,1,0.00044529439954331775,0.0006295462992937036,-0.002488408564480962,0.004203648911230977,0.9948714803639479
2017-07-18,1,0.0011088990739716548,0.0014283462911341095,-0.003484786774515012,0.005207874030633158,0.9939908284545267
2017-07-20,1,0.0017083786924724184,0.002119284729615183,-0.00640217435786092,0.005207874030633158,0.9934390929887821
2017-07-24,1,0.0010205213866796821,0.0012667597821950736,-0.00640217435786092,0.0075240256299730825,0.9926509241020074
2017-07-26,1,0.0014389759445579083,0.001733221506551294,-0.007468468234265334,0.008199484236967406,0.992024721465739
2017-07-28,1,0.0008898231747809857,0.0010954694734858134,-0.007468468234265334,0.00985200781972203,0.9919022814898357
2017-08-01,1,0.0003883168800362666,0.0004321237878138904,-0.008161708883653921,0.0077388240590975585,0.9918379165900056
2017-08-03,1,0.0001812785195760445,0.00022257231915780336,-0.007468468234265334,0.00985200781972203,0.9917735986997285
2017-08-07,1,0.0009041041408987999,0.0010939077491726836,-0.007468468234265334,0.00985200781972203,0.991498073697985
2017-08-09,1,0.0011516767754014188,0.0013981974928460711,-0.007468468234265334,0.00985200781972203,0.9912170643777609
2017-08-11,1,0.0006413984130618183,0.0008291436999333768,-0.005985386601046135,0.010728802856693243,0.9916248771147995
2017-08-15,1,0.0008806688619074134,0.0010886522998041599,-0.006281450514722091,0.00968361265417592,0.9920488395045474
2017-08-17,1,0.0008610187220884784,0.0010459109760074597,-0.00437390946077602,0.00963749846546828,0.9921165190087238
2017-08-21,1,0.0013151219464763006,0.0015609966793664587,-0.0064167588910479635,0.009180070659996662,0.9923321801887102
2017-08-23,1,0.0016256038354571394,0.0019304256461391846,-0.007483736404438049,0.008590554864119257,0.9924811457204994
2017-08-25,1,0.0016801246310809846,0.0020001137076770432,-0.0062460227932379965,0.008067043012131916,0.9928569687067071
2017-08-29,1,0.0013069695575506812,0.001594928516190624,-0.0062460227932379965,0.008067043012131916,0.9925696093524228
2017-08-31,1,0.0017892028837635386,0.0021627916694990958,-0.007483736404438049,0.008067043012131916,0.9923824861580657
2017-09-05,1,0.002502439019240601,0.0029949421771264134,-0.007483736404438049,0.007412544550781017,0.9923357921276447
2017-09-07,1,0.002925502272258298,0.003491300118586407,-0.007483736404438049,0.0064593005009257465,0.9924477371655578
2017-09-11,1,0.0034538357777228936,0.004096638316403099,-0.008096116760374729,0.00287791199303558,0.9918455958990894
2017-09-13,1,0.003042466925025284,0.0036249281555455998,-0.007483736404438049,0.00287791199303558,0.9927088868000321
2017-09-15,1,0.0030911104515303437,0.0036122613508545024,-0.007483736404438049,0.0014996256316253682,0.9930505902795448
2017-09-19,1,0.002310313185481833,0.002713898580778758,-0.0062460227932379965,0.0018432445288402,0.9946469732301004
2017-09-21,1,0.0015912338941232495,0.0018776413101391648,-0.0030426005894953817,0.0018432445288402,0.995036599853168
2017-09-25,1,0.001278250124263101,0.001487670704533759,-0.003985813045749266,0.0014996256316253682,0.994954717128845
2017-09-27,1,0.0005261630865204389,0.0005930916143025284,-0.008985190602191608,0.001412556382200947,0.9953356456613431
2017-09-29,-1,-0.00019256249630708637,-0.00011263598684547113,-0.008985190602191608,0.001412556382200947,0.9950069160911804
2017-10-03,-1,-0.0005513020550329626,-0.00041002091947419696,-0.00920317899065438,0.0014996256316253682,0.9944684930646583
2017-10-05,-1,-0.000682933077378972,-0.0005199981924474237,-0.00920317899065438,0.0024207091658088645,0.9934636743346023
2017-10-09,-1,-0.0013112168201542852,-0.00105523374323892,-0.008985190602191608,0.003616954931214612,0.9935477746428073
2017-10-11,-1,-0.0011052919626671626,-0.0008856253810188013,-0.008985190602191608,0.004521214416896687,0.9928757988598687
2017-10-13,-1,-0.001057934570244117,-0.0008398105468253071,-0.008985190602191608,0.004521214416896687,0.9929702961273021
2017-10-17,-1,-0.0005364985042547359,-0.0004122046354122133,-0.008985190602191608,0.0047617218755988625,0.9926183533869624
2017-10-19,-1,-0.0012293612406299912,-0.001018197911793796,-0.007896738743404871,0.0047617218755988625,0.9928270362392617
2017-10-23,-1,-0.001513170100768262,-0.0012871057684584121,-0.006669760252841854,0.0047617218755988625,0.992950298665869
2017-10-25,-1,-0.0022676229222887995,-0.0019486822107180094,-0.0017724484260156334,0.005410472938997535,0.9927946755195385
2017-10-27,-1,-0.002502057021907079,-0.0021651087190167322,-0.0014207028509673099,0.0047617218755988625,0.9938393371637405
2017-10-31,-1,-0.0027687214145038024,-0.002391641286932439,-0.0033664201749173256,0.0047617218755988625,0.9940203221660011
2017-11-02,-1,-0.0014526412386171306,-0.0012620850543077814,-0.0034039733695013035,0.004174110176360499,0.9953364208413886
2017-11-06,-1,-0.0009543276987267625,-0.0008431652372888094,-0.003940684204713759,0.0023469933043129007,0.9956295058558794
2017-11-08,-1,-0.0005857537174094319,-0.0004953183484957057,-0.00482817285911546,0.001926506595063773,0.9959408939079669
2017-11-10,-1,-0.0008492492751081707,-0.0007016222907809699,-0.00482817285911546,0.0027970852384092857,0.9953144033523248
2017-11-14,-1,-0.0005085562891272444,-0.00039553686629524684,-0.00482817285911546,0.002912650048613116,0.9945280985716807
2017-11-16,-1,-0.0005149718068799269,-0.00042396513710968623,-0.003940684204713759,0.004834126360759567,0.9944035504549722
2017-11-20,-1,-0.0008814798896821126,-0.0007397644621563728,-0.003940684204713759,0.006072725530251626,0.9931530395853162
2017-11-22,-1,-0.0006616744999455356,-0.0005547459215068809,-0.006154194236471395,0.004834126360759567,0.9928147756482945
2017-11-27,-1,-0.0015542665892398074,-0.0012765663473585493,-0.006154194236471395,0.006845116854024277,0.9922099326057575
