JNU-Tangyin/eata/results/Batch4_SP500/Batch4_SP500-MDLZ.csv
Date,Action,Predicted_Q25,Predicted_Q75,Actual_Q25,Actual_Q75,RL_Reward
2010-12-14,0,0.0,0.0,-0.002300975184563409,0.0038695145498955238,0.9957707765448194
2010-12-16,1,0.0006882317314639095,0.0007006829089061259,-0.0027139385421665473,0.0027891973065175867,0.9957379871881633
2010-12-20,0,-2.244824322090945e-05,0.0001134247543416917,-0.0027139385421665473,0.0027891973065175867,0.9960328131034947
2010-12-22,1,0.00044675622373366455,0.000501613805689829,-0.0027139385421665473,0.0028831263335051035,0.9958713035222803
2010-12-27,0,0.0,0.0,-0.0027139385421665473,0.0028831263335051035,0.9958368702595775
2010-12-29,0,0.0,0.0,-0.0035881962068874274,0.0025547086855138785,0.9956744178552233
2010-12-31,0,0.0,0.0,-0.0035881962068874274,0.0025547086855138785,0.9956717738187
2011-01-04,0,0.0,0.0,-0.003892630891170878,0.0025547086855138785,0.9956931010681194
2011-01-06,0,0.0,0.0,-0.003282151884934928,0.0034140165813584186,0.9951942931820009
2011-01-10,0,0.0,0.0,-0.003892630891170878,0.003928572075612192,0.9944281806691321
2011-01-12,0,0.0,0.0,-0.004323669558664558,0.0036108129805113003,0.9945063003214071
2011-01-14,-1,-0.0002689525273137805,-0.00022494625064532688,-0.006147060563017558,0.0036108129805113003,0.9937916932144029
2011-01-19,-1,-0.0004997588179188585,-0.0004417720452397328,-0.0049942444284855475,0.003941525161130252,0.9938999761224511
2011-01-21,-1,-0.0002964085764807252,-0.0002595941237602227,-0.0049942444284855475,0.0037098520387805534,0.9940159317002096
2011-01-25,-1,-7.497049277837417e-05,-7.420687552292663e-05,-0.004323669558664558,0.005893443082795846,0.9933049125758877
2011-01-27,0,0.0,0.0,-0.0025486667963412987,0.005893443082795846,0.9940718039907785
2011-01-31,0,0.0,0.0,-0.0037302661250496047,0.005893443082795846,0.9935004635036646
2011-02-02,0,0.0,0.0,-0.002692346352172525,0.006095952143886789,0.9932436078722267
2011-02-04,1,0.00029742266639633664,0.0003060865186433988,-0.00596611871039484,0.0046548780009450196,0.993543405576988
2011-02-08,1,0.0002244773030511959,0.00022498821865627838,-0.0045071501301217265,0.0046548780009450196,0.9939417194781539
2011-02-10,1,0.00022408552483213528,0.00023835610742593916,-0.00541206534415467,0.006014996389351143,0.9937512257993782
2011-02-14,-1,-0.0005325605954985182,-0.0004432066802212051,-0.005833497911692455,0.006014996389351143,0.9937429327595614
2011-02-16,0,0.0,0.0,-0.007256369748439968,0.004662072823753382,0.9937073322822165
2011-02-18,1,3.7716206218775254e-05,4.361909886819159e-05,-0.007256369748439968,0.006430186324042093,0.9933541759181682
2011-02-23,1,0.0003648937948277099,0.0003716338606116341,-0.007256369748439968,0.004207828468551701,0.9941952691658889
2011-02-25,1,0.0003286862783771578,0.0003318351985681543,-0.007256369748439968,0.004765310666400181,0.9941603775244088
2011-03-01,1,0.00032134635043901263,0.0003428652306518189,-0.006574021166040465,0.00568567005700277,0.9941763128440293
2011-03-03,1,0.00042978658497620434,0.00044669112306665846,-0.006574021166040465,0.00568567005700277,0.994239362942102
2011-03-07,1,0.00014907978370551722,0.00015436156664758627,-0.004200897265529238,0.00644084107070567,0.9944750417346664
2011-03-09,1,0.0007285932472395922,0.0008388803858030104,-0.004200897265529238,0.00644084107070567,0.9945472591960018
2011-03-11,1,0.0006084490951891546,0.000689044059780433,-0.003548964211921072,0.005777280558201992,0.994907006500522
2011-03-15,1,0.000275544441942317,0.00032764242189418973,-0.0031793908086119246,0.0067162096685319,0.9951476955355567
2011-03-17,1,2.1819223400031664e-05,4.2512571229392186e-05,-0.0012704425681289583,0.007600905831736595,0.9944595040572971
2011-03-21,1,0.0005408225841862573,0.0006027055013729715,-0.0012704425681289583,0.00800137261156338,0.9943456155380798
2011-03-23,1,0.00040215699350419664,0.0004356755742475606,-0.0012704425681289583,0.00800137261156338,0.9941337164052331
2011-03-25,0,0.0,0.0,-0.003548964211921072,0.00800137261156338,0.9935716282641217
2011-03-29,0,0.0,0.0,-0.0032380047686566783,0.008131405119359659,0.9934732040693504
2011-03-31,0,0.0,0.0,-0.0012669422057255777,0.008131405119359659,0.9939341638111011
2011-04-04,0,0.0,0.0,-0.000381860245007626,0.008131405119359659,0.9940731728640808
2011-04-06,0,0.0,0.0,-0.0013082088326258033,0.006488050427279652,0.9938119409225201
2011-04-08,1,0.0003118660392856882,0.0003452774098640956,-0.0007363138770292469,0.008486364630888688,0.9930647942018986
2011-04-12,1,0.00046653027880970335,0.0005086367993499901,-0.0007363138770292469,0.006488050427279652,0.9935132058367192
2011-04-14,1,0.0010421508684091147,0.0011487781195363919,-0.0007363138770292469,0.005552367645269576,0.9940537988004757
2011-04-18,1,0.0009540767292694605,0.0010386395519047977,-0.0007363138770292469,0.005552367645269576,0.9939348776629107
2011-04-20,1,0.0011235302311542123,0.0012204312510871317,-0.0007363138770292469,0.005531677540338412,0.9942534219051516
2011-04-25,1,0.0006717055431272643,0.0006960243873780851,-0.00037080347898326056,0.006180392085761018,0.9942003840671693
2011-04-27,1,0.0015806033318029778,0.0016599225049960678,-0.0016664696853402044,0.005454472988419396,0.9941403387702644
2011-04-29,1,0.001363706407139055,0.0014004647867702097,-0.0016664696853402044,0.0056273463890525845,0.9939128684012771
2011-05-03,1,0.0013323171912926048,0.001485070409645309,-0.00407427198537979,0.005721545057045065,0.9935998838462508
2011-05-05,1,0.00044391650145030926,0.0004570145866296311,-0.006921361131264669,0.005721545057045065,0.9931416566019836
2011-05-09,1,0.000888459489278274,0.0009839375663060156,-0.006921361131264669,0.0053455298821115495,0.9941789621963032
2011-05-11,1,0.0013981618025621437,0.0015268992040799415,-0.006921361131264669,0.00490279168154102,0.9942313086941419
2011-05-13,1,0.0010394939450788963,0.0011749707981434983,-0.007553678734316898,0.00490279168154102,0.9939157350096929
2011-05-17,0,0.0,0.0,-0.007027950172776889,0.004251757607876893,0.9942589783529199
2011-05-19,0,0.0,0.0,-0.007027950172776889,0.005315467639481054,0.9938198094896
2011-05-23,1,0.0007404420193098223,0.0008344802196804245,-0.006898602888654544,0.005315467639481054,0.9940935763262091
2011-05-25,0,0.0,0.0,-0.006898602888654544,0.005315467639481054,0.9940322139305358
2011-05-27,0,0.0,0.0,-0.006898602888654544,0.0055186094137813805,0.9938573137017395
2011-06-01,0,0.0,0.0,-0.004983160664842515,0.005993470989351081,0.994036935725675
2011-06-03,1,0.0006381926602446552,0.0006999851810374194,-0.001602234029852869,0.008344859010101216,0.9942177093147019
2011-06-07,0,0.0,0.0,-0.0005069690737736423,0.008344859010101216,0.9935925097446534
2011-06-09,0,0.0,0.0,-0.0032448846387528076,0.008344859010101216,0.9934410194597896
2011-06-13,1,0.0002237827821530505,0.00023238632980245255,-0.0034005092065054108,0.007166921831327079,0.9941859412330972
2011-06-15,0,0.0,0.0,-0.0029420042932320227,0.007166921831327079,0.9945935633110758
2011-06-17,1,0.000604057473346008,0.0006488963869191928,-0.0034005092065054108,0.006545881345932279,0.9950122353659828
2011-06-21,1,0.0003896809998810214,0.00039842340698494197,-0.0034005092065054108,0.0047859043705931244,0.9953774938559522
2011-06-23,0,0.0,0.0,-0.00157000934668344,0.00608113828993664,0.99579034809206
2011-06-27,0,0.0,0.0,-0.0031796228451847447,0.004660605818790379,0.9956960921496253
2011-06-29,0,0.0,0.0,-0.0039121399317190025,0.002730893839936302,0.9955441763209949
2011-07-01,1,0.9270993398525432,0.9289057442889559,-0.005428982397417492,0.0018006840255563794,0.5182398423717706
2011-07-06,1,0.0014132159758286798,0.001572236650063579,-0.005656553695403693,0.0006471450688175189,0.9954796724591646
2011-07-08,0,0.0,0.0,-0.005656553695403693,0.0006471450688175189,0.994166657819433
2011-07-12,-1,-6.23316257764868e-05,-3.7207068227955076e-05,-0.00588587359214572,0.0018006840255563794,0.9922265386388308
2011-07-14,1,0.0008965707440543595,0.0009792089799822818,-0.007274610205153987,0.0026639637322336913,0.9880917788437826
2011-07-18,1,0.0010157800875675214,0.0011014374229069263,-0.007274610205153987,0.006501754562880836,0.9877036309841052
2011-07-20,0,0.0,0.0,-0.010986350461176098,0.008304060239586877,0.9867302132086265
2011-07-22,0,0.0,0.0,-0.01185556145949167,0.008304060239586877,0.9855430504164998
2011-07-26,0,0.0,0.0,-0.011552001606428448,0.008936803233001034,0.985330898054643
2011-07-28,0,0.0,0.0,-0.013954477055766799,0.008936803233001034,0.984893397111376
2011-08-01,0,0.0,0.0,-0.013954477055766799,0.01136930733978964,0.9838689845595914
2011-08-03,-1,-0.0001596442795978186,-0.00014699442005228992,-0.013954477055766799,0.01136930733978964,0.9837107931381788
2011-08-05,-1,-0.0021744782978215943,-0.0019497925317433877,-0.014042588514324663,0.009544496355800213,0.9847152770762503
2011-08-09,0,0.0,0.0,-0.011373944955602249,0.009544496355800213,0.9860887592816249
2011-08-11,0,0.0,0.0,-0.011373944955602249,0.00903688301992832,0.988887004252844
2011-08-15,0,0.0,0.0,-0.011373944955602249,0.00903688301992832,0.9893184103650097
2011-08-17,0,0.0,0.0,-0.008312438617418252,0.009227397984671986,0.9894152614965456
2011-08-19,0,0.0,0.0,-0.005657262502676554,0.009227397984671986,0.9905390111325307
2011-08-23,0,0.0,0.0,-0.008159809343247481,0.008805960681967852,0.9904286362080482
2011-08-25,0,0.0,0.0,-0.008159809343247481,0.008805960681967852,0.9908720596296287
2011-08-29,1,0.0010823227101346522,0.0011624032031921213,-0.008159809343247481,0.008805960681967852,0.9904790348393195
2011-08-31,1,0.0012261337530503303,0.0012703562293436255,-0.010352373545986358,0.008229063925994033,0.989621428394901
2011-09-02,0,0.0,0.0,-0.011549822155645945,0.008229063925994033,0.9888615562585826
2011-09-07,0,0.0,0.0,-0.011549822155645945,0.007490320921619077,0.9897678959356535
2011-09-09,0,0.0,0.0,-0.010352373545986358,0.007668706186841713,0.9896409400212154
2011-09-13,0,0.0,0.0,-0.010352373545986358,0.009614013317820967,0.9891127019763023
2011-09-15,0,0.0,0.0,-0.010352373545986358,0.007244959135634932,0.9894987268535478
2011-09-19,0,0.0,0.0,-0.011549822155645945,0.0082036274741685,0.9887456708379464
2011-09-21,0,0.0,0.0,-0.011376781561851238,0.011557287400101526,0.9885868590231645
2011-09-23,0,0.0,0.0,-0.00775470044041431,0.011557287400101526,0.9887131239010722
2011-09-27,0,0.0,0.0,-0.01020720894879386,0.007244959135634932,0.9898570731020458
2011-09-29,-1,-0.00019678241590985894,-0.00013724968496398686,-0.007468083504976217,0.008145051601235128,0.9904015380668636
2011-10-03,0,0.0,0.0,-0.0030337984149237745,0.008145051601235128,0.9920528457598913
2011-10-05,0,0.0,0.0,-0.0030337984149237745,0.008145051601235128,0.9914442712890296
2011-10-07,1,8.432844330659434e-05,0.00017403933700458848,-0.007141190613936602,0.008145051601235128,0.9903782074964291
2011-10-11,0,0.0,0.0,-0.007141190613936602,0.006325789774608943,0.9908083454580503
2011-10-13,0,0.0,0.0,-0.01020720894879386,0.007180555913908326,0.9899305818279289
2011-10-17,0,0.0,0.0,-0.007141190613936602,0.007180555913908326,0.9902982131210772
2011-10-19,1,0.0006861620094715728,0.0008305101697313236,-0.006774904229334576,0.004704349288485718,0.99124105618651
2011-10-21,1,0.0006260405014320877,0.0007606245921826653,-0.006804052468538255,0.004250171307936118,0.9910080169981387
2011-10-25,1,0.0003837972841940976,0.0004568163451350959,-0.006804052468538255,0.005020029658936989,0.9905534727368822
2011-10-27,0,0.0,0.0,-0.008657067503754242,0.004250171307936118,0.9906892191486905
2011-10-31,0,0.0,0.0,-0.008657067503754242,0.008127597025262136,0.9896582186997248
2011-11-02,-1,-0.0029505617152718157,-0.0028509557017784865,-0.006804052468538255,0.011114590804885041,0.9885063057292246
2011-11-04,-1,-0.0028861663589316304,-0.0027886260728958064,-0.005639454551863998,0.009922503425106421,0.9906563683487567
2011-11-08,-1,-0.0024401151353536186,-0.0022530279130809606,-0.005639454551863998,0.009922503425106421,0.9912810017902614
2011-11-10,-1,-0.00016930428389194015,-0.0001178152075561058,-0.0054515524893960715,0.01039259582813679,0.9921495841650371
2011-11-14,0,0.0,0.0,-0.0056898816123313375,0.00788693203301272,0.9923977620835522
2011-11-16,1,0.00035799213182605605,0.0004523095896958156,-0.0054515524893960715,0.00864278894297261,0.9923063265626003
2011-11-18,1,0.0004350820691997506,0.0005289901037891012,-0.004662262651799403,0.00864278894297261,0.9925105988999479
2011-11-22,1,0.0006371379066574372,0.0007577545031181949,-0.003978608132188284,0.012093422002383754,0.9920719460174642
2011-11-25,1,2.5805565953895966e-05,4.7620536347055834e-05,-0.0034416899182076804,0.012093422002383754,0.9919626385843284
2011-11-29,1,0.00021317518964227263,0.0002550675970023344,-0.003978608132188284,0.01014264583984316,0.9927581438315831
2011-12-01,1,0.00024298572930055954,0.00028357698712120716,-0.004662262651799403,0.00904037819789969,0.9933752702817737
2011-12-05,1,0.0003468083176376528,0.00040915523267020946,-0.004662262651799403,0.00904037819789969,0.9930993567301295
2011-12-07,1,0.00017485076190939175,0.0002107783456278659,-0.005151377895335308,0.009838688630427448,0.9926487314590926
2011-12-09,1,0.0004864386396823105,0.0005651582403539939,-0.004141646546700253,0.008562542590520398,0.9930960621037256
2011-12-13,1,0.00023981183426388932,0.00029572024616153156,-0.00263364275760219,0.008562542590520398,0.9931823747778966
2011-12-15,1,8.807910827330208e-05,9.354842032376919e-05,-0.0030653758849794968,0.009403487304937948,0.9926607945896591
2011-12-19,-1,-0.00013121933328762934,-9.78936152764718e-05,-0.002377633772095003,0.009966591476096819,0.9922723056495163
2011-12-21,1,0.000576471082809794,0.0006196922360940296,-0.0030653758849794968,0.008305203195155684,0.9934631341869744
2011-12-23,1,0.0007276369759733225,0.0007835672493770373,-0.004572937097055498,0.007722595334281112,0.9937675393308296
2011-12-28,0,0.0,0.0,-0.003630623278623563,0.007722595334281112,0.9939797823073302
2011-12-30,1,0.0011423273354674878,0.0013061803591353847,-0.003630623278623563,0.006407112727729926,0.9945139911376208
2012-01-04,0,0.0,0.0,-0.003630623278623563,0.006407112727729926,0.9943461697358912
2012-01-06,0,0.0,0.0,-0.003630623278623563,0.006407112727729926,0.9944445425428398
2012-01-10,-1,-4.889803729655878e-05,-1.7664805831051422e-05,-0.0044717187656694544,0.004827584281361862,0.9947967588991515
2012-01-12,0,0.0,0.0,-0.0044717187656694544,0.0034669076512863434,0.9950707958067364
2012-01-17,1,0.0006093579689970746,0.000655213230783102,-0.0044717187656694544,0.002930284737220561,0.995790090296776
2012-01-19,0,0.0,0.0,-0.004638637400911583,0.0026679417983965044,0.996223950233933
2012-01-23,0,0.0,0.0,-0.004638637400911583,0.002930284737220561,0.99549004034058
2012-01-25,0,-1.3342417870215883e-06,8.349265597697075e-06,-0.004726634089640206,0.002930284737220561,0.9950462610943754
2012-01-27,0,0.0,0.0,-0.004726634089640206,0.0026679417983965044,0.9953356225164829
2012-01-31,0,0.0,0.0,-0.004638637400911583,0.0025970320649978773,0.9956559769552983
2012-02-02,0,0.0,0.0,-0.004638637400911583,0.0024292026529612945,0.9956266259214772
2012-02-06,1,0.0013392915998470028,0.0014694824584976652,-0.003141102817815403,0.0024292026529612945,0.9958084661910362
2012-02-08,1,0.0013357163715159747,0.0014951539931266598,-0.003141102817815403,0.0024292026529612945,0.9954935877417419
2012-02-10,0,0.0,0.0,-0.003141102817815403,0.00243156757354804,0.9955470758356402
2012-02-14,0,0.0,0.0,-0.0033383238492687576,0.0024341206650355485,0.9949374334200004
2012-02-16,-1,-0.00047654440992040667,-0.00037646810132990234,-0.00222272957001286,0.002812215452636438,0.994946927433105
2012-02-21,1,0.0007312122113396204,0.0007724019040805847,-0.001703559636484344,0.0024341206650355485,0.9960852848425121
2012-02-23,0,0.0,0.0,-0.001703559636484344,0.0024341206650355485,0.996567456486695
2012-02-27,0,0.0,0.0,-0.0011762319654273587,0.002812215452636438,0.9961923535441634
2012-02-29,0,0.0,0.0,-0.0022170844695023895,0.002812215452636438,0.9955506809978726
2012-03-02,0,0.0,0.0,-0.003011220351023759,0.002812215452636438,0.9954707474790804
2012-03-06,0,0.0,0.0,-0.003011220351023759,0.0036742656876737056,0.9951052667102809
2012-03-08,0,0.0,0.0,-0.003011220351023759,0.0036742656876737056,0.9954556439964776
2012-03-12,0,-2.0679147828624934e-05,1.4069666481355894e-05,-0.005279537515303044,0.00241807657993949,0.9945140580424516
2012-03-14,-1,-0.0005770821519769801,-0.00047688326801987257,-0.004337782658930861,0.00241807657993949,0.994953811879534
2012-03-16,1,0.0008872050013803076,0.000997873187560471,-0.004337782658930861,0.005380707899632583,0.9942596968533943
2012-03-20,1,0.0009219526693809295,0.00103452830488451,-0.005091425678296638,0.005780206236425202,0.9928981387827716
2012-03-22,1,0.0008530613708837669,0.0009571939861889305,-0.005091425678296638,0.006449301362285923,0.9926890348891372
2012-03-26,1,0.0008678530703508952,0.0009596593617784954,-0.006425062632863495,0.006449301362285923,0.9919489899208486
2012-03-28,0,0.0,0.0,-0.004337782658930861,0.007717411453367403,0.9921096958453421
2012-03-30,-1,-0.0004905446370136372,-0.0003198789459085572,-0.00421632476183225,0.00973560899652208,0.9915335442205615
2012-04-03,-1,-0.00023729523891146992,-0.00010619220229180084,-0.00421632476183225,0.009110239672822349,0.9919379409836012
2012-04-05,-1,-0.0006693424635419334,-0.0004859991127889742,-0.004598166467685733,0.009110239672822349,0.9917278550879811
2012-04-10,-1,-0.0013167105846083565,-0.0010655608668699123,-0.0027619355623474313,0.009110239672822349,0.9928297242536308
2012-04-12,0,0.0,0.0,-0.0027619355623474313,0.009110239672822349,0.9927785882300952
2012-04-16,0,0.0,0.0,-0.0027619355623474313,0.009110239672822349,0.99333578322525
2012-04-18,0,0.0,0.0,-0.0034304869199405503,0.0072586561782785565,0.9942810164593667
2012-04-20,0,0.0,0.0,-0.005465988620338702,0.0053439550276673,0.994259358996233
2012-04-24,0,0.0,0.0,-0.0034304869199405503,0.005091361184907748,0.9950365334395143
2012-04-26,0,0.0,0.0,-0.005465988620338702,0.003960040662484126,0.9949623437686544
2012-04-30,0,0.0,0.0,-0.005465988620338702,0.0022051582048009683,0.9958049880347379
2012-05-02,0,0.0,0.0,-0.0057788618466327775,0.0022051582048009683,0.9955280782134227
2012-05-04,0,0.0,0.0,-0.0057788618466327775,0.0022465648803655955,0.9950792394541333
2012-05-08,0,0.0,0.0,-0.0057788618466327775,0.0028611958499193996,0.9946394281219325
2012-05-10,0,0.0,0.0,-0.005465988620338702,0.0028611958499193996,0.9949220472305875
2012-05-14,0,0.0,0.0,-0.005465988620338702,0.0038570258773955963,0.9944937231618024
2012-05-16,0,0.0,0.0,-0.0032373789206004686,0.004782316829642156,0.9946153024846
2012-05-18,0,0.0,0.0,-0.002736729160034892,0.005914442360055075,0.9945915308230879
2012-05-22,0,0.0,0.0,-0.002736729160034892,0.004995768781995161,0.9950421192532081
2012-05-24,0,0.0,0.0,-0.002736729160034892,0.0028883575907450677,0.9955055408576061
2012-05-29,-1,-0.0002484391806890197,-0.0001674067650252689,-0.004143192578599962,0.0028883575907450677,0.9943875129117025
2012-05-31,-1,-0.0008418587674062165,-0.0007065758960256187,-0.0033708832525681655,0.004995768781995161,0.993926700301722
2012-06-04,-1,-0.0013012981228222478,-0.0011594229937647777,-0.0022034028204214523,0.006870275638854165,0.9931859258876223
2012-06-06,-1,-0.0006701030537912575,-0.0006133167410488822,-0.002853967436122311,0.006870275638854165,0.9932891776936317
2012-06-08,-1,-0.0005199340769908907,-0.0004751532086996669,-0.002853967436122311,0.006870275638854165,0.9935367638619885
2012-06-12,0,-1.2956393689373286e-05,3.5628740732006255e-05,-0.002620296790862971,0.007401100741844318,0.9935610850501688
2012-06-14,1,0.00012008005848771516,0.000172923397995323,-0.004087418058662889,0.007935872633734464,0.992917311522787
2012-06-18,1,0.00012560729276580345,0.0001573200587956064,-0.004087418058662889,0.006987229554543405,0.9930062017964881
2012-06-20,1,0.0002981854004482173,0.0003619298909285315,-0.004087418058662889,0.006987229554543405,0.9925977071025947
2012-06-22,1,0.00012011697850029372,0.00015205376905948152,-0.004222264540065091,0.006987229554543405,0.9916645274092583
2012-06-26,-1,-0.0003977111973331283,-0.00037921667910982624,-0.0038258377892678905,0.006987229554543405,0.9925920635547607
2012-06-28,-1,-0.00039165492333969503,-0.0003691376221942776,-0.0033478746744128396,0.007171139699365832,0.9926601130666804
2012-07-02,1,0.0004185468523321242,0.0004916695266304915,-0.0033478746744128396,0.00560729878786447,0.9939421577376374
2012-07-05,1,0.0006585844472343676,0.0007678441598993672,-0.004597140005696592,0.005376898642310972,0.9935497781390923
2012-07-09,1,0.0003161005809701232,0.0004094819287122966,-0.004597140005696592,0.00560729878786447,0.9916578177903282
2012-07-11,1,0.00036418245432631865,0.0004468819492143251,-0.004597140005696592,0.005659267516829445,0.9916200764196018
2012-07-13,1,0.0010639445876146297,0.001196550157684889,-0.0038872147050030585,0.005575619924013596,0.9925320695123913
2012-07-17,1,0.0009986954933995295,0.001110048836250128,-0.0038872147050030585,0.005394221551965964,0.9927396869883
2012-07-19,1,0.001135876470465473,0.0012580364402594172,-0.004597140005696592,0.0029953662692348846,0.9927599011144791
2012-07-23,1,0.0007296244870426677,0.0008083357929488777,-0.004597140005696592,0.005394221551965964,0.9935326621380667
2012-07-25,1,0.000644735533418738,0.0007218215633677907,-0.002742324912729891,0.005883255947315006,0.9935215169850448
2012-07-27,1,0.0011864846035710835,0.001333923830834553,-0.002742324912729891,0.006600393075253369,0.9933206601829172
2012-07-31,1,0.0011729885060416507,0.0012934473031341533,-0.003420835784314451,0.006600393075253369,0.9932268378744539
2012-08-02,1,0.0008046625907229203,0.0008904506663059686,-0.003420835784314451,0.006600393075253369,0.9935672635040015
2012-08-06,1,0.0018480302543504028,0.0020637311872562358,-0.003420835784314451,0.006600393075253369,0.9951524271650731
2012-08-08,1,0.0021670069616900127,0.002425904279693724,-0.003755039824827386,0.006604498110040635,0.9945561210901321
2012-08-10,1,0.0019012869308404326,0.002124183049058825,-0.004182108076912465,0.006604498110040635,0.9920359828343409
2012-08-14,1,0.0017100397500072386,0.0018970805832574313,-0.0048055754073409755,0.006604498110040635,0.9912890286351241
2012-08-16,1,0.0017784315767404996,0.002000435582798074,-0.004811582793807371,0.006987492483358896,0.990798196753948
2012-08-20,1,0.0013812793321636336,0.0015042819963948615,-0.004829032282090359,0.008047319254292518,0.9901306430976073
2012-08-22,1,0.0011675993176031314,0.0012652434438418763,-0.004829032282090359,0.011079707201383019,0.9893556643310367
2012-08-24,1,0.00236835223662248,0.0026352507422572344,-0.004829032282090359,0.008497697160471501,0.9899589077032429
2012-08-28,1,0.0021193776802111647,0.002334724058990283,-0.005177883298363947,0.008497697160471501,0.9896051395231353
2012-08-30,1,0.0010987098622706167,0.0011269628988622698,-0.004829032282090359,0.008497697160471501,0.9900650883841728
2012-09-04,1,0.0012775018037557463,0.001421986300232706,-0.005177883298363947,0.011079707201383019,0.984316925195379
2012-09-06,1,0.0015614623068309621,0.0017618000208501122,-0.005926623267204952,0.008733579929713662,0.9845441574447861
2012-09-10,1,0.0019344961995898828,0.0021806230014659598,-0.0064411449424932946,0.008733579929713662,0.9863683395587897
2012-09-12,1,0.0017282698173822285,0.0019622581711212376,-0.0064411449424932946,0.008733579929713662,0.9866374007895453
2012-09-14,1,0.002034832160793508,0.0023000601810808383,-0.0064411449424932946,0.005311309524694174,0.9872379471639675
2012-09-18,1,0.002549015392810677,0.0028985603355989246,-0.0064411449424932946,0.0038122734512225894,0.9879243549315406
2012-09-20,1,0.0028412455811299576,0.0032387720545193504,-0.0064411449424932946,0.0009101802694416491,0.9883534705431507
2012-09-24,1,0.0027394641980185864,0.0031109745562903817,-0.006588414206072204,-0.0002752356572982368,0.9877314270036417
2012-09-26,1,0.002057646117843249,0.0023075777184981467,-0.007399746514913262,-0.0002752356572982368,0.9876963039714957
2012-09-28,1,0.002025151680570103,0.0022632077712794463,-0.007399746514913262,-0.0002752356572982368,0.98762534511104
2012-10-02,1,0.0013835205806009834,0.0015272636047773721,-0.0065438408964353665,-0.0002752356572982368,0.9937411755477572
2012-10-04,1,0.0015402987873655391,0.001701976344478607,-0.007399746514913262,-0.0002752356572982368,0.9931723424720517
2012-10-08,1,0.0005710932826499828,0.0005722880134814686,-0.005940756424429307,0.0007572881878859023,0.9941017240000689
2012-10-10,1,5.2909435231753054e-05,0.0001274597744039234,-0.005405526197202264,0.0007572881878859023,0.9944739797460371
2012-10-12,1,0.00033235328991931617,0.000359712051177458,-0.006335268437435196,0.0007572881878859023,0.9938508020005458
2012-10-16,1,4.2290142401892446e-05,0.00010413610049244928,-0.008620916111948247,0.0004796068995547874,0.9928800808077592
2012-10-18,1,0.00038038795283856807,0.00041093526766265573,-0.008620916111948247,0.0034996797458217896,0.9919081666813199
2012-10-22,-1,-0.00038087026987373637,-0.0002338485255945588,-0.008620916111948247,0.0034996797458217896,0.9921866617327672
2012-10-24,-1,-0.0015104918792064324,-0.0012025548986972323,-0.006118620091364524,0.004920119417972226,0.992789795557244
2012-10-26,-1,-0.0009813197693796084,-0.0007563157913468156,-0.008620916111948247,0.005776147087505185,0.9917368247583868
2012-11-01,-1,-0.0006613091446891974,-0.00048314863170980575,-0.008620916111948247,0.004744102942416846,0.9916912696624758
2012-11-05,-1,-0.000576722143171283,-0.00041336714325977393,-0.008480278354145186,0.004369260364795884,0.9922953457721542
2012-11-07,-1,-0.0008668373775131557,-0.0006772988690778902,-0.008480278354145186,0.004369260364795884,0.9924030681698892
2012-11-09,-1,-0.0010631126502838777,-0.0008556945856080107,-0.008480278354145186,0.005573554544002117,0.9918880260369961
2012-11-13,0,0.0,0.0,-0.005941938105289605,0.007559532068976685,0.9917812110758848
2012-11-15,0,0.0,0.0,-0.004492682390869572,0.007559532068976685,0.992761332678358
2012-11-19,0,0.0,0.0,-0.005353079558917975,0.004369260364795884,0.9938446014305338
2012-11-21,0,0.0,0.0,-0.0036565734669547793,0.004760312244511987,0.9943077890240886
2012-11-26,1,0.00020826944981557375,0.0002495836879186379,-0.004155853252039022,0.004369260364795884,0.9942339626158058
2012-11-28,-1,-4.6861235211061895e-05,-2.552312973604826e-05,-0.004155853252039022,0.0034040623289309417,0.9948060864471691
2012-11-30,1,9.138203561845113e-05,0.0001255782262496891,-0.004492931677501669,0.002542426006632082,0.9946917144686155
2012-12-04,1,0.00035513906257390507,0.0003647402893994522,-0.003606154187430148,0.0030161903306913608,0.9928298217341983
2012-12-06,-1,-0.0003785708008594188,-0.00037618390645102496,-0.0034566360526323385,0.004068209292968173,0.993049317970959
2012-12-10,-1,-0.00011487806470846445,-0.00010131532342607882,-0.0034566360526323385,0.004068209292968173,0.9931441946189633
2012-12-12,1,0.0010901385061243335,0.0012473470726150804,-0.003117276026352915,0.004273771470059934,0.9930729596502942
2012-12-14,-1,-0.0010146879291693237,-0.0008695967092703051,-0.003117276026352915,0.005639098178049303,0.9925886581044475
2012-12-18,-1,-0.00028874711055929556,-0.00018569110451133978,-0.0016340820718587878,0.007733772701117359,0.9923815877361178
2012-12-20,1,0.0014134909270748955,0.0015183658928001262,-0.003117276026352915,0.007733772701117359,0.9919965523052662
2012-12-24,-1,-0.00029693341244932403,-0.00028627102827158185,-0.0011390437256532304,0.008351537416063029,0.9919636651886679
2012-12-27,-1,-0.0012020740565963268,-0.0010620648562914314,0.0002533597428294701,0.008351537416063029,0.9920157925609772
2012-12-31,-1,-0.0007504945867353467,-0.0007391782601385271,0.0002533597428294701,0.008351537416063029,0.9925172163633962
2013-01-03,1,0.0006070072143224124,0.0007982944336918277,0.0007175803569942015,0.008351537416063029,0.9949120512883628
2013-01-07,1,0.0006458695048602365,0.000855230601153483,0.0007175803569942015,0.008351537416063029,0.9945599414490957
2013-01-09,1,0.001642145595040598,0.001959329671835968,0.0007175803569942015,0.0051072585254573165,0.9954831846360478
2013-01-11,1,0.0018503470529555649,0.0021883155722349423,-0.0007193278273588884,0.002875540505905059,0.9952504821822807
2013-01-15,1,0.0018268932866258667,0.002198737802406498,-0.001978074086768527,0.0025153361283063243,0.995332381406183
2013-01-17,1,0.0028159730888010007,0.0031634501433263334,-0.002790198248136637,0.0022505328564094954,0.9927317082922651
2013-01-22,1,0.002638722370116804,0.0030310598106360895,-0.001978074086768527,0.00254579268208697,0.9937199424674977
2013-01-24,1,0.001854035387352119,0.002157851043210777,-0.002790198248136637,0.0025153361283063243,0.9937161363300148
2013-01-28,1,0.0018297257644031475,0.002096171008997128,-0.004637239285215714,0.00254579268208697,0.9925748588471451
2013-01-30,1,0.002066057328593506,0.002345809703046494,-0.0038341791163970197,0.003358736643221877,0.9918522377519904
2013-02-01,1,0.0025066382752729505,0.0028240607418699177,-0.0038341791163970197,0.005771715240311543,0.9915370014770405
2013-02-05,0,0.0,0.0,-0.0020288168530406387,0.006646116998406465,0.9914291661008945
2013-02-07,0,0.0,0.0,-0.0020288168530406387,0.006646116998406465,0.9914839588668765
2013-02-11,1,0.00150324458080114,0.001627368619800621,-0.0032039866786309386,0.006646116998406465,0.9916595932726018
2013-02-13,0,0.0,0.0,-0.0027102920064745054,0.008345211724596988,0.9910460364219834
2013-02-15,0,0.0,0.0,-0.0036914576468390723,0.008345211724596988,0.9930360727315517
2013-02-20,1,0.002556170876996468,0.0029405614705900382,-0.0036914576468390723,0.008403854394932294,0.9931189102770109
2013-02-22,1,0.002246843448674306,0.002584279740732844,-0.0036914576468390723,0.009999960875722495,0.991668790376119
2013-02-26,1,0.0023764396016021545,0.0027042801123216362,-0.0006169035924513708,0.009999960875722495,0.9923471132728294
2013-02-28,1,0.003221907800180233,0.0036838137671166005,-0.0006169035924513708,0.008976318951706076,0.9929936923640629
2013-03-04,1,0.004072643651945106,0.004638630041194358,-0.0006169035924513708,0.008323761287378805,0.9935018424620712
2013-03-06,1,0.003895201793730364,0.004400599043816962,-0.0036914576468390723,0.006008103404526351,0.9926582147092117
2013-03-08,1,0.0036019985437686667,0.004074666857319244,-0.004287404289359811,0.006008103404526351,0.992452520886027
2013-03-12,1,0.0030589304498211635,0.0034490335064741827,-0.0013774990337154633,0.006008103404526351,0.9933039859384035
2013-03-14,1,0.0032588807665827864,0.0036663628712370186,-0.0013774990337154633,0.005431483954007404,0.9934496116917219
2013-03-18,1,0.002891017478896584,0.003266291040724855,-0.00041345340764792945,0.007166367492595748,0.9928320107651449
2013-03-20,1,0.0029564684105523728,0.0033115737289954325,-0.0016303320021864138,0.007166367492595748,0.99161892325567
2013-03-22,0,0.0,0.0,-0.001759750438359603,0.007166367492595748,0.9901351488726664
2013-03-26,0,0.0,0.0,-0.0058507484666932025,0.007166367492595748,0.9899266593984453
2013-03-28,1,0.0042474590456865495,0.004739506038039493,-0.0058507484666932025,0.006690572531124113,0.9900643436470083
2013-04-02,1,0.0039940007933476785,0.004421681912105544,-0.0060963284125238664,0.006690572531124113,0.9896905302123146
2013-04-04,1,0.0032934311987162686,0.0036084871346477128,-0.005130766410334291,0.006690572531124113,0.9906349175092976
2013-04-08,1,0.002869226890898983,0.003109975754416545,-0.005130766410334291,0.007592208119683901,0.9898807566625416
2013-04-10,1,0.002553758862681065,0.002733050204339829,-0.006978239407003799,0.008607461311173424,0.9889061369375947
2013-04-12,1,0.002452360661587003,0.002569035216833987,-0.011193072583337953,0.008607461311173424,0.988450144641551
2013-04-16,1,0.0024521443477139694,0.00262639842032927,-0.006781290748276341,0.008607461311173424,0.9891358351378884
2013-04-18,1,0.0018019978808282,0.0018591276934886096,-0.005130766410334291,0.008726615229890228,0.9904010196941895
2013-04-22,1,0.003204111184683226,0.0034432670606477653,-0.006781290748276341,0.0073314637287625545,0.9916846578286842
2013-04-24,1,0.0030178183170878163,0.0032350880899269224,-0.004185015520798377,0.0073314637287625545,0.9916372475201762
2013-04-26,1,0.0029557908100077664,0.0031663593023155074,-0.009473305318353544,0.007200339871861166,0.9905949604508272
2013-04-30,1,0.0025262052399469513,0.002666665466199384,-0.012147122977671126,0.008726615229890228,0.98903848091187
2013-05-02,1,0.0019048198442525748,0.001962802200013926,-0.0159493890304541,0.008726615229890228,0.9878786927185448
2013-05-06,1,0.0017177636413838622,0.0017714094295195988,-0.012147122977671126,0.008464924332990143,0.9885780744734787
2013-05-08,1,0.001414871429194233,0.001424240643268839,-0.009473305318353544,0.007318547284599231,0.9891667415824094
2013-05-10,1,0.0009329962035909034,0.0009857748972084404,-0.009068553313441464,0.009180404730297145,0.9884561777722989
2013-05-14,1,0.0011491958214754684,0.0011886898182852882,-0.009139544680792745,0.007782962553600451,0.9883817550226255
2013-05-16,1,0.0013065014432278369,0.0013292587498593307,-0.009139544680792745,0.007782962553600451,0.9879142608007839
2013-05-20,1,0.00021117617481039921,0.00038971280328218335,-0.008989362905384988,0.009280248907169997,0.9882484913410874
2013-05-22,1,0.0007545343015067842,0.0008782670301532044,-0.011282135856535959,0.007782962553600451,0.9860195914830546
2013-05-24,0,-0.00014745541717305056,7.388632965279443e-05,-0.009139544680792745,0.009280248907169997,0.9863495366764875
2013-05-29,1,2.3938057847248896e-05,0.00014861632819828725,-0.0077243863769676825,0.00823212813892211,0.9879295004682789
2013-05-31,0,0.0,0.0,-0.0077243863769676825,0.00921430666231837,0.9876332993600615
2013-06-04,0,0.0,0.0,-0.009118833325085805,0.011523953886793815,0.987000419344136
2013-06-06,0,0.0,0.0,-0.009118833325085805,0.011523953886793815,0.9867833464104778
2013-06-10,0,0.0,0.0,-0.0077243863769676825,0.010164888008541475,0.9876462640535025
2013-06-12,0,0.0,0.0,-0.0070317384388955,0.011523953886793815,0.9865607401508255
2013-06-14,0,0.0,0.0,-0.0070317384388955,0.010164888008541475,0.9869508085628798
2013-06-18,-1,-0.00035649411170868023,-0.0002595591640751796,-0.007782865429317218,0.010164888008541475,0.9865958952344261
2013-06-20,-1,-0.0022115394682545235,-0.001897413250737283,-0.006183971933283068,0.010164888008541475,0.9892644821629297
2013-06-24,-1,-0.0019727193900985172,-0.001683087029573393,-0.002264026708823956,0.010164888008541475,0.9897656540642448
2013-06-26,-1,-0.0017757169290892878,-0.001527847766455977,-0.006183971933283068,0.010558681768384608,0.9893866770626859
2013-06-28,-1,-0.002495030164126914,-0.0021423477455660145,-0.002264026708823956,0.011373680329584471,0.9897395993936197
2013-07-02,-1,-0.0024400288101869543,-0.0021008861708012583,-0.002264026708823956,0.010324982841265621,0.9898911999720865
2013-07-05,-1,-0.0026607032200713036,-0.002282859414122062,-1.6218729854679053e-05,0.011373680329584471,0.989182967625185
2013-07-09,-1,-0.0023887057244714382,-0.0020366275171370346,-0.0010862356214705383,0.011373680329584471,0.9896067356490117
2013-07-11,-1,-0.002300344052251655,-0.001941938869751816,-0.005474077383671533,0.011373680329584471,0.9886004602239196
2013-07-15,-1,-0.002231989055797936,-0.0019105181614034162,-0.00878212457143003,0.011373680329584471,0.9881832260168043
2013-07-17,-1,-0.0020287490119218154,-0.0017144921920775238,-0.00878212457143003,0.008199700323156187,0.9887330850197918
2013-07-19,-1,-0.0018167585226101658,-0.0015343479108743533,-0.010158674450449323,0.008199700323156187,0.9884245840243564
2013-07-23,-1,-0.0013279090659528707,-0.0011417010070731122,-0.010669324700787273,0.007127358863497074,0.9885441089454028
2013-07-25,-1,-0.0009780301541772553,-0.000866457798532803,-0.010669324700787273,0.007127358863497074,0.9881913984867341
2013-07-29,-1,-0.00045777476131296816,-0.00041104657523291553,-0.013946362784611031,0.007076796039887843,0.987640495649076
2013-07-31,-1,-0.0008570905421416237,-0.0007707240109178177,-0.010669324700787273,0.006473690440039001,0.9886859461990232
2013-08-02,-1,-0.0006056837591811776,-0.0005285049728752364,-0.010669324700787273,0.0034290777270033572,0.989466480679589
2013-08-06,-1,-0.0005050649038724334,-0.0004570263336818488,-0.010669324700787273,0.004161992586191554,0.9894534667514261
2013-08-08,-1,-4.50203028244046e-05,-3.910106314278342e-05,-0.00895234132154268,0.004161992586191554,0.992004102729503
2013-08-12,-1,-0.0004544068717623667,-0.00041047190265724017,-0.006922874344886162,0.005056152243591608,0.9929083664483902
2013-08-14,-1,-0.00032798289405944724,-0.0003136354740365774,-0.005348852089227904,0.005056152243591608,0.9935111187410254
2013-08-16,-1,-0.0005959414599864705,-0.0005954123478217618,-0.0028209676583268667,0.0066481375091668,0.993464116278461
2013-08-20,-1,-0.0006022377995259828,-0.0005842971906576305,-0.0012954334058887754,0.007318980482336492,0.992694694153404
2013-08-22,-1,-0.00011138991080284288,-2.4564430636926974e-05,-0.0012954334058887754,0.0066481375091668,0.9928908523415918
2013-08-26,-1,-0.0009279155088078909,-0.0008717098827162749,-0.0012954334058887754,0.006438629514811509,0.9932462311734855
2013-08-28,-1,-0.0012129278502459844,-0.0011153501353672504,-0.0012954334058887754,0.006438629514811509,0.9930852316689052
2013-08-30,-1,-0.0009560049145985821,-0.0008963015509879155,-0.004170778492299363,0.006438629514811509,0.9927180840442668
2013-09-04,-1,-0.0004594617343555115,-0.00044199575449561067,-0.0056088674377761175,0.006438629514811509,0.9920337293879868
2013-09-06,-1,-0.0002821320737654889,-0.00023853294480808822,-0.0056088674377761175,0.00682560894841178,0.9918983331596977
2013-09-10,-1,-0.0005431286631302425,-0.0005227277357868498,-0.0056088674377761175,0.00682560894841178,0.9920482949650209
2013-09-12,1,0.0006235724564924206,0.0008637668577277539,-0.0056088674377761175,0.007050635604733764,0.9913868466011614
2013-09-16,1,0.001066739771348232,0.001366471609749942,-0.00757122169863872,0.0032889931518985337,0.9912201439127353
2013-09-18,1,0.0019718713257403696,0.0023995025099275754,-0.00757122169863872,0.0019524896314163402,0.9904141112651073
2013-09-20,1,0.0016473908915363193,0.002012439942686625,-0.00575365464377557,0.0035861543631805696,0.9904594288734682
2013-09-24,1,0.0012733354769658008,0.001590061199276742,-0.005365750044951672,0.006335830005797192,0.9901766874218955
2013-09-26,1,0.001199498944257521,0.0014812952930014641,-0.005365750044951672,0.006335830005797192,0.9900338032128185
2013-09-30,1,0.0003959748132341682,0.0005642190375145717,-0.004060990967341681,0.00780747241227632,0.9906374817424767
2013-10-02,-1,-0.00044846388198241773,-0.00041540021653379937,-0.0033275559336010336,0.009992207943761471,0.9911644493432344
2013-10-04,1,4.0635244953620504e-05,0.00017458603040545182,-0.0034081823003340632,0.007645524642915946,0.9915869912994236
2013-10-08,1,5.94548503021153e-05,0.000213275427857063,-0.004060990967341681,0.007645524642915946,0.9916031322036841
2013-10-10,1,0.00016497219491665881,0.0002833318491175643,-0.004646909273362543,0.005445637059275102,0.99066405306552
2013-10-14,1,0.0003236260376399357,0.0005023063190041712,-0.004060990967341681,0.007645524642915946,0.9901882371625845
2013-10-16,1,0.0006390403991085422,0.0008112536660472775,-0.0024647895484799735,0.007645524642915946,0.9904562744628004
2013-10-18,1,0.0010027628060332626,0.00116302969496703,-0.003542582107697143,0.007645524642915946,0.9905394133040243
2013-10-22,1,0.0014231140170720294,0.0015968087680220768,-0.004646909273362543,0.004900553339732452,0.9909934265433372
2013-10-24,1,0.0015522377993281052,0.0017382857715703783,-0.005197212181639722,0.007645524642915946,0.9905395042442289
2013-10-28,1,0.0015686289306277368,0.001735234475935516,-0.005916178451139621,0.003847772997049888,0.9903179986953413
2013-10-30,1,0.0017337190143792978,0.0019394188160916793,-0.005916178451139621,0.004074445748909096,0.9904744271648122
2013-11-01,1,0.0015105425503435241,0.0016743998577737425,-0.006882416770069478,0.004074445748909096,0.990114109995435
2013-11-05,1,0.0014247159693726822,0.0016227007605180651,-0.006882416770069478,0.010790641496954858,0.9894671844240548
2013-11-07,1,8.758332183686387e-05,0.00015535481449777128,-0.004120334796520931,0.011624833739601822,0.9902662771254468
2013-11-11,-1,-0.0014103464656832535,-0.001151369909709149,-0.006882416770069478,0.010790641496954858,0.9901328341999711
2013-11-13,-1,-0.0003233339544627648,-0.00021406560615510678,-0.006882416770069478,0.008935458390335058,0.9914325662606802
2013-11-15,1,0.0003552139338926587,0.00036903504020909894,-0.006882416770069478,0.004927781681206696,0.9925731888340898
2013-11-19,-1,-0.0005843717011534573,-0.00042821698501319875,-0.0045745745155122385,0.008935458390335058,0.9919120696758158
2013-11-21,-1,-0.0001688967727123368,-7.680288696054966e-05,-0.004384940850582723,0.007310656618073445,0.9921789594939312
2013-11-25,-1,-0.0006453691457653489,-0.0004910791604080668,-0.003157207316156047,0.007310656618073445,0.9924562148151442
2013-11-27,0,-3.288388022120535e-05,3.436393426492341e-05,-0.003157207316156047,0.005846883616085777,0.9928550006920139
2013-12-02,1,9.768348143890843e-05,0.00016614399675243108,-0.0007335848257440115,0.00646911641421773,0.9931303440421756
2013-12-04,1,0.0007635109469520723,0.0007723458664652754,-0.003157207316156047,0.004997415020334342,0.993549800019716
2013-12-06,1,0.0014595808434209046,0.0015848752517439745,-0.004384940850582723,0.004997415020334342,0.9937795094946372
2013-12-10,1,0.00048795291271191743,0.0004931017698093058,-0.0020263463366007755,0.005679721417414506,0.9947309278284154
2013-12-12,1,0.0005835310117330925,0.0006292050966585418,-0.0022492143497807766,0.00646911641421773,0.9934915180118203
2013-12-16,1,0.0003986229863266017,0.00046210167347743964,-0.0004309205036189213,0.007255193814962833,0.9930587038539165
2013-12-18,1,0.001655071298561522,0.001992618625560421,-0.0028083438446674484,0.00646911641421773,0.9935634502749643
2013-12-20,1,0.0011646574254529848,0.0012857187703648044,-0.0028755041058432748,0.005836868353699543,0.992911883486418
2013-12-24,1,0.0015769268965199173,0.0017906277426569164,-0.007899493564529233,0.005836868353699543,0.9916534345955519
2013-12-27,1,0.0017153341130896277,0.001971018750217811,-0.007899493564529233,0.005836868353699543,0.9916780148360338
2013-12-31,1,0.0025963644354093235,0.0029821308096284298,-0.012924037242107562,0.004098210521762644,0.990365376415977
2014-01-03,1,0.00155999714117535,0.001757255685827362,-0.013643730906500694,0.004098210521762644,0.9902213812887379
2014-01-07,1,0.001345275155834231,0.0014822214131079404,-0.013643730906500694,0.002767040775271352,0.9907700140959791
2014-01-09,1,0.0016196709961423766,0.0017510871361007174,-0.013643730906500694,0.004098210521762644,0.9903002394716267
2014-01-13,1,0.0010623864293169915,0.0011009439626544263,-0.007023160299773926,0.005043645000573548,0.9914548252834208
2014-01-15,1,0.0016230246542232765,0.0017464026919474529,-0.007023160299773926,0.003885478944259192,0.9906187426976808
2014-01-17,1,0.0007588324348184543,0.000790868188985246,-0.002927247128442366,0.003885478944259192,0.991356744677199
2014-01-22,-1,-0.00015348358191194202,-1.6322386521322907e-06,-0.002123055759434721,0.005065628317744338,0.9921763910970638
2014-01-24,-1,-0.0010376590107662792,-0.0007793828962137957,-0.002123055759434721,0.005065628317744338,0.992808673916019
2014-01-28,-1,-0.0008812866656564664,-0.0006450923726907079,-0.002927247128442366,0.005065628317744338,0.9924516487463441
2014-01-30,-1,-0.00157340248457988,-0.0012645053478184754,-0.002123055759434721,0.005430633352873999,0.9930259177161266
2014-02-03,-1,-0.002666602598616419,-0.002239722006654947,-0.002073591842771917,0.005932709432304799,0.9925465331020235
2014-02-05,-1,-0.0024910866572609705,-0.002102349787957752,-0.00117871420230804,0.006574545288122743,0.9918425866387846
2014-02-07,-1,-0.0012591374812601546,-0.0010447897068919442,-0.00117871420230804,0.005742918239294604,0.9934296705157664
2014-02-11,-1,-0.00020281619492309283,-0.00017145891279533415,-0.002073591842771917,0.005421681765383179,0.9940760952850191
2014-02-13,1,0.0007356415200545763,0.0007887769384162816,-0.0036568869535871665,0.003755167410462243,0.9944769007169018
2014-02-18,1,0.0006717071213772146,0.0006765496645620258,-0.0036568869535871665,0.004614101647064166,0.9944387986482485
2014-02-20,1,0.0007787636248819278,0.0008052029094010718,-0.005605002184366597,0.0035106437586952905,0.99424745202909
2014-02-24,1,0.0002969626112746613,0.0003657783236148829,-0.006885907192196999,0.0035106437586952905,0.994141112296091
2014-02-26,-1,-0.0009154760303298956,-0.0006500383871015567,-0.004535506695379518,0.004614101647064166,0.9942048988574387
2014-02-28,-1,-0.000652710435950428,-0.0004203431088801923,-0.004535506695379518,0.004673205724469526,0.9941659056944159
2014-03-04,-1,-0.0007846684437535207,-0.0005158884362545721,-0.0035733400619559815,0.004673205724469526,0.9945831166035843
2014-03-06,1,0.0005191746489279611,0.000613133316205999,-0.0039196912578201674,0.004365200439336912,0.9950367909149066
2014-03-10,-1,-0.0002200436598963927,-7.132764503887902e-06,-0.0067780238704679705,0.0035058417068060737,0.9946776650711402
2014-03-12,1,0.0001397624640596537,0.00028544778543856616,-0.0067780238704679705,0.004673205724469526,0.993852222091678
2014-03-14,0,-3.1462920039543524e-05,6.649345393145719e-05,-0.006677913652091504,0.004673205724469526,0.9938431967638294
2014-03-18,1,0.0007911635416329493,0.0008238103207479666,-0.006677913652091504,0.004658799568801875,0.9935517259047586
2014-03-20,1,0.0005225714819199641,0.0005269654992804296,-0.005790203829580157,0.006119195994025099,0.9931498039304156
2014-03-24,0,-3.742602114976159e-05,7.1666012569341524e-06,-0.0046004280508595355,0.007344723175789856,0.9932334268958516
2014-03-26,1,0.0003014606176953527,0.0003112854565117642,-0.0046004280508595355,0.00596251217345267,0.9937587489293305
2014-03-28,1,0.000356795781902505,0.0003569628008586194,-0.0046004280508595355,0.007344723175789856,0.9932072144506009
2014-04-01,1,0.0006822722280021182,0.0007052604348498508,-0.005790203829580157,0.005855653175589858,0.9933144971328162
2014-04-03,-1,-0.0005614316491202336,-0.0003501128771069694,-0.005790203829580157,0.005855653175589858,0.9933480248324035
2014-04-07,-1,-0.0009146338772478858,-0.0006923378361556106,-0.004536311166212359,0.005855653175589858,0.9932549775006866
2014-04-09,1,0.00025093650683703474,0.0002568557555868009,-0.005853232833748904,0.0044131999124256294,0.9899686116493186
2014-04-11,-1,-6.245286535218531e-05,-5.8467279038998614e-05,-0.004536311166212359,0.004726753131846705,0.9901339902392609
2014-04-15,-1,-0.0003606611300855054,-0.00031752069745646206,-0.004808738630679165,0.005787815460207909,0.9899063612358469
2014-04-17,1,0.00010420316831110894,0.00012716752781993026,-0.006987869857646429,0.005787815460207909,0.9900596488666759
2014-04-22,1,0.00029144868540375586,0.00032655720179069163,-0.006987869857646429,0.004726753131846705,0.9903877950412013
2014-04-24,1,0.0007854469721288795,0.000894968904009846,-0.008361151374639992,0.004776884509202003,0.9900552416659686
2014-04-28,1,0.0009587415714177646,0.0010659813480807015,-0.008361151374639992,0.0046493729469844446,0.990526367971635
2014-04-30,1,0.0012567224567350535,0.0014092339544676934,-0.006987869857646429,0.0046493729469844446,0.9908787628282517
2014-05-02,1,0.0014699404038090546,0.001712251866569927,-0.006987869857646429,0.0046493729469844446,0.991045203013587
2014-05-06,1,0.0005595697742089037,0.0006283485259529223,-0.004250507071152672,0.005229515271815853,0.9911776033110798
2014-05-08,1,0.0005079169175765132,0.0005525822292019086,-0.001872033517469185,0.0046493729469844446,0.9954981924684057
2014-05-12,1,0.0002914316407271678,0.0003009144872671718,-0.0036455497838035365,0.004265962054548346,0.99548697592212
2014-05-14,1,0.0006192513172584967,0.0007172039040279933,-0.004026460498790386,0.003975329298744515,0.9955947771323335
2014-05-16,1,0.0005604756527054712,0.0006727210132836704,-0.004026460498790386,0.003807082846715181,0.9959855762633945
2014-05-20,1,0.0005372905106950409,0.0006110974681273361,-0.004026460498790386,0.003975329298744515,0.9958351086425455
2014-05-22,1,0.0004997103497769694,0.0005775426714429898,-0.002191498033833902,0.003807082846715181,0.9964148418224099
2014-05-27,1,0.0008165748707798912,0.0009746681044690226,-0.004026460498790386,0.003739564130553359,0.9962226220907067
2014-05-29,1,0.0005705470217530501,0.0006635522268653772,-0.004026460498790386,0.003807082846715181,0.9956274612902938
2014-06-02,1,0.0008549680162935938,0.0009899793843450588,-0.004474011749453112,0.003807082846715181,0.9950618264256019
2014-06-04,1,0.0014649568684048059,0.0017139254013699761,-0.004474011749453112,0.003354168056554174,0.9950428922711888
2014-06-06,1,0.0013674424849652923,0.0015800957534118192,-0.004474011749453112,0.003354168056554174,0.9950464105362719
2014-06-10,1,0.0011680448960458079,0.001378907275282603,-0.0028064446735032206,0.0035072731975002145,0.9955996674386961
2014-06-12,1,0.0005991793207699618,0.0007129038394470519,-0.0016576922871134338,0.004085335961282404,0.9956933028705542
2014-06-16,1,0.00020898388307133832,0.0002411597932572977,-0.0016576922871134338,0.00400410369250817,0.995329631801916
2014-06-18,0,-1.3609545899642315e-05,3.19600494754348e-05,-0.001983097887278537,0.0034801957745754695,0.9955001043358855
2014-06-20,0,-2.7573716631253527e-05,3.0910382789363507e-06,-0.0027962618147257573,0.004461266844805119,0.9946769960332351
2014-06-24,-1,-0.0009473619895531797,-0.000772604663116575,-0.002361950255469434,0.006431633700072305,0.9944510930544809
2014-06-26,-1,-0.0011675302889271751,-0.0009162251179490776,-0.003528252957215213,0.004300807978775543,0.9949843921943236
2014-06-30,-1,-0.001260225567062137,-0.001005610318427099,-0.003528252957215213,0.0034801957745754695,0.9954808181622372
2014-07-02,-1,-0.0006100570175113561,-0.00048065233730850153,-0.005466662840958715,0.002043446073452465,0.9934794978745116
2014-07-07,-1,-0.0005438945825068158,-0.00043442080730187203,-0.005466662840958715,0.0034801957745754695,0.9929363987136638
2014-07-09,1,1.990664902497621e-05,2.940920366901929e-05,-0.006370196541785991,0.003388274076258356,0.9920683420006926
2014-07-11,1,0.00044364242976676694,0.000487471461555617,-0.009239320251621611,0.003388274076258356,0.9912366349162027
2014-07-15,1,0.000254219524286267,0.00029293857346494027,-0.006370196541785991,0.004045063028014085,0.9915067004687669
2014-07-17,1,0.00012599808084658767,0.00014742145198750847,-0.006370196541785991,0.004301205709953145,0.9914397769302861
2014-07-21,1,6.408045060014508e-05,7.63749879172813e-05,-0.006370196541785991,0.004301205709953145,0.991883655046988
2014-07-23,1,0.0001093069056305561,0.000109674749937139,-0.0062065813523918744,0.0036164075221251342,0.9922596608194405
2014-07-25,1,8.017708040986297e-05,8.916792220895504e-05,-0.00840019813210235,0.0036164075221251342,0.9919697633318497
2014-07-29,1,0.0001589149673498586,0.0001904939177590675,-0.00840019813210235,0.004550084340046006,0.9917827741290579
2014-07-31,-1,-0.0017657588829133807,-0.0015785531167923283,-0.0025859005631137773,0.005351507071364274,0.9937837146376709
2014-08-04,-1,-0.0014357959733670247,-0.0012812754463582348,-0.004180585616989061,0.00391169024569604,0.9939739816268383
2014-08-06,-1,-0.0023911004953019867,-0.002098217986408022,-0.0027650456693766147,0.00391169024569604,0.994244974551393
2014-08-08,-1,-0.0025212385460489633,-0.002223637103495253,-0.0027650456693766147,0.00391169024569604,0.994828322288804
2014-08-12,-1,-0.002392431806132983,-0.002105591987790565,-0.0027650456693766147,0.00391169024569604,0.9947501849148394
2014-08-14,-1,-0.0026854484217923814,-0.0023605408926463713,-0.004209994003706031,0.004338422885578794,0.9941736755381981
2014-08-18,-1,-0.00231970684130353,-0.0020524521239120774,-0.004209994003706031,0.003758651735419386,0.994444266580449
2014-08-20,-1,-0.0020428136408635815,-0.0018174739156667547,-0.004675677518399281,0.004338422885578794,0.9942121779241899
2014-08-22,-1,-0.0020728323536067196,-0.0018626411503850256,-0.005165595915932978,0.004338422885578794,0.993684355071395
2014-08-26,-1,-0.0019106005435643295,-0.0017208909367061164,-0.009291916187756294,0.004338422885578794,0.9927359710981892
2014-08-28,-1,-0.0018968348500207437,-0.0016775419676168103,-0.010629944788444243,0.0033891816172245295,0.9922548882594556
2014-09-02,-1,-0.0020815487341801038,-0.0018743630317343551,-0.009291916187756294,0.0033891816172245295,0.9923635734008386
2014-09-04,-1,-0.0026939663427362386,-0.00239142937823994,-0.010629944788444243,0.0033891816172245295,0.99208472473271
2014-09-08,-1,-0.0026883657766335147,-0.0024060520597540295,-0.009115493675663965,0.0044010071883712944,0.9917552541177886
2014-09-10,-1,-0.002337057973934592,-0.0021006767693690113,-0.011571034360055407,0.0044010071883712944,0.9909775488991016
2014-09-12,-1,-0.002219163284843448,-0.002021664987627703,-0.012195648941501646,0.0035766626171622002,0.9906722103213271
2014-09-16,-1,-0.001753132910629467,-0.0016147068274469656,-0.014651554234364058,0.0032408659378880904,0.9902142558588442
2014-09-18,-1,-0.0011265438301784714,-0.0011014368458608335,-0.015063583799759007,0.002201748789549391,0.9897575991886324
2014-09-22,-1,-0.0018762845860292128,-0.0017608743713996228,-0.014651554234364058,0.006175068521750949,0.989520057962117
2014-09-24,-1,-0.0016658188763642211,-0.0015495647351222875,-0.014651554234364058,0.009055416391033478,0.9893840047709122
2014-09-26,-1,-0.002394377420237045,-0.0022119048319663506,-0.009074280139010859,0.009055416391033478,0.9894882213618525
2014-09-30,-1,-0.002280229018520503,-0.0020625358797411956,-0.007725006652664314,0.010884660332859494,0.9884575349604675
2014-10-02,-1,-0.0027503100236027722,-0.002471938532108752,-0.006643698722506693,0.010884660332859494,0.9884530755963047
2014-10-06,-1,-0.0021476851548891027,-0.0019544451631083324,-0.006643698722506693,0.009976009862810577,0.9890083942733785
2014-10-08,-1,-0.0020363565992671958,-0.0018533007011241858,-0.006643698722506693,0.009976009862810577,0.9869319485447978
2014-10-10,-1,-0.003020478618379404,-0.0027324328824497087,-0.004337051111496003,0.011886808635795132,0.9867020479528548
2014-10-14,-1,-0.0037982798327915067,-0.0034184867942911087,-0.002443186764307324,0.011886808635795132,0.9867084477461174
2014-10-16,-1,-0.0043733660392189936,-0.0039395471799223754,0.0034918085291269227,0.011886808635795132,0.9859859274430688
2014-10-20,-1,-0.0031851589085931165,-0.0028984269873829826,0.0016753195636194777,0.009221502731393183,0.987899485366368
2014-10-22,-1,-0.0018905895572092677,-0.0017746788078732848,0.0016753195636194777,0.00903435229925861,0.9891373496715066
2014-10-24,-1,-0.000988603117427608,-0.000975895780112669,-0.0019018144186547993,0.00903435229925861,0.990007473910784
2014-10-28,0,-2.5351539573246064e-05,0.00012335081314001413,-0.002443186764307324,0.006982223977063524,0.991474308271464
2014-10-30,-1,-0.00028230007514324154,-0.000188369078538348,-0.0019018144186547993,0.00668778105134095,0.991632968900629
2014-11-03,-1,-0.0001860937717703405,-9.925416297148403e-05,-0.002589187016365956,0.00668778105134095,0.9916494943267943
2014-11-05,1,0.001041365192182955,0.0012902053212015933,-0.003659525256672205,0.005675339022372718,0.9946514533117705
2014-11-07,1,0.0016352407735308065,0.0019802897630387837,-0.004663903552217761,0.005221948689137985,0.995272559175055
2014-11-11,1,0.001666924266185307,0.002015304789689412,-0.005623460123461749,0.005675339022372718,0.994632445570872
2014-11-13,1,0.0018789935230756121,0.002236341730472608,-0.005717518102794857,0.005221948689137985,0.9936538377431414
2014-11-17,1,0.002362477150573382,0.0028007755670753426,-0.006730937209741562,0.003039414014632814,0.9919693268810478
2014-11-19,1,0.00292953505411126,0.0034400814378887593,-0.006730937209741562,0.0019343544216689893,0.9914700853625302
2014-11-21,1,0.0030104432691860084,0.0035472521469595633,-0.006730937209741562,0.005186656232746681,0.9910180510375186
2014-11-25,1,0.002852179934996128,0.0033707777348965873,-0.006730937209741562,0.005186656232746681,0.9915485396796677
2014-11-28,1,0.0032336117150728013,0.003805958285791497,-0.007845610707139431,0.0026210121717874834,0.990840020857075
2014-12-02,1,0.0031133618539147556,0.0036885704569513326,-0.011259660981697728,0.0026210121717874834,0.9899649547402747
2014-12-04,1,0.00260093219614957,0.0030925000374089056,-0.012490031260269091,0.003931450704210689,0.9897870711462553
2014-12-08,1,0.002443626364210578,0.002910058398264557,-0.012490031260269091,0.006113511266285107,0.9884637385555433
2014-12-10,1,0.0025862086391660556,0.0030898926501563085,-0.012079548390489915,0.007186880939213567,0.9883134521409921
2014-12-12,1,0.0017782995422141658,0.0021752105983079153,-0.01016296952043234,0.007186880939213567,0.9888610571020234
2014-12-16,1,0.0006357154122520068,0.0008822044901198167,-0.008778319434982411,0.007186880939213567,0.9904573039234935
2014-12-18,1,0.0011306980511306061,0.0014402897636717539,-0.008778319434982411,0.006758174290452277,0.9907400102592171
2014-12-22,1,0.0009072785046984871,0.0010566032590116352,-0.008778319434982411,0.0053704442604254575,0.9911329033418921
2014-12-24,1,0.0012176089441752564,0.0014341103121525047,-0.009769838913140688,0.0053704442604254575,0.9897467459068349
2014-12-29,1,0.00037634340304947553,0.00044341634012422097,-0.010223195502481311,0.0053704442604254575,0.9892984832261569
2014-12-31,-1,-0.0007293901745661802,-0.0006451977556392379,-0.010223195502481311,0.0053704442604254575,0.9900757903325659
2015-01-05,-1,-0.0007198834470724082,-0.0006470597086969312,-0.009769838913140688,0.009028721755452008,0.9902219070497809
2015-01-07,1,0.00012839606136941343,0.00016161468180029615,-0.009769838913140688,0.007094516090658013,0.9916588265452679
2015-01-09,1,0.0002923623337261448,0.0003675523802929919,-0.009675712742021461,0.004299459521006613,0.991986724498509
2015-01-13,-1,-0.00014445750394174078,-0.00011799262727915736,-0.009675712742021461,0.007094516090658013,0.9913957042443795
2015-01-15,-1,-0.0004457028139341561,-0.00041996546734837106,-0.009675712742021461,0.007094516090658013,0.990886884836558
2015-01-20,1,0.00015920232883880736,0.00022294062162472105,-0.009675712742021461,0.007094516090658013,0.9908215087144544
2015-01-22,1,0.0007842162780921655,0.000943986371189833,-0.009675712742021461,0.006564974899206069,0.9914466247732796
2015-01-26,-1,-0.0004743492713701066,-0.00044043829710131114,-0.005590334615468943,0.006564974899206069,0.9926994022576211
2015-01-28,-1,-0.0016142780921963914,-0.0014356162264215367,-0.00544863727416662,0.006564974899206069,0.9930533248809932
2015-01-30,-1,-0.002114825311211948,-0.0018721022685119443,-0.0023672316472129547,0.006564974899206069,0.9932464612572784
2015-02-03,-1,-0.0010002319812280444,-0.0009034696106471301,-0.005486277278824443,0.0035981037953795353,0.994387578447127
2015-02-05,-1,-0.0008848984800873254,-0.0007880909291449704,-0.005590334615468943,0.0021408183035118824,0.9929435345013886
2015-02-09,-1,-0.0011950740566226599,-0.0010627467641298187,-0.005507111371060542,0.00351992637104726,0.9920104933115523
2015-02-11,-1,-4.499925023452456e-05,-2.8761657485879053e-05,-0.005507111371060542,0.00286034446783267,0.9923639809270186
2015-02-13,-1,-0.00049736094468064,-0.00041889589436587603,-0.0059338537746919835,0.00286034446783267,0.9920095950448626
2015-02-18,-1,-0.00020506274463954712,-0.00017145982445356103,-0.007446894001587486,0.00286034446783267,0.9913186899119375
2015-02-20,-1,-0.000691495391513292,-0.0005640378797202786,-0.00961352348337414,0.0031507679804330716,0.9908420197692653
2015-02-24,-1,-0.0008035363518003322,-0.000653142806273783,-0.00961352348337414,0.00570773964965104,0.9897842579412346
2015-02-26,-1,-0.0013831015055970326,-0.0011467209145210315,-0.010132593632344564,0.005844386645266153,0.9883084646751437
2015-03-02,-1,-0.000978922905222028,-0.0008113614803909727,-0.010132593632344564,0.014078323586615977,0.986553165906622
2015-03-04,-1,-0.0014609624030213386,-0.001236955470689281,-0.01051811117220474,0.014078323586615977,0.9862153793114776
2015-03-06,-1,-0.0035444720964351944,-0.003032737092953665,-0.010132593632344564,0.014078323586615977,0.9867234488222463
2015-03-10,-1,-0.004915022902833273,-0.004205367396906376,-0.008682369101344416,0.014078323586615977,0.9871210321430846
2015-03-12,-1,-0.004918686791058708,-0.004168413443333402,-0.008682369101344416,0.011254861259423548,0.9878429403964059
2015-03-16,-1,-0.00469683364393721,-0.0040175010378511785,-0.005061882757725461,0.011254861259423548,0.9883020901665807
2015-03-18,-1,-0.003789961218015495,-0.0032650679810117384,-0.004605907184040752,0.010210866496309146,0.9896407452220399
2015-03-20,-1,-0.0036852933760972498,-0.0031942742656692856,-0.004605907184040752,0.010210866496309146,0.989804160715927
2015-03-24,-1,-0.0028130167161533135,-0.0024694871820828863,-0.004605907184040752,0.009343464954916647,0.9902339879886226
2015-03-26,-1,-0.002867427645059359,-0.0025140520925998186,-0.001409969933805227,0.008432123898683627,0.992075097347376
2015-03-30,-1,-0.0014615426121654736,-0.001283941598614562,-0.0014100805728566243,0.005840588990940875,0.9946632403778526
2015-04-01,-1,-0.0010088177293411473,-0.0009541120487963463,-0.0014100805728566243,0.006482682768463986,0.9926804042500734
2015-04-06,-1,-0.000122927382013594,-4.265382693790319e-05,-0.001584881746222635,0.0030777595277916465,0.9935910057371734
2015-04-08,1,0.0002647058652500063,0.00040009569007184314,-0.004605907184040752,0.0024493693287812156,0.9935560033887624
2015-04-10,1,0.0005692724462686284,0.0007687128004798444,-0.004605907184040752,0.006253913665031871,0.9923531500640663
2015-04-14,1,0.0007563745908347,0.0009923860012689203,-0.003689579445341041,0.004368743068000579,0.992564641180988
2015-04-16,1,0.0009930806649634447,0.001295483565383878,-0.0012794391666560647,0.007526204646529398,0.9920092237154939
2015-04-20,1,0.000771848623347108,0.0010447823852084471,-0.0012794391666560647,0.00865627244139462,0.9915446214176109
2015-04-22,1,0.0006019149644260492,0.0008450139793019464,-0.0006014625474530369,0.010037248324506743,0.9918481995776602
2015-04-24,1,0.0008894995397152605,0.0011949021522545118,-0.0029600148722089365,0.010037248324506743,0.991268223630561
2015-04-28,1,0.0008510855566134568,0.001139940636862518,-0.004036285928543569,0.010037248324506743,0.9908631781528291
2015-04-30,1,0.0016673024133498314,0.002042910994321446,-0.0029600148722089365,0.010037248324506743,0.9922812425995164
2015-05-04,1,0.0019661851648273086,0.0023748491190176495,-0.004036285928543569,0.010037248324506743,0.9915288610107535
2015-05-06,1,0.001845932167439851,0.0022378425784439944,-0.004036285928543569,0.010037248324506743,0.991048550424587
2015-05-08,1,0.0021112473756576215,0.0024999507087239614,-0.006446223844870438,0.006742817862933193,0.9914273327759676
2015-05-12,1,0.0013585953308823263,0.0015683455821798142,-0.006446223844870438,0.006742817862933193,0.9914763135112782
2015-05-14,1,0.0021589464569295646,0.002498481237632472,-0.006446223844870438,0.005790432840757554,0.9924078423447327
2015-05-18,1,0.002385492925583843,0.0028002974487481543,-0.006446223844870438,0.005790432840757554,0.992300642833535
2015-05-20,1,0.0029513504926135968,0.0034472645991784614,-0.006446223844870438,0.004435440442065997,0.9925980123770607
2015-05-22,1,0.0024300780026805073,0.0028402326442037457,-0.0016171640393273282,0.004740299682491707,0.9933660518938248
2015-05-27,1,0.001845813718381102,0.00211819987051388,-0.0003073844294627498,0.0043463634891571495,0.9936632480565717
2015-05-29,1,0.0028142282749180113,0.0032077157571049463,-0.0003073844294627498,0.002976472082537013,0.9947310601639487
2015-06-02,1,0.002498494380366196,0.002891321642286591,-0.0003073844294627498,0.0038582590328480747,0.9954212324819006
2015-06-04,1,0.0021149836095033236,0.0024550290146674184,-0.0003073844294627498,0.0038582590328480747,0.9959079899145523
2015-06-08,1,0.0014668624792141295,0.001685888298256634,-0.0003073844294627498,0.0043463634891571495,0.9957059167982314
2015-06-10,1,0.0016107166644046887,0.0018438164374734627,-0.0020474448732461575,0.003206920065845751,0.9950910962837077
2015-06-12,1,0.001868048650918548,0.0021578639059641235,-0.0020474448732461575,0.004603978600937474,0.9949406851652839
2015-06-16,1,0.0022785204705696024,0.0026489689637502157,-0.0020474448732461575,0.004603978600937474,0.9950914282836214
2015-06-18,1,0.001806268315714894,0.002057556756611687,-0.0023955745812342614,0.00517112500550795,0.9944087438761933
2015-06-22,1,0.0014526542879856248,0.0016056950671392788,-0.0023982365916430165,0.006346633687691173,0.9942553697971261
2015-06-24,1,0.0012211231843721204,0.0013191557462943941,-0.0032736606042371016,0.006346633687691173,0.9940065411930651
2015-06-26,1,0.0015266702876597636,0.001701860190985482,-0.0032736606042371016,0.006346633687691173,0.9938706437899514
2015-06-30,1,0.0015377699579409623,0.0017241888893254676,-0.0023718039496633475,0.006800455898374992,0.9934731754790236
2015-07-02,1,0.001442017729762934,0.0015931554139005004,-0.0030808468339947304,0.006800455898374992,0.991456635640263
2015-07-07,1,0.0018669539720749771,0.002115490878108946,-0.0023718039496633475,0.006800455898374992,0.9921535270492777
2015-07-09,1,0.0016014408045165905,0.0018034890012879677,-0.0019070543305561584,0.008791110954785526,0.9917566039571949
2015-07-13,1,0.0018330525169441057,0.0020782950226941755,-0.0019664762091317154,0.008791110954785526,0.9910272007160578
2015-07-15,1,0.0015999510940062796,0.001813973723099281,-0.0019664762091317154,0.009804051158316422,0.9911405189131524
2015-07-17,1,0.0019696045129320946,0.0022334989851678787,-0.0023718039496633475,0.009603813804723419,0.9910236226812761
2015-07-21,1,0.0018929042756775506,0.0021286173193429464,-0.0030808468339947304,0.009603813804723419,0.9908376965224024
2015-07-23,1,0.0019473104673512088,0.0021986112207015227,-0.006348346200494943,0.009603813804723419,0.9887016109855523
2015-07-27,1,0.0017636934087805292,0.0019861294962888036,-0.012120218206960812,0.009603813804723419,0.9865044877441643
2015-07-29,1,0.0013562066335204824,0.0013673942486729306,-0.015088286513955863,0.009603813804723419,0.9856947691779603
2015-07-31,1,0.0022396541829826995,0.0023093768746611848,-0.015088286513955863,0.009603813804723419,0.9876364590990356
2015-08-04,1,0.00254857263643111,0.00266861796360166,-0.016163617370318194,0.009603813804723419,0.9855712118524389
2015-08-06,1,0.0029353539424383877,0.0030802983438159293,-0.016163617370318194,0.009603813804723419,0.9841423063802447
2015-08-10,1,0.002419215664540251,0.002513432998770855,-0.016166668254653273,0.009603813804723419,0.9841554649563818
2015-08-12,1,0.0021893417530171565,0.0022209442202323613,-0.018728454696321197,0.009574080095332227,0.9834678064762592
2015-08-14,1,0.00201820244307062,0.002028180316854254,-0.018728454696321197,0.008664483210676595,0.9837600800224519
2015-08-18,1,0.001610064640751301,0.0016522055779111808,-0.018728454696321197,0.010283454114004416,0.9836456623076248
2015-08-20,1,0.0007918958134696363,0.0008728537207495095,-0.016166668254653273,0.013902378880220069,0.9844127492831419
2015-08-24,-1,-0.0005981841415785596,-0.0003416040562124953,-0.015491906507774234,0.013902378880220069,0.9856265692215255
2015-08-26,-1,-0.0003548726173440214,-0.00015102515573575843,-0.01158399579462072,0.010283454114004416,0.9869357029735222
2015-08-28,1,9.735591883458896e-05,0.0002352837665967406,-0.016596073500913824,0.010915748907269998,0.9853618009863597
2015-09-01,-1,-0.0011478019657315355,-0.0008599466702967775,-0.01559999684794308,0.01582522570254261,0.9852502765172046
2015-09-03,1,0.00040262226599746396,0.0005131955217246079,-0.01559999684794308,0.010915748907269998,0.9860636029649947
2015-09-08,0,-9.813927672277449e-05,8.879000479185956e-05,-0.01100785898811764,0.01582522570254261,0.9859756024311198
2015-09-10,-1,-0.0007900416948168723,-0.0005048635034760504,-0.00894721584955791,0.016116955521109585,0.9857937859578143
2015-09-14,-1,-0.0011077330850025565,-0.0007728980791737166,-0.007332736539823654,0.016116955521109585,0.9861445566599814
2015-09-16,-1,-0.0007507238409430374,-0.0004509750752618581,-0.007332736539823654,0.01582522570254261,0.9868949521117537
2015-09-18,-1,-0.0010652882648149716,-0.000721942113657588,-0.0052065469666569995,0.016116955521109585,0.9873317549932199
2015-09-22,-1,-0.0008082427900791766,-0.0005485134495562355,-0.0052065469666569995,0.016116955521109585,0.9869909424154538
2015-09-24,-1,-0.0007222871360472321,-0.0004771338825242563,-0.006465599294455943,0.01740433879479611,0.9856046296211519
2015-09-28,-1,-0.0013226148473295687,-0.000993857352311368,-0.006465599294455943,0.01740433879479611,0.9871151284607848
2015-09-30,-1,-0.0004114154364461282,-0.00022813012944651763,-0.005081151102142526,0.01351349829149184,0.9888675199623016
2015-10-02,1,0.0007139152175212296,0.0007753905801596519,-0.005081151102142526,0.01045420559721748,0.9904740623653665
2015-10-06,1,0.001272597108676066,0.0013069918271767992,-0.0043842018575149305,0.006998122400877504,0.9913035488235749
2015-10-08,1,0.0020882462931785368,0.0022211670489382003,-0.005081151102142526,0.005473888936446285,0.9917678016719605
2015-10-12,1,0.001991374655510055,0.002135668787551553,-0.0069387905113524415,0.005473888936446285,0.9904832442633034
2015-10-14,1,0.0014380342667785558,0.0014806791293511391,-0.0069387905113524415,0.005473888936446285,0.9908060950762249
2015-10-16,1,0.002049339217779833,0.002164972757016457,-0.009280423992742223,0.0011263841275592158,0.9901072484506617
2015-10-20,1,0.002380736541464175,0.002603815850097189,-0.008542464767372374,0.0011263841275592158,0.990125533784383
2015-10-22,1,0.0027297947181612165,0.0029595293604119093,-0.008542464767372374,0.0028125738169847087,0.9912462982035648
2015-10-26,1,0.0023361520833542486,0.0024906524578794313,-0.009088337004529238,0.0024256724303726605,0.9913035882756132
2015-10-28,1,0.001760062036464114,0.0018154117644882646,-0.009088337004529238,0.0024256724303726605,0.9917836190969026
2015-10-30,1,0.0015459314297108272,0.001580411754094883,-0.010990257040354067,0.00334483235040072,0.9908834012165605
2015-11-03,1,0.0015350570231441388,0.00156606261338305,-0.010990257040354067,0.00334483235040072,0.9899747296580587
2015-11-05,1,0.0011201166883722437,0.0011360420222057692,-0.011721510800921582,0.006167667408659791,0.9871897544036616
2015-11-09,0,-1.2953353233915706e-05,0.00014035262871343602,-0.010424736885662237,0.006167667408659791,0.9885128439490906
2015-11-11,0,-2.112040397541943e-06,0.00014646028765385902,-0.010424736885662237,0.008458583837350483,0.9881026258102632
2015-11-13,-1,-0.0009303212447751578,-0.0006706475363521081,-0.010424736885662237,0.011817453332735359,0.9875072420985389
2015-11-17,-1,-0.000643867421052518,-0.000418218994730954,-0.010424736885662237,0.014121127845200582,0.9868723250400308
2015-11-19,-1,-0.00019663592820592902,-1.7252533964017902e-05,-0.011726924761727636,0.011817453332735359,0.986013806082659
2015-11-23,-1,-0.0004569294675144382,-0.00025909652228695403,-0.01065268371791002,0.01413492683559188,0.9852960243711688
2015-11-25,-1,-0.000601594705771018,-0.0003914861772458607,-0.01065268371791002,0.015377315169531358,0.9842454977200021
2015-11-30,-1,-0.0012021143045351699,-0.0008958498592625916,-0.010424736885662237,0.015377315169531358,0.9845966081721735
2015-12-02,-1,-0.0010072943442323958,-0.0007327161521339669,-0.01065268371791002,0.015355445195818888,0.9849517695202491
2015-12-04,-1,-0.0005224793656484662,-0.00028966962529595227,-0.01065268371791002,0.01412763684435439,0.9869057557364564
2015-12-08,-1,-0.0008030120436612306,-0.0005569821783568097,-0.011874444344248572,0.01412763684435439,0.9846583970892182
2015-12-10,-1,-0.0008598314042506257,-0.0006112407207847555,-0.014500380931018356,0.015355445195818888,0.9839023646783203
2015-12-14,-1,-0.001353663499158437,-0.0010459117922362858,-0.014500380931018356,0.015355445195818888,0.9837520144008128
2015-12-16,-1,-0.0002361346649928525,-5.517459871585127e-05,-0.01689564337432028,0.01168935372143499,0.9831456666537992
2015-12-18,-1,-0.0008326548939345513,-0.0006310784144737866,-0.015805132784446695,0.015524071190284748,0.9825849099457612
2015-12-22,1,0.0012225234341762354,0.0013309055761856043,-0.015805132784446695,0.015524071190284748,0.9818602560370846
2015-12-24,1,0.0017677989076063409,0.0019656415451106586,-0.020145043464265523,0.015524071190284748,0.9799737835892731
2015-12-29,1,0.0023471759689955712,0.00267128354695389,-0.020145043464265523,0.012125776591769305,0.9801634053850442
2015-12-31,1,0.0015667304447577733,0.001772686125483694,-0.020145043464265523,0.017367555078047863,0.9791867230060174
2016-01-05,1,0.0012924032569788886,0.0014700877968735883,-0.020637606749396808,0.017367555078047863,0.9766051577596147
2016-01-07,1,0.00023402958113728968,0.00024364842759053403,-0.020637606749396808,0.017367555078047863,0.9776455190648693
2016-01-11,1,0.00013225271504835025,0.0001626293039654231,-0.026751051044967316,0.019112069238562217,0.9765105579101593
2016-01-13,-1,-0.0012794339020384992,-0.0010351987780203818,-0.020637606749396808,0.02126593827934753,0.9773985460797545
2016-01-15,-1,-0.00209750160915015,-0.001719220605142256,-0.01845422743202445,0.026530964479771393,0.9777378170995704
2016-01-20,-1,-0.0017294002595451064,-0.0013831052101054594,-0.011465946971570568,0.02126593827934753,0.9787935756565587
2016-01-22,-1,-0.00076383438217682,-0.0005495832584185896,-0.011465946971570568,0.018112993331966486,0.9803881435333416
2016-01-26,-1,-0.0016417990407728699,-0.0012732812702030186,-0.008739301911489587,0.017324398245897866,0.9821238955672287
2016-01-28,-1,-0.0003840908594436499,-0.00024048580827987302,-0.011465946971570568,0.018112993331966486,0.9807815848895831
2016-02-01,1,0.00034486715097833666,0.00041982454314838327,-0.011465946971570568,0.018112993331966486,0.9818165504887295
2016-02-03,-1,-0.0016464641308728543,-0.0013223196362363737,-0.005053278512301216,0.018112993331966486,0.9849129065595041
2016-02-05,-1,-0.0028746475929884233,-0.002402181668673938,-0.003798314033777842,0.018112993331966486,0.9857530531133085
2016-02-09,-1,-0.0027456512506930436,-0.0023151621813396065,-0.003798314033777842,0.017324398245897866,0.9873959814431248
2016-02-11,-1,-0.002069889076629745,-0.001712577796797087,-0.003798314033777842,0.016724008740665666,0.9880905251731655
2016-02-16,-1,-0.0011102705895534972,-0.0008398388700783018,-0.004617793423811165,0.016148414148143806,0.9894436817267894
2016-02-18,-1,-0.0003974445469722942,-0.0002118269115279893,-0.007102809487155708,0.014333982181641291,0.9892797462206626
2016-02-22,-1,-0.0006276805595017013,-0.00039256389274169563,-0.007102809487155708,0.014333982181641291,0.9895360036020584
2016-02-24,1,0.0003175054174200226,0.0004173961785565474,-0.008664025679470536,0.007920767922206511,0.9896676208692845
2016-02-26,1,0.0009866882481803084,0.0010245700131858932,-0.008664025679470536,0.002933314274652171,0.9908069553187195
2016-03-01,1,0.001652810753444423,0.0017957125711880854,-0.008664025679470536,0.006721470167731703,0.9906446196467943
2016-03-03,1,0.0023995228166636745,0.0026922102476263548,-0.008676138480685228,0.006721470167731703,0.9895365995586018
2016-03-07,1,0.002132620422321405,0.002377179836593778,-0.008391252504801161,0.0036853481094336806,0.9899054058682862
2016-03-09,1,0.002128359055693093,0.002357966362696746,-0.008451524702828752,0.0036853481094336806,0.9895551473886699
2016-03-11,1,0.002793717682975695,0.003154151576173207,-0.008451524702828752,0.0036853481094336806,0.9892570655059195
2016-03-15,1,0.002216470440530834,0.0024950483378523933,-0.00555794532540218,0.007550983005240668,0.990221812865584
2016-03-17,1,0.0021104873599292542,0.002424975308726684,-0.00555794532540218,0.010916747912228707,0.989885513327138
2016-03-21,1,0.001954906154276409,0.002239218656160776,-0.00555794532540218,0.010916747912228707,0.9899714880023619
2016-03-23,1,0.0013649368697680408,0.0015569361844261797,-0.00555794532540218,0.010916747912228707,0.9893460736855337
2016-03-28,1,0.0008980602325340246,0.0010209023682628284,-0.003987904068262677,0.010916747912228707,0.9897415552947675
2016-03-30,1,0.001715585429745777,0.0019510265800542072,-0.003987904068262677,0.010123541124314855,0.9892598125505683
2016-04-01,1,0.0015993092093462393,0.0018297868265305208,-0.00560610472221508,0.006959742066509851,0.989834479752565
2016-04-05,1,0.0009871424506430208,0.0010886822112943031,-0.008867483804927334,0.010123541124314855,0.9878821733876185
2016-04-07,1,0.001188014113427131,0.001317645823903309,-0.005256017703606683,0.006959742066509851,0.9890698409053182
2016-04-11,1,0.0011796083658158285,0.0012668096276683381,-0.003980817211950611,0.006959742066509851,0.9897946579593198
2016-04-13,1,0.0016021771986736524,0.0017621235832174491,-0.0101101230488975,0.0071826751512327905,0.9887993424932017
2016-04-15,1,0.0019367315934770571,0.0021654870610490046,-0.009992759734585459,0.0071826751512327905,0.9893845489199463
2016-04-19,1,0.001858832601985896,0.002057270531595086,-0.01104262263293293,0.0071826751512327905,0.988057595656354
2016-04-21,1,0.0010412246146158568,0.0011299464584379926,-0.009992759734585459,0.0071826751512327905,0.9895939417881237
2016-04-25,1,0.0011064588617858513,0.0011922295415372959,-0.009992759734585459,0.0062853620038453555,0.9896057359428929
2016-04-27,1,0.0022021274543420353,0.0024371409096465815,-0.009992759734585459,0.0062853620038453555,0.9901645582905166
2016-04-29,1,0.001825570219967672,0.0020425880344303055,-0.0011535587731804611,0.008399291934232158,0.9910591383285483
2016-05-03,1,0.001992875709359105,0.0022124452664661724,-0.0011535587731804611,0.007723423887466659,0.9926187929113666
2016-05-05,1,0.002049703449737389,0.00227095490568882,-0.0011535587731804611,0.007723423887466659,0.9926604443055941
2016-05-09,1,0.0020046673625735115,0.002202664516914495,-0.0029696128550521506,0.005925674991270353,0.9926696954902828
2016-05-11,1,0.0025083123056380318,0.00282027120181307,-0.0029696128550521506,0.004829117266705957,0.9937855323375537
2016-05-13,1,0.001954721154631177,0.0021449558132421434,-0.004046242052904386,0.003993801672188006,0.9934062226067235
2016-05-17,1,0.0018088257760562028,0.0020302744387269275,-0.004019579589296073,0.003993801672188006,0.9944379364656477
2016-05-19,1,0.001976793306536935,0.002242924265363242,-0.0043008190729007575,0.004829117266705957,0.9939615384661465
2016-05-23,1,0.0019856513195208375,0.0022649654222502737,-0.0043008190729007575,0.005428200579140347,0.9939853468438767
2016-05-25,1,0.0022220893267025045,0.002500866432466071,-0.0043428511217907285,0.005428200579140347,0.9939457739230864
2016-05-27,1,0.002209055436340656,0.002470774406609931,-0.006251746521330665,0.004829117266705957,0.9902290454425817
2016-06-01,1,0.0015368311221464212,0.0016323711309426093,-0.0048613743217204575,0.005428200579140347,0.9891983781118114
2016-06-03,1,0.0017305745207574629,0.0018333197244019097,-0.006318883120161774,0.006520733376152876,0.9861609574391647
2016-06-07,1,0.0013833681076635337,0.0014070270937229777,-0.006318883120161774,0.007292652115392197,0.9859625790175156
2016-06-09,1,0.0012061873078471443,0.0012214136406322482,-0.005177596846591812,0.00968410777927085,0.9854268838307836
2016-06-13,1,0.000672330269536366,0.0007455288970829789,-0.004847198456182478,0.00968410777927085,0.9862470028967893
2016-06-15,1,0.0007144306787911052,0.0007552158383785112,-0.004847198456182478,0.00968410777927085,0.9864512724067004
2016-06-17,1,0.0005845125782175845,0.0006457245249498778,-0.00565437809975821,0.007850643205837542,0.9867738288221328
2016-06-21,1,0.0008272058099972997,0.0008584530083987579,-0.00644754534587348,0.007850643205837542,0.9865338850106881
2016-06-23,1,0.0014290892949020625,0.0015154750599440379,-0.00565437809975821,0.00431244281769345,0.9873167007649525
2016-06-27,-1,-0.0019177411378204,-0.0015829260693140097,-0.004847198456182478,0.007850643205837542,0.9902321174065819
2016-06-29,-1,-0.0015913745256972097,-0.0012361644591262736,-0.00565437809975821,0.004007576502659598,0.9906343159906862
2016-07-01,-1,-0.000543596748240033,-0.000287992114143905,-0.00565437809975821,0.0021965091348450584,0.9931843195353864
2016-07-06,0,-0.00014229505589351298,7.773790821482315e-05,-0.007010211863719594,0.0016586802747120587,0.9930593994064482
2016-07-08,1,0.0009822342458415624,0.0010135225908479858,-0.009333840896801983,0.0016586802747120587,0.9921194690219506
2016-07-12,1,0.0009775157635060524,0.0009821554973065583,-0.009333840896801983,0.0025939922358197078,0.9924199896295679
2016-07-14,1,0.0006623650367925669,0.0007184561206668055,-0.009333840896801983,0.0025939922358197078,0.9922291603687009
2016-07-18,1,0.0008116226596353762,0.000812177646043531,-0.009333840896801983,0.0025939922358197078,0.992241842052948
2016-07-20,1,0.0004133012965295673,0.0004571485287163573,-0.008281014130455549,0.0025939922358197078,0.9923099536215683
2016-07-22,1,0.0005957586739705169,0.0006017594315718446,-0.008281014130455549,0.003878693602830225,0.9919162644576929
2016-07-26,1,0.0007580296741168513,0.0007936853578171332,-0.006436948009925205,0.0033050852833441434,0.9929932011351901
2016-07-28,0,-3.571290656569301e-05,3.357419050034391e-05,-0.0051613768169812314,0.002540169961846378,0.994440375431126
2016-08-01,-1,-0.0004934539975531959,-0.00037651513978668446,-0.004861090828946562,0.002540169961846378,0.9952058187028774
2016-08-03,-1,-0.00084541715627316,-0.0007200669213003771,-0.004164300257107099,0.003878693602830225,0.9933941845732943
2016-08-05,-1,-0.001055268507614251,-0.0008817568815828961,-0.004164300257107099,0.003878693602830225,0.9935006523802133
2016-08-09,-1,-0.0014471443739849073,-0.001197911645651466,-0.004861090828946562,0.00513753538870919,0.9926625581489702
2016-08-11,-1,-0.0017854141183821486,-0.0014929774294997495,-0.004861090828946562,0.00513753538870919,0.9911140471228378
2016-08-15,-1,-0.0021832882450023615,-0.0018174732278717768,-0.0051579994184604875,0.0052687659893189236,0.9886477642970423
2016-08-17,-1,-0.0024108844984750246,-0.0020010384262815,-0.004164300257107099,0.0052687659893189236,0.9885355271013696
2016-08-19,-1,-0.0019852224037752407,-0.001660513262323662,-0.0038502287135597966,0.0052687659893189236,0.9889708577247299
2016-08-23,-1,-0.0015342397682520147,-0.0012907826025069075,-0.0038502287135597966,0.0052687659893189236,0.9891550346877448
2016-08-25,-1,-0.0017174764216592547,-0.0014465118819107657,-0.0038457463888982267,0.0056601151749213745,0.9887088685104272
2016-08-29,-1,-0.0014801834693063836,-0.0012548545726328497,-0.0061801750155681245,0.007256068404517639,0.987843541665469
2016-08-31,-1,-0.00021207177416200087,-0.00015985125381046171,-0.007041772533530425,0.005485712430629281,0.9895566671894265
2016-09-02,-1,-0.0005407963902499611,-0.00046579633566616764,-0.005129234903447468,0.006732860171641358,0.990034234591749
2016-09-07,-1,-0.0007630549499230413,-0.0006719425091746517,-0.005129234903447468,0.006732860171641358,0.9904503437835511
2016-09-09,-1,-0.0016336311060036427,-0.001449082846291769,-0.005129234903447468,0.006732860171641358,0.991967439378419
2016-09-13,-1,-0.0016399542190376698,-0.0014145362672579728,-0.005129234903447468,0.006220231260364702,0.9934540385568822
2016-09-15,-1,-0.0013235183126602123,-0.0011461705227284221,-0.0063531551653495015,0.0029658187340831955,0.9934376752693636
2016-09-19,-1,-0.0007753804754884977,-0.0006853176348484474,-0.0063531551653495015,0.0046144569489278,0.9931900267932737
2016-09-21,-1,-0.00105062549886599,-0.0009040963733087155,-0.0063531551653495015,0.0046144569489278,0.9931240435353645
2016-09-23,-1,-0.0006446070719090854,-0.0005640520958703925,-0.0063531551653495015,0.003396689317775842,0.9936468731998892
2016-09-27,-1,-0.0005393576112142405,-0.0004780958019740033,-0.003756762818770534,0.003714942018996229,0.9939565229767298
2016-09-29,-1,-0.00044206090443562587,-0.00041344005390788797,-0.004119085562710268,0.003714942018996229,0.9922475012355347
2016-10-03,-1,-4.288445431403526e-05,-1.6032023524101204e-05,-0.0061742255148096,0.003714942018996229,0.9915080141715575
2016-10-05,-1,-0.0004110219434974797,-0.0003920595429091334,-0.007888650167931662,0.003714942018996229,0.991303599844075
2016-10-07,-1,-0.0009202602953100748,-0.0008051254497787683,-0.010111359089400215,0.003714942018996229,0.9901893434370845
2016-10-11,-1,-0.001103071587328316,-0.0009524759400865099,-0.009294796121883074,0.005593387068219868,0.9874773817521494
2016-10-13,-1,-0.0012535185327196294,-0.0011133933418186837,-0.010111359089400215,0.005593387068219868,0.9838510142355399
2016-10-17,-1,-0.0009458436627613656,-0.0008895529399327547,-0.012876484162059252,0.006557017426873888,0.9829964713724395
2016-10-19,-1,-0.0006343131465466737,-0.0006287860906142841,-0.012876484162059252,0.01284129761909667,0.9818197388042822
2016-10-21,-1,-0.0005007223521760585,-0.00048518620526957496,-0.012876484162059252,0.01348957465320638,0.9814312502700685
2016-10-25,-1,-0.00011043555616334979,-2.9781466621113187e-05,-0.012876484162059252,0.01348957465320638,0.9815522511242311
2016-10-27,1,0.0004403872481066845,0.0005988778524769936,-0.015634190289996026,0.012343852954210475,0.9819227525215848
2016-10-31,1,0.0009539853180286597,0.0011773743272198423,-0.015634190289996026,0.009914233200821663,0.9830896979812518
2016-11-02,1,0.00029449991653320853,0.00041065312354185196,-0.016475452620657718,0.009914233200821663,0.9818378885564983
2016-11-04,-1,-0.0004449866736559843,-0.0004338757921949833,-0.011628046234080862,0.009914233200821663,0.9827908412974096
2016-11-08,1,0.0009387967443614812,0.0011410013246990409,-0.011628046234080862,0.008503206919579627,0.9845896298405518
2016-11-10,-1,-0.0013134146259657588,-0.0012389329691318428,-0.009370926387168837,0.009914233200821663,0.9876122623218974
2016-11-14,-1,-0.0013234948724857518,-0.0012515982483199072,-0.008553820397188884,0.01150592065739901,0.9873011116715369
2016-11-16,-1,-0.003229131561916944,-0.002848784542829814,-0.008553820397188884,0.01150592065739901,0.9861839621920389
2016-11-18,-1,-0.0026549524143438556,-0.002397433738836929,-0.008553820397188884,0.011134296962002998,0.9862857569008631
2016-11-22,-1,-0.002118277066980233,-0.0019865152454814675,-0.008553820397188884,0.01305759343934789,0.9861136494562197
2016-11-25,-1,-0.0020882301958909436,-0.001967503910383485,-0.007782910753823711,0.010486433686186155,0.9876616008189167
2016-11-29,-1,-0.0018611998381916608,-0.0017899727796965947,-0.007229733189331122,0.010486433686186155,0.9876146540839643
2016-12-01,-1,-0.003384467107526281,-0.0031367826233561005,-0.006317581878622424,0.010486433686186155,0.9888749461365227
2016-12-05,-1,-0.003066091526427457,-0.0028616262294738886,-0.006317581878622424,0.011900029341941152,0.9886589056255058
2016-12-07,-1,-0.0026500857954200974,-0.00249620308404629,-0.005866162394484977,0.010316533412322857,0.9902153996972262
2016-12-09,-1,-0.002407108037424967,-0.002283958501066486,-0.006317581878622424,0.006180083309408024,0.9910018957450624
2016-12-13,-1,-0.0017756129905834562,-0.0017329345582700363,-0.006317581878622424,0.004587810313260432,0.9914296953336786
2016-12-15,-1,-0.0012318294618677748,-0.0012000381376408558,-0.006621389665895354,0.004587810313260432,0.9933281289933328
2016-12-19,-1,-0.0013935848880234128,-0.0013594149281344983,-0.006621389665895354,0.0032875219578393003,0.9932925190730509
2016-12-21,-1,-0.001369749662346915,-0.00132569166901402,-0.0072091233984508535,0.0032875219578393003,0.9931681013606719
2016-12-23,-1,-0.0012771804709396694,-0.0012357443931421024,-0.0072091233984508535,0.003786894417361032,0.993086017371733
2016-12-28,-1,-0.0013225865270644597,-0.0012796975962726198,-0.008456191134622383,0.003786894417361032,0.9926122184117213
2016-12-30,-1,-0.0013405119342520565,-0.0013058675543214915,-0.007694428997184041,0.004649129480917688,0.9928757185431918
2017-01-04,-1,-0.001097004714162199,-0.001086586412107119,-0.008360394554224715,0.003786894417361032,0.9929481149992784
2017-01-06,-1,-0.0008889226559784566,-0.000872306260052828,-0.008360394554224715,0.003971721078067875,0.9925430346839732
2017-01-10,-1,-0.0011502473471878569,-0.0011405288563673078,-0.007614105974695699,0.005584338610853124,0.9927354179662864
2017-01-12,-1,-0.0006937004319400138,-0.000638199223633845,-0.007614105974695699,0.005524636127354776,0.9933198866388906
2017-01-17,-1,-0.00053532814865651,-0.00044961229074121583,-0.007614105974695699,0.005179914102708606,0.9939157748270243
2017-01-19,-1,-0.0006120508287990089,-0.0005350339840986503,-0.007614105974695699,0.005524636127354776,0.9917540177640818
2017-01-23,-1,-0.0005969627401962809,-0.000477191382764758,-0.008119425486759688,0.005524636127354776,0.9891739140201162
2017-01-25,0,-2.4310554931251168e-05,0.00019591917743334755,-0.008119425486759688,0.005653247992581016,0.9889183449813668
2017-01-27,-1,-0.0006288408720233028,-0.0005190893812173666,-0.007309396644004125,0.006853984671271593,0.9875081807374985
2017-01-31,-1,-0.0005454475952096872,-0.0004454278817944581,-0.007309396644004125,0.006853984671271593,0.9875790644870176
2017-02-02,-1,-0.0013746358002479132,-0.0013248562047828089,-0.006206791212201633,0.006853984671271593,0.9876720104009863
2017-02-06,-1,-0.0009622250043207804,-0.0009309569318615385,-0.006206791212201633,0.005653247992581016,0.9880702524485774
2017-02-08,-1,-0.000506549285687475,-0.0004007684552365517,-0.006206791212201633,0.005653247992581016,0.9879547456698884
2017-02-10,-1,-0.00020188900006859386,-5.6271849945272194e-05,-0.006206791212201633,0.006083774053033758,0.9880878831046104
2017-02-14,0,-4.2359877781052494e-05,0.00013239341597700042,-0.0073160676671721134,0.00826893028181774,0.9870363075354641
2017-02-16,-1,-0.0014344385040403905,-0.0014305050062201614,-0.006206791212201633,0.007608041567062901,0.989164328390083
2017-02-21,-1,-0.001427642720362291,-0.0014270026396581868,-0.006974515751079496,0.0058831811213495835,0.9922350917356604
2017-02-23,-1,-0.0012363013379740294,-0.0012069488317081106,-0.0061596804508656615,0.004422076511361925,0.9927311038748794
2017-02-27,-1,-0.0019473298039221361,-0.0019128947585465436,-0.005968927733490992,0.0029059654328238422,0.9946538095659337
2017-03-01,-1,-0.0018296683751647799,-0.001795772898374543,-0.005968927733490992,0.0018344600382460123,0.9947066023013572
2017-03-03,-1,-0.0018669677801273145,-0.0018254789967253968,-0.006355146837619515,0.0018344600382460123,0.994370438982348
2017-03-07,-1,-0.002102076885255431,-0.0020194613191718384,-0.005289415518055314,0.004780910890924332,0.9941583995448611
2017-03-09,-1,-0.00181493775031925,-0.0017608060283848088,-0.005289415518055314,0.004780910890924332,0.9940878403268022
2017-03-13,-1,-0.0013426617414376008,-0.0013349742141485887,-0.005289415518055314,0.004173962828862439,0.9942459235624321
2017-03-15,-1,-0.0009698084809685406,-0.0009035988662042622,-0.005289415518055314,0.004173962828862439,0.99473623920908
2017-03-17,-1,-0.0006830476314654043,-0.0005712006243745833,-0.006355146837619515,0.0026805467933155294,0.9947914922642673
2017-03-21,-1,-0.0007430834057345166,-0.0006146106232733652,-0.004715190276319184,0.004173962828862439,0.9946480782737505
2017-03-23,-1,-0.0002931055780453248,-0.00010838464042370972,-0.004715190276319184,0.005607177640279298,0.9944162544176572
2017-03-27,0,-3.929843128626517e-05,0.00022377510867131972,-0.0013375345923722875,0.007634342238549354,0.9944189714409339
2017-03-29,0,-2.4391494687605784e-05,0.00021333772989848006,-0.0031669191026790443,0.007634342238549354,0.9940934138029703
2017-03-31,-1,-0.0006946041181137977,-0.0005904187415536609,-0.0026652193690097615,0.007634342238549354,0.993548833988667
2017-04-04,1,0.00032023749566521614,0.0006203501613848213,-0.0038273727433716146,0.007634342238549354,0.9925575594069326
2017-04-06,-1,-0.00125105994932257,-0.001181513467287495,-0.005478258058558439,0.005607177640279298,0.9926709828275968
2017-04-10,-1,-0.0012085777354638302,-0.001127864017955955,-0.006693494735804838,0.003855233325779754,0.9926572492916701
2017-04-12,-1,-0.0007832667693148959,-0.000779817262749856,-0.005641126553318299,0.003999834164605382,0.9928407599155612
2017-04-17,-1,-0.0006700888266375147,-0.0006322589375828832,-0.005000952767938413,0.008367491884982162,0.992018492242283
2017-04-19,-1,-0.0001585561451215501,-3.877130572762887e-05,-0.006515004392221595,0.005543666593875532,0.9918458820677235
2017-04-21,1,1.3267064880795201e-05,0.00015001213668245733,-0.006515004392221595,0.005843013723831454,0.9913349964068167
2017-04-25,1,0.0002731472467679642,0.0004306451247004834,-0.006515004392221595,0.0056040471551687095,0.9914600294167473
2017-04-27,-1,-0.0011257923759501335,-0.0010020562478844056,-0.005641126553318299,0.008509403597502626,0.9914129275576488
2017-05-01,-1,-0.0017897097067266412,-0.0015957945732908193,-0.005000952767938413,0.008509403597502626,0.9923670294397592
2017-05-03,-1,-0.0012310483913543756,-0.0011263798067863869,-0.0026715308105226066,0.007872661585408993,0.9934841119472937
2017-05-05,-1,-0.001262603448180627,-0.0011597112149078573,-0.0024572414225096217,0.007872661585408993,0.9932888119094118
2017-05-09,-1,-0.0011971471285960418,-0.0011421343581908524,-0.0017755174934356026,0.007872661585408993,0.9935946111182394
2017-05-11,-1,-0.000434765499907026,-0.0003860520465274152,-0.0040303168201860935,0.0057655799057621734,0.9930269312970865
2017-05-15,1,0.00021187654891281803,0.00034831121995100567,-0.004401906163601491,0.005321601431806058,0.9937457943425237
2017-05-17,-1,-0.00026178974370352044,-0.00017652376442562728,-0.0024572414225096217,0.005321601431806058,0.9944952980182055
2017-05-19,1,0.00038484775826289763,0.0005623404169722042,-0.0040303168201860935,0.005321601431806058,0.994460904012565
2017-05-23,1,0.0005107066115682953,0.0006961711274547614,-0.004401906163601491,0.004998816490226246,0.9943355017126716
2017-05-25,1,0.0007032982469325612,0.0008997999566449997,-0.004401906163601491,0.003700407764888793,0.9945560378157379
2017-05-30,1,0.000827231514602181,0.0010590102824427727,-0.006088220397165776,0.003700407764888793,0.9937028613771937
2017-06-01,1,0.00131669449369398,0.0016279534492130458,-0.008408161528113477,0.001686980116644525,0.9929521881558605
2017-06-05,1,0.0010376408706349034,0.0012709229472628162,-0.008408161528113477,0.001599833064299949,0.9934284668942105
2017-06-07,1,0.001174041914551931,0.001456930612240287,-0.008408161528113477,0.001599833064299949,0.9934786249636763
2017-06-09,1,0.0004265436290929578,0.0006130633781850625,-0.00432007066062088,0.0017105166385727169,0.9945882820893542
2017-06-13,1,0.0003856001871286795,0.0005560471242102386,-0.00315100038183926,0.0017105166385727169,0.9947988125437253
2017-06-15,1,0.0006780782659724774,0.0008974651384732579,-0.00315100038183926,0.001599833064299949,0.9945860685421541
2017-06-19,1,0.0005242191984890126,0.0007346924767619369,-0.0021114699500701817,0.001609413519980038,0.9955367436591109
2017-06-21,1,7.863057601681931e-06,0.00011682947976613024,-0.0021114699500701817,0.0018469653552077086,0.9953201738808684
2017-06-23,1,7.018618832145432e-05,0.00019358020693209792,-0.002372273145642906,0.0028172499489397818,0.9949692871162135
2017-06-27,-1,-0.0006619043474809949,-0.0006401205438545234,-0.0015082272037294695,0.0040422126518410584,0.9952028586632934
2017-06-29,-1,-0.0013298106496539863,-0.0012738225638538212,-0.0015082272037294695,0.0040422126518410584,0.9957699737884318
2017-07-03,-1,-0.0009243961902244493,-0.0009105803466246212,-0.002372273145642906,0.0040422126518410584,0.995495570146979
2017-07-06,-1,-0.0007232518484237243,-0.000661472613079592,-0.004539875708644207,0.0052200452990637854,0.9943355030690819
2017-07-10,-1,-0.0005904525085580304,-0.0005087796786234318,-0.0026350718847877527,0.006267219653431722,0.9940485985593245
2017-07-12,-1,-0.001003644146718477,-0.0008760856174358535,-0.006521270708938543,0.0056719592944540435,0.9937825933684019
2017-07-14,-1,-0.0008047307069193649,-0.0007496018867225946,-0.006521270708938543,0.005615073122124863,0.9937158709399512
2017-07-18,-1,-0.0006371856690470601,-0.0006006847414256788,-0.006521270708938543,0.005615073122124863,0.9936360080457955
2017-07-20,-1,-0.0014223085605978001,-0.0012597822576763573,-0.006521270708938543,0.005615073122124863,0.9930661071785012
2017-07-24,-1,-0.0011905456204122805,-0.00106088232647986,-0.007244549397679492,0.004818148411061056,0.9929243171187897
2017-07-26,-1,-0.000970187749189788,-0.0008556108800987034,-0.007859269926791496,0.004818148411061056,0.9928172134335733
2017-07-28,-1,-0.001370145185008654,-0.0011924737286816913,-0.009202893621132597,0.004818148411061056,0.9914442911617468
2017-08-01,-1,-0.001322061550152858,-0.0011718900388563037,-0.008355087724514213,0.007427536331986984,0.991062110207638
2017-08-03,-1,-0.0011159574310863809,-0.0010042587742346025,-0.008355087724514213,0.004818148411061056,0.9910054697417502
2017-08-07,-1,-0.0005313359781548004,-0.0004986413260066366,-0.008355087724514213,0.0043219824514577655,0.9911708888499582
2017-08-09,-1,-0.0007592540822583028,-0.0007093943006845518,-0.008257952207709505,0.005906919071475903,0.9911167111243783
2017-08-11,-1,-0.0008969576754405204,-0.0008107432262082492,-0.008430227924045804,0.005939038453177111,0.9906638150170204
2017-08-15,-1,-0.0007129881743807461,-0.0006452908868437079,-0.008430227924045804,0.005939038453177111,0.9905884860940564
2017-08-17,-1,-0.0013043994502919376,-0.0011517494083530943,-0.008430227924045804,0.004671277950266155,0.9912318281937306
2017-08-21,-1,-0.0014110323097392369,-0.001254741712479837,-0.007884316659968693,0.004671277950266155,0.991770615987421
2017-08-23,-1,-0.0016810577796504184,-0.0014712377912998484,-0.00666916704826819,0.0036684108914789527,0.992302943574832
2017-08-25,-1,-0.002977699296637255,-0.002628517848483717,-0.005184783886741525,0.004671277950266155,0.9937247140643267
2017-08-29,-1,-0.0023360633702871163,-0.002085572549448569,-0.005184783886741525,0.0036684108914789527,0.9941249634041925
2017-08-31,-1,-0.0030731995180515413,-0.002749511072870516,-0.003800658052753582,0.0036974981628157965,0.9950804289279647
2017-09-05,-1,-0.0028861536314028387,-0.0025853288700881005,-0.003967031474211369,0.0036974981628157965,0.9947896491931533
2017-09-07,-1,-0.00271051185692692,-0.0024258289149417353,-0.003967031474211369,0.0034259815358406616,0.9949535653783266
2017-09-11,-1,-0.002183714316665527,-0.00198195029000583,-0.003967031474211369,0.00326149863200125,0.9956190386402535
2017-09-13,-1,-0.0019881605661619256,-0.001824323526964254,-0.003726567049400246,0.0036974981628157965,0.9947600290703651
2017-09-15,-1,-0.0018454405027002732,-0.0017200969773909815,-0.0035303562064104804,0.0032711943891135316,0.995241338148549
2017-09-19,-1,-0.0021517901108422856,-0.0019762998938138822,-0.003585814013563076,0.0032711943891135316,0.9948957081759313
2017-09-21,-1,-0.00278350244582444,-0.00250103295062037,-0.003210130274284864,0.0032711943891135316,0.9947546118075962
2017-09-25,-1,-0.002196868239050408,-0.001992147322811243,-0.0031117539600397518,0.0032711943891135316,0.9950175864061629
2017-09-27,-1,-0.0021008196378763063,-0.0019032046379523486,-0.0031117539600397518,0.002661938342049576,0.9950886423492534
2017-09-29,-1,-0.0021847698777369036,-0.001956138072913725,-0.003954284077979803,0.0020649833283925066,0.995126250726275
2017-10-03,-1,-0.0011512564859893389,-0.0009657714432003329,-0.0045092577040504525,0.0020649833283925066,0.9915965561420834
2017-10-05,-1,-0.00042581526475326176,-0.00042385846310088554,-0.0045092577040504525,0.0015131191071529643,0.9915194332968892
2017-10-09,-1,-0.0006591678903039847,-0.0006166312540860944,-0.004867595644216275,0.0015131191071529643,0.9911548794044118
2017-10-11,-1,-0.0001351463253366734,-9.544921587542215e-05,-0.004867595644216275,0.0015131191071529643,0.9906909393319354
2017-10-13,0,-4.709644791217683e-05,1.1836090866663789e-05,-0.005718968489886548,0.00269374909772011,0.9899350589923701
2017-10-17,-1,-0.00011637917327303698,-5.2970551036600765e-05,-0.004867595644216275,0.007705988061196588,0.989914891745746
2017-10-19,-1,-0.00023366487139145584,-0.0001831630842547728,-0.004867595644216275,0.007705988061196588,0.9894292595842366
2017-10-23,1,5.062280089110241e-05,0.00015207189973430202,-0.004867595644216275,0.006656711086392148,0.989469967467804
