JNU-Tangyin/eata/results/Batch4_SP500/Batch4_SP500-HRB.csv
Date,Action,Predicted_Q25,Predicted_Q75,Actual_Q25,Actual_Q75,RL_Reward
2010-12-14,0,0.0,0.0025128784696208635,-0.008143364126688767,0.005281895880037378,0.9883928701959547
2010-12-16,1,0.0023252402244882267,0.0028226252322079703,-0.008285680529825803,0.007876289501999003,0.9861173289354362
2010-12-20,1,0.0023538102621333255,0.002852946295301189,-0.008285680529825803,0.011406407736731397,0.9850897562247762
2010-12-22,1,0.0018126390187944838,0.002398022609002114,-0.008285680529825803,0.0169050876150473,0.9833564279747338
2010-12-27,0,-4.0173928752757545e-05,0.00043108929774424804,-0.008285680529825803,0.0169050876150473,0.984818381317559
2010-12-29,-1,-0.0006247593758023234,-0.0003151695860125651,-0.008285680529825803,0.0169050876150473,0.9847891648642068
2010-12-31,1,1.4527844219742797e-05,0.00039978655068331347,-0.009395185884784097,0.0169050876150473,0.9832233558849773
2011-01-04,1,0.0012446541263488886,0.0016942289930907517,-0.008285680529825803,0.01275842702876669,0.9853382393467232
2011-01-06,1,0.0021010266710878136,0.00264532805740658,-0.008285680529825803,0.011874419611121003,0.9860150511948151
2011-01-10,1,0.0024079487632254707,0.002969638852575994,-0.006074567676896853,0.011573806527333232,0.9867605115440747
2011-01-12,1,0.001765433295845273,0.002157741778412503,-0.005795811243803621,0.011874419611121003,0.9854664904802217
2011-01-14,1,0.002207122152432686,0.002643055436156506,-0.004794896233002347,0.011573806527333232,0.9863241139366987
2011-01-19,1,0.003447463686013566,0.003999407007546549,-0.004195248159071164,0.011573806527333232,0.9847774387305932
2011-01-21,1,0.005582847312042342,0.006395501787082159,-0.004195248159071164,0.010955506172449538,0.9856704896584362
2011-01-25,0,0.0,0.0,-0.0027011966527736323,0.010955506172449538,0.9865681832423137
2011-01-27,0,0.0,0.0,-0.0027011966527736323,0.013512770522682082,0.9833410761321484
2011-01-31,1,0.0007655808605042856,0.0008981896327431713,-0.0027011966527736323,0.013512770522682082,0.9844308041705784
2011-02-02,1,0.0012624964229274904,0.0014170902798774062,-0.004195248159071164,0.012522936982058443,0.9846406638763231
2011-02-04,1,0.001077708076426694,0.0011924794111970766,-0.004530864668823325,0.012522936982058443,0.9838711539013263
2011-02-08,1,0.0010414943246616788,0.0011691696541918845,-0.004530864668823325,0.019207385671634724,0.9824026875059219
2011-02-10,1,0.0023749682562339684,0.0027208250138090334,-0.0018903911874495567,0.019207385671634724,0.9828295726149264
2011-02-14,1,0.0019612613139208188,0.0021968779154497063,-0.003281979275064605,0.019207385671634724,0.9820785761440658
2011-02-16,1,0.004342660775097375,0.0049164825621538805,-0.006577609854239826,0.015905162596668476,0.9849645774474217
2011-02-18,1,0.004943174850398427,0.005546702472278039,-0.006577609854239826,0.01228854255027295,0.9855563850166759
2011-02-23,1,0.004115683451345777,0.004629097004192562,-0.0060910343762709315,0.01228854255027295,0.9863084191507646
2011-02-25,1,0.005476312449364202,0.006072252931764266,-0.0060910343762709315,0.011320597216543823,0.9889705618848215
2011-03-01,1,0.0049279716551465635,0.005527015578422512,-0.00236119867607635,0.011320597216543823,0.9907214546825508
2011-03-03,1,0.00609790601452175,0.0070012386820399244,-0.0015422147252870952,0.011320597216543823,0.9911998190970682
2011-03-07,1,0.006004142507140295,0.006922254465952548,-0.0012106723266754906,0.012983316183681213,0.9904141511369147
2011-03-09,1,0.004671461881609819,0.005141034723154297,-0.0015422147252870952,0.01172464675059836,0.9902566006931982
2011-03-11,1,0.003837535164226554,0.004026755735059311,-0.0031998774028838073,0.01172464675059836,0.98927442936862
2011-03-15,0,0.0,0.0,-0.00307877575805099,0.010299282977977242,0.9889214850280266
2011-03-17,1,0.0016450274693890275,0.0016465381678332518,-0.0014902319022779764,0.01172464675059836,0.9888618857691586
2011-03-21,1,0.002215891383971674,0.0023868498937466903,-0.0014902319022779764,0.01021199036559542,0.9897538700792757
2011-03-23,1,0.002063354845583098,0.002225572364358932,-0.0011594351038075467,0.009985507894239902,0.9902202656552146
2011-03-25,1,0.002029347702350114,0.0021939057832061925,-0.0014902319022779764,0.010014523683017834,0.9897795075034707
2011-03-29,1,0.00648071938007962,0.006925967166027791,-0.004229334616538547,0.009193314710369237,0.9879539924306427
2011-03-31,1,0.0045711199658780245,0.004979559995863557,-0.006403157527775845,0.009193314710369237,0.9880493678029569
2011-04-04,1,0.0058881847804834984,0.006454459539848357,-0.011004012658090992,0.007071924458793763,0.9885951692037139
2011-04-06,0,0.0,0.0,-0.011004012658090992,0.008682763500650986,0.9894081296192766
2011-04-08,0,0.0,0.0,-0.011004012658090992,0.005833456771486359,0.9883314933307715
2011-04-12,0,0.0,0.0,-0.014212793201895314,0.008682763500650986,0.9870656933194467
2011-04-14,0,0.0,0.0,-0.014212793201895314,0.006707406073164728,0.9872031770265193
2011-04-18,0,0.0,0.002360015904943345,-0.014212793201895314,0.008682763500650986,0.9883633918361543
2011-04-20,0,0.0,0.0,-0.014212793201895314,0.011077226792196047,0.9854142239978005
2011-04-25,1,0.004836465718055751,0.005204672812160409,-0.014212793201895314,0.007476128566360448,0.9854797424586427
2011-04-27,1,0.005167178729400114,0.005707379665534393,-0.014212793201895314,0.011077226792196047,0.983916440450962
2011-04-29,1,0.0037612276949971976,0.004037602436276048,-0.010011454581868383,0.011077226792196047,0.9849258457059608
2011-05-03,1,0.0030674212956003505,0.003216214959604533,-0.008105624088812732,0.011894939514472352,0.9856009876238783
2011-05-05,1,0.0032861416918086497,0.003485042077693768,-0.005667733003000876,0.007564424378318347,0.9863040224277503
2011-05-09,0,0.0,0.0,-0.005667733003000876,0.007564424378318347,0.9895184003609168
2011-05-11,0,0.0,0.0,-0.005667733003000876,0.007564424378318347,0.9894881371306915
2011-05-13,-1,-0.0005397098952421949,-0.00023142848205016486,-0.005667733003000876,0.006137446018242861,0.9892055467524926
2011-05-17,0,-0.00010499562595013491,0.0001604474410379995,-0.00932666882823518,0.00618838800987872,0.9875289622069275
2011-05-19,-1,-0.0016854507714211065,-0.0010582087853480092,-0.007110886817834301,0.0029886171739799054,0.9893908426581316
2011-05-23,-1,-0.0022413406248975635,-0.0015268361764272588,-0.007110886817834301,0.010191693401910767,0.9875154874055716
2011-05-25,0,0.0,0.0,-0.003177808176688766,0.005736991745644583,0.9901869705528841
2011-05-27,0,0.0,0.0,-0.007110886817834301,0.0066937113544909685,0.9895460401390705
2011-06-01,0,0.0,0.0,-0.007110886817834301,0.0066937113544909685,0.9891487801471646
2011-06-03,-1,-0.002326224044982667,-0.0017106970021655082,-0.009443678215365417,0.010191693401910767,0.9882045197552265
2011-06-07,-1,-0.003000107680183734,-0.002289839507060047,-0.009452161476869888,0.011287231684032558,0.9876303090960314
2011-06-09,-1,-0.003078845408480377,-0.0023891611294641277,-0.009452161476869888,0.01010547656505056,0.9880939170321595
2011-06-13,0,0.0,0.0,-0.009452161476869888,0.01010547656505056,0.9884044673304943
2011-06-15,0,0.0,0.0,-0.009452161476869888,0.007973574556729854,0.9897052362113201
2011-06-17,-1,-0.005878206840590535,-0.004749386585853682,-0.013946268809984083,0.007973574556729854,0.9888982049325808
2011-06-21,-1,-0.004204055507386766,-0.003268610608121312,-0.013946268809984083,0.005744753266780929,0.9905577661558445
2011-06-23,0,0.0,0.0,-0.013946268809984083,0.0063045153475642535,0.989862016589797
2011-06-27,0,0.0,0.0,-0.00970836696810063,0.0063045153475642535,0.9902728593162694
2011-06-29,-1,-0.003488126124384752,-0.0027296638971996685,-0.014777210546180189,0.003948371231395813,0.9910364073899658
2011-07-01,-1,-0.003651711726558334,-0.0028541919730352226,-0.015041099236881019,0.002759987028709752,0.9910117345351905
2011-07-06,-1,-0.003287182895506284,-0.0025741272998700262,-0.01650603648677756,0.002759987028709752,0.9907175409646358
2011-07-08,-1,-0.00392888694053763,-0.0031353448133739285,-0.020387939962263905,0.0011223109936745993,0.9901699431643566
2011-07-12,-1,-0.003224227457153222,-0.0026286148833668177,-0.020387939962263905,0.002759987028709752,0.9852199116783743
2011-07-14,-1,-0.0033569803140999655,-0.00280431275288004,-0.020994388620472117,0.003948371231395813,0.9813299870332676
2011-07-18,-1,-0.004662799624748447,-0.003899679968353993,-0.020994388620472117,0.006216425698383033,0.9795544108085695
2011-07-20,0,0.0,0.0,-0.020994388620472117,0.0036973124587365317,0.9791330890278945
2011-07-22,0,0.0,0.0,-0.024198229205682667,0.0010710536793091048,0.9771687376056485
2011-07-26,-1,-0.004326222188005992,-0.003752669732805473,-0.024198229205682667,0.007913737117223596,0.9744029342533808
2011-07-28,-1,-0.005363692918515184,-0.004618622534055813,-0.026862105467607374,0.007913737117223596,0.9727466976586163
2011-08-01,-1,-0.005732438225738291,-0.00501896336617058,-0.024322392326344727,0.03195297743125917,0.9686824279974402
2011-08-03,-1,-0.005573454267931172,-0.004882892881888872,-0.018296615751307824,0.03195297743125917,0.9690776894213075
2011-08-05,-1,-0.006655631237626989,-0.00583405745493963,-0.020309275679845827,0.03195297743125917,0.9654604873979505
2011-08-09,-1,-0.006997273012135444,-0.006139111138682665,-0.012771191563831975,0.03195297743125917,0.9677494318292219
2011-08-11,-1,-0.005076172391514806,-0.004485576132856034,-0.01995007213923897,0.015483090101369654,0.9701621367228234
2011-08-15,-1,-0.004274680958433625,-0.003790385763296524,-0.0174039743111917,0.010065254838981994,0.9720787477621216
2011-08-17,-1,-0.0037244753787946472,-0.003339349549096143,-0.0174039743111917,0.03141244548020812,0.9687705484545597
2011-08-19,-1,-0.0053033214750574514,-0.004765313847352379,-0.005016937906325854,0.03141244548020812,0.9704211862805036
2011-08-23,0,0.0,0.0,-0.012421417724868499,0.014990321770525405,0.9724776943895883
2011-08-25,0,0.0,0.0,-0.005016937906325854,0.01898878107445366,0.9744210833169445
2011-08-29,1,0.0009437841102756077,0.0012794636027569453,-0.005016937906325854,0.011233818496676665,0.977872845070226
2011-08-31,1,0.0012015104901884368,0.0015651404309052499,-0.008501463716776179,0.015495254050441451,0.9766494931588411
2011-09-02,-1,-0.002115571262977034,-0.0020427706170476523,-0.015248416755958859,0.015495254050441451,0.9794641221810968
2011-09-07,1,0.00043537786909393704,0.0007347381797681792,-0.015248416755958859,0.015495254050441451,0.9799574223425299
2011-09-09,-1,-0.0019263901677919765,-0.0019193830422584639,-0.005016937906325854,0.015495254050441451,0.9825089486403024
2011-09-13,-1,-0.001300458604877507,-0.001187490456207828,-0.003937975497982324,0.02304557597390233,0.9801425179850759
2011-09-15,1,0.0016367027651950409,0.0021536826684661393,-0.005384066993622178,0.015495254050441451,0.9833411239990101
2011-09-19,0,0.0,0.0,-0.008629455114335147,0.015495254050441451,0.9809101595790974
2011-09-21,0,0.0,0.0,-0.008540167721245478,0.015495254050441451,0.9828438454161825
2011-09-23,-1,-0.00039353165770152543,-0.00027385560814127913,-0.008540167721245478,0.014626982121252751,0.9828321889131859
2011-09-27,1,0.000497999050570748,0.0007044640105003876,-0.014007158712359847,0.014626982121252751,0.9814184741266181
2011-09-29,0,0.0,0.0,-0.008540167721245478,0.0214560938719124,0.9804755460145972
2011-10-03,0,0.0,0.0,-0.004392486451854013,0.0214560938719124,0.981663205000551
2011-10-05,0,0.0,0.0,-0.007489450257471495,0.015760658730626088,0.9820921112583171
2011-10-07,-1,-0.00031784871573489173,-0.0003006590252980019,-0.007489450257471495,0.02110684192223556,0.981562827767219
2011-10-11,1,0.002700196354650175,0.0032329462080220193,-0.007489450257471495,0.01249752286340598,0.9851665229597154
2011-10-13,1,0.002517637190616597,0.0030121141419715705,-0.010344840661077026,0.012808064239727798,0.9845862542669909
2011-10-17,1,0.001016645692872486,0.001266586810855778,-0.010344840661077026,0.016048611415417257,0.98464256527172
2011-10-19,1,0.001073173416102682,0.0013393370990537365,-0.010344840661077026,0.020867466259521628,0.9836227220133142
2011-10-21,1,0.0019828740563291474,0.0024046188997379806,-0.010344840661077026,0.020867466259521628,0.9841283678548185
2011-10-25,0,0.0,0.0,-0.010344840661077026,0.014414349187762587,0.9853255580451962
2011-10-27,0,0.0,0.0,-0.013889788073063928,0.009165823014243492,0.9853715984688695
2011-10-31,0,0.0,0.0,-0.013889788073063928,0.013305495264187823,0.9837886643081448
2011-11-02,0,0.0,0.0,-0.010785267166737514,0.02061954545019909,0.9827097737531288
2011-11-04,0,0.0,0.0,-0.013889788073063928,0.017173159916434855,0.9803555691642544
2011-11-08,0,0.0,0.0,-0.013889788073063928,0.02061954545019909,0.9788738461684362
2011-11-10,0,0.0,0.0,-0.012440696988016066,0.021354050421056547,0.9789764363054452
2011-11-14,0,0.0,0.0,-0.009561556812826647,0.02061954545019909,0.9804510356504123
2011-11-16,0,0.0,0.0,-0.009561556812826647,0.017333392478202356,0.9816337610929198
2011-11-18,1,0.005069889578526902,0.005665353339276315,-0.010819118759880432,0.017333392478202356,0.9806127334773926
2011-11-22,1,0.004399318800209072,0.004918911573256354,-0.009561556812826647,0.017333392478202356,0.9813986243252119
2011-11-25,1,0.0029644379386713697,0.00328589850497243,-0.005348199242495544,0.02015813437605388,0.9828894178687331
2011-11-29,1,0.003785657961989634,0.004189975941180212,-0.008144230306249943,0.01705976502378068,0.9841654011237224
2011-12-01,1,0.004604372585745675,0.0050829604544543674,-0.008144230306249943,0.014411881484614971,0.9853736172906206
2011-12-05,1,0.0021441245799590173,0.0022238245486892634,-0.005826862832660871,0.014411881484614971,0.9885291146121882
2011-12-07,1,0.0032739987952397497,0.0034826678102407318,-0.005826862832660871,0.01190410528841615,0.990082552105558
2011-12-09,1,0.0038112416848900058,0.00409475996908074,-0.005826862832660871,0.007944915309681524,0.990647858017152
2011-12-13,1,0.0033046101548418584,0.0035362520751868612,-0.0051091742958978975,0.007944915309681524,0.9915350360084232
2011-12-15,1,0.002402264245098027,0.002495399979429548,-0.0051091742958978975,0.007944915309681524,0.992244722360059
2011-12-19,1,0.0012703336279885858,0.001369932934066143,-0.0017050450776000168,0.007944915309681524,0.9930397596555578
2011-12-21,1,0.0013038856154992463,0.0014663999936208698,-0.0017050450776000168,0.007944915309681524,0.9924146441051
2011-12-23,1,0.0018193021845562256,0.0019449847706877665,-0.003460058142772578,0.00445811906086298,0.9934940796973699
2011-12-28,1,9.40781157003339e-05,0.0004679305758829924,-0.0012000245728354406,0.00445811906086298,0.9938463325780647
2011-12-30,1,0.00042645876529662187,0.0007861980577434625,-0.005826862832660871,0.0019921669116770976,0.9940018460047864
2012-01-04,1,0.0010458153940164586,0.001205386454635297,-0.004432584638877018,0.0035430689848562087,0.9921432924660796
2012-01-06,1,0.001682795557094879,0.0017462018237422358,-0.004432584638877018,0.0035430689848562087,0.9911577162532684
2012-01-10,1,0.0011793013932884595,0.0013207301582182972,-0.004432584638877018,0.0035430689848562087,0.9912323613580799
2012-01-12,1,6.469571600333976e-05,0.00039875083759237286,-0.009148920353082833,0.0019505914770947433,0.990652318109885
2012-01-17,1,0.0011787688035580566,0.0011993705113943626,-0.010332450129046685,0.0019505914770947433,0.9891400537284939
2012-01-19,-1,-0.0003376625935531928,-1.1679396686813288e-05,-0.010332450129046685,0.0035062282473946288,0.9889557112328206
2012-01-23,1,0.00292597880897927,0.0032302464810431493,-0.010332450129046685,0.0013321523582389095,0.9890636628228265
2012-01-25,1,0.002743422834426693,0.0030728256297169474,-0.010332450129046685,0.0011710306858024062,0.9887475013555204
2012-01-27,1,0.0015407010721578947,0.0015485280888772376,-0.010332450129046685,0.0052299574237879825,0.9890329738143009
2012-01-31,1,0.0018903538620078748,0.0020807850099819228,-0.00861885561905552,0.0052299574237879825,0.9895149131357204
2012-02-02,1,0.0012265420585366642,0.0012474700397480153,-0.0075141088287947215,0.0052299574237879825,0.9912853799555273
2012-02-06,1,0.0019294011960309214,0.002061835508988063,-0.009350364702521298,0.003510104247545995,0.9910239533709638
2012-02-08,1,0.0027898135784613937,0.0031040686759697712,-0.009350364702521298,0.0052299574237879825,0.9904350822994366
2012-02-10,1,0.001991333009910402,0.002175326609715017,-0.007390827744774117,0.006154077607429717,0.9905794708802886
2012-02-14,-1,-0.0011160679056244252,-0.0006566134177541042,-0.00679174501525999,0.006873175239455688,0.9915455782427369
2012-02-16,-1,-0.0008261675552903667,-0.00045443577220924424,-0.00679174501525999,0.008980608096545863,0.9909320063931901
2012-02-21,-1,-0.0005883999745285395,-0.0002697369735434333,-0.00679174501525999,0.011164683959246993,0.990557637104503
2012-02-23,-1,-0.0009585102663419046,-0.0006064973525153021,-0.007312709629531542,0.011164683959246993,0.9902502159066856
2012-02-27,0,0.0,0.0,-0.007312709629531542,0.011164683959246993,0.9900709745174785
2012-02-29,0,0.0,0.0,-0.007390827744774117,0.011164683959246993,0.9900390600126683
2012-03-02,0,0.0,0.0,-0.0075268925268323975,0.011164683959246993,0.9897931708909731
2012-03-06,0,0.0,0.0,-0.007226896204959847,0.014280939113628936,0.9888724555566344
2012-03-08,1,0.0009403476602650885,0.0009712040502118852,-0.007249105349880566,0.014280939113628936,0.9889833587520367
2012-03-12,1,0.0006080663745341607,0.0007878798914888137,-0.0075935199615945565,0.013111080075365756,0.9892372386249638
2012-03-14,1,0.0007823163616344394,0.0009341776284168432,-0.0075935199615945565,0.011218576870049433,0.989722163075729
2012-03-16,1,0.0016056372364403706,0.0016486873900989083,-0.008196612581321166,0.00942966658221785,0.9896411735361895
2012-03-20,1,0.002426522281606239,0.002524506167542322,-0.008196612581321166,0.00942966658221785,0.9894956047137153
2012-03-22,1,0.0024041325695133217,0.002580473159249001,-0.0075935199615945565,0.00942966658221785,0.9897500797345987
2012-03-26,1,0.002552225285077469,0.002729513772633132,-0.008196612581321166,0.00771541397501782,0.9895530149693388
2012-03-28,1,0.0016254314983948448,0.0017061997759727635,-0.008360993152123651,0.009013076030011676,0.9854333530775087
2012-03-30,1,0.0015214338775641997,0.0015920399315877496,-0.008360993152123651,0.009013076030011676,0.9856425831990033
2012-04-03,0,0.0,0.0,-0.008360993152123651,0.004924329777677618,0.987265479224924
2012-04-05,1,0.0018530047621077234,0.002081141731447187,-0.0075216777174246085,0.004924329777677618,0.9869468580243713
2012-04-10,0,0.0,0.0,-0.006474432715329167,0.004924329777677618,0.9883131996440562
2012-04-12,0,0.0,0.0,-0.006474432715329167,0.003624627224647692,0.9889056622787816
2012-04-16,0,0.0,0.0,-0.004752303682033603,0.003624627224647692,0.989643537997704
2012-04-18,0,0.0,0.0,-0.004752303682033603,0.001893395816290688,0.9901558666067742
2012-04-20,-1,-0.0003421054863834268,-0.00016402705857120476,-0.00429273676967615,0.0029357302239166206,0.9899613103141242
2012-04-24,-1,-0.00010820729376535699,-2.8791791610949035e-05,-0.004101193871654746,0.0029357302239166206,0.9901868196629806
2012-04-26,0,0.0,0.0,-0.0035604054372117572,0.0029357302239166206,0.9943802104043274
2012-04-30,0,0.0,0.0,-0.002886555131334021,0.0048126384466370044,0.9938970821797283
2012-05-02,-1,-0.001953290545818299,-0.0017172651848524857,-0.002841746840549834,0.0048126384466370044,0.993488141187577
2012-05-04,-1,-0.0018198751074696045,-0.0016054646679170435,-0.002841746840549834,0.008476031636651579,0.9921572507041074
2012-05-08,-1,-0.0021359847775553977,-0.0018640544907947418,-0.0021254132403282448,0.013387216162876744,0.9908031143381905
2012-05-10,0,0.0,0.0,-0.002841746840549834,0.013387216162876744,0.9907000396273798
2012-05-14,0,0.0,0.0,-0.007169733619323963,0.013387216162876744,0.9897487420746478
2012-05-16,0,0.0,0.0,-0.007169733619323963,0.013387216162876744,0.9893088938121186
2012-05-18,0,0.0,0.0,-0.006595741346969027,0.013762470972152894,0.9890653771094101
2012-05-22,0,0.0,0.0,-0.006595741346969027,0.013387216162876744,0.9896644424247184
2012-05-24,0,0.0,0.0,-0.007169733619323963,0.013230003674320855,0.9895573322974031
2012-05-29,-1,-0.0005609493669224896,-0.0004855338474175333,-0.00935526857582286,0.010274955651946466,0.9898003159327842
2012-05-31,-1,-0.0005304962701006515,-0.00045882761312299896,-0.00935526857582286,0.01209290629159031,0.9877033532681634
2012-06-04,-1,-0.0006928848308772402,-0.0006128384839781177,-0.007389308207233852,0.011546788278728837,0.9888079935787859
2012-06-06,-1,-0.0004434207599294996,-0.00040611722024489784,-0.007389308207233852,0.010002945933317109,0.9895578348522447
2012-06-08,0,0.0,0.0,-0.006613351698493865,0.010002945933317109,0.9904596556353858
2012-06-12,0,0.0,0.0,-0.003019068657927301,0.010002945933317109,0.9912074528600585
2012-06-14,0,0.0,0.0,-0.003019068657927301,0.010850461487649928,0.9907124142100865
2012-06-18,0,0.0,0.0,-0.002843493097004803,0.010850461487649928,0.9909596927406319
2012-06-20,0,0.0,0.0,-0.0038076198483557723,0.010850461487649928,0.9907581262878339
2012-06-22,1,0.0009083645288860732,0.0010547346062249226,-0.0038076198483557723,0.010850461487649928,0.9912947017633311
2012-06-26,1,0.000716582184697513,0.0008431791649280839,-0.0027736364621797818,0.010850461487649928,0.991644373951825
2012-06-28,1,0.002587652063057045,0.0027221681025635836,-0.0027736364621797818,0.007174622961606111,0.9934019237444831
2012-07-02,1,0.0026364499938864995,0.0027697925842666534,-0.0038076198483557723,0.007129114873454417,0.9927409602930468
2012-07-05,1,0.0023862480020789183,0.0024405200523070804,-0.008434082628578662,0.004513515506623005,0.9914179620998552
2012-07-09,1,0.001400413943672721,0.0015067648298286147,-0.008434082628578662,0.007129114873454417,0.9910643186107863
2012-07-11,1,0.0011936178761861526,0.0013251347190833495,-0.008434082628578662,0.007129114873454417,0.9912291726579299
2012-07-13,1,0.0019353476447637203,0.001985012724679329,-0.008434082628578662,0.004513515506623005,0.9918297562025792
2012-07-17,1,0.0017221418041552697,0.0018141967070875772,-0.008434082628578662,0.004357268575550634,0.9924626769781801
2012-07-19,1,0.0016784912560063496,0.001752678701773788,-0.003371953966369039,0.006363476622723607,0.992526242473534
2012-07-23,1,0.000785848106464853,0.0009889300026417738,-0.000776581118971604,0.007129114873454417,0.991952035598354
2012-07-25,1,0.0002811617985526647,0.0005543829370653801,-0.0024801373754002338,0.007129114873454417,0.9916608647798532
2012-07-27,1,5.721355532852337e-05,0.0003880153792690293,-0.008434082628578662,0.006660374080237305,0.9914512163349568
2012-07-31,-1,-0.0008042241611439242,-0.0005257472173595654,-0.007060765644431319,0.003904388604740275,0.9918926639751539
2012-08-02,-1,-0.0018010584649972572,-0.0014715662546036746,-0.0016860239490525304,0.008413849790614126,0.9918666017606046
2012-08-06,-1,-0.0014871727169150847,-0.0011882147029245917,-0.003214867166960127,0.006687959322773412,0.9930107844952956
2012-08-08,-1,-0.0009628406846439878,-0.0007634486853985042,-0.0043993336844847155,0.006687959322773412,0.9925040899754719
2012-08-10,-1,-0.0002288226238130702,-0.00016773869921640367,-0.0043993336844847155,0.0069716608972475985,0.9921810073078094
2012-08-14,-1,-0.00028631116240043493,-0.00018891798225763242,-0.0043993336844847155,0.006008542799557848,0.992494229443273
2012-08-16,1,0.0004784815930392771,0.0004806590122000768,-0.0043993336844847155,0.00955128901914949,0.9917989897739697
2012-08-20,1,0.0013401236141011696,0.0014162688836545085,-0.007435383454015957,0.009492104359616563,0.9919603585107333
2012-08-22,1,0.0003663825128163586,0.0004485887341568077,-0.003214867166960127,0.009492104359616563,0.9927873486540238
2012-08-24,1,0.0006842609797336901,0.0007167044389561182,-0.0025868148213080353,0.009492104359616563,0.9932068017158245
2012-08-28,1,0.0003335317912531153,0.00035399742385265484,-0.0014865260889944643,0.009492104359616563,0.993058431677025
2012-08-30,1,0.00034468865935802446,0.00038926441836369076,-0.0014865260889944643,0.00920814854532536,0.9932046067732662
2012-09-04,1,0.0004953040298540056,0.000495647136925068,-0.0007345334318050582,0.010232738555889128,0.9925066616249256
2012-09-06,-1,-0.0001501339915280978,-3.986986604919237e-05,-0.0005721555452566863,0.010232738555889128,0.9925624021094246
2012-09-10,1,0.00021498433093968328,0.00026294869233148483,-0.0007345334318050582,0.00920814854532536,0.9928014210808022
2012-09-12,-1,-0.00031603803534241946,-0.00020864999459415924,-0.002829585374122149,0.00920814854532536,0.9896810579969441
2012-09-14,-1,-0.0012851908291623602,-0.0011379037074208862,-0.003717590819025011,0.008137053858655941,0.9898879970268465
2012-09-18,1,0.0015128312582393354,0.0016086694564496156,-0.0014704267684179,0.0070767931046336,0.9908312492020274
2012-09-20,1,0.0014574448657257686,0.001510774629809344,-0.0010305352467726789,0.006577570462500253,0.9909544620179565
2012-09-24,1,0.0013335485708061729,0.0013482937928113617,-0.003717590819025011,0.0070767931046336,0.9889100806769245
2012-09-26,1,0.0008655877240254439,0.0009363934987003061,-0.004485384473993451,0.0070767931046336,0.9888141629046341
2012-09-28,1,0.001230799777028785,0.0012755916327226095,-0.004485384473993451,0.0070767931046336,0.9888378053400123
2012-10-02,0,0.0,0.0,-0.004485384473993451,0.0070767931046336,0.9882696003280276
2012-10-04,0,0.0,0.0,-0.007825929321445765,0.006968542155246089,0.9880128226074171
2012-10-08,0,0.0,0.0,-0.00854155280521557,0.009183267577738422,0.9872433195201051
2012-10-10,0,0.0,0.0,-0.004516247159301457,0.009183267577738422,0.9898279110537443
2012-10-12,0,0.0,0.0,-0.004516247159301457,0.006968542155246089,0.9906585226432915
2012-10-16,1,0.0021837126667509092,0.002299599816200972,-0.008464144882892238,0.0064556468510004366,0.9903031723344015
2012-10-18,1,0.002243460330649932,0.0024165477678202013,-0.008464144882892238,0.010468419655249207,0.9896658032095453
2012-10-22,1,0.0017898478414542349,0.0018979809725854137,-0.004516247159301457,0.008798898417112256,0.9917270575009451
2012-10-24,1,0.0014630137868971217,0.0015184390644197281,-0.004446551906494411,0.010468419655249207,0.9914488766871844
2012-10-26,1,0.002788845209850761,0.0030492308521463843,-0.004415801207060935,0.008798898417112256,0.9918788750065279
2012-11-01,0,0.0,0.0,-0.007288812027059931,0.004994771808174396,0.9932125288232841
2012-11-05,0,0.0,0.0,-0.006383123313731979,0.003077647070647899,0.9937033591101738
2012-11-07,0,0.0,0.0,-0.006383123313731979,0.003077647070647899,0.9923488555583323
2012-11-09,1,0.001944237368499338,0.0019858804551207694,-0.006383123313731979,0.005423155834011324,0.9913491865514845
2012-11-13,1,0.0018525565042652053,0.0018801723400020773,-0.006383123313731979,0.010826368337504517,0.9905224954233659
2012-11-15,0,0.0,0.0,-0.00474315074399655,0.010826368337504517,0.9911305036764714
2012-11-19,1,0.0003254741396338399,0.00045751992976220086,-0.00474315074399655,0.008591551773695225,0.9907464927965529
2012-11-21,1,0.0010419942686682472,0.0010677793728172003,-0.006383123313731979,0.008591551773695225,0.990098528483958
2012-11-26,1,0.0012387511231401025,0.001299013722486293,-0.006383123313731979,0.004607298925962069,0.9901249288492803
2012-11-28,1,0.001321186748478819,0.0014060959763169411,-0.007251632544866618,0.007300063707154136,0.9890537263526803
2012-11-30,1,0.0010071155573185382,0.0010370577230851964,-0.00760231104401438,0.010768055363164634,0.9881744059153454
2012-12-04,1,0.0005994019984075992,0.0006235017163242371,-0.00760231104401438,0.017160868234456495,0.9874083200617498
2012-12-06,0,0.0,0.0,-0.005427898335758605,0.010768055363164634,0.9897080522060894
2012-12-10,0,0.0,0.0,-0.005238778186849265,0.010768055363164634,0.9896023939194322
2012-12-12,0,0.0,0.0,-0.005238778186849265,0.011186130030413244,0.989286494960513
2012-12-14,0,0.0,0.0,-0.0070349505972863565,0.011186130030413244,0.9878267931198889
2012-12-18,0,0.0,0.0,-0.0070349505972863565,0.011186130030413244,0.9866986929065628
2012-12-20,0,0.0,0.0,-0.006716755816962796,0.016405871662608797,0.986001949161788
2012-12-24,0,0.0,0.0,-0.00401202537603111,0.0178069237247871,0.9849637419027081
2012-12-27,0,0.0,0.0,0.0023687370726853396,0.018815660840705933,0.9840911710871859
2012-12-31,0,0.0,0.0,0.005328312009066614,0.018530483258091278,0.9846980880766161
2013-01-03,1,0.0007866195581145093,0.0008134100392520804,0.002185218000417907,0.01753177530211182,0.9857580208755529
2013-01-07,0,0.0,0.0,0.0021248020712499793,0.018530483258091278,0.9835909615804224
2013-01-09,1,0.0021144523384221377,0.0021655259444794744,0.0039019334332826704,0.01753177530211182,0.985485132771745
2013-01-11,1,0.0033100058488499742,0.0035362889458726977,0.003324811583852056,0.016465901405432262,0.9867365075003149
2013-01-15,1,0.0022902540532603074,0.0024481793542592317,0.004019683430405821,0.016465901405432262,0.9875805071480025
2013-01-17,0,0.0,0.0,0.0039019334332826704,0.01509638640867033,0.9878792962028169
2013-01-22,0,0.0,0.0,0.0017382132970936866,0.013345871347678843,0.9879223659624313
2013-01-24,0,0.0,0.0,0.0017382132970936866,0.011570704771151996,0.9894265939683227
2013-01-28,1,0.006351708156164032,0.006928105543122324,-0.00023575122061870633,0.011082485422863966,0.9912974835578228
2013-01-30,1,0.0064903877475645175,0.007063075721138767,-0.0014424799862898861,0.010956764836975455,0.9909192071021714
2013-02-01,1,0.005526561536998138,0.005926624366509838,-0.001407354656010537,0.011193543013486462,0.9906988104706177
2013-02-05,1,0.006725086068783581,0.007295255069284834,-0.001407354656010537,0.010956764836975455,0.9917113655589609
2013-02-07,1,0.006533181401952387,0.00706354905179617,-0.0034095330475051883,0.011193543013486462,0.9870584255636028
2013-02-11,0,0.0,0.0,-0.0034095330475051883,0.011193543013486462,0.9867084705080769
2013-02-13,1,0.005242399797504473,0.005765526741817122,-0.005293843340248152,0.011611629428849317,0.9864963768671481
2013-02-15,0,0.0,0.0,-0.009688539036662629,0.011611629428849317,0.9857737604344977
2013-02-20,0,0.0,0.0,-0.004719297505286365,0.011611629428849317,0.986596868351626
2013-02-22,0,0.0,0.0,-0.004719297505286365,0.013652201743960268,0.9861591367510786
2013-02-26,0,0.0,0.0,-0.001407354656010537,0.013913375661322917,0.9866003165354866
2013-02-28,0,0.0,0.0,-0.0013476015772334636,0.013913375661322917,0.9863186536606188
2013-03-04,1,0.005532574334155178,0.006156419379332015,-0.0020433625961497216,0.010070560075563246,0.9885179887726381
2013-03-06,1,0.005035765820356837,0.005577685379956363,-0.006129703743522433,0.010070560075563246,0.9875634707616413
2013-03-08,0,0.0,0.0,-0.005142945391013842,0.008714728046473037,0.9917038377117758
2013-03-12,0,0.0,0.0,-0.005142945391013842,0.008714728046473037,0.9912961289017157
2013-03-14,0,0.0,0.0,-0.005521753275158293,0.008411869187630075,0.9919708796690313
2013-03-18,0,0.0,0.0,-0.005521753275158293,0.008714728046473037,0.9903591177417723
2013-03-20,0,0.0,0.0,-0.0063347918920425746,0.008714728046473037,0.9887536281515
2013-03-22,0,0.0,0.0,-0.0063347918920425746,0.008714728046473037,0.9880512702480186
2013-03-26,0,0.0,0.0,-0.0063347918920425746,0.008714728046473037,0.9877312770759789
2013-03-28,0,0.0,0.0,-0.0066054847755753834,0.008083252617505208,0.9871635628630818
2013-04-02,0,0.0,0.0,-0.00824559413516001,0.008083252617505208,0.9858904204871506
2013-04-04,1,0.005499961003788772,0.005687890662483886,-0.0066054847755753834,0.008372915101713174,0.9857066112344146
2013-04-08,1,0.004857027456847139,0.004922024378836043,-0.0066054847755753834,0.011570000581993298,0.9853470561727511
2013-04-10,1,0.005355888028570559,0.005489868265696758,-0.007959823782872516,0.008372915101713174,0.9846641981114632
2013-04-12,0,0.0,0.0,-0.007959823782872516,0.010029403853773796,0.985464168075959
2013-04-16,0,0.0,0.0,-0.007959823782872516,0.011256766170533136,0.9868781130558812
2013-04-18,1,0.9707334476656054,0.9791977082855013,-0.006927936854632948,0.014243041920121305,0.5072587946995674
2013-04-22,1,0.0010128222147389077,0.0013141329345201485,-0.006927936854632948,0.014243041920121305,0.9876432181646505
2013-04-24,1,0.0012870078538350456,0.0015748442635975708,-0.007959823782872516,0.011256766170533136,0.9881365432706029
2013-04-26,1,0.0014998033305490916,0.0017888324316664265,-0.007959823782872516,0.008541089370404844,0.9893789433264676
2013-04-30,-1,-0.0008542810741514529,-0.0002585183145106646,-0.005727214653941663,0.011256766170533136,0.9901846806971152
2013-05-02,0,-0.00017379261021987667,0.000313894069124842,-0.006927624736303431,0.011256766170533136,0.9900821556240896
2013-05-06,0,-1.0055950508276821e-05,0.0004527263142297265,-0.00931065481272332,0.004914661593750222,0.9903483243024294
2013-05-08,-1,-0.0012907190583921287,-0.0006782932591377364,-0.006939340706157083,0.011256766170533136,0.9894779051824449
2013-05-10,-1,-0.0016824088905581943,-0.0010043373749493167,-0.005190150376147406,0.014265604175733476,0.9888443393629207
2013-05-14,-1,-0.0011092563287451141,-0.0005543504606972676,-0.012677980123812198,0.0064778205775818925,0.9883215904410081
2013-05-16,-1,-0.0006543899862919307,-0.0001051875477211747,-0.012677980123812198,0.0028415567830030086,0.9893160859453068
2013-05-20,0,-0.0005617303535148353,3.423966629704893e-05,-0.012677980123812198,0.004376898453953798,0.9897269487881641
2013-05-22,-1,-0.0019349679691611386,-0.0011460842961484442,-0.012677980123812198,0.004376898453953798,0.9890884067290137
2013-05-24,-1,-0.0022578326852213558,-0.0014308211245352984,-0.014541110227050987,0.0074092351612594625,0.9873064630480869
2013-05-29,-1,-0.0014137960667085555,-0.0007434061963509781,-0.014541110227050987,0.009317970123010728,0.9864687111257807
2013-05-31,-1,-0.002308780888368926,-0.001527025150228427,-0.016882084072833446,0.009317970123010728,0.9864796622260722
2013-06-04,-1,-0.0030130199824215066,-0.0021700868591802104,-0.016882084072833446,0.01260595165739101,0.9861871059095851
2013-06-06,-1,-0.0022733782404400766,-0.001560561287114337,-0.011444542429881277,0.012495014915178255,0.9875911511027143
2013-06-10,-1,-0.0025884739227010766,-0.0017558068632214608,-0.011444542429881277,0.012495014915178255,0.9873813337001573
2013-06-12,-1,-0.00347148647301931,-0.002617605674436967,-0.004491666341279014,0.01290276429293018,0.9872382572465637
2013-06-14,-1,-0.0034383654044636146,-0.0026358284877037123,-0.004491666341279014,0.013721221832765019,0.9860522869708016
2013-06-18,-1,-0.0018601203647359676,-0.0013083387827130717,-0.00677386023341438,0.01427050816247384,0.9858043150303875
2013-06-20,0,0.0,0.0,-0.003564789846680098,0.01427050816247384,0.9864104305520218
2013-06-24,0,0.0,0.0,-0.0032157924092179376,0.01427050816247384,0.9881641137243949
2013-06-26,0,0.0,0.0,-0.0035727363154123867,0.01290276429293018,0.989164052457298
2013-06-28,0,0.0,0.0,-0.0035727363154123867,0.01290276429293018,0.9899317545772928
2013-07-02,-1,-0.0016079275864875303,-0.0012833460124836086,-0.0032157924092179376,0.01290276429293018,0.9889500149221191
2013-07-05,0,-0.00015588747490482527,0.0001862026206413275,-0.0031504263305817673,0.013954531713459133,0.9892743878398715
2013-07-09,1,0.0003728759039694611,0.0004428846665705691,-0.003722860026353943,0.012294535552405377,0.9903193341764497
2013-07-11,1,0.0014040046190242645,0.0014808384032211504,-0.003722860026353943,0.009131364703445184,0.991156310803653
2013-07-15,1,0.000982471290531568,0.0010171092147124663,-0.003722860026353943,0.006998218032890464,0.9926982828986225
2013-07-17,1,0.0013656488300208378,0.001393255680362214,-0.003722860026353943,0.002571252522118368,0.9933743222529787
2013-07-19,0,0.0,0.0,-0.005262663413433398,0.0008131344320164062,0.9925212646750627
2013-07-23,0,0.0,0.0,-0.00568876438515746,0.0007491589302422328,0.9914160454736138
2013-07-25,0,0.0,0.0,-0.00568876438515746,0.001200174624533543,0.9907424385875856
2013-07-29,0,0.0,0.0,-0.00568876438515746,0.001200174624533543,0.99076075615791
2013-07-31,0,0.0,0.0,-0.007357634266723836,0.0007370236180396856,0.9909064723548459
2013-08-02,0,0.0,0.0,-0.00907718411698496,0.000635275603869431,0.9914642949160609
2013-08-06,1,0.0,0.002782374710430356,-0.00907718411698496,0.000635275603869431,0.9907037353329198
2013-08-08,1,0.0022369541896008383,0.0024093148142001397,-0.01060676177870083,-0.00037292818971493725,0.9886919369792087
2013-08-12,1,0.0020602536264356357,0.0022200024854781833,-0.01060676177870083,0.001036115054297729,0.9889312030725693
2013-08-14,1,0.0017062172014369898,0.00185415530297581,-0.00907718411698496,0.001036115054297729,0.9895666577597371
2013-08-16,1,0.0005684984170626447,0.000610414372767143,-0.007061598059745485,0.001036115054297729,0.9918277941946311
2013-08-20,-1,-1.9706155420471656e-05,-1.5862840491452232e-05,-0.005743991418965776,0.00602930899611682,0.9920079166096994
2013-08-22,1,6.324546424160223e-05,6.594326075586959e-05,-0.005743991418965776,0.002263118170820421,0.9917606561903244
2013-08-26,-1,-0.000824140997066623,-0.0006677119176735492,-0.0066864826972137595,0.003437373968624788,0.9919263110029898
2013-08-28,-1,-0.0019835300550019126,-0.0016872835639628605,-0.007664238727213545,0.003437373968624788,0.9919073736555758
2013-08-30,-1,-0.0017936021302071856,-0.00156392749652491,-0.0066864826972137595,0.006466025628354561,0.990951306231561
2013-09-04,-1,-0.001983094491544246,-0.0017024103408502876,-0.00597429035558436,0.007384337667151172,0.9887135374813496
2013-09-06,-1,-0.004102011135263799,-0.0035225780392979297,-0.0033039528820465206,0.00919411431842736,0.9879751312419262
2013-09-10,-1,-0.004168168353273918,-0.0035347725356228354,-0.007664238727213545,0.00919411431842736,0.9872149349561186
2013-09-12,-1,-0.0037622329475862906,-0.0032327832618343514,-0.007664238727213545,0.011510699437256255,0.9860862938494407
2013-09-16,-1,-0.0032351030243973357,-0.0027948632201599756,-0.007664238727213545,0.011510699437256255,0.9865866745559446
2013-09-18,-1,-0.0012647932937782992,-0.0010996281443945164,-0.007664238727213545,0.011510699437256255,0.9859707682189279
2013-09-20,-1,-0.0034395519770482825,-0.002944938749697322,-0.004539288689483877,0.011510699437256255,0.9861622594276424
2013-09-24,-1,-0.003143008993611086,-0.002717333090835634,-0.004062463876067861,0.011510699437256255,0.9859202524204441
2013-09-26,-1,-0.004234246022803281,-0.003702063085076251,-0.004062463876067861,0.011510699437256255,0.9860407281227695
2013-09-30,-1,-0.003635524301720935,-0.0031273337709585777,-0.005574677191717979,0.008381378903004949,0.9875307099970223
2013-10-02,-1,-0.002102548502965385,-0.0017819090522872318,-0.006332737893970565,0.008381378903004949,0.9884246766257172
2013-10-04,-1,-0.0012382124430920446,-0.0010245665251235716,-0.006332737893970565,0.008381378903004949,0.9884802551404012
2013-10-08,-1,-0.0022851275489696905,-0.002002528017369749,-0.005054301802255958,0.011948109521032688,0.9891324769960257
2013-10-10,-1,-0.0007509879114427,-0.0006925798010344166,-0.006332737893970565,0.008381378903004949,0.9866702460159796
2013-10-14,-1,-0.001114151223783784,-0.0009909398034837363,-0.006332737893970565,0.011948109521032688,0.9859197809564355
2013-10-16,1,0.00044852146204768214,0.0005248577831397309,-0.0093462796373306,0.011948109521032688,0.9862934345796971
2013-10-18,1,0.0009681540125345588,0.0011347320840098972,-0.0093462796373306,0.012741626505356837,0.9862344000213621
2013-10-22,1,0.0009610614642189292,0.0011020968322135363,-0.0093462796373306,0.012741626505356837,0.986614882636498
2013-10-24,-1,-0.00012956210228281048,-0.00010664316676064986,-0.006916400943126708,0.01634439519519806,0.9867839738841001
2013-10-28,-1,-0.0002661363830605977,-0.0002542764517000324,-0.008597133024541757,0.01634439519519806,0.986280452176548
2013-10-30,1,0.00023839981058043164,0.0003342735179361529,-0.007300086831713814,0.012741626505356837,0.9874586371042262
2013-11-01,1,0.00021423757223374025,0.00023049002550205562,-0.008169902444754849,0.013263277426976602,0.9868660578150423
2013-11-05,1,0.0009172294959528633,0.001011891925553798,-0.008169902444754849,0.005875091732451798,0.9880506479312989
2013-11-07,-1,-0.001457238039180397,-0.001304117131134656,-0.006597481123845243,0.012902963021733714,0.990539720131811
2013-11-11,-1,-0.001664201582375265,-0.0014229860265248463,-0.0068952691991582375,0.005875091732451798,0.9911113521511538
2013-11-13,-1,-0.001533769880038139,-0.0012615130080971615,-0.0068952691991582375,0.004195993193108925,0.9915019880768269
2013-11-15,-1,-0.0004097740588535113,-0.0003276984414067861,-0.0068952691991582375,0.004195993193108925,0.9919977943888378
2013-11-19,-1,-0.0013097299262325908,-0.0010764525327545374,-0.007642375324094203,0.005264320312824007,0.9913975104787895
2013-11-21,-1,-0.00040202536937301175,-0.0002942448719644334,-0.007642375324094203,0.005264320312824007,0.9919857951215847
2013-11-25,-1,-0.0012422362567345658,-0.001055507303184993,-0.004825948870416132,0.006404110679338522,0.99219072775361
2013-11-27,-1,-0.0005458597889559791,-0.0005070739494218203,-0.004825948870416132,0.007076310829510719,0.9918942244644603
2013-12-02,1,0.000516860188722727,0.0006687696323225412,-0.0033182130184076447,0.007076310829510719,0.9925275696071905
2013-12-04,1,0.0007579653187099662,0.0009611461612973144,-0.0035296160069419073,0.008111538147276165,0.9918841190996653
2013-12-06,1,0.0016685520227662982,0.0020159137043991968,-0.004825948870416132,0.007076310829510719,0.9912277704915601
2013-12-10,1,0.0017220657412173317,0.0021090315131460217,-0.0035296160069419073,0.009853691348470684,0.9893059855548538
2013-12-12,1,0.0010374973119776077,0.0013311191906490748,-0.0035296160069419073,0.009853691348470684,0.9888965392313216
2013-12-16,1,0.0009270340332213609,0.0011869697815957438,-0.004590998404222481,0.009853691348470684,0.9885431577266862
2013-12-18,1,0.0011634164036419307,0.0014457849900617633,-0.005001222907233428,0.009181022317049202,0.9882606327204204
2013-12-20,1,0.0020217704872455312,0.002491470936070477,-0.008907340343209613,0.009853691348470684,0.98732674803249
2013-12-24,1,0.0026559710878017563,0.0032450522810166214,-0.012319407259531944,0.009181022317049202,0.9856365931448199
2013-12-27,1,0.0022709408690936854,0.002790900649129354,-0.010242584559372124,0.010240387840687263,0.9846941030047602
2013-12-31,1,0.0029531397994460667,0.003560325000625532,-0.010242584559372124,0.010240387840687263,0.9837755258347921
2014-01-03,1,0.0032296528436678495,0.0038670390598759745,-0.013039779926817738,0.009409882894926686,0.9823269388593849
2014-01-07,1,0.001968683238028814,0.0024045910744728057,-0.011814107333357592,0.009871396479153569,0.9828093202241528
2014-01-09,1,0.0031267079892268197,0.0036340817154508947,-0.011814107333357592,0.00952657032681116,0.9847999005675917
2014-01-13,1,0.0018902754421133746,0.002179779182547261,-0.010242584559372124,0.010221458774806987,0.9849662721890524
2014-01-15,1,0.0018968844963403362,0.0022010297215124563,-0.009355905667541369,0.010221458774806987,0.9849870385208404
2014-01-17,1,0.0015198347078402617,0.0017621115418244191,-0.00849441417526779,0.01044000002145532,0.9854387412461432
2014-01-22,1,0.0014205607499767126,0.0015875966051861726,-0.0067197674323957015,0.01044000002145532,0.9860187970739304
2014-01-24,-1,-0.0005064170117886845,-0.0004105739524366707,-0.003949228130686399,0.011849912635733711,0.9860508896286789
2014-01-28,1,0.0010587201159484153,0.0011486222532037299,-0.0067197674323957015,0.011849912635733711,0.9869682532327128
2014-01-30,1,0.0014466045131309143,0.0015109357210698004,-0.004527736318606921,0.01044000002145532,0.9887736648772311
2014-02-03,1,0.0004350616110871062,0.0004776956214139857,-0.004527736318606921,0.01044000002145532,0.9897252521725877
2014-02-05,1,2.6017276340665498e-05,0.00013435551928383827,-0.006209552541529904,0.010429496056435332,0.9898407703729585
2014-02-07,1,0.0005675537688811498,0.0006067513734700203,-0.009237530620840111,0.009877306811315247,0.9893391382722465
2014-02-11,1,0.0025238816488202895,0.0028006230063048034,-0.009281135815459782,0.008273995638409873,0.9902007068260308
2014-02-13,1,0.0016527775156319631,0.0017416604117619129,-0.012421730826108158,0.006072339630331099,0.9895564661416122
2014-02-18,1,0.0016376982351974665,0.0017111051204011102,-0.012421730826108158,0.006072339630331099,0.9890453550029942
2014-02-20,1,0.0012981034598713692,0.0013447618245259001,-0.012421730826108158,0.0058162570946671465,0.9894406417941106
2014-02-24,1,0.0017084257568975598,0.0017605870021246777,-0.012421730826108158,0.005463075673339567,0.9895926283934379
2014-02-26,1,0.002686363146906735,0.002952916192068667,-0.012407292109823076,0.0007609684910756122,0.9898476589752443
2014-02-28,1,0.0029465152857158995,0.003286511699114731,-0.013893983132454334,0.005463075673339567,0.986361712843553
2014-03-04,1,0.0017893319809098869,0.001866310203994228,-0.013893983132454334,0.005463075673339567,0.9864067779569143
2014-03-06,1,0.0013661112667604429,0.0014291356437073784,-0.01428496620306395,0.005463075673339567,0.9860950865494461
2014-03-10,1,0.0006837339572339214,0.0007213744755884134,-0.015386796755094467,0.002489995621021781,0.9850354319917217
2014-03-12,1,0.0010519624442213524,0.0011508033997721847,-0.015386796755094467,0.009147094391634455,0.9845379308805166
2014-03-14,1,0.00014984583564454885,0.00015295539163563508,-0.01562325490962812,0.009147094391634455,0.9834559103959699
2014-03-18,1,0.0005602221479207299,0.0006282897995866844,-0.01562325490962812,0.009147094391634455,0.9837490283845906
2014-03-20,1,0.00030630547894002175,0.0003277326477525008,-0.01562325490962812,0.008087550127651716,0.9836801417911392
2014-03-24,-1,-0.0005071468083646783,-0.00036207556182927983,-0.015386796755094467,0.011271807480255398,0.9840073692963434
2014-03-26,-1,-0.0012347153576711947,-0.001010103841506551,-0.015386796755094467,0.011271807480255398,0.9842126812283648
2014-03-28,1,0.0011970195566222645,0.001302774587926795,-0.013628998802670315,0.0073317640740427695,0.9866595808198542
2014-04-01,1,0.0022202933594731864,0.0025180260608325096,-0.013628998802670315,0.009460080175273018,0.9862297254513057
2014-04-03,-1,-0.000849981841413756,-0.0005919513051014015,-0.012380860574069919,0.011271807480255398,0.9871691995867381
2014-04-07,-1,-0.002595317190636525,-0.0021640342087022287,-0.009282173425650403,0.011271807480255398,0.9879580298300685
2014-04-09,-1,-0.001408316203925148,-0.0011373276464566554,-0.011601269150548417,0.006746373260605568,0.9885885874322999
2014-04-11,-1,-0.0033131594537396656,-0.002848210859257779,-0.007336868460725356,0.009428820755549142,0.9897977945607519
2014-04-15,-1,-0.0026697800727468876,-0.0022687989367338006,-0.007336868460725356,0.007624098365849579,0.9908054827465144
2014-04-17,-1,-0.0021413908153941133,-0.0018410657435318249,-0.009074055273242499,0.00866104259450427,0.9903937113221126
2014-04-22,-1,-0.002487934623213089,-0.002102232587864102,-0.009898928516076204,0.00866104259450427,0.9900313717243304
2014-04-24,-1,-0.0031943985455497046,-0.0027148911232466556,-0.008599226630069758,0.009428820755549142,0.98879296501438
2014-04-28,-1,-0.0037421525434136096,-0.003222767528227595,-0.0011297619319771946,0.009428820755549142,0.9885355160101094
2014-04-30,-1,-0.0021283265483523026,-0.0018013131689125577,-0.0016279142051816935,0.007552882776739063,0.9911310464355899
2014-05-02,-1,-0.0009883774416487156,-0.0008297240981456721,-0.004949395850122008,0.007552882776739063,0.9911778900196548
2014-05-06,-1,-0.0028646977384610413,-0.002463118137165341,-0.0012750488762590662,0.009215173988217596,0.990677216929456
2014-05-08,-1,-0.003498776597151066,-0.002986106722512089,-0.0007640082702837427,0.011377559820956545,0.9898788621742095
2014-05-12,-1,-0.0026762720239060962,-0.0022633749889066227,-0.0007640082702837427,0.010235020953571247,0.9906026901776709
2014-05-14,-1,-0.002495632417706245,-0.0021135156795756074,-0.0007640082702837427,0.013285425199155359,0.9881265918913429
2014-05-16,-1,-0.00237699171309555,-0.0020263682346103313,-0.0006725333087313125,0.01649355574145045,0.9877311366972197
2014-05-20,-1,-0.0019455245610733318,-0.0016585365963155253,0.0011801756101129152,0.013285425199155359,0.9886637978129402
2014-05-22,-1,-0.0009145717923011076,-0.0007325030856633631,-0.0007640082702837427,0.010235020953571247,0.990688988302616
2014-05-27,-1,-0.00020830419884793354,-0.00014298770542336208,-0.0012750488762590662,0.010235020953571247,0.9907688080569239
2014-05-29,-1,-0.00010158547016045442,-6.41371136374467e-05,-0.002059038620295444,0.012747798505594831,0.990044063247004
2014-06-02,-1,-0.0009498227585255819,-0.0007588106143186673,-0.0010142840997405568,0.01074622498540726,0.9908205603039237
2014-06-04,1,0.0008764549350861101,0.0010203870501611643,-0.0010269561931983214,0.009230845510700234,0.9912531222882471
2014-06-06,1,0.0010648526629013619,0.0011906262057810365,-0.002398869632443374,0.0077094450276745195,0.9915474603574503
2014-06-10,1,0.0014281745656735104,0.0015931990281971104,-0.003674048851862654,0.0077094450276745195,0.989979476269325
2014-06-12,1,0.002859081782058913,0.003188159766183815,-0.005845790678965779,0.0077094450276745195,0.9912386928267992
2014-06-16,1,0.003695493983847743,0.004150216793801485,-0.005845790678965779,0.004962131229579214,0.9911028931296558
2014-06-18,1,0.003123919775115479,0.0034097458750889276,-0.00905470904984135,0.0026202307388513753,0.9900463831194577
2014-06-20,1,0.003477294880515449,0.003893139740335973,-0.00905470904984135,0.005431822027312769,0.9896606592224362
2014-06-24,1,0.0035754195611534065,0.004050515791464029,-0.007608656252974753,0.005431822027312769,0.99000448485531
2014-06-26,1,0.003355426076748869,0.0037491002543591574,-0.008031192353816913,0.005431822027312769,0.9897659593739104
2014-06-30,1,0.0034071210682956117,0.0037973026050624617,-0.008031192353816913,0.004387032321607536,0.9889924322311093
2014-07-02,1,0.0032150334589290453,0.0036033021281737746,-0.008031192353816913,0.005174899474068335,0.9893433896795489
2014-07-07,1,0.003392610128644831,0.0038696204232443157,-0.007495153098258927,0.007050673465429169,0.9896454273575888
2014-07-09,1,0.003299598212999315,0.003763163721165806,-0.00718832294216697,0.0057761263218358465,0.9913914077135118
2014-07-11,1,0.003499689244178512,0.004004663501616846,-0.005214631543134535,0.0057761263218358465,0.9920253377303795
2014-07-15,1,0.003507141616187422,0.004047901153236055,-0.00718832294216697,0.007772281912270379,0.991628205412129
2014-07-17,1,0.002723868106999804,0.00316124357016824,-0.004577517104515715,0.007772281912270379,0.9931549025355579
2014-07-21,1,0.0029757442044625287,0.0034568253692964642,-0.003500637282517926,0.0063110387844947415,0.993779066984901
2014-07-23,1,0.0028539090352725782,0.0033102130647242834,-0.003497446520735217,0.006498635280137862,0.993910267971099
2014-07-25,1,0.0030127359344644476,0.003484062253345647,-0.002709240952060898,0.006086651392425665,0.9947426909167365
2014-07-29,1,0.00231508113103611,0.0026551146359958533,-0.00194497321614749,0.006086651392425665,0.9950906687389327
2014-07-31,1,0.0021522506273449864,0.002439167428601843,-0.00194497321614749,0.005489206764552397,0.995580507357683
2014-08-04,1,0.0019095101694843152,0.0021429981767741423,-0.0015595250455533378,0.005146803134846196,0.9958162473634913
2014-08-06,1,0.0014586023264957417,0.0015729277554767953,-0.00194497321614749,0.0045538863406364635,0.9948639559903216
2014-08-08,1,0.0018965781044266627,0.0020783968583854727,-0.004263409391363167,0.004283707879709399,0.9942244186554526
2014-08-12,1,0.0022275857967704008,0.0024593666119126886,-0.002520191256238301,0.004283707879709399,0.9951441749604558
2014-08-14,1,0.0022501866913464974,0.00246563328219098,-0.002520191256238301,0.003295989504265731,0.9951568220929708
2014-08-18,1,0.0019696146539214176,0.002109972674568355,-0.003233657936145327,0.0023871518520772136,0.995154011714253
2014-08-20,1,0.0024620065895782214,0.00272521281742684,-0.003233657936145327,0.0016864968870358257,0.9948323442145786
2014-08-22,1,0.002987741483440609,0.003369396821531979,-0.003233657936145327,0.0015506940889043906,0.9945362228061212
2014-08-26,1,0.002375052790096175,0.0026225753163376703,-0.005073196004395363,0.0015506940889043906,0.9938690582414199
2014-08-28,1,0.001218288637345564,0.0012187582536605113,-0.0052143461628090595,0.0015506940889043906,0.9939255033613803
2014-09-02,1,0.0014159009955137148,0.0014787918092239306,-0.007726157450000016,0.0006200195266837041,0.9934528734436088
2014-09-04,-1,-0.00042625125871344476,-0.0002417186385104442,-0.007726157450000016,0.0015506940889043906,0.9942506697783056
2014-09-08,-1,-0.0006527425081773204,-0.000461817574121299,-0.004843466578793984,0.002014660512000792,0.9909045662834788
2014-09-10,-1,-0.000758825910390634,-0.0005468836035269054,-0.009482194382503622,0.002014660512000792,0.989662848025633
2014-09-12,-1,-0.000668168038617526,-0.00046145134395914446,-0.01618849147915308,0.0015506940889043906,0.9875674848026189
2014-09-16,-1,-0.0013329848314259042,-0.0010185545038788513,-0.016606136097052332,0.00296726047884475,0.9854737220402061
2014-09-18,-1,-0.0019562187769230346,-0.0015273160129113856,-0.016606136097052332,0.00978344495992417,0.9835693154977586
2014-09-22,-1,-0.001507438512104752,-0.001168874913385512,-0.016606136097052332,0.015290562196182259,0.9822811568517691
2014-09-24,-1,-0.0018857676455115453,-0.0015297001680139623,-0.01618849147915308,0.015290562196182259,0.9825918263877688
2014-09-26,-1,-0.002624380222859223,-0.002144526638208486,-0.01618849147915308,0.016644345201552092,0.9824408591407147
2014-09-30,-1,-0.003239466823255007,-0.0026717769654621077,-0.01618849147915308,0.016644345201552092,0.9815724516006531
2014-10-02,-1,-0.003173135556813,-0.0026451848726531772,-0.010241144312648843,0.016644345201552092,0.982071750856732
2014-10-06,-1,-0.002597202845450286,-0.002135097058226177,-0.004137648613729835,0.016644345201552092,0.9852640596683169
2014-10-08,-1,-0.0026382832792108796,-0.0021722932200324142,-0.0037961636272198975,0.016644345201552092,0.9860616355770752
2014-10-10,-1,-0.002988552001490439,-0.002527373799154229,0.002699737642805856,0.016644345201552092,0.9869883659206763
2014-10-14,-1,-0.0031915755616059296,-0.002713670382688032,0.002699737642805856,0.015697877099065203,0.988590713044055
2014-10-16,-1,-0.0019171429982407697,-0.001600876132603023,0.0007597685900652006,0.009621446989839407,0.9905651602901098
2014-10-20,-1,-0.001043464886775644,-0.0008230425268146135,-0.00046866236557967727,0.008727522536291167,0.9918812293879001
2014-10-22,-1,-0.0011111937981890289,-0.0008769378975050855,0.0007597685900652006,0.008019192807892032,0.9923770793875598
2014-10-24,0,-8.408632396313223e-05,6.12347813430756e-06,0.0007597685900652006,0.008727522536291167,0.9929574319329888
2014-10-28,1,0.0005954886944168072,0.0006051520933879887,0.0007597685900652006,0.008019192807892032,0.993797722266577
2014-10-30,1,0.0009488582742251466,0.0010327666000116492,3.4829869369868522e-06,0.008019192807892032,0.9938806441149487
2014-11-03,1,0.001492589575212318,0.0016794373793808405,3.4829869369868522e-06,0.008019192807892032,0.9938127376327728
2014-11-05,1,0.0017855251341664206,0.0020490756935505217,3.4829869369868522e-06,0.007097008848215508,0.9939524933862472
2014-11-07,1,0.0023125136527877826,0.002661218672148615,-0.0016714828076407507,0.0067678882025194,0.9936820727311736
2014-11-11,1,0.0007684023806602924,0.0009008946528152961,-0.005960577337025985,0.0067678882025194,0.9904859135919667
2014-11-13,1,0.00035042339567301973,0.0004164404851153986,-0.005286998136471292,0.0067678882025194,0.990810647808063
2014-11-17,1,0.0005812206832645826,0.0006954193482069506,-0.00755285739015983,0.006368625202320075,0.9904514302438899
2014-11-19,1,0.0008569143876573807,0.0010176398029860998,-0.00755285739015983,0.007845578963190462,0.9878567696909442
2014-11-21,1,0.001111033742907702,0.0012963729081895046,-0.009651846132078111,0.0067678882025194,0.9863336206284525
2014-11-25,1,0.0032502255290149957,0.003684936333358443,-0.009651846132078111,0.0067678882025194,0.9862693719775387
2014-11-28,1,0.003498526810912909,0.003961575283111311,-0.009651846132078111,0.0065535920177415075,0.9862523272874667
2014-12-02,1,0.004012836379202497,0.004546145376888639,-0.009651846132078111,0.005563706651400447,0.9871156585850387
2014-12-04,1,0.0015610732718793056,0.0017843143685851164,-0.012472685154960476,0.005563706651400447,0.9864579711303906
2014-12-08,1,0.0011013286217186362,0.0012294910746574392,-0.012472685154960476,0.005563706651400447,0.9866499938587208
2014-12-10,-1,-0.0001472333700009128,-0.00012409394389198685,-0.006338063830611085,0.006891440430071156,0.9886134496295942
2014-12-12,1,4.589352296894306e-05,4.7248807038717124e-05,-0.011047797190874247,0.006469751896214505,0.9881683405151422
2014-12-16,-1,-0.0003452516031753846,-0.00030561552457155435,-0.011047797190874247,0.006469751896214505,0.9885036858965094
2014-12-18,1,0.0010532607167914687,0.0011767828479544635,-0.011047797190874247,0.0032173672592210652,0.9895210519852196
2014-12-22,1,0.0027788478580129785,0.0030297062079185314,-0.008664639337265313,0.006469751896214505,0.9895690727446654
2014-12-24,1,0.0010883743672778431,0.001227732216215562,-0.008664639337265313,0.009061890693040642,0.9895343858904646
2014-12-29,1,0.0011770351063886972,0.0013323866590107536,-0.008664639337265313,0.009061890693040642,0.9894141226508208
2014-12-31,1,0.0011981643697464486,0.001373206521468974,-0.011047797190874247,0.009061890693040642,0.9886144003507757
2015-01-05,1,0.0004164276099104351,0.0004907162306753114,-0.006595718651797305,0.01034603354410197,0.9895410410141802
2015-01-07,1,0.0016455311165650703,0.001817847365970347,-0.006094834338008204,0.01140500272124946,0.9893045080709978
2015-01-09,1,0.002314822677548632,0.002583487158864922,-0.008617563415563795,0.01034603354410197,0.9891991962924441
2015-01-13,1,0.0014258807623304622,0.0015985959447914408,-0.005941141717356974,0.01034603354410197,0.9903779734373195
2015-01-15,1,0.0007403764858567399,0.0008288544244823275,-0.004355394799291494,0.01034603354410197,0.9908167611558509
2015-01-20,1,0.0015076757778661805,0.0016877263056021552,-0.003978696798114952,0.008657414825569809,0.9921899674532944
2015-01-22,1,0.002395356641368414,0.0026784148813781905,-0.0043597192890313064,0.007042600902268331,0.9934344754405211
2015-01-26,1,0.0029869138549643163,0.0033477593332811445,-0.005941141717356974,0.004667487960746409,0.9930187178962888
2015-01-28,1,0.0022217290916024673,0.0024299497673092385,-0.007328476111903131,0.005608861553262351,0.992862855687375
2015-01-30,1,0.001735711397648886,0.0018184801649112183,-0.007328476111903131,0.004667487960746409,0.99331497551497
2015-02-03,1,0.0016157416597409524,0.001725426516795935,-0.0087509603447293,0.0015201716463107001,0.9928205645453226
2015-02-05,1,0.0025135501635151153,0.002839500467559642,-0.009289222362790027,0.0015201716463107001,0.9913205459532874
2015-02-09,1,0.0017231438436082272,0.0019326442620409116,-0.008836802712207142,0.0015201716463107001,0.9917785044364776
2015-02-11,1,0.001661583602699471,0.0018585453988567654,-0.008836802712207142,0.003728743347553261,0.9913673148436911
2015-02-13,1,0.0017296923106674541,0.001942322722870803,-0.008836802712207142,0.003728743347553261,0.9908474168217494
2015-02-18,1,0.0011996081668077451,0.0012975155556580666,-0.008836802712207142,0.005037514573278702,0.9907390862362055
2015-02-20,1,0.0009064110696341741,0.0009530476446982447,-0.008974743903032377,0.006850706873274841,0.9898936020610496
2015-02-24,1,0.00047174690116189434,0.0004939503456706776,-0.008763252769542193,0.006850706873274841,0.9904907576221911
2015-02-26,1,0.00033457742169112274,0.0003806666036921656,-0.009068572534795179,0.004160620624294827,0.989819384154426
2015-03-02,-1,-0.0005183751361845022,-0.00029393715121249714,-0.00917355162871926,0.004160620624294827,0.9899365388943474
2015-03-04,-1,-0.0014599500482342434,-0.001119561407339145,-0.008763252769542193,0.00812788679748492,0.9899077202530063
2015-03-06,-1,-0.0040288299198497895,-0.003295494635907278,-0.008303695314471525,0.00812788679748492,0.9917754972936633
2015-03-10,-1,-0.005054113883167752,-0.0041838677449232775,-0.008305752918435617,0.00812788679748492,0.9913102427913982
2015-03-12,-1,-0.003130799096169811,-0.0025866701448316893,-0.008305752918435617,0.005972214835938065,0.9923000152513191
2015-03-16,-1,-0.0026891667271591087,-0.0022268325098732684,-0.008549481514069767,0.005832094189058074,0.992467040982954
2015-03-18,-1,-0.0023363049644510546,-0.001903915335153943,-0.008549481514069767,0.005598162109725373,0.9927249338658962
2015-03-20,-1,-0.001627748479201207,-0.001316219747183333,-0.008821839182421598,0.005598162109725373,0.9920124537991002
2015-03-24,-1,-0.0013805079154973142,-0.0011265314769776497,-0.008821839182421598,0.006533168707346972,0.9913220893033736
2015-03-26,-1,-0.002288299359045241,-0.0019354829781348332,-0.0060529442973759045,0.007375085592225065,0.9915314936633511
2015-03-30,-1,-0.0024085332009700653,-0.0020622170384284972,-0.008823384869142664,0.007375085592225065,0.9907629148426751
2015-04-01,-1,-0.001599879480224943,-0.0013531624532326372,-0.011280015563357126,0.005598162109725373,0.9904026107002352
2015-04-06,-1,-0.0017628200540476735,-0.0015210098448479072,-0.011672823773880032,0.006533168707346972,0.9875236711933238
2015-04-08,-1,-0.001790923157684058,-0.00155334512829392,-0.013839213519215241,0.006533168707346972,0.9872271025097552
2015-04-10,-1,-0.002314641259457603,-0.001982450000636471,-0.013839213519215241,0.007901468896553347,0.9860550049132419
2015-04-14,-1,-0.002199061668963073,-0.0018888612321686041,-0.013839213519215241,0.010335447116810123,0.9854450846513599
2015-04-16,-1,-0.0017459704178157765,-0.001499853204855505,-0.013839213519215241,0.012613074497232406,0.9848179488700218
2015-04-20,-1,-0.0014066201772714288,-0.0012318503405343343,-0.013839213519215241,0.010335447116810123,0.9854002748597649
2015-04-22,-1,-0.0008220878644830956,-0.0007255443872422953,-0.013839213519215241,0.009173780495913532,0.9857605213549391
2015-04-24,-1,-0.0007917171328284237,-0.0007126868027132853,-0.013839213519215241,0.008160761795009255,0.9864664718149851
2015-04-28,-1,-0.0012284377247866404,-0.0011413217294245054,-0.011861869189644372,0.010089704825930135,0.9865529862611
2015-04-30,-1,-0.002502848679511854,-0.0022546693263186977,-0.008898213178467904,0.010089704825930135,0.9872729246724843
2015-05-04,-1,-0.0017701097797162084,-0.0016017266655160513,-0.004001494863585262,0.008160761795009255,0.9901159303959531
2015-05-06,-1,-0.0043294657169085805,-0.0037536562861668933,-0.004001494863585262,0.008160761795009255,0.989244246561945
2015-05-08,-1,-0.0031304160503894058,-0.002698434416196463,-0.007613697356975089,0.006438827497566764,0.990888092122081
2015-05-12,-1,-0.002991046395533426,-0.002549268337538389,-0.007975756328080733,0.006438827497566764,0.9886731548496925
2015-05-14,-1,-0.0005115815182815486,-0.00048084953406530824,-0.007975756328080733,0.006189269216802308,0.989674732338266
2015-05-18,-1,-0.000779462690260012,-0.000734221738358753,-0.007975756328080733,0.006189269216802308,0.9898365689402336
2015-05-20,-1,-0.00036333491763208836,-0.0003596212952864527,-0.007975756328080733,0.004560445478470141,0.989876893663368
2015-05-22,-1,-0.00014176178604515964,-0.00010606605436873775,-0.007975756328080733,0.0074841378950323756,0.9888154780327304
2015-05-27,0,-4.2878204162314786e-05,4.0893339477383124e-06,-0.007975756328080733,0.0047992410061699145,0.988786699590019
2015-05-29,-1,-0.0013594518200382409,-0.0011784647577691735,-0.0067526799776147315,0.0047992410061699145,0.9888309225144506
2015-06-02,-1,-0.0008887771001940972,-0.000770585665863207,-0.009398677717847385,0.005284514303141912,0.9874740007875856
2015-06-04,-1,-0.0010452173487155766,-0.000951566285056043,-0.0067526799776147315,0.005284514303141912,0.9879769679924378
2015-06-08,-1,-0.0016961965847775615,-0.0014864820962739735,-0.005422274640281492,0.009143764962268182,0.9872582206340184
2015-06-10,-1,-0.0031228717061331807,-0.0027171970343063583,-0.0032494654641786885,0.009143764962268182,0.989663029003015
2015-06-12,-1,-0.002067755172423504,-0.0018203446499850478,-0.0032494654641786885,0.009599475100993404,0.9888476909666679
2015-06-16,-1,-0.0011599205540016042,-0.0011049437955949642,-0.0031787435883833285,0.00925739809607674,0.9896986973884107
2015-06-18,-1,-0.0008389167223147786,-0.0008239145322242705,-0.0031787435883833285,0.009834418994238281,0.9892532517819322
2015-06-22,1,0.00011733777190221686,0.00024674488707383477,-0.0031787435883833285,0.009834418994238281,0.9904041805508992
2015-06-24,-1,-0.0006350496947750523,-0.0006066423175858026,-0.0013706477410376863,0.011660218654354588,0.9903543447560967
2015-06-26,0,-2.0733259728575337e-05,0.00013780874037208526,-0.003699256998523364,0.011660218654354588,0.9889024704448961
2015-06-30,-1,-0.00041881979973394244,-0.00026210694948827816,-0.0028260218477257322,0.013048499837505763,0.988448396909694
2015-07-02,-1,-0.0007530287613471875,-0.0006761169318072009,-0.0017878872215579076,0.013048499837505763,0.9882865482355786
2015-07-07,1,0.00016226039379183042,0.0003692078620153175,-0.0034938346724511745,0.013048499837505763,0.9888960237922914
2015-07-09,1,0.00128810627500329,0.0016513013495462693,-0.004141155242279583,0.01333630622567326,0.9845044551153844
2015-07-13,1,0.0021586904568828584,0.0026195161822021333,-0.004141155242279583,0.013273675492114948,0.9852949856684398
2015-07-15,1,0.0011794693415248295,0.0014496361546445166,-0.004690067392181682,0.013273675492114948,0.9852421050693356
2015-07-17,1,0.002587690098384594,0.0030869554439703732,-0.0040735036138012486,0.013052030579033026,0.9860625595618335
2015-07-21,1,0.003366370314910944,0.003975414135602583,-0.004690067392181682,0.008910018984385749,0.9856644585559265
2015-07-23,1,0.003632777682406274,0.00425339470138502,-0.005927421125409005,0.00636709870999356,0.9850673348070341
2015-07-27,1,0.0015564328939622917,0.0018559484129560613,-0.009562911776634255,0.00636709870999356,0.9840171812517589
2015-07-29,1,0.0023193838825096577,0.0026627097858584773,-0.009562911776634255,0.00636709870999356,0.9836714908814911
2015-07-31,1,0.0022276982134398623,0.0025077736114770136,-0.009562911776634255,0.006819889266332348,0.9831912522512039
2015-08-04,1,0.0011610630237602673,0.0013312297376871253,-0.01572085159074632,0.006819889266332348,0.9816785102224019
2015-08-06,1,0.0016592677051511942,0.0019049174695460536,-0.013496387879349786,0.006819889266332348,0.9832067172578552
2015-08-10,1,0.0024763825593112857,0.0028606649343631287,-0.013496387879349786,0.006559736895437738,0.9829319735624488
2015-08-12,1,0.0023849015046774956,0.0027715636150902607,-0.013496387879349786,0.006564567729062415,0.9829876242234249
2015-08-14,1,0.002262514157619234,0.0026266873563908725,-0.013496387879349786,0.010034256613533549,0.982180640097675
2015-08-18,1,0.0015351035747944515,0.0017454006645647516,-0.009960135146287248,0.010034256613533549,0.9829254176691885
2015-08-20,1,0.0005290475526062427,0.0005834924715745709,-0.008456270160702857,0.010034256613533549,0.9838233664322837
2015-08-24,-1,-0.0005455785297487322,-0.0005089558548193468,-0.003797495400644578,0.010034256613533549,0.9869274183288403
2015-08-26,1,6.346327787485446e-05,7.630932097899272e-05,-0.007111118610706132,0.008433631541129041,0.9883762001512345
2015-08-28,1,0.0003611174289004137,0.0004054852586892943,-0.008456270160702857,0.00784263820672549,0.9878763886892616
2015-09-01,-1,-0.0010248058150015306,-0.0008968978089426854,-0.003797495400644578,0.008433631541129041,0.9887812685746609
2015-09-03,-1,-0.0002688337566677703,-0.00023013211160794847,-0.003797495400644578,0.00784263820672549,0.9919238786587105
2015-09-08,1,0.000282226910719049,0.0003287532926053028,-0.008456270160702857,0.006179927633682985,0.9908614385830387
2015-09-10,1,0.00017738995043436735,0.00020680041281599543,-0.008509434360815894,0.00784263820672549,0.9903001736728922
2015-09-14,1,0.00038398721131031844,0.00046332440596003315,-0.007321713715787898,0.006081232711071673,0.99109303442594
2015-09-16,1,0.00023774565025793645,0.00029044426534535425,-0.009274123418698215,0.006081232711071673,0.9902967411435598
2015-09-18,-1,-0.0005502484603598258,-0.00045974229173106256,-0.009274123418698215,0.00784263820672549,0.9893107550998756
2015-09-22,-1,-0.0008657683090426425,-0.0006848329509856727,-0.009274123418698215,0.006720244565199708,0.9894965527237596
2015-09-24,-1,-0.001062898833580416,-0.0008635322557669526,-0.008584941971054116,0.005712062758444519,0.9899466294771736
2015-09-28,-1,-0.001863704234513358,-0.0015423938823702782,-0.005632056935990205,0.008856954855846637,0.9894313510248519
2015-09-30,-1,-0.00045236837900198336,-0.00032560096683426374,-0.008265850142880539,0.008450829221684275,0.9899442027294837
2015-10-02,1,1.1792096278402865e-05,7.197217028407439e-05,-0.008265850142880539,0.008450829221684275,0.9903070692951113
2015-10-06,-1,-0.0008262782356713875,-0.0007080865381027403,-0.005632056935990205,0.008450829221684275,0.991264013789145
2015-10-08,-1,-0.0006878674809507571,-0.0005726769487001977,-0.0045563282591828715,0.008294957945056474,0.9917555156701042
2015-10-12,-1,-0.0009374220750140421,-0.0008046691572464381,-0.005632056935990205,0.008294957945056474,0.9912340236293354
2015-10-14,-1,-0.0013469405742782136,-0.001170509699388241,-0.0045563282591828715,0.011492989189586992,0.9909888059237659
2015-10-16,-1,-0.00024246841721243043,-0.00020389763355708286,-0.008012597878643743,0.006670097328140615,0.9910736633509806
2015-10-20,-1,-0.0009606122905123231,-0.000810530222561302,-0.008012597878643743,0.011492989189586992,0.9902528279267516
2015-10-22,-1,-0.0007200167880112519,-0.0006166845344210831,-0.008012597878643743,0.011492989189586992,0.989920178621785
2015-10-26,1,0.0002593639442883041,0.0002799758442141941,-0.008012597878643743,0.009243637503118563,0.9909602466723709
2015-10-28,1,0.00020336215878373563,0.0002410790890866341,-0.008270081359936541,0.00884332750680483,0.9910146765821204
2015-10-30,1,0.0011697747835918983,0.0011917361225392388,-0.008270081359936541,0.00884332750680483,0.9905870598432733
2015-11-03,1,0.0006834692792395473,0.000759742320055395,-0.007814811060697445,0.009414186283005383,0.9904533771275665
2015-11-05,1,0.004389347155634266,0.004574747388404254,-0.007814811060697445,0.009414186283005383,0.9894703894156717
2015-11-09,0,-2.431512243052233e-06,9.073954013294325e-05,-0.007814811060697445,0.009414186283005383,0.9876173418154411
2015-11-11,1,8.183909439479718e-05,8.43489881963144e-05,-0.007814811060697445,0.009554844537816794,0.9854403662805985
2015-11-13,-1,-0.0012934991273273436,-0.0010857025840026123,-0.007459596528622907,0.011994668017943909,0.984923275005555
2015-11-17,-1,-0.000792939126027659,-0.0006469921802525723,-0.007459596528622907,0.011994668017943909,0.9843924323439811
2015-11-19,-1,-0.001249176773997785,-0.0010180716429985443,-0.009145523245479965,0.011994668017943909,0.9843901714065595
2015-11-23,-1,-0.0007853215328817714,-0.0006006013577168465,-0.009145523245479965,0.009554844537816794,0.9850025657424102
2015-11-25,-1,-0.00045501482338808217,-0.00034281632354397787,-0.0070250565588707,0.00616972316755946,0.9855800417085736
2015-11-30,-1,-0.0006591718828778568,-0.0005333526620941555,-0.0070250565588707,0.00616972316755946,0.9855718325595383
2015-12-02,-1,-5.2759589642366875e-05,-3.889326366388437e-05,-0.005805743529157721,0.004255671887735006,0.9863779759138068
2015-12-04,1,0.00033226913337618027,0.0003788828100780603,-0.0068152483265014625,0.004255671887735006,0.98629361185873
2015-12-08,-1,-0.0008627330100669094,-0.0007661573807584477,-0.007609853999917194,0.004255671887735006,0.9892189690524028
2015-12-10,-1,-0.0007643361796937613,-0.0007076537287784869,-0.007609853999917194,0.003518700819167243,0.9915262756097879
2015-12-14,1,0.0003029910295721094,0.0003153130574941473,-0.007609853999917194,0.003147723446954437,0.9924275394405612
2015-12-16,1,0.0005889623833511866,0.000595483586906568,-0.009290742708909651,0.003147723446954437,0.992078810870318
2015-12-18,1,0.0008594821216564742,0.0009239623672587497,-0.007609853999917194,0.003147723446954437,0.9926143042800208
2015-12-22,-1,-0.0017225168642375803,-0.0014522481060631636,-0.007609853999917194,0.004159578220345276,0.9920869489183153
2015-12-24,-1,-0.0016448623448573033,-0.001391218176204288,-0.007609853999917194,0.004679227544956081,0.9916436806175453
2015-12-29,-1,-0.0011232449216353386,-0.0009834805990765712,-0.007609853999917194,0.006920195779080172,0.9913977990296013
2015-12-31,-1,-0.0009689750585950934,-0.0008658671413339907,-0.007609853999917194,0.009600304488036946,0.9892837491676442
2016-01-05,-1,-0.0008267615783304366,-0.0007384782722982187,-0.007609853999917194,0.008729679820613767,0.9896389145846451
2016-01-07,-1,-0.0008490614491453961,-0.0007886994522233623,-0.003966999985188589,0.011399096891277091,0.9889426475332667
2016-01-11,-1,-0.0011255279402216261,-0.0010254365530213078,-0.0073661941785050505,0.011399096891277091,0.9886633017049216
2016-01-13,-1,-0.0020948158442635955,-0.0018532724780346553,-0.0073661941785050505,0.011399096891277091,0.988363324996526
2016-01-15,-1,-0.0022581960457276557,-0.0019492027713531078,-0.0051932736010931735,0.012583447821783202,0.9879754412969641
2016-01-20,-1,-0.0012200891647768765,-0.0010770723308345216,-0.0073661941785050505,0.012583447821783202,0.9878884966214805
2016-01-22,-1,-0.0008275517382663504,-0.0007471482042516976,-0.007582032954098424,0.011399096891277091,0.9884113141791764
2016-01-26,-1,-0.0013694487610717279,-0.001168748813921208,-0.009748149449930122,0.010882688675600237,0.9886431546672243
2016-01-28,-1,-0.0013240030541987412,-0.0011793164067540403,-0.009748149449930122,0.010882688675600237,0.9886783131500461
2016-02-01,1,0.00021534435607242024,0.00027581593329135886,-0.011421044381039478,0.003593696181065335,0.9895721146371703
2016-02-03,-1,-0.00020284954429396389,-0.0002012301089067125,-0.009748149449930122,0.0073048260892649135,0.9894172414742655
2016-02-05,1,0.0004709460170703879,0.0005627714601472949,-0.011805431540869334,0.003593696181065335,0.9851466613688732
2016-02-09,-1,-0.00011997773034699406,-0.00010848050875701126,-0.011835107317264048,0.003593696181065335,0.9851306457014353
2016-02-11,-1,-0.0010054090169220146,-0.0009030824616119112,-0.008928279078005192,0.0073048260892649135,0.9852676507457645
2016-02-16,1,0.00040197784016348314,0.0004869159516573907,-0.011835107317264048,0.0028420683229349875,0.9856125717426275
2016-02-18,-1,-6.752400815653836e-05,-4.591297936223297e-05,-0.009447651366432665,0.002436563671298563,0.9860895344606243
2016-02-22,-1,-0.0004050378217029189,-0.00036235160747712786,-0.009447651366432665,0.006844935641672785,0.9855791390805526
2016-02-24,-1,-0.000133003714194726,-9.232696579838641e-05,-0.010870501665406967,0.006844935641672785,0.9851783887674149
2016-02-26,1,7.342471239017432e-05,0.0001589180227256332,-0.014773927881963361,0.004590052067281742,0.9844711325588303
2016-03-01,-1,-0.001147794408052004,-0.0010253983264467777,-0.012221146951249037,0.008132491033399584,0.984947889423178
2016-03-03,-1,-0.0008161678461194168,-0.0007491196106687811,-0.012221146951249037,0.004590052067281742,0.9852813441762525
2016-03-07,-1,-0.0032397597434888695,-0.0028808829373809684,-0.012221146951249037,0.003625012702519937,0.9894829012552085
2016-03-09,-1,-0.004360793286425302,-0.003854276346010403,-0.012221146951249037,0.003625012702519937,0.989216055963277
2016-03-11,-1,-0.002923660879013852,-0.0026322203652382452,-0.015228054253144958,0.0004693852645151227,0.9894372231879067
2016-03-15,-1,-0.003932847204368073,-0.00351656030653114,-0.014255548009101164,0.0047774824915220405,0.9885668062785418
2016-03-17,-1,-0.004062873182300875,-0.0036381886619833797,-0.015228054253144958,0.0047774824915220405,0.9868159220777831
2016-03-21,-1,-0.0024763119879541704,-0.002306183752763555,-0.015228054253144958,0.0015092970517923718,0.9869238881488731
2016-03-23,-1,-0.0028083927190127147,-0.0026125669246978376,-0.014255548009101164,0.001237100622837744,0.987666311628892
2016-03-28,-1,-0.003193266670450373,-0.002959055309597521,-0.012397437309772524,0.005062448086715479,0.9876226832772385
2016-03-30,-1,-0.0033074442808295954,-0.003054531825781038,-0.015228054253144958,0.0031626970869267825,0.9837527736059756
2016-04-01,-1,-0.002826548303993007,-0.0026599229218271193,-0.018910170305068714,0.005062448086715479,0.9812790035631581
2016-04-05,-1,-0.0038202028226290204,-0.0035184678934490556,-0.015228054253144958,0.00479961442673509,0.9828149906200425
2016-04-07,-1,-0.004345691445520561,-0.003989140504696401,-0.010883590466053162,0.00479961442673509,0.9838582011483746
2016-04-11,-1,-0.00553605627763102,-0.00500900974008326,-0.009259427119185195,0.007913760896002084,0.9837830942176492
2016-04-13,-1,-0.0032773498222548785,-0.003052686330674366,-0.011306306368791593,0.004500047069875382,0.9843886531950214
2016-04-15,-1,-0.004491248226963193,-0.004135257096462685,-0.009259427119185195,0.007725756543995281,0.9850406572794415
2016-04-19,-1,-0.0038351047747380252,-0.0035945600183751748,-0.009259427119185195,0.008190716310220097,0.9840557133565935
2016-04-21,-1,-0.0039021030839694075,-0.003662089317981597,-0.010046755115320575,0.008190716310220097,0.9839169687857089
2016-04-25,-1,-0.0032436086509257255,-0.003078025322911042,-0.013668290357197731,0.008190716310220097,0.9826720603277208
2016-04-27,-1,-0.006092671058577589,-0.005616453660439993,-0.009862958861240771,0.010150272978446851,0.9853439319233657
2016-04-29,-1,-0.006372875646596229,-0.005890174928615913,-0.005183790051269893,0.009714267362666387,0.9863569857990242
2016-05-03,-1,-0.007060507600051353,-0.0064095482015162405,-0.005183790051269893,0.013129876447423016,0.9848449644664126
2016-05-05,-1,-0.007813081114795777,-0.007031991498397392,-0.0014244735729144647,0.013129876447423016,0.9838586332130344
2016-05-09,-1,-0.007891806984485966,-0.007096891207458487,-0.0028797422169433997,0.013129876447423016,0.9845230353211281
2016-05-11,-1,-0.007821819393609493,-0.007083755435813547,-0.0028797422169433997,0.01525709208583313,0.9838884853516271
2016-05-13,-1,-0.007460883851316484,-0.006762215883394838,-0.0032343690698865683,0.01699365216616939,0.979929465293106
2016-05-17,-1,-0.005870823843773823,-0.005384126362897889,-0.0035876249622005052,0.013530462315123866,0.9823806505090581
2016-05-19,-1,-0.006098248027524655,-0.00559538428400499,-0.0057905107328671815,0.013530462315123866,0.9824764954001428
2016-05-23,-1,-0.005830979526630104,-0.00537941942837991,-0.00792458366660669,0.010863278068280247,0.9840226877394235
2016-05-25,-1,-0.004636163068938908,-0.004327751381269606,-0.00792458366660669,0.010490181449634803,0.9849908840092235
2016-05-27,-1,-0.0034709662289584328,-0.003308432438743507,-0.012625160799602226,0.007440493373080993,0.9845325836505088
2016-06-01,-1,-0.00250160247090008,-0.002434857445431064,-0.012625160799602226,0.007631081795182109,0.9835035403603213
2016-06-03,-1,-0.002275185798075343,-0.002226825168778756,-0.012625160799602226,0.01242688569746015,0.9823965642103175
2016-06-07,-1,-0.002795632009519205,-0.002650760173672488,-0.014255324989439145,0.013874878943682252,0.9813166749662212
2016-06-09,-1,-0.0019858589763586936,-0.001969276647283247,-0.010773557734385864,0.011544611131345518,0.9830089013801063
2016-06-13,1,0.0005478215435607214,0.0008960368294772638,-0.009525486395855102,0.01034122902458605,0.9890733843635656
2016-06-15,1,0.0008062586818261604,0.0012170851126824395,-0.009525486395855102,0.01034122902458605,0.9891179266145684
2016-06-17,1,0.000570866527197314,0.0009683530025395423,-0.008702866154969593,0.011544611131345518,0.9884203736493231
2016-06-21,1,6.152764080527855e-05,0.0004099290304062171,-0.0015811627970511472,0.011544611131345518,0.9891149562351892
2016-06-23,1,0.0014379873630361011,0.0020668586643161303,-0.004274898269426486,0.010823893439993418,0.9895496983618807
2016-06-27,1,1.1334251075344106e-05,0.0004387044719476297,-0.00031793860164745113,0.010823893439993418,0.9910971189656604
2016-06-29,1,0.0022148086910936927,0.0029946319076593155,-0.0015811627970511472,0.007219294911987227,0.9938716454654422
2016-07-01,1,0.003019716976327112,0.0038748057809284988,-0.002607596529158157,0.005683953712244468,0.9940769113196695
2016-07-06,1,0.0028852643570268705,0.0036848569886672074,-0.002607596529158157,0.005683953712244468,0.9937811729858244
2016-07-08,1,0.003988423882124463,0.005029743128548734,-0.002607596529158157,0.006534358778795211,0.9930601213555714
2016-07-12,1,0.003989944963634008,0.005009070139593691,-0.0026162950864160994,0.006534358778795211,0.9929485517696661
2016-07-14,1,0.004489991684260286,0.005580156850701845,-0.0026162950864160994,0.006802680680052864,0.9929506615759539
2016-07-18,1,0.0046466564109226074,0.005745010131870508,-0.0026162950864160994,0.006802680680052864,0.993030194267133
2016-07-20,1,0.005095967263588387,0.006267116884092755,-0.0026162950864160994,0.005773394345997019,0.9930752037125264
2016-07-22,1,0.004797211894186155,0.005893000952782262,-0.0026162950864160994,0.005773394345997019,0.992614064915574
2016-07-26,1,0.005368135382934949,0.00656456915504483,-0.0026162950864160994,0.006896286019341355,0.9924031558324896
2016-07-28,1,0.004202380720262377,0.005096549570671809,-0.0028068648852226487,0.006896286019341355,0.992723726484303
2016-08-01,1,0.0036664789024876744,0.004433031373290041,-0.0028068648852226487,0.007751903525985293,0.9925933621334959
2016-08-03,1,0.003965767955260621,0.004843661984648754,-0.004893851027998059,0.006896286019341355,0.9880386446196474
2016-08-05,1,0.003541511106426051,0.00429788804019372,-0.005261823768855709,0.00514578077937618,0.988363393719571
2016-08-09,1,0.003529140360736202,0.0042735245309020444,-0.00898121324820135,0.006896286019341355,0.9872370637579285
2016-08-11,1,0.004441555275956917,0.005357637579615939,-0.010227954764087102,0.00850230305009492,0.9858120438170187
2016-08-15,1,0.0046063489219972335,0.005510311323476746,-0.00903001469648005,0.00850230305009492,0.9863424577307172
2016-08-17,1,0.00454900051104172,0.0054020454879247035,-0.00903001469648005,0.009307860045158755,0.9862853386386956
2016-08-19,1,0.004020023212878986,0.004803878763865954,-0.006190447082074042,0.009307860045158755,0.9871838174210783
2016-08-23,1,0.004677092090920285,0.0055380752340661865,-0.006190447082074042,0.009407320422098978,0.9867653818632516
2016-08-25,1,0.004009084855755459,0.004715729996628098,-0.006190447082074042,0.010212593649107446,0.9871129018610922
2016-08-29,1,0.0036887066503536138,0.00429449012273758,-0.006638561886221759,0.0088269208134791,0.9870457784962515
2016-08-31,-1,-0.0006535034938032765,-0.0006188722758615266,-0.004464672832102945,0.0088269208134791,0.9916069423323943
2016-09-02,1,9.603878481828556e-05,0.00025986380987095344,-0.006638561886221759,0.010756500343452033,0.9904331201915838
2016-09-07,-1,-0.0003622402012902036,-0.00035717242839111273,-0.006564686672007518,0.010433519215844478,0.9907229979291424
2016-09-09,-1,-0.0002040701796558292,-0.00016907675121855003,-0.005300920769562246,0.0088269208134791,0.9915703245013265
2016-09-13,-1,-6.663749367262836e-05,-3.137344355228843e-05,-0.004923259092235977,0.008099899207321943,0.9921318402692588
2016-09-15,1,0.0006414550465100725,0.0007980865995160112,-0.004923259092235977,0.008041788434407634,0.9922385220942564
2016-09-19,-1,-0.0018118832354092735,-0.0014633135844867966,-0.004923259092235977,0.008041788434407634,0.9918007393845515
2016-09-21,-1,-0.0015432450472941317,-0.001182773799672183,-0.004923259092235977,0.007591156488314906,0.9927488735485951
2016-09-23,-1,-0.0011947040109345241,-0.0008812355260958373,-0.004923259092235977,0.005789666297885543,0.9929400763299391
2016-09-27,-1,-0.002292572311128768,-0.0018192158935443075,-0.004923259092235977,0.005789666297885543,0.9921131155031121
2016-09-29,-1,-0.0028021954415988256,-0.0022498735641260743,-0.004923259092235977,0.005204934395567244,0.992550578227181
2016-10-03,-1,-0.0031519022977970577,-0.0025162372860157026,-0.004492838439813023,0.005204934395567244,0.9933798831094545
2016-10-05,-1,-0.00271472220649897,-0.0021607668993675116,-0.004492838439813023,0.0045194691219845266,0.9932996025889993
2016-10-07,-1,-0.0025396532239032325,-0.002061557360191994,-0.005304355688564049,0.0045194691219845266,0.9928737228323555
2016-10-11,-1,-0.002730922402764744,-0.002198057928857117,-0.005304355688564049,0.004668268657107681,0.9927451256900333
2016-10-13,-1,-0.00269993533604133,-0.002161040536300194,-0.008322877338346416,0.004668268657107681,0.9897296650872413
2016-10-17,-1,-0.0020837601924410367,-0.0016529307276548007,-0.008322877338346416,0.00504410123222249,0.986871560829555
2016-10-19,-1,-0.0015755801169805527,-0.0012409681804776069,-0.00955415358837741,0.00638452982873646,0.9832258591168956
2016-10-21,-1,-0.0006862694541434189,-0.0005066668291025216,-0.00955415358837741,0.011419253691483914,0.9816922755337654
2016-10-25,-1,-0.0013698184146947877,-0.0011127479545564745,-0.008322877338346416,0.011419253691483914,0.9821926930579649
2016-10-27,-1,-0.0020882112472984174,-0.0017312079733696683,-0.0020134261980261376,0.013001876272852372,0.981092116822381
2016-10-31,-1,-0.0013935239629336784,-0.0011355715610398978,-0.008746635949651815,0.016916760070319878,0.9765424491108936
2016-11-02,-1,-0.0006252867938244156,-0.0005648273832345373,-0.010078988776629152,0.016916760070319878,0.9767741356327518
2016-11-04,-1,-0.0014435242662253181,-0.0012987767609843035,-0.004523706733994841,0.02091889148371922,0.9763015711281571
2016-11-08,-1,-0.001320864807203349,-0.0011402199631733076,-0.004523706733994841,0.026410118770113986,0.9742805958118437
2016-11-10,-1,-0.0019097092291829715,-0.0016139929754261334,-0.004523706733994841,0.025047601555077778,0.9761286229136723
2016-11-14,1,0.0007761313855947875,0.0008099878010238675,-0.008536912292363285,0.01984045348498068,0.9787733613362676
2016-11-16,-1,-0.002399668526222781,-0.0019500396525712657,-0.008536912292363285,0.01984045348498068,0.9809735052894785
2016-11-18,1,0.00027228248182973333,0.00032055600410408984,-0.010037876536901351,0.016527648677416584,0.982195304188797
2016-11-22,1,0.001158694849895378,0.0012804660732549814,-0.010037876536901351,0.016527648677416584,0.9826962631251007
2016-11-25,1,0.0020243651793796615,0.0022589964639898653,-0.010037876536901351,0.016527648677416584,0.9835280108389023
2016-11-29,1,0.0006560231386377521,0.0007247323354590122,-0.009475811923118867,0.011307576682603147,0.9882750306516417
2016-12-01,-1,-0.0004952794011754613,-0.00042089392573641774,-0.008418791190711464,0.011307576682603147,0.9889459367407438
2016-12-05,1,0.0004459747812750297,0.0005050626034848348,-0.008418791190711464,0.011307576682603147,0.9888428523981712
2016-12-07,1,0.0024512090224575334,0.002782012250978228,-0.008418791190711464,0.010508079278414576,0.9901430642612997
2016-12-09,1,0.001883362132672728,0.0021489633070891057,-0.008418791190711464,0.010508079278414576,0.9907061216253679
2016-12-13,1,0.0020914829150639773,0.002372536195345627,-0.004949250603447806,0.009023031403107035,0.9920570741764312
2016-12-15,1,0.001952699952175258,0.002229882087742773,-0.0031241804843821722,0.005378160539716091,0.9931969566290707
2016-12-19,1,0.0020617601923016335,0.0023477058340460473,-0.004289087443232039,0.0031892749270112214,0.9931045588945796
2016-12-21,1,0.0019182092129518607,0.0021723209176104717,-0.007377201340819745,0.0031892749270112214,0.9923503889211901
2016-12-23,1,0.0016867750720489494,0.001877610520095151,-0.007377201340819745,0.004402324925225009,0.9921590366065595
2016-12-28,1,0.0017561288471920023,0.001972543001216119,-0.008647828788833387,0.002647525471974567,0.9909727240087111
2016-12-30,1,0.001253788214348248,0.0013954305111716552,-0.010721857117889817,0.002647525471974567,0.9901285228221665
2017-01-04,1,0.0021669753438769493,0.0024495888489811596,-0.01392261588937663,0.0020576226576175956,0.9900842059467768
2017-01-06,1,0.003235753907954231,0.0036922086459266258,-0.01392261588937663,0.0020576226576175956,0.9895081912114996
2017-01-10,1,0.002790421783987515,0.0031890279295025675,-0.013755233337484365,0.0017371086954106147,0.9894614323104369
2017-01-12,1,0.002502552899160148,0.002833706678412866,-0.013755233337484365,0.0013667992845478119,0.989202564330743
2017-01-17,1,0.0028517881435848524,0.0032727104000753425,-0.013755233337484365,-0.000175162616409734,0.9883941363450889
2017-01-19,1,0.0019254939744200038,0.0022194663109711276,-0.011921085948687413,-0.000175162616409734,0.9891066918393587
2017-01-23,1,0.0013794285899795986,0.001596647958398254,-0.011921085948687413,0.002518793356583361,0.9899791765699517
2017-01-25,-1,-0.0001956678903578343,-4.7855586457201996e-05,-0.013685234561240742,-0.0012982628019176721,0.9897385433488306
2017-01-27,-1,-0.0019816887429014787,-0.0016100268652666744,-0.011921085948687413,0.002518793356583361,0.9917365022845462
2017-01-31,-1,-0.003084922240103429,-0.002600048283204672,-0.009961173713497676,0.0047299191535956995,0.9921998184033635
2017-02-02,-1,-0.003624999195244348,-0.0030815732364758135,-0.008455400783629587,0.006649672666575478,0.9918689928597203
2017-02-06,-1,-0.002501566627787853,-0.002105363864271141,-0.008455400783629587,0.0036505185682000943,0.993134990657327
2017-02-08,-1,-0.0026657074722086314,-0.0023147821211794155,-0.008455400783629587,0.0047299191535956995,0.9878186584339154
2017-02-10,-1,-0.003213527556370513,-0.002764040142140571,-0.008455400783629587,0.011437364431064362,0.9860004725200058
2017-02-14,-1,-0.002784642978096311,-0.002430112326549599,-0.006676175213762504,0.014447762467586486,0.9858351636724374
2017-02-16,-1,-0.0032805908592575227,-0.0028862918341166863,-0.003373725317981949,0.014447762467586486,0.9856050845284536
2017-02-21,-1,-0.003547401884729626,-0.003093592324783366,-0.007749323705851088,0.014447762467586486,0.9840009489458683
2017-02-23,-1,-0.004607955857313351,-0.004022875314452078,-0.006287469492198711,0.014447762467586486,0.9833293171498101
2017-02-27,-1,-0.003987291583317709,-0.0034861966652499528,-0.008648623994901235,0.014447762467586486,0.9832708329658287
2017-03-01,-1,-0.003161792944651087,-0.002769774955351373,-0.008648623994901235,0.014697634517006163,0.9835144907675115
2017-03-03,-1,-0.002522179662114052,-0.0021840182741030005,-0.008648623994901235,0.014688084343957485,0.983538701157066
2017-03-07,-1,-0.002622803777693964,-0.0022885858339403656,-0.008648623994901235,0.014688084343957485,0.9834394411361644
2017-03-09,-1,-0.0011850415200205231,-0.0010318681029471153,-0.0084578137214488,0.014688084343957485,0.9876329724862496
2017-03-13,1,0.0003011749609194405,0.0003367097543641338,-0.009269014073984132,0.007992532917580357,0.9884897820998488
2017-03-15,1,0.0008721288506676753,0.000990843279639417,-0.009269014073984132,0.006765641126755812,0.9892832496799424
2017-03-17,1,0.001150522554843045,0.0013262801132616852,-0.009269014073984132,0.0066161916094093845,0.9893933051707948
2017-03-21,-1,-0.0011440813622014658,-0.0009954511979501173,-0.005757934054241318,0.0075441843655410755,0.9901529767886386
2017-03-23,-1,-0.002379455714924471,-0.0020608563241961125,-0.006803949193441675,0.0075441843655410755,0.9891090527292684
2017-03-27,-1,-0.0019866669808025327,-0.0017466981542618239,-0.005757934054241318,0.015917662319134003,0.9876693537646509
2017-03-29,-1,-0.0023164853364001543,-0.0019847759299381294,-0.006034484574128468,0.01580313462034714,0.987265745559457
2017-03-31,-1,-0.002052666083878364,-0.001715471035515752,-0.0061440181338173715,0.016234623922625785,0.9871137382541959
2017-04-04,-1,-0.0017340870349773357,-0.001456057778922432,-0.0061440181338173715,0.016234623922625785,0.9870192388370048
2017-04-06,-1,-0.001195685008717963,-0.000976209834208539,-0.00553795703436655,0.014556993392861197,0.9881558467338613
2017-04-10,1,0.0001665679529018344,0.0002453431695682647,-0.0013753614619508956,0.016234623922625785,0.9881068184440337
2017-04-12,-1,-0.0008096507777057189,-0.0006681486753657997,-0.003639510246084519,0.018271148889654462,0.9866159821369582
2017-04-17,1,0.00012994817496733246,0.00018052218582996363,-0.0007547162613778744,0.018271148889654462,0.9868656205042027
2017-04-19,1,0.0012055507366311182,0.0014200733009368089,-0.004390438382958321,0.017286123227719528,0.98510848892998
2017-04-21,1,1.6187030317128175e-05,0.00013553374889438852,-0.0007547162613778744,0.017286123227719528,0.9860903505624465
2017-04-25,1,0.0011968104339062841,0.001389718068373947,-0.0024982110458766646,0.014139128795169108,0.9884373251160326
2017-04-27,1,0.0005130325351880819,0.0005403682415006039,-0.0005811649281662635,0.00980674161306234,0.9891247298601329
2017-05-01,1,0.001390136317730332,0.0015774858263227353,0.0006050388163513398,0.008018847231964178,0.9905427369131931
2017-05-03,1,0.002702136253456331,0.0031842266903296924,0.0014390199184728186,0.010658796729207881,0.9900029283100543
2017-05-05,1,0.003080160976768475,0.0035715162685648325,-0.0024982110458766646,0.00865726368545045,0.9896817372450837
2017-05-09,1,0.004128769869543745,0.004771953758127764,-0.0032570040289484426,0.008018847231964178,0.9899834249074504
2017-05-11,1,0.0046313411613032405,0.00532947884688138,-0.004094212207190046,0.00714562006410709,0.9905854225663987
2017-05-15,1,0.005180346698054422,0.005961227082797775,-0.004094212207190046,0.00865726368545045,0.9898245642280489
2017-05-17,1,0.0031436642331691663,0.0036899794909896304,-0.0005811649281662635,0.010717926841894886,0.9881392561096318
2017-05-19,1,0.004262776662657801,0.004967383660216785,-0.002493246133228183,0.012359667469631307,0.9878268166343673
2017-05-23,1,0.00433688994590864,0.005048988194252039,-0.0033649005189337663,0.021450276457815956,0.9861821860092885
2017-05-25,1,0.004586272382717948,0.005299451237919261,-0.0033649005189337663,0.021450276457815956,0.9860604661326529
2017-05-30,1,0.00525189048818382,0.00609968003144663,-0.0033649005189337663,0.021450276457815956,0.9859549786008086
2017-06-01,1,0.007588820063808593,0.008807244556321845,-0.00514753298110122,0.012359667469631307,0.9851754745405926
2017-06-05,1,0.006369711471753289,0.007383150733309687,-0.0007497513487293928,0.012359667469631307,0.9865238086005926
2017-06-07,1,0.005904051583235903,0.006871361447749597,0.0003179710835517491,0.012359667469631307,0.9876303850894612
2017-06-09,1,0.005583037544522627,0.0065098493848170175,0.0003179710835517491,0.012359667469631307,0.9880695956717688
2017-06-13,1,0.006360447219954841,0.007328335887480017,-0.0004003597345219117,0.007903206119413432,0.9882999439007748
2017-06-15,1,0.008878470544469327,0.010127823052826683,-0.0017061009133742758,0.005156196684712618,0.9887585174705548
2017-06-19,1,0.009556011207847265,0.010907749098776872,-0.0027578662347653524,0.004628926624115144,0.9880919213796401
2017-06-21,1,0.00869803106352484,0.009832538773810141,-0.0015329533038902807,0.004628926624115144,0.9903747939765098
2017-06-23,1,0.008082498345128829,0.009042972707066142,-0.003531327887856662,0.0032965086971993053,0.989125702885969
2017-06-27,1,0.007405380982044169,0.008225825546691386,-0.003531327887856662,0.004628926624115144,0.9896783281817318
2017-06-29,1,0.007112737482919294,0.007940968140366524,-0.0032095901233508478,0.005156196684712618,0.9907049826458834
2017-07-03,1,0.006750844935753666,0.0074572002544410435,-0.0032095901233508478,0.006455052706112282,0.9912107210655159
2017-07-06,1,0.0066430510269511476,0.007303914682513445,-0.005153885415273357,0.004467447396413809,0.9908182936696974
2017-07-10,1,0.006206639342533701,0.006784719913063038,-0.006240853386964434,0.005006123262333343,0.9904989310099446
2017-07-12,1,0.005564552591977479,0.00598960173752407,-0.006240853386964434,0.005394747618862363,0.9903553306509261
2017-07-14,1,0.0039025792687948455,0.004096384877936445,-0.005153885415273357,0.005394747618862363,0.9923044058563751
2017-07-18,1,0.0025820499043017436,0.0026343997445466413,-0.002954513387622427,0.007948579395057723,0.9922037682107451
2017-07-20,1,0.002881820139295655,0.002889937812388015,-0.006623806466818979,0.007181837859032939,0.9904564979839156
2017-07-24,1,0.0017196333829637635,0.001835892974957485,-0.006623806466818979,0.007181837859032939,0.9910788690858584
2017-07-26,1,0.0024880492551066866,0.002493286186710275,-0.006623806466818979,0.007181837859032939,0.9907251057085854
2017-07-28,1,0.0021436427803976335,0.002233892176337547,-0.010030230985715833,0.00750949147839132,0.9896628962734962
2017-08-01,1,0.00254155399770337,0.002603314744807455,-0.013101975238380985,0.005248384979973562,0.9889616877915077
2017-08-03,1,0.0029774943908253016,0.0030373125238614966,-0.014114164859053297,0.005248384979973562,0.9847644103179136
2017-08-07,1,0.0025188775878181805,0.0025521499271042723,-0.01397922372079467,0.003743650270074138,0.9849856644056053
2017-08-09,1,0.0032983318858390573,0.003428665542291673,-0.01434085112446926,0.0014128037016840772,0.9838187622696964
2017-08-11,1,0.0011764355787606115,0.0014384801235922302,-0.01434085112446926,0.0026003241220414457,0.9847940684773182
2017-08-15,1,0.0014872989411033892,0.0017862621753441858,-0.015475390807579419,0.0005680683757344398,0.9838011964240816
2017-08-17,-1,-0.00151485048712513,-0.000835834788483158,-0.01434085112446926,0.003917617962403481,0.9852686639176192
2017-08-21,-1,-0.0025563929728448925,-0.0017714035293574897,-0.01434085112446926,0.00827247639676526,0.9854505093268477
2017-08-23,-1,-0.0017020065192590974,-0.0010579243553002651,-0.01434085112446926,0.00463010645915208,0.9861860157211696
2017-08-25,-1,-0.0025729121155329483,-0.0018208390664698408,-0.01434085112446926,0.00463010645915208,0.9860223235116716
2017-08-29,-1,-0.0036362285026342147,-0.0027746904333380627,-0.01434085112446926,0.0083260549887068,0.9852588583672699
2017-08-31,-1,-0.004578116445919163,-0.0036015818791338273,-0.01434085112446926,0.013184468763993488,0.9865939119098187
2017-09-05,-1,-0.005516558736643737,-0.004431703168445308,-0.012636867871001862,0.013184468763993488,0.9864051826442248
2017-09-07,-1,-0.0073937394436437405,-0.006080315763121727,-0.02043523302719755,0.013184468763993488,0.9835653893816612
2017-09-11,-1,-0.006006963666266274,-0.004907723055899942,-0.02043523302719755,0.013797034001232535,0.983396223541708
2017-09-13,-1,-0.008000270480765006,-0.006534920338409955,-0.00796384597876028,0.012839524044210397,0.9835121323520118
2017-09-15,-1,-0.007007353500290653,-0.005764280330217677,-0.00796384597876028,0.008813734252641663,0.9844568838341511
2017-09-19,-1,-0.006577899459845061,-0.005377195458705002,-0.019555218753935635,0.008813734252641663,0.9846085745702595
2017-09-21,-1,-0.006087355218113511,-0.004985538991020846,-0.019555218753935635,0.012839524044210397,0.983453702054208
2017-09-25,-1,-0.0060502640011740935,-0.004966597526521149,-0.007753268859014916,0.012839524044210397,0.9835286537765067
2017-09-27,-1,-0.004423114743695762,-0.0035804797219975287,-0.018183357949346127,0.00948897067370372,0.9843184278454085
2017-09-29,-1,-0.004080457749505424,-0.003335570253204384,-0.011238949920284211,0.00948897067370372,0.9852380833891815
2017-10-03,-1,-0.003370990968329611,-0.0027510564256503266,-0.019848279643706265,0.00948897067370372,0.9833371740066837
2017-10-05,-1,-0.006299033371625951,-0.005387058594588079,-0.018183357949346127,0.00948897067370372,0.984819532637336
2017-10-09,-1,-0.005258753646736829,-0.004396942244611958,-0.018183357949346127,0.009196036504384855,0.985350341692035
2017-10-11,-1,-0.0036841640082646244,-0.0030609549115871394,-0.018183357949346127,0.009196036504384855,0.9832145635128683
2017-10-13,-1,-0.004598390432905304,-0.0038690098238508643,-0.014309368624812937,0.009196036504384855,0.9835854819423837
2017-10-17,-1,-0.004964344918643764,-0.004226454405896666,-0.012735577621075685,0.013820037240140626,0.9827746613616101
2017-10-19,-1,-0.0030159843754036866,-0.002531763005758218,-0.014309368624812937,0.013879840931244149,0.9822038269684457
2017-10-23,-1,-0.0004093913290850099,-0.0003162997081189198,-0.014309368624812937,0.009196036504384855,0.9825751646730213
2017-10-25,-1,-0.0016406914644555705,-0.001357149702370867,-0.012735577621075685,0.01082575471947078,0.9828649473055875
2017-10-27,-1,-0.0016586920651100287,-0.0013276121115044276,-0.012735577621075685,0.008925420900198228,0.9838521197188566
2017-10-31,-1,-0.005013613561270945,-0.004280470924349642,-0.01047680324569046,0.01082575471947078,0.9857988875374877
2017-11-02,-1,-0.0055343256119522385,-0.004826772535653755,-0.008934807633830345,0.011723943861487946,0.9857845826036118
