JNU-Tangyin/eata/results/Batch4_SP500/Batch4_SP500-BSHI.csv
Date,Action,Predicted_Q25,Predicted_Q75,Actual_Q25,Actual_Q75,RL_Reward
2010-12-13,0,0.0,0.0,0.0,0.0,0.9969272803132145
2010-12-15,0,0.0,0.0,0.0,0.0,0.9953268472698736
2010-12-17,0,0.0,0.0,0.0,0.0,0.9922405857263603
2010-12-21,0,0.0,0.0,0.0,0.0,0.9922405857263603
2010-12-23,0,0.0,0.0,0.0,0.0,0.9922405857263603
2010-12-28,0,0.0,0.0,0.0,0.0,0.9922405857263603
2010-12-30,0,0.0,0.0,0.0,0.0,0.9922405857263603
2011-01-03,-1,-0.0008488171631654087,-5.4791706134485734e-05,0.0,0.0,0.9917861902977793
2011-01-05,1,0.0008991494988647118,0.00103949902588826,0.0,0.0,0.9916100391852194
2011-01-07,1,0.001477999209695493,0.0017316723613927019,0.0,0.0,0.9940617658063428
2011-01-11,0,0.0,0.0,0.0,0.0,0.9952844386475369
2011-01-13,0,0.0,0.0,0.0,0.0,0.9967093948135941
2011-01-18,1,0.002254759826876356,0.002555651937570576,0.0,0.0,0.9973075276263371
2011-01-20,1,0.0015382066481508738,0.0016837293944109843,0.0,0.0,0.9928464676821861
2011-01-24,1,0.0016493884619575763,0.0018862688230609297,0.0,0.0,0.9927163282758807
2011-01-26,0,0.0,0.0,0.0,0.0,0.9942633439969093
2011-01-28,0,0.0,0.0,0.0,0.0,0.9928031253908992
2011-02-01,0,0.0,0.0,0.0,0.0,0.9928031253908992
2011-02-03,0,0.0,0.0,0.0,0.0,0.9928031253908992
2011-02-07,0,0.0,0.0,0.0,0.0,0.9928031253908992
2011-02-09,-1,-0.0018465678942049977,-0.0011014898353307423,0.0,0.0,0.9919839063696717
2011-02-11,-1,-0.0023517675409551104,-0.0015319155325667624,0.0,0.0,0.9910048175584841
2011-02-15,-1,-0.0028480720006394634,-0.001955992306053264,0.0,0.0,0.9904894731840921
2011-02-17,-1,-0.0017532750427381133,-0.0009977908837276992,0.0,0.0,0.9954548523768625
2011-02-22,-1,-0.0022834915698860055,-0.0014502876701121903,0.0,0.0,0.9949681901844022
2011-02-24,-1,-0.0024400874118931802,-0.0016165161686668528,0.0,0.0,0.9948084239764434
2011-02-28,-1,-0.0022485016225864975,-0.001452871388599221,0.0,0.0,0.9964508772549686
2011-03-02,0,-0.00017411999769451764,0.00015747605271531663,0.0,0.0,0.9981788852268282
2011-03-04,-1,-0.000446708013252048,-8.664146977930024e-05,0.0,0.0,0.9953273218238317
2011-03-08,0,0.0,0.0,0.0,0.0,0.9926247665924484
2011-03-10,0,0.0,0.0,0.0,0.0,0.9926247665924484
2011-03-14,0,0.0,0.0,0.0,0.0,0.9931913586171177
2011-03-16,0,0.0,0.0,0.0,0.0,0.991823205510189
2011-03-18,0,0.0,0.0,0.0,0.0,0.9929423217327817
2011-03-22,1,0.00011907054403602493,0.00016625563222789558,0.0,0.0,0.9928203980375362
2011-03-24,0,0.0,0.0,0.0,0.0,0.9929423217327817
2011-03-28,0,0.0,0.0,0.0,0.0,0.9899653027956467
2011-03-30,1,0.0023951285142434922,0.002661592439427313,0.0,0.0,0.9880932218587298
2011-04-01,1,0.0020234880964829106,0.002236907345934302,0.0,0.0,0.9910724152341771
2011-04-05,1,0.002175312990816896,0.0024049360061214366,0.0,0.0,0.9929105252816114
2011-04-07,1,0.0023276356651254554,0.002573069585189257,0.0,0.0,0.9879001886646229
2011-04-11,1,0.0010564803673938526,0.00108845386244839,0.0,0.0,0.9878682506864085
2011-04-13,1,0.0011989492961998211,0.0012084225901435263,0.0,0.0,0.9891410536747461
2011-04-15,0,0.0,0.0,0.0,0.0010775852102374542,0.9896081498439571
2011-04-19,0,0.0,0.0,0.0,0.0010775852102374542,0.9896081498439571
2011-04-21,0,0.0,0.0,0.0,0.0010775852102374542,0.9896081498439571
2011-04-26,0,0.0,0.0,0.0,0.0,0.9925830178837867
2011-04-28,1,0.0008781362259023594,0.000983201511744491,0.0,0.0,0.9921814570835626
2011-05-02,1,0.0008366661875800338,0.0009354762429460686,0.0,0.0,0.99221053715461
2011-05-04,1,0.0008534660111104285,0.0009525117269303611,0.0,0.0,0.9930537425960004
2011-05-06,1,0.0005673213416544577,0.000626954305505033,0.0,0.0,0.9982454516072065
2011-05-10,1,0.0006015830704633068,0.0006647806830764983,0.0,0.0,0.9991952664652523
2011-05-12,1,0.0005751842421922034,0.0006346523381183403,0.0,0.0,0.9980857982522748
2011-05-16,1,0.0005512284015544268,0.0006057638066455063,0.0,0.0,0.9982258363221473
2011-05-18,1,0.0005270662604144564,0.0005776795080587119,0.0,0.0,0.9982488735760433
2011-05-20,1,0.0004944712757588008,0.0005394410354377698,0.0,0.0,0.9982800756962706
2011-05-24,1,0.0004671143405491018,0.0005077164314730669,0.0,0.0,0.9971871019916173
2011-05-26,1,0.0004282933454821602,0.00046190508470212143,0.0,0.0,0.9972194487488502
2011-05-31,1,0.00040104286411099023,0.000430396830904695,0.0,0.0,0.995074860789232
2011-06-02,-1,-0.00011375124316716283,-2.6289255951257725e-05,0.0,0.0,0.9953596862468085
2011-06-06,-1,-0.0006620021194087625,-0.00046919924547162296,0.0,0.0,0.9949868070615862
2011-06-08,-1,-0.0007280657273382098,-0.0005271229069919427,0.0,0.0,0.9949392373201007
2011-06-10,1,0.00016850472074357798,0.00017392228896404672,0.0,0.0,0.9964400342687523
2011-06-14,-1,-0.0007554694820149337,-0.0005643116790717302,0.0,0.0,0.9960802608561887
2011-06-16,-1,-0.0008404351845937295,-0.0006367608935585811,0.0,0.0,0.9949392596959862
2011-06-20,-1,-0.000925946029662428,-0.0007096872547057019,0.0,0.0,0.9948699333299905
2011-06-22,-1,-0.0010372858584976568,-0.0008054965886076796,0.0,0.0,0.9959447970602204
2011-06-24,-1,-0.001120983628473713,-0.0008769772387772354,0.0,0.0,0.9958767484480828
2011-06-28,-1,-0.0011554761088354104,-0.0009048746520120933,0.0,0.0,0.9972486261164663
2011-06-30,-1,-0.0012946329374142146,-0.0010205260810285186,0.0,0.0,0.9948752192624523
2011-07-05,-1,-0.001383418705094622,-0.0010963039434514297,0.0,0.0,0.994793785305119
2011-07-07,-1,-0.0014729370182456768,-0.0011726661973281952,0.0,0.0,0.9929514932906689
2011-07-11,-1,-0.0015561307810076168,-0.001244229667164279,0.0,0.0,0.9921952498447548
2011-07-13,1,2.6689369637604018e-05,2.915011141520891e-05,0.0,0.0,0.9929322108328076
2011-07-15,1,2.366205887451438e-05,2.5662503417672748e-05,0.0,0.0,0.9925425326249524
2011-07-19,1,2.2041448251407124e-05,2.3753564162187054e-05,0.0,0.0,0.9902841346634397
2011-07-21,1,1.938421517744681e-05,2.056183562000042e-05,0.0,0.0,0.9902860015218519
2011-07-25,1,1.772185190387544e-05,1.861363612744392e-05,0.0,0.0,0.9902871655472361
2011-07-27,1,1.5325668013274762e-05,1.5828387349968955e-05,-0.0014705938451430377,0.0,0.9895046094532141
2011-07-29,1,1.039208484339649e-05,1.057901628790356e-05,-0.0014705938451430377,0.0,0.9917300094487149
2011-08-02,1,8.627708687421407e-06,9.0756573869794e-06,-0.0014705938451430377,0.0,0.9917314813823099
2011-08-04,-1,-0.00037467800255193645,-0.00032950616684428126,0.0,0.0,0.9934618998480474
2011-08-08,1,2.5870844682884037e-05,2.76890695600505e-05,0.0,0.0,0.9944885850007272
2011-08-10,1,2.3330719229387793e-05,2.4632562651975267e-05,0.0,0.0,0.9947819969545002
2011-08-12,1,1.9386212882494477e-05,2.0085553475170312e-05,0.0,0.0,0.9961881833510607
2011-08-16,1,2.0482601414462466e-05,2.1245925596884664e-05,0.0,0.0,0.9981641342783021
2011-08-18,1,1.840486537807206e-05,1.8805973942485743e-05,0.0,0.0,0.9981663848409672
2011-08-22,1,1.6183275941160744e-05,1.6205157342192452e-05,0.0,0.0,0.9981687872154378
2011-08-24,-1,-0.0001599890159216614,-0.00013595337163928444,0.0,0.0,0.9995138173160006
2011-08-26,-1,-0.00010162110857146677,-8.965982869728906e-05,0.0,0.0,0.9995533572121501
2011-08-30,-1,-5.1840343024435806e-05,-4.579005714838149e-05,0.0,0.0,0.9983552779510345
2011-09-01,-1,-0.0007826710524448323,-0.0007779368418203823,0.0,0.0,0.9978448277978095
2011-09-06,-1,-0.0002900790400203076,-0.00025966769636648704,0.0,0.0,0.998204097754585
2011-09-08,-1,-6.92107971203262e-05,-5.961001424234918e-05,0.0,0.0,0.9983453471818488
2011-09-12,-1,-7.013960548442887e-05,-6.044842278706135e-05,0.0,0.0,0.9983993184579675
2011-09-14,-1,-7.739631634192754e-05,-6.687337968496883e-05,0.0,0.0,0.998695546092525
2011-09-16,-1,-3.56965250093707e-05,-3.40637271014577e-05,0.0,0.0,0.9987281022898421
2011-09-20,-1,-2.785873373827374e-05,-2.753745424166086e-05,0.0,0.0,0.99873441890802
2011-09-22,0,0.0,0.0,0.0,0.0,0.9987592527058108
2011-09-26,0,0.0,0.0,0.0,0.0,0.9987592527058108
2011-09-28,1,0.9884568834600704,0.9895481351294824,0.0,0.0,0.5035557305622135
2011-09-30,0,0.0,0.0,0.0,0.0,0.9968847352024922
2011-10-04,0,0.0,0.0,0.0,0.0,0.9968847352024922
2011-10-06,-1,-8.297888783654585e-05,-7.27811934595139e-05,0.0,0.0,0.9968073456482518
2011-10-10,0,0.0,0.0,0.0,0.0,0.9936799024467649
2011-10-12,0,0.0,0.0,0.0,0.0,0.9936799024467649
2011-10-14,-1,-3.107260440031465e-06,-3.014168625990078e-06,0.0,0.0,0.993677191712159
2011-10-18,-1,-5.83387541360825e-05,-5.132525026354146e-05,0.0,0.0,0.9936318702871703
2011-10-20,0,0.0,0.0,0.0,0.0,0.9936799024467649
2011-10-24,0,0.0,0.0,0.0,0.0,0.9936799024467649
2011-10-26,1,0.0010700844644658935,0.0012039990915809105,0.0,0.0,0.9956466970898229
2011-10-28,1,0.0010313986982391876,0.0011586626487276968,0.0,0.0,0.9948784317773466
2011-11-01,1,0.0010134540597158677,0.0011390925895672858,0.0,0.0,0.994896997830585
2011-11-03,1,0.0009749475063507478,0.0010938933182072664,0.0,0.0,0.9949384264068772
2011-11-07,1,0.0008394702784991763,0.0009390533559201805,0.0,0.0,0.9982960388190772
2011-11-09,1,0.0008048381339755485,0.0008984748762165798,0.0,0.0,0.9983335174913889
2011-11-11,1,0.0007893622628305212,0.0008819326064382104,0.0,0.0,0.9983494735036538
2011-11-15,1,0.0007559197185677175,0.0008427667540729562,0.0,0.0,0.9973279330411038
2011-11-17,1,0.0006797215509466894,0.0007510536288556655,0.0,0.0,0.9974015520776258
2011-11-21,1,0.0006446708490319471,0.0007099716404609607,0.0,0.0,0.9965762784880936
2011-11-23,1,0.0006110303561294758,0.0006704531691480934,0.0,0.0,0.9966042367112632
2011-11-28,1,0.0004457997435399446,0.0004820819575400688,0.0,0.0,0.9975533310816304
2011-11-30,1,0.00041466347256124064,0.00044559193861027545,0.0,0.0,0.9975792406284968
2011-12-02,1,0.0003852132083872598,0.00041096687894932475,0.0,0.0,0.9966887735191707
2011-12-06,1,0.0003722113854678008,0.0003972937661464607,0.0,0.0,0.9966992467082554
2011-12-08,1,0.0003420043307848621,0.00036191799268510275,0.0,0.0,0.9967243346968441
2011-12-12,1,0.000312008448948337,0.0003267644479083607,0.0,0.0,0.9967492537942706
2011-12-14,1,0.0019521183305000358,0.0021818166838740516,0.0,0.0,0.9963185614303185
2011-12-16,1,0.001927454472477649,0.0021459545926475238,0.0,0.0,0.991774299971438
2011-12-20,1,0.0018482125274522972,0.002053396135210808,0.0,0.0,0.9878685326360719
2011-12-22,1,0.001760127941761446,0.001949821292660284,0.0,0.0,0.9879511947194434
2011-12-27,1,0.0015400148906262662,0.0016820952603212142,0.0,0.0,0.9881608613196686
2011-12-29,1,0.001287100853561708,0.001363469720827584,0.0,0.0,0.9838740564361382
2012-01-03,1,0.0012296382705607313,0.0012953145865519356,0.0,0.0,0.9848124318417649
2012-01-05,-1,-0.0004256824964854645,-0.0003446722310640536,0.0,0.0,0.9776539177874215
2012-01-09,-1,-0.00018489953470068914,-0.00015247506427712313,0.0,0.0,0.9777863165342167
2012-01-11,-1,-0.00019050985383721963,-0.0001572622477874445,0.0,0.0,0.9777830485401436
2012-01-13,-1,-0.00019628821057469093,-0.0001621838964774645,0.0,0.0,0.9777796879603677
2012-01-18,1,0.0005422934040408717,0.0006123034640607636,0.0,0.0,0.9813085692077755
2012-01-20,0,0.0,0.0,0.0,0.0,0.986522000049742
2012-01-24,0,0.0,0.0,0.0,0.0,0.9847005699372624
2012-01-26,0,0.0,0.0,0.0,0.0,0.9847005699372624
2012-01-30,0,0.0,0.0,0.0,0.0,0.9893761896702189
2012-02-01,0,0.0,0.0,0.0,0.0,0.9867297355923476
2012-02-03,0,0.0,0.0,0.0,0.0,0.9947635455655233
2012-02-07,1,0.004318872059323248,0.004787314291317917,0.0,0.0,0.9907710088074199
2012-02-09,1,0.0041186568101249,0.004551816274378679,0.0,0.0,0.9886147369749348
2012-02-13,1,0.0038991270216667,0.004295293228435013,0.0,0.0,0.9887940287592739
2012-02-15,1,0.0045197304118782915,0.005076657281575617,0.0,0.0,0.9862944841509657
2012-02-17,1,0.0039388108805461595,0.004365961821635631,0.0,0.0,0.9867733780795866
2012-02-22,1,0.0037279989163645963,0.004120366674359345,0.0,0.0,0.9883567017246656
2012-02-24,1,0.0035331456130805843,0.0038922809802187913,0.0,0.0,0.9882904977585516
2012-02-28,1,0.0033435237811432154,0.003669964936487498,0.0,0.0,0.9869652807514694
2012-03-01,1,0.003289433386389498,0.0036014487292020045,0.0,0.0,0.9896583545348018
2012-03-05,1,0.0030946610128091932,0.00337297045130885,0.0,0.0,0.9898179419720863
2012-03-07,1,0.002907283139445922,0.003152632761978478,0.0,0.0,0.9899716293663395
2012-03-09,1,0.0026962673794707053,0.0029056606783332845,0.0,0.0,0.9926679924622341
2012-03-13,1,0.0025046561626951647,0.002680798292204089,0.0,0.0,0.9928494240480932
2012-03-15,1,0.002423028190898715,0.002580294698559247,0.0,0.0,0.9956082146016544
2012-03-19,1,0.002210499310780213,0.002332935281564372,0.0,0.0,0.9941010502186164
2012-03-21,1,0.0020064394688595806,0.0020931524300907963,0.0,0.0,0.9902916993700617
2012-03-23,1,0.0017581220102187228,0.001760383588432556,0.0,0.0,0.9867285877018245
2012-03-27,1,0.003187876712687564,0.003365211238317508,0.0,0.0,0.9871147165684568
2012-03-29,1,0.0023199942493541434,0.0023719007809451568,0.0,0.0,0.9879192421706132
2012-04-02,1,0.0025989893539458313,0.002704550062478063,0.0,0.0,0.9844948150182846
2012-04-04,0,0.0,0.0,0.0,0.0,0.982314927282541
2012-04-09,0,0.0,0.0,0.0,0.0,0.981652806131221
2012-04-11,0,0.0,0.0,0.0,0.003433197675844561,0.9799941628276998
2012-04-13,0,0.0,0.0,0.0,0.014763895974455574,0.9791374193816593
2012-04-17,0,0.0,0.0,0.0,0.014763895974455574,0.9807389535439262
2012-04-19,0,0.0,0.0,0.0,0.004310410716085712,0.9848714842291518
2012-04-23,0,0.0,0.0,0.0,0.004310410716085712,0.98853914677852
2012-04-25,0,0.0,0.0,0.0,0.004310410716085712,0.98853914677852
2012-04-27,0,0.0,0.0,0.0,0.004310410716085712,0.98853914677852
2012-05-01,0,0.0,0.0,0.0,0.004310410716085712,0.9898816945945659
2012-05-03,0,0.0,0.0,0.0,0.00029240434674705047,0.9941679780306127
2012-05-07,0,0.0,0.0,0.0,0.0,0.9948470955157775
2012-05-09,-1,-0.0002585861953168471,-9.311135525634848e-05,0.0,0.0,0.9964478785246688
2012-05-11,-1,-0.000489605354409913,-0.00029758015047421597,0.0,0.0,0.9971669608951687
2012-05-15,0,0.0,0.0,0.0,0.0,0.9975021382673682
2012-05-17,0,0.0,0.0,0.0,0.0,0.9975021382673682
2012-05-21,0,0.0,0.0,0.0,0.0,0.9978509812813372
2012-05-23,0,0.0,0.0,0.0,0.0,0.9978509812813372
2012-05-25,0,0.0,0.0,0.0,0.0,0.9978509812813372
2012-05-30,0,0.0,0.0,0.0,0.0,1.0
2012-06-01,0,0.0,0.0,0.0,0.0,0.9974032073738387
2012-06-05,0,0.0,0.0,0.0,0.0,0.997180585849858
2012-06-07,0,0.0,0.0,0.0,0.0,0.997012080850817
2012-06-11,0,0.0,0.0,0.0,0.0,0.9920665690789174
2012-06-13,0,0.0,0.0,0.0,0.0,0.9920665690789174
2012-06-15,0,0.0,0.0,0.0,0.0,0.9920665690789174
2012-06-19,0,0.0,0.0,0.0,0.0,0.9920665690789174
2012-06-21,-1,-0.0010819070492117844,-0.000923428635334159,0.0,0.0,0.9911909830329212
2012-06-25,-1,-0.0011578459321894756,-0.0009803955562889234,0.0,0.0,0.9864472809537562
2012-06-27,-1,-0.0003615059476074197,-0.00033390541463569547,0.0,0.0,0.9869918168833983
2012-06-29,-1,-0.000946707051521308,-0.0008500096537895144,0.0,0.0,0.9843430077815585
2012-07-03,-1,-0.0008768344372361348,-0.0007890153390248819,0.0,0.0,0.9815055766850096
2012-07-06,-1,-0.0008825440988463744,-0.0007953807652843581,0.0,0.0,0.9817173333017098
2012-07-10,-1,-0.0018477753511594228,-0.0016568159532029765,0.0,0.0,0.9858684167478281
2012-07-12,-1,-0.0017633092297554428,-0.0015847620261068432,0.0,0.0,0.9859269854635622
2012-07-16,-1,-0.001963699343262598,-0.001744300460785064,0.0,0.0,0.9857945795303422
2012-07-18,0,0.0,0.0,0.0,0.0,0.9845104992534147
2012-07-20,0,0.0,0.0,0.0,0.0,0.9845104992534147
2012-07-24,0,0.0,0.0,0.0,0.0,0.9892925086839381
2012-07-26,0,0.0,0.0,0.0,0.0,0.9892925086839381
2012-07-30,1,1.0,1.0,0.0,0.0,0.5000735027249494
2012-08-01,0,0.0,0.0,0.0,0.0,0.9972429150801161
2012-08-03,-1,-0.0002506161577810794,-0.0002419944336053816,0.0,0.0,0.9970233667514187
2012-08-07,-1,-0.00023281453308144725,-0.00022716363014128676,0.0,0.0,0.9970376689419229
2012-08-09,-1,-0.0005786949467995066,-0.0005720766340935241,0.0,0.0,0.9967288427542793
2012-08-13,-1,-0.000501671190535875,-0.000496118596953213,0.0,0.0,0.9967971337160138
2012-08-15,1,0.0001863310573587841,0.000288857703393141,0.0,0.0,0.9997624620573042
2012-08-17,1,0.00024040258576440982,0.000352141009597343,0.0,0.0,0.999703815953299
2012-08-21,1,6.62374205248157e-05,0.00013269375617045844,0.0,0.0,0.9999005443040716
2012-08-23,0,0.0,0.0,0.0,0.0,1.0
2012-08-27,0,0.0,0.0,0.0,0.0,0.9958454759213461
2012-08-29,1,0.00017816853729935955,0.0002594688253085459,0.0,0.0,0.9956582698817442
2012-08-31,0,0.0,0.0,0.0,0.0,0.9958454759213461
2012-09-05,0,0.0,0.0,0.0,0.0,0.9958454759213461
2012-09-07,0,0.0,0.0,0.0,0.0,0.9958454759213461
2012-09-11,0,0.0,0.0,0.0,0.0,0.9941385637794261
2012-09-13,0,0.0,0.0,0.0,0.0,0.9915100373142706
2012-09-17,0,0.0,0.0,0.0,0.0,0.9915100373142706
2012-09-19,0,0.0,0.0,0.0,0.0,0.9915100373142706
2012-09-21,0,0.0,0.0,0.0,0.0,0.9915100373142706
2012-09-25,0,0.0,0.0,0.0,0.0,0.9956283916831903
2012-09-27,0,0.0,0.0,0.0,0.0,0.9956283916831903
2012-10-01,0,0.0,0.0,0.0,0.0,0.9906965635521129
2012-10-03,0,0.0,0.0,0.0,0.0,0.9906965635521129
2012-10-05,0,0.0,0.0,0.0,0.0,0.9906965635521129
2012-10-09,1,0.0018622244949229464,0.002046583626067108,0.0,0.0,0.9904706146818676
2012-10-11,1,0.0037931578990639037,0.004042112940369281,0.0,0.0,0.9844543940644214
2012-10-15,1,0.0035602377995625416,0.0037732413361129423,0.0,0.0,0.9846423528858229
2012-10-17,1,0.003276972091244631,0.0034501991481061165,0.0,0.0,0.9848702299157681
2012-10-19,1,0.002503761899010616,0.002532224239626107,0.0,0.0,0.985500186307342
2012-10-23,1,0.0025641994250395345,0.0025858963188833527,0.0,0.0,0.9854546136610306
2012-10-25,1,0.0021776389145563495,0.0022070544205430587,0.0,0.0,0.9857534437683372
2012-10-31,-1,-0.002700240994683088,-0.0020945814867340488,0.0,0.0,0.9899994597699566
2012-11-02,-1,-0.0007337517154471212,-0.0003377633332186493,0.0,0.0,0.9918274336079566
2012-11-06,-1,-0.0012262650560589813,-0.0007661434995000699,0.0,0.0,0.9913746889253354
2012-11-08,-1,-0.001342300333897318,-0.0008718515741097969,0.0,0.0,0.9912657335819641
2012-11-12,-1,-0.0009839664431208507,-0.0005489579108137661,0.0,0.0,0.9992341248373771
2012-11-14,-1,-0.0024376745775515915,-0.0018456092613641478,0.0,0.0,0.9975629730458431
2012-11-16,-1,-0.0025830233046290566,-0.0019745078471176195,0.0,0.0,0.9974418142585169
2012-11-20,-1,-0.0030543366698883535,-0.002414841442107061,0.0,0.0,0.9928961567701932
2012-11-23,-1,-0.0030975744130542996,-0.0025327444387296767,0.0,0.0,0.9928186722266297
2012-11-27,-1,-0.002815596366210679,-0.0022980149362423416,0.0,0.0,0.9930136114190812
2012-11-29,-1,-0.0029095400762293487,-0.002389256130747539,0.0,0.0,0.992941079084777
2012-12-03,-1,-0.0037428108030682127,-0.0032612581278298877,0.0,0.0,0.9910593448093185
2012-12-05,-1,-0.004002184293614144,-0.0034989304862240054,0.0,0.0,0.9908942244593215
2012-12-07,-1,-0.00381934517654154,-0.003345824853517882,0.0,0.0,0.9910018488260591
2012-12-11,-1,-0.004004452662370839,-0.003499638533710083,0.0,0.0,0.9908936128298292
2012-12-13,-1,-0.0036666326493973752,-0.003197364920858576,0.0,0.0,0.9912953147520319
2012-12-17,-1,-0.0011821683335859604,-0.0010129505459017148,0.0,0.0,0.9907122083516822
2012-12-19,1,0.0001873626587007051,0.0003237863680202567,0.0,0.0,0.9927518021791006
2012-12-21,0,-1.3933540189706162e-05,7.754980123820111e-05,0.0,0.0,0.99290943747609
2012-12-26,1,0.00010904612289995363,0.00016755415820227316,0.0,0.0,0.9928297229416584
2012-12-28,1,0.00013506654084157336,0.00018777445146739364,0.0,0.0,0.9928104080613236
2013-01-02,1,0.00011066854747527301,0.00017031954788641508,0.0,0.0,0.9944187070955414
2013-01-04,1,0.00012305941349644129,0.00020346236164735037,0.0,0.0,0.9932649723015863
2013-01-08,1,0.00023398606831714878,0.0002934780189740332,0.0,0.0,0.9931900546998982
2013-01-10,1,0.00036406197167914095,0.0004609748095249882,0.0,0.0,0.9930972348340883
2013-01-14,1,0.0005932394975010119,0.0006805719643508036,0.0,0.0,0.9929398134259133
2013-01-16,1,0.0009779974428857504,0.0010104764107096214,0.0,0.0,0.9949528137688813
2013-01-18,-1,-0.0005998661269338948,-0.00035309227765277084,0.0,0.0,0.988551952166801
2013-01-23,-1,-0.00042070756527145506,-0.0001948279662096462,0.0,0.0,0.985990407132226
2013-01-25,1,2.3730848897907607e-05,0.00020247894519596302,0.0,0.0,0.9861992805955576
2013-01-29,-1,-0.00048774053114197357,-0.0003130000124630996,0.0,0.0,0.9836615249180499
2013-01-31,0,-0.00013022601905952056,1.6736082172963472e-06,0.0,0.0,0.9839102122177776
2013-02-04,0,-9.881550131746392e-05,3.5802537590405765e-05,0.0,0.0,0.9847964460227937
2013-02-06,-1,-0.00013881982428364003,-2.6233065832658245e-05,0.0,0.0,0.9847684573671039
2013-02-08,1,0.00041856792816783405,0.0004752850879341151,0.0,0.0,0.9845232294175645
2013-02-12,1,0.0006292831246059199,0.0006623893452995859,0.0,0.0,0.9843821463320491
2013-02-14,1,0.00085994460473371,0.000862882323561914,0.0,0.0,0.9842280962764497
2013-02-19,1,0.0013826704334030933,0.0014653467090056664,0.0,0.0,0.9934965873870595
2013-02-21,1,0.001263038077589785,0.0014001738882506347,0.0,0.0,0.9961852123383798
2013-02-25,1,0.0012190984866413401,0.0013503343904324118,0.0,0.0,0.9941885982020623
2013-02-27,1,0.001980718874041959,0.002208167106215163,0.0,0.0,0.9959102913122065
2013-03-01,1,0.002061408585921882,0.002279562823473675,0.0,0.0,0.9958482109880028
2013-03-05,1,0.002361556320496062,0.0026413651794838936,0.0,0.0,0.9955983265883159
2013-03-07,1,0.0035403106465106728,0.0039834451237139796,0.0,0.0,0.9944913368000529
2013-03-11,1,0.004166065841489064,0.004746347508321135,0.0,0.0,0.9938872378244196
2013-03-13,1,0.0042672593110219485,0.0048716395318905105,0.0,0.0,0.993788951755242
2013-03-15,1,0.004407626524108303,0.0050198808275017555,0.0,0.0,0.9936614802314121
2013-03-19,1,0.004344302502746101,0.0049505019314624536,0.0,0.0,0.9937198475096598
2013-03-21,1,0.004634568931422405,0.005274991558362368,0.0,0.0,0.9934501237594403
2013-03-25,1,0.006909076120908875,0.007891706682177238,0.0,0.0,0.9926539720803094
2013-03-27,1,0.0020903412867026593,0.0020903412867026598,0.0,0.0,0.9968653928108564
2013-04-01,-1,-0.0015935140003621236,-0.0014682568058610828,0.0,0.0,0.9972137428266178
2013-04-03,1,6.292727121475752e-05,0.00017629750410510538,0.0,0.0,0.9986423748360884
2013-04-05,1,0.0001423820612900577,0.00026967624681413233,0.0,0.0,0.9985662052090932
2013-04-09,-1,-0.001571369282693313,-0.00139091066355604,0.0,0.0,0.9972632138897699
2013-04-11,-1,-0.001517854489811064,-0.0013452324274593071,0.0,0.0,0.9973125417454276
2013-04-15,0,0.0,0.0,0.0,0.0,0.9987384368618224
2013-04-17,0,0.0,0.0,0.0,0.0,0.9987384368618224
2013-04-19,0,0.0,0.0,0.0,0.0,0.9987384368618224
2013-04-23,0,0.0,0.0,0.0,0.0,0.9987384368618224
2013-04-25,0,0.0,0.0,0.0,0.0,1.0
2013-04-29,0,0.0,0.0,0.0,0.0,0.9989743599274064
2013-05-01,0,0.0,0.0,0.0,0.0,0.9979713952120337
2013-05-03,0,0.0,0.0,0.0,0.0,0.9979713952120337
2013-05-07,0,0.0,0.0,0.0,0.0,0.9979713952120337
2013-05-09,0,0.0,0.0,0.0,0.0,0.9979713952120337
2013-05-13,-1,-0.000934032875141828,-0.000933889149320119,0.0,0.0,0.9958096505228377
2013-05-15,0,0.0,0.0,0.0,0.0,0.9966438696845744
2013-05-17,0,0.0,0.0,0.0,0.0,0.9966438696845744
2013-05-21,0,0.0,0.0,0.0,0.0,0.9966438696845744
2013-05-23,0,-4.8797820146493634e-05,0.00024787540287099584,0.0,0.0,0.9946189384537258
2013-05-28,1,0.00020919882243563745,0.000553756011634584,0.0,0.0,0.9954402522651314
2013-05-30,1,0.0005482997293107933,0.0009471126961854977,0.0,0.0,0.9961575196412864
2013-06-03,1,0.0007841755322671707,0.0012235254324313018,0.0,0.0,0.9959618361840512
2013-06-05,1,0.0010189167709290278,0.0014984064363838606,0.0,0.0,0.9957672124820617
2013-06-07,1,0.0012474552827440144,0.0017610940778056054,0.0,0.0,0.9939137790270723
2013-06-11,0,0.0,0.0,0.0,0.0,0.9963308247156488
2013-06-13,0,0.0,0.0,0.0,0.0,0.9963308247156488
2013-06-17,0,0.0,0.0,0.0,0.0,0.9963308247156488
2013-06-19,0,0.0,0.0,0.0,0.0,0.9963308247156488
2013-06-21,0,0.0,0.0,0.0,0.0,0.9961104364253077
2013-06-25,0,0.0,0.0,0.0,0.0,0.9961104364253077
2013-06-27,0,0.0,0.0,0.0,0.0,0.9961104364253077
2013-07-01,1,1.0,1.0,0.0,0.0,0.5001348794042112
2013-07-03,0,0.0,0.0,0.0,0.0,0.9961104364253077
2013-07-08,-1,-0.00014081210484546513,-7.90973738865918e-05,0.0,0.0,0.9976734091738744
2013-07-10,0,0.0,0.0,0.0,0.0,0.9977828648762247
2013-07-12,1,0.0008452264991656236,0.0009095098478245362,0.0,0.0,0.9970966775546156
2013-07-16,0,0.0,0.0,0.0,0.0,0.9977828648762247
2013-07-18,1,0.0012318300265316445,0.0012531768377297737,0.0,0.0,0.9957584274319508
2013-07-22,1,0.0011727046642460012,0.001184576516792937,0.0,0.0,0.9977786843185653
2013-07-24,0,0.0,0.0,0.0,0.0,0.9989534760405797
2013-07-26,0,0.0,0.0,0.0,0.0,0.998904940903028
2013-07-30,0,0.0,0.0,0.0,0.0,0.998904940903028
2013-08-01,0,0.0,0.0,0.0,0.0,0.998904940903028
2013-08-05,1,0.0005727753976845734,0.00060416216542096,0.0,0.0,0.9983798862353285
2013-08-07,1,0.00045064757232700776,0.0004999783592672859,0.0,0.0,0.9978054447291143
2013-08-09,1,0.00034940268485964855,0.00041813794353044167,0.0,0.0,0.997889410905521
2013-08-13,1,0.00022665403027191037,0.0003159200822556072,0.0,0.0,0.9979922739820933
2013-08-15,1,0.0010755995504327976,0.0011995954693860987,0.0,0.0,0.9982338926110711
2013-08-19,1,0.00019702674160752725,0.00021044028636899525,0.0,0.0,0.9976383985324209
2013-08-21,-1,-0.00041551562080562916,-0.00028777625603806185,0.0,0.0,0.9974958326548444
2013-08-23,1,0.001339591418881287,0.0014732389511058082,0.0,0.0,0.9966010758854466
2013-08-27,1,0.0003436543341230788,0.0003436732392001973,0.0,0.0,0.9975386702873102
2013-08-29,1,0.00029027084667398973,0.0002981258357769422,0.0,0.0,0.9975837520995224
2013-09-03,1,0.00023619786897193963,0.0002519286122157048,0.0,0.0,0.9974170760881552
2013-09-05,1,0.0012880622718518743,0.001389120934392264,0.0,0.0,0.9972388508541824
2013-09-09,1,0.0009959961540890586,0.0010553024313490818,0.0,0.0,0.9974800150378614
2013-09-11,1,0.0004244899216730513,0.0004414069215507907,0.0,0.0,0.9979440135040282
2013-09-13,1,0.00034096219577151883,0.0003702020318035412,0.0,0.0,0.9980079816716564
2013-09-17,1,0.0007579636738410759,0.0008058911145540235,0.0,0.0,0.9990627020741754
2013-09-19,1,0.0006777832419888705,0.0007138807217491535,0.0,0.0,0.9983090428429756
2013-09-23,1,0.0006162620476048875,0.0006417341579016623,0.0,0.0,0.9983603254871248
2013-09-25,1,0.0005637240930990181,0.0005799065537495619,0.0,0.0,0.9984041693643544
2013-09-27,1,0.0005010227714586333,0.0005064744743646168,0.0,0.0,0.9984564250895317
2013-10-01,1,0.0015764630061429058,0.0017211499518931497,0.0,0.0,0.9976314065118992
2013-10-03,1,0.0005703499360907117,0.0005790993700769842,0.0,0.0,0.9985808796137385
2013-10-07,1,0.000497224585677383,0.0005003827806081854,0.0,0.0,0.99864846172592
2013-10-09,1,0.0004255456083473035,0.00043872408906399244,0.0,0.0,0.997224164584216
2013-10-11,1,0.0003615761147506617,0.0003856316917943982,0.0,0.0,0.9972727816136304
2013-10-15,1,0.000281092597603737,0.000317142439158611,0.0,0.0,0.9973343101542592
2013-10-17,1,0.000630695188278202,0.0006332147049143396,0.0,0.0,0.9979003191199233
2013-10-21,1,0.00046323689334608185,0.0004873967913691905,0.0,0.0,0.9971424684955353
2013-10-23,1,0.00037207732175333725,0.00041035329383084954,0.0,0.0,0.997219137359702
2013-10-25,1,0.00027378998142782126,0.0003264703537384383,0.0,0.0,0.9973020980292792
2013-10-29,1,0.00017552652916642467,0.00024263258064431773,0.0,0.0,0.9972188699916595
2013-10-31,1,0.00035286103446816025,0.00038994594928723025,0.0,0.0,0.9965958629206715
2013-11-04,1,0.00025559878609826493,0.0003062001936277132,0.0,0.0,0.9966623930261288
2013-11-06,1,7.784558387182103e-05,0.0001520862083263438,0.0,0.0,0.9982948609703465
2013-11-08,1,2.3755473802422188e-05,0.00010696596910546267,0.0,0.0,0.9981100672283386
2013-11-12,1,0.0005910343384282967,0.0005980634164222344,0.0,0.0,0.9977217527312976
2013-11-14,1,0.0004918453127847173,0.000513437089902927,0.0,0.0,0.9977896910648225
2013-11-18,1,0.0002157875004497035,0.00027250450101357207,0.0,0.0,0.9982644877707285
2013-11-20,1,0.00020178946927071556,0.00026367487207914445,0.0,0.0,0.9982738323276962
2013-11-22,1,0.00010492984402291579,0.00018103599989502698,0.0,0.0,0.9983402484990817
2013-11-26,0,-3.7103504649061065e-05,6.315958163470012e-05,0.0,0.0,0.9985899072724014
2013-11-29,0,-6.495231439470673e-05,4.1553677370055446e-05,0.0,0.0,0.9991079666842786
2013-12-03,0,-5.8402283320078486e-05,5.0565488316586685e-05,0.0,0.0,0.9991077730865277
2013-12-05,-1,-0.00016490119421196705,-4.0307195984751925e-05,0.0,0.0,0.9990626418355769
2013-12-09,-1,-0.0002115884456720922,-7.839356462357929e-05,0.0,0.0,0.9982078544685187
2013-12-11,1,0.00028322044820185393,0.0003185090047410251,0.0,0.0,0.9969180861204486
2013-12-13,1,0.00018510108252586707,0.00023332340254978592,0.0,0.0,0.9969933980748873
2013-12-17,1,3.296988311655139e-05,0.00010133138066689289,0.0,0.0,0.9977253203111691
2013-12-19,0,-4.4528339968774816e-05,3.522444301809363e-05,0.0,0.0,0.9972881665819651
2013-12-23,-1,-0.00011877528987936156,-2.4379301204711067e-05,0.0,0.0,0.9963472014657905
2013-12-26,-1,-0.00020012389407366273,-9.304948239552928e-05,0.0,0.0,0.9962900195334916
2013-12-30,-1,-0.0002824406682698998,-0.00016328041910412735,0.0,0.0,0.9962317287675022
2014-01-02,-1,-0.00036476902137642323,-0.00023352970882050458,0.0,0.0,0.9961734316670232
2014-01-06,-1,-0.00044715132384425796,-0.0003038089717580334,0.0,0.0,0.9961151125878619
2014-01-08,-1,-0.0002070883659555491,-7.218705683034661e-05,0.0,0.0,0.9973537885099293
2014-01-10,1,9.252340376645648e-05,0.00019585461406152062,0.0,0.0,0.998494994126966
2014-01-14,0,-3.099289552409599e-05,9.031170969491447e-05,0.0,0.0,0.9979307159787782
2014-01-16,1,0.0006938726223603774,0.0007280202909273654,0.0,0.0,0.9973256229316935
2014-01-21,1,5.0485531533484235e-05,0.00013786445827670472,0.0,0.0,0.9981699960326744
2014-01-23,1,2.1101139227371318e-05,0.00011500941856328007,0.0,0.0,0.9990991792861563
2014-01-27,0,-8.215906813293321e-05,2.6862567122405462e-05,0.0,0.0,0.9991144061080419
2014-01-29,1,0.000544302965415558,0.000573426825592684,0.0,0.0,0.9986541787309281
2014-01-31,1,0.0004451351642366259,0.0004591267012468978,0.0,0.0,0.9987484806527144
2014-02-04,1,4.53058913660626e-05,0.00010377970992470593,0.0,0.0,0.9989028217831438
2014-02-06,0,-2.3789708120854514e-05,4.478007213165697e-05,0.0,0.0,0.9989459915516404
2014-02-10,1,0.0005786222411800142,0.0005830514267239046,0.0,0.0,0.9984429756729671
2014-02-12,1,0.0006738625581796389,0.0006780585514199904,0.0,0.0,0.9990131618644341
2014-02-14,1,0.0005769632028029182,0.0005875854576693687,0.0,0.0,0.9990979616889587
2014-02-19,1,0.00047457137546547953,0.0005001872796834643,0.0,0.0,0.9993235053517416
2014-02-21,1,0.00037386390180213,0.0004142376444792389,0.0,0.0,0.9992225536972732
2014-02-25,1,6.0527865481279e-05,6.052786548127901e-05,0.0,0.0,0.9995183141799179
2014-02-27,1,6.434773265954993e-06,8.381629632172461e-06,0.0,0.0,0.9993779928251731
2014-03-03,1,7.0829515452819464e-06,9.14125938034296e-06,0.0,0.0,0.9993774514934295
2014-03-05,1,2.0321540363420443e-05,2.4146922677022902e-05,0.0,0.0,0.9995558714119659
2014-03-07,1,2.0603425821418273e-05,2.447770431135123e-05,0.0,0.0,0.9995556358191299
2014-03-11,-1,-7.302705494211702e-05,-6.147872558854591e-05,0.0,0.0,0.9957968103530601
2014-03-13,1,2.1423505027355884e-05,2.858178104537521e-05,0.0,0.0,0.9958480519963249
2014-03-17,1,2.4084802756563143e-05,3.169799158969338e-05,0.0,0.0,0.9958461677249834
2014-03-19,1,2.676251656345902e-05,3.4836126775150534e-05,0.0,0.0,0.995844271619173
2014-03-21,1,5.451935443948052e-05,6.625332865313843e-05,0.0,0.0,0.9949305150625711
2014-03-25,1,5.190339553198641e-05,6.300178584378413e-05,0.0,0.0,0.9949323790440591
2014-03-27,1,0.00021076819712982384,0.00021514641770505887,0.0,0.0,0.9878484514575233
2014-03-31,1,2.5494548371653496e-05,3.0371594015285397e-05,0.0,0.0,0.9879749867509019
2014-04-02,1,1.201496176428353e-05,1.328536244652735e-05,0.0,0.0,0.9879844841808418
2014-04-04,1,1.0317644733479881e-05,1.1215687193122498e-05,0.0,0.0,0.987849581088135
2014-04-08,1,0.0001610872351022067,0.00018173271725277065,0.0,0.0,0.9913929834103822
2014-04-10,1,0.00015564777631412835,0.00017535796690837114,0.0,0.0,0.9913968007761075
2014-04-14,1,0.00012914505678940662,0.00014313054856590087,0.0,0.0,0.9909564082576863
2014-04-16,1,0.00012059834546359401,0.0001329571394561744,0.0,0.0,0.9909624135860559
2014-04-21,1,7.125653836912926e-05,7.686801935706105e-05,0.0,0.0,0.9921103588609506
2014-04-23,1,6.978773109916568e-05,7.552750593964846e-05,0.0,0.0,0.9921114888550893
2014-04-25,1,4.7210117059052586e-07,2.3236476631383517e-06,0.0,0.0,0.9993913985542214
2014-04-29,-1,-5.789628113263377e-06,-2.8090216918798577e-06,0.0,0.0,0.999388935426247
2014-05-01,-1,-8.03076959250618e-06,-4.725678678694867e-06,0.0,0.0,0.999387099115033
2014-05-05,1,3.2902429969496637e-06,4.804653718584605e-06,0.0,0.0,0.9995288875490922
2014-05-07,1,1.1747036978517256e-06,2.999502424759726e-06,0.0,0.0,0.9995308460515752
2014-05-09,0,-9.408356012461124e-07,1.1943511309349248e-06,0.0,0.0,0.9995320076877025
2014-05-13,-1,-4.347536270876327e-05,-3.487148085367809e-05,0.0,0.0,0.9999608281127156
2014-05-15,-1,-4.601734090174249e-05,-3.7031531905852566e-05,0.0,0.0,0.9969020667517307
2014-05-19,-1,-7.918267549891122e-05,-6.390871947937473e-05,0.0,0.0,0.9968722321031503
2014-05-21,-1,-8.305584731324388e-05,-6.721362670318752e-05,0.0,0.0,0.9968686654926457
2014-05-23,-1,-8.692901912757656e-05,-7.051853392700037e-05,0.0,0.0,0.9937830227346803
2014-05-28,-1,-7.832385304559774e-05,-6.367837929941304e-05,0.0,0.0,0.9937906497288489
2014-05-30,1,0.0010941761182823762,0.0010978305736078105,0.0,0.0,0.9929961436510536
2014-06-03,1,0.0010807519889283312,0.0010847387135454103,0.0,0.0,0.9930066641847243
2014-06-05,0,-1.546141880786254e-07,1.7847155926716572e-06,0.0,0.0,0.9938601318360127
2014-06-09,-1,-1.4429616925915938e-05,-5.516386218625562e-06,0.0,0.0,0.9919964979656289
2014-06-11,-1,-2.0258842970721165e-05,-1.0920774352011868e-05,0.0,0.0,0.9919915652638681
2014-06-13,-1,-0.00046547119135817785,-0.00040893648418491334,0.0,0.0,0.9946470238977491
2014-06-17,-1,-0.000545273705398229,-0.0004847021041841966,0.0,0.0,0.9945781698545335
2014-06-19,-1,-0.000524751072981241,-0.0004671927034042776,0.0,0.0,0.9945948014032063
2014-06-23,-1,-0.0011732764557531427,-0.0010408229868909351,0.0,0.0,0.9971422463388652
2014-06-25,-1,-0.0011312363191166893,-0.00100495090118956,0.0,0.0,0.9971764946281926
2014-06-27,-1,-0.001089196182480236,-0.0009690788154881845,0.0,0.0,0.9972107452702147
2014-07-01,-1,-0.0010471560458437824,-0.0009332067297868091,0.0,0.0,0.9972449982651741
2014-07-03,-1,-0.0003834549645189617,-0.0003480465353116403,0.0,0.0,0.9977963873804643
2014-07-08,-1,-0.0005222464142718267,-0.00047875664587626815,0.0,0.0,0.9994997488463937
2014-07-10,-1,-0.0004872034600317571,-0.0004488588309777899,0.0,0.0,0.9995321878051727
2014-07-14,-1,-0.00047684700883910075,-0.0004387616257822293,0.0,0.0,0.9995424051715773
2014-07-16,-1,-0.00044308064251578807,-0.0004099493981472791,0.0,0.0,0.9995736668171746
2014-07-18,-1,-0.00040931427619247506,-0.00038113717051232863,0.0,0.0,0.9996049304183088
2014-07-22,-1,-0.0003760515503383648,-0.00035279743944806704,0.0,0.0,0.9996357082619394
2014-07-24,-1,-0.00034223990055552147,-0.0003239465722588455,0.0,0.0,0.9996670176777522
2014-07-28,-1,-0.0002834380180787022,-0.0002749999279250474,0.0,0.0,0.9997208589684703
2014-07-30,-1,-0.000248325641867398,-0.00024503917447833614,0.0,0.0,0.9997533784290302
2014-08-01,-1,-0.00021509993748030731,-0.0002132345955146027,0.0,0.0,0.9997858785912993
2014-08-05,-1,-0.00018108454019352547,-0.0001742206354148987,0.0,0.0,0.9987369881068022
2014-08-07,-1,-0.00015177653662730358,-0.00013987324662009568,0.0,0.0,0.9987687364654375
2014-08-11,-1,-0.00012246853306108156,-0.00010552585782529252,0.0,0.0,0.9988004868426028
2014-08-13,-1,-0.00011785529261808837,-0.00010184107621690054,0.0,0.0,0.9988046259231642
2014-08-15,-1,-8.981722924814194e-05,-6.900536480180703e-05,0.0,0.0,0.9988349910102301
2014-08-19,-1,-8.198342100529607e-05,-6.122262414187113e-05,0.0,0.0,0.9988427811626163
2014-08-21,-1,-5.509955078865864e-05,-2.9716188005630905e-05,0.0,0.0,0.9988719096339531
2014-08-25,0,-2.821568057202094e-05,1.7902481306096546e-06,0.0,0.0,0.9988973890269534
2014-08-27,0,-1.331615623821958e-06,3.329181576938934e-05,0.0,0.0,0.9988976211703471
2014-08-29,-1,-0.0005826303027895564,-0.0005057810478107112,0.0,0.0,0.9965509861373426
2014-09-03,-1,-0.0008379126110989781,-0.0007323351554247512,0.0,0.0,0.9973919075174897
2014-09-05,-1,-0.0008196770365529018,-0.0007167783119488033,0.0,0.0,0.9967607060681848
2014-09-09,-1,-0.0007929807607341779,-0.000693818922364446,0.0,0.0,0.9967825357942225
2014-09-11,-1,-0.0006099184072744116,-0.0005470669634029348,0.0,0.0,0.9969264117746183
2014-09-15,-1,-0.0005814607581482528,-0.0005227733910324995,0.0,0.0,0.9969495908135979
2014-09-17,-1,-0.00021818656989289713,-0.00020078676678131279,0.0,0.0,0.9972520678937591
2014-09-19,-1,-0.00017583252505051644,-0.00015115012599318338,0.0,0.0,0.9972939625317363
2014-09-23,-1,-0.00013347848020813592,-0.00010151348520505416,0.0,0.0,0.9973358606898556
2014-09-25,-1,-0.00011148473634440908,-7.718701165522387e-05,0.0,0.0,0.9973568263448792
2014-09-29,-1,-0.0005739992822288852,-0.0005519006443029935,0.0,0.0,0.9987581814371844
2014-10-01,-1,-0.000508377333014306,-0.000495928361310724,0.0,0.0,0.9988118033351259
2014-10-03,-1,-0.00017873228607065422,-0.0001391071031299262,0.0,0.0,0.999841105556856
2014-10-07,-1,-0.0001418942500212912,-8.608515536535167e-05,0.0,0.0,0.9994696234896993
2014-10-09,-1,-7.568020351344498e-05,-1.2849468073856474e-05,0.0,0.0,0.9995375518139098
2014-10-13,0,-1.718574935154153e-05,5.570285603443773e-05,0.0,0.0,0.9995520598283261
2014-10-15,1,4.130870481036195e-05,0.00012425518014273182,0.0,0.0,0.9995173392637767
2014-10-17,1,9.990291223664269e-05,0.0001930002153650181,0.0,0.0,0.9944913483965595
2014-10-21,1,0.00015828178653817468,0.00026133369760263553,0.0,0.0,0.9895454632395143
2014-10-23,1,0.0002167703924243166,0.0003298791678492906,0.0,0.0,0.98949757471579
2014-10-27,1,0.00027514886443154405,0.0003982652244124038,0.0,0.0,0.9882275345598062
2014-10-29,1,0.00032337515908885644,0.00045245727962162546,0.0,0.0,0.9881886315440449
2014-10-31,1,0.00038004601453618203,0.000518872445055369,0.0,0.0,0.9881423584189056
2014-11-04,0,-4.7663141572311905e-05,9.666848986069026e-06,0.0,0.0,0.9888608162024866
2014-11-06,-1,-0.00013734271935281195,-0.0001046647361513341,0.0,0.0,0.9887865551697267
2014-11-10,-1,-9.391212259898103e-05,-5.377495144771436e-05,0.0,0.0,0.9888248252234995
2014-11-12,-1,-0.0009363937083778481,-0.000813376057340817,0.0,0.0,0.9880053423304261
2014-11-14,-1,-0.000613194270086215,-0.0005282724448470663,0.0,0.0,0.9930793840314894
2014-11-18,-1,-0.0007101320524591083,-0.0006141345045573678,0.0,0.0,0.9979541968674703
2014-11-20,-1,-0.0007012542815990615,-0.0006065569227936781,0.0,0.0,0.9979614420743047
2014-11-24,1,0.00043069416182327474,0.0005304481393524478,0.0,0.0,0.999378600013486
2014-11-26,1,0.00017778704893024971,0.00021685440640178527,0.0,0.0,0.9995934807813831
2014-12-01,1,0.0001842856218129012,0.00022446783463613148,0.0,0.0,0.9995880516629736
2014-12-03,1,0.00019083746864781596,0.0002321462433702623,0.0,0.0,0.9995825775574684
2014-12-05,1,0.00019735378845765872,0.00023978148737479598,0.0,0.0,0.9995346532936353
2014-12-09,1,0.0002039044560614373,0.0002474585141140659,0.0,0.0,0.9995291807581143
2014-12-11,1,0.00016606433742801522,0.0002049310599753838,0.0,0.0,0.9997314119110741
2014-12-15,1,0.00017419614205330206,0.00021447165080448326,0.0,0.0,0.9997246135804325
2014-12-17,1,0.00018191453681204353,0.00022350339612162016,0.0,0.0,0.9997181659640169
2014-12-19,1,0.00018986569820278492,0.0002328217255342991,0.0,0.0,0.9997115210013879
2014-12-23,1,0.00018895794453693165,0.00023211920127533828,0.0,0.0,0.9997298322758157
2014-12-26,1,0.0001972261687511187,0.00024181118906651096,0.0,0.0,0.9997218969092907
2014-12-30,1,0.0002056671904638783,0.0002517144958872424,0.0,0.0,0.99971379276515
2015-01-02,1,0.00021390701516214077,0.00026137112302231015,0.0,0.0,0.9997058856327464
2015-01-06,1,0.00015908010586925355,0.00019000999791160452,0.0,0.0,0.9998034869020361
2015-01-08,1,0.000161838678486786,0.00019324289523260408,0.0,0.0,0.9998008392209634
2015-01-12,1,0.00015941114125409402,0.0001906061953936386,0.0,0.0,0.9998250219543509
2015-01-14,1,0.00016233032067168232,0.00019402731516357242,0.0,0.0,0.9998218529241178
2015-01-16,1,0.0007713891300716446,0.000824544810172978,0.0,0.0,0.9945129964508812
2015-01-21,1,0.0008649329524132084,0.0009100183019886398,0.0,0.0,0.9943708476764556
2015-01-23,1,0.0007994867411543071,0.000829832848605951,0.0,0.0,0.994119863643306
2015-01-27,1,0.000768006065050694,0.0008051273297807407,0.0,0.0,0.9941433438085007
2015-01-29,1,0.00081730480006436,0.0008465360331006691,0.0,0.0,0.9941060084908655
2015-02-02,1,0.0008723397595490762,0.0008939000715447638,0.0,0.0,0.9940640957119597
2015-02-04,1,0.0009243102165800994,0.0009381052815053413,0.0,0.0,0.9940246284736319
2015-02-06,1,0.000977087638486549,0.000983139297881115,0.0,0.0,0.9939845219972151
2015-02-10,1,0.00102851105637116,0.001030205935891129,0.0,0.0,0.9939447845162629
2015-02-12,1,0.0010735698092189363,0.0010830119157531591,0.0,0.0,0.9939075628280697
2015-02-17,1,0.0010055399351083468,0.0010078683475617809,0.0,0.0,0.9986315576490539
2015-02-19,1,0.0009981495908843421,0.001001325323905955,0.0,0.0,0.9986926162527898
2015-02-23,1,0.0006597215147513965,0.0006620270440645369,0.0,0.0,0.999339562186956
2015-02-25,1,0.0006679039107084547,0.0006696061706183456,0.0,0.0,0.9993316918937514
2015-02-27,1,0.0004444335259546098,0.0004452238123960028,0.0,0.0,0.9995553691153893
2015-03-03,1,0.0007925225174835833,0.0007937377563399598,0.0,0.0,0.9992074984199749
2015-03-05,1,0.000829708252064645,0.0008346141657475873,0.0,0.0,0.9991685307075854
2015-03-09,1,0.00029961754697024293,0.0003035093205963809,0.0,0.0,0.9954777347496604
2015-03-11,1,9.736468137559314e-17,9.736468137559315e-17,0.0,0.0,0.9957766665902515
2015-03-13,1,0.0004117835229125458,0.00046448207373707125,0.0,0.0,0.9953424161947338
2015-03-17,1,0.0003978193669506509,0.00044811684118444326,0.0,0.0,0.9953574401830644
2015-03-19,1,0.00038385521098875604,0.0004317516086318153,0.0,0.0,0.9906380591085308
2015-03-23,1,0.00021530210375356602,0.00024178351821436825,0.0,0.0,0.9907943100312961
2015-03-25,1,8.370418798700243e-05,9.383876547762534e-05,0.0,0.0,0.9907355547184568
2015-03-27,1,8.065604009741413e-05,9.02540148641963e-05,0.0,0.0,0.9906713973222802
2015-03-31,1,0.0002486507408322542,0.0002807104125618087,0.0,0.0,0.9905542003088994
2015-04-02,1,0.00024071945732113273,0.00027140130273949244,0.0,0.0,0.9905597581378599
2015-04-07,1,0.001148489197348902,0.0012923476871466739,0.0,0.0,0.9941013649607492
2015-04-09,-1,-0.0005068798298861986,-0.0004424113007290805,0.0,0.0,0.9899375318880226
2015-04-13,-1,-0.0006262877076974921,-0.0005380551340199757,0.0,0.0,0.9898450338390518
2015-04-15,-1,-0.0005674334715842578,-0.0004898564995968245,0.0,0.0,0.9885194263216569
2015-04-17,1,0.0009299647379553399,0.001039714710804938,0.0,0.0,0.993089213584961
2015-04-21,1,0.0007023476135951589,0.0007572641901988244,0.0,0.0,0.993250788883878
2015-04-23,1,0.0007087626025611136,0.0007624152177350583,0.0,0.0,0.9933609167126698
2015-04-27,1,0.0006787185431694504,0.0007262847829851348,0.0,0.0,0.9933885788428874
2015-04-29,1,0.0006246752139095993,0.0006630287237960267,0.0,0.0,0.9930321079814469
2015-05-01,1,0.0005702597976533839,0.000599396440019014,0.0,0.0,0.9930835855176442
2015-05-05,1,0.0005175564529997143,0.0005375711406369694,0.0,0.0,0.9931335158474615
2015-05-07,-1,-0.0009959588510575095,-0.0008401844479126989,0.0,0.0,0.9964923124818932
2015-05-11,-1,-0.0010058860693692722,-0.0008486579820726134,0.0,0.0,0.9964852772812866
2015-05-13,-1,-0.0005587276296509077,-0.0004530221563091786,0.0,0.0,0.9982053313672024
2015-05-15,-1,-0.000583693754373974,-0.0004743322299948507,0.0,0.0,0.9981875778255993
2015-05-19,-1,-0.0006002555650530541,-0.0004888846178312685,0.0,0.0,0.9981755567176352
2015-05-21,-1,-0.0006249394951197303,-0.0005099469674248417,0.0,0.0,0.9981580089151848
2015-05-26,-1,-0.0006431708407702989,-0.0005257349037030117,0.0,0.0,0.9971966551817628
2015-05-28,-1,-0.0007860486787527432,-0.0006521677480130165,0.0,0.0,0.9962286742951921
2015-06-01,-1,-0.0008146577678236742,-0.0006761542101342772,0.0,0.0,0.9962086641336477
2015-06-03,-1,-0.0008501080109782459,-0.0007060543481410525,0.0,0.0,0.996062031120243
2015-06-05,-1,-0.0011721799387451122,-0.000991302737944311,0.0,0.0,0.9956762754347831
2015-06-09,-1,-0.001168177166132459,-0.0009879883484903013,0.0,0.0,0.9956790477470902
2015-06-11,-1,-0.0011764261131816656,-0.000995035007193376,0.0,0.0,0.9957145176756721
2015-06-15,-1,-0.0011868120740604485,-0.0010038891772628333,0.0,0.0,0.9956658318675362
2015-06-17,-1,-0.0010192065579083054,-0.000862175477820784,0.0,0.0,0.9922290471881937
2015-06-19,-1,-0.0010205826081626254,-0.0008633975277958219,0.0,0.00020851186556993854,0.9910481767489938
2015-06-23,-1,-0.0012853152294648711,-0.0010976767532788318,0.0,0.005944684532880029,0.9900298746826173
2015-06-25,-1,-0.0009462678078793914,-0.0007986852178369667,0.0,0.00020851186556993854,0.9914658317937876
2015-06-29,-1,-0.0009558866484670569,-0.000806889574321769,0.0,0.00020851186556993854,0.9914590871791213
2015-07-01,-1,-0.0010204041142848983,-0.0008634968583783502,0.0,0.00020851186556993854,0.9915148062116689
2015-07-06,-1,-0.000748440185221374,-0.0006229570075049031,0.0,0.0,0.9927824395875102
2015-07-08,-1,-0.0007641973692676855,-0.0006364196454074721,0.0,0.0,0.992771348393446
2015-07-10,-1,-2.920979658815343e-05,-8.789907338273525e-06,0.0,0.0,0.9912862127035174
2015-07-14,1,1.8136512103159158e-05,4.7638385719643854e-05,0.0,0.0,0.9913234868737502
2015-07-16,1,0.00045836072110207713,0.00054206071300369,0.0,0.0,0.9946115976418171
2015-07-20,1,0.0007253807018904484,0.0008444048401299929,0.0,0.0,0.9954926232073518
2015-07-22,1,0.0011485681676839245,0.001324058517384047,0.0,0.0,0.9928290411063997
2015-07-24,1,0.001090350270619475,0.0012566322941267747,0.0,0.0,0.9928838683321379
2015-07-28,1,0.0010735816334912697,0.001236988629874684,0.0,0.0,0.9928997383224543
2015-07-30,1,0.001057238249978749,0.0012178350718215483,0.0,0.0,0.9929152091176591
2015-08-03,1,0.0010408948664662287,0.0011986815137684141,0.0,0.0,0.9919650406667924
2015-08-05,1,0.001014957555684536,0.0011684828246434236,0.0,0.0,0.9919894788369001
2015-08-07,1,0.0007400946371170109,0.0008601022976066582,0.0,0.0,0.9894909837128874
2015-08-11,1,0.0005643641703493132,0.0006585312047654716,0.0,0.0,0.9896547166569744
2015-08-13,1,0.000562360690337044,0.0006561821500231541,0.0,0.0,0.9896566011392831
2015-08-17,1,0.0005597211720225703,0.0006530909477892179,0.0,0.0,0.9896590826591996
2015-08-19,1,0.0006130549910541307,0.0007130595860341789,0.0,0.0,0.9935188290842167
2015-08-21,1,0.0006098045065496994,0.0007092420230629774,0.0,0.0,0.9886854633764163
2015-08-25,1,0.0004959704018630007,0.0005768152288760462,0.0,0.0,0.9887919813136918
2015-08-27,1,0.0005166365088473048,0.0006024625385832377,0.0,0.0,0.988107722878929
2015-08-31,-1,-0.0002228374664838851,-0.00016107787133890004,0.0,0.0,0.9859033301707221
2015-09-02,-1,-0.00024890895072188213,-0.00018386473589083606,0.0,0.0,0.985887565699904
2015-09-04,-1,-0.0014963909190560242,-0.0012853353574254177,0.0,0.0,0.9897333628148303
2015-09-09,-1,-0.00022537114130233358,-0.00020534595662579532,0.0,0.0,0.9906198935827251
2015-09-11,-1,-0.00021155723318398435,-0.00019355879950550502,0.0,0.0,0.990629566046162
2015-09-15,-1,-0.0001799346388092263,-0.00016634458988002869,0.0,0.0,0.9906518425815453
2015-09-17,-1,-0.0001628614083172551,-0.00015191791900560138,0.0,0.0,0.9906637160907655
2015-09-21,1,0.00016168180105596098,0.00019253826361009628,0.0,0.0,0.9955630277221954
2015-09-23,1,0.00016403872183759545,0.00019530044678857289,0.0,0.0,0.9955607846945168
2015-09-25,1,0.00012569366851706193,0.00015202408885467902,0.0,0.0,0.9962711831148602
2015-09-29,1,0.00019043053354399398,0.00022633898829229297,0.0,0.0,0.9939360892916497
2015-10-01,1,0.0001765371631053389,0.00020998321511319376,0.0,0.0,0.9939492937339619
2015-10-05,1,0.00011641716022239562,0.00013486414817362997,0.0,0.0,0.9939811585727997
2015-10-07,1,0.00011555826710731728,0.0001338527695036069,0.0,0.0,0.9939818691583738
2015-10-09,1,0.00011434335821174237,0.00013242896224589692,0.0,0.0,0.9939828728741934
2015-10-13,1,0.00011312844931616748,0.00013100515498818695,0.0,0.0,0.9939838765920398
2015-10-15,1,0.00011179980714780743,0.00012944965936896233,0.0,0.0,0.9939849739419228
2015-10-19,1,0.00012979712601652807,0.00015193824651703477,0.0,0.0,0.9939698148144492
2015-10-21,1,0.00012966066292935272,0.0001517783191886257,0.0,0.0,0.9939699275527089
2015-10-23,1,0.00012952419984217742,0.0001516183918602166,0.0,0.0,0.9939700402909939
2015-10-27,1,0.0001011437612055056,0.00012510325746718174,0.0,0.0,0.9997076544462495
2015-10-29,1,0.00010610300892585769,0.00013090863848963584,0.0,0.0,0.9997035113554178
2015-11-02,1,0.00011094048446106574,0.00013656472109778596,0.0,0.0,0.999726107505324
2015-11-04,1,0.00011252798312670957,0.00013856642435476678,0.0,0.0,0.999724534649335
2015-11-06,1,0.00011768744916365173,0.00014461303839806091,0.0,0.0,0.9997195833815679
2015-11-10,1,0.00012259973830884197,0.00015035651430767008,0.0,0.0,0.9997148740704157
2015-11-12,1,0.00017896384166750953,0.00022002312077095185,0.0,0.0,0.999659525143934
2015-11-16,1,0.0001302025653346076,0.00015878644724861597,0.0,0.0,0.9997077461563185
2015-11-18,1,0.00010039625516370186,0.00012219622598590158,0.0,0.0,0.9997369299911162
2015-11-20,-1,-0.00013679596101573942,-0.00011118802730795317,0.0,0.0,0.9997109389727864
2015-11-24,-1,-7.784419641903506e-05,-6.30636326115564e-05,0.0,0.0,0.9998146481998602
2015-11-27,-1,-8.12103068878722e-05,-6.594381545263927e-05,0.0,0.0,0.9998118869921363
2015-12-01,-1,-8.687186615247649e-05,-7.067152710934208e-05,0.0,0.0,0.9998073069495889
2015-12-03,-1,-8.841813590014459e-05,-7.209421121916789e-05,0.0,0.0,0.9998059837907429
2015-12-07,1,1.7070815201137518e-05,2.3069808952253612e-05,0.0,0.0,0.9998564945895663
2015-12-09,1,8.545847930616437e-05,0.00010807620723440245,0.0,0.0,0.9997798254491227
2015-12-11,1,0.00017653463403732774,0.00022102910564904155,0.0,0.0,0.9995954199805158
2015-12-15,1,0.0001982394349344856,0.000247235598339883,0.0,0.0,0.9984167835373
2015-12-17,1,0.00020721378949164595,0.00025757357356565285,0.0,0.0,0.9975224452889365
2015-12-21,1,0.00021667221514594202,0.00026853013412427696,0.0,0.0,0.9975122884158382
2015-12-23,1,0.0002156982684780638,0.0002678457987219306,0.0,0.0,0.9972795843466233
2015-12-28,1,0.00022751256570437785,0.0002817047581972442,0.0,0.0,0.9972682976363553
2015-12-30,1,0.00012436978055197124,0.00015249703939839609,0.0,0.0,0.9973697029398526
2016-01-04,1,0.00012956986949101435,0.00015859126127718416,0.0,0.0,0.9973647361697547
2016-01-06,1,0.00013476995843005756,0.0001646854831559724,0.0,0.0,0.9973597694491244
2016-01-08,1,0.0001398432629059043,0.0001706250132729539,0.0,0.0,0.9973549259970739
2016-01-12,1,0.0017158410964806278,0.0021047334116180037,0.0,0.0,0.9959035305710069
2016-01-14,1,6.239488303177506e-05,8.953699471058952e-05,0.0,0.0,0.996416379700861
2016-01-19,-1,-2.953435728831574e-05,-1.5825495983808845e-05,0.0,0.0,0.9973319041246862
2016-01-21,0,-1.5044739471575763e-05,1.1555493308321093e-06,0.0,0.0,0.997346247948322
2016-01-25,-1,-1.7192727746911535e-05,-7.273413751803492e-06,0.0,0.0,0.9977279845775723
2016-01-27,1,0.0005831671128816249,0.0006875301985120104,0.0,0.0,0.9971816320059816
2016-01-29,1,0.00040886823755747147,0.0004906550762073178,0.0,0.0,0.9973455021451281
2016-02-02,1,0.0004178452094023919,0.000501178903008992,0.0,0.0,0.9973369272513344
2016-02-04,1,0.00042683344246174796,0.0005117148253827325,0.0,0.0,0.997328342133511
2016-02-08,1,0.000435694502885423,0.0005220995070557273,0.0,0.0,0.9973198793848889
2016-02-10,1,0.0004445555633090971,0.0005324841887287208,0.0,0.0,0.9973114167798853
2016-02-12,-1,-0.0006320589877146863,-0.0005322815329996106,0.0,0.0,0.9994181684646591
2016-02-17,-1,-0.0006395194213789056,-0.000538647385662902,0.0,0.0,0.9994112634114325
2016-02-19,-1,-0.000534882972695747,-0.0004558753701113418,0.0,0.0,0.9995048661076138
2016-02-23,-1,-0.00023702782991313562,-0.00021946272304644132,0.0,0.0,0.9997718068075386
2016-02-25,-1,-0.00022754149314460018,-0.00021091716496777655,0.0,0.0,0.9997808187219084
2016-02-29,-1,-0.00020978782066525278,-0.00019576827841203995,0.0,0.0,0.9997972630610624
2016-03-02,-1,-0.00019203414818590544,-0.0001806193918563034,0.0,0.0,0.9998137079411765
2016-03-04,-1,-0.00017428047570655744,-0.00016547050530056634,0.0,0.0,0.9998301533622774
2016-03-08,-1,-0.0001565268032272102,-0.00015032161874482987,0.0,0.0,0.9998465993243917
2016-03-10,-1,-0.0001387731307478622,-0.0001351727321890928,0.0,0.0,0.999863045827546
2016-03-14,-1,-0.00012101945826851489,-0.00012002384563335625,0.0,0.0,0.9998794928717673
2016-03-16,-1,-0.00010487495907761903,-0.00010326578578916671,0.0,0.0,0.9998959404570821
2016-03-18,-1,-8.987815061091217e-05,-8.565704909510068e-05,0.0,0.0,0.9999122401026226
2016-03-22,1,0.0006002059945238859,0.0006859966465286806,0.0,0.0,0.9993573119929796
2016-03-24,1,0.0005690806279139374,0.0006482461014589154,0.0,0.0,0.9993917068810501
2016-03-29,1,0.0005717658138258578,0.000652671243347327,0.0,0.0,0.999388156053614
2016-03-31,1,0.0005583404625341265,0.0006369374606117683,0.0,0.0,0.9994027179974229
2016-04-04,1,0.0005449151112423946,0.0006212036778762092,0.0,0.0,0.999417280365598
2016-04-06,1,0.000531489759950663,0.0006054698951406504,0.0,0.0,0.9994318431581579
2016-04-08,1,0.0005180644086589311,0.0005897361124050915,0.0,0.0,0.9994464063751212
2016-04-12,1,0.0005046390573671996,0.0005740023296695329,0.0,0.0,0.999460970016506
2016-04-14,1,0.00042663094847910743,0.00048486969467399646,0.0,0.0,0.998534837526044
2016-04-18,1,0.00041497070715355963,0.00047120452497573,0.0,0.0,0.9985460008092536
2016-04-20,1,0.0004651339583866102,0.0005343642703456582,0.0,0.0,0.9984964519789297
2016-04-22,1,0.00045684496133734423,0.0005246500158852062,0.0,0.0,0.9985043870641309
2016-04-26,1,0.0004484407875094699,0.0005148035401482291,0.0,0.0,0.9970378314120757
2016-04-28,1,0.0003506761156438034,0.00040241291939999027,0.0,0.0,0.9971303965098235
2016-05-02,1,0.00034407386404621107,0.00039467543902091135,0.0,0.0,0.9971366995755006
2016-05-04,1,0.00033747161244861845,0.00038693795864183227,0.0,0.0,0.9971430027208643
2016-05-06,1,0.00033086936085102616,0.0003792004782627534,0.0,0.0,0.9971493059459158
2016-05-10,1,0.0003242671092534336,0.0003714629978836745,0.0,0.0,0.9962539891058547
2016-05-12,1,0.0007169623074175691,0.0008146063946426073,0.0,0.0,0.9934041459680779
2016-05-16,1,0.00033181996423512763,0.00037667455005586806,0.0,0.0,0.993764580663613
2016-05-18,1,0.0003080905886977949,0.00034783085740426486,0.0,0.0,0.9937874398827106
2016-05-20,1,0.00029788340534801707,0.0003358685927545252,0.0,0.0,0.9937971193233092
2016-05-24,-1,-2.4112786002768404e-05,-1.981768372498263e-05,0.0,0.0,0.9955217832779316
2016-05-26,-1,-2.4945833977105303e-05,-2.0527571168403395e-05,0.0,0.0,0.9955211073681599
2016-05-31,-1,-2.5695992341779337e-05,-2.1169229814724197e-05,0.0,0.0,0.9935810262694161
2016-06-02,-1,-2.2930986866816997e-05,-1.89117514767415e-05,0.0,0.0,0.9935832073665275
2016-06-06,-1,-3.3738609959151e-05,-2.7626251931820277e-05,0.0,0.0,0.9935747414984749
2016-06-08,-1,-0.00037911754810374197,-0.00032066390451273945,0.0,0.0,0.9941522915085158
2016-06-10,1,0.00026563536845353305,0.0002731408619664578,0.0,0.0,0.9978023572029869
2016-06-14,1,0.00023609297855469602,0.0002385356294971932,0.0,0.0,0.9978305936338538
2016-06-16,1,0.0015833693870317747,0.0016960728022826922,0.0,0.0,0.9965864294194701
2016-06-20,1,0.0024505045061192846,0.002677653090120707,0.0,0.0,0.9957722097262233
2016-06-22,1,0.002569569695936195,0.0027444773810017696,0.0,0.0,0.9931636065618614
2016-06-24,1,0.00139143823092005,0.0014713861742873444,0.0,0.0,0.9905968747737123
2016-06-28,1,0.0013188301689683285,0.001398383491574281,0.0,0.0,0.9924411631205186
2016-06-30,1,0.0012850567418637797,0.0013623259704531637,0.0,0.0,0.9924718897678408
2016-07-05,1,0.0012913465161581766,0.0013564296022466646,0.0,0.0,0.9909556329854295
2016-07-07,-1,-0.00022014496147725355,-0.00019632226953076665,0.0,0.0,0.9918251702700843
2016-07-11,-1,-0.00021116590495480917,-0.00018866060354057274,0.0,0.0,0.9918314726694372
2016-07-13,-1,-0.00020218684843236468,-0.0001809989375503788,0.0,0.0,0.9918377751488859
2016-07-15,-1,-0.00019320779190992016,-0.00017333727156018485,0.0,0.0,0.9918440777084319
2016-07-19,-1,-0.00018422873538747575,-0.00016567560556999096,0.0,0.0,0.9918503803480765
2016-07-21,1,0.0007181505675430096,0.0007181507338447511,0.0,0.0,0.9941382802032319
2016-07-25,1,0.0007075439700523449,0.0007075443354115212,0.0,0.0,0.9976900405558358
2016-07-27,1,0.0007075457860067749,0.0007075460305734757,0.0,0.0,0.997690038971101
2016-07-29,1,0.0007075463449780068,0.0007075465530901311,0.0,0.0,0.9976900384830487
2016-08-02,1,0.0003258124995112458,0.00037007487896679623,0.0,0.0,0.9996521773334627
2016-08-04,1,0.0003488359817288853,0.000391276259879606,0.0,0.0,0.999630080770071
2016-08-08,1,0.00036129394807522553,0.00040190675491017435,0.0,0.0,0.9996185452117885
2016-08-10,1,0.00037370860073074243,0.00041249928122953107,0.0,0.0,0.998422556733997
2016-08-12,1,0.00018453524244633872,0.0002215146047365734,0.0,0.0,0.9986120725127814
2016-08-16,1,0.0001969205710780883,0.00023208002180183905,0.0,0.0,0.9986006291029332
2016-08-18,1,0.00020942849249205343,0.00024275556326978942,0.0,0.0,0.9985890699248595
2016-08-22,1,0.00022186616701312038,0.0002533680720102214,0.0,0.0,0.9985775774647471
2016-08-24,-1,-4.143269802214378e-05,-3.999171520354452e-05,0.0,0.0,0.9987781662326882
2016-08-26,-1,-3.482681364686673e-05,-3.224997740627413e-05,0.0,0.0,0.9987847202458905
2016-08-30,-1,-2.822092927158967e-05,-2.4508239609003726e-05,0.0,0.0,0.9987912743451086
2016-09-01,-1,-2.151512943454228e-05,-1.668899872169449e-05,0.0,0.0,0.9987979059410034
2016-09-06,-1,-1.4939780734343539e-05,-8.98304707757017e-06,0.0,0.0,0.9988044299159781
2016-09-08,-1,-8.390328108553987e-06,-1.2810492892770565e-06,0.0,0.0,0.9999947039103849
2016-09-12,-1,-3.043522159016151e-05,-2.4082204753802283e-05,0.0,0.0,0.9999727420298452
2016-09-14,-1,-3.2434736354944964e-05,-2.578835441796113e-05,0.0,0.0,0.9999708893020709
2016-09-16,1,0.00044162329596353795,0.00044449826438376747,0.0,0.0,0.9995571354357456
2016-09-20,1,0.0004410953882562538,0.0004438479555241776,0.0,0.0,0.9995577240227008
2016-09-22,1,0.00044883765942778126,0.0004532413027058571,0.0,0.0,0.9995491638638301
2016-09-26,1,0.00045822181908731943,0.00046423902827970494,0.0,0.0,0.9995389822117463
2016-09-28,1,0.0007106686434457036,0.0007251202554789662,0.0,0.0,0.9981431067039119
2016-09-30,1,0.00035263889746614665,0.0003646708023405484,0.0,0.0,0.9980454182228903
2016-10-04,1,0.00031568943716571505,0.0003213629815777369,0.0,0.0,0.9980807608534833
2016-10-06,1,0.0004533307742666145,0.00046603566401783985,0.0,0.0,0.997954923027808
2016-10-10,1,0.0004859094271193543,0.0005047229406057417,0.0,0.0,0.997923593745287
2016-10-12,1,0.0005198509412622117,0.0005445854433293553,0.0,0.0,0.9978911104168475
2016-10-14,1,0.0008616815915889468,0.0008979116300372325,0.0,0.0,0.9975808490627822
2016-10-18,1,0.0006601732186083862,0.0008088816713807394,0.0,0.0,0.987950687564763
2016-10-20,1,0.0004987959497577192,0.0006101028016818037,0.0,0.0,0.9874614849902172
2016-10-24,1,0.0005149689966574987,0.0006288830667241017,0.0,0.0,0.9874521167302875
2016-10-26,1,0.00027601545146640767,0.0003592229592371324,0.0,0.0,0.9887413410510915
2016-10-28,1,0.0005744565378673126,0.0007186471086446108,0.0,0.0,0.9889439939529727
2016-11-01,1,0.0001428126599143614,0.00017914274533651774,0.0,0.0,0.9892481996412837
2016-11-03,1,0.00014297788865946234,0.00017864516741841063,0.0,0.0,0.9870741307473119
2016-11-07,1,0.00015152554215486913,0.00018866255318904582,0.0,0.0,0.9870681842865514
2016-11-09,1,0.00015346992686721144,0.00019048401330179433,0.0,0.00018896880627075125,0.9848796391645489
2016-11-11,1,0.00015626932820476925,0.00019341008168883395,0.0,0.00018896880627075125,0.9848782992568196
2016-11-15,1,0.00014572136766092614,0.00018104844467138885,0.0,0.0,0.9946614038272688
2016-11-17,-1,-0.0003621122152963974,-0.0003082603987402783,0.0,0.0,0.9952113657723458
2016-11-21,-1,-0.0003625984983199944,-0.00030867589168376145,0.0,0.0,0.9952109708618326
2016-11-23,-1,-0.000363540334553724,-0.0003094791940677095,0.0,0.0,0.9951728038738439
2016-11-28,-1,-0.0003643063805098664,-0.00031013284718086573,0.0,0.0,0.9951721822936513
2016-11-30,-1,-0.0003650724264660077,-0.0003107865002940211,0.0,0.0,0.9951715607142352
2016-12-02,1,0.00023582632309587188,0.00025320768000127196,0.0,0.0,0.9975129617690754
2016-12-06,1,0.0002187248792143222,0.0002330842181816565,0.0,0.0,0.997525118765567
2016-12-08,-1,-0.00042923308953433866,-0.0003659201828287703,0.0,0.0,0.9995648475884117
2016-12-12,-1,-0.0010096102001481916,-0.0008342792653673198,0.0,0.0,0.9990412102118766
2016-12-14,-1,-0.0004276026884867067,-0.0003732445397866508,0.0,0.0,0.9995620030957507
2016-12-16,-1,-0.0004275882907623594,-0.00037279340275451936,0.0,0.0,0.999562235659325
2016-12-20,-1,-0.000418775931614129,-0.0003652663686798468,0.0,0.0,0.9995703982713552
2016-12-22,-1,-0.0005671643670133895,-0.000485698967320012,0.0,0.0,0.9958999997873242
2016-12-27,-1,-0.00048550378115990204,-0.00041994065616242506,0.0,0.0,0.9952189580594383
2016-12-29,-1,-0.00047522651492194295,-0.00041112073180535536,0.0,0.0,0.9952273255439762
2017-01-03,-1,-0.00041460089595436115,-0.00035873527162711446,0.0,0.0,0.9925654464535858
2017-01-05,-1,-0.00040777271469854615,-0.0003528828815118467,0.0,0.003759394857085452,0.9900194928245404
2017-01-09,-1,-0.000356495926621612,-0.0003085644203820037,0.0,0.003759394857085452,0.9900609760172017
2017-01-11,-1,-0.0003516870754708067,-0.0003044589185333334,0.0,0.003759394857085452,0.9900648392036655
2017-01-13,-1,-0.00034699978223820787,-0.0003004586123018647,0.0,0.015614412604141134,0.9892192280774877
2017-01-18,-1,-0.00033905183224759586,-0.00029363440297816866,0.0,0.015614412604141134,0.9892256230692019
2017-01-20,-1,-0.00033462640759546853,-0.00028986032264979346,0.0,0.015614412604141134,0.9892291700389676
2017-01-24,-1,-0.00038406811688660223,-0.00033368637882491597,0.0,0.003759394857085452,0.9927339802155218
2017-01-26,-1,-0.0005933167767674855,-0.0005187637854481232,0.0,0.0,0.9932784832607033
2017-01-30,-1,-0.0005801946301471368,-0.0005075693959302142,0.0,0.0,0.9932890890170403
2017-02-01,-1,-0.0013457800721050255,-0.0011846667751616497,0.0,0.0,0.9951306308709904
2017-02-03,-1,-0.0013742812816212053,-0.0012279719258420103,0.0,0.0,0.9976728197396124
2017-02-07,-1,-0.0017775513453678132,-0.0015860832861072068,0.0,0.0,0.9965058880233792
2017-02-09,-1,-0.0017058492936450793,-0.0015249715742494565,0.0,0.0,0.9965641890516985
2017-02-13,-1,-0.0018834726068471352,-0.00168414370179555,0.0,0.0,0.9972773096142087
2017-02-15,-1,-0.0018018967368892327,-0.001614536492294791,0.0,0.0,0.9973437861154146
2017-02-17,-1,-0.0017180124860297112,-0.001542856247862407,0.0,0.0,0.997412209508837
2017-02-22,-1,-0.0016365460771519268,-0.0014733424395149536,0.0,0.0,0.997478614765826
2017-02-24,-1,-0.001536673101100182,-0.0013875754436053686,0.0,0.0,0.9974950837924442
2017-02-28,-1,-0.0014552974807206737,-0.001318113462008174,0.0,0.0,0.9975946129215438
2017-03-02,-1,-0.0014407529536955403,-0.0013077104239591739,0.0,0.0,0.9930573224894057
2017-03-06,-1,-0.0010093174039965706,-0.0009194690435317883,0.0,0.0,0.9933726856675269
2017-03-08,-1,-0.0007403638130029648,-0.0006835859652060491,0.0,0.0,0.994459127509351
2017-03-10,-1,-0.0006835841369597257,-0.000634996264299485,0.0,0.0,0.9945052119190332
2017-03-14,-1,-0.0006310930533940772,-0.000590394086838677,0.0,0.0,0.9945457155016401
2017-03-16,-1,-0.0005761229702383664,-0.0005434891124085144,0.0,0.0,0.9945845122242414
2017-03-20,-1,-0.0005209174973414257,-0.000496359845233104,0.0,0.0,0.9946234917948891
2017-03-22,-1,-0.0006165551902787855,-0.0005695944651977441,0.0,0.0,0.9936714808883428
2017-03-24,-1,-0.0005163062022405493,-0.0004868644487474354,0.0,0.0,0.9927614209318767
2017-03-28,-1,-0.00046027587966324243,-0.000438840186604293,0.0,0.0,0.9927820751855682
2017-03-30,1,0.0005374263527946795,0.0006463797056423529,0.0,0.0,0.9975394142218929
2017-04-03,1,0.0005476825887492179,0.0006583241491262232,0.0,0.0,0.9969771345985714
2017-04-05,1,0.000560897476608309,0.0006738263417776379,0.0,0.0,0.996964517430744
2017-04-07,1,0.0005728253834632648,0.000687782608495948,0.0,0.0,0.9969143384560657
2017-04-11,-1,-0.0002900324806895308,-0.0002418182274927694,0.0,0.0,0.9966275486442268
2017-04-13,-1,-0.00025362636050035566,-0.00021284448106185827,0.0,0.0,0.9966482963742646
2017-04-18,-1,-0.0003539516782197436,-0.00029809772581409626,0.0,0.0,0.9965878008104324
2017-04-20,-1,-0.0003574641184314174,-0.00030110187006894415,0.0,0.0,0.9974677213056323
2017-04-24,-1,-0.0003183616610224528,-0.00026820479638217805,0.0,0.0,0.9964498192598884
2017-04-26,-1,-0.00031971100964575205,-0.0002693808207414023,0.0,0.0,0.996449124987353
2017-04-28,-1,-0.0004695869566339033,-0.0003905651548234792,0.0,0.0,0.9963405220544499
2017-05-02,-1,-0.0005331398074142584,-0.00044644368228033995,0.0,0.0,0.9968047223654103
2017-05-04,-1,-0.0002565677937702197,-0.00021783348335648495,0.0,0.0,0.9969676428101729
2017-05-08,-1,-0.00023842136714480344,-0.00020204347978511244,0.0,0.0,0.9954063902346124
2017-05-10,-1,-0.0002792277085480789,-0.00023808465813085846,0.0,0.0,0.9959448780073934
2017-05-12,-1,-0.000279413377496669,-0.00023824308607540837,0.0,0.0,0.9959447466023518
2017-05-16,-1,-0.0002682884054078295,-0.00022875743982821232,0.0,0.0,0.9940029840967052
2017-05-18,-1,-0.00027104213679832314,-0.0002313042927201548,0.0,0.0,0.9940473401147022
2017-05-22,-1,-0.00025998140451367294,-0.00022150080892851777,0.0,0.0,0.9960708243882771
2017-05-24,-1,-0.0002382807481310576,-0.00020233018042758452,0.0,0.0,0.9960911001684777
2017-05-26,-1,-0.00025964156501504724,-0.0002211394831142942,0.0,0.0,0.9961086144020224
2017-05-31,-1,-0.0002438738239659562,-0.00020771056700315306,0.0,0.0,0.9936919155439097
2017-06-02,1,0.0011034706991400343,0.0011034706991400343,0.0,0.0,0.993152446000631
2017-06-06,1,0.0011034706991400343,0.0011034706991400343,0.0,0.0,0.9947197475435123
2017-06-08,1,0.0011034110799743473,0.0011034110799743476,0.0,0.0,0.9947197947364902
2017-06-12,1,0.0011019067630840009,0.0011019067630840009,0.0,0.0,0.9947209855160178
2017-06-14,1,0.00042988155487470533,0.00042988155487470533,0.0,0.0,0.993190279815699
2017-06-16,1,0.00013110591927900856,0.00018454588601850516,0.0,0.0,0.9934371393402508
2017-06-20,1,6.46964804870927e-05,0.00010870921517691998,0.0,0.0,0.9934993861694776
2017-06-22,-1,-0.00039248689412295514,-0.00032517569248374995,0.0,0.0,0.9932600017704288
2017-06-26,-1,-0.000251967156500417,-0.00022381119559376195,0.0,0.0,0.9933635352213674
2017-06-28,-1,-0.00033578330600252473,-0.00031296910846075683,0.0,0.0,0.9957154022654283
2017-06-30,-1,-0.0002876648762140722,-0.0002566353620357487,0.0,0.0,0.9957628205905471
2017-07-05,-1,-0.00044659302894075887,-0.0004433011032043305,0.0,0.0,0.9956058928873605
2017-07-07,-1,-0.00042936508223378317,-0.00041910902759577866,0.0,0.0,0.9947247201666239
2017-07-11,-1,-0.000550035735556304,-0.0005458140339988386,0.0,0.0,0.994613987742691
2017-07-13,-1,-0.0004515497975895909,-0.00043917584474874435,0.0,0.0,0.9986473783332022
2017-07-17,-1,-0.0005860236343138625,-0.0005768523516200585,0.0,0.0,0.9985116894678056
2017-07-19,-1,-0.0006059074514126173,-0.0005899300886817617,0.0,0.0,0.9984952579816482
2017-07-21,-1,-0.0006668014953191284,-0.0006447160287581827,0.0,0.0,0.998437595257418
2017-07-25,-1,-0.0006285442655601177,-0.0006162939500973881,0.0,0.0,0.9984708319193134
2017-07-27,-1,-0.0005975390265515639,-0.0005696944270294207,0.0,0.0,0.9985095172191466
2017-07-31,-1,-0.0005140582926854148,-0.0004949835832358811,0.0,0.0,0.9985883836305718
2017-08-02,-1,-0.00045680922014661857,-0.00045680919658354385,0.0,0.0,0.9986359630208141
2017-08-04,-1,-6.548550548135016e-05,-5.38614650168689e-05,0.0,0.0,0.9999403300754632
2017-08-08,-1,-0.00027834099611634053,-0.00022920456816544869,0.0,0.0,0.999746291602145
2017-08-10,-1,-0.0002665809393572697,-0.00021976388829662342,0.0,0.0,0.9997568867046199
2017-08-14,-1,-0.0002741425782311626,-0.00022623331172028058,0.0,0.0,0.9997498746333758
2017-08-16,-1,-0.0002819787120931994,-0.00023292810664848098,0.0,0.0,0.9997426128558269
2017-08-18,-1,-0.0002892179586209626,-0.00023917021904469035,0.0,0.0,0.9997358756912482
2017-08-22,-1,-4.9144420649382774e-05,-4.680959195579919e-05,0.0,0.0,0.9992383185614544
2017-08-24,-1,-4.133108252147233e-05,-3.7519531448532145e-05,0.0,0.0,0.9985484985746989
2017-08-28,-1,-3.257551113451799e-05,-2.7369520960674683e-05,0.0,0.0,0.9968541422348843
2017-08-30,-1,-3.098793827954954e-05,-2.2503260665029293e-05,0.0,0.0,0.9968573248841466
2017-09-01,-1,-2.0334712245749686e-05,-1.0018258209128115e-05,0.0,0.0,0.9968668670809205
2017-09-06,-1,-3.0316674856294974e-05,-2.110091181919155e-05,0.0,0.0,0.9968582867769834
2017-09-08,1,9.82188710335334e-07,1.4903697856519685e-05,0.0,0.0,0.9968707976539037
2017-09-12,1,1.1588912657773152e-05,2.7334202392204754e-05,0.0,0.0,0.9968611487345456
2017-09-14,1,2.2195636605210916e-05,3.976470692788972e-05,0.0,0.0,0.9968510282966685
2017-09-18,1,3.280236055264881e-05,5.2195211463574845e-05,0.0,0.0,0.9968409080642812
2017-09-20,-1,-7.021424122314494e-05,-6.398058452981232e-05,0.0,0.0,0.9975350852323722
2017-09-22,1,0.00010624226881075514,0.00014195156683973785,0.0,0.0,0.9981649924457768
2017-09-26,-1,-0.0007458468828689066,-0.0006786323490910807,0.0,0.0,0.999288267308239
2017-09-28,1,0.00012827545120757587,0.0001664671551285627,0.0,0.0,0.9998526504119327
2017-10-02,1,0.00020183658213298754,0.00025707491632619514,0.0,0.0,0.9980277648810844
2017-10-04,1,0.0011635050391673432,0.0011635050391673432,0.0,0.0,0.993761780885546
2017-10-06,1,0.0011634421764200472,0.0011634421764200472,0.0,0.0,0.9937618305502608
2017-10-10,1,0.00098792055353781,0.00098792055353781,0.0,0.0,0.9939005207720919
2017-10-12,1,0.0011422533059086122,0.0011422534394859647,0.0,0.0,0.993778571072922
2017-10-16,1,0.0011389059158008503,0.0011389059158008505,0.0,0.0,0.9937812158025917
2017-10-18,1,0.0007923488947291684,0.0008319079902631587,0.0,0.0,0.9940468699050862
2017-10-20,1,0.0005996179086391477,0.0006562357939673297,0.0,0.0,0.9941956979809241
2017-10-24,1,0.00039821708311122534,0.0004729836763801671,0.0,0.0,0.9929519364454696
2017-10-26,1,0.0005510455922485346,0.0005942258864655371,0.0,0.0,0.9928490104304057
2017-10-30,1,0.0008639287172179989,0.0008860346444348024,0.0,0.0,0.9910600238988412
2017-11-01,1,0.0008095844932373541,0.0008095844932373541,0.0,0.0,0.9945396730910795
2017-11-03,1,0.0015725886891580338,0.0015725886891580338,0.0,0.0,0.9896486922486732
2017-11-07,1,0.0015654253146471005,0.0015654253146471005,0.0,0.0,0.9896536033620772
2017-11-09,1,0.0015715269561152306,0.0015715269561152306,0.0,0.0,0.9896494201555182
2017-11-13,1,0.0015685579155806319,0.0015685579155806319,0.0,0.0,0.989651455686932
2017-11-15,-1,-0.0003229152716912691,-0.0002835476420223293,0.0,0.0,0.9904640718843913
2017-11-17,-1,-0.00047813763593162735,-0.00040977286439261085,0.0,0.0,0.990342683984713
2017-11-21,1,0.005528664978794725,0.006410354220179932,0.0,0.0,0.9876536854916258
2017-11-24,1,0.005475494226139096,0.0063480409851672265,0.0,0.0,0.9876970576415036
2017-11-28,1,0.005613216564106831,0.006500813344497691,0.0,0.0,0.9902179521533586
2017-11-30,1,0.005553389344211701,0.006430699091317427,0.0,0.0,0.9883920153380467
2017-12-04,1,0.007363151220448287,0.008258319393898591,0.0,0.0,0.990360022574651
2017-12-06,1,0.007077098901692646,0.007923081608569582,0.0,0.0,0.9906648010373292
2017-12-08,1,0.0067910465829370045,0.0075878438232405716,0.0,0.0,0.9909986329988818
2017-12-12,1,0.006504994264181364,0.0072526060379115645,0.0,0.0,0.9912684460268315
2017-12-14,1,0.006218941945425724,0.006917368252582556,0.0,0.0,0.9915384060154202
2017-12-18,1,0.005932889626670082,0.006582130467253545,0.0,0.0,0.9918085130847492
2017-12-20,1,0.005646837307914444,0.006246892681924539,0.0,0.0,0.9920787673550506
2017-12-22,1,0.0053607849891588,0.005911654896595526,0.0,0.0,0.9923491689466885
2017-12-27,1,0.005501729915582225,0.006108097552037871,0.0,0.0,0.9922051448965183
2017-12-29,1,0.0035927984060512576,0.003937066399998681,0.0,0.0,0.9958936881894147
2018-01-03,1,0.003381862661082567,0.003689861160419989,0.0,0.0,0.99609460526808
2018-01-05,1,0.0031709269161138724,0.0034426559208412927,0.0,0.0,0.9962956034313404
2018-01-09,1,0.003618787820040839,0.003941071397180344,0.0,0.0,0.9962343044554752
2018-01-11,1,0.003387450034868127,0.0036699560742856274,0.0,0.0,0.9964837049066597
2018-01-16,1,0.0031561122496954136,0.0033988407513909098,0.0,0.0,0.9967332302605106
2018-01-18,1,0.002924774464522702,0.003127725428496193,0.0,0.0,0.9969828806108805
2018-01-22,1,0.002693436679349989,0.002856610105601475,0.0,0.0,0.9972326560517158
2018-01-24,1,0.0024620988941772746,0.0025854947827067556,0.0,0.0,0.9974825566770574
2018-01-26,1,0.0022307611090045623,0.0023143794598120384,0.0,0.0,0.9977325825810405
2018-01-30,1,0.0019994233238318504,0.002043264136917321,0.0,0.0,0.9979827338578942
2018-02-01,1,0.0017680855386591372,0.0017721488140226035,0.0,0.0,0.998233010601943
2018-02-05,1,0.0015010334911278857,0.0015367477534864245,0.0,0.0,0.997431066227872
2018-02-07,1,0.0012299181682331683,0.001305409968313712,0.0,0.0,0.9976600198123184
2018-02-09,1,0.0009588028453384504,0.001074072183140999,0.0,0.0,0.9978890785304046
2018-02-13,1,0.0011054360417962368,0.0011782319135104527,0.0,0.0,0.9977724818654277
2018-02-15,1,0.0004446581750278835,0.0006350666590238408,0.0,0.0,0.9983238587832426
2018-02-20,-1,-0.0008287408875780173,-0.00040119833646784465,0.0,0.0,0.9981762425003096
2018-02-22,-1,-0.0011528287814539095,-0.0006777366551804791,0.0,0.0,0.997877113460245
2018-02-26,-1,-0.0014769166753298031,-0.0009542749738931135,0.0,0.0,0.9975781636498042
2018-02-28,-1,-0.0018010045692056936,-0.0012308132926057461,0.0,0.0,0.9972793929079513
2018-03-02,1,0.0002562134025709642,0.0003653542764491673,0.0,0.0,0.9915627581462311
2018-03-06,1,0.0001046946104411306,0.00018782956933804744,0.0,0.0,0.9907635658567716
2018-03-08,1,0.00014697385076363275,0.0002340342973635196,0.0,0.0,0.9907295543390122
2018-03-12,1,0.00019462860898164551,0.000289883086406349,0.0,0.0,0.9906904424262639
2018-03-14,1,0.0002422833671996581,0.0003457318754491782,0.0,0.0,0.9906513336015053
2018-03-16,1,0.0002899381254176709,0.0004015806644920077,0.0,0.0,0.9906122278643706
2018-03-20,1,0.00033759288363568345,0.000457429453534837,0.0,0.0,0.9905731252144944
2018-03-22,1,0.00038524764185369586,0.0005132782425776661,0.0,0.0,0.9905340256515109
2018-03-26,1,0.0003649035416595692,0.0004905460344741919,0.0,0.0,0.9882198172983956
2018-03-28,1,0.00012918798620234956,0.00020285598495367702,0.0,0.0,0.9884146972188167
2018-04-02,1,0.0005866670074070363,0.0007215873871275508,0.0,0.0,0.9949174726633103
2018-04-04,1,0.00017450957472051976,0.0002561406171025744,0.0,0.0,0.9974104457245764
2018-04-06,1,0.0002143252983846603,0.00030280248329720067,0.0,0.0,0.9940969079220927
2018-04-10,1,0.00028193936690899736,0.00038768930989059586,0.0,0.0,0.994030801671817
2018-04-12,1,0.000326110197074053,0.0004394551244279235,0.0,0.0,0.9939888962668049
2018-04-16,1,0.0003704214447693477,0.0004914072191848063,0.0,0.0,0.9939468536861747
2018-04-18,1,0.00023275679836221386,0.00031773348990042193,0.0,0.0,0.9940817258218099
2018-04-20,1,0.0002677260860003823,0.00035876562051600467,0.0,0.0,0.993316092429813
2018-04-24,1,0.0007492318981454445,0.0008971872116065073,0.0,0.0,0.9931911232054116
2018-04-26,1,0.0008169670495596511,0.0009778956719942507,0.0,0.0,0.9917031075585837
2018-04-30,1,0.0003213191527600231,0.0003508794531663623,0.0,0.0035364245868105436,0.9904268955690103
2018-05-02,1,0.0002965879910128734,0.000322314934108258,0.0,0.0035364245868105436,0.9889994130368813
2018-05-04,-1,-0.0012494782648702503,-0.0010914857424784406,0.0,0.0007352828979492188,0.9914893959262178
2018-05-08,-1,-0.0007600803858898077,-0.0006596715458199087,0.0,0.0007352828979492188,0.991841034384499
2018-05-10,-1,-0.0007494849208253024,-0.0006506480232207207,0.0,0.0035364245868105436,0.99051281755313
2018-05-14,-1,-0.000960571161089686,-0.0008377317953442646,0.0,0.0035364245868105436,0.9903610424352309
2018-05-16,-1,-0.0007114005207134344,-0.0006180426804642614,0.0,0.0035364245868105436,0.9905395416664762
2018-05-18,-1,-0.0009371343512530256,-0.0008178441584536424,0.0,0.0007352828979492188,0.9911442607948561
2018-05-22,-1,-0.0011548259707174814,-0.0010110847051884822,0.0,0.0,0.9927848195446222
2018-05-24,-1,-0.0008022061168831453,-0.0007294190218158055,0.0,0.0029476771200881093,0.9927280680958929
2018-05-29,-1,-0.0012098582017453928,-0.001090306235214947,0.0,0.0007418284262404529,0.9885519912742409
2018-05-31,-1,-0.0007123978089514291,-0.0006522174201936625,0.0,0.00370478089598397,0.9899237490155532
2018-06-04,-1,-0.0008074679865421114,-0.0007266973398152941,0.0,0.00370478089598397,0.9898611158843422
2018-06-06,-1,-0.0007682848678553589,-0.0006932999957434239,0.0,0.00370478089598397,0.989888488967706
2018-06-08,-1,-0.0011318713998337592,-0.0010157484471439578,0.0,0.0007418284262404529,0.9907792574864195
2018-06-12,-1,-0.0010694659973116984,-0.0009620592374013045,0.0,0.00370478089598397,0.9893316275956203
2018-06-14,-1,-0.0010173628099673193,-0.0009176168224838241,0.0,0.00370478089598397,0.9893626897168051
2018-06-18,-1,-0.0009649077088363959,-0.0008728578365767427,0.0,0.00370478089598397,0.9893939735349504
2018-06-20,-1,-0.0008271744369647064,-0.0007527088594045146,0.0,0.0014792956172626115,0.9899720648027587
2018-06-22,-1,-0.001261535649181217,-0.0011380291736752335,0.0,0.0,0.9912774559063695
2018-06-26,-1,-0.00038128984619382745,-0.0003620703818768211,0.0,0.0,0.9975540184040208
2018-06-28,-1,-0.0004297990180209531,-0.0004061257507054742,0.0,0.0,0.9978146300061431
2018-07-02,-1,-0.0003884616567593049,-0.0003708922494981854,0.0,0.0,0.9978483298737639
2018-07-05,-1,-0.0003464714260183393,-0.00033503680157858046,0.0,0.0,0.9978826001787717
2018-07-09,-1,-0.00022108192057205555,-0.00021606828268279902,0.0,0.0,0.9982692739889727
2018-07-11,-1,-0.0006162565016389755,-0.0005760743163705094,0.0,0.0,0.9994041897924313
2018-07-13,-1,-0.0005630448333278792,-0.0005306697654177978,0.0,0.0,0.9994534415900832
2018-07-17,-1,-0.0005098331650167823,-0.0004852652144650858,0.0,0.0,0.9995026982423456
2018-07-19,-1,-0.0004566214967056855,-0.0004398606635123739,0.0,0.0,0.9995519597499366
2018-07-23,-1,-0.0004034098283945889,-0.0003944561125596621,0.0,0.0,0.9996012261135738
2018-07-25,-1,-0.000350198160083493,-0.0003490515616069509,0.0,0.0,0.9996504973339757
2018-07-27,-1,-0.0005207847050948452,-0.0004844533241427717,0.0,0.0,0.9994976334843442
2018-07-31,-1,-0.0004775572583384733,-0.00044750323644543596,0.0,0.0,0.9995376835879325
2018-08-02,-1,-0.0004351730510657392,-0.00041133756151387523,0.0,0.0,0.9995769237629726
2018-08-06,-1,-0.0003927888437930056,-0.0003751718865823148,0.0,0.0,0.9996161670191405
2018-08-08,-1,-0.0003504046365202717,-0.0003390062116507542,0.0,0.0,0.9996554133567995
2018-08-10,-1,-0.0003085199758405435,-0.00030333168257829033,0.0,0.0,0.9996941677327804
2018-08-14,-1,-0.0002675398467431555,-0.00026649783800456297,0.0,0.0,0.9997330524376552
2018-08-16,-1,-0.00023035965121750242,-0.00022310718692736893,0.0,0.0,0.9993325370366745
2018-08-20,-1,-0.00019377617763735198,-0.0001803398118838103,0.0,0.0,0.9993721610859609
2018-08-22,1,0.0001346381677177275,0.000212628750936871,0.0,0.0,0.9994107010743011
2018-08-24,-1,-7.443930628531079e-05,-4.7585100414518916e-05,0.0,0.0,0.9971114255803437
2018-08-28,-1,-4.144683401138752e-05,-1.10983241774561e-05,0.0,0.0,0.9971428592821775
2018-08-30,0,-1.3729153470324926e-05,2.4925533344206767e-05,0.0,0.0,0.9923649241432074
2018-09-04,1,1.1403163797210535e-05,3.9486851779623106e-05,0.0,0.0,0.9923572114372324
2018-09-06,1,3.0259474797921e-05,6.051647436220307e-05,0.0,0.0,0.9905756897843514
2018-09-10,1,4.784537171151019e-05,8.024846809352092e-05,0.0,0.0014204599332709761,0.9875418942816917
2018-09-12,1,0.00010685243081999976,0.0001477869293036645,0.0,0.0014204599332709761,0.9875143262919479
2018-09-14,1,0.00022167430618349302,0.0003021437336653013,0.0,0.0,0.987864187373505
2018-09-18,1,0.00023967316005310392,0.00032079512955914067,0.0,0.0014204599332709761,0.9856850537292681
2018-09-20,1,0.0002704817940915977,0.00035690517330126475,0.0,0.0014204599332709761,0.9856708329832938
2018-09-24,1,0.0002617726126913171,0.0003483092535413068,0.0,0.0,0.9879811319388616
2018-09-26,1,0.00011115606064466541,0.00013252945509726363,0.0,0.0,0.9854354492649071
2018-09-28,-1,-0.00010942214716802669,-0.00010367479185329815,0.0,0.0,0.9887480798880106
2018-10-02,-1,-0.00023060740943042692,-0.0002223196960131558,0.0,0.0,0.9886547738818611
2018-10-04,-1,-0.00047483990922529007,-0.0004331721027757978,0.0,0.0,0.9888903499022171
2018-10-08,-1,-8.14805711713754e-05,-7.103963929337598e-05,0.0,0.0,0.9922134681070889
2018-10-10,-1,-0.00015554108189026476,-0.00015233961151408832,0.0,0.0,0.9868667790453852
2018-10-12,-1,-0.00011058568189232907,-0.00010513246373152369,0.0,0.0,0.9869030989608302
2018-10-16,1,0.00016195226842188453,0.0001780805170145564,0.0,0.0,0.9890803064356775
2018-10-18,1,0.00020117492028249765,0.000226856345662246,0.0,0.0,0.9890526852852262
2018-10-22,1,0.00015825691350876506,0.00017357778236114346,0.0,0.0,0.9890829014409553
2018-10-24,1,1.6386242341307702e-05,1.969495767633301e-05,0.0,0.0,0.9869402397141878
2018-10-26,1,0.0006036441064758765,0.0006102824378238264,0.0,0.0,0.9852263695400101
2018-10-30,1,0.0002135193401674631,0.00021670414044921263,0.0,0.0,0.9854917924566036
2018-11-01,1,0.00020807209256178504,0.00021204811740494503,0.0,0.0,0.9868254101728497
2018-11-05,1,0.00017292648607205167,0.00018202387965120834,0.0,0.0,0.9868517414336709
2018-11-07,-1,-0.000168468817857217,-0.0001424756294024343,0.0,0.0,0.992147053424414
2018-11-09,-1,-0.00019249632870027103,-0.00016189495096883896,0.0,0.0,0.9921282621769131
2018-11-13,-1,-7.932608040045121e-05,-7.173231614932807e-05,0.0,0.0,0.9922160702080061
2018-11-15,-1,-0.00022598950544854923,-0.00018786221873373036,0.0,0.0,0.9921026660197332
2018-11-19,1,0.00014252429973115948,0.00017064023612169582,0.0,0.0,0.9877408607225606
2018-11-21,-1,-0.00021362583944968582,-0.00019670831960884628,0.0,0.0,0.9926028449980645
2018-11-26,-1,-0.0001983446911018978,-0.00018366916873687207,0.0,0.0,0.9939032110340104
2018-11-28,1,2.2161753450818182e-05,3.5490353654099496e-05,0.0,0.0,0.9925322617036002
2018-11-30,-1,-2.3769172378323315e-05,-2.2131417658699565e-05,0.0,0.0,0.992541113078012
2018-12-04,-1,-1.9407114386822882e-05,-1.7003595188657023e-05,0.0,0.0,0.9894755296094478
2018-12-07,1,0.0006053609426919988,0.0007019093761190741,0.0,0.0,0.9889935607316078
2018-12-11,1,0.0005954633141919067,0.0006946912334096251,0.0,0.0,0.9890007537926074
2018-12-13,-1,-5.638496122122321e-06,-1.3236149256123296e-06,0.0,0.0,0.9880490157364357
2018-12-17,0,-2.1973253644381297e-06,4.856031643643488e-06,0.0,0.0,0.9880492617004969
2018-12-19,-1,-7.749595390334887e-06,-1.2945396690972198e-06,0.0,0.0,0.9924741247728082
2018-12-21,0,-1.741590129899336e-06,5.7382928960612306e-06,0.0,0.0,0.9924739175559822
2018-12-26,1,0.00012353353211012647,0.00014777298233725116,0.0,0.0,0.9938081738399218
2018-12-28,1,0.00032857704760962017,0.00038251711821901484,0.0,0.0,0.9939149478960083
2019-01-02,1,0.00032321072796582503,0.0003762546569472879,0.0,0.0,0.9927335095488202
2019-01-04,-1,-9.93491839616857e-06,-1.0092748248029838e-06,0.0,0.0,0.9960872676673651
2019-01-08,0,-1.733506638780718e-06,8.602334429330288e-06,0.0,0.0,0.9960870957273474
2019-01-10,1,6.478519915468826e-06,1.8243786666668724e-05,0.0,0.0,0.9960805310719578
2019-01-14,1,0.00031913507261229954,0.0003724082473003385,0.0,0.0,0.9957428274444594
2019-01-16,1,0.00015628417159190577,0.00018785886352306835,0.0,0.0,0.9958957014112082
2019-01-18,1,0.0001601795882326372,0.00019243198312608677,0.0,0.0,0.9954476300092377
2019-01-23,1,0.00016381233630239077,0.0001966893666105491,0.0,0.0,0.9954446199122126
2019-01-25,1,0.0003188786955481781,0.000372222980706344,0.0,0.0,0.9942834522178623
2019-01-29,1,0.00031539310016335756,0.0003683301846722057,0.0,0.0,0.995485650375841
2019-01-31,1,0.00015789812695035337,0.00019006784829198828,0.0,0.0,0.9960574455670501
2019-02-04,1,0.00022957493609781314,0.00027617309619823286,0.0,0.0,0.9934682120003526
2019-02-06,1,0.00024825702610745414,0.0002994292692313963,0.0,0.0,0.9934549367050924
2019-02-08,1,0.0001996458552933864,0.00023839872799307974,0.0,0.0,0.9934895216980216
2019-02-12,1,0.00039283516262534506,0.0004571858473287085,0.0,0.0,0.9948513343135571
2019-02-14,1,0.00041120550481123144,0.00047784946710321713,0.0,0.0,0.9948384221549105
2019-02-19,1,0.00032085386907055143,0.000372943712700995,0.0,0.0,0.9953279525564533
2019-02-21,1,0.00047655576448668596,0.0005661196981573285,0.0,0.0,0.9951967537958883
2019-02-25,1,0.00012195847617479469,0.0001382867867776165,0.0,0.0,0.9965537044734982
2019-02-27,0,-1.3134172885920742e-05,5.654817236061332e-08,0.0,0.0,0.9966644232711601
2019-03-01,-1,-0.0001034084767848229,-5.999574599596052e-05,0.0,0.0,0.9973526760419648
2019-03-05,1,2.2319932019626543e-05,2.5046681869179064e-05,0.0,0.0,0.9999763172539413
2019-03-07,1,1.5845906968660305e-05,1.9517386304449322e-05,0.0,0.0,0.9999823186659985
2019-03-11,1,9.498300900353578e-06,1.4103706613978833e-05,0.0,0.0,0.999988199135505
2019-03-13,-1,-0.00031882618784161024,-0.0002500931440266423,0.0,0.0,0.9997156212283562
2019-03-15,-1,-0.00034251515671213166,-0.00027027876861408816,0.0,0.0,0.9990883719433664
2019-03-19,-1,-0.0004042466112876531,-0.0003206412397330303,0.0,0.0,0.9990324302544116
2019-03-21,-1,-0.0006154046277684152,-0.0005367167617647169,0.0,0.0,0.9988192721535026
2019-03-25,-1,-0.0002511073977051593,-0.00020102555432704457,0.0,0.0,0.999168562469594
2019-03-27,-1,-0.00027874673185615263,-0.00022392910887652557,0.0,0.0,0.9985764394774214
2019-03-29,-1,-0.0005116654550980848,-0.00041172626406402874,0.0,0.0,0.9983921892936195
2019-04-02,-1,-0.00053760904558757,-0.00043388192133240626,0.0,0.0,0.9983709922035078
2019-04-04,1,0.0001402501253232243,0.00017964553061310763,0.0,0.0,0.9986569252011351
2019-04-08,1,0.00015203483701490032,0.00019345657282190428,0.0,0.0,0.9986456402470514
2019-04-10,1,0.00016381954870657554,0.00020726761503070022,0.0,0.0,0.9986343555480075
2019-04-12,1,0.0007995863962867013,0.0009269196917627395,0.0,0.0,0.9968139497986136
2019-04-16,0,-1.873847183629822e-05,5.928046229735522e-07,0.0,0.0,0.9966540945066471
2019-04-18,-1,-0.0010469838704913739,-0.0008633044951659449,0.0,0.0,0.9959349907036759
2019-04-23,-1,-0.0010776593463510383,-0.0008895120963214222,0.0,0.0,0.9959132622313873
2019-04-25,-1,-0.00034343017808977127,-0.0002866393268888209,0.0,0.0,0.9969778255808235
2019-04-29,-1,-0.0003502131818109555,-0.0002924271408748507,0.0,0.0,0.9947986866690205
2019-05-01,-1,-0.0003393159761531316,-0.00028344733292776916,0.0,0.0,0.9948061955099772
2019-05-03,-1,-0.00034576151468963985,-0.0002889471939956004,0.0,0.0,0.9948016442002858
2019-05-07,-1,-0.0003520197449765148,-0.00029429047821957207,0.0,0.0,0.9947972232962965
2019-05-09,-1,-0.00035846184097448766,-0.00029978740183174207,0.0,0.0,0.9947926744994848
2019-05-13,1,0.0001146199381716113,0.00011862927762063233,0.0,0.0,0.996756824450958
2019-05-15,-1,-0.0005007068114539285,-0.00042393592545165104,0.0,0.0,0.9973696072759316
2019-05-17,-1,-0.0005042110255425358,-0.0004269260077434742,0.0,0.0,0.9973667513478749
2019-05-21,-1,-0.000202656840036404,-0.00018561824054037508,0.0,0.0,0.9958706765324448
2019-05-23,1,9.007917390777137e-05,0.0001393621429102293,0.0,0.0,0.9959077310044053
2019-05-28,1,0.0007798848228680944,0.0009211356138007035,0.0,0.0,0.9973908691321984
2019-05-30,1,0.00031832807469446165,0.00033516255681417285,0.0,0.0,0.9979121767882417
2019-06-03,1,0.00028896175118523285,0.0003007482431418382,0.0,0.0,0.9979439350938157
2019-06-05,1,0.0002576819478565837,0.00026438913917347425,0.0,0.0,0.9971912107731684
2019-06-07,1,0.0007602230620717156,0.0008940263109253729,0.0,0.0,0.996697471465271
2019-06-11,1,0.00048361556421665464,0.0005486580083337946,0.0,0.0,0.9963869899080586
2019-06-13,1,0.000469855870937881,0.0005325242916213796,0.0,0.0,0.9963984145845199
2019-06-17,1,0.0004557379785604694,0.0005159845266192875,0.0,0.0,0.9964101340297619
2019-06-19,1,0.001272423933770262,0.0014707682701410427,0.0,0.0,0.9974865578112307
2019-06-21,1,0.0011899351397523384,0.001374321327520242,0.0,0.0,0.9975551460542843
2019-06-25,1,0.0009324092239408591,0.0010515452214171302,0.0,0.0,0.9970923432331694
2019-06-27,1,0.0009004062436599213,0.0010140502994289207,0.0,0.0,0.9971150611764018
2019-07-01,1,0.0008686485051527705,0.000976831954300631,0.0,0.0,0.9971376069252992
2019-07-03,1,0.0005750520786877245,0.0006434320608859115,0.0,0.0,0.9980924711824519
2019-07-08,1,0.0008259379273528608,0.0009547877415559815,0.0,0.0,0.9978798908051012
2019-07-10,1,0.0006313617644526368,0.0007376036038970567,0.0,0.0,0.9986028936116327
2019-07-12,1,0.00054455256351801,0.000629471411995934,0.0,0.0,0.9979096589807238
2019-07-16,1,0.0005325385880064763,0.0006154774459108693,0.0,0.0,0.994455632568146
2019-07-18,1,0.0003268185610823341,0.0003593061692323437,0.0,0.0,0.9946562363605914
2019-07-22,1,0.0002573703810303305,0.00028184344633992974,0.0,0.0,0.9947208528891602
2019-07-24,1,0.00012561684636351744,0.00014541324471229462,0.0,0.0,0.9956105227094431
2019-07-26,-1,-2.763543744515344e-05,-1.5222846033980589e-05,0.0,0.0,0.9957302031849671
2019-07-30,-1,-3.6488865984602346e-05,-2.2777315946020027e-05,0.0,0.0,0.9957239400132541
2019-08-01,-1,-4.532517675562361e-05,-3.0320333600587185e-05,0.0,0.0,0.9957176871863841
2019-08-05,-1,-3.922198544551166e-05,-2.7418162645880306e-05,0.0,0.0,0.9910434490858722
2019-08-07,-1,-4.5629828174005746e-05,-3.288585856478839e-05,0.0,0.0,0.991039614638435
2019-08-09,1,8.997778188527077e-05,9.320669708041222e-05,0.0,0.0,0.9917410952480769
2019-08-13,-1,-0.00012666892880770948,-9.105010793193699e-05,0.0,0.0,0.9951848607195747
2019-08-15,1,4.1307283292153986e-05,4.3834065396155505e-05,0.0,0.0,0.9952362063372626
2019-08-19,1,0.0004768438389913801,0.0005307942149186153,0.0,0.0,0.9947795517289467
2019-08-21,1,0.0004555028069415346,0.0005057655988788812,0.0,0.0,0.9948024956436738
2019-08-23,1,0.0004341519046328189,0.00048072477104605207,0.0,0.0,0.9948254515438538
2019-08-27,1,0.00038030438915549,0.0004198097931629831,0.0,0.0,0.9919857374542711
2019-08-29,1,0.0003606002672451134,0.00039669890225022133,0.0,0.0,0.9904712586909908
2019-09-03,1,0.0008291615338723719,0.00092677057999078,0.0,0.0,0.9947633815749441
2019-09-05,1,0.00027946842508344707,0.00031734055474083334,0.0,0.0,0.9952111887886866
2019-09-09,1,0.0002452056976401509,0.00027083996752589484,0.0,0.0,0.993536048871883
2019-09-11,1,0.00020466566945257094,0.00022530533320570437,0.0,0.0,0.993569102017418
2019-09-13,1,0.00019094081621521343,0.0002094087504565934,0.0,0.0,0.9926997434980838
2019-09-17,-1,-0.0005044237476164266,-0.0004594872252564211,0.0,0.0,0.9924825878950106
2019-09-19,-1,-0.0004671475634794714,-0.00042728231194575207,0.0,0.0,0.9914355535245629
2019-09-23,-1,-0.0004353755974096198,-0.0004000800648182581,0.0,0.0,0.9914578903040887
2019-09-25,-1,-0.000139585711816452,-0.0001395018509926927,0.0,0.0,0.9946082814382627
2019-09-27,1,6.925231424575913e-06,2.6961151007399776e-05,0.0,0.0,0.9962926454842517
2019-10-01,1,2.1413768241223248e-05,4.390070499652985e-05,0.0,0.0,0.9962788509912998
2019-10-03,1,6.957304550822706e-06,2.2056955942930026e-05,0.0,0.0,0.9962943317421926
2019-10-07,-1,-6.249594043723667e-05,-5.207359276558238e-05,0.0,0.0,0.9979698489152219
2019-10-09,-1,-4.6169905879730886e-05,-3.294036674570002e-05,0.0,0.0,0.9979860207019096
2019-10-11,-1,-8.848965643645052e-05,-8.01449289689274e-05,0.0,0.0,0.99882615246022
2019-10-15,-1,-7.031887669014007e-05,-5.8849761754925555e-05,0.0,0.0,0.9988458395219143
2019-10-17,-1,-6.372099213402791e-05,-5.961555479491992e-05,0.0,0.0,0.999938335529277
2019-10-21,-1,-5.2039291154812846e-05,-4.5944063032814e-05,0.0,0.0,0.999951010722973
2019-10-23,-1,-4.0285411973653526e-05,-3.2225637307264766e-05,0.0,0.0,0.999963745789775
2019-10-25,-1,-2.865474617185717e-05,-1.863278348698121e-05,0.0,0.0,0.9950014670838879
2019-10-29,1,0.00011958116906138553,0.00017730486552695676,0.0,0.0,0.9922547932226251
2019-10-31,1,1.5405352492869317e-05,4.216790626539463e-05,0.0,0.0,0.9913599938754274
2019-11-04,0,-1.5346405775310256e-05,1.5944057584412304e-05,0.0,0.004949009031129829,0.9889132753919645
2019-11-06,-1,-6.078258192965437e-05,-1.3586846449151495e-05,0.0,0.020521886856452308,0.9840154221998317
2019-11-08,1,0.0001283182192089677,0.0001327183002176333,0.0,0.021979207589149778,0.982964193579437
2019-11-12,1,0.0001039072728002284,0.00011190849660171849,0.0,0.021979207589149778,0.9788779035746746
2019-11-14,1,7.303713805630345e-05,8.373646071065596e-05,0.0,0.022838532777560563,0.9777824477646292
2019-11-18,1,5.003564774529348e-05,6.397498379037343e-05,0.0,0.022838532777560563,0.9777881013117901
2019-11-20,-1,-0.0028740032271017163,-0.0025337292715447413,0.0,0.022838532777560563,0.9710522179763282
2019-11-22,-1,-0.0012051415257426257,-0.0010268408037322353,0.0,0.022838532777560563,0.9739605005189811
2019-11-26,1,0.0021899631570007896,0.002475736342667068,0.0,0.020281809702085138,0.9765947120523866
2019-11-29,1,0.003473433415319675,0.0038970324145549923,0.0,0.02211830131445905,0.9742480588553317
2019-12-03,1,0.0031287677992673265,0.0034861625802874237,0.0,0.02211830131445905,0.9740332687842058
2019-12-05,1,0.003365568048030507,0.00377186788889258,0.0,0.013957509881422924,0.978176836176107
2019-12-09,1,0.003460695590395308,0.003875729544547889,0.0,0.002840909090909091,0.9788131008777213
2019-12-11,1,0.002904831068002961,0.0032243884237552756,0.0,0.002840909090909091,0.9831622959384039
2019-12-13,1,0.003154087436159419,0.0035515646939151147,0.0,0.0,0.9822021869458004
2019-12-17,1,0.0036359633437702864,0.004087453853970872,0.0,0.002840909090909091,0.9806427717767277
2019-12-19,1,0.0036576028300960295,0.004112680989272522,0.0,0.002840909090909091,0.985464761987413
2019-12-23,1,0.00383058460288954,0.0042866473745288985,0.0,0.0,0.9880410631876994
2019-12-26,1,0.003899001947641742,0.004356760503522692,0.0,0.0,0.9880010513597061
2019-12-30,1,0.004045433163041002,0.004500725600806074,0.0,0.0,0.9903785804667368
2020-01-02,1,0.004956411981699217,0.00552318234522892,0.0,0.0,0.9919825876316987
2020-01-06,1,0.0057360012761455016,0.006410767289160457,0.0,0.0,0.9912491056374236
2020-01-08,1,0.006033692435206383,0.0066383081398219725,0.0,0.0,0.9910100346392884
2020-01-10,1,0.005785027244865799,0.006347469701831715,0.0,0.0,0.9912443793502076
2020-01-14,1,0.005568327460552347,0.006078972556794235,0.0,0.0,0.9931133482979403
2020-01-16,1,0.005596530154976246,0.00612517078075768,0.0,0.0,0.9926209689843478
2020-01-21,1,0.004761609711112376,0.005172914005990338,0.0,0.0,0.993502200261077
2020-01-23,1,0.004552398549990993,0.004804912024842952,0.0,0.0,0.9937871501062093
2020-01-27,1,0.004349898850585665,0.004612311555544829,0.0,0.0,0.9927231004388478
2020-01-29,1,0.003945155412551943,0.0041546679232285265,0.0,0.0,0.9905358877168867
2020-01-31,1,0.0034288841406971086,0.003589747980728693,0.0,0.0,0.9910087104487176
2020-02-04,1,0.0021815895927801243,0.002267585749308446,0.0,0.0,0.987776068471582
2020-02-06,1,0.0014873313287153953,0.001502740270093005,0.0,0.0,0.9884102305534194
2020-02-10,1,0.0006525106613771163,0.0007673454668890515,0.0,0.0,0.9891107534276504
2020-02-12,-1,-0.0010721756636772207,-0.0008342168607051217,-0.0035714194888160342,0.0,0.9844803147152529
2020-02-14,-1,-0.002959313938061338,-0.0026962603778089636,-0.0035714194888160342,0.0,0.9802780821656835
2020-02-19,-1,-0.0002386490768933094,-0.0001775736676887929,-0.006328782871117367,0.0,0.9811297259056944
2020-02-21,-1,-0.00022655993585984433,-0.00017459861156337515,-0.006328782871117367,0.0,0.9763391752043458
2020-02-25,0,-1.0188394661882444e-05,7.152651625083253e-05,-0.006328782871117367,0.0,0.9713792144568318
2020-02-27,-1,-0.0002895103014398817,-0.00024726728401524135,-0.0009191211274337778,0.0,0.974175312861997
2020-03-02,0,-4.480687996430915e-05,5.320400057488687e-05,-0.0009191211274337778,0.0,0.9742987879333044
2020-03-04,1,0.0009620995454470525,0.0011978223468845732,0.0,0.0,0.9778675773925652
2020-03-06,1,0.0011226005768822805,0.0013934846845783727,0.0,0.0,0.9777574143783411
2020-03-10,1,0.001184116369787491,0.001465674474908224,0.0,0.0,0.9777154169342254
2020-03-12,1,0.0021559053054854022,0.0025539470848149554,0.0,0.0,0.9818531356573363
2020-03-16,1,0.0035624899296806565,0.004146535041302954,0.0,0.0,0.9856639150164757
2020-03-18,1,0.003522006749006121,0.004100478523084568,0.0,0.0,0.9856958615821825
2020-03-20,1,0.002464837857513029,0.002903190189249081,0.0,0.0,0.9911351833763683
2020-03-24,1,0.0017903580948345132,0.0021399525314806968,0.0,0.0,0.9980386989480253
2020-03-26,1,0.001824062389336655,0.00217948657234705,0.0,0.0,0.9980022246149425
2020-03-30,1,0.0018547576274135396,0.002215425286856117,0.0,0.0,0.9979690417286929
2020-04-01,1,0.0017794765195672266,0.002124823485409855,0.0,0.0,0.9933224885990275
2020-04-03,1,0.0018098434617466182,0.002160411892760363,0.0,0.0,0.9932937197739292
2020-04-07,1,0.001838599535554504,0.0021940780056690107,0.0,0.0,0.9932664904720253
2020-04-09,1,0.001870577346105399,0.002231588707461379,0.0,0.0,0.9932361871226978
2020-04-14,1,0.0019009442882847883,0.0022671771148118844,0.0,0.0,0.9932074232962748
2020-04-16,1,0.0019313112304641781,0.0023027655221623906,0.0,0.0,0.9931786611357873
2020-04-20,1,0.0011327895678603277,0.0013276590740261044,0.0,0.0,0.9939491210877114
2020-04-22,1,0.0012596704834177174,0.001476364719727972,0.0,0.0,0.9938287740959215
2020-04-24,1,0.0008763141187713268,0.0009944508617724366,0.0,0.0,0.9942037616796365
2020-04-28,1,0.0009407768907703289,0.0010971724328041137,0.0,0.0,0.9941331850014625
2020-04-30,-1,-0.0002101419141104352,-0.00017436291484455174,0.0,0.0,0.9998077845394089
2020-05-04,-1,-0.0008209872490810956,-0.0006664960058403785,0.0,0.0,0.9992568111130515
2020-05-06,-1,-0.00039692018497718194,-0.0003283528866559591,0.0,0.0,0.9996374949217693
2020-05-08,-1,-0.0005529535667002127,-0.0004542720397840506,0.0,0.0,0.994526511160016
2020-05-12,-1,-0.0005214450283109785,-0.00042892510353179813,0.0,0.0,0.9945546293461609
2020-05-14,-1,-5.103687782276317e-05,-4.7936766250889484e-05,0.0,0.0,0.9949758823936091
2020-05-18,-1,-0.00031173517826084103,-0.00026114207353067885,0.0,0.0,0.9898513163161715
2020-05-20,-1,-0.00031751812205259197,-0.00026606675947456773,0.0,0.0,0.9898466793023342
2020-05-22,-1,-0.0006992123246368174,-0.0005737021167822152,0.0,0.0,0.9895500932592979
2020-05-27,-1,-0.0006485404553338447,-0.0005338728570223421,0.0,0.0,0.9895889118633342
2020-05-29,-1,-0.0007426050903666166,-0.0006105689095602168,0.0,0.0,0.9895153675964523
2020-06-02,-1,-0.0007670559524836582,-0.0006314323865017852,0.0,0.0,0.9894957531403439
2020-06-04,-1,-0.0007915068146006985,-0.0006522958634433524,0.0,0.0,0.9894761394618269
2020-06-08,-1,-0.0015304641728541143,-0.0013220820795117748,0.0,0.0,0.9888626304462704
2020-06-10,-1,-0.0007461613222798622,-0.0006393798553676483,0.0,0.0,0.984627197346502
2020-06-12,0,-0.0001102961395602844,4.725203996638926e-05,0.0,0.0,0.985179497688926
2020-06-16,1,0.0003063773410957308,0.00042399584673019375,0.0,0.0,0.9898345342834488
2020-06-18,1,0.00010007953278084672,0.0002564845751401572,0.0,0.0,0.9899882576566844
2020-06-22,-1,-0.0002359370275794965,-4.156779739483284e-05,0.0,0.0,0.9899615698013907
2020-06-24,-1,-0.0004855076833395986,-0.0002513721927508782,0.0,0.0,0.9897379613928944
2020-06-26,-1,-0.0018690907570841912,-0.0015502182061749123,0.0,0.0,0.9837612480806848
2020-06-30,-1,-0.002174140082476309,-0.0018193916335692514,0.0,0.0,0.9835147057191274
2020-07-02,-1,-0.0025103471259887134,-0.0021217956783475557,0.0,0.0,0.983240074029735
2020-07-07,-1,-0.002427517784867229,-0.0020388178351827806,0.0,0.0,0.9881706281519833
2020-07-09,-1,-0.0013998563009678367,-0.0011015188655784493,0.0,0.0,0.9939411483759335
