JNU-Tangyin/eata/results/Batch4_SP500/Batch4_SP500-BSX.csv
Date,Action,Predicted_Q25,Predicted_Q75,Actual_Q25,Actual_Q75,RL_Reward
2010-12-14,0,0.0,0.006634983230711371,-0.011404769397915474,0.011896532870023995,0.9882560372530549
2010-12-16,0,0.0,0.0,-0.00970183479519105,0.008730496098713918,0.9874338510041586
2010-12-20,0,0.0,0.0,-0.01633817977328111,0.0046952959721212545,0.9889309294342903
2010-12-22,0,0.0,0.0,-0.015826169784004276,0.00702143432396891,0.9884302969571325
2010-12-27,0,0.0,0.0,-0.015826169784004276,0.00702143432396891,0.9876053104256343
2010-12-29,1,0.006260987162707647,0.006930953018374011,-0.015826169784004276,0.00702143432396891,0.9864496340084467
2010-12-31,1,0.005508652172327343,0.0060839756752001815,-0.015826169784004276,0.00702143432396891,0.9867138535705745
2011-01-04,1,0.003581866942916725,0.003780695529448798,-0.01633817977328111,0.008730496098713918,0.9853317586609097
2011-01-06,0,0.0,0.0,-0.015940538777493084,0.011896532870023995,0.9859220143743747
2011-01-10,1,0.0036914069190727102,0.004045903365556643,-0.015199547972837252,0.008730496098713918,0.9866832723365286
2011-01-12,1,0.0029111740080587324,0.0030702749335456423,-0.015199547972837252,0.00527836590187669,0.9868685254828747
2011-01-14,1,0.0024315759773561466,0.002461703523497002,-0.015199547972837252,0.006540656674063649,0.986427141080575
2011-01-19,0,0.0,0.0,-0.006809816244139918,0.014006811139901959,0.9885754030853395
2011-01-21,0,0.0,0.0,-0.004686735442572317,0.01718182129698211,0.9871477757069108
2011-01-25,-1,-0.0022898794781156966,-0.0016215694875512832,-0.006809816244139918,0.01718182129698211,0.9846341463208929
2011-01-27,-1,-0.001108775269990101,-0.0006330783532974072,-0.006809816244139918,0.01780151877546053,0.9845625164930214
2011-01-31,-1,-0.0031126998378226984,-0.002317495907673882,-0.004686735442572317,0.01871826013169742,0.9828911067678567
2011-02-02,-1,-0.003094321098156681,-0.002375528856452867,-0.004686735442572317,0.01871826013169742,0.9835774711338259
2011-02-04,-1,-0.0026536260846685995,-0.0019826189943216903,-0.006283887289575175,0.01871826013169742,0.9845354486680038
2011-02-08,-1,-0.0027086063602801947,-0.0020600620373090388,-0.00524816734405115,0.02009920237996965,0.9825799173089078
2011-02-10,-1,-0.0029055465103291884,-0.002248125818909426,-0.00524816734405115,0.02009920237996965,0.9807022770166268
2011-02-14,-1,-0.002567296432999285,-0.0019553300061220585,-0.021950796083661215,0.02009920237996965,0.9789773641581178
2011-02-16,-1,-0.0016978802418788853,-0.0012269680894076546,-0.022880520933544014,0.02176229031389979,0.9776106071650706
2011-02-18,1,0.0014668458581286673,0.0014798897764064004,-0.022880520933544014,0.02009920237996965,0.9790257460035413
2011-02-23,-1,-0.0014229218845563983,-0.0010657833389610839,-0.020256729526364356,0.02009920237996965,0.9805263884917111
2011-02-25,-1,-0.0007099065517099556,-0.00042118747996164416,-0.020256729526364356,0.01653454558128723,0.9802367244233919
2011-03-01,1,0.0006262060455378038,0.0007528406644532595,-0.020256729526364356,0.014587519686203289,0.9822295334371514
2011-03-03,1,0.0007032744659185347,0.0008325394004781877,-0.022880520933544014,0.01383133338179674,0.9823596831382927
2011-03-07,1,2.683479083651812e-05,0.000233434710974876,-0.022880520933544014,0.014539036714670182,0.9816571720712779
2011-03-09,1,0.001197015953167848,0.0012712608480323815,-0.024625542790929975,0.01383133338179674,0.9814843632294914
2011-03-11,1,0.00015569386701879328,0.00034395015105009126,-0.021768128328709137,0.014539036714670182,0.982188659249786
2011-03-15,-1,-0.0020857820251272063,-0.001624128748896233,-0.01688713509295134,0.014539036714670182,0.9830642148118846
2011-03-17,-1,-0.0017443248887255211,-0.0013311142850639499,-0.016690710575368188,0.014539036714670182,0.9835956210475714
2011-03-21,-1,-0.0012572834486177732,-0.0008982504127175862,-0.016690710575368188,0.014539036714670182,0.9838654148761622
2011-03-23,-1,-0.0024812811469341806,-0.0019918546334572705,-0.014748331162502086,0.014539036714670182,0.9850927840617771
2011-03-25,-1,-0.001718714378090237,-0.0012945490847928677,-0.014748331162502086,0.01408466943467144,0.9850107574851583
2011-03-29,-1,-0.0007641903023864353,-0.000494839534142414,-0.014748331162502086,0.01408466943467144,0.9852853827730434
2011-03-31,-1,-0.0003833669194500075,-0.00027725991731265376,-0.010722868387337256,0.015926325922337874,0.9860186674476143
2011-04-04,-1,-0.000823456281592664,-0.0005958545404840925,-0.010606559093463313,0.018593560411183443,0.9852477722731098
2011-04-06,-1,-0.0001222408355808046,-2.4852604799278108e-05,-0.010606559093463313,0.012926610547889655,0.9861865991586604
2011-04-08,-1,-0.0006466981838025623,-0.00043719645604501083,-0.008790557136414098,0.012926610547889655,0.9868428168652696
2011-04-12,-1,-0.0022615985844446863,-0.0018190598413209014,-0.006567044654962946,0.012926610547889655,0.9838476664953242
2011-04-14,-1,-0.001263045562780801,-0.0010019189618144632,-0.007792037539427153,0.00962539108998959,0.9847419118784693
2011-04-18,0,0.0,0.0,-0.005708590724912383,0.00962539108998959,0.9855328182788651
2011-04-20,0,0.0,0.0,-0.005708590724912383,0.01177853866760434,0.9854420876627817
2011-04-25,0,0.0,0.0,-0.011220836460070292,0.008323366953649255,0.9846625692771557
2011-04-27,0,0.0,0.0,-0.011220836460070292,0.013717082470977823,0.9826498061247652
2011-04-29,-1,-0.0004820617610435497,-0.00025234072181465946,-0.011220836460070292,0.01301621733576991,0.983111738572394
2011-05-03,0,0.0,0.0,-0.014786938383943031,0.01301621733576991,0.9829464557028952
2011-05-05,0,0.0,0.0,-0.013321477151952359,0.01301621733576991,0.9832743861882104
2011-05-09,-1,-0.0018639465991016732,-0.0018058147862952138,-0.013321477151952359,0.007578945613706742,0.9843921265478498
2011-05-11,0,0.0,0.0,-0.013321477151952359,0.01301621733576991,0.9863390072324977
2011-05-13,-1,-0.0005609822151320715,-0.000502115130619924,-0.013608408592017302,0.01301621733576991,0.9862303173361012
2011-05-17,-1,-0.0007689956874239795,-0.0007603268982490266,-0.013608408592017302,0.013717082470977823,0.9845115145790085
2011-05-19,-1,-0.0003151482549565349,-0.00024815160662891995,-0.014445685669819804,0.013517418258420356,0.98431971463923
2011-05-23,-1,-0.0017892790566171948,-0.0016948808805393968,-0.01302670014878745,0.016387100123948273,0.9851396120431442
2011-05-25,-1,-0.00027416113645206263,-0.00022788645600699527,-0.01302670014878745,0.01468383314343947,0.9862685542143874
2011-05-27,1,0.00020833997124299042,0.0002957941771043438,-0.013592723948119894,0.012842616257367915,0.9855865554033149
2011-06-01,0,0.0,0.0,-0.01302670014878745,0.011873946196051513,0.9864750678460532
2011-06-03,0,0.0,0.0,-0.008851256683932895,0.017066546989252918,0.9851967006807324
2011-06-07,-1,-0.0006054753737323789,-0.00047952486980033294,-0.012664523286265062,0.017066546989252918,0.9849268954789792
2011-06-09,-1,-0.00019655290437088147,-0.00014001442354495295,-0.010363388294214328,0.012382796588492168,0.9858566716423756
2011-06-13,0,0.0,0.0,-0.007213462912002334,0.014463157092482871,0.9865621623545615
2011-06-15,0,0.0,0.0,-0.010363388294214328,0.011866627441406454,0.9871666403352027
2011-06-17,-1,-0.0027987950874850337,-0.002630349235266094,-0.011574653623560117,0.011866627441406454,0.9873298337591451
2011-06-21,-1,-0.0015029685533261834,-0.0014798087368986302,-0.012469808909332917,0.011866627441406454,0.9862932258734148
2011-06-23,-1,-0.001151760030346513,-0.0011404721490280356,-0.012469808909332917,0.012058167383426577,0.9859954568677364
2011-06-27,-1,-0.00311503113650579,-0.0028679853919368753,-0.01249570656934968,0.012058167383426577,0.9856889548125499
2011-06-29,-1,-0.001759589481551873,-0.0016473678757056942,-0.012610786325797114,0.012058167383426577,0.9811866467522172
2011-07-01,-1,-0.0006534344482807317,-0.0005899311650272299,-0.014423128252096462,0.011237020587416262,0.981078094831087
2011-07-06,-1,-0.000980262480887242,-0.000966732768953443,-0.017264630542228446,0.012058167383426577,0.9789704309490641
2011-07-08,-1,-0.0006498921695712135,-0.0005868051576313775,-0.021589928552383623,0.014372600376966246,0.9764917500508421
2011-07-12,1,0.00020623253096057915,0.0003775362090490598,-0.028376891705635166,0.016327477824440044,0.9708007388855416
2011-07-14,1,0.00024587764024682846,0.0005063493460312207,-0.03155401603031097,0.01866578143249552,0.9654226932034609
2011-07-18,-1,-0.0016628475909566563,-0.0015521942207482407,-0.03155401603031097,0.018935187079193727,0.965235845149884
2011-07-20,1,0.00013527680098603893,0.00018067708164470843,-0.03155401603031097,0.01845140016497239,0.9662345012010446
2011-07-22,1,0.0018586148283507137,0.002087639822211449,-0.035255255769843064,0.01641727970667278,0.9640472040950139
2011-07-26,1,0.0006993245979692046,0.0007968991738853386,-0.035255255769843064,0.018935187079193727,0.9640479190775573
2011-07-28,1,0.0019292568515912349,0.002169414342872009,-0.035255255769843064,0.01641727970667278,0.9690029001943214
2011-08-01,1,0.0011896233601552415,0.0014118822036813276,-0.02389819769800681,0.018935187079193727,0.9694438668658962
2011-08-03,1,0.00023859099144070994,0.0002744810830889279,-0.008270632363975879,0.019311701728399917,0.9709921646201523
2011-08-05,-1,-0.0021219920655149308,-0.0017860238835697658,-0.01123140878509131,0.019311701728399917,0.9715807122871939
2011-08-09,-1,-0.002509394523533672,-0.002142678454589956,-0.010920708598807661,0.019311701728399917,0.9756249173999125
2011-08-11,-1,-0.0016854642207905289,-0.0014582580808546524,-0.010920708598807661,0.012870549346175155,0.9803688418728104
2011-08-15,-1,-0.0017527926743209142,-0.0014709408242725777,-0.010920708598807661,0.010155851527052792,0.9812781890396862
2011-08-17,-1,-0.0011501689808651725,-0.0009833916029507422,-0.005888842717523986,0.01804201062794907,0.9802737824332756
2011-08-19,-1,-0.002289709386173563,-0.002013214403908839,-0.006778610356338602,0.01804201062794907,0.981906639034069
2011-08-23,-1,-0.001119217009800418,-0.0009483748270306533,-0.013792201586132952,0.009080175270921868,0.9814558681169038
2011-08-25,-1,-0.0014355348444438853,-0.0012743468672522305,-0.02127315731182805,0.01804201062794907,0.9780946191686896
2011-08-29,1,0.00025523080809237487,0.0003035100120558584,-0.02127315731182805,0.022041065515239957,0.9776172340510353
2011-08-31,1,0.0010591167566679901,0.0012622723117958262,-0.02127315731182805,0.018998686664601132,0.9785400890265364
2011-09-02,-1,-0.0011385375377046514,-0.0010107507531137852,-0.03178333771557173,0.018998686664601132,0.9765063821108124
2011-09-07,-1,-0.0007573784151869494,-0.0006972643993712505,-0.03178333771557173,0.017291704435452613,0.9772428769043949
2011-09-09,-1,-0.002651146956935442,-0.0023397583250048502,-0.017295595054047513,0.017291704435452613,0.9788167016252017
2011-09-13,-1,-0.0018783123759566066,-0.0016851849220431356,-0.017295595054047513,0.017291704435452613,0.9781905196352585
2011-09-15,1,0.0004547128567076097,0.0005949191072383818,-0.017295595054047513,0.01155160295899057,0.979983082535534
2011-09-19,0,0.0,0.0,-0.015659843768269364,0.012900375649266408,0.980146435639901
2011-09-21,-1,-0.0011917087626588212,-0.0011474838285612772,-0.00966069689703188,0.015196937796604082,0.9818594835739459
2011-09-23,-1,-0.0016473972317695154,-0.0015819585036352937,-0.00966069689703188,0.012900375649266408,0.9834136865426734
2011-09-27,-1,-0.0004617078895623447,-0.0003875009814811548,-0.013293977796387739,0.011106774122322234,0.9844411632016611
2011-09-29,-1,-0.00021279703249645575,-9.324094698580723e-05,-0.013293977796387739,0.012900375649266408,0.9825922716922733
2011-10-03,-1,-0.004221351519541946,-0.00378416740251693,-0.006179173581937649,0.015196937796604082,0.9843467194968684
2011-10-05,0,0.0,0.0,-0.00966069689703188,0.0156044680808518,0.9829144199856908
2011-10-07,0,0.0,0.0,-0.013293977796387739,0.019739903703876124,0.9811622669884855
2011-10-11,-1,-0.0018630139499191923,-0.0016636181358822113,-0.008065819995505805,0.019739903703876124,0.9814388169900743
2011-10-13,0,0.0,0.0,-0.014357453863379843,0.019739903703876124,0.9807877425671409
2011-10-17,-1,-0.0033587570396105887,-0.0030194351004308026,-0.01105176542575529,0.019739903703876124,0.9809888518377214
2011-10-19,-1,-0.002425987999752817,-0.002225627345722226,-0.014357453863379843,0.017949141859696323,0.9803780128285506
2011-10-21,-1,-0.003657413052526955,-0.00333586203937554,-0.014357453863379843,0.017949141859696323,0.9812864369505842
2011-10-25,-1,-0.0037192682169868143,-0.003366009530949736,-0.014532902339605813,0.014667286094405287,0.9819950312115237
2011-10-27,-1,-0.0024493102790141075,-0.002239416464801248,-0.014532902339605813,0.009919046229852284,0.9836867507529368
2011-10-31,-1,-0.0007722098147636676,-0.000769409107062303,-0.014532902339605813,0.010816982153183006,0.9831679469923009
2011-11-02,-1,-0.0019225643791881196,-0.0017357255467593917,-0.01105176542575529,0.010816982153183006,0.9835325507031762
2011-11-04,-1,-0.0005895919589151182,-0.0005767676524038116,-0.01105176542575529,0.010816982153183006,0.9817640727250745
2011-11-08,-1,-0.00042768345187643145,-0.0004212620743296727,-0.01105176542575529,0.009459722392080648,0.9823145747515637
2011-11-10,0,0.0,0.0,-0.013003450279245803,0.004526029067597413,0.9812991648217139
2011-11-14,0,0.0,0.0,-0.012425237874566075,0.004709903471356943,0.981302566578307
2011-11-16,-1,-0.0018770568112003007,-0.001809530865194466,-0.012425237874566075,0.004709903471356943,0.9814869205734725
2011-11-18,-1,-0.0023351826195561745,-0.0022333151257948438,-0.009480791604791011,0.006293449187407051,0.9818776187781569
2011-11-22,-1,-0.0019293454430121125,-0.0019182878726454562,-0.009372131445491124,0.01168480749736696,0.981745522451574
2011-11-25,-1,-0.0013546446433497323,-0.0013288534156252483,-0.005264806587121331,0.01168480749736696,0.9821073426054582
2011-11-29,1,0.00038767076562514716,0.0006502831836796481,-0.009454391260526801,0.006293449187407051,0.9844940372519906
2011-12-01,1,0.0023323377499466892,0.002886222553198161,-0.009454391260526801,0.006293449187407051,0.9858807091565005
2011-12-05,1,0.0006700335810711571,0.0009672687453807329,-0.009337128003773888,0.004346773197474158,0.989561239759609
2011-12-07,1,0.00041157298660223494,0.0006429268120527652,-0.009337128003773888,0.0057050150846423035,0.9890532984008739
2011-12-09,-1,-0.0005511484534291898,-0.00042232028671872055,-0.007950070400201468,0.008029549123030156,0.9892910366703913
2011-12-13,1,8.894637385691842e-05,0.0003689387539728663,-0.004796631091049969,0.0067615687940907054,0.9901205859353733
2011-12-15,-1,-0.0014236379605619622,-0.0014231657592815425,-0.0017985594543473442,0.0067615687940907054,0.9908289320968049
2011-12-19,-1,-0.0011427553735062956,-0.001126143427428136,0.0,0.01168480749736696,0.9886613547707657
2011-12-21,-1,-0.0009455538413412777,-0.0008536986450352228,-0.0004180697679740696,0.011760274895085783,0.9890650611832058
2011-12-23,-1,-0.0010292044623757763,-0.000916817441825923,-0.0004180697679740696,0.02061048027789662,0.9879153070025173
2011-12-28,-1,-0.002600472358488016,-0.002272356205560599,-0.002512607358298606,0.02061048027789662,0.9864106866285786
2011-12-30,-1,-0.0017350639745501565,-0.001599783888959613,-0.005014625197636117,0.012273369804100837,0.9877420035562134
2012-01-04,0,0.0,0.0,-0.005014625197636117,0.019507556713025013,0.9857464506532884
2012-01-06,0,0.0,0.0,-0.0025062850183421156,0.022915023163672346,0.9847246898747835
2012-01-10,0,0.0,0.0,-0.005014625197636117,0.019507556713025013,0.9862519240462642
2012-01-12,0,0.0,0.0,-0.005014625197636117,0.019507556713025013,0.9863519774457525
2012-01-17,0,0.0,0.0,-0.0037773258070780353,0.019507556713025013,0.9865442820736524
2012-01-19,0,0.0,0.0,-0.005014625197636117,0.010984108443553884,0.9885890602876923
2012-01-23,0,0.0,0.0,-0.005042094898843811,0.010984108443553884,0.9877223946999356
2012-01-25,0,0.0,0.0,-0.0063090610109970535,0.0037942930872842803,0.988375935116054
2012-01-27,0,0.0,0.0,-0.005023127878974339,0.010984108443553884,0.9868467421287132
2012-01-31,0,0.0,0.0,-0.0063090610109970535,0.012949713273884776,0.9858920534972039
2012-02-02,0,0.0,0.0,-0.010432060293750708,0.006784735409220882,0.9872155841206519
2012-02-06,0,0.0,0.0,-0.014384016476135894,0.002464792857509633,0.9864147941786398
2012-02-08,0,0.0,0.0,-0.014384016476135894,0.007132106391722135,0.9850282915793861
2012-02-10,0,0.0,0.0,-0.017120635110704042,0.007132106391722135,0.9842130556483597
2012-02-14,0,0.0,0.0,-0.017120635110704042,0.012949713273884776,0.982898728782481
2012-02-16,0,0.0,0.0,-0.017120635110704042,0.019102576681325888,0.9818488329969564
2012-02-21,1,0.0030020985967208836,0.0035129124928532547,-0.01426878122870118,0.014254991179889277,0.9829221825171935
2012-02-23,1,0.0026539805360301576,0.003121936496408936,-0.01426878122870118,0.014254991179889277,0.9833440393842774
2012-02-27,1,0.0027682078311852872,0.0030861967522461307,-0.01426878122870118,0.014160501608726494,0.9849469957330612
2012-02-29,1,0.0027801097897278016,0.003141917627215291,-0.01426878122870118,0.016941885618574865,0.9847509721913911
2012-03-02,0,0.0,0.0,-0.013159613878466505,0.016941885618574865,0.986397320632832
2012-03-06,0,0.0,0.0,-0.005405653796642048,0.016941885618574865,0.9887852835829289
2012-03-08,0,0.0,0.0,-0.008234853512530865,0.006641346857610351,0.9900122988370156
2012-03-12,0,0.0,0.0,-0.010895082047732055,0.005385212060865166,0.9896638183221177
2012-03-14,0,0.0,0.0,-0.007509253127460451,0.004757711967054202,0.9905602683283612
2012-03-16,1,0.0013438593142610818,0.0014118538361433243,-0.013153993077146934,0.0,0.9891099451895571
2012-03-20,1,0.0009034922511000986,0.0009170905319962602,-0.010977191921935688,0.00042445794178781553,0.9892046355246641
2012-03-22,1,0.0012429102683709184,0.0013734470357578453,-0.010977191921935688,0.013012426878053299,0.9860847281306894
2012-03-26,1,0.002142911097762562,0.002457414316708519,-0.013417242148362549,0.013012426878053299,0.9847208457160235
2012-03-28,1,0.0013625725440031978,0.0015168875794330547,-0.010977191921935688,0.013012426878053299,0.9859693989782871
2012-03-30,1,0.0014451025508563984,0.0016336620582608511,-0.010977191921935688,0.014093797397880432,0.9858179441614037
2012-04-03,1,0.0016086405728179642,0.0018409769331697405,-0.010977191921935688,0.014093797397880432,0.9858195391002045
2012-04-05,1,0.001327665642437611,0.0015227789761728533,-0.007918709447914984,0.014093797397880432,0.9859605512293755
2012-04-10,1,0.00031181559311613987,0.00036935306936481646,-0.005409444278810929,0.014768509348128962,0.9858289098575255
2012-04-12,1,0.00012013131095998085,0.00016440052518449971,-0.007385973902999485,0.01567070862299475,0.9852621057927333
2012-04-16,-1,-0.002254974762806109,-0.001893576190164432,-0.005409444278810929,0.01567070862299475,0.9869008143198208
2012-04-18,-1,-0.0025635203320630425,-0.0021301007684785328,-0.008064723626294916,0.01567070862299475,0.9869621518269651
2012-04-20,-1,-0.00041296501107746235,-0.00021255621985868587,-0.009277026155903837,0.007299286936953114,0.9893097010985454
2012-04-24,1,0.0011188721634353763,0.0011950832221677172,-0.00819425653329695,0.004916882016962823,0.9905806876861436
2012-04-26,1,0.002294882845309105,0.0026086131850793365,-0.00819425653329695,0.0024257533722675238,0.9906522005330501
2012-04-30,1,0.001861460245765657,0.002032367783345605,-0.00819425653329695,0.0024257533722675238,0.9910547262446697
2012-05-02,1,0.0017956107348702794,0.0019737084882439125,-0.009429967587252475,0.0024257533722675238,0.989830640872152
2012-05-04,1,0.0005354026843259713,0.0006008817253060886,-0.013074482040355235,0.0024257533722675238,0.9895172383105374
2012-05-08,1,0.0005945728001866728,0.0006554516792433171,-0.009429967587252475,0.0024257533722675238,0.9901745731840924
2012-05-10,0,-0.00010643224490861948,9.581958528370206e-05,-0.009429967587252475,0.0024257533722675238,0.9913193590324918
2012-05-14,-1,-0.0006015672207784706,-0.00032185616446393285,-0.00819425653329695,0.0024898745791884576,0.9904157538099589
2012-05-16,-1,-0.0010564986146167168,-0.0007648401348453542,-0.007162936913213446,0.005052826253565664,0.9894239452800732
2012-05-18,-1,-0.0021253481127859403,-0.0017119247252021283,-0.007162936913213446,0.006041565334930547,0.9881258017436292
2012-05-22,-1,-0.00202612725577903,-0.0016017133055185543,-0.008098597358259636,0.006041565334930547,0.9880997283819043
2012-05-24,-1,-0.0015138774529545823,-0.0011953098078854038,-0.01343800517140874,0.010184182688601162,0.9867012222004957
2012-05-29,-1,-0.002038362976730103,-0.0016398194412654006,-0.018620355424781652,0.010184182688601162,0.9858307571446207
2012-05-31,-1,-0.00313628496483535,-0.002580046713011482,-0.01633866763423196,0.014616608615365291,0.9852266522984812
2012-06-04,-1,-0.0032104286021732683,-0.002730389301918529,-0.013056727232438092,0.017523847952036806,0.9837136600316903
2012-06-06,-1,-0.0022082361706851935,-0.0018569922638571913,-0.014334226464208531,0.01722678605237883,0.9841198831280623
2012-06-08,-1,-0.002295342611613505,-0.0019129349542830291,-0.014334226464208531,0.01722678605237883,0.9841146951293208
2012-06-12,-1,-0.0004244327943596736,-0.0003443434883542416,-0.01633866763423196,0.016812295792995237,0.9839203525382276
2012-06-14,0,0.0,0.0,-0.014334226464208531,0.015667056424713624,0.9853595306263019
2012-06-18,0,0.0,0.0,-0.012626575014136474,0.011637702200106147,0.9873093048821188
2012-06-20,0,0.0,0.0,-0.012773360096743881,0.011637702200106147,0.987201572239677
2012-06-22,0,-0.0010983282022443614,0.0,-0.014334226464208531,0.005390834734950447,0.9864517579794019
2012-06-26,-1,-0.0026733079046888358,-0.002323256344967439,-0.012773360096743881,0.01306989646554835,0.9861008937512755
2012-06-28,0,0.0,0.0,-0.012773360096743881,0.01306989646554835,0.9818026650857224
2012-07-02,-1,-0.00048731357725522443,-0.0004262152799325762,-0.012773360096743881,0.003592275280603103,0.9834228926786925
2012-07-05,-1,-0.0009757862410364883,-0.0008529906249169609,-0.01364369241576128,0.0046320732851354235,0.9829992683941923
2012-07-09,-1,-0.0014381908157824945,-0.0012605046388511542,-0.01364369241576128,0.008495697864272652,0.9815844348652463
2012-07-11,0,0.0,0.0,-0.011729037474761126,0.009728669772552658,0.9821772216557164
2012-07-13,0,0.0,0.0,-0.011729037474761126,0.01140596820868545,0.981353594613868
2012-07-17,-1,-0.0008437851706600902,-0.0007357798348473491,-0.011729037474761126,0.010362655767520384,0.9814016117886053
2012-07-19,0,-6.437972426347554e-05,5.637209206855629e-07,-0.011428753132303477,0.012942389676461993,0.9813602020491657
2012-07-23,-1,-0.0016512327498124863,-0.0015022219217467152,-0.00915986882149963,0.013610705098136557,0.9830274751754892
2012-07-25,-1,-0.001318732955903771,-0.001176472610457906,-0.00915986882149963,0.012942389676461993,0.9837310876131072
2012-07-27,-1,-0.0019876600418540858,-0.0017254837321243565,-0.00915986882149963,0.012942389676461993,0.9874399127242721
2012-07-31,-1,-0.0015770251211736001,-0.001410883482155281,-0.00915986882149963,0.012942389676461993,0.9870489236481237
2012-08-02,-1,-0.002038307223880379,-0.0017915805437470013,-0.00915986882149963,0.012942389676461993,0.9865496884600435
2012-08-06,-1,-0.0013951926366712673,-0.0012351492136281246,-0.006412220758031829,0.012785451473947895,0.9885329323263259
2012-08-08,-1,-0.00028277836301740717,-0.0002594988449179591,-0.006412220758031829,0.012785451473947895,0.9885190248590192
2012-08-10,1,0.00012367593054044706,0.00018194244858541452,-0.006412220758031829,0.012785451473947895,0.9890859433154594
2012-08-14,-1,-0.0002457500835874581,-0.0002368214942823504,-0.005377678689631574,0.012785451473947895,0.989006596641749
2012-08-16,1,8.784270029794513e-05,0.00015703385947321094,-0.005377678689631574,0.013183915474355384,0.9883695737767508
2012-08-20,1,0.0001850297085067469,0.00023374966350821522,-0.005861821026526506,0.011257947025460902,0.9886413537635125
2012-08-22,-1,-0.0001905352438603231,-0.0001841506120470291,-0.005377678689631574,0.011257947025460902,0.9893526618259256
2012-08-24,1,4.7237062603673244e-05,8.862034633295705e-05,-0.005377678689631574,0.00959427342711167,0.9901168685536367
2012-08-28,1,2.147992612745896e-05,5.6321035080723216e-05,-0.005224919137143143,0.00787847579654017,0.9909218685627817
2012-08-30,-1,-0.0008853541586937349,-0.0007649459906911901,-0.00397615580202816,0.009372623086678793,0.9913589192134787
2012-09-04,-1,-0.0003022108028388236,-0.0002812705880958867,-0.005210871785231115,0.009372623086678793,0.9911187831079625
2012-09-06,-1,-0.0007052090947309412,-0.0005787730531105553,-0.005210871785231115,0.009372623086678793,0.9911078028331364
2012-09-10,-1,-0.0005617270371403198,-0.00045378302519055773,-0.005210871785231115,0.007418457470600052,0.9916239588534808
2012-09-12,1,0.0005514339887966518,0.0006735126453706268,-0.0057360328176181636,0.00570539501976928,0.9906675004930946
2012-09-14,1,0.0012558919393895938,0.0014895019407880545,-0.0057360328176181636,0.002648537365477044,0.9918157993018077
2012-09-18,1,0.0012439772100187722,0.001492477935883117,-0.005293607230926044,0.0053074302425225005,0.9919050430195098
2012-09-20,1,0.0015928630941076678,0.0019078783197989785,-0.007451799150226937,0.0053074302425225005,0.9896107632054443
2012-09-24,1,0.0009057292232587782,0.0011327350119525255,-0.007451799150226937,0.0053074302425225005,0.9894394899097094
2012-09-26,1,0.000931998206766746,0.00114703344470323,-0.008632040090131651,0.0053074302425225005,0.9881872044719575
2012-09-28,1,0.0015204606984782207,0.0018208914911669223,-0.008632040090131651,0.0053074302425225005,0.988273029539212
2012-10-02,1,0.0013225362431285505,0.0016069190698648924,-0.007451799150226937,0.006437827566470682,0.987902326692473
2012-10-04,1,0.0018526056117741335,0.0022055074883707937,-0.00787663633505711,0.006437827566470682,0.9872249538196485
2012-10-08,1,0.0014123443412537556,0.0016760348039186247,-0.011939340217125696,0.006437827566470682,0.9861688654269001
2012-10-10,1,0.000560859226711593,0.0006875500440603384,-0.009601151040255121,0.009789715897016195,0.986355367556756
2012-10-12,1,0.0005781135359918524,0.0007177419945399676,-0.009601151040255121,0.010089402684317276,0.9857833588844699
2012-10-16,1,0.0010326405882811595,0.0012339472660354337,-0.013991597041900634,0.009789715897016195,0.9856226182882815
2012-10-18,0,0.0,0.0,-0.009097062840284257,0.010309025658483245,0.9870440742376679
2012-10-22,0,0.0,0.0,-0.006320120729370896,0.012142533281213777,0.986060333175583
2012-10-24,-1,-0.0027631803731768107,-0.00243353576926222,-0.004329763034689482,0.013658923484685986,0.9854718015707797
2012-10-26,-1,-0.001796651753227148,-0.0016018697214015803,-0.005425916847815444,0.013658923484685986,0.9860940871929943
2012-11-01,-1,-0.0011053299718017627,-0.0010074203620728547,-0.008361386955643748,0.012796407516871194,0.986213882179703
2012-11-05,1,2.8151140682582034e-05,0.0001185222538666035,-0.006611431067001912,0.01186843218893407,0.9875624426210996
2012-11-07,-1,-0.001097417456619162,-0.0010305702553710032,-0.004204152508420675,0.01186843218893407,0.988808639623004
2012-11-09,-1,-0.0010959815136108947,-0.001029119330881029,-0.003667270639941155,0.01186843218893407,0.9890872432705655
2012-11-13,0,0.0,0.0,-0.004032655244316476,0.011123464025320587,0.9892719361569406
2012-11-15,0,0.0,0.0,-0.004032655244316476,0.011123464025320587,0.9893346295850214
2012-11-19,-1,-0.0009785395785476103,-0.0008754037767911909,-0.004032655244316476,0.011079293675007033,0.9889398093151623
2012-11-21,1,0.0005187760915373277,0.0006002526047404839,-0.005738896465798381,0.011041675505088474,0.9911587100920497
2012-11-26,1,0.0020488617075671415,0.0024114860194086834,-0.006918300832012787,0.007506300355317314,0.9924863081901868
2012-11-28,0,0.0,0.0,-0.007449903069609756,0.005852312681435955,0.9920569889940066
2012-11-30,0,0.0,0.0,-0.006918300832012787,0.007506300355317314,0.9910048531363466
2012-12-04,1,0.001475777031438258,0.0017185669987140589,-0.006918300832012787,0.010688848884678734,0.9901631165210619
2012-12-06,1,0.0011452937022896747,0.0013241933089887807,-0.006918300832012787,0.010688848884678734,0.9895191653448385
2012-12-10,1,0.0019152167006294418,0.002208924395368822,-0.006918300832012787,0.012232770513581591,0.9883337154499465
2012-12-12,0,0.0,0.0,-0.005499690436293441,0.012232770513581591,0.9880462841982768
2012-12-14,0,0.0,0.0,-0.005353804578698321,0.01511205597649374,0.9869641838152033
2012-12-18,0,0.0,0.0,-0.006435187903713819,0.023760074765758598,0.9863330579767933
2012-12-20,0,0.0,0.0,-0.005353804578698321,0.02411204770641377,0.9855230664611981
2012-12-24,1,7.5935600574609315e-06,0.0001472855567541952,-0.00344707981582168,0.02411204770641377,0.9858825616213491
2012-12-27,-1,-0.00032025199394461847,-0.00013373043243101166,-0.0007288622644773771,0.02411204770641377,0.9862908667455081
2012-12-31,1,0.0004412724504788127,0.00048789085164458585,0.0,0.02514065049647279,0.9857220139854327
2013-01-03,0,0.0,0.0,0.0,0.02411204770641377,0.9852041822120999
2013-01-07,0,0.0,0.0,0.0,0.02514065049647279,0.9833043431848889
2013-01-09,0,0.0,0.0,-0.0016305989996153426,0.02411204770641377,0.9855157627982182
2013-01-11,0,0.0,0.0,-0.0026870849790578376,0.02411204770641377,0.98531010870456
2013-01-15,0,0.0,0.0,-0.003497201513388735,0.023038442754339958,0.9859252634982504
2013-01-17,0,0.0,0.0,-0.0026870849790578376,0.022105280223422407,0.9869935643935873
2013-01-22,0,0.0,0.0,-0.005258102848709279,0.013525682853220488,0.9871977552372603
2013-01-24,0,0.0,0.006271959532463604,-0.005258102848709279,0.0168355515868749,0.9889240789337912
2013-01-28,0,0.0,0.0,-0.006251493487238032,0.0168355515868749,0.98508320535763
2013-01-30,0,0.0,0.0,-0.006251493487238032,0.010819980888008077,0.9876927486402841
2013-02-01,0,0.0,0.0,-0.006251493487238032,0.00793642963180457,0.9896762022427829
2013-02-05,0,0.0,0.0,-0.005258102848709279,0.00793642963180457,0.99128079271795
2013-02-07,0,0.0,0.0,-0.006251493487238032,0.008102904744864439,0.9904889926378259
2013-02-11,1,0.009218452253840827,0.010415251766882851,-0.005258102848709279,0.00882372563829485,0.9887088008424044
2013-02-13,1,0.007878194809527136,0.00886069911511399,-0.0044126509859766525,0.00882372563829485,0.9900418601962494
2013-02-15,0,0.0,0.0,-0.008296902653030975,0.008102904744864439,0.9906543584652645
2013-02-20,0,0.0,0.0,-0.0070992529025573825,0.008905397453634094,0.99073852777024
2013-02-22,0,0.0,0.0,-0.008296902653030975,0.008102904744864439,0.9909573579683382
2013-02-26,1,0.006000524961193961,0.006705321941084093,-0.008296902653030975,0.008102904744864439,0.9899755186586591
2013-02-28,1,0.005921492238574397,0.006574138405025996,-0.008296902653030975,0.013098371909914877,0.9884912542764106
2013-03-04,1,0.006008907395061813,0.0067176325699727065,-0.008296902653030975,0.013098371909914877,0.9886959231477912
2013-03-06,0,0.0,0.0,-0.00978872528135456,0.013098371909914877,0.9879171164012895
2013-03-08,0,0.0,0.0,-0.008296902653030975,0.013098371909914877,0.9882151911504979
2013-03-12,0,0.0,0.0,-0.008296902653030975,0.012752171415544421,0.9886166451102004
2013-03-14,1,0.004057751777575671,0.004276195534822851,-0.00978872528135456,0.012752171415544421,0.9872415920174336
2013-03-18,1,0.002141140184855127,0.002227839390036341,-0.008366373975400668,0.012752171415544421,0.987611472254577
2013-03-20,1,0.002021237188800566,0.002175665991346805,-0.011959187759782693,0.005937543551817958,0.9867420523342948
2013-03-22,1,0.0005591391931594131,0.0009469029246480208,-0.011959187759782693,0.012752171415544421,0.9868140346781409
2013-03-26,1,0.000800621255776826,0.0011584290911098472,-0.0095329001971429,0.011137691982952396,0.9875615521171338
2013-03-28,1,0.002886800192174482,0.0029754870934162935,-0.012803357353704546,0.0037714605522881266,0.9870605660927102
2013-04-02,1,0.0032444967190295325,0.0032640424958086762,-0.012803357353704546,0.00236271216525489,0.9872395054057138
2013-04-04,0,0.0,0.0,-0.008665902663494934,0.00236271216525489,0.989719575680856
2013-04-08,0,0.0,0.0,-0.007000150494823187,0.007504553340332303,0.9895688814960011
2013-04-10,1,0.00015562014316821858,0.0005245008196755202,-0.0078290236155046,0.010635384043734444,0.9886401871055611
2013-04-12,0,-0.0005897616344557983,5.100349438979146e-05,-0.005631038426639193,0.01653411871229348,0.985797171410005
2013-04-16,-1,-0.0018687857617103554,-0.0011087636765465749,0.0,0.018755737554678957,0.9850423784635634
2013-04-18,0,0.0,0.0,0.0,0.021521820660358168,0.9853559800810677
2013-04-22,0,0.0,0.0,0.0010204315317949506,0.018755737554678957,0.9854660545072453
2013-04-24,-1,-0.0013376291144858096,-0.0008164793806332516,-0.0005405529125316723,0.018755737554678957,0.9851123018868868
2013-04-26,-1,-0.0020970382024785026,-0.0014113167423627324,-0.0005405529125316723,0.016880666099866375,0.9860302970630606
2013-04-30,0,0.0,0.0,-0.0032366366244251685,0.016880666099866375,0.9858150443055906
2013-05-02,0,0.0,0.0,-0.004042217786833238,0.016880666099866375,0.9858527669128417
2013-05-06,0,0.0,0.0,-0.00647184303898754,0.018153751363569406,0.9844448322899525
2013-05-08,-1,-0.00079188575617105,-0.0002807205174051111,-0.006529091242675282,0.018153751363569406,0.9841489941930136
2013-05-10,1,0.003113392965817784,0.003192032180647505,-0.006529091242675282,0.016217611649962896,0.9868967440232653
2013-05-14,1,0.0040408234313291085,0.004100765712474084,-0.006529091242675282,0.015596152834559682,0.9874776373813655
2013-05-16,1,0.005430348274988401,0.005655750518224717,-0.006707442524366244,0.015596152834559682,0.9887986464094408
2013-05-20,1,0.005524377115232505,0.005731097986293124,-0.007663547234274988,0.014107009744927415,0.9881827013339615
2013-05-22,1,0.004293178967977865,0.0043010538597719325,-0.009143582999326475,0.014107009744927415,0.9867582463675283
2013-05-24,1,0.003585104547849068,0.0036566937005326843,-0.008073513963001355,0.014107009744927415,0.9873279632743224
2013-05-29,1,0.00406500315391988,0.004089177713435656,-0.011448884503452187,0.014284622436415139,0.9861893476362992
2013-05-31,1,0.003891212410310632,0.003905684949057223,-0.011448884503452187,0.014284622436415139,0.9865218387114812
2013-06-04,1,0.003918910165447655,0.003996887934339728,-0.011448884503452187,0.013221370129349047,0.9872249717912536
2013-06-06,1,0.0037972387071976864,0.0038621676382436724,-0.008073513963001355,0.013221370129349047,0.9880999386951441
2013-06-10,1,0.004726199103898202,0.0049462838683807095,-0.011448884503452187,0.008440813301108088,0.9875172423374725
2013-06-12,1,0.004471606357739971,0.004672023542939455,-0.011448884503452187,0.011508026428726217,0.9869687813689653
2013-06-14,1,0.004969076567704837,0.005296875096305657,-0.011448884503452187,0.011508026428726217,0.9872423042862991
2013-06-18,1,0.004617837209119285,0.0048771388156686035,-0.01150571811622531,0.009254227133072909,0.9875094934822748
2013-06-20,1,0.002732102709578778,0.002732380072118177,-0.003472992552573008,0.009254227133072909,0.9894159996434918
2013-06-24,1,0.004217164812936563,0.004524458103013215,-0.005734060647342604,0.012054617291848398,0.9868292415533009
2013-06-26,1,0.004821966113665919,0.00529146715646914,-0.005441336920529771,0.012054617291848398,0.9838685322077279
2013-06-28,1,0.003768207331841446,0.004156042111128815,-0.005441336920529771,0.012966827171304093,0.9834994439901777
2013-07-02,1,0.0031607340254204775,0.0034520407328074393,-0.005441336920529771,0.012966827171304093,0.9838604342400136
2013-07-05,1,0.0034095545285811953,0.0037235140066642193,-0.005441336920529771,0.012966827171304093,0.9837480603495702
2013-07-09,1,0.002236947465915416,0.002341891925385986,-0.0037143759490031103,0.012966827171304093,0.98430354185467
2013-07-11,1,0.0032985931151545316,0.0035595150515553824,-0.004687054941902786,0.012966827171304093,0.984684344192265
2013-07-15,1,0.002808327507764346,0.0029317287328186714,-0.004239103806405671,0.009233623615476815,0.9852969508506692
2013-07-17,1,0.0026255976824234063,0.002735783109615418,-0.004239103806405671,0.009233623615476815,0.9855979762886046
2013-07-19,1,0.002630884878871857,0.0027161578923800738,-0.006681810465325467,0.009233623615476815,0.9845153466386878
2013-07-23,1,0.002656200234607809,0.0027537351178913323,-0.006278221965210083,0.00813138799391732,0.9873462457114028
2013-07-25,1,0.005157360885065274,0.00556490950477311,-0.004239103806405671,0.008097422282587618,0.991924554621404
2013-07-29,1,0.005568016472915216,0.006056923977810203,-0.004248670144705841,0.008097422282587618,0.9915811650884507
2013-07-31,1,0.00506842090359694,0.005465685842649959,-0.004248670144705841,0.007423340774666406,0.9896286209592875
2013-08-02,1,0.005844121114488533,0.006355568667855416,-0.006278221965210083,0.004032682555242919,0.9890304186289475
2013-08-06,1,0.005052261410125494,0.005430034712465086,-0.006278221965210083,0.005892737722686387,0.9889377725083337
2013-08-08,1,0.004680876762823421,0.0049361402920767026,-0.006119870651185069,0.005892737722686387,0.9871286877254831
2013-08-12,1,0.0047013398626690964,0.004969626457104446,-0.006119870651185069,0.0074490002171620434,0.9853261424365004
2013-08-14,1,0.004026668201257012,0.004175157788160168,-0.004195886373364169,0.0074490002171620434,0.9855346958842434
2013-08-16,1,0.0030785392469974823,0.0030972027073018138,-0.004152707613597137,0.0074490002171620434,0.9866275152836407
2013-08-20,1,0.003373254650680374,0.003520915426566322,-0.0033965362378741253,0.0074490002171620434,0.9868433164948938
2013-08-22,1,0.003725977442406456,0.003925686109276888,-0.005920567149442686,0.0037534550584638234,0.9855144302388525
2013-08-26,1,0.0037985126376352584,0.00399779043694565,-0.0064137484170357145,0.0025788888064371953,0.9851617629457072
2013-08-28,1,0.001370483341943945,0.0015147150173656014,-0.005920567149442686,0.0037534550584638234,0.9880762099638726
2013-08-30,1,0.0005687260217584556,0.0008229348480359679,-0.005920567149442686,0.009841853134131356,0.9873650011930216
2013-09-04,1,0.0010460405317405347,0.0012897090678634284,-0.005920567149442686,0.003579987195593811,0.9886332736835368
2013-09-06,1,0.0018590323837951893,0.0020769481223017303,-0.006322938155828882,0.0025340186220388053,0.9910157995984908
2013-09-10,1,0.0017370485696807795,0.002073784693090712,-0.008087102405490447,0.0019079789497090636,0.9921768477370616
2013-09-12,1,0.0016087310817936844,0.001941886310365543,-0.008087102405490447,0.003618844505268652,0.9909942558226824
2013-09-16,1,0.0013308622956846518,0.0016887062279293452,-0.008087102405490447,0.005342622899439426,0.9902474164145549
2013-09-18,1,0.0010748467911376005,0.001452830347764124,-0.009688990440938874,0.015013188316643675,0.9887740584779101
2013-09-20,0,-0.0003187331580861703,0.0002288424995177409,-0.00776408438201936,0.015013188316643675,0.9899568569989855
2013-09-24,-1,-0.0010281681837489686,-0.00041373239548239357,-0.005764306707204627,0.015013188316643675,0.990190966119628
2013-09-26,0,-0.00042888339694930363,0.0001002747111856796,-0.00776408438201936,0.007709182805887447,0.9881452070187599
2013-09-30,0,-0.000346682266008137,0.00015339227499939568,-0.005764306707204627,0.006029317461180069,0.9891847199069871
2013-10-02,1,0.0008954172939288143,0.0011116424490990057,-0.00764009742839971,0.008612267768494627,0.98770417061265
2013-10-04,1,0.0009852336379486053,0.0011476869329132312,-0.005757810031908342,0.008612267768494627,0.9878724840139894
2013-10-08,1,0.0007988558561772011,0.000916795874118981,-0.003803240682464645,0.014772577461861967,0.9879845326426835
2013-10-10,1,0.0021576314651267814,0.0022380951846452694,-0.00753340972501902,0.006029317461180069,0.9877034756774684
2013-10-14,1,0.00255260717912308,0.0026517194359239366,-0.00753340972501902,0.008776744466332063,0.9875847859792775
2013-10-16,1,0.002648974645202452,0.002738689650628076,-0.00753340972501902,0.006029317461180069,0.988543775180351
2013-10-18,1,0.002296783074782438,0.0023436237666212075,-0.006264616134659674,0.006029317461180069,0.988847111577496
2013-10-22,1,0.0022171891642928966,0.0022585518176953152,-0.00753340972501902,0.008776744466332063,0.9864215778421452
2013-10-24,-1,-0.0003364228390029219,-4.663463291969196e-05,-0.006264616134659674,0.008776744466332063,0.9894957297742412
2013-10-28,-1,-0.00040267804465586446,-0.0001048597290991295,-0.00753340972501902,0.0111214419667705,0.988859589713127
2013-10-30,1,0.0003264885173405065,0.0005002931191032053,-0.008529580928999218,0.006364137468325072,0.9893409256194506
2013-11-01,1,0.00017496481537493554,0.0003790316151306242,-0.011230795603448786,0.005753020782967997,0.9888951120116626
2013-11-05,1,0.0008833472240529906,0.000994918011700787,-0.012033213033190002,0.005753020782967997,0.9868784002114463
2013-11-07,-1,-0.0003547712461358615,-9.53614849538094e-05,-0.011230795603448786,0.0111214419667705,0.9861851542757424
2013-11-11,0,-0.0003163951341500703,1.1900770000789818e-05,-0.011700069555031396,0.0030688235869824948,0.9868413353461184
2013-11-13,-1,-0.0007205561138635067,-0.0003543970597143136,-0.012278564991211546,0.005753020782967997,0.9845622749792281
2013-11-15,-1,-0.0010143426888900907,-0.0006156878316029082,-0.012278564991211546,0.005753020782967997,0.9845886244358607
2013-11-19,-1,-0.0009898960024946335,-0.0005908108943597351,-0.011312579589455968,0.005423677445327519,0.9868616955408148
2013-11-21,-1,-0.0015496721730894748,-0.0010606945878913342,-0.011312579589455968,0.009070635744783732,0.9857234018292321
2013-11-25,-1,-0.0016704079606420933,-0.0011789287404873443,-0.011003263149892275,0.00930090411881907,0.9860863827589829
2013-11-27,-1,-0.0027573745850021088,-0.002106021057447233,-0.009521561826613891,0.011987938481499904,0.9852844372048489
2013-12-02,-1,-0.0025606029464081657,-0.001978733066772944,-0.008139386661695575,0.011987938481499904,0.985887143573079
2013-12-04,-1,-0.003442507962239485,-0.002771330328225901,-0.008139386661695575,0.00930090411881907,0.9880501690635043
2013-12-06,-1,-0.0019978562025029585,-0.001494290020812183,-0.008139386661695575,0.009435911538393845,0.9886269920815032
2013-12-10,-1,-0.0026875344688518533,-0.002119416600185789,-0.0014155956215850672,0.011987938481499904,0.9877318303952387
2013-12-12,-1,-0.002897965069006138,-0.0023164378839002795,-0.0014155956215850672,0.011987938481499904,0.988665894407199
2013-12-16,-1,-0.0018687677294950793,-0.0015188030063645916,-0.00019546968161966857,0.015992626503627046,0.9876878067586722
2013-12-18,-1,-0.0011931631512712851,-0.0009428085663474671,-0.0013244157107256652,0.01653982309157775,0.9878253896525716
2013-12-20,-1,-0.0004019144110659088,-0.00023476187330463482,-0.00304320657432604,0.016837562862737472,0.9873396164067704
2013-12-24,1,0.0006173861034116797,0.0006177729863145614,-0.008160917150538407,0.016837562862737472,0.9860929748817829
2013-12-27,1,0.0006135293642266781,0.0006263504148700319,-0.00818913551301878,0.016837562862737472,0.9865374496593694
2013-12-31,1,0.0006501336653970916,0.0006627050976208723,-0.00818913551301878,0.021548290157790764,0.9849954999466284
2014-01-03,1,0.0003166590121626055,0.0003443184189349018,-0.008337553304175837,0.021548290157790764,0.9834955318189299
2014-01-07,1,0.001572557704771939,0.0016934915847416857,-0.010383406973760495,0.016837562862737472,0.9843448876710404
2014-01-09,1,0.001977874126417081,0.0021071033342640196,-0.010383406973760495,0.016837562862737472,0.9845851638165599
2014-01-13,1,0.002081169891647916,0.002208192925365331,-0.010383406973760495,0.013040228107145446,0.9853907259327379
2014-01-15,1,0.00322302212321683,0.0035245161699007915,-0.010383406973760495,0.006254473129495907,0.9861267397811013
2014-01-17,1,0.0036066891453955807,0.003968448548214352,-0.010383406973760495,0.006651344906552251,0.9860587148205718
2014-01-22,1,0.003270696185966377,0.003474481047514441,-0.012849629423022764,0.006651344906552251,0.986297378108797
2014-01-24,1,0.0015278034786018603,0.0015802672385841438,-0.008083842135131615,0.006651344906552251,0.9877227839717305
2014-01-28,1,0.001830616752484093,0.001864816692254466,-0.007135446424316712,0.009674407666721322,0.9870808666541805
2014-01-30,1,0.0032575704141322385,0.0035825501203823108,-0.008327482083971455,0.006651344906552251,0.9876301268846235
2014-02-03,1,0.0024133105597524736,0.0027012007200080818,-0.00716133120885471,0.009674407666721322,0.9887825292987001
2014-02-05,1,0.0016471127105530435,0.0018236047978307571,-0.005186304231890284,0.012783346609697314,0.9889137048187171
2014-02-07,1,0.002432626924042089,0.002710664776622418,-0.007010399750744214,0.011679818151710306,0.9886965879517637
2014-02-11,1,0.0017548846198421814,0.001940583259552473,-0.009484607369932823,0.011679818151710306,0.9874574368322112
2014-02-13,1,0.0016463781105126632,0.0017631412538671545,-0.011911588689315302,0.012783346609697314,0.9863739239638568
2014-02-18,1,0.0021267068841092024,0.002270219561396811,-0.011911588689315302,0.012783346609697314,0.9864498188983618
2014-02-20,1,0.0019481610216038143,0.002098477660255526,-0.008442610456924031,0.011679818151710306,0.9876790078678943
2014-02-24,1,0.0015147421315632472,0.001616593388866532,-0.011911588689315302,0.011679818151710306,0.9873784747896354
2014-02-26,1,0.002053515441542121,0.0022220095366567074,-0.011911588689315302,0.011679818151710306,0.986875065514787
2014-02-28,1,0.0012347441560469378,0.0012791607373518663,-0.008442610456924031,0.011679818151710306,0.9878148594440799
2014-03-04,1,0.0010580726746934786,0.0010788127125645765,-0.0061239319775797905,0.011679818151710306,0.9876365791132496
2014-03-06,1,0.0023371259329987484,0.002549674355463596,-0.0061239319775797905,0.008314825946299146,0.9881477438833806
2014-03-10,1,0.002457085838427244,0.002735212772732039,-0.013054162764472053,0.006231911123436228,0.9873161658005324
2014-03-12,1,0.001207392722235606,0.001344752625833306,-0.0061239319775797905,0.009977207197588786,0.9863417122670504
2014-03-14,1,0.0013991558267958896,0.0015421530181573022,-0.01882312433409519,0.006231911123436228,0.9846485525872322
2014-03-18,1,0.0017616531584927677,0.0019532080057244974,-0.01882312433409519,0.006231911123436228,0.9832073539732573
2014-03-20,1,0.00023691312368388892,0.00035555978875690753,-0.01882312433409519,0.011142293680722445,0.9827338992265359
2014-03-24,-1,-0.0005512074630093526,-0.00034226917758981945,-0.006337256521262305,0.011142293680722445,0.9834159567683621
2014-03-26,1,0.0006391706572121699,0.0006955516860966763,-0.007913135294861873,0.008325076061689434,0.9848271062699362
2014-03-28,1,0.0004893839220103794,0.000559827447388508,-0.01882312433409519,0.011142293680722445,0.9829392231645276
2014-04-01,1,0.0016042231893790468,0.001720675764965793,-0.019891087036933756,0.007160580054237816,0.981026858667072
2014-04-03,1,0.001312565632489861,0.0013330865135321632,-0.019891087036933756,0.011142293680722445,0.980507485379483
2014-04-07,1,0.0005553005588885196,0.0005764924267537938,-0.01171029223573091,0.012163861801967229,0.9810850138509999
2014-04-09,1,0.0010495698702480435,0.001069657685066931,-0.010544798108586781,0.011142293680722445,0.9838347420582784
2014-04-11,-1,-0.0011433847519872666,-0.0008972041582120177,-0.00639693112469632,0.012163861801967229,0.9856737174322162
2014-04-15,1,0.0005004444402624676,0.0005450731911025846,-0.009242627764154958,0.011142293680722445,0.9877999095873509
2014-04-17,1,0.0010065880266831183,0.0010140133170598094,-0.009242627764154958,0.006013262359048557,0.9879681124799853
2014-04-22,1,0.0010228308479493316,0.0010231461670295594,-0.009583443671243055,0.005454166717508685,0.9873076331231384
2014-04-24,1,0.0005792684369335048,0.0006577559951693466,-0.009583443671243055,0.010066993019908668,0.9866995634316568
2014-04-28,0,-7.633904774192665e-05,9.40372903161994e-05,-0.009387878890297179,0.009972208050123093,0.9878747423072136
2014-04-30,-1,-0.0028685046920715693,-0.0023316895232175696,-0.009229739793462949,0.012437991669880195,0.9898706818706883
2014-05-02,-1,-0.0017219953674287845,-0.0013781194746438734,-0.009544779759167031,0.009972208050123093,0.9901215160255543
2014-05-06,-1,-0.0019181682366399024,-0.0015129562674805633,-0.009544779759167031,0.00883948578525156,0.9907626489789348
2014-05-08,-1,-0.0025546699135383126,-0.0020606513484142637,-0.008207726332402306,0.009505226005073957,0.9908128355823973
2014-05-12,-1,-0.002498049115701115,-0.0019956042438540158,-0.009544779759167031,0.00883948578525156,0.9901780244860353
2014-05-14,-1,-0.002747265907917704,-0.0022301789971305988,-0.008207726332402306,0.00883948578525156,0.9902112554620494
2014-05-16,-1,-0.002327325841756274,-0.001896292621715848,-0.006422984061291783,0.009358550123081047,0.99037304378358
2014-05-20,-1,-0.002583478690104254,-0.002141105866384963,-0.006422984061291783,0.009358550123081047,0.9898522454833899
2014-05-22,-1,-0.0023686164081962455,-0.001959265003998822,-0.00420497626191903,0.007578959532806967,0.9905557902785576
2014-05-27,-1,-0.0018513286093891255,-0.0014950562626077563,-0.005849498965492968,0.00619345222800479,0.9916132554847215
2014-05-29,-1,-0.00198208309024562,-0.0015970427529184718,-0.005457183100593417,0.00619345222800479,0.992222574955428
2014-06-02,-1,-0.001617765779838241,-0.001330721962156637,-0.00420497626191903,0.006449087144797395,0.9923362510956737
2014-06-04,-1,-0.0007070502859530218,-0.0005671931966073664,-0.00420497626191903,0.009415978608758594,0.9917832946057117
2014-06-06,-1,-0.00031441429188711626,-0.00023712788016159281,-0.005457183100593417,0.007045937518560721,0.9921536779516108
2014-06-10,-1,-0.0003971643663011096,-0.00036114845460631477,-0.0037369222791229376,0.005305844373118249,0.9936592923181623
2014-06-12,-1,-0.0002220589390031787,-0.00021616141381903078,-0.0019444923395299275,0.009415978608758594,0.9930189954458948
2014-06-16,1,0.0005282565510732148,0.0006850420205297286,-0.00585007221589368,0.006993025793097505,0.9920389308427736
2014-06-18,-1,-0.000733864755747507,-0.0006653277264417996,-0.00585007221589368,0.006993025793097505,0.9915961097183967
2014-06-20,-1,-0.0006046560233276538,-0.0005451191431141138,-0.006918958358957174,0.009727446820565044,0.9906392499824793
2014-06-24,-1,-0.0004969605751727085,-0.0004858470144823617,-0.00585007221589368,0.011390555224594543,0.9892005317145606
2014-06-26,-1,-0.0011213778050427662,-0.000973137603350018,-0.007516491400397047,0.0135481292316613,0.9884411782865794
2014-06-30,-1,-0.0011319937843036307,-0.0009514556666382247,-0.009773093230187714,0.0135481292316613,0.988383596616049
2014-07-02,1,0.0002831121254962338,0.00031322046904273235,-0.010837183648680077,0.0135481292316613,0.9873603854861905
2014-07-07,-1,-0.00037311945698330676,-0.00029163836733033216,-0.011937751430000794,0.015091322153358422,0.98624965381965
2014-07-09,-1,-0.00011548186984727178,-8.588419491649795e-05,-0.011937751430000794,0.015091322153358422,0.9859936532763445
2014-07-11,1,0.0009650855395569685,0.0011232075699856463,-0.014077405731141666,0.014135667045283514,0.9844537955800833
2014-07-15,-1,-0.00023901271816184088,-0.00022024362421635088,-0.010837183648680077,0.014135667045283514,0.9853931407567027
2014-07-17,-1,-0.0014806225773645932,-0.0012990483580775174,-0.009773093230187714,0.014135667045283514,0.9861424990118013
2014-07-21,-1,-0.0007767266857999244,-0.0007108675117241121,-0.009823912460725642,0.013533746241123325,0.9862604808324672
2014-07-23,1,0.000124177579185198,0.00013651165373033508,-0.009823912460725642,0.00891240044540445,0.9878834417370596
2014-07-25,1,0.00047875033850264454,0.0005554471134125256,-0.009823912460725642,0.008232752064569677,0.9884807170850017
2014-07-29,1,0.00037348071194295374,0.0004801227652334301,-0.006642624424976854,0.008232752064569677,0.9891238207867235
2014-07-31,1,6.511637634281983e-05,0.00012040862203197049,-0.005036627603368357,0.006285412691431564,0.9910261856332458
2014-08-04,-1,-0.0006179507233633689,-0.0005189061460376314,-0.005036627603368357,0.006285412691431564,0.9910409687600249
2014-08-06,-1,-0.00032611280342497806,-0.0002770076474931218,-0.007708088164824576,0.006285412691431564,0.9900272204041235
2014-08-08,-1,-0.0013017211057858688,-0.0011638394105960947,-0.007708088164824576,0.008232752064569677,0.9905981659883566
2014-08-12,-1,-0.0013088969422024627,-0.0011588244728078835,-0.007708088164824576,0.008232752064569677,0.9904502901290066
2014-08-14,-1,-0.0011108737043908766,-0.0009536780878324438,-0.007708088164824576,0.004788937686800314,0.9910885139122021
2014-08-18,-1,-0.0003281021746672139,-0.0003103166849424283,-0.007523345879314505,0.002989010667304809,0.9914578674596198
2014-08-20,-1,-0.00043916307608740657,-0.00040594753779816416,-0.009031095366502808,0.004788937686800314,0.990447737948208
2014-08-22,-1,-0.00012468649995812478,-6.393988990462105e-05,-0.007523345879314505,0.0030160861218928416,0.9909078647041417
2014-08-26,0,-1.1950133241852927e-06,9.771007391328753e-05,-0.009031095366502808,0.0030160861218928416,0.9903477148106904
2014-08-28,-1,-0.0008124118275366162,-0.0007449094763367179,-0.01027191363204848,0.0053262616358927565,0.9898047049609844
2014-09-02,1,0.00019876253691518148,0.0002972827605761912,-0.01027191363204848,0.0030160861218928416,0.9902465022869735
2014-09-04,-1,-0.0015921123184385114,-0.0013801069557147754,-0.009164873874195538,0.004395519185945981,0.9918428120227198
2014-09-08,-1,-0.0004492951919939587,-0.0004466867805523094,-0.008885924103853807,0.004395519185945981,0.9933790771416469
2014-09-10,1,0.00034933088450844963,0.0004913087047390288,-0.009164873874195538,0.002857871167020031,0.9918180335060333
2014-09-12,1,0.0005052822306759267,0.0006837969575176234,-0.009352235259483291,0.0010593260577682927,0.9910826229550538
2014-09-16,1,0.00023043353223900438,0.0003751085063920557,-0.012674161072312017,0.0010593260577682927,0.9903490950073179
2014-09-18,1,0.0003374334495873148,0.0004890208356816093,-0.012674161072312017,0.00021853647833571156,0.9910256275655526
2014-09-22,-1,-0.0013706903799165454,-0.0011866265979709953,-0.012674161072312017,0.0017149354927754273,0.9904495019053804
2014-09-24,-1,-0.0016939222594447288,-0.001504284684927065,-0.010928869331831566,0.006708677843079875,0.9879367266205763
2014-09-26,-1,-0.0016671831491551488,-0.001505427475902809,-0.00951629305826675,0.02133858878695652,0.9862793542558784
2014-09-30,-1,-0.002632012863861574,-0.0023370175371511988,-0.007835343527011682,0.02133858878695652,0.985742195224965
2014-10-02,-1,-0.0021514282565693113,-0.0019360979776716256,-0.007835343527011682,0.02133858878695652,0.9858449723853345
2014-10-06,-1,-0.0020465056104115743,-0.0018242970944202924,-0.007835343527011682,0.02133858878695652,0.9857659560982618
2014-10-08,-1,-0.001181559771736733,-0.0010642994201795642,-0.005720967839022306,0.011628114487986053,0.9876506716451314
2014-10-10,-1,-0.0022128834683295966,-0.0019494154049312646,-0.005720967839022306,0.011628114487986053,0.9877745971071837
2014-10-14,-1,-0.003268279607338975,-0.002894330736863116,-0.002982360147268468,0.017172812634700087,0.9877291091054379
2014-10-16,-1,-0.0029975620551550546,-0.0027015424238437773,-0.0007434937252837926,0.017172812634700087,0.9880905431631967
2014-10-20,-1,-0.0021646233354031823,-0.001977284810195615,-0.0007434937252837926,0.010316332199001556,0.9895562454431281
2014-10-22,1,0.00015286847961693968,0.00023107766274229954,-0.002982360147268468,0.008414714955251073,0.9903167387435098
2014-10-24,1,0.002449037414171365,0.0028619897257931596,-0.0031877806745756313,0.005856061144678529,0.9922422077966303
2014-10-28,1,0.003165417693212479,0.00368579461114109,-0.004121179475940496,0.003602855682067603,0.9906703098697786
2014-10-30,1,0.0026147173190981207,0.0030111633677183257,-0.0037684226961242073,0.0048326020752085756,0.9909075192670627
2014-11-03,1,0.002834099552931938,0.0032504114522502263,-0.0037684226961242073,0.004080137220246058,0.9910105018946589
2014-11-05,1,0.003099946535451173,0.003571570461835118,-0.005161481143709677,0.004080137220246058,0.9899686506773999
2014-11-07,1,0.0023612134377573135,0.002682830514473232,-0.0037684226961242073,0.005444850429222256,0.9904269144068746
2014-11-11,1,0.0028954285283381083,0.00329751992867571,-0.0055897775626954326,0.005444850429222256,0.9891870254807387
2014-11-13,1,0.0025854961423717833,0.0029195740294077456,-0.0055897775626954326,0.007929433807891002,0.9882658528829824
2014-11-17,1,0.0025251617786516255,0.0028575645787884347,-0.011867560129901865,0.008943328457042165,0.987321867728371
2014-11-19,1,0.001888289612929046,0.002159355484757314,-0.0055897775626954326,0.008943328457042165,0.9894906665077003
2014-11-21,1,0.0019972087227701028,0.0023468853392333566,-0.004989892202708955,0.008943328457042165,0.9895277175419016
2014-11-25,1,0.0016021009149650304,0.0018800209595718625,-0.0038236590108341956,0.007929433807891002,0.9907974954795645
2014-11-28,1,0.0016342273454533632,0.0019164719695242377,-0.00324062995043211,0.007929433807891002,0.9910210029985591
2014-12-02,1,0.0022523141376440134,0.002663638182940265,-0.004925585552938643,0.008943328457042165,0.990434423600393
2014-12-04,1,0.0011045903576442323,0.0012869112257324813,-0.00324062995043211,0.01027462408126056,0.9890169157484828
2014-12-08,1,0.0009273594738150215,0.001016749078983884,-0.004842989228724257,0.010866207679620116,0.9878598239468628
2014-12-10,1,7.110221522929403e-05,7.882596550416504e-05,-0.00324062995043211,0.013397330391333787,0.9875269548390129
2014-12-12,1,0.001954705282772991,0.0022777247923072555,-0.004955343028885283,0.010866207679620116,0.9889117094097747
2014-12-16,1,0.001984011617436824,0.002327869934230558,-0.004955343028885283,0.006699600896213994,0.9894019439926866
2014-12-18,1,0.0025314877262289947,0.002909158243334324,-0.006106544067438232,0.006640428793960228,0.9893648275676019
2014-12-22,1,0.0019259646911037737,0.00220472030488706,-0.004955343028885283,0.01050712422104367,0.9883344620035943
2014-12-24,1,0.002001281455113621,0.0022938522758717272,-0.005622257778473503,0.01050712422104367,0.9880711521769108
2014-12-29,1,0.0023118605742526617,0.0026511090301522414,-0.008217792247407497,0.01050712422104367,0.9868010924025856
2014-12-31,1,0.001465659420055491,0.0015975678445491626,-0.006512427665270564,0.012316725108876126,0.98674180986437
2015-01-05,1,0.002991321592765006,0.003328386550606225,-0.008221546401508809,0.00868522251299838,0.9881352419713463
2015-01-07,1,0.003760712330469082,0.0042330787281566985,-0.006768687534614619,0.010702525355055515,0.9884131502471434
2015-01-09,1,0.005370570612640218,0.0060595074338834504,-0.010908128622837576,0.00868522251299838,0.986969489836998
2015-01-13,1,0.00471242932595551,0.0053003565429879705,-0.010908128622837576,0.010702525355055515,0.9868375683520263
2015-01-15,1,0.003885589972328668,0.004338036484580914,-0.009677260800061777,0.012593283566476453,0.9871611095223513
2015-01-20,1,0.003502121329441557,0.003891692695929668,-0.009677260800061777,0.016666767584204944,0.9827694691284358
2015-01-22,1,0.0036057053390837154,0.004007604137927435,-0.011008383803375425,0.012593283566476453,0.9834399170897108
2015-01-26,1,0.003779887102409141,0.004231721058877567,-0.011008383803375425,0.016666767584204944,0.982719960434673
2015-01-28,1,0.0025455803294018005,0.002781841353224712,-0.009561825488647351,0.017877954012323165,0.9831735916733806
2015-01-30,1,0.0028744812151003103,0.0031593300523393994,-0.009561825488647351,0.016724281146723155,0.9837673403421918
2015-02-03,1,0.0026629860044807435,0.002939256443865491,-0.009561825488647351,0.016724281146723155,0.983519712165831
2015-02-05,1,0.00336892115916013,0.0037311563995183865,-0.010733203136597862,0.012300997359378382,0.9831044236087746
2015-02-09,1,0.001813589480386749,0.0019424335711034067,-0.009561825488647351,0.012300997359378382,0.9848890729036774
2015-02-11,1,0.001985628890758374,0.002143184981258121,-0.009437971401729379,0.012300997359378382,0.9850913175090078
2015-02-13,1,0.002405356980601479,0.0026030140507810155,-0.009996815761618674,0.012553051966162382,0.9835827681782918
2015-02-18,1,0.0043214805603427565,0.004743230498821442,-0.009996815761618674,0.012553051966162382,0.9877976495975487
2015-02-20,1,0.0036710179094391737,0.003978553083204682,-0.006861296954073536,0.012553051966162382,0.9885725451982754
2015-02-24,1,0.003411146291928015,0.003643897356453283,-0.006518286474648266,0.009988296539706261,0.9891467431312387
2015-02-26,1,0.0035334396071146803,0.003774298972783247,-0.008967784323342862,0.009536636363258445,0.988890482317625
2015-03-02,1,0.003741434503108606,0.0040086025664583,-0.008967784323342862,0.011405540071130045,0.9878273123100326
2015-03-04,1,0.003263035501996619,0.0034873768242098717,-0.008967784323342862,0.011405540071130045,0.9874861695002785
2015-03-06,1,0.0023735846975147645,0.002440359629169391,-0.0063110137031564244,0.010673265555912394,0.9888590264385537
2015-03-10,1,0.0013067043778767953,0.0014216544526587784,-0.004833110255797463,0.011844429878561803,0.9888716559294733
2015-03-12,1,0.0016339034584645562,0.0017335126355686602,-0.004833110255797463,0.011413932394123222,0.9895806321143489
2015-03-16,1,0.0021259987681596223,0.002155513624821299,-0.004833110255797463,0.009786989665061223,0.9911297242389852
2015-03-18,1,0.003271173290571725,0.0034854216309147036,-0.004833110255797463,0.0078278510943316,0.9919306453548729
2015-03-20,1,0.0038169253596156334,0.0041736855804159765,-0.0063110137031564244,0.008712063880684302,0.9909012724953976
2015-03-24,1,0.00378631881213582,0.004155292536273669,-0.004833110255797463,0.008692415622381142,0.9915034904954768
2015-03-26,1,0.003012583495099419,0.0032679324558579797,-0.0027787356341479196,0.008692415622381142,0.992256486752026
2015-03-30,1,0.0038533246695378965,0.004221975279104869,-0.007078616720603949,0.0066106856054546905,0.9917628086559899
2015-04-01,1,0.0031226450874604905,0.0033882123505182354,-0.005510844847940814,0.006944194284917672,0.9921830702423641
2015-04-06,1,0.0028957480841231447,0.0031108588151131686,-0.00562051919127552,0.007838910183099523,0.9918539416149347
2015-04-08,1,0.0031849329660926127,0.003448056631713355,-0.009613805422394772,0.006944194284917672,0.9904801087456832
2015-04-10,1,0.0032465307401262408,0.0035092423269188597,-0.009613805422394772,0.006944194284917672,0.9897677236020332
2015-04-14,1,0.002696157991629066,0.0028753807267411884,-0.009613805422394772,0.006944194284917672,0.9899218504778402
2015-04-16,1,0.002413563158828457,0.00252745370514994,-0.009613805422394772,0.00692066324365018,0.9883706180394979
2015-04-20,1,0.0021198728987586526,0.002162874415716173,-0.007455785040212698,0.00692066324365018,0.9888988970330639
2015-04-22,1,0.0020880550707389487,0.0021082504394799558,-0.008048274379657995,0.0044646853831281945,0.9887443849279082
2015-04-24,1,0.0017153525116380846,0.001749937066723493,-0.008048274379657995,0.0044646853831281945,0.9886708211137089
2015-04-28,1,0.000625623361565077,0.0007881916936004331,-0.006322466293342795,0.008859965366001081,0.9900189707757097
2015-04-30,1,0.0002704269511778378,0.0004953093372830935,-0.004896459415579179,0.008859965366001081,0.9904634940585567
2015-05-04,1,0.00028969534923689783,0.0005037764698210457,-0.006322466293342795,0.011918585123801112,0.9898347025272708
2015-05-06,-1,-0.0012333903262040414,-0.0008062284958418229,-0.006322466293342795,0.011918585123801112,0.990837288070774
2015-05-08,-1,-0.0006557489746248342,-0.0003300699352987754,-0.006519962739824562,0.005432915041422825,0.9914302634390124
2015-05-12,-1,-0.0013036523713344781,-0.0008936530184498952,-0.006519962739824562,0.011918585123801112,0.9903773092479268
2015-05-14,0,-0.00020555061624611456,5.412572654883447e-05,-0.007895590350547214,0.005900564475611163,0.9912701220185083
2015-05-18,-1,-0.00042451130111827184,-0.0001151944483382746,-0.009007496765953391,0.005981840071831034,0.9909500484779609
2015-05-20,-1,-0.0007712005728682061,-0.0004149907300149871,-0.009007496765953391,0.012162411912460725,0.9903000626937761
2015-05-22,-1,-0.0011318554444490108,-0.0007335782148459912,-0.010196680347261677,0.012162411912460725,0.9900480310522569
2015-05-27,-1,-0.0011056723727486445,-0.0007061134974576419,-0.010196680347261677,0.005981840071831034,0.9905927465688241
2015-05-29,-1,-0.0002882967940515004,-2.875340449165736e-05,-0.010196680347261677,0.005981840071831034,0.9901648596330918
2015-06-02,0,-0.00022861591840850673,2.151821682077888e-06,-0.010196680347261677,0.003501896337614115,0.9903183398782753
2015-06-04,-1,-0.000275479545708621,-8.741321526125137e-05,-0.010196680347261677,0.004371808656078723,0.9904066582991811
2015-06-08,-1,-0.0008921016902563323,-0.0006138792102832099,-0.010196680347261677,0.007259662478507526,0.9902656552696073
2015-06-10,-1,-0.0011458607313222123,-0.0008223607292736801,-0.010196680347261677,0.004371808656078723,0.9911754554257569
2015-06-12,-1,-0.0015175958422908669,-0.001150013840925518,-0.008256941207548055,0.006386214872597523,0.9912639602677408
2015-06-16,-1,-0.0009988639155640352,-0.0007394618826887246,-0.007995595645710701,0.006386214872597523,0.9914047649138941
2015-06-18,-1,-0.0004815744141384187,-0.00028352230879701186,-0.007995595645710701,0.006386214872597523,0.9920858330845717
2015-06-22,-1,-0.0011378942226154328,-0.0008316083064476607,-0.006953416390386664,0.006386214872597523,0.9922877249158448
2015-06-24,-1,-0.0009839281352340633,-0.0007110198926006517,-0.007995595645710701,0.00954907887751335,0.9906684342298231
2015-06-26,-1,-0.0010895512881725377,-0.0007870358908781387,-0.013240112058807752,0.006386214872597523,0.9905410398059328
2015-06-30,-1,-0.0013002043170185662,-0.001002853475951019,-0.011368560295583892,0.00954907887751335,0.989828659713988
2015-07-02,-1,-0.0021749818284796463,-0.0017262892681519394,-0.009420394910616438,0.00954907887751335,0.9902840134312163
2015-07-07,-1,-0.00188918735053751,-0.0014801304470991442,-0.011454255174008127,0.006062041688048096,0.9904788650361377
2015-07-09,-1,-0.0021240915035018763,-0.0017106437061274397,-0.011454255174008127,0.00954907887751335,0.9890618989825449
2015-07-13,-1,-0.0009657959827789,-0.0007564496444388436,-0.011454255174008127,0.007015154263436997,0.9891434523820586
2015-07-15,-1,-0.00119730187834413,-0.0009369270678782717,-0.011538783956548964,0.006392631243608148,0.98923404130889
2015-07-17,-1,-0.0007006754358798294,-0.0005105847948886513,-0.011538783956548964,0.006392631243608148,0.9890630810109549
2015-07-21,-1,-0.0008785876503790744,-0.0006851146147877254,-0.011538783956548964,0.008503651148183983,0.9890982123210412
2015-07-23,-1,-0.0009399525228691732,-0.0007605497117209892,-0.011858118277605958,0.005921073451547924,0.9890693975475886
2015-07-27,-1,-0.002619626186801343,-0.0022032655712801623,-0.011858118277605958,0.005921073451547924,0.9877738356284492
2015-07-29,-1,-0.0021841973471419716,-0.0018085147143566435,-0.011858118277605958,0.005921073451547924,0.9873432233052443
2015-07-31,-1,-0.002387588525472769,-0.001971664774222631,-0.011858118277605958,0.008503651148183983,0.985554482870397
2015-08-04,-1,-0.002435764348755404,-0.002057025754040899,-0.015444244777949435,0.008503651148183983,0.9835187053925055
2015-08-06,-1,-0.001293932460448584,-0.0010847068772772256,-0.013375132002165776,0.008503651148183983,0.9842221703020033
2015-08-10,-1,-0.0008148137387585538,-0.0007128543336083067,-0.0179909751204515,0.010047443468284813,0.9816803016486695
2015-08-12,-1,-0.0007529510356990815,-0.0006664894112068782,-0.018992401681501084,0.009373651974383137,0.9813344461005625
2015-08-14,-1,-0.0004861209317763122,-0.0004308470633999303,-0.018992401681501084,0.00827905398355009,0.9812052793288548
2015-08-18,-1,-0.0006790729821362899,-0.000564507868465748,-0.018992401681501084,0.01199508326587485,0.9805143679930087
2015-08-20,-1,-0.001293316388180012,-0.0011673997771355707,-0.018992401681501084,0.01199508326587485,0.9807950759314018
2015-08-24,-1,-0.0037481295352834194,-0.003299802238308441,-0.012011580398104692,0.01199508326587485,0.9829455148797641
2015-08-26,-1,-0.0024721806779902386,-0.0021786652841252305,-0.012011580398104692,0.009786111599663368,0.9841914034571181
2015-08-28,-1,-0.0007682727246627797,-0.0006946212190106139,-0.018992401681501084,0.007171493136677673,0.9839916759867646
2015-09-01,-1,-0.0025064948632749764,-0.0022523968258778243,-0.012011580398104692,0.009786111599663368,0.9847641547217981
2015-09-03,-1,-0.001651122641638025,-0.0014804822591285923,-0.012011580398104692,0.012508648886324802,0.9847735018045026
2015-09-08,-1,-0.00038066105540877486,-0.00037464856102772275,-0.012345389251787887,0.009786111599663368,0.9860453484464914
2015-09-10,-1,-0.000596651163119878,-0.0005820688604554184,-0.009646656492060661,0.012508648886324802,0.9865447647626349
2015-09-14,-1,-0.0004021765997527666,-0.00036721923449878726,-0.0038851816012653475,0.012508648886324802,0.9869025877136581
2015-09-16,1,0.0003037561107457665,0.00042714806448217597,-0.01072478991484448,0.009670078931404603,0.9873940225091837
2015-09-18,-1,-0.0009254519204685835,-0.0008377653891977784,-0.00567992899260259,0.012327563794849353,0.9875063918059573
2015-09-22,-1,-0.0011911334384337704,-0.0010803669094882945,-0.0023836593886634103,0.012327563794849353,0.9874803627302517
2015-09-24,-1,-0.0005721204926223784,-0.000541057364412308,-0.00623724981202887,0.011817530183072236,0.9862505108930654
2015-09-28,-1,-0.0031183365907142225,-0.0027380345617608348,-0.001785917060183993,0.013237423867374216,0.9868295643746039
2015-09-30,-1,-0.0016715559094324624,-0.0014828198601559493,-0.001785917060183993,0.013237423867374216,0.9842330944526448
2015-10-02,-1,-0.000803227515096446,-0.0006936476790872971,-0.0023908553062258007,0.009500067727478897,0.9852461594849934
2015-10-06,-1,-0.0007320213634498121,-0.0006937975644254026,-0.0023908553062258007,0.011817530183072236,0.9850463848960352
2015-10-08,-1,-8.63693400953328e-05,-2.6354058400228418e-05,-0.0023908553062258007,0.011817530183072236,0.9853570024609823
2015-10-12,1,0.00017086055691585325,0.00025862283201020587,-0.008854355825552183,0.011817530183072236,0.9849296862667926
2015-10-14,-1,-0.00043319393029938745,-0.00042725646353042454,-0.008854355825552183,0.011817530183072236,0.9829843883541111
2015-10-16,1,0.0004947443422101412,0.0006269564430658602,-0.010577001642997744,0.0082132599841052,0.9829498350180049
2015-10-20,1,0.0009980499910111128,0.001227027300136258,-0.010577001642997744,0.01175609115630774,0.982104146846163
2015-10-22,-1,-0.0002508464307266715,-0.00018206978227721125,-0.010084987867900732,0.01175609115630774,0.9834759230076815
2015-10-26,0,-7.663816369030303e-06,5.7526601982837755e-05,-0.010084987867900732,0.012936861366858439,0.983165329994248
2015-10-28,1,0.00280632231183632,0.003222956065188719,-0.010084987867900732,0.012333670168013828,0.9875047294119884
2015-10-30,1,0.0026087245895108683,0.0030020052671750987,-0.00928293272364555,0.012333670168013828,0.9878027847050925
2015-11-03,1,0.003004396120406482,0.0034289361879096883,-0.008590580344095506,0.012333670168013828,0.9888880479513573
2015-11-05,1,0.003371218405278694,0.0038433621400463173,-0.009293661423530702,0.012333670168013828,0.9872883216560469
2015-11-09,1,0.0031466506962764245,0.0036312991080436506,-0.008585667813623127,0.012333670168013828,0.9883187653761397
2015-11-11,1,0.0020846244310475494,0.0024141623494633472,-0.008585667813623127,0.012333670168013828,0.9897845680283166
2015-11-13,1,0.001291985277937728,0.001521186325549943,-0.006564961070022059,0.012935302596208674,0.9895509396743501
2015-11-17,1,0.0015558416748457538,0.0018355181725233077,-0.0035306847174791495,0.012935302596208674,0.9895553418689879
2015-11-19,1,0.0012897057299429973,0.0014954768652175859,-0.007791561002748756,0.012935302596208674,0.9884645247078641
2015-11-23,1,0.00192947403915774,0.0022054300018234424,-0.007791561002748756,0.012069834757725838,0.9890853817333469
2015-11-25,1,0.0025359597111398796,0.002912629537750214,-0.007791561002748756,0.012313442730319342,0.9889775832651414
2015-11-30,1,0.0020367692689376472,0.00231098911440038,-0.007791561002748756,0.012313442730319342,0.9892435805498183
2015-12-02,1,0.0023965032561123626,0.0027387247526508467,-0.010188050909956975,0.011852806294809112,0.9891722131143533
2015-12-04,1,0.002585019111608125,0.002956884887999452,-0.010188050909956975,0.010868561693109298,0.9897149784888291
2015-12-08,1,0.003078157903868719,0.003534682239923148,-0.013718289420735334,0.010868561693109298,0.9881578952874107
2015-12-10,1,0.002383723097516442,0.002727941881896806,-0.015425775687132274,0.010868561693109298,0.9876612898080971
2015-12-14,1,0.0021903888746333112,0.0024932796687743984,-0.01382572520529651,0.010868561693109298,0.9868488282877698
2015-12-16,1,0.002394839749704657,0.0026697742299633684,-0.015115110486954022,0.005938875633774414,0.9853448868271197
2015-12-18,1,0.001424706105169558,0.001591048578579364,-0.014110391214333193,0.005938875633774414,0.9865898632444651
2015-12-22,1,0.0018577686836583293,0.002080702419527932,-0.014110391214333193,0.0034954893217419014,0.9862845532868233
2015-12-24,1,0.0018877574438154383,0.0020855125447678726,-0.016173825374358203,0.0006856922480699648,0.9854840921671767
2015-12-29,1,0.002146289014506159,0.0024102287497574917,-0.01689392429512472,-0.0009954977950777676,0.9839369735341683
2015-12-31,1,0.001526903230031425,0.0016966066975735651,-0.01689392429512472,0.012049804379510549,0.9826315115485512
2016-01-05,1,0.0010345996272553308,0.001135257135507035,-0.016173825374358203,0.004983840867737057,0.9839796306530894
2016-01-07,1,0.00023061327599685193,0.00023552613061809962,-0.01689392429512472,0.004983840867737057,0.9826429047020995
2016-01-11,-1,-0.0005814871504092728,-0.0005022932540454772,-0.01707277031356704,0.017377565546803496,0.9803344334098829
2016-01-13,-1,-0.0005568671299817753,-0.0004187015262753956,-0.018091121539437788,0.006351561578910036,0.9817396678863177
2016-01-15,-1,-0.0012180848209346036,-0.0009065632577038175,-0.018091121539437788,0.006842803998273623,0.9826563997847898
2016-01-20,-1,-0.0012729755090573635,-0.0010048489021178475,-0.018960912387919707,0.017377565546803496,0.9812961797815817
2016-01-22,0,-1.3194587160417898e-05,4.9373266998483615e-05,-0.018960912387919707,0.009362067365802848,0.9815085630130173
2016-01-26,-1,-0.002066775369316429,-0.0016713545710620023,-0.018960912387919707,0.009362067365802848,0.9827637257512217
2016-01-28,-1,-0.002524785174108344,-0.0021158110045426714,-0.009786948853265061,0.009362067365802848,0.9835939931604268
2016-02-01,-1,-0.00022723388682040593,-0.00012451244598913572,-0.015046865779005937,0.005372201942516686,0.9849837427299297
2016-02-03,-1,-0.000770434130739759,-0.0005874127272883689,-0.015046865779005937,0.0065483686701033605,0.9848552760517731
2016-02-05,-1,-0.002942194399031729,-0.0024999056596329006,-0.006318299343355061,0.0065483686701033605,0.987050620382503
2016-02-09,-1,-0.001942986815622415,-0.001653149513410604,-0.0037557761485453177,0.005372201942516686,0.9908627045509327
2016-02-11,-1,-0.0029604585942077793,-0.002517563761240138,-0.0015953921550994697,0.0065483686701033605,0.9896248781851208
2016-02-16,-1,-0.0020618761244888956,-0.001704136328715359,-0.0037557761485453177,0.005372201942516686,0.9910654806130359
2016-02-18,-1,-0.0017275221483889509,-0.001429863710392568,-0.0015953921550994697,0.005044725325030456,0.9931189589623987
2016-02-22,-1,-0.0027021583339773246,-0.0022064283768025474,-0.0011272338789539333,0.005044725325030456,0.9924296788054098
2016-02-24,-1,-0.00203194882252317,-0.0016627683339902456,-0.0024143836778960114,0.005917341274631486,0.9923099013240831
2016-02-26,-1,-0.0016981690905095827,-0.001415036533657629,-0.0024143836778960114,0.0067789750341326425,0.9917785619049028
2016-03-01,-1,-0.0021234533973091335,-0.0017567753876268442,-0.0006930967773476143,0.009017986912335442,0.9906581287222529
2016-03-03,-1,-0.0015714802934028906,-0.0012879188418382847,-0.0006930967773476143,0.007668274962035907,0.9911588374172677
2016-03-07,-1,-0.0016038851055943113,-0.0013285861368653902,-0.0006930967773476143,0.010103656146001203,0.9894007782532809
2016-03-09,-1,-0.0017984892794024807,-0.0014737754284105146,-0.0026144819079294236,0.011586416437653138,0.988080186434334
2016-03-11,-1,-0.00023235612733345598,-0.0001267141472687895,-0.007143349895076628,0.010103656146001203,0.9899340352636872
2016-03-15,-1,-0.0004195913676967037,-0.0003006872209360727,-0.0026144819079294236,0.011313730696914336,0.9897340091277982
2016-03-17,-1,-0.001273207432329308,-0.000987181262547142,-0.0052296332039290724,0.011313730696914336,0.9895216873051645
2016-03-21,-1,-0.0007416078868772656,-0.0005403210885865495,-0.0052296332039290724,0.011070324501690564,0.9896102882615121
2016-03-23,1,0.0009500111365129917,0.001113032702501761,-0.003440953133287397,0.011070324501690564,0.9904222704175025
2016-03-28,1,0.0006779357023272768,0.0007942557917887825,-0.0015298488591495624,0.011070324501690564,0.9908454923865769
2016-03-30,1,0.002093583503793316,0.0024311139651931315,-0.0026630190824161815,0.009076488837256712,0.9876895144079153
2016-04-01,1,0.0021228015490233946,0.0024757289389348894,-0.002819066969650433,0.009076488837256712,0.9877181389171281
2016-04-05,1,0.0021535527718637374,0.0024834854885778307,-0.002819066969650433,0.00764675957151902,0.9891559192908572
2016-04-07,1,0.0020123216925211403,0.002279180176252452,-0.0025849054072077326,0.004917841843563147,0.9906595250470505
2016-04-11,1,0.001412905512794726,0.0015564740386061764,-0.0013997192215296963,0.00764675957151902,0.9906357140928597
2016-04-13,1,0.0018884286948564002,0.002097826648216316,-0.0025849054072077326,0.004340363397469945,0.9909091107871799
2016-04-15,1,0.0017033786224775996,0.001888443149414948,-0.001395822425488325,0.005914324233239412,0.9907009917660283
2016-04-19,1,0.002267873613050115,0.0025644908195373997,-0.0025849054072077326,0.005914324233239412,0.9896951352960363
2016-04-21,1,0.0023080247528097725,0.002630539274006774,-0.0025849054072077326,0.005914324233239412,0.9895949367934547
2016-04-25,1,0.002344165833818415,0.002660693431775603,-0.0025849054072077326,0.006000157605381495,0.9895994960667214
2016-04-27,1,0.004726888907268004,0.005365802160253539,-0.0034016193484060664,0.005645565419603564,0.9934217852833326
2016-04-29,1,0.00465408147007274,0.005286510520871646,-0.0020181999029140604,0.00759522555160474,0.9935777914527352
2016-05-03,1,0.004526995349454447,0.005155105710483079,-0.0005679853422398152,0.00759522555160474,0.9941573059774622
2016-05-05,1,0.004242191261759165,0.004804837421491773,-0.0020181999029140604,0.007957457644343588,0.9935817786286278
2016-05-09,1,0.004427367339664162,0.005005233405249271,-0.005301976000653648,0.00759522555160474,0.9930143198037586
2016-05-11,1,0.0045524242964504365,0.00518065171234402,-0.0029634023414748514,0.007957457644343588,0.9926616424639966
2016-05-13,1,0.004287995958049457,0.004821284808756201,-0.005301976000653648,0.00759522555160474,0.9920958797117597
2016-05-17,1,0.004289054830659309,0.0048407072300985475,-0.005301976000653648,0.007532286474405271,0.9928041252527507
2016-05-19,1,0.00419359159981653,0.004745706082622436,-0.005373440423613826,0.007532286474405271,0.9924730026419656
2016-05-23,1,0.004266499058796053,0.004824481983864044,-0.005373440423613826,0.007532286474405271,0.9919376252896211
2016-05-25,1,0.0039066960826623365,0.004387875812580487,-0.004613957911328234,0.007532286474405271,0.9918095442656728
2016-05-27,1,0.0036805108317358413,0.0041064136775236714,-0.0063182279321524195,0.006195991568123554,0.9896522889757786
2016-06-01,1,0.0032903216378128972,0.0036141267987090243,-0.0063182279321524195,0.01266716848711394,0.9881008328164689
2016-06-03,1,0.0028371514840197436,0.0030497370988837405,-0.005373440423613826,0.0139511926738347,0.9885662500003642
2016-06-07,1,0.0026761881724241404,0.002901662365986559,-0.004941523362748135,0.015042484967296798,0.9882553859447558
2016-06-09,1,0.0036494986835256937,0.0040158083724786305,-0.004941523362748135,0.0139511926738347,0.9887020715435932
2016-06-13,1,0.0027461749494691293,0.002961302142373204,-0.005446752512461829,0.0139511926738347,0.989162810362078
2016-06-15,1,0.0026452329903374227,0.0028638638333240217,-0.004883978441308898,0.0139511926738347,0.9894575500930395
2016-06-17,1,0.0017835764054421844,0.0018424245008042358,-0.004883978441308898,0.0139511926738347,0.9898159034051277
2016-06-21,1,0.0014840163906951215,0.0015104957461009496,-0.004883978441308898,0.0139511926738347,0.9895600445949178
2016-06-23,1,0.002242239877225564,0.0023901873801655486,-0.005446752512461829,0.011298609215971521,0.9895323276173182
2016-06-27,1,0.0008879289755286165,0.0009305917768477932,-0.004883978441308898,0.01255156016228768,0.9908726362099469
2016-06-29,1,0.0008628469519052303,0.000980165516217501,-0.005446752512461829,0.010561343158463753,0.9910741551028329
2016-07-01,1,0.001185855241813865,0.0012455641912716307,-0.005446752512461829,0.007943050336837374,0.9912801177091504
2016-07-06,1,0.0009911861355256105,0.0011075850058449737,-0.00860716949906459,0.006563321472753137,0.9910522436587184
2016-07-08,1,0.001406384397396231,0.0014341260699744617,-0.00860716949906459,0.006563321472753137,0.9908022355377631
2016-07-12,1,0.0009532264295202188,0.0010351587655575464,-0.009558637187698699,0.008233765183582285,0.9905047908278545
2016-07-14,1,0.00090290781243636,0.0009962627910264663,-0.01067462506905252,0.008233765183582285,0.9901663730615815
2016-07-18,1,0.0005237847555416843,0.000662472536675249,-0.01067462506905252,0.008233765183582285,0.9906012267561426
2016-07-20,1,0.0008522523663900784,0.0009655160706517456,-0.01067462506905252,0.00405598584437757,0.9916082997378656
2016-07-22,1,0.00028730265997277155,0.0004718022073603176,-0.009558637187698699,0.006824593600918922,0.9919610730162678
2016-07-26,1,0.0002657826060195552,0.00044823264314384755,-0.005789528913258237,0.00405598584437757,0.992836291142903
2016-07-28,1,0.0003318358646817532,0.0005230051684018528,-0.005789528913258237,0.003992690542817247,0.9936354414262608
2016-08-01,1,0.00023983256997010078,0.00044457258158458026,-0.005789528913258237,0.006547025063522577,0.9930177515898835
2016-08-03,0,-6.827134233548283e-05,0.0001374942907848138,-0.003820737069546413,0.006547025063522577,0.9932393747836944
2016-08-05,0,-9.381866128540031e-05,0.0001302847488131838,-0.003820737069546413,0.006547025063522577,0.9926719152124904
2016-08-09,-1,-0.0002847968644286356,-3.3084834612857514e-05,-0.0030837479639100537,0.003992690542817247,0.9934534473602346
2016-08-11,-1,-0.0006393375956022181,-0.0003507077844712781,-0.0030837479639100537,0.003992690542817247,0.9918691797954577
2016-08-15,-1,-0.0007238103929602943,-0.00041339036677769613,-0.003820737069546413,0.006547025063522577,0.9906327929374168
2016-08-17,-1,-0.0011205731853171912,-0.0007473464616213749,-0.004389988260803522,0.008501601511101171,0.9894607091754145
2016-08-19,-1,-0.0004064252573964327,-0.00016762938271713628,-0.0054225624275151246,0.006547025063522577,0.9898239553286896
2016-08-23,-1,-0.0005648651874026883,-0.00030868030912793503,-0.006963379723671449,0.008862542187092625,0.9886125421875178
2016-08-25,-1,-0.0008940046886531703,-0.0006066383736402152,-0.0054225624275151246,0.008862542187092625,0.9898204899136862
2016-08-29,-1,-0.00042669468731661294,-0.0001957501862372554,-0.0054225624275151246,0.0029860762381580977,0.9908921738228029
2016-08-31,-1,-0.001175507837213898,-0.0008444310844585168,-0.0054225624275151246,0.0029860762381580977,0.990735571327616
2016-09-02,-1,-0.0006021080305522433,-0.000355095852668575,-0.006963379723671449,0.0029860762381580977,0.9903434935027879
2016-09-07,-1,-0.0007057132574917384,-0.00043423232855766187,-0.008720706221401755,0.003761569121214001,0.9899256620558381
2016-09-09,-1,-0.0016227687758824355,-0.0012525336800176736,-0.006963379723671449,0.003211308319386186,0.9916570713985332
2016-09-13,-1,-0.0020703209561140873,-0.0016399003399620627,-0.006963379723671449,0.003211308319386186,0.991209742095699
2016-09-15,-1,-0.0017289718508407075,-0.0013409305413664007,-0.005937119405947445,0.0014820842559380458,0.9925431629866823
2016-09-19,-1,-0.0007057164868045982,-0.0005257156949722504,-0.008540102885008593,0.0014820842559380458,0.9923668997101115
2016-09-21,-1,-0.0004435349178992089,-0.0002949516087813119,-0.00881986289952231,0.0014820842559380458,0.9924970248284327
2016-09-23,-1,-0.0006833215853570456,-0.0004938066324084436,-0.00881986289952231,0.003130870149142452,0.9918345588876134
2016-09-27,-1,-0.000737723120200666,-0.0005417131258031341,-0.009724541780631502,0.006201967882139181,0.9904612440640189
2016-09-29,-1,-0.0011015712671494223,-0.0008836324337421743,-0.011261113888464694,0.006201967882139181,0.9894638957061144
2016-10-03,-1,-0.0009993513853522548,-0.0007811368763582033,-0.009724541780631502,0.006201967882139181,0.9895553545329447
2016-10-05,-1,-0.0008961616570629143,-0.0007097889091617156,-0.011405326246489825,0.003130870149142452,0.9894866718876562
2016-10-07,-1,-0.0008977149547405607,-0.0007080508658605948,-0.011405326246489825,0.002226710755447013,0.9894850380855468
2016-10-11,-1,-0.0015111874497744288,-0.0012392339410892197,-0.009182731771452016,0.0062344384817331604,0.9898651101373965
2016-10-13,-1,-0.0013790884129817873,-0.0011361841540218983,-0.011405326246489825,0.0062344384817331604,0.9889454909469232
2016-10-17,-1,-0.001840098576674821,-0.001544830661880385,-0.01603972872794775,0.0062344384817331604,0.9872945107528242
2016-10-19,-1,-0.0016811320277131613,-0.0014145444241283663,-0.01603972872794775,0.0073118957775253615,0.9869455725988002
2016-10-21,-1,-0.001665020324930024,-0.00140860943561133,-0.01603972872794775,0.009747783996157517,0.9864613304728113
2016-10-25,-1,-0.0021014501545049817,-0.001801422592178626,-0.01603972872794775,0.009747783996157517,0.9862869980777748
2016-10-27,-1,-0.0035584566731784424,-0.003078605593749606,-0.012666142302406369,0.009747783996157517,0.9871651590980777
2016-10-31,-1,-0.0021588482162236025,-0.001890133391816208,-0.014228250141649242,0.008459241440639342,0.9878350303955458
2016-11-02,-1,-0.003000997533378668,-0.002611189324458859,-0.017546569651210053,0.008459241440639342,0.9870919224477505
2016-11-04,-1,-0.003160618550125007,-0.002743325408134332,-0.017546569651210053,0.010731182210593769,0.9854971911865338
2016-11-08,-1,-0.002377749539519137,-0.002031317561346529,-0.017546569651210053,0.008678936700434315,0.9866710476250705
2016-11-10,-1,-0.0026589511561930664,-0.0022992257303815454,-0.01553593448738658,0.00987969596164361,0.9869179985077826
2016-11-14,-1,-0.004217920581434854,-0.0036910547061856022,-0.010331591099609563,0.011741579420964803,0.9871316205564883
2016-11-16,-1,-0.004289451610515203,-0.0036812773139296966,-0.010331591099609563,0.010204008396694943,0.9884822345029189
2016-11-18,-1,-0.003273699336552774,-0.002864819180343447,-0.00697159955733836,0.008503212095801372,0.9890438976699937
2016-11-22,-1,-0.0036466688269472,-0.0032245113912908155,-0.0032647695764923233,0.008503212095801372,0.9902170568242376
2016-11-25,-1,-0.0027700626026489414,-0.0024720210891300866,-0.0032647695764923233,0.008710919829888012,0.9905447262636374
2016-11-29,-1,-0.0030693394761517325,-0.0027565779165627793,-0.0032647695764923233,0.008710919829888012,0.9911795693906765
2016-12-01,-1,-0.004282837496683007,-0.003815092047869101,-0.002299967079195833,0.008710919829888012,0.9914262727903693
2016-12-05,-1,-0.0029490340174316695,-0.0026515646852938394,-0.002299967079195833,0.008570127751726716,0.9927085049976042
2016-12-07,-1,-0.0031493297444354857,-0.0028184934621897405,-0.0015921679259612762,0.008570127751726716,0.992847738615424
2016-12-09,-1,-0.0020897150946114114,-0.0019352942568506817,-0.0015921679259612762,0.008570127751726716,0.9906743366127108
2016-12-13,-1,-0.001411523775627161,-0.0013195922564119464,-0.002299967079195833,0.007288868308523425,0.9912826022992675
2016-12-15,-1,-0.0013649966187837643,-0.0012864628470651831,-0.0015921679259612762,0.00853718993178337,0.9907822014329776
2016-12-19,-1,-0.0006474811687515914,-0.000598225561904461,-0.0018273321636753707,0.00853718993178337,0.9914699085979565
2016-12-21,-1,-0.0004416690882037174,-0.00035225224219444755,-0.0018273321636753707,0.00853718993178337,0.9913133679843489
2016-12-23,-1,-0.00025554452235594264,-0.00018891260474524453,-0.0025258386220210097,0.005653636578215585,0.9917559498609667
2016-12-28,-1,-0.00022355982367487897,-0.00012291833268121197,-0.002060679346683733,0.009041989584535443,0.9909140661416818
2016-12-30,0,-9.755897889037238e-05,2.444525064048287e-05,-0.001437114834182184,0.009041989584535443,0.9908310032635024
2017-01-04,1,0.0004727832598162363,0.0006480258185454125,-0.002293282284901281,0.008856007630261797,0.9894597519517293
2017-01-06,1,0.0007287326645591605,0.0009486259973572406,-0.00341813501163363,0.008856007630261797,0.9894355353423352
2017-01-10,1,0.0029304453978510423,0.003437227591575919,-0.00341813501163363,0.005786873629934233,0.9921927325746216
2017-01-12,1,0.003020743995586008,0.0035630025251572562,-0.00341813501163363,0.004166693679992577,0.992783900370725
2017-01-17,1,0.0035171360953542784,0.004119967091140761,-0.004302979175184437,0.003963533537590658,0.9926115016267406
2017-01-19,1,0.0032051097315444,0.0037368912611169033,-0.004302979175184437,0.004171353439767099,0.9926066996233613
2017-01-23,1,0.0033197164751008696,0.0039116526481823,-0.004200309782314905,0.004171353439767099,0.9928494363914413
2017-01-25,1,0.0029143708386223394,0.0034159653459679045,-0.004435032750380283,0.004171353439767099,0.9915554145567217
2017-01-27,1,0.0033201758725200006,0.003898953760318219,-0.004200309782314905,0.004171353439767099,0.9922241330849818
2017-01-31,1,0.003656259047445416,0.0042906079596403465,-0.004435032750380283,0.004171353439767099,0.9912263513720315
2017-02-02,1,0.004247161391973271,0.004888187604926096,-0.004435032750380283,0.003963533537590658,0.9930138463219647
2017-02-06,1,0.004075241908541263,0.004672094749356326,-0.004941360823396359,0.003675463888891005,0.9920658796178732
2017-02-08,1,0.004326379242836264,0.004980945715840832,-0.004941360823396359,0.003963533537590658,0.9919338942774524
2017-02-10,1,0.004145414228808727,0.004764940028014211,-0.004743997824648924,0.003990759258198485,0.9922164578160583
2017-02-14,1,0.004120730171731619,0.0047496552957508355,-0.005761905961244026,0.004777122556994188,0.9916822153609497
2017-02-16,1,0.004256909622351108,0.004899797956829548,-0.009225177421387495,0.004484758709492988,0.9911618816930864
2017-02-21,1,0.004102480507378704,0.004722987091139302,-0.010307490756968584,0.004484758709492988,0.9908054705570118
2017-02-23,1,0.0028363392787423085,0.0032556048448255034,-0.009167789421949301,0.0054798886605813,0.9928918594109193
2017-02-27,1,0.0033183575849329884,0.0038151169887778334,-0.009167789421949301,0.0054798886605813,0.9929341460508533
2017-03-01,1,0.003408430336313861,0.003909755448511805,-0.0037206228438534995,0.005007863312988067,0.9940293571449194
2017-03-03,1,0.0034065289581707006,0.003908929276321106,-0.009167789421949301,0.0054798886605813,0.9929976665785917
2017-03-07,1,0.0025952460393590298,0.002964915320263755,-0.004081393955713862,0.0054798886605813,0.9936173774904119
2017-03-09,1,0.002796438891334149,0.003189580160363538,-0.008957138710944312,0.0054798886605813,0.9930689364088883
2017-03-13,1,0.00255164330181903,0.002883323051814141,-0.008957138710944312,0.0054798886605813,0.9929481509341531
2017-03-15,1,0.0023982774431743348,0.0027112206883086265,-0.006086887454129768,0.005007863312988067,0.9937935369519048
2017-03-17,1,0.0020521148869452324,0.002312753890200163,-0.004070187087437382,0.005007863312988067,0.9943403388525867
2017-03-21,1,0.0013503139094417464,0.0014857621106187757,-0.004070187087437382,0.005880219750581565,0.9940725544551571
2017-03-23,1,0.0006694286879241735,0.0006990537941077631,-0.005478517131674503,0.007366495793143168,0.9935184819870418
2017-03-27,1,0.0013660597866383627,0.001462748557423343,-0.005478517131674503,0.007366495793143168,0.9925588182628148
2017-03-29,1,0.0011070334069475153,0.0011330530775138501,-0.005478517131674503,0.008180811095213252,0.9919858858692103
2017-03-31,1,0.0011474788761938772,0.001170368740501067,-0.004070187087437382,0.0077511046450026355,0.9930173705144264
2017-04-04,1,0.0012738647234322492,0.001363487593633372,-0.00397401120514301,0.0077511046450026355,0.9931591391331048
2017-04-06,1,0.0008915927686345776,0.000893315485455698,-0.003791029553053403,0.0077511046450026355,0.9933108039994228
2017-04-10,-1,-0.00039373332319495935,-0.000161896154290885,-0.003791029553053403,0.0077511046450026355,0.9932382242153294
2017-04-12,0,-7.885902337884327e-06,0.00013786795421095907,-0.003791029553053403,0.0077511046450026355,0.9931264893937697
2017-04-17,0,-4.731385385069203e-05,0.00010881543920965498,-0.004249533516216118,0.0077511046450026355,0.9930500130874291
2017-04-19,-1,-0.00042384930334712315,-0.00017277675361638016,-0.004249533516216118,0.007342569902402175,0.9929004720833017
2017-04-21,-1,-0.00024780334382536304,-3.413509500173643e-05,-0.003590263150686314,0.007657045690229356,0.9927367085249691
2017-04-25,1,0.0003879878141238157,0.000565410022791732,-0.004249533516216118,0.007657045690229356,0.9936284673079233
2017-04-27,1,2.4963184788211017e-05,0.0003062446794625845,-0.004249533516216118,0.007657045690229356,0.9933725912907561
2017-05-01,1,0.0006511621565963232,0.0008144884125362453,-0.004249533516216118,0.007360239990665606,0.9936593012153379
2017-05-03,1,0.000359457296770982,0.0005756535276689465,-0.004249533516216118,0.007723401464825975,0.9925763743477635
2017-05-05,1,0.0003485994624370959,0.0005600398803175041,-0.0036826270974038644,0.007723401464825975,0.9928554305736628
2017-05-09,1,0.0004389953491014233,0.0006035530634033798,-0.003295979872624596,0.008404832360144296,0.9925013891645451
2017-05-11,1,0.00010020373932632801,0.00031718499866572214,-0.003233710872884804,0.008404832360144296,0.9925001240245723
2017-05-15,1,0.00013371279608609214,0.00033793810963384234,-0.002693287390392904,0.008404832360144296,0.9926917582411684
2017-05-17,-1,-0.0007213901570173215,-0.0004108037380787787,-0.002693287390392904,0.008404832360144296,0.9934110928981363
2017-05-19,1,7.151895738563888e-06,0.00021214802386324927,-0.002693287390392904,0.008913488973755442,0.9934677906406484
2017-05-23,0,-6.075885035425105e-05,0.00017437266587575525,-0.003233710872884804,0.006535456155154352,0.9938494507681541
2017-05-25,1,0.0004630874536004266,0.0006437898544719549,-0.003233710872884804,0.0034172998492673448,0.9942882624636785
2017-05-30,1,0.0007645140391346095,0.0008839162888760286,-0.0033381980631414093,0.003966601342708164,0.9934724108800967
2017-06-01,1,0.0009134159395239906,0.001016653602370728,-0.0033381980631414093,0.003966601342708164,0.9940009056691587
2017-06-05,1,0.0016384984731840743,0.0017437547297400454,-0.0035730442159336243,0.003966601342708164,0.9936277921212062
2017-06-07,1,0.0017595941049525028,0.0018697798454339872,-0.003584894172293432,0.0026974573383509036,0.9934669305773716
2017-06-09,1,0.0018104215223764117,0.0019507910007061187,-0.003584894172293432,0.003966601342708164,0.9931777561826122
2017-06-13,1,0.0017671642984853984,0.0018951075927739563,-0.003584894172293432,0.004588692292008711,0.9930448940485477
2017-06-15,1,0.0013449554726644621,0.0013975330101658634,-0.0047627668265586166,0.007318552481506971,0.9928840721851077
2017-06-19,1,0.0016299702715611788,0.001707546907884399,-0.0047627668265586166,0.004430212431127121,0.9933585380219139
2017-06-21,1,0.0013413764731811512,0.0013947970066487572,-0.004486109111822753,0.005499964039214245,0.9935660043319596
2017-06-23,1,0.0015110578196091359,0.001594987525078975,-0.004765278741027884,0.003968009638268735,0.9937070668712041
2017-06-27,1,0.0017482152398454504,0.0019319799210705474,-0.004425407115737599,0.003968009638268735,0.9939509603141543
2017-06-29,1,0.0017108040988319082,0.0018881380242745782,-0.004425407115737599,0.0009028564422265901,0.9941161905366747
2017-07-03,1,0.0015052852170120952,0.0016585645175405679,-0.006141171402473384,0.0009028564422265901,0.9935792853997445
2017-07-06,1,0.001084364696835611,0.0011760175035475412,-0.005394764066666086,0.003968009638268735,0.9940937163552972
2017-07-10,1,0.0012695380790505254,0.0013804728956631855,-0.005394764066666086,0.0034271688961788928,0.9942902768365036
2017-07-12,1,0.001578676180148835,0.001739596117944912,-0.006141171402473384,0.002538895012688008,0.9941808378572158
2017-07-14,1,0.001390952234900215,0.0015190130444389077,-0.006141171402473384,0.002538895012688008,0.9941372171658257
2017-07-18,1,0.0010220832347449511,0.0010290341219945313,-0.007338365096869339,0.002538895012688008,0.9936883079323444
2017-07-20,1,0.0010802483086877338,0.0011033974708954573,-0.006318750220998485,0.002538895012688008,0.9938129005886287
2017-07-24,1,0.0009644581546964481,0.000976908699862238,-0.006318750220998485,0.003952336227970535,0.9936724087766657
2017-07-26,1,0.0005577062290818952,0.0005959879848882841,-0.008238901630156694,0.006267458149300891,0.9929202699531108
2017-07-28,-1,-0.0006783075064050566,-0.0004524247513047325,-0.005912214510481472,0.006267458149300891,0.9934989571986745
2017-08-01,-1,-0.0013856839125238893,-0.0010918515436089153,-0.0031676455169296377,0.008119148979009018,0.9935746974282826
2017-08-03,-1,-0.001036800650138411,-0.0007844064403998368,-0.0031676455169296377,0.008289232398135043,0.9932251536498954
2017-08-07,-1,-0.0012211509837932151,-0.0009353872644344251,-0.0025720300191964143,0.008289232398135043,0.9932709346980061
2017-08-09,-1,-0.0018703390518252897,-0.0014858264635489392,-0.0015781771020917745,0.009594142854348573,0.991768846471864
2017-08-11,-1,-0.0025476234083354346,-0.002055293338843264,-0.00037482116819522886,0.009594142854348573,0.9913279675225096
2017-08-15,-1,-0.0024562464352674233,-0.0019804102726171443,0.00028080014670365036,0.009363311899037087,0.991794804978315
2017-08-17,-1,-0.0019528998907682132,-0.0015608668324509796,-0.00034517612294409673,0.009363311899037087,0.9925444551524661
2017-08-21,-1,-0.0015449096603835021,-0.0012076381047610716,-0.0014892419663383781,0.008908798405017187,0.9927772034475831
2017-08-23,-1,-0.0015584458070033442,-0.0012310967343402595,-0.0014892419663383781,0.006358018650417755,0.9936271639258036
2017-08-25,-1,-0.0020757518740963307,-0.0016662789174683693,-0.0014892419663383781,0.006358018650417755,0.9933272078917698
2017-08-29,-1,-0.001721081736074437,-0.0013471671808227383,-0.001969833790989731,0.005737150121264935,0.9938558035631974
2017-08-31,-1,-0.0011725514622737314,-0.0008527219340384638,-0.0025195596063955408,0.005737150121264935,0.9940895639595636
2017-09-05,-1,-0.0012956832662484328,-0.0009563705872382706,-0.0029469962536320597,0.006897029730702517,0.9930308025464241
2017-09-07,1,4.9930949444920475e-05,0.00023172390004235583,-0.0029469962536320597,0.006331612484138364,0.9942309958909309
2017-09-11,1,0.00061023568034609,0.0007136365191582959,-0.003545335636895356,0.005490257163529611,0.9945363828802466
2017-09-13,1,0.0006467094304542139,0.0007494029134469763,-0.003545335636895356,0.005490257163529611,0.9945222022974813
2017-09-15,1,0.001097044342921277,0.0011122934121144544,-0.0029469962536320597,0.005668797173717191,0.9945480822645058
2017-09-19,1,0.0010172469044343435,0.0010536502640134133,-0.0029469962536320597,0.006331612484138364,0.99429610013584
2017-09-21,1,0.0011591808356998922,0.0012297076389930685,-0.0026926334161030455,0.006331612484138364,0.9945417088783387
2017-09-25,1,0.0010975856592275591,0.0011611302712089986,-0.002499705824877488,0.006331612484138364,0.9945239018037257
2017-09-27,1,0.0011648745523308453,0.001238497505289044,-0.0030603887757725983,0.006437020022503505,0.9943344364683988
2017-09-29,1,0.001197175155255731,0.0012713813035890621,-0.005915984089435878,0.005703933019838904,0.9932947533235353
2017-10-03,1,0.0009460247601573763,0.0009805101758629188,-0.005915984089435878,0.004427831562974507,0.993816260484375
2017-10-05,1,0.0013316966566041149,0.001416373939739457,-0.009709564477379438,0.002798435061154561,0.9929866036410224
2017-10-09,1,0.0007607106723546283,0.0007880516016889121,-0.009709564477379438,0.004064061926096915,0.9926952741010238
2017-10-11,1,0.0009060049220642635,0.0009267273588338612,-0.009709564477379438,0.005103832131629038,0.9924199944160745
2017-10-13,1,0.001178386068904109,0.001249458506866254,-0.009709564477379438,0.005103832131629038,0.9914151206352915
2017-10-17,1,0.0014317813508384807,0.0015767398705386873,-0.008609961073692699,0.00431304584537405,0.9919160494037486
2017-10-19,1,0.0015969660707490152,0.0017679584004646955,-0.010465762056496996,0.005103832131629038,0.9910158942778106
