JNU-Tangyin/eata/results/Batch4_SP500/Batch4_SP500-KEY.csv
Date,Action,Predicted_Q25,Predicted_Q75,Actual_Q25,Actual_Q75,RL_Reward
2010-12-14,0,0.0,0.0,-0.0028953299886252865,0.01008279954874415,0.9878223083372282
2010-12-16,0,0.0,0.0,-0.0028953299886252865,0.012193488706068512,0.9869559498170193
2010-12-20,0,0.0,0.0,-0.008773112098809568,0.01062712128463865,0.9866332578315028
2010-12-22,0,0.0,0.0,-0.011461064795106925,0.01062712128463865,0.9849592848168434
2010-12-27,0,0.0,0.0,-0.01237654761505412,0.014386160214765825,0.9830082419978443
2010-12-29,0,0.0,0.0031091141391642544,-0.01237654761505412,0.01062712128463865,0.9859322927870884
2010-12-31,0,0.0,0.0,-0.0158565178581566,0.011680377458607644,0.9830741512094531
2011-01-04,0,0.0,0.0,-0.0158565178581566,0.011680377458607644,0.9825389069160644
2011-01-06,0,0.0,0.0,-0.009933102179843728,0.013682087409199638,0.9835906965285179
2011-01-10,1,0.0009268073285998511,0.00095436923675416,-0.005602842346904852,0.014613920741524313,0.983053832843786
2011-01-12,1,0.0012106247966024502,0.0012298820014785428,-0.0158565178581566,0.014613920741524313,0.9814512952097927
2011-01-14,0,0.0,0.0,-0.014733003086395668,0.014613920741524313,0.9820009158937125
2011-01-19,0,0.0,0.0,-0.01137651679692702,0.014613920741524313,0.9835963580480358
2011-01-21,0,0.0,0.0,-0.010651573632869654,0.013616618603659349,0.9855632289660974
2011-01-25,1,0.001715834307046873,0.0018234110563205212,-0.010651573632869654,0.012778123631843111,0.9866871775431207
2011-01-27,1,0.001884339784263121,0.002040980524545385,-0.012243331452497608,0.013616618603659349,0.9849216184723159
2011-01-31,0,0.0,0.0,-0.014850208952479894,0.013616618603659349,0.9842284999347102
2011-02-02,0,0.0,0.0,-0.014850208952479894,0.013616618603659349,0.9843548039776786
2011-02-04,0,0.0,0.0,-0.014850208952479894,0.010934399744613695,0.9848226700254656
2011-02-08,0,0.0,0.0,-0.014850208952479894,0.00802255162889554,0.9855745491661998
2011-02-10,0,0.0,0.0,-0.012675379460307787,0.009050139032049917,0.985245886301333
2011-02-14,0,0.0,0.0,-0.016190276847800004,0.007861293008629675,0.9854040794649471
2011-02-16,0,0.0,0.0,-0.016422154177568326,0.009050139032049917,0.9841034176314831
2011-02-18,0,0.0,0.0,-0.01736044992346104,0.008154397374722061,0.9835458538830869
2011-02-23,0,0.0,0.0,-0.016422154177568326,0.008154397374722061,0.9846640830041554
2011-02-25,-1,-0.00040904104978624757,-0.00017303997084143767,-0.01629038256189961,0.007969420973195834,0.9861878620833902
2011-03-01,-1,-0.00028475097178888196,-5.1379108219465125e-05,-0.01165918586239557,0.007969420973195834,0.987633045512522
2011-03-03,1,0.0010919474574626593,0.001508443477029322,-0.01165918586239557,0.007616465329609013,0.9884974075854399
2011-03-07,1,0.0012000599965057784,0.001600799840257232,-0.01165918586239557,0.007889528734913385,0.9884353134973328
2011-03-09,1,0.0016308643550711438,0.0017594494541792805,-0.01165918586239557,0.007969420973195834,0.9877174735990838
2011-03-11,1,0.0009429884423720365,0.0009979468932189654,-0.00792173193066207,0.007889528734913385,0.9894687069297957
2011-03-15,-1,-0.00027849822067893017,-0.00014254036258554706,-0.006720854894905963,0.007889528734913385,0.990599570221156
2011-03-17,1,0.00011664540937695998,0.00017924826760443922,-0.006720854894905963,0.007889528734913385,0.9915719616789631
2011-03-21,0,0.0,0.0,-0.006720854894905963,0.00791212759168,0.9914960354696329
2011-03-23,0,0.0,0.0,-0.006720854894905963,0.00791212759168,0.9907399687299789
2011-03-25,0,0.0,0.0,-0.006720854894905963,0.007359885445097484,0.9911274394208113
2011-03-29,0,0.0,0.0,-0.006720854894905963,0.008280473258562083,0.9900741223725003
2011-03-31,-1,-0.002636149578732814,-0.0022092208447063956,-0.006720854894905963,0.00791212759168,0.9915228931455313
2011-04-04,-1,-0.0003862453923803033,-0.00024037132136465588,-0.006720854894905963,0.008280473258562083,0.9909691850437831
2011-04-06,1,7.369352721955642e-05,0.0001601078397571662,-0.007921086834337657,0.00738916462212677,0.990112376742633
2011-04-08,-1,-0.000734521983184355,-0.0005430949640316599,-0.007921086834337657,0.00738916462212677,0.9903332501605238
2011-04-12,-1,-0.001870205585478809,-0.0014827451219591354,-0.007221134853844878,0.008280473258562083,0.9898436364830632
2011-04-14,-1,-0.002312049872178543,-0.0018460071303304162,-0.0081622015004155,0.00738916462212677,0.9893684592106333
2011-04-18,0,0.0,0.0,-0.005830979716984068,0.01206467792123798,0.9895164412017414
2011-04-20,-1,-0.004853016805513087,-0.004041206641296877,-0.0023334262129006194,0.01206467792123798,0.9888527855644574
2011-04-25,-1,-0.004491249509317861,-0.0037211896250503064,-0.0081622015004155,0.01206467792123798,0.9883832495859932
2011-04-27,-1,-0.002346517396500175,-0.0019598050779226703,-0.0081622015004155,0.0047303118360724865,0.9897497590377455
2011-04-29,0,0.0,0.0,-0.0081622015004155,0.006596698307639279,0.9890801864293122
2011-05-03,0,0.0,0.0,-0.015166830991119686,0.0047303118360724865,0.9881339870487362
2011-05-05,0,0.0,0.0,-0.008265288260132028,0.005155659853285196,0.9886144789998214
2011-05-09,0,0.0,0.0,-0.01563934464718193,0.005155659853285196,0.9882237340414344
2011-05-11,-1,-0.0026916404219431336,-0.0022408760023889633,-0.01563934464718193,0.005306427886137022,0.9875805828639611
2011-05-13,0,0.0,0.0,-0.01493912280556721,0.005306427886137022,0.9887416296581636
2011-05-17,0,0.0,0.0,-0.01493912280556721,0.004887010501753129,0.9891752022827367
2011-05-19,-1,-0.0010809045080048788,-0.0009095611028027996,-0.01493912280556721,0.005306427886137022,0.9880532031680667
2011-05-23,-1,-0.0012055778124326032,-0.0010644737570253613,-0.008560715761789002,0.006413563083974612,0.9888015866869365
2011-05-25,-1,-0.0019312161969256055,-0.001685375850645974,-0.01126390703691298,0.006413563083974612,0.9884260672303798
2011-05-27,-1,-0.0010593916530376051,-0.0009389242028135486,-0.012726212170150235,0.006413563083974612,0.9876451522134714
2011-06-01,-1,-0.002808714066989727,-0.0024368813007587934,-0.01126390703691298,0.008925332656438023,0.987897295152924
2011-06-03,-1,-0.0030906640237375257,-0.0026919550733752115,-0.010014531197231911,0.013341420035094856,0.9879921246003477
2011-06-07,-1,-0.003335044265497556,-0.0029255445281554646,-0.010014531197231911,0.013341420035094856,0.9879296156158233
2011-06-09,0,0.0,0.0,-0.01126390703691298,0.013341420035094856,0.9878520680252802
2011-06-13,0,0.0,0.0,-0.01126390703691298,0.013341420035094856,0.9871568855128071
2011-06-15,0,0.0,0.0,-0.012616127645122174,0.010791939601094577,0.9869177783195413
2011-06-17,0,0.0,0.0,-0.01475715518884115,0.007984719834091061,0.9870134790272608
2011-06-21,0,0.0,0.0,-0.01475715518884115,0.014151514113795375,0.9846140326224189
2011-06-23,0,0.0,0.0,-0.01475715518884115,0.016037107555201255,0.9847971896017413
2011-06-27,0,0.0,0.0,-0.012497852752857171,0.013833772165709846,0.986098595866985
2011-06-29,0,0.0,0.0,-0.01475715518884115,0.010791939601094577,0.9859506927536523
2011-07-01,1,0.00034777110752746575,0.0005810684514175334,-0.01475715518884115,0.009026698758177305,0.9861964365106212
2011-07-06,0,0.0,0.0,-0.01475715518884115,0.009026698758177305,0.9855116633351472
2011-07-08,0,0.0,0.0,-0.025233183448312123,0.007901792718929403,0.982845406068086
2011-07-12,0,0.0,0.0,-0.025233183448312123,0.009026698758177305,0.9763990074584408
2011-07-14,-1,-0.0001281498027114019,-9.117617095521656e-06,-0.02665959184687574,0.010459663711139256,0.9691500177964386
2011-07-18,0,0.0,0.0,-0.03145289564031276,0.018303172692124323,0.9657905093653872
2011-07-20,0,0.0,0.0,-0.03145289564031276,0.007901792718929403,0.9680417553376226
2011-07-22,0,0.0,0.0,-0.03887459897495744,0.003031175311840533,0.963970366993356
2011-07-26,0,0.0,0.0,-0.03887459897495744,0.007901792718929403,0.9619140938482875
2011-07-28,0,0.0,0.0,-0.03887459897495744,0.010860536292291056,0.9616654344085117
2011-08-01,1,0.00043749012571146024,0.0006784404672184449,-0.03887459897495744,0.025388823950436297,0.9594756349071775
2011-08-03,-1,-0.0005112849650819356,-0.0004538505641619551,-0.03887459897495744,0.025388823950436297,0.9594391270357434
2011-08-05,-1,-0.003431210687757374,-0.003105740244339282,-0.032891949422978836,0.025388823950436297,0.9607299937563863
2011-08-09,-1,-0.0035764273232751728,-0.0032457651392736103,-0.030354326548923706,0.025388823950436297,0.9633721236378064
2011-08-11,-1,-0.0042439030398055706,-0.003818196504304031,-0.031575083375515685,0.012598450917498536,0.9684944727870587
2011-08-15,0,0.0,0.0,-0.030354326548923706,0.012598450917498536,0.9708239027605721
2011-08-17,0,0.0,0.0,-0.030354326548923706,0.017716546963016586,0.9703938340210451
2011-08-19,0,0.0,0.0,-0.02753009437857132,0.017716546963016586,0.9737237162760849
2011-08-23,0,0.0,0.0,-0.030354326548923706,0.012598450917498536,0.9731745292063627
2011-08-25,0,0.0,0.0,-0.030354326548923706,0.01087030650758139,0.9730289429934734
2011-08-29,0,0.0,0.0,-0.030354326548923706,0.010695630599058675,0.9726097419884193
2011-08-31,0,0.0,0.0,-0.031331776013156155,0.01283879921028318,0.9689870727521652
2011-09-02,-1,-0.006993877163603771,-0.006400533052388101,-0.033702664620544234,0.01283879921028318,0.9689985665298015
2011-09-07,-1,-0.00124756597438152,-0.0012447449867904596,-0.033702664620544234,0.015974424087710718,0.9701036252508991
2011-09-09,-1,-0.005102204674469767,-0.004655167956239322,-0.03297274253346563,0.021526168822971228,0.9672989633962796
2011-09-13,-1,-0.004153490071923823,-0.00376453362816116,-0.03297274253346563,0.02730733738864344,0.9658119021650093
2011-09-15,-1,-0.0027009884027431345,-0.002495017053662443,-0.03297274253346563,0.03041962714763298,0.9649694540241709
2011-09-19,0,0.0,0.0,-0.03611136652522408,0.03041962714763298,0.963938333611128
2011-09-21,0,0.0,0.0,-0.03611136652522408,0.049294482390314184,0.9621465076085598
2011-09-23,0,0.0,0.0,-0.03611136652522408,0.05350532756802849,0.9597361335034913
2011-09-27,-1,-0.003266646175532835,-0.0031468132585964416,-0.03611136652522408,0.049294482390314184,0.9598460821252197
2011-09-29,-1,-0.0033922842865762503,-0.003271829967291537,-0.03291186937374573,0.04896115958217204,0.9612664774975538
2011-10-03,0,0.0,0.0,-0.03020890648491467,0.04896115958217204,0.9630619818635849
2011-10-05,0,0.0,0.0,-0.032203055807088383,0.047386955495126525,0.962344689541076
2011-10-07,0,0.0,0.0,-0.03020890648491467,0.03545407382275344,0.9670737810069695
2011-10-11,1,0.001586669620987645,0.0019477943612305096,-0.03020890648491467,0.0299416546228743,0.9693814380890263
2011-10-13,1,0.0015790019910701459,0.0018975008298650479,-0.032203055807088383,0.0299416546228743,0.9680244162036724
2011-10-17,1,0.0011085170523368825,0.00137446646799225,-0.032203055807088383,0.030672277872626108,0.9674474564111426
2011-10-19,0,0.0,0.0,-0.023059642857426784,0.02961417539737238,0.9711831880805147
2011-10-21,0,0.0,0.0,-0.023059642857426784,0.027947033939228594,0.9743729714082066
2011-10-25,0,0.0,0.0,-0.023161586163332155,0.023793355441318307,0.9753027591469811
2011-10-27,1,0.0065300347447197656,0.0073341471575571774,-0.023161586163332155,0.013384719373068335,0.9766268792946856
2011-10-31,0,0.0,0.0,-0.014051865145190875,0.021018071773694587,0.9789099643554668
2011-11-02,0,0.0,0.0,-0.012212151346307624,0.021018071773694587,0.9799850737288224
2011-11-04,0,0.0,0.0,-0.012212151346307624,0.021018071773694587,0.9800575869135169
2011-11-08,0,0.0,0.0,-0.012212151346307624,0.021018071773694587,0.9803829721710974
2011-11-10,0,0.0,0.0,-0.012212151346307624,0.021018071773694587,0.9816404931861591
2011-11-14,0,0.0,0.0,-0.012212151346307624,0.013442250942633389,0.98313886221156
2011-11-16,0,0.0,0.0,-0.012212151346307624,0.013317490946158406,0.983800994237225
2011-11-18,0,0.0,0.0,-0.011229946909093333,0.013317490946158406,0.9841988268940541
2011-11-22,0,0.0,0.0,-0.00990071660104905,0.022633201362986834,0.9836608106657558
2011-11-25,0,0.0,0.0,-0.006578823691970014,0.023599609024503893,0.9828440588458424
2011-11-29,0,0.0,0.0,-0.00990071660104905,0.023599609024503893,0.9839878195831
2011-12-01,1,0.005388275630911411,0.005967250852703354,-0.010421053188876797,0.019528078675341363,0.9852414485302917
2011-12-05,1,0.005719413184219144,0.006311785341712015,-0.010421053188876797,0.0127726826800183,0.9865120617526795
2011-12-07,1,0.00519295905559722,0.005670653402821277,-0.007394069796493707,0.019528078675341363,0.9862617673041644
2011-12-09,1,0.005628920975163473,0.006356900819576102,-0.005784958985995858,0.01845483930614984,0.9882149807649208
2011-12-13,1,0.005558935243832084,0.006129927709733415,-0.002925409049821837,0.01845483930614984,0.9900856500976939
2011-12-15,1,0.004772442828079049,0.005186583586257035,-0.0032677545770889733,0.01845483930614984,0.9893610421489482
2011-12-19,1,0.0043480275257415215,0.004642891919997551,-0.0015275470913967378,0.01845483930614984,0.9892373690283423
2011-12-21,1,0.006154795536622874,0.006717144278718396,-0.0034816881021715648,0.012169113679730151,0.9899521435220935
2011-12-23,1,0.0063692039608741514,0.0069110929443344914,-0.0034816881021715648,0.012169113679730151,0.9902777694434202
2011-12-28,1,0.0036398967049729113,0.0036760968715009116,-0.0015275470913967378,0.01251775900044596,0.9888259069432729
2011-12-30,1,0.005055687269983123,0.005383560790593087,-0.004422766513706235,0.012169113679730151,0.9883777096480509
2012-01-04,1,0.004649767137188005,0.004881305125407355,-0.004422766513706235,0.012169113679730151,0.9880818574458557
2012-01-06,1,0.0038456663357429896,0.004159875741804134,-0.010948583172123563,0.012169113679730151,0.9870130827947755
2012-01-10,1,0.0036844927129668593,0.0038840354346716954,-0.010948583172123563,0.012169113679730151,0.9868665251034141
2012-01-12,1,0.002761123133893475,0.002958077514250355,-0.013253203116893309,0.012169113679730151,0.9855359935859275
2012-01-17,1,0.004063248794077877,0.004144724961189994,-0.014029413727323928,0.012233141147143797,0.9847732095897052
2012-01-19,1,0.00309247969928662,0.003171442377254333,-0.014029413727323928,0.012676239321870853,0.9844453798220995
2012-01-23,1,0.003793585714871458,0.004020366794860952,-0.010980673222669565,0.013637406434166945,0.9847722250409519
2012-01-25,1,0.0035469795783158887,0.003769071531482545,-0.014029413727323928,0.014537098496377465,0.9832066785791743
2012-01-27,1,0.0015273869420958392,0.0017296389320096374,-0.010980673222669565,0.01278355287426045,0.9858895117775172
2012-01-31,1,0.0013381036399910773,0.0014307213262088393,-0.010875049534720932,0.014537098496377465,0.9856229685562714
2012-02-02,0,-0.00035261932437150685,0.00011844282400499126,-0.013411367356826768,0.014537098496377465,0.9861623011861345
2012-02-06,1,0.0003190801954867442,0.0006088212100634452,-0.016687281474198925,0.01278355287426045,0.9861793361692844
2012-02-08,1,0.0011293877151307328,0.0012966461824964178,-0.016687281474198925,0.016507818080738205,0.9849677153131855
2012-02-10,0,-0.00032691576123401365,7.695321419701087e-05,-0.01641602655632519,0.016507818080738205,0.9853663434080062
2012-02-14,-1,-0.0023572729745622613,-0.0015634038170380515,-0.014561887444833712,0.017729027653591977,0.9832973096577462
2012-02-16,-1,-0.0027242627992482707,-0.0018384163752984588,-0.014561887444833712,0.017729027653591977,0.9839134402389105
2012-02-21,-1,-0.002438919100978204,-0.0016232761987564478,-0.014561887444833712,0.017729027653591977,0.9839656281888479
2012-02-23,-1,-0.0010536337798318861,-0.00045881677939636637,-0.014720822727417135,0.014843685229936558,0.9846401810135972
2012-02-27,-1,-0.0031121746358655513,-0.0020860081801882973,-0.014720822727417135,0.014843685229936558,0.9841190460624122
2012-02-29,-1,-0.0012287411391088152,-0.000643946117790229,-0.013650028049240932,0.014127145154331182,0.9849459552269021
2012-03-02,-1,-0.0025006435508941253,-0.0017935978705919697,-0.012317522838170185,0.014127145154331182,0.9849160655509388
2012-03-06,-1,-0.002706369128420749,-0.0020832807542719004,-0.004712842770716111,0.014127145154331182,0.9862802913235236
2012-03-08,-1,-0.0012965344603681037,-0.0008317147668367212,-0.011799383494090869,0.010547154995606906,0.9883853330327402
2012-03-12,-1,-0.0031779580231455972,-0.002371069324722278,-0.01184858690092048,0.007407420251595387,0.9881330398179903
2012-03-14,-1,-0.0005576299347917638,-0.00010449077443679166,-0.01184858690092048,0.006226399688235766,0.9901397964570317
2012-03-16,1,0.001725261301167929,0.0017354141194395336,-0.012402155520075238,0.007624004212062731,0.9873591178826405
2012-03-20,1,0.0019326553975543628,0.0019374382909232348,-0.01398431719630098,0.007624004212062731,0.9862398276522997
2012-03-22,1,0.0019988127646897017,0.002073763323320104,-0.01184858690092048,0.007624004212062731,0.9874315756506068
2012-03-26,1,0.0009397569949669443,0.0011184102188082422,-0.01184858690092048,0.007624004212062731,0.9874143606588811
2012-03-28,1,0.0026729676263665433,0.0028516687745247502,-0.011827594388059219,0.007767179363536868,0.987646319600718
2012-03-30,1,0.0029701284679467294,0.0032305301382568492,-0.011827594388059219,0.007767179363536868,0.9867515374928308
2012-04-03,1,0.0026662066686150105,0.002849254538356473,-0.012577509384551863,0.008685204232060529,0.9862158019059973
2012-04-05,1,0.0009632637662870799,0.0010595299639798942,-0.014870488596940956,0.008685204232060529,0.9859116501746716
2012-04-10,-1,-0.0003240808736194092,-0.00021108316411407827,-0.008976588166654188,0.009784146162049139,0.9868174279438814
2012-04-12,1,0.0010802034208745631,0.0011364626870487026,-0.008976588166654188,0.008685204232060529,0.9883040134727268
2012-04-16,-1,-0.0007842119375095643,-0.0006003544965083739,-0.008976588166654188,0.007767179363536868,0.9898369259386325
2012-04-18,-1,-0.0012978148501719608,-0.0009740869356270077,-0.009347993378439255,0.003773978400612477,0.9907835482545009
2012-04-20,-1,-0.0020251619010555446,-0.001577153661434497,-0.009805382469610147,0.003773978400612477,0.9907097799719669
2012-04-24,-1,-0.0009862241443817496,-0.0007034406589622367,-0.009805382469610147,0.005916587363121015,0.9909183785643494
2012-04-26,1,0.0002645369973197566,0.0004723329777002493,-0.009805382469610147,0.0032554966618791674,0.9907549178624806
2012-04-30,0,-0.0001307639227959448,8.641616425759144e-05,-0.009805382469610147,0.006062016169728017,0.9906219559472882
2012-05-02,-1,-0.0005597543557229357,-0.0002943450097032365,-0.009805382469610147,0.006062016169728017,0.9906388507331918
2012-05-04,-1,-0.0015193015539647985,-0.0011204029853619129,-0.012543335681104627,0.006062016169728017,0.9879526770940998
2012-05-08,-1,-0.002549557452970579,-0.002023126116905934,-0.012543335681104627,0.006062016169728017,0.98688421716239
2012-05-10,-1,-0.0031221915057385963,-0.00253157068071711,-0.012543335681104627,0.00837052698915999,0.9859875972553829
2012-05-14,-1,-0.004019659606534744,-0.003344922126491993,-0.012543335681104627,0.009345970520246313,0.9850769584350901
2012-05-16,-1,-0.0036709416547478658,-0.0031301836216836567,-0.007640564687088867,0.010732637464251283,0.984625248624155
2012-05-18,-1,-0.003559638060636635,-0.0030972760400032736,-0.005284038595399515,0.014895202246834986,0.984191021023863
2012-05-22,-1,-0.0034465136972921463,-0.0029452477133454745,-0.005284038595399515,0.016231025172441123,0.9833328646052171
2012-05-24,-1,-0.003043159849060921,-0.002600984640932318,-0.009541605885393305,0.018181833945029813,0.982074697684796
2012-05-29,-1,-0.002607402685403547,-0.0022655500900412447,-0.0213108465329562,0.018181833945029813,0.9813545595207547
2012-05-31,0,0.0,0.0,-0.013123347261734418,0.018181833945029813,0.9824277175819148
2012-06-04,0,0.0,0.0,-0.0031014604954535787,0.018656459112736667,0.9850359766968904
2012-06-06,0,0.0,0.0,-0.005652906363278898,0.018181833945029813,0.9855368758291458
2012-06-08,-1,-0.0035214306876665525,-0.0032285757037144713,-0.008468819867845454,0.016231025172441123,0.9857892940591506
2012-06-12,-1,-0.0036628463214010377,-0.003317197083469333,-0.008461949011837248,0.015604453085980786,0.9869198076282395
2012-06-14,-1,-0.003380961685242769,-0.0030205003659485134,-0.009480560438371192,0.01607907825368764,0.985902570075152
2012-06-18,-1,-0.0019807524147985684,-0.0018248902470221575,-0.009480560438371192,0.014195898557199535,0.9863199984747358
2012-06-20,-1,-0.001122155060433165,-0.0010048996620815758,-0.010478065241362914,0.01243177564182421,0.9868522624991601
2012-06-22,-1,-0.002057540869253631,-0.0017619734191290299,-0.010478065241362914,0.010748255394101383,0.9882473863300967
2012-06-26,-1,-0.0007668506125364757,-0.0006769745790368969,-0.009480560438371192,0.010312686993179176,0.9890651470364137
2012-06-28,-1,-0.0006207323166785791,-0.0005717848772834374,-0.008131737696176075,0.01243177564182421,0.9880530016871937
2012-07-02,1,0.0002125584578557121,0.0002922085715541657,-0.010062004214663328,0.010748255394101383,0.9884066503904612
2012-07-05,-1,-0.00063649407627408,-0.0005570057957523168,-0.0093441637148074,0.010698195921295634,0.989296064368147
2012-07-09,0,0.0,0.0,-0.0093441637148074,0.01243177564182421,0.9877301776813278
2012-07-11,0,0.0,0.0,-0.006051699222899917,0.011685021061430744,0.9881711885672314
2012-07-13,1,0.0008330202149047325,0.0009978366247767666,-0.0031510359635780415,0.010449277727831146,0.9903293149550986
2012-07-17,1,0.0014171142890448876,0.0016569646575114848,-0.006245513814997295,0.010236828141419015,0.9901590238195499
2012-07-19,1,0.0013671249948768007,0.0016238268405246309,-0.003981952432667296,0.010449277727831146,0.9909415746876715
2012-07-23,1,0.0005590026444850974,0.0007015141421250022,-0.0018489539505732835,0.010449277727831146,0.9916412094271532
2012-07-25,1,0.00036344785189321675,0.00042010678032818657,-0.002705531037364315,0.005428333765850219,0.9921157336654572
2012-07-27,1,0.0007993008172181738,0.0008347065592820888,-0.002705531037364315,0.001519889952252348,0.9937609547760287
2012-07-31,1,0.0006589782111402582,0.0007657483217791312,-0.0015386872066162811,0.001519889952252348,0.994787006312824
2012-08-02,1,0.00041248012225977653,0.00045476651818932153,-0.0012027061528954944,0.003897227571870631,0.994643066035347
2012-08-06,1,0.002328092000503898,0.002763143958010764,-0.0014981172153367788,0.0035789849960849826,0.9961214531373357
2012-08-08,1,0.0029022798036161916,0.0034078634797470473,-0.002686148266302465,0.0035789849960849826,0.9946078535213867
2012-08-10,1,0.003094566033286045,0.0036592489989315854,-0.002686148266302465,0.003897227571870631,0.9944286156667282
2012-08-14,1,0.0019790078915126606,0.00232497834078423,-0.00029902140006468104,0.004664376095062914,0.9954901891706196
2012-08-16,1,0.0026495859815792123,0.0031042069748235222,-0.00029902140006468104,0.005092702236121244,0.994285796961491
2012-08-20,1,0.0027797076259240897,0.0032674975605672084,-0.0022822760423632992,0.005092702236121244,0.9933980000703361
2012-08-22,1,0.002761745772535193,0.0032535348735903,-0.0025731600152584517,0.007450269734088932,0.9926071620520461
2012-08-24,0,0.0,0.0,-0.003866703732322657,0.007450269734088932,0.9916962839446971
2012-08-28,0,0.0,0.0,-0.006926677599567254,0.007450269734088932,0.9907134279145572
2012-08-30,1,0.0037344094813050576,0.0042758727941838255,-0.00783269739947656,0.011974047469095016,0.9902246984887311
2012-09-04,1,0.0046378915610080906,0.005405014616702246,-0.00783269739947656,0.011974047469095016,0.9896838638802261
2012-09-06,1,0.00212921983087993,0.0024367100553460046,-0.006926677599567254,0.011974047469095016,0.9910408364011022
2012-09-10,0,0.0,0.0,-0.00783269739947656,0.00833933955175793,0.9905795738981573
2012-09-12,0,0.0,0.0,-0.00795464964581823,0.00833933955175793,0.990021502046042
2012-09-14,1,0.003576053201630969,0.0040724247949441,-0.00958150805947749,0.0020059133453204847,0.988475054968763
2012-09-18,1,0.003210720977415698,0.0036809026436066573,-0.00868098735993486,0.002964904742830995,0.9890531038768087
2012-09-20,1,0.0034765721015246297,0.0039502413296612846,-0.00868098735993486,0.005218563803482092,0.9874212929037821
2012-09-24,1,0.0026156047071543113,0.0029577146517206603,-0.011743758756133538,0.005218563803482092,0.9870484656958679
2012-09-26,1,0.001600163939591801,0.0017784013865732103,-0.011743758756133538,0.005218563803482092,0.9874722506634508
2012-09-28,1,0.0018664491702034699,0.0020997788621941508,-0.014979749063068055,0.005218563803482092,0.9869202995002287
2012-10-02,0,0.0,0.0,-0.014979749063068055,0.007553697028722805,0.9870330799038523
2012-10-04,0,0.0,0.0,-0.015470608142243714,0.005867724294350116,0.9869913550044119
2012-10-08,1,0.0010338425848022258,0.0010639446906322131,-0.01600458873300561,0.00981406051334403,0.9853347570103056
2012-10-10,1,0.0003758925011578564,0.00043847706244875206,-0.015475157638363164,0.00981406051334403,0.9858735123900854
2012-10-12,-1,-0.00023900332586227217,-0.00011800996586117351,-0.014679976032613982,0.00981406051334403,0.9871171600423045
2012-10-16,-1,-0.0004251143453364749,-0.0002863753555450485,-0.01544856997399333,0.00981406051334403,0.98684537532827
2012-10-18,0,0.0,0.0,-0.01544856997399333,0.00601165479378875,0.9888001916839527
2012-10-22,0,0.0,0.0,-0.014679976032613982,0.00981406051334403,0.9885522045610503
2012-10-24,0,0.0,0.0,-0.007237628836626616,0.011361881670580857,0.9888161438293841
2012-10-26,-1,-0.0010765190312335476,-0.0008173512537361023,-0.008175245752599928,0.00981406051334403,0.9886173011221787
2012-11-01,-1,-0.00033457416314504156,-0.00017980219609021152,-0.009120075180376004,0.006324536805805903,0.988721696894928
2012-11-05,-1,-0.000575581018431532,-0.00036581624390876724,-0.011169984598627815,0.003874818308964526,0.9889915518848047
2012-11-07,-1,-0.0015554265428977324,-0.0012399930836200443,-0.008285918974862848,0.0027862984277907308,0.9913729213621647
2012-11-09,-1,-0.0014260318248576964,-0.0011304972609079017,-0.008285918974862848,0.003895742751775076,0.9903455207446749
2012-11-13,-1,-0.0014398501650033692,-0.001188871989444653,-0.006390184921640854,0.006153119001506454,0.9903722543494007
2012-11-15,-1,-0.0018821822421708433,-0.0015756114759649048,-0.006385683387274163,0.006153119001506454,0.9908345085366931
2012-11-19,-1,-0.001609724262642534,-0.001327643417538569,-0.006385683387274163,0.01065930827238756,0.9895010090114181
2012-11-21,0,0.0,0.0,-0.007321509746316858,0.010616412514874484,0.9896601088554413
2012-11-26,-1,-0.0004047199515118626,-0.0002537305217395102,-0.007845924484525351,0.006153119001506454,0.9898712324219264
2012-11-28,-1,-0.0017724693791307097,-0.0014448164668153978,-0.007321509746316858,0.006153119001506454,0.9913151329435972
2012-11-30,-1,-0.0025499929242828352,-0.0021172529317043873,-0.00756613187719151,0.008741382956080321,0.990843937180739
2012-12-04,-1,-0.0026821309985570153,-0.002260993456588532,-0.003573990313559965,0.010616412514874484,0.988968695725873
2012-12-06,0,0.0,0.0,-0.003573990313559965,0.012587005897389997,0.9892213393857745
2012-12-10,0,0.0,0.0,-0.004407995026028196,0.010472806479309597,0.9901920154398035
2012-12-12,-1,-0.0005165383470696837,-0.00042143110555596794,-0.0068516085843420855,0.009398247416918824,0.9900384106821224
2012-12-14,-1,-0.0011506850511254535,-0.0009594279147992844,-0.0043368170965970305,0.011566350198821568,0.9895017905359105
2012-12-18,-1,-0.00041706306752616865,-0.00028054223256910704,-0.0043368170965970305,0.011566350198821568,0.9900063708655521
2012-12-20,1,0.0003095536490445856,0.0003123080326780255,-0.004268705175629912,0.009284011339212868,0.9904676510854369
2012-12-24,-1,-0.0008595267977572172,-0.0006764278688790034,-0.006413656613775277,0.009284011339212868,0.9904021095257309
2012-12-27,-1,-0.0006463849127009921,-0.0004929578094916523,-0.006430935241198972,0.009284011339212868,0.9899182432311966
2012-12-31,-1,-0.0002759177357324637,-0.0002008778587523227,-0.006413656613775277,0.011566350198821568,0.9897826699393805
2013-01-03,1,0.0012087535197625792,0.0013576860045014995,-0.006413656613775277,0.009284011339212868,0.9922304157003617
2013-01-07,1,0.0013458089223681688,0.0015018377567096056,-0.006430935241198972,0.009284011339212868,0.991711728061414
2013-01-09,0,0.0,0.0,-0.006413656613775277,0.009284011339212868,0.9913762955307417
2013-01-11,0,0.0,0.0,-0.006413656613775277,0.009284011339212868,0.9913225969163706
2013-01-15,0,0.0,0.0,-0.006430935241198972,0.007740328772014338,0.9913716772649712
2013-01-17,0,0.0,0.0,-0.006430935241198972,0.006733435889332984,0.9932256525660946
2013-01-22,0,0.0,0.0,-0.006937377362299196,0.006733435889332984,0.9922641498162093
2013-01-24,0,0.0,0.0,-0.004459578367863917,0.007388011147162164,0.9919487399029182
2013-01-28,0,0.0,0.0,-0.004459578367863917,0.007388011147162164,0.991295225176625
2013-01-30,0,0.0,0.0,-0.004459578367863917,0.007388011147162164,0.9914555760691021
2013-02-01,0,0.0,0.0,-0.006890999552921795,0.008163432685532894,0.990769939138302
2013-02-05,1,0.0,0.0028464565287724146,-0.003958399626755387,0.008163432685532894,0.9926099927823592
2013-02-07,0,0.0,0.0,-0.006133777215698194,0.011587877349967066,0.9897843248622414
2013-02-11,0,0.0,0.0,-0.00529617833945356,0.011587877349967066,0.9901104847469852
2013-02-13,0,0.0,0.0,-0.0020635143648356927,0.014325568090024119,0.9900845069555646
2013-02-15,0,0.0,0.0,-0.0020635143648356927,0.014325568090024119,0.9897011067388785
2013-02-20,0,0.0,0.0,-0.001791276137984551,0.014325568090024119,0.9908119396043013
2013-02-22,1,0.004025932703884814,0.004549272587016742,-0.004228713321942487,0.01179967881969638,0.9911089920871154
2013-02-26,1,0.002817448988812459,0.0031898910473992315,-0.004228713321942487,0.012576776961964423,0.991985723882837
2013-02-28,0,0.0,0.0,-0.00529617833945356,0.011258998381813956,0.991556541020331
2013-03-04,0,0.0,0.0,-0.006318391691960726,0.00870827787153523,0.9916722875393109
2013-03-06,1,0.0029237118972592316,0.003361883312742022,-0.007336256853263683,0.00870827787153523,0.9907032085053312
2013-03-08,1,0.0028641125368824272,0.0032576562350820158,-0.007336256853263683,0.00870827787153523,0.9913096611674154
2013-03-12,1,0.0025085051556773892,0.0028080932692765644,-0.007336256853263683,0.011258998381813956,0.9910236790158458
2013-03-14,1,0.002717912892841411,0.0030243989966000787,-0.007962173427177453,0.00870827787153523,0.9904868816366923
2013-03-18,1,0.003760112995500844,0.004239261092688346,-0.009178039833903077,0.008576072470263664,0.988813411991271
2013-03-20,1,0.00323423124104733,0.0036140685582099663,-0.013119914507727481,0.005675886943951289,0.9875464307401964
2013-03-22,1,0.0023812484029135505,0.0025893402498620077,-0.012840481173752239,0.009048648102495116,0.988241664314255
2013-03-26,1,0.0024881143072002154,0.0027035780950510745,-0.012840481173752239,0.010981613616575897,0.9879682830456025
2013-03-28,1,0.0021874018945666767,0.002390081054117751,-0.012840481173752239,0.010981613616575897,0.9881964435430395
2013-04-02,1,0.0013731283718598725,0.0014584823719278326,-0.006970818105705876,0.011546596477991373,0.9886017647300859
2013-04-04,1,0.0009289973210171104,0.0009460214669484005,-0.00611878673411323,0.010659471683110166,0.9892493746243514
2013-04-08,1,0.0012739394794658992,0.0012979944849519083,-0.00454566521634174,0.010997538632096418,0.9893788464693222
2013-04-10,1,0.0013858689115361178,0.0013863478594751517,-0.00454566521634174,0.010997538632096418,0.9894826459920938
2013-04-12,1,8.916844697903401e-06,0.0002022680357128227,-0.0037381765842485126,0.010997538632096418,0.9897964061657547
2013-04-16,0,-9.046403633775893e-05,9.418946915119104e-05,-3.4084054413030594e-05,0.011122619873373029,0.9905163547858108
2013-04-18,-1,-0.0009518728794664662,-0.000703392696809532,0.0026340119684429286,0.011122619873373029,0.9910297551802998
2013-04-22,1,5.381930869587136e-06,0.00010959689111120132,0.0032793942022907854,0.011350912868391783,0.9907853968797006
2013-04-24,1,7.046916544933856e-05,0.00023924069812163092,-7.176959875845629e-05,0.010997538632096418,0.9915419470197058
2013-04-26,-1,-0.0003725369317840927,-0.0001189913190902406,-0.0007119739935205364,0.010997538632096418,0.9916185218998054
2013-04-30,-1,-0.0003000171029312874,-1.4222803894997269e-05,-0.002799781551812282,0.009398535218503836,0.9920926131749154
2013-05-02,-1,-0.0007682111844011191,-0.0004283091072074846,-0.002799781551812282,0.010997538632096418,0.991671850200658
2013-05-06,1,0.0004983071808909944,0.0006437577678909715,-0.0056206148359749025,0.007906113350371865,0.9925270623965007
2013-05-08,1,0.0011301550592656968,0.0012033020808860458,-0.005682616980607105,0.007524245291403555,0.9920723691697251
2013-05-10,1,0.0003555720258318594,0.0005403544049531694,-0.0056206148359749025,0.010864817674737251,0.9906348637968544
2013-05-14,1,0.0019842868457615793,0.002084346103884171,-0.007160025857581431,0.00831125874096761,0.989281443372463
2013-05-16,1,0.0017006847370842693,0.001759225293554315,-0.010877260280187807,0.010864817674737251,0.9877686907599234
2013-05-20,1,0.002171388344500896,0.0022495954927168093,-0.010877260280187807,0.008382212332126384,0.9884751385965551
2013-05-22,1,0.0013223095665624363,0.0013539911769528026,-0.008749853850904087,0.008382212332126384,0.988735966719147
2013-05-24,1,0.0009951230448168261,0.001068666296404676,-0.009335740134859771,0.010864817674737251,0.9879643514441486
2013-05-29,1,0.0015721373955708906,0.001603439687166667,-0.009335740134859771,0.012826496665920992,0.9864127130697388
2013-05-31,1,0.001530865602547764,0.0015831004392886819,-0.009335740134859771,0.015292381436712178,0.9862602590824489
2013-06-04,1,0.0008185323092627674,0.0008786343820237082,-0.008800507892973401,0.016824068824501433,0.9854104504061677
2013-06-06,1,0.0005556017436011346,0.0006640497490537705,-0.005024702450206159,0.018182527415416386,0.9842707539965863
2013-06-10,1,0.0018792830207169933,0.0019482566401668924,-0.007767870312645322,0.016824068824501433,0.985502505578999
2013-06-12,1,0.0007809802538390555,0.0007833336053733869,-0.007518952123462703,0.016824068824501433,0.9864582523237262
2013-06-14,1,0.0005389128207223963,0.0005740507646350043,-0.004756844853218389,0.016824068824501433,0.987563766564001
2013-06-18,1,0.0004940059025302805,0.0005734666788005536,-0.007518952123462703,0.016824068824501433,0.9866193558008398
2013-06-20,-1,-0.0002165701307233908,-4.0893582271705206e-05,-0.004582581842844324,0.017842593175483073,0.9856715037959515
2013-06-24,0,0.0,0.0,-0.004324392011669894,0.018182527415416386,0.9852221217307712
2013-06-26,0,0.0,0.0,-0.004324392011669894,0.017842593175483073,0.9868958381211222
2013-06-28,1,0.0015797532286216844,0.0016633450154724717,-0.006725443222134261,0.015372695604851994,0.9871063593844539
2013-07-02,1,0.002006836705132859,0.002142847625776854,-0.006725443222134261,0.01078777638041522,0.9883151522597774
2013-07-05,1,0.0031617915841205694,0.003445293092488814,-0.006725443222134261,0.01078777638041522,0.9892716062981326
2013-07-09,1,0.0030395742666977634,0.003297280335508421,-0.006744382629939412,0.01078777638041522,0.9891087779712827
2013-07-11,1,0.0028390163011647023,0.0030666682371501275,-0.003999654573012221,0.01078777638041522,0.9894560650492776
2013-07-15,1,0.0024246854939039665,0.0025844367297619196,-0.005278352391857211,0.009154322614909918,0.9897914081754751
2013-07-17,1,0.0017094923110280611,0.0017602483684728307,-0.004286696923045823,0.008415392647594163,0.9907197306542176
2013-07-19,1,0.0022535952997780745,0.002314844374341777,-0.005278352391857211,0.006573655744170478,0.9909237944997245
2013-07-23,1,0.003175570109009017,0.003376010663780864,-0.0064570729539411035,0.006573655744170478,0.9910865835870691
2013-07-25,1,0.0031010163227942187,0.0032908598389830347,-0.007112949352007188,0.0070194160716035925,0.9901265488824876
2013-07-29,1,0.0033380612808399227,0.00359965919687836,-0.008328330261972631,0.0070194160716035925,0.9898736364706235
2013-07-31,1,0.003811037551641391,0.004163766252479796,-0.011423050465733466,0.0070194160716035925,0.9878723119553517
2013-08-02,1,0.004331088386850631,0.004743482455779733,-0.011423050465733466,0.0070194160716035925,0.9881562558059952
2013-08-06,1,0.0038398436899340334,0.004210645884053895,-0.010670029267263681,0.0070194160716035925,0.989043575083322
2013-08-08,1,0.003742883936796175,0.004111557085455148,-0.008077323195816036,0.0070194160716035925,0.989793036883376
2013-08-12,1,0.0033205957655801314,0.0036328046585655293,-0.008077323195816036,0.008296188297117944,0.9900492310937916
2013-08-14,1,0.0032250738743362073,0.003496092574952158,-0.008141551063593717,0.007810866923971109,0.9893772400180041
2013-08-16,1,0.0027499457956973936,0.0029574255321655244,-0.0073984710921242685,0.007810866923971109,0.9902285027693717
2013-08-20,1,0.0023492831587340144,0.002473440030108043,-0.006786599971533815,0.006903286004937835,0.991123602617769
2013-08-22,1,0.002312178984803891,0.0023674438805520726,-0.0073984710921242685,0.006027669555115958,0.9901650102227502
2013-08-26,1,0.0011063009583925233,0.0012103864893817549,-0.006808009260793042,0.006027669555115958,0.9904301889400409
2013-08-28,0,-5.350888813020812e-05,0.0001690983965436585,-0.006808009260793042,0.006027669555115958,0.9919552710824291
2013-08-30,1,7.266931340335918e-05,0.00024962196690248635,-0.004741516078328169,0.00525291760027266,0.9926086081368575
2013-09-04,-1,-0.0006457917200002221,-0.00033945033450059816,-0.006808009260793042,0.006027669555115958,0.9915688547932765
2013-09-06,-1,-0.0005090922141424139,-0.00017492094025208405,-0.006808009260793042,0.006027669555115958,0.9915899423688807
2013-09-10,-1,-0.0008914957456496305,-0.0004387402946204736,-0.00955696428339077,0.003740231181378912,0.9912659208523948
2013-09-12,-1,-0.00148570833856635,-0.000980551057021153,-0.00955696428339077,0.005434541174677391,0.9897852894684638
2013-09-16,-1,-0.0007855677906974435,-0.0004157829687206102,-0.00955696428339077,0.005434541174677391,0.9894216013638609
2013-09-18,-1,-0.000890434617073876,-0.0005079965158668802,-0.00955696428339077,0.006748225253157965,0.9884529832751549
2013-09-20,-1,-0.0021515537214705045,-0.0016510372394673372,-0.00678578623965254,0.011148759443213597,0.9880582457267117
2013-09-24,-1,-0.0029647491935237543,-0.002351461605599678,-0.0038478537831414202,0.011148759443213597,0.9884040726168238
2013-09-26,-1,-0.0029837054874145745,-0.002406030726500608,-0.0019803860028745094,0.011148759443213597,0.9887205961979197
2013-09-30,-1,-0.0021733513569742596,-0.0017266754682283552,-0.0019803860028745094,0.011148759443213597,0.9888676647196468
2013-10-02,-1,-0.0027146400570672857,-0.002185690716847757,-0.0038478537831414202,0.007543025230050052,0.9891339716483716
2013-10-04,-1,-0.001336755354163098,-0.0010154585993238743,-0.0038478537831414202,0.005574620487545771,0.9904174913295841
2013-10-08,-1,-0.0027560351102361015,-0.0022619870381599774,-0.0019803860028745094,0.005574620487545771,0.9907799540196868
2013-10-10,-1,-0.00048459891690267264,-0.00030567915024355544,-0.0031783974460044342,0.005192380293111417,0.9924145980011855
2013-10-14,-1,-0.00048192419495616124,-0.0002732471924501214,-0.0035444239727374237,0.005192380293111417,0.9907910034126808
2013-10-16,1,7.150158280852249e-05,0.0002224222232614367,-0.0035444239727374237,0.005192380293111417,0.991234150575853
2013-10-18,1,0.001440301805310624,0.0014529855053434994,-0.0050261024918944915,0.004762922014586083,0.9921657201333581
2013-10-22,1,0.0013438489783685692,0.0013456679074971404,-0.0050261024918944915,0.0041427319868621495,0.9922595217490087
2013-10-24,1,0.0008351877272427151,0.0009213273689337506,-0.0050261024918944915,0.004762922014586083,0.9916041575113941
2013-10-28,1,0.0008917900425115026,0.0009841736340280563,-0.006192349146370199,0.0035183988376667396,0.9914662028335955
2013-10-30,1,0.0008243668464238656,0.0008661878557902955,-0.0040863653045094366,0.0035183988376667396,0.9921037491327579
2013-11-01,-1,-0.00048074288208901634,-0.00018950623366765,-0.004997075882304079,0.0035183988376667396,0.9921937370654977
2013-11-05,-1,-0.0006065660029738509,-0.0002879676344729109,-0.006552982815099436,0.0043088248492844285,0.9909229878425885
2013-11-07,-1,-0.0010830555913787922,-0.0007179163509883012,-0.006552982815099436,0.005433652234871394,0.9910532541860435
2013-11-11,0,-6.073241797566089e-05,0.0002195753367013022,-0.006552982815099436,0.004647580749930257,0.9924370216896209
2013-11-13,1,0.0001302439156702339,0.00038871348296659006,-0.006156210848005897,0.004647580749930257,0.9925302560582606
2013-11-15,1,0.00018639251316462252,0.0003679407581449991,-0.005592496510761448,0.010083543175156617,0.9920713493770895
2013-11-19,1,0.00020844162383624554,0.00036508071227667617,-0.006156210848005897,0.012919425483745691,0.9909380344624106
2013-11-21,1,0.0013801500252815994,0.001419503795409048,-0.006156210848005897,0.010083543175156617,0.9915250637757403
2013-11-25,1,0.0021136310035775605,0.0023720465597566846,-0.005592496510761448,0.010978874656088959,0.9913698847528424
2013-11-27,1,0.00153285246783267,0.0016745541612223419,-0.005592496510761448,0.010978874656088959,0.9914454168033572
2013-12-02,1,0.0006350759640076229,0.0006683794343995216,-0.003644921287533572,0.010978874656088959,0.991767060787173
2013-12-04,1,0.001262030851627178,0.0013365898123876138,-0.003644921287533572,0.009615205045367456,0.9928484672915485
2013-12-06,1,0.0012527926647173918,0.0013074369232101255,-0.0029966660673307814,0.009085940772413327,0.9933523932043978
2013-12-10,1,0.0019057391477266615,0.002113104669116373,-0.001863422193446783,0.009141198621693379,0.9935567897530897
2013-12-12,1,0.0024362827601691252,0.002756501166273938,-0.0029966660673307814,0.007832628760396568,0.9932523603835297
2013-12-16,1,0.002981456662435506,0.003383066118407405,-0.001863422193446783,0.007606919002861849,0.9937864530448949
2013-12-18,1,0.002611123051126026,0.0029276862601885704,-0.001863422193446783,0.007428022961676789,0.9944079810625135
2013-12-20,1,0.0028021993799964523,0.0031594900218249694,-0.001863422193446783,0.008331871351150277,0.992717822220764
2013-12-24,1,0.0031564905648213556,0.0036014186337942652,-0.009507522621226724,0.007606919002861849,0.9886504809415222
2013-12-27,1,0.0027171552618303796,0.0030716908444886662,-0.009507522621226724,0.007858600126597804,0.9885186624137703
2013-12-31,1,0.002618855519228762,0.0029462471714933837,-0.009507522621226724,0.007858600126597804,0.9880050271370762
2014-01-03,1,0.002136951981394254,0.0023752848521746903,-0.011158415435879903,0.007858600126597804,0.9858152342326667
2014-01-07,1,0.00278859970891063,0.0031268430020093274,-0.011158415435879903,0.007858600126597804,0.985316331403124
2014-01-09,1,0.0030909613978430265,0.003443078962678767,-0.011158415435879903,0.007858600126597804,0.9846753478542993
2014-01-13,1,0.0022537937089044877,0.0024979974232332163,-0.008750819683729061,0.008399394791162806,0.9851641364219057
2014-01-15,1,0.0029082145441670015,0.0032603843741348558,-0.008750819683729061,0.008174540839495207,0.9851801858779254
2014-01-17,1,0.0020695580230292365,0.0022665528491725368,-0.007211535887570788,0.008174540839495207,0.9857479382076514
2014-01-22,1,0.0027143029434410224,0.002919960586705911,-0.010057384491140044,0.00778364880937527,0.9861008343391144
2014-01-24,-1,-0.000587970106177051,-0.000374761842704714,-0.005856975278745996,0.008189395297954974,0.9897454070989794
2014-01-28,-1,-0.0006108858412686998,-0.00039253819444698206,-0.005856975278745996,0.008730012566296083,0.9897079951641121
2014-01-30,-1,-0.0002756968463413532,-0.00012801728802675101,-0.005421460447780375,0.009377299556818397,0.9898265380484507
2014-02-03,-1,-0.001820856478899085,-0.0015272416845044097,-0.0030920995319832743,0.00988268387767351,0.9899349507434301
2014-02-05,-1,-0.001939084856878218,-0.0016065019563007263,-0.0026749632796370408,0.00988268387767351,0.9897728169856264
2014-02-07,-1,-0.0008093085209503378,-0.00061725048228446,-0.0026749632796370408,0.00988268387767351,0.9903286210569938
2014-02-11,-1,-0.0006433974415278747,-0.00047077599536176235,-0.0026749632796370408,0.009377299556818397,0.9905165443931133
2014-02-13,-1,-0.0014278846480109584,-0.0010919916007864606,-0.002566168033100969,0.009377299556818397,0.9905333783668532
2014-02-18,-1,-0.0017358678122839327,-0.001337854638211029,-0.002566168033100969,0.010020896069348655,0.9899647888138633
2014-02-20,-1,-0.002439209906118054,-0.001944703351276395,-0.0010889023737724714,0.013272969698057094,0.9894096865932417
2014-02-24,-1,-0.0019275182134231186,-0.0014935397989772983,-0.004009193703324267,0.013272969698057094,0.9902466741268335
2014-02-26,-1,-0.0019456445225973903,-0.001505962646639483,-0.004009193703324267,0.013272969698057094,0.9897994944609468
2014-02-28,-1,-0.0012511521215957178,-0.0009193397066337687,-0.005379224422106198,0.012751254225634294,0.989301205018418
2014-03-04,-1,-0.001392016892526314,-0.000984981350056238,-0.004009193703324267,0.01148438413352302,0.9902710720898646
2014-03-06,0,-7.832632667292925e-05,0.00011276886472475498,-0.002846786695127796,0.010224466385829339,0.9911892554757087
2014-03-10,1,0.001012548875489227,0.0010566535230749886,-0.008521415378640016,0.009301323462353428,0.9903768985672332
2014-03-12,1,0.0006546559832083319,0.0007148781134377487,-0.005379224422106198,0.009301323462353428,0.9907974113593939
2014-03-14,1,0.0013946445278826647,0.0014949985756428467,-0.013942266618933372,0.009301323462353428,0.9881679916145323
2014-03-18,1,0.001733000811653045,0.0018832179805795908,-0.013942266618933372,0.009829081110789686,0.9878708591508147
2014-03-20,1,0.0027223814584903076,0.0029956654822883245,-0.013942266618933372,0.008035425474501215,0.9892332893581606
2014-03-24,1,0.0023279604350490775,0.0025621401177517403,-0.013942266618933372,0.009301323462353428,0.9889621603725319
2014-03-26,1,0.0017811365916412711,0.0019019740256038032,-0.016291609865324085,0.008035425474501215,0.9886595285060213
2014-03-28,1,0.001511648890795217,0.0015923612506794694,-0.01523052125434261,0.007221778045618781,0.9887740916484908
2014-04-01,1,0.0019323668491073559,0.0020677552781711013,-0.01523052125434261,0.008218979531156318,0.9885445385682102
2014-04-03,1,0.0018250164486312637,0.001924134767310824,-0.01523052125434261,0.009984428864856914,0.9880911983298908
2014-04-07,1,0.0010587760116514938,0.0011385351509475158,-0.009741179179746765,0.009984428864856914,0.988950900358958
2014-04-09,1,0.00132133394023119,0.0014395759460499636,-0.009741179179746765,0.010384228022672234,0.9883374071218038
2014-04-11,-1,-0.0011119652486600027,-0.0009099838409244557,-0.003671068482848994,0.010500620318716389,0.9900076486310134
2014-04-15,-1,-0.0005316458640951779,-0.0003858194251545188,-0.006421422347725642,0.010384228022672234,0.9894296414175018
2014-04-17,0,-2.693089889496469e-05,4.119387566774987e-05,-0.009419212640357728,0.010384228022672234,0.9889492322384356
2014-04-22,1,0.0007885994708616283,0.0008095853342863923,-0.009419212640357728,0.010384228022672234,0.9889832535327793
2014-04-24,-1,-0.00017604671328557098,-7.216785797743735e-05,-0.006421422347725642,0.010384228022672234,0.989778156717163
2014-04-28,-1,-0.0012060834942775474,-0.0009665677454747559,-0.004732682013037025,0.010838404070773962,0.9897857393524916
2014-04-30,-1,-0.00028911627390655186,-0.0001652160447851943,-0.004732682013037025,0.008255806506823634,0.9906180581694465
2014-05-02,0,-8.749672322914541e-05,3.192608057082827e-07,-0.003844546610844899,0.00736812451154656,0.9909410940705689
2014-05-06,-1,-0.0008694251098307883,-0.0006958449998051993,-0.0031524226699190744,0.007663148537876593,0.991406726875772
2014-05-08,-1,-0.00023654284407036277,-0.00014662407500680365,-0.0031524226699190744,0.007663148537876593,0.9916138369608137
2014-05-12,1,0.000776110144416234,0.0008364194109635823,-0.003844546610844899,0.007663148537876593,0.9911974139841686
2014-05-14,-1,-0.0006586871462902114,-0.0005430128467125646,-0.004732682013037025,0.007663148537876593,0.9920484155802581
2014-05-16,-1,-0.0012799633011826709,-0.0010986809438358008,-0.003566362151873939,0.007663148537876593,0.9918475413558111
2014-05-20,-1,-0.0006949867705983617,-0.0006002066834472489,-0.0012897160883683103,0.007663148537876593,0.9921214556928895
2014-05-22,-1,-0.0006018212655031572,-0.0005109585165630745,-0.001414882748242952,0.0074726649670509284,0.9921917539029633
2014-05-27,1,0.00017989320727425435,0.00018306698736896554,-0.004203903248841345,0.007225694501503846,0.9928862749103777
2014-05-29,1,0.000206746160673332,0.00021580508070535422,-0.004203903248841345,0.0074726649670509284,0.9926307477603519
2014-06-02,1,0.0008966134929549981,0.0010110450558229594,-0.005223660297322303,0.007393729480616769,0.9928685122594266
2014-06-04,1,0.0014175755650208523,0.001633980789309646,-0.005223660297322303,0.006543353511625319,0.9929255328751141
2014-06-06,1,0.001559060668367097,0.0017478839309430913,-0.00663138298598777,0.005244796036047729,0.9924815151674585
2014-06-10,1,0.0023619133109709593,0.0026863260016547616,-0.0068197571559689835,0.005071084944398993,0.9933457014550879
2014-06-12,1,0.0015945170766036043,0.0017939981569181215,-0.005743717604547165,0.005071084944398993,0.9936342646029647
2014-06-16,1,0.002096655265177589,0.00245213845007129,-0.0048610900471231875,0.005803543849656732,0.9937978023072709
2014-06-18,1,0.0010437912428638734,0.0010740736331099504,-0.00874297144093281,0.005071084944398993,0.9915785833233909
2014-06-20,1,0.0010080437040650048,0.0010402383032038463,-0.00874297144093281,0.005071084944398993,0.9917055379495908
2014-06-24,1,0.0005780468706515504,0.0006039698569266238,-0.00957647033095289,0.005071084944398993,0.9917083375865386
2014-06-26,-1,-0.0003024726506854746,-7.357981735207333e-05,-0.00957647033095289,0.0056908019616456335,0.9913387957256186
2014-06-30,-1,-0.0003901563107134295,-0.00015329805390055628,-0.009932248052789193,0.0056908019616456335,0.9909176280693952
2014-07-02,1,0.00010305716837738331,0.00023033609673477285,-0.010364717092562896,0.00640527593718702,0.9901394724207786
2014-07-07,1,0.00015120502447369576,0.0002671138955578792,-0.01108098373205866,0.0056908019616456335,0.9901011996289184
2014-07-09,0,-4.132774515965752e-05,9.27959339025619e-05,-0.010594555329828982,0.003176840422604581,0.9906004370957325
2014-07-11,-1,-0.0004199931396148056,-0.00024281119308190214,-0.01304343303540512,0.00640527593718702,0.9896016161713729
2014-07-15,-1,-0.0002713236212550772,-8.330867889720704e-05,-0.01304343303540512,0.004916672511843587,0.989513992133776
2014-07-17,-1,-0.0020985231532478447,-0.0017241779994341725,-0.010155205285183082,0.004916672511843587,0.9920436487403912
2014-07-21,-1,-0.001939023278462701,-0.0015863286438934756,-0.010155205285183082,0.005448238876472061,0.9915027700377533
2014-07-23,-1,-0.002001996729936401,-0.0016630534794384003,-0.00976962617656188,0.008387933472427611,0.991220722360897
2014-07-25,-1,-0.000857996246586751,-0.0006830523460063246,-0.00976962617656188,0.0058361973178272285,0.9916713275497772
2014-07-29,-1,-0.0011902157136364588,-0.0010095115097129644,-0.005648537049534553,0.009582013563510385,0.9916923216038519
2014-07-31,-1,-0.0008113100942028556,-0.0007221653301393092,-0.008240653935574584,0.005866402084844499,0.9921130666997118
2014-08-04,-1,-0.002047579611349701,-0.001786440885912319,-0.00450959072756876,0.007969568481754195,0.9921760875761639
2014-08-06,-1,-0.0020557995676057984,-0.0017978503104532887,-0.004407569967675003,0.007969568481754195,0.9920392188725041
2014-08-08,-1,-0.0016402259292504426,-0.001457663641582586,-0.002803810797715211,0.0073611455966252,0.9933950920259423
2014-08-12,-1,-0.00105285101304113,-0.0010022230779814926,-0.002803810797715211,0.007969568481754195,0.9926648754137652
2014-08-14,-1,-0.0011553828502799198,-0.0010733690321515395,-0.003793893801735396,0.007969568481754195,0.9924565349517853
2014-08-18,-1,-0.0005554257596272238,-0.0005399523777104327,-0.004407569967675003,0.0073611455966252,0.9929350412496764
2014-08-20,-1,-0.0002906005846590534,-0.0002813781493033894,-0.003793893801735396,0.007969568481754195,0.9927088607205473
2014-08-22,1,0.00033465458466809517,0.0004631236557268222,-0.008210873036089365,0.0073611455966252,0.9921824067265396
2014-08-26,1,0.0009647201955733977,0.0011899469550468622,-0.008644273572144642,0.006714067542278849,0.9920928769391503
2014-08-28,-1,-0.0003340035271028908,-0.000308203731031112,-0.009226366694074112,0.006714067542278849,0.9919830651542377
2014-09-02,1,0.0003731511844145691,0.0004570630097909761,-0.009226366694074112,0.005337612490282726,0.9921441419631186
2014-09-04,-1,-0.0008614205773674039,-0.0006836911876652133,-0.011109687731319217,0.0031985396884214425,0.9921111040625136
2014-09-08,-1,-0.0003261122091081549,-0.0002453404126453318,-0.011109687731319217,0.006099993996273671,0.9906300081397358
2014-09-10,1,0.00016643592103825596,0.00017611080628486292,-0.011109687731319217,0.006099993996273671,0.9898613555882675
2014-09-12,1,0.0007062204817499918,0.0008180197062956969,-0.012112022666722634,0.0031985396884214425,0.9879356618282977
2014-09-16,1,5.248598220049862e-05,6.73099575967863e-05,-0.012112022666722634,0.006823522458833894,0.987684113712162
2014-09-18,1,0.0002750688404119642,0.0002854711055578808,-0.012847650842018759,0.002736755079419448,0.9856432568066799
2014-09-22,-1,-0.00011184285928088023,-8.35959441357345e-05,-0.011528252613217542,0.006823522458833894,0.9858333652208147
2014-09-24,-1,-0.0004855973072970941,-0.00041627244223098477,-0.011109687731319217,0.00964776352163766,0.9858893128573825
2014-09-26,-1,-0.0009462508437942066,-0.0007967046042314191,-0.009470047226026256,0.009754208545983129,0.9859064187732723
2014-09-30,-1,-0.0010383750940001378,-0.0008967461084750639,-0.009470047226026256,0.010836436297569411,0.9854916148730033
2014-10-02,-1,-0.000922930966343761,-0.0008223036973075958,-0.008624209809055712,0.010836436297569411,0.9854767294098945
2014-10-06,-1,-0.0009989462528336255,-0.000845837046477972,-0.006139645790198931,0.010836436297569411,0.9863011441031967
2014-10-08,-1,-0.0010765634511803786,-0.0008928006832098084,-0.004303985541317614,0.009754208545983129,0.9881071716863349
2014-10-10,-1,-0.0020289952082267262,-0.0017462333234566686,-0.0009897108131790944,0.010803007074373233,0.9889540770606717
2014-10-14,-1,-0.0019420193362716801,-0.0016748730319235269,0.0,0.010803007074373233,0.9893433966456358
2014-10-16,-1,-0.002887141860832459,-0.0025341560833133563,0.0,0.010803007074373233,0.9917166085424003
2014-10-20,-1,-0.002144159391922393,-0.0018865798489946198,-0.00265883547879172,0.008730869458126813,0.9930635881197671
2014-10-22,-1,-0.0017568522553408363,-0.001559719545358372,-0.0016833728487063429,0.007430347733863963,0.9935269773317952
2014-10-24,-1,-0.0011957762641787368,-0.0010743773170280456,-0.0030039777673929557,0.005645637077907136,0.9940328623727892
2014-10-28,-1,-0.0004993703570953298,-0.00048135863032950667,-0.0030039777673929557,0.005645637077907136,0.9938676090277828
2014-10-30,-1,-0.00014627060660725363,-9.528357534633426e-05,-0.003338249331225251,0.00544239707125125,0.993947394847588
2014-11-03,1,2.7346082345637367e-05,8.531541815495709e-05,-0.006866099446902994,0.005284011410616212,0.9934245841610385
2014-11-05,1,0.000132087238683241,0.00019419142804717686,-0.006866099446902994,0.006111653886378396,0.9927215323923768
2014-11-07,1,0.00047466821818074406,0.0006056917880686128,-0.004580071152374636,0.006111653886378396,0.9924401595573066
2014-11-11,1,0.0006979814862740337,0.0008646000634695758,-0.007636112814771209,0.006070060511549593,0.9912516388162632
2014-11-13,1,0.000565207035946672,0.0007022340795936754,-0.008239745858303421,0.006070060511549593,0.9903955925443036
2014-11-17,1,0.0003995490032424423,0.0005329200423163536,-0.008382450483437021,0.006070060511549593,0.9904454151958221
2014-11-19,1,0.000548953299399119,0.0007067448265056955,-0.008382450483437021,0.010008867610113343,0.9882855757429257
2014-11-21,1,0.0005148631307025388,0.000670767400201466,-0.004923986792018973,0.010008867610113343,0.9887239491389053
2014-11-25,1,0.001162898235693908,0.001412612916473957,-0.004923986792018973,0.010008867610113343,0.9889401063663231
2014-11-28,1,0.0010805591136358373,0.00131515968746009,-0.0035742661538731868,0.010008867610113343,0.989364150038055
2014-12-02,1,0.00046333028491383197,0.0006059836669836869,-0.0035742661538731868,0.010008867610113343,0.9896882432260172
2014-12-04,1,0.0012582078126040991,0.0015305637279993504,-0.0062674584244463635,0.0053887337530552385,0.9890112223603179
2014-12-08,1,0.0010318495802068904,0.001193355503774023,-0.014209776725298238,0.0053887337530552385,0.9883442700841758
2014-12-10,1,0.0006204580634500311,0.0007344430839487136,-0.014209776725298238,0.005668640280596702,0.9874956710307974
2014-12-12,1,0.00017803724433300617,0.0002224537882458993,-0.012877363792332244,0.005668640280596702,0.9872905835556194
2014-12-16,1,0.0001220874394504144,0.00019474241589230174,-0.015871837105313456,0.005668640280596702,0.9859160274925415
2014-12-18,1,0.0013268403000038511,0.0015296119274720308,-0.015871837105313456,0.003423905490659314,0.9866431130399154
2014-12-22,1,0.0013227018715812836,0.00151614213029619,-0.015871837105313456,0.00620085647742704,0.9829858003455083
2014-12-24,1,0.0012913813443177636,0.0014386330882968218,-0.015871837105313456,0.00620085647742704,0.9831490282723294
2014-12-29,1,0.0012815654613808638,0.0014219747006460983,-0.02121230266663725,0.00620085647742704,0.9813405134897213
2014-12-31,1,0.0008941110218673156,0.000982453944244578,-0.02121230266663725,0.009712244892202352,0.9804888295746373
2015-01-05,-1,-0.0002561948982072974,-0.00018757681105094527,-0.01716531946057289,0.019825806158491763,0.980189480509862
2015-01-07,-1,-0.0009457348937346998,-0.0007986563184718574,-0.013435681986039161,0.019825806158491763,0.981071645696388
2015-01-09,-1,-0.0009032601096299706,-0.0007835677456706278,-0.013435681986039161,0.019825806158491763,0.9812050908259855
2015-01-13,-1,-0.0014509280928895908,-0.0012802015301466318,-0.013435681986039161,0.019825806158491763,0.9817359683712147
2015-01-15,-1,-0.002517249313197532,-0.0022359363273509758,-0.007050894328831515,0.019825806158491763,0.9823026400482626
2015-01-20,-1,-0.0019336915714488019,-0.001743242388672276,-0.007381128728584643,0.01957057550473313,0.9830301751616789
2015-01-22,1,0.000241866119485495,0.0002888153851283316,-0.007381128728584643,0.018686767179615815,0.9867339532116917
2015-01-26,1,0.000874790954583624,0.0010294217837116728,-0.009037286069493715,0.018686767179615815,0.9865826324082655
2015-01-28,-1,-0.0001664511636688411,-0.00014755828754918184,-0.004628297541848409,0.018686767179615815,0.9880871200918274
2015-01-30,1,2.4533424739216594e-05,7.56641349606146e-05,-0.004628297541848409,0.013778617851984941,0.9889438111019082
2015-02-03,1,0.0013482596152605475,0.0015891954246906865,-0.006014046999986418,0.007561715784521843,0.9906723732333549
2015-02-05,1,0.0018239668373643745,0.00213270418878794,-0.006014046999986418,0.009530222867775145,0.9904295719545845
2015-02-09,1,0.0018504777633096034,0.0021489332899082485,-0.006014046999986418,0.007561715784521843,0.9913130854964767
2015-02-11,1,0.002252386033139592,0.0026402464114175126,-0.006014046999986418,0.012403487441014362,0.9898977044060961
2015-02-13,1,0.002171447961431236,0.002503963793058286,-0.00691916207022572,0.009530222867775145,0.990490588005579
2015-02-18,1,0.0016123382110277667,0.0018462814199482057,-0.00691916207022572,0.009530222867775145,0.9907331358455533
2015-02-20,1,0.0016602366215188492,0.001890974366310324,-0.00691916207022572,0.012403487441014362,0.990407676260168
2015-02-24,1,0.0015755853829847216,0.0017744399450105482,-0.00691916207022572,0.008083080614540479,0.9900744165444628
2015-02-26,1,0.0014496023757102471,0.0016147539074025357,-0.007752772343984643,0.009652235028197946,0.9890907024040059
2015-03-02,1,0.0014186769862012834,0.0016014481667306001,-0.007752772343984643,0.013283672114137128,0.9888265283493715
2015-03-04,1,0.0012334734554335603,0.0014022611572758665,-0.007529050023515482,0.013283672114137128,0.989129040207525
2015-03-06,1,0.0012550502226180622,0.001353482616317953,-0.007529050023515482,0.006905230412108478,0.9897778210165873
2015-03-10,1,0.0006125577392533633,0.0006209069180485894,-0.006830571755319053,0.006905230412108478,0.9905812794143132
2015-03-12,1,0.0009980766708619984,0.0010476640062188414,-0.007423771568232856,0.005724061008905444,0.9921359727433309
2015-03-16,1,0.0012504161466291197,0.001267260518732186,-0.009266600838006053,0.006355943047862328,0.9914763566261415
2015-03-18,1,0.0009496771215350237,0.0009648203782642657,-0.007409755360149243,0.006925464428269232,0.9911563296447758
2015-03-20,1,0.0014717329298562477,0.0015485802999534067,-0.009502564041959618,0.00691635887231196,0.9904876647063349
2015-03-24,1,0.0009150317050323244,0.0009433937070796486,-0.007027180731885627,0.008525775836975107,0.9911565786684531
2015-03-26,1,0.0005386907062558507,0.0005559315099043619,-0.006654573448287704,0.00691635887231196,0.9921397884440757
2015-03-30,1,0.0008235697302352032,0.0008634149831188145,-0.006654573448287704,0.00691635887231196,0.9923793562163813
2015-04-01,1,0.0007951290240213256,0.0008417680754534648,-0.006654573448287704,0.009045202495568214,0.9916780633678218
2015-04-06,1,0.000820728866522148,0.0008780337515628958,-0.005075640134014472,0.010793971074595479,0.991348162588382
2015-04-08,1,0.00092736634743742,0.0010091978096081638,-0.007861390059568344,0.010793971074595479,0.991163829731753
2015-04-10,1,0.0005468536354520763,0.0005724348014761256,-0.0076230996807060605,0.01184098597691589,0.9905197599718611
2015-04-14,1,0.00027885717994835106,0.0003152608073123802,-0.00449695776620568,0.011051316588974777,0.9911000918700799
2015-04-16,1,0.0009429795415854522,0.0009932348972506325,-0.00449695776620568,0.011051316588974777,0.9914179462136179
2015-04-20,1,0.00038977755036288396,0.0004187901697953004,-0.00449695776620568,0.011051316588974777,0.991621066477717
2015-04-22,1,0.000999674574284648,0.001086944969496992,-0.0076230996807060605,0.011627180698227062,0.9909903568567636
2015-04-24,1,0.0006566315350851068,0.0006909584159137819,-0.00449695776620568,0.011627180698227062,0.991146414190357
2015-04-28,1,0.00023231213155469951,0.0002900425354863332,-0.003937446276791184,0.011627180698227062,0.9914008970710408
2015-04-30,1,0.0009528180202275571,0.0010199757237773803,-0.0064168500026133,0.01090673924987684,0.9909829980348663
2015-05-04,1,0.001546594299067481,0.0017224303956803995,-0.0064168500026133,0.009440595475422111,0.9911573562128025
2015-05-06,1,0.0008354980482740935,0.0008824597379140466,-0.006031232941438567,0.01090673924987684,0.9910118724014284
2015-05-08,1,0.0007980591978866042,0.0008132709785217194,-0.005531861193625948,0.01090673924987684,0.9910345000654067
2015-05-12,1,0.0007195246100530888,0.0007414292145919893,-0.005531861193625948,0.011559993456378816,0.9907586934114535
2015-05-14,1,0.0018533308699142435,0.0020692517197559695,-0.005531861193625948,0.009440595475422111,0.9910479845980554
2015-05-18,1,0.0016827181831105078,0.0018771395602829601,-0.00494308799922704,0.008818789828698102,0.9920130987627968
2015-05-20,1,0.0020228195054012984,0.0022809670396368295,-0.00494308799922704,0.00809461814783384,0.9922626593155539
2015-05-22,1,0.0018689805807323347,0.0021117790563245486,-0.005531861193625948,0.008818789828698102,0.9914930577498686
2015-05-27,1,0.001714924643665597,0.001914005479007904,-0.006031232941438567,0.010134806809045101,0.9907917461119411
2015-05-29,1,0.0003932743229483939,0.0004246412148422216,-0.004116686090328301,0.010134806809045101,0.9917938625199407
2015-06-02,0,-1.8309649382375283e-05,9.703095770555815e-05,-0.004432592030105558,0.00931693092529194,0.9910648076581161
2015-06-04,0,-4.30494048754914e-05,8.651153992089933e-05,-0.005518886854603468,0.009466107290280443,0.9903536261501601
2015-06-08,1,9.326633235157248e-05,0.00024630404610092096,-0.007599157758192478,0.0063645661251699945,0.9909890293284745
2015-06-10,-1,-0.00027477613260456753,-1.8864022535639534e-05,-0.010883827818355717,0.0063645661251699945,0.9904951397493941
2015-06-12,-1,-0.0004116566087955043,-0.0001495873527987161,-0.010883827818355717,0.007912355648752669,0.9899668206272588
2015-06-16,1,0.0008266808445328059,0.0008297235939923425,-0.010883827818355717,0.008359299170501322,0.9893472978497645
2015-06-18,1,0.0008430538878633151,0.0008571143194850881,-0.011321775772282584,0.008359299170501322,0.9891309820776603
2015-06-22,1,0.00019308578510010603,0.0003098953700966068,-0.011409095525853227,0.008359299170501322,0.9890924715990919
2015-06-24,1,0.0001223662051097148,0.00025789287327776576,-0.010830155147186223,0.008359299170501322,0.9889755544862698
2015-06-26,1,0.0006080696389784074,0.0006294865625873371,-0.01256200041876547,0.008359299170501322,0.9878975841851747
2015-06-30,1,0.00015388686427654158,0.00020832458950538853,-0.010830155147186223,0.009513466529477665,0.988784531264875
2015-07-02,1,0.00032470677553253285,0.0003582891097931144,-0.009144608140161407,0.008359299170501322,0.9899963246294518
2015-07-07,0,-4.337924025666671e-05,3.22078853920441e-05,-0.009144608140161407,0.008359299170501322,0.9899415787354081
2015-07-09,0,-2.1385260643787518e-05,3.2622295393071034e-05,-0.00860661273667398,0.007445487469581852,0.9910284300961879
2015-07-13,1,0.0001503838755124736,0.00020317064683050164,-0.009144608140161407,0.0077618989091542065,0.9901176240914306
2015-07-15,1,0.0006344051231409325,0.0006472778024723668,-0.01154447729531713,0.004220135647914444,0.9889320589750179
2015-07-17,0,-3.354465784928044e-05,2.9286492198354154e-05,-0.010764413265594703,0.0106805087526551,0.9889600663504573
2015-07-21,1,0.00013630098966745433,0.00017786963027598265,-0.009382715522871708,0.007616831572041589,0.9900509782978569
2015-07-23,1,0.00016677406760947852,0.0002170551029547099,-0.011478735413725608,0.004745790513895356,0.9895884875690251
2015-07-27,-1,-0.0009258325441662968,-0.000718204251983203,-0.012619742912336003,0.004745790513895356,0.9864816533899226
2015-07-29,1,3.175114882466619e-05,6.845848062336613e-05,-0.017248447951891767,0.004745790513895356,0.9829748364353272
2015-07-31,-1,-0.0006170339543396959,-0.0004717109572814737,-0.017248447951891767,0.008169074674441182,0.9816295638175587
2015-08-04,1,9.432445204637716e-05,9.83802665774626e-05,-0.02108391521130645,0.006135178309032922,0.9796317298826491
2015-08-06,-1,-2.0254201557631885e-05,-1.5174991067616023e-06,-0.02108391521130645,0.012551549015218785,0.9788094444543612
2015-08-10,1,9.968991977472137e-05,0.0001137380419198906,-0.02108391521130645,0.012551549015218785,0.9782607438573748
2015-08-12,-1,-0.0006649894028882238,-0.0005754488119549587,-0.015253512597664585,0.012551549015218785,0.9795217252880515
2015-08-14,-1,-0.000379026348684019,-0.0002955612125113114,-0.015253512597664585,0.007436249567691293,0.9802162719370795
2015-08-18,-1,-0.0005053541455346912,-0.00039369810128808886,-0.015253512597664585,0.011363931342735,0.9796656543916297
2015-08-20,-1,-0.0015674245039451347,-0.0013312757870115976,-0.02320890187543318,0.011363931342735,0.978735955608367
2015-08-24,-1,-0.0038830071305042744,-0.0033752081340170806,-0.015253512597664585,0.015654000891579922,0.9812368560001977
2015-08-26,-1,-0.0028212242478502883,-0.00243941261509193,-0.011569428298568576,0.011189791757975421,0.9844372153080722
2015-08-28,-1,-0.002051382097224419,-0.001763752204210451,-0.015753605800824515,0.011189791757975421,0.9831949588798782
2015-09-01,-1,-0.0034681187792642686,-0.0030039790097537763,-0.011569428298568576,0.015654000891579922,0.9841311285519344
2015-09-03,-1,-0.0026311875733753243,-0.0022707867583705234,-0.011569428298568576,0.0088662727506396,0.9850950460535465
2015-09-08,-1,-0.0018202297759234234,-0.0015809951223644848,-0.009136567531680758,0.0088662727506396,0.985914390888315
2015-09-10,-1,-0.002174189175555287,-0.0018793725487008545,-0.008434332260656367,0.0088662727506396,0.9860194094915626
2015-09-14,-1,-0.0019778166930173834,-0.001717093669835337,-0.011642700313236819,0.00903837244894317,0.9852216229502796
2015-09-16,-1,-0.0017109059638334904,-0.001472955759362252,-0.021458580841530323,0.006402985229603293,0.9846543557410657
2015-09-18,-1,-0.003497448891792037,-0.003051756487944165,-0.008676695777492442,0.00903837244894317,0.9849301412610028
2015-09-22,-1,-0.0033757925725157404,-0.0029636601244295516,-0.008676695777492442,0.009567804621874676,0.9854159145363973
2015-09-24,-1,-0.003223010846281569,-0.0028469979943226333,-0.009493614573646218,0.0136018427381433,0.9845835383947495
2015-09-28,-1,-0.0034030046444627673,-0.0029935833984710714,-0.008583922617212615,0.0136018427381433,0.9862951552380347
2015-09-30,-1,-0.0026492463774560786,-0.002341392720148965,-0.008977789106079052,0.0136018427381433,0.9849582422057943
2015-10-02,-1,-0.0028414226593303548,-0.002528871816821439,-0.01283576559214142,0.0136018427381433,0.9806493892620468
2015-10-06,-1,-0.0015844209588604867,-0.001436938102011365,-0.01283576559214142,0.0136018427381433,0.9802449196426462
2015-10-08,-1,-0.0013632872629327963,-0.001237865426217153,-0.01283576559214142,0.014938000872308307,0.9798083853984927
2015-10-12,-1,-0.0014960226040449459,-0.001366996560284695,-0.012056091137603276,0.01925881092925864,0.9788826203470097
2015-10-14,-1,-0.0023610398691924265,-0.002128519854158712,-0.009345936832564083,0.01925881092925864,0.9799341588942906
2015-10-16,-1,-0.0011770957796421425,-0.001090130360129321,-0.014365923996572121,0.014938000872308307,0.9812358562026692
2015-10-20,-1,-0.001306867929358124,-0.0011759052333574294,-0.014365923996572121,0.012715313029397279,0.9820058246627842
2015-10-22,-1,-0.00135805126976301,-0.0012285356330256434,-0.01011588111888703,0.01558125791655235,0.9823051555964841
2015-10-26,-1,-0.0006912832273141711,-0.0006519237966687307,-0.01011588111888703,0.010566152473879816,0.983674521227389
2015-10-28,1,0.0005580401300539714,0.0007168542486745074,-0.007411836872212938,0.005215888065759444,0.9862507528482507
2015-10-30,-1,-0.0018085893437104848,-0.00170097801598329,-0.0028470203048853353,0.005215888065759444,0.9907268468279096
2015-11-03,-1,-0.0009236105420161746,-0.0009205305777614332,-0.004734749887094684,0.005215888065759444,0.9911832060393478
2015-11-05,-1,-0.0003557910728817235,-0.00027250339436159145,-0.007187868257689471,0.005215888065759444,0.9897798284739772
2015-11-09,1,2.367718709155763e-05,0.00015625277997113738,-0.01270332446288908,0.00380232231256541,0.9907802091616863
2015-11-11,1,0.0001542220298570576,0.0003147438826693135,-0.013005929054822703,0.005215888065759444,0.9898639773396659
2015-11-13,-1,-0.0004673816520700711,-0.000385748054171977,-0.01270332446288908,0.005215888065759444,0.9901771018607174
2015-11-17,-1,-0.00016452541598351104,-4.349217656256064e-05,-0.01270332446288908,0.01296171090248964,0.988144812104091
2015-11-19,1,3.1014642826724574e-07,0.00011702991019612707,-0.013924444755536614,0.005977630577310914,0.9867848621458329
2015-11-23,1,0.00017609478735724056,0.0003270584219356885,-0.013924444755536614,0.012700167280026157,0.9855697257302712
2015-11-25,1,0.00022618651225242816,0.00037017468963241457,-0.013924444755536614,0.013686344419076707,0.9844476155652381
2015-11-30,1,0.00014622933581253972,0.0002752836591583982,-0.013924444755536614,0.013686344419076707,0.9840810074484796
2015-12-02,1,0.0004766562091617528,0.0006766122961113448,-0.013924444755536614,0.012700167280026157,0.984510660991042
2015-12-04,1,0.0013556625477890716,0.001700219033832153,-0.014704321517113386,0.012453774007182294,0.9853703728474494
2015-12-08,1,0.000421254729567959,0.0006111295064383925,-0.017552781535185767,0.012453774007182294,0.984381357322813
2015-12-10,1,0.00056216494278155,0.0007844745660420086,-0.01861247844388702,0.009882172532292354,0.9845444437819081
2015-12-14,1,0.00017071340884950825,0.0003562993186896104,-0.018760775029079902,0.010024848109727055,0.9839005842375641
2015-12-16,1,0.001236026483862266,0.001526432836370876,-0.02235601828828558,0.00907010618281652,0.9841871063284647
2015-12-18,1,0.0001482613505689395,0.0003144683139653349,-0.017552781535185767,0.00907010618281652,0.9857226082984778
2015-12-22,1,0.0007782793428673889,0.0010194433275219753,-0.017552781535185767,0.0035139949655107043,0.9859417075967011
2015-12-24,1,0.0014868500350562822,0.0018258932857032064,-0.018760775029079902,0.003332072239032178,0.9845640735396233
2015-12-29,1,0.001675625031188464,0.002037436310455885,-0.018760775029079902,0.003332072239032178,0.9842235142844248
2015-12-31,1,0.0014614375726245163,0.0018142314379525392,-0.018760775029079902,0.007488871515632224,0.9846369822126628
2016-01-05,1,0.00038965976023080104,0.0005462735938253731,-0.022772327804672917,0.007488871515632224,0.9847108590174551
2016-01-07,-1,-0.0004866756863923625,-0.0004021860685008689,-0.017065572986046322,0.00852433800338094,0.9862978715671296
2016-01-11,-1,-0.000816338058671343,-0.0007623429359192944,-0.01751598795110629,0.008701310437273646,0.9858951755400027
2016-01-13,-1,-0.0019187682958690614,-0.0017879738595366244,-0.01751598795110629,0.008353847562388416,0.9852052978691481
2016-01-15,-1,-0.0039693429453165115,-0.0034739123801248405,-0.012515130169934368,0.009412960026457591,0.9827296906121492
2016-01-20,-1,-0.003915134836198469,-0.003485617028265042,-0.01424567521164524,0.009412960026457591,0.9822743591498893
2016-01-22,-1,-0.00308205281741965,-0.002795609154207076,-0.01424567521164524,0.009412960026457591,0.9815616597109909
2016-01-26,-1,-0.005076725784814131,-0.004488573232300926,-0.01424567521164524,0.009412960026457591,0.9824934807007046
2016-01-28,-1,-0.00398491103153305,-0.0035726285074674643,-0.01424567521164524,0.009412960026457591,0.9822985789693883
2016-02-01,-1,-0.003514603565847558,-0.0031912336769650785,-0.01768069869271756,0.012602400815282012,0.9806263596362423
2016-02-03,-1,-0.004410569051167284,-0.0039774353027407765,-0.012423192196105376,0.016047440640815938,0.9791819574847532
2016-02-05,-1,-0.004092357389756935,-0.0037067665922925013,-0.012423192196105376,0.016047440640815938,0.9794860192204753
2016-02-09,-1,-0.004008903561570778,-0.0036637712121700035,-0.01617681170025008,0.016047440640815938,0.979082172528201
2016-02-11,-1,-0.007038653906826304,-0.006242937491893851,-0.01110745057741325,0.022052192509081282,0.9792419972149927
2016-02-16,-1,-0.0040557348519271045,-0.0036027974529218134,-0.01110745057741325,0.014167934790929903,0.984093943391959
2016-02-18,-1,-0.004831861249757225,-0.004289678656179513,-0.010723913809400562,0.014167934790929903,0.9841480961709548
2016-02-22,-1,-0.0037755045122173725,-0.0033601978899861534,-0.010723913809400562,0.014167934790929903,0.9842910660336774
2016-02-24,-1,-0.0044495056802338435,-0.003993299948553021,-0.010429479053742056,0.014167934790929903,0.984951945356093
2016-02-26,-1,-0.003761394186090471,-0.0033886599687714862,-0.010429479053742056,0.011711068643140702,0.9860270343769464
2016-03-01,-1,-0.002521517706765882,-0.002333422382533419,-0.010429479053742056,0.011123543097053344,0.9872755232826675
2016-03-03,-1,-0.00046858959626114023,-0.0003904612641359623,-0.010685662694319047,0.005872146843704285,0.9892574513657462
2016-03-07,-1,-0.0006732806720502256,-0.0006450272352467225,-0.013437561208440769,0.0040100432467702965,0.9893898973895376
2016-03-09,-1,-0.0028204861019334084,-0.0025423135903060957,-0.010685662694319047,0.00685326236928111,0.9894157221998063
2016-03-11,-1,-0.0008211227764497932,-0.0007986088183331028,-0.010685662694319047,0.006946210936021234,0.9897369886863526
2016-03-15,-1,-0.0007146714779910994,-0.0006603789079867353,-0.010685662694319047,0.011831884306266546,0.9874306791069445
2016-03-17,-1,-0.0007948100005259033,-0.0007586210943827489,-0.007221774166555193,0.012917729562715871,0.9875601532873493
2016-03-21,1,0.0004061002805668875,0.0006396505483843702,-0.007221774166555193,0.012917729562715871,0.9876831532659537
2016-03-23,1,0.0006370890891192979,0.0009644002604576592,-0.006247703324881027,0.013981298944346287,0.9873325303594296
2016-03-28,-1,-0.001276918484715548,-0.0011804719008250326,-0.007221774166555193,0.01592249087149759,0.9854043391729528
2016-03-30,-1,-0.0006850229158250302,-0.0006561332194944422,-0.003503279591507218,0.01592249087149759,0.9860890683737836
2016-04-01,-1,-0.0007757666240155833,-0.0007250157244762987,-0.004534891038628687,0.01592249087149759,0.9857749164040865
2016-04-05,-1,-0.000864771640464478,-0.0007890819277032819,-0.004534891038628687,0.01592249087149759,0.9847109480753096
2016-04-07,-1,-0.0010829916545555063,-0.00103244730948168,-0.004534891038628687,0.014338846646406453,0.9857501301832815
2016-04-11,-1,-0.0007650986883938326,-0.0007239414761725867,-0.007667249654767699,0.013474842600755873,0.9865870040241671
2016-04-13,1,0.0012074081226474687,0.0015312040138603876,-0.007667249654767699,0.013474842600755873,0.9882966041995737
2016-04-15,1,0.0020706719931564777,0.002540073950305752,-0.010833534449961001,0.013008527178741361,0.9879586740249271
2016-04-19,1,0.0028842810959612882,0.0034657425299814077,-0.010833534449961001,0.013008527178741361,0.9878801812138533
2016-04-21,1,0.0038744278170196643,0.004601842965346362,-0.010833534449961001,0.01312770974609475,0.9855836356115539
2016-04-25,1,0.004162965416884115,0.004923734766909512,-0.010404295976307081,0.008671097302543077,0.9869307941533437
2016-04-27,1,0.004623358731547051,0.0054495134874398415,-0.010404295976307081,0.014491940533915415,0.9860599331699789
2016-04-29,1,0.004291228692061257,0.005114070927060227,-0.007646349020934804,0.014491940533915415,0.9864397540032156
2016-05-03,1,0.0036427140922448563,0.004329677535154713,-0.006700217669478476,0.011764713362151503,0.9877490828061204
2016-05-05,1,0.002866205180682464,0.0034494661628981863,-0.006700217669478476,0.011764713362151503,0.9882367317529401
2016-05-09,1,0.0023111390919021645,0.0027758789321948576,-0.007612566443324936,0.011788779635132104,0.9876399706076835
2016-05-11,1,0.0036303392423981578,0.0043680316368291654,-0.01070811836086682,0.010204109498124355,0.9877427711966601
2016-05-13,1,0.0020888153550085676,0.0025263099258850145,-0.01223110487415484,0.010204109498124355,0.9874213186980284
2016-05-17,1,0.0032589731493848357,0.0039011061061404316,-0.014226487606625617,0.007996915097528867,0.9862476371602182
2016-05-19,1,0.004861912861385742,0.005764324378480503,-0.014226487606625617,0.007399327648873817,0.9879572597294363
2016-05-23,1,0.005289806952820405,0.0062658847158377235,-0.014226487606625617,0.006046636245846566,0.987595374961843
2016-05-25,1,0.006137937088479204,0.007193024054357992,-0.014226487606625617,0.005437974163749008,0.9863212758848354
2016-05-27,1,0.004849622716688618,0.005662302423088631,-0.016277489860787888,0.00329727347144864,0.9806564105209034
2016-06-01,1,0.0040473854514534256,0.004666698598273182,-0.016277489860787888,0.006024341285970359,0.9795608456992074
2016-06-03,1,0.003289188308374803,0.0037733493558067244,-0.014226487606625617,0.008411347152159205,0.9795958717859153
2016-06-07,1,0.0029072062512540938,0.0033045258052943824,-0.016573073829419978,0.008663289214302108,0.9790090613673914
2016-06-09,1,0.0022853776257530955,0.002574258698219341,-0.014226487606625617,0.013149980806634294,0.9793601046386318
2016-06-13,1,0.0009716749210033726,0.0010390569226055703,-0.008895917059044422,0.013797921172280877,0.9793461506387062
2016-06-15,1,0.00010428835655508896,0.00013262387899409583,-0.005905533059787065,0.015301323686934104,0.9796401728563431
2016-06-17,-1,-0.0006736810289253968,-0.0005039554349037859,-0.005567121836310756,0.015301323686934104,0.9799622780816418
2016-06-21,-1,-0.00048782614297093665,-0.00035615313037670054,-0.005567121836310756,0.015301323686934104,0.9797490817693362
2016-06-23,1,0.0004100194236931507,0.00043806502381395587,-0.0071295763779322865,0.013797921172280877,0.9808334899203283
2016-06-27,-1,-0.004693305915081703,-0.004027600036010941,-0.006192695826470505,0.013797921172280877,0.9856715010011224
2016-06-29,-1,-0.00302606636013224,-0.002559605603204292,-0.006192695826470505,0.012032438411552684,0.9884646272697466
2016-07-01,-1,-0.002883791670533342,-0.0024136724541109203,-0.006192695826470505,0.01135752863360864,0.9888167956673238
2016-07-06,-1,-0.0046364468159551895,-0.0038635124928682123,-0.0040822784529209255,0.012032438411552684,0.9889177425152053
2016-07-08,-1,-0.0021328149171248416,-0.0017871707953958796,-0.0040822784529209255,0.01127818048898832,0.9885355580083244
2016-07-12,-1,-0.0015835455367430604,-0.001266498759493491,-0.006192695826470505,0.008018020563365211,0.9898498788166848
2016-07-14,-1,-0.00039962514496891407,-0.00025649903116926236,-0.006928613484677227,0.006042474639559,0.9907998104013102
2016-07-18,-1,-0.0012318494754389841,-0.0009410665198830586,-0.007956696957057599,0.0073189141494574795,0.9899254224021444
2016-07-20,-1,-0.0008161200568731572,-0.0005955577257297087,-0.007956696957057599,0.006042474639559,0.9901725272188198
2016-07-22,-1,-0.0006387481659466096,-0.0004609280273002043,-0.006330144156691754,0.005293962707531637,0.9910619696768042
2016-07-26,-1,-0.0002958913967455665,-0.00022770168213212468,-0.0036060382430821132,0.005293962707531637,0.9915072130688453
2016-07-28,-1,-0.0002661889220886521,-0.00019732275723441769,-0.004301777358090239,0.005293962707531637,0.991044582019181
2016-08-01,-1,-0.0015013515726251185,-0.00122349993716229,-0.0034851130793075637,0.005293962707531637,0.9917967722340286
2016-08-03,-1,-0.0006249809636928558,-0.00048589148460192615,-0.0034851130793075637,0.005641357632349464,0.9919475718647182
2016-08-05,1,0.0006295687038646437,0.0006299052579913725,-0.004301777358090239,0.005641357632349464,0.9936197638434526
2016-08-09,1,0.0004250901612635191,0.00045632013502785334,-0.004301777358090239,0.005071574246687363,0.9934155544986445
2016-08-11,1,0.0005048972692622021,0.0005171992087774668,-0.004301777358090239,0.005071574246687363,0.9932631056451953
2016-08-15,1,0.00039567780216325963,0.00041960258426449745,-0.004301777358090239,0.005071574246687363,0.9920323762205953
2016-08-17,1,0.00016700898601052435,0.00022988435874602572,-0.005735989567441934,0.006414024981195858,0.9912308660133999
2016-08-19,1,0.00011653904070006154,0.00019211672357090498,-0.00831074118923289,0.006414024981195858,0.9909270136066493
2016-08-23,-1,-0.0004587491770336479,-0.0002914760139451253,-0.00831074118923289,0.006414024981195858,0.9907930879254798
2016-08-25,-1,-0.0005488343552915521,-0.00034643776975168525,-0.00831074118923289,0.006245893198026405,0.9912501111808992
2016-08-29,-1,-0.0007699193133566681,-0.000515891101900987,-0.00905789226051026,0.008338097742293911,0.9897771252920202
2016-08-31,1,7.152119219768025e-06,0.00014641869507949108,-0.009988223396122348,0.007598056638768705,0.9896012727211716
2016-09-02,1,0.0007757316069116021,0.0008041458384818437,-0.009491909030494568,0.007598056638768705,0.9898076210201421
2016-09-07,1,0.0005828788484175573,0.0006110128563495087,-0.00831074118923289,0.010383097801228439,0.9883174256370757
2016-09-09,1,0.000633143495344056,0.0007026221742203568,-0.006311467406916578,0.010383097801228439,0.9886363848658642
2016-09-13,1,0.0010743716959264538,0.0012400340219213312,-0.0049430689307704235,0.009587409000616094,0.9905463930299427
2016-09-15,1,0.0013125747362907568,0.0015250218112249153,-0.0049430689307704235,0.00849340275544326,0.9897426287991296
2016-09-19,1,0.0012268235510010312,0.001445833023339038,-0.0049430689307704235,0.009587409000616094,0.9888320994538242
2016-09-21,1,0.0008970183280046634,0.0010393983599405426,-0.00411763566394764,0.013007502097424002,0.9871759250357578
2016-09-23,1,0.0009318624175292427,0.0010670344355101441,-0.00411763566394764,0.013007502097424002,0.9873335211585309
2016-09-27,1,0.00026178936304313127,0.0002684220521229531,-0.003336703360935174,0.018144277039909264,0.9858912981409781
2016-09-29,-1,-9.209372854002905e-05,-4.6390717725610655e-05,-0.002548291833532887,0.021637004092769044,0.9855574258285852
2016-10-03,1,0.0003282709823896025,0.00035221223060472853,-0.003336703360935174,0.021637004092769044,0.9853768521981876
2016-10-05,1,0.0012025360320779674,0.0013022446081099725,-0.00411763566394764,0.01136261083288553,0.987249277708028
2016-10-07,1,0.0012889805556652234,0.0014332151605396806,-0.0035266690438542758,0.01136261083288553,0.9874481360084623
2016-10-11,1,0.0017895599158281106,0.0020559986638162076,-0.004590001044185342,0.018382084668070623,0.9861488302582404
2016-10-13,1,0.00110797508027615,0.0012964095595366992,0.0012415628432379002,0.0227443319052894,0.9832958612675897
2016-10-17,1,0.0017795545911007233,0.002119503109078209,0.0015061608824095028,0.029676520640376892,0.9822945862295557
2016-10-19,1,0.0028165006205492036,0.00328139383526311,0.0012415628432379002,0.029676520640376892,0.9828180982414101
2016-10-21,1,0.0029922268907448127,0.003479186587596655,0.000684708910867074,0.029676520640376892,0.982431172260715
2016-10-25,1,0.0045141502323406985,0.005181881245416391,0.00044118656831629137,0.023805088971005042,0.9849988871497808
2016-10-27,1,0.005090190464960309,0.005827244999715815,-0.0022352151785073027,0.021885115647916224,0.9844736045603693
2016-10-31,1,0.004417455585855368,0.005030383406149788,-0.0022352151785073027,0.021885115647916224,0.9840232025531668
2016-11-02,1,0.003546457277006059,0.0039941095524871646,0.00044118656831629137,0.02907020831382179,0.9828511778666233
2016-11-04,1,0.003116103725561101,0.003447215451690063,-0.0022352151785073027,0.02907020831382179,0.9822336027678883
2016-11-08,1,0.0035383202391694258,0.003912976868351802,0.00044118656831629137,0.021885115647916224,0.9832792703674382
2016-11-10,1,0.005745221398262165,0.0064030151138149746,0.00044118656831629137,0.017694412416507974,0.9877621935665628
2016-11-14,1,0.008131918000867438,0.009137022151837749,-0.007656284086010855,0.016282287811414074,0.98832140845671
2016-11-16,1,0.006059589943452526,0.0064917270154737396,-0.0016483631071840248,0.014627895093840874,0.9899236877295626
2016-11-18,1,0.006988857479248242,0.007619774325316476,-0.007656284086010855,0.013040505101887225,0.9893402656536241
2016-11-22,1,0.00720814654997786,0.007870160326135689,-0.008399144246788217,0.014583299780021411,0.9886232670826086
2016-11-25,1,0.006594595016710558,0.007138268613513457,-0.006841072482328553,0.013040505101887225,0.9899728694371352
2016-11-29,1,0.005966121817799689,0.0064629603880302635,-0.006841072482328553,0.013040505101887225,0.9905409738951417
2016-12-01,1,0.007618074860907501,0.00837828941110336,-0.007741613456180682,0.007140263619139135,0.9907401627006716
2016-12-05,1,0.007427680832709909,0.008194359883119283,-0.006841072482328553,0.009795977444928437,0.9913769244260391
2016-12-07,1,0.007820942739909601,0.008617252036403327,-0.007741613456180682,0.006137258033790468,0.9905443984941976
2016-12-09,1,0.007868991258036227,0.008668680760291973,-0.007741613456180682,0.006702133201784484,0.9900585473308591
2016-12-13,1,0.00682619955240196,0.007469483595720019,-0.007741613456180682,0.006702133201784484,0.9910627069830854
2016-12-15,1,0.006520477913873487,0.007079188716903492,-0.009018925811420296,0.006702133201784484,0.9885884821672948
2016-12-19,1,0.005818398693950073,0.006274016455261742,-0.00926741465780869,0.009638205596405573,0.9881204040048848
2016-12-21,1,0.005392705663257006,0.0057492452806024875,-0.010245283478877806,0.006702133201784484,0.9883933819324416
2016-12-23,1,0.005520053559952193,0.005902385266696742,-0.010245283478877806,0.01245889825653072,0.9871784151947876
2016-12-28,1,0.005492288001167817,0.005950594531276412,-0.00854061216909469,0.01245889825653072,0.9875014113448869
2016-12-30,1,0.0051141237467604884,0.005504439401987307,-0.010245283478877806,0.01245889825653072,0.9869694946648925
2017-01-04,1,0.004931269287301633,0.0052661482229113404,-0.011421309908765113,0.00747634934969624,0.98683974490814
2017-01-06,1,0.00427760928070569,0.004527827442968247,-0.009910489800126241,0.013000017214387455,0.9862992838512747
2017-01-10,1,0.004168902535756598,0.004386307714099276,-0.011456957552635377,0.008428211547824945,0.9854643372077989
2017-01-12,1,0.003512444938701694,0.003636224320806689,-0.010160803961681826,0.016238302229390933,0.9859282499481635
2017-01-17,1,0.002038871427674811,0.0021263532070656065,-0.009601919044015668,0.017887449036210482,0.9877810366182719
2017-01-19,1,0.0020786670537491967,0.0021612453777270367,-0.008477242998601262,0.01348807520775587,0.9888413820083144
2017-01-23,1,0.001495837841373554,0.0016518657245034628,-0.006351936525185193,0.01348807520775587,0.9891077945322543
2017-01-25,1,0.002748633689625252,0.0027621132451445323,-0.007147933010769594,0.00788873126916797,0.990152979945182
2017-01-27,1,0.002121661204969724,0.002192386360108249,-0.007578450395142303,0.00788873126916797,0.9896337461743976
2017-01-31,1,0.000844433342638481,0.0010944762949213409,-0.006024526306081587,0.01126178839329859,0.9889855238695153
2017-02-02,1,4.887662368437866e-05,0.0004199430745474408,-0.006024526306081587,0.01126178839329859,0.98800429988609
2017-02-06,1,0.0005323360988908324,0.0008494488489701913,-0.007578450395142303,0.010285900969456533,0.9889534296007676
2017-02-08,-1,-0.0005761102522073849,-0.00012592774240908827,-0.004586098679721292,0.010285900969456533,0.9899996072213538
2017-02-10,0,-0.0003895626874302117,6.99612316054205e-05,-0.006024526306081587,0.007666418356031162,0.9904507639662712
2017-02-14,1,0.0002110477442003177,0.0006151451768356025,-0.007010348710602378,0.005289761412502493,0.9913786893795223
2017-02-16,1,6.567244776795695e-05,0.0004922283277085905,-0.007010348710602378,0.005289761412502493,0.9916162549297952
2017-02-21,-1,-0.0005297272919222318,-5.040916564899925e-06,-0.011348958218535316,0.003329761795503547,0.9882399512869144
2017-02-23,-1,-0.0012618247212030885,-0.000577639626361987,-0.011348958218535316,0.005459881328259681,0.9880947792762218
2017-02-27,-1,-0.002012476189277282,-0.0012359789148732804,-0.00831781953462077,0.0034534434070564108,0.9892176421195618
2017-03-01,0,-0.0004823723797798768,4.251932548767455e-05,-0.00831781953462077,0.0034534434070564108,0.9895427108919311
2017-03-03,-1,-0.0015973954010780338,-0.0009170892185800265,-0.00831781953462077,0.0034534434070564108,0.9895598780517822
2017-03-07,-1,-0.002479038057762447,-0.0016891945547440803,-0.007658916568875428,0.0034534434070564108,0.9898935995057451
2017-03-09,-1,-0.0036738144122839835,-0.00265416323088347,-0.008840415407096168,0.0062826243852976684,0.9884857923866195
2017-03-13,-1,-0.0047227879479033955,-0.0035672950754902255,-0.007658916568875428,0.0062826243852976684,0.988756712249777
2017-03-15,-1,-0.004613805730946152,-0.0035343581724698618,-0.0082302741439361,0.0062826243852976684,0.9884294697698909
2017-03-17,-1,-0.004804012334139851,-0.003704818678256327,-0.00939965059157243,0.008071419557736685,0.9876523357794567
2017-03-21,-1,-0.006697720536830059,-0.005481246711449358,-0.00794058577802521,0.011111018631184388,0.9897699035057897
2017-03-23,-1,-0.00530373307786434,-0.004311016218848442,-0.00794058577802521,0.011923845215364697,0.9888454372897788
2017-03-27,-1,-0.00576532240834684,-0.004703159924233546,-0.00794058577802521,0.018184312707876883,0.9872947027647798
2017-03-29,-1,-0.005593509226203758,-0.004524673852352763,-0.008363470858210547,0.012063951844328421,0.9878391923776912
2017-03-31,-1,-0.005171954684962734,-0.004157058028023385,-0.00794058577802521,0.011661689937856302,0.9886227607436979
2017-04-04,-1,-0.005443073755568671,-0.004418119779182141,-0.007609087716005006,0.017397846875351695,0.9874967083103314
2017-04-06,-1,-0.003758526031431264,-0.003084648640821732,-0.007609087716005006,0.011661689937856302,0.9891047175620498
2017-04-10,-1,-0.002897195793523176,-0.002429190010761408,-0.008304015172467595,0.011661689937856302,0.9889218971802123
2017-04-12,-1,-0.003402122158259927,-0.0028635350646147935,-0.008304015172467595,0.011661689937856302,0.9886995852525776
2017-04-17,-1,-0.0027206126516371365,-0.002289052020200082,-0.0073260556738153695,0.01015854840451487,0.9894029795644428
2017-04-19,-1,-0.0024682558200441024,-0.0020824531823847073,-0.0075562883539833075,0.008041833030146425,0.9875891350122148
2017-04-21,-1,-0.0007612891022423276,-0.0005848544585023115,-0.0075562883539833075,0.0045956130139509985,0.9897816335211855
2017-04-25,-1,-0.00031677634462809126,-0.0001560005097472341,-0.0075562883539833075,0.00418209399620046,0.9901092371958654
2017-04-27,1,0.00017821504092102556,0.00019701062302993573,-0.004599379807250449,0.004670714836372341,0.9907819176402815
2017-05-01,1,0.0003055109284583288,0.0003270012258372793,-0.008425203878308819,0.003089460121507915,0.9911042338138877
2017-05-03,1,0.001367156652176628,0.0015440477241081985,-0.008919044455872518,0.003089460121507915,0.9908190569060896
2017-05-05,1,0.0012853453165088168,0.0014726445471032004,-0.009348469555443864,0.004054119388011785,0.9904572225599954
2017-05-09,1,0.0004447017746247545,0.00047888853989992415,-0.008425203878308819,0.005211651416608952,0.9902640653439261
2017-05-11,1,0.00029959631922239034,0.0003451831040399149,-0.0033008303788704283,0.010902618254618966,0.9888246356632657
2017-05-15,1,0.000394684698426422,0.00043076893765542075,-0.0036784570862892206,0.008015032836514797,0.9891132078583803
2017-05-17,-1,-0.0008888492017836644,-0.0007852445701816363,-0.0032069381302050307,0.007941202516131958,0.9908613902582174
2017-05-19,-1,-0.0005165133467670292,-0.000471399396490093,-0.006660845096955339,0.011527952915410165,0.9901774806230901
2017-05-23,-1,-7.626421160824333e-05,-6.376502290607811e-05,-0.008425203878308819,0.007941202516131958,0.9901988026146159
2017-05-25,1,9.792701714009072e-05,0.00010773747097584501,-0.009852709348394158,0.007941202516131958,0.989114792109577
2017-05-30,-1,-0.00022520720544878274,-0.0002191197468391174,-0.009852709348394158,0.011229506358472429,0.9891337990476833
2017-06-01,-1,-0.0007602809969778641,-0.0006750427933028406,-0.00804422788955025,0.012589017807865435,0.9891585360861858
2017-06-05,-1,-0.0008723332619071905,-0.0007904123070331742,-0.006660845096955339,0.013848602821726548,0.9892114654049308
2017-06-07,-1,-0.0004030388014316242,-0.0003595049082039969,-0.00804422788955025,0.012589017807865435,0.9892585497554612
2017-06-09,1,0.0005750492068704828,0.0005925037578951048,-0.00804422788955025,0.010312243890331379,0.9909166975289212
2017-06-13,1,0.0007503039857427143,0.0008045201165056156,-0.00804422788955025,0.010312243890331379,0.9908648360888306
2017-06-15,1,0.000553723630782834,0.0005631860754959877,-0.008618482286307232,0.01151096377670448,0.9905275129384741
2017-06-19,1,0.0013813334790807518,0.0015772739317294468,-0.009751498258970568,0.010289594739505002,0.9908411842359025
2017-06-21,1,0.0005726531867946875,0.0006502621286594637,-0.008676910640384537,0.010289594739505002,0.9898650890742615
2017-06-23,-1,-0.0007097475687950334,-0.0005972762523203583,-0.005573393601485343,0.01151096377670448,0.9893197158091325
2017-06-27,-1,-0.00029433936876209146,-0.00021618745206855824,-0.008676910640384537,0.010289594739505002,0.9885520052463813
2017-06-29,1,0.0011600161002237289,0.0013109025072828352,-0.008710916053139358,0.009556824326055167,0.9894728526278287
2017-07-03,1,0.0011916042096370603,0.00129473761629559,-0.008710916053139358,0.007809865425652173,0.9897300558658987
2017-07-06,1,0.0015213651105127157,0.0017147138025613265,-0.008271621551030162,0.006563941528485523,0.9903746040532211
2017-07-10,1,0.0025189440033059887,0.002908830005294004,-0.008271621551030162,0.006563941528485523,0.9895098711630809
2017-07-12,1,0.0023792510497710638,0.0027629005445294315,-0.008710916053139358,0.006563941528485523,0.9893713693346133
2017-07-14,1,0.002524578772037546,0.002933823817797547,-0.010578596175574526,0.004493286022883892,0.9883942561608835
2017-07-18,1,0.002068320471803755,0.002416914547315123,-0.009362728907511398,0.006563941528485523,0.988365386302182
2017-07-20,1,0.0008631607885538207,0.0010295771181174633,-0.008871025444561125,0.004745954152492897,0.9899268677503952
2017-07-24,1,0.0012881448478938037,0.0015698945712128993,-0.010316633403118074,0.0038872902308863502,0.9904369624130912
2017-07-26,1,0.0005516716727135174,0.0007056475474447285,-0.008787496283303966,0.0038872902308863502,0.9915140348794028
2017-07-28,1,0.00010924103434996796,0.00017693962783782235,-0.006814818769322329,0.0038872902308863502,0.9917420196752802
2017-08-01,1,0.0005688440969664316,0.0007045365013808822,-0.010316633403118074,0.0020794917866762855,0.991138124995076
2017-08-03,1,0.00013652497708235088,0.00018126635421855075,-0.010316633403118074,0.0021556753971042958,0.9912364223971858
2017-08-07,1,0.0004791918049722461,0.0005468947160222503,-0.010735993976673743,0.0021556753971042958,0.990324186313989
2017-08-09,1,0.00012881105011500944,0.00015224730803190298,-0.010735993976673743,0.003530996660094692,0.9894822245985357
2017-08-11,-1,-0.002632309868760936,-0.0021988725971127084,-0.010316633403118074,0.007539273526570013,0.9896938452677368
2017-08-15,-1,-0.0014882946197581769,-0.0012214741532007426,-0.010316633403118074,0.008813854284703835,0.9883585975573421
2017-08-17,-1,-0.0018897744831940701,-0.0015657217270150848,-0.008596202795461555,0.008813854284703835,0.9887608115592201
2017-08-21,-1,-0.0022496757054120773,-0.001915350633799479,-0.003138572596610657,0.00920232370212468,0.9888153830673516
2017-08-23,-1,-0.0013956701705504664,-0.0011869072764539076,-0.003138572596610657,0.008813854284703835,0.9893948790438292
2017-08-25,-1,-0.0018167909023708959,-0.0015402893908625288,-0.0030596666524859615,0.008813854284703835,0.9890668911689519
2017-08-29,-1,-0.002524234178217284,-0.0021604832235155415,0.0015216061776621907,0.00920232370212468,0.9882322435600679
2017-08-31,-1,-0.002807804573223045,-0.0023925031772520445,0.0015216061776621907,0.00920232370212468,0.9876875434584574
2017-09-05,-1,-0.0037905043701742945,-0.0032473169711338063,0.0015216061776621907,0.00920232370212468,0.9884010784791333
2017-09-07,-1,-0.0042579766970161515,-0.003676072360937181,0.0015216061776621907,0.009807483644165834,0.988709030166219
2017-09-11,-1,-0.0030284314052050126,-0.0025940746489258263,-0.0010840271830627412,0.008802514926821367,0.9913334713922375
2017-09-13,-1,-0.0004997789637666551,-0.00043384706653028807,-0.0031124410907341477,0.004608430494030541,0.9940286209112067
2017-09-15,1,0.00015636995402777622,0.000222484194349138,-0.004801734793643174,0.004608430494030541,0.9936832477051926
2017-09-19,1,0.00030971134091975147,0.0003691258242935425,-0.006931842990055431,0.004608430494030541,0.9929179223699078
2017-09-21,1,0.0006999474531391069,0.0008297367730190678,-0.00861707766841567,0.0053746354379689805,0.9913017973639088
2017-09-25,1,0.0009533229616104643,0.0011445283618769602,-0.00861707766841567,0.009123387211044439,0.9908756314313892
2017-09-27,1,0.0015000811777676553,0.001751327398056921,-0.00861707766841567,0.0053746354379689805,0.9912459495497894
2017-09-29,1,0.0015103726581002367,0.0017373839396171767,-0.00861707766841567,0.005923539866565852,0.9907486520432184
2017-10-03,1,0.0011477678689197006,0.001303112346162634,-0.008342375686578456,0.005923539866565852,0.991010367567839
2017-10-05,1,0.0013191634113318804,0.0015129005696290837,-0.00774072655059799,0.005419196380788284,0.9915623490001275
2017-10-09,1,0.0002981368634543905,0.00030916595684207326,-0.00774072655059799,0.005419196380788284,0.9919159079798827
2017-10-11,1,0.00011130198246710897,0.00014023082748283445,-0.008422565743083078,0.005035240727242103,0.9909292458534915
2017-10-13,0,-1.6892558140435183e-05,1.614769877609758e-07,-0.008422565743083078,0.005035240727242103,0.9907935437082841
2017-10-17,1,6.32687991743552e-05,6.428700576273365e-05,-0.00774072655059799,0.009293813013970979,0.9903954740036216
2017-10-19,-1,-0.00017758591774292957,-0.00012107596097188258,-0.007593247394701671,0.005035240727242103,0.9920204829012588
2017-10-23,0,-5.615183278349632e-05,3.5030803167241612e-06,-0.007593247394701671,0.008332349698455489,0.9918811330816196
2017-10-25,-1,-0.0005506037079042985,-0.00041478878100407015,-0.00774072655059799,0.008332349698455489,0.9915207469376384
2017-10-27,-1,-0.00016135821658361157,-9.781029979357594e-05,-0.007280125578055159,0.004895115108819006,0.9920243760356412
2017-10-31,1,0.0004255771770700807,0.0005139347756355978,-0.006715057036138592,0.009046623148993987,0.9897636563952014
2017-11-02,1,0.0008031693390458564,0.0009474440659820229,-0.006715057036138592,0.008626246293724694,0.9897508337701268
2017-11-06,1,0.0010362351458360424,0.0012121308489392514,-0.007722894968322138,0.011414498538029377,0.9879753530503201
2017-11-08,1,9.189464845528854e-05,0.00015596898754749228,-0.00616172229956102,0.016508585069672475,0.9888281076097909
