JNU-Tangyin/eata/results/Batch4_SP500/Batch4_SP500-CNC.csv
Date,Action,Predicted_Q25,Predicted_Q75,Actual_Q25,Actual_Q75,RL_Reward
2010-12-14,0,0.0,0.0006357256577761992,-0.005444365962679552,0.01369576550907568,0.987429238072474
2010-12-16,1,0.0021097954490500257,0.002265478086226103,-0.005444365962679552,0.01369576550907568,0.98591937669343
2010-12-20,1,0.0019079319909909023,0.002013918492625031,-0.006031834940962863,0.009466021423474281,0.9833629310930864
2010-12-22,0,0.0,0.0,-0.00823407201742222,0.008804069233759036,0.9814427739506374
2010-12-27,0,0.0,0.0,-0.00823407201742222,0.013796395101038143,0.9794137225248661
2010-12-29,0,0.0,0.0,-0.00823407201742222,0.01909708453071065,0.9781381084928759
2010-12-31,0,0.0,0.0,-0.006820873874096989,0.021944632515504874,0.9778993760734579
2011-01-04,0,0.0,0.0,-0.00823407201742222,0.017237443351277946,0.9784688603000238
2011-01-06,0,0.0,0.0,-0.009488275039126021,0.01401069322951864,0.9803058870278982
2011-01-10,1,0.004125003228373302,0.004586391621708312,-0.009488275039126021,0.017237443351277946,0.9781251397837839
2011-01-12,1,0.0033541853114664386,0.0036822415707351173,-0.009488275039126021,0.017237443351277946,0.977874205761708
2011-01-14,0,0.0,0.0,-0.009488275039126021,0.01401069322951864,0.9795228247068253
2011-01-19,0,0.0,0.0,-0.007229396554484836,0.014448908006290069,0.9821295494475778
2011-01-21,1,0.9208341072854676,1.0286878368490961,-0.00650302808488297,0.01619648255456371,0.5087069013812647
2011-01-25,0,0.0,0.0,-0.007229396554484836,0.014448908006290069,0.9829893087318469
2011-01-27,1,0.003442798022174673,0.003654267549923704,-0.007229396554484836,0.01619648255456371,0.9828853508591344
2011-01-31,1,0.0026725645393211057,0.0027295888518848875,-0.007229396554484836,0.014516409049340156,0.9827624527302636
2011-02-02,1,0.0029586031301121326,0.0030921667387318764,-0.006747153890616106,0.016624207349633248,0.9827789938840399
2011-02-04,1,0.0031073656650966877,0.0032809882101584417,-0.00650302808488297,0.016624207349633248,0.9833443041338943
2011-02-08,1,0.004329781494683555,0.00465654659928766,-0.005258292288989062,0.016624207349633248,0.9854127185047293
2011-02-10,1,0.004426995204589073,0.004783047410797434,-0.006279146301810295,0.016624207349633248,0.9847121489820257
2011-02-14,1,0.0044849752472663745,0.004811202738601812,-0.013077373952287412,0.016624207349633248,0.9826358197067021
2011-02-16,1,0.004135341615042167,0.004396923558459617,-0.019328223584891984,0.016624207349633248,0.9821644669602223
2011-02-18,1,0.0050681586108054216,0.0055271764849048385,-0.019328223584891984,0.01762265130605031,0.9819126236538877
2011-02-23,1,0.0030864906354036792,0.0033490239216878823,-0.008523604858176353,0.01762265130605031,0.984518754394491
2011-02-25,1,0.004496494892084975,0.004856360028661429,-0.008523604858176353,0.012730356814032416,0.9858895131757263
2011-03-01,1,0.003710030540873746,0.003982386035638986,-0.006495115297138684,0.01762265130605031,0.9863999368272749
2011-03-03,1,0.005263159794363915,0.0057560572616894914,-0.006495115297138684,0.01394574940361345,0.9877209714612303
2011-03-07,1,0.005216715295218935,0.0057392207175346755,-0.006495115297138684,0.015344245749223322,0.9875643471576422
2011-03-09,1,0.006039310730608078,0.006673522262463011,-0.01215024676498365,0.014323235164134276,0.9866075886952507
2011-03-11,1,0.005349631949737181,0.005924776047470577,-0.01215024676498365,0.014323235164134276,0.9864829457402129
2011-03-15,1,0.0035623001560960155,0.003860734318617714,-0.007668256652142506,0.014323235164134276,0.9877715667241522
2011-03-17,1,0.002801631335582081,0.002991834928222233,-0.004931012365078414,0.014323235164134276,0.9887133596439963
2011-03-21,1,0.0016991385204279215,0.0017338598933135405,-0.007668256652142506,0.013652401424647085,0.9876548022226491
2011-03-23,1,0.0007980615968294529,0.0009799627803644881,-0.005005956285854941,0.014177858850477353,0.9872791403415178
2011-03-25,1,0.0014504390410120273,0.0015729627430562337,-0.009584202146882105,0.014177858850477353,0.9865809898425202
2011-03-29,1,0.0028336294926265583,0.002841321563735215,-0.009584202146882105,0.014767150160062607,0.9833160383457812
2011-03-31,1,0.0032790440319683516,0.0033755840488673555,-0.009584202146882105,0.014177858850477353,0.9837570443004582
2011-04-04,1,0.0035322259388504947,0.003605942897387115,-0.014967258892559777,0.01159676238638443,0.983442361180033
2011-04-06,1,0.0016293382638396048,0.001820306421718534,-0.011738937981380804,0.01159676238638443,0.983223414723829
2011-04-08,1,8.108521150765107e-05,0.0004663196453573216,-0.005492175929035957,0.014704114139940614,0.9829745378762726
2011-04-12,1,9.164117855063733e-05,0.00043655738941898454,-0.0024594917467990374,0.01530450803496924,0.9806023625303592
2011-04-14,1,0.00012062676404782,0.00047901515666142294,-0.013374203335157254,0.01530450803496924,0.9771056514333325
2011-04-18,-1,-0.0009476918962142266,-0.00048562955309000826,-0.010244609649819863,0.01530450803496924,0.9783520242446744
2011-04-20,0,-0.0002499500313120418,0.00013610002825330866,-0.010244609649819863,0.02101426959430625,0.9774670316771218
2011-04-25,-1,-0.0006084335536814297,-0.00018152484208216807,-0.012577736326321094,0.01737400164228689,0.977615441053705
2011-04-27,1,0.0035723573489498356,0.003672416092282233,-0.012577736326321094,0.012746170228731027,0.9825062647450155
2011-04-29,1,0.003888089038224089,0.004024016031237004,-0.012577736326321094,0.01530450803496924,0.982034772135584
2011-05-03,1,0.0031818696832732057,0.0032816451673090977,-0.012577736326321094,0.01530450803496924,0.982423658229819
2011-05-05,1,0.0008221552262977097,0.0010479994145995018,-0.012462149092995414,0.016597716439072305,0.9826905831553432
2011-05-09,1,0.0016936622979320103,0.0018160455928032235,-0.015570570692234328,0.011704857420460554,0.982597246041184
2011-05-11,1,0.003894258567828158,0.0041032884999198105,-0.015570570692234328,0.007586493476733649,0.983894473118052
2011-05-13,1,0.002849842746570865,0.0029717347183671004,-0.015570570692234328,0.005802160167921153,0.9869578773901275
2011-05-17,1,0.0021045393142521494,0.0021414014283811086,-0.016607523183755486,0.009450535843769118,0.9860910240973046
2011-05-19,1,0.003160065284253051,0.0033194016267845934,-0.018721380028629518,0.0041767184912508935,0.9864181585478872
2011-05-23,1,0.0003863617961439651,0.0005673098742514721,-0.016260761483778443,0.009450535843769118,0.9873312502531738
2011-05-25,-1,-0.0009377833462948684,-0.0005281077983882697,-0.016260761483778443,0.014510315963794096,0.9864568145548153
2011-05-27,1,0.0002273986104986027,0.0004379522306638971,-0.016260761483778443,0.01476511543554643,0.9855651497393554
2011-06-01,1,0.0004720866229919845,0.0005993105179525112,-0.014350273639233118,0.01952042425541972,0.9848324410890813
2011-06-03,1,0.000734346520764228,0.0008327044827518477,-0.013329442102156648,0.01476511543554643,0.9858321747178651
2011-06-07,-1,-0.00024520280931957146,-2.389970814545674e-05,-0.008101793743685632,0.01476511543554643,0.9861696121200727
2011-06-09,1,0.0005950374308751472,0.0006243352396550473,-0.013329442102156648,0.0196931147856435,0.9839544717012568
2011-06-13,-1,-0.002061817194780838,-0.0015387534102961127,-0.013329442102156648,0.0196931147856435,0.9834255964899499
2011-06-15,-1,-0.0037226576065478552,-0.0028925285622338716,-0.013329442102156648,0.01476511543554643,0.9844373040927169
2011-06-17,-1,-0.0038650539726032985,-0.003115171802499376,-0.013329442102156648,0.01476511543554643,0.984268966285256
2011-06-21,-1,-0.0011496678715838102,-0.0008076557085430846,-0.013329442102156648,0.012381116574623352,0.9862593368578472
2011-06-23,-1,-0.00158767004124334,-0.001167221495097229,-0.012639263856868886,0.012381116574623352,0.986031041772701
2011-06-27,-1,-0.0008003771279587811,-0.0003965818781640443,-0.012776057228357836,0.012381116574623352,0.9828281476199199
2011-06-29,0,-3.058389015182458e-05,0.00028251603201340984,-0.014883696680496187,0.011457365430124395,0.9830922132494517
2011-07-01,1,0.001018093970272125,0.001223821197707485,-0.02304079162657376,0.01001733773543085,0.9786912920911469
2011-07-06,1,0.001582160014894899,0.0016926553640749526,-0.02403857507407109,0.005080402376082772,0.9779066195541413
2011-07-08,1,0.0017473821988779228,0.0018182441910133441,-0.026861754099141297,0.003905255999566548,0.9771751014260817
2011-07-12,1,0.0007472312016343466,0.0008980585198503136,-0.03042604514062752,0.003905255999566548,0.9717053294971701
2011-07-14,1,0.0009084379838405902,0.0010224466252321384,-0.037372302179298926,0.0064339445591573155,0.9669251519886995
2011-07-18,-1,-0.0014332105871645308,-0.0009309786737141479,-0.037372302179298926,0.021316184605008715,0.9662436773439539
2011-07-20,1,0.0001679360825717546,0.0003710577554331458,-0.037372302179298926,0.021316184605008715,0.9660699684744035
2011-07-22,0,-0.00020124409640007895,8.270477477785013e-05,-0.03860737585797646,0.010942811739023055,0.9648003497620321
2011-07-26,1,0.0012517350216159368,0.0012987270688040948,-0.037372302179298926,0.010942811739023055,0.9653988714003784
2011-07-28,0,-0.00018776112735301045,4.741594185544474e-05,-0.037372302179298926,0.016260791872319446,0.9653415926446463
2011-08-01,-1,-0.003028901090854877,-0.0025184890172626423,-0.028803344171289727,0.02918823975105842,0.9670592278538698
2011-08-03,-1,-0.004609914179257422,-0.003880420531446831,-0.02713737097874413,0.02918823975105842,0.9674678141614858
2011-08-05,-1,-0.007743144099565421,-0.006586049775224269,-0.018213729835600646,0.02918823975105842,0.9685347449897732
2011-08-09,-1,-0.007498701199835787,-0.0063407334774071514,-0.009427386187044057,0.02918823975105842,0.973489644755768
2011-08-11,-1,-0.005642049617381259,-0.004766159664879312,-0.018213729835600646,0.02636483255526588,0.976865461255133
2011-08-15,-1,-0.004173100176640565,-0.0034548866909544515,-0.018213729835600646,0.013824239986157059,0.9788501294920247
2011-08-17,-1,-0.0035324558100819506,-0.0029469883653854604,-0.018213729835600646,0.019832863747016413,0.9764760239117397
2011-08-19,-1,-0.00464935158644294,-0.004020038119828029,-0.015003543520101791,0.019832863747016413,0.978071812659947
2011-08-23,-1,-0.002400933620075403,-0.0020786923280161195,-0.017144562722140818,0.013824239986157059,0.9802542799201815
2011-08-25,-1,-0.0023931445613340845,-0.002123567434844323,-0.017144562722140818,0.013824239986157059,0.9801991579764456
2011-08-29,-1,-0.0007891304087752904,-0.0006488060438855457,-0.017144562722140818,0.013824239986157059,0.9811524018495368
2011-08-31,-1,-0.0008312084293026868,-0.0006422380976910736,-0.025280835424660485,0.012992529865342117,0.9791465235429712
2011-09-02,-1,-0.002303243866063458,-0.001945076676694619,-0.02801946605413523,0.012992529865342117,0.9766124983719308
2011-09-07,-1,-0.0016903984465397532,-0.0014476972113423945,-0.02801946605413523,0.01514045755253172,0.9765084540000133
2011-09-09,-1,-0.004868361520389258,-0.004207077615931767,-0.021142268794447354,0.016559672939022472,0.9772545872244928
2011-09-13,-1,-0.00408180840126196,-0.0035612484699706834,-0.021142268794447354,0.020924770372231855,0.9759222688029784
2011-09-15,-1,-0.0031205487188676723,-0.0027139376991073567,-0.021142268794447354,0.016492264299634053,0.978150990995264
2011-09-19,-1,-0.0008300932702371954,-0.0007940087312297314,-0.029425969887517625,0.016492264299634053,0.9769393386791624
2011-09-21,-1,-0.001459014030423768,-0.0014548537895240528,-0.021142268794447354,0.016492264299634053,0.9780935911848433
2011-09-23,-1,-0.002527035880568224,-0.0023664338584898532,-0.017984147943303663,0.01719758370156273,0.9784238384641085
2011-09-27,-1,-0.0016651294673777585,-0.001547381703859152,-0.017984147943303663,0.017507260893465118,0.9751225639577792
2011-09-29,-1,-0.0027980622682719338,-0.0025962216433297663,-0.0033668201128111926,0.025419276693784236,0.9726929206192886
2011-10-03,-1,-0.004876950681323761,-0.004549384924359898,0.0002588750690784547,0.025419276693784236,0.9740891444109241
2011-10-05,-1,-0.004136259830913449,-0.0037827165497600467,-0.0033668201128111926,0.025419276693784236,0.9747542951025441
2011-10-07,-1,-0.004504683713312954,-0.004087821191095939,0.0002588750690784547,0.024038503281804034,0.9760845944754333
2011-10-11,-1,-0.002505925906739303,-0.0024001070255886543,0.0002588750690784547,0.017778130598816094,0.9790171133932338
2011-10-13,-1,-0.0028624583126409886,-0.0026429533328002587,-0.0013002916042524606,0.017778130598816094,0.9779667026760773
2011-10-17,-1,-0.004070307838198449,-0.0037102311093487983,-0.0011121529824787164,0.024038503281804034,0.977398581477875
2011-10-19,-1,-0.0033433142647814546,-0.003102673437747489,-0.0013002916042524606,0.025834700506522444,0.9769707476053988
2011-10-21,-1,-0.0024088094834270194,-0.0022597495124090515,-0.0013002916042524606,0.025834700506522444,0.9785060771350211
2011-10-25,1,0.0017593119402886442,0.002160303277356274,-0.0021684335168903274,0.017778130598816094,0.9851577798711745
2011-10-27,1,0.004545151568812052,0.005289878058155682,-0.007403024037555236,0.009064509387179207,0.987010601581814
2011-10-31,1,0.004512407736182193,0.005239462116861448,-0.004189873655053432,0.009064509387179207,0.9864182195860576
2011-11-02,1,0.0036748442911535666,0.004283488695743761,-0.004189873655053432,0.009064509387179207,0.985518853363526
2011-11-04,1,0.00413325108911613,0.004807156053494939,-0.00703929815648698,0.014499039173987961,0.9838891286885783
2011-11-08,1,0.0038210619601621943,0.004418499299991537,-0.011144375029076708,0.014499039173987961,0.9829969753700142
2011-11-10,1,0.003464143936181183,0.004098683017084659,-0.011144375029076708,0.024201828241778998,0.9817545510413765
2011-11-14,1,0.004443227325084733,0.005208071276299121,-0.015854500508930364,0.014499039173987961,0.9807645651082603
2011-11-16,1,0.004999836776076115,0.005856322569635253,-0.015854500508930364,0.008552066679416423,0.9811274625614534
2011-11-18,1,0.005279716023768503,0.006278257634284048,-0.015854500508930364,0.014499039173987961,0.9778486657250194
2011-11-22,1,0.005498061284686677,0.006540570689289282,-0.015854500508930364,0.024767539019251106,0.9760381996158699
2011-11-25,1,0.004526379869475462,0.005479077792868018,-0.012184785655345493,0.024767539019251106,0.9784132023544801
2011-11-29,1,0.005945688080869073,0.007089892497874875,-0.014550386664004742,0.0159583631194607,0.9785589979987501
2011-12-01,1,0.006490111097264048,0.007679857829823924,-0.014550386664004742,0.014886809562596574,0.979578871907133
2011-12-05,1,0.00630164016492651,0.0074460588631841814,-0.01548133142284083,0.01126820839635503,0.9801633154037696
2011-12-07,1,0.005669210662419948,0.006679050629782898,-0.014430702391762654,0.021552878348658717,0.978447335002841
2011-12-09,1,0.00572681982841534,0.006756426376947376,-0.012144890897931464,0.022173444851192277,0.9803842961296603
2011-12-13,1,0.0044964725358263204,0.005372858940822065,-0.004433948692925264,0.022173444851192277,0.9829642309728838
2011-12-15,1,0.004392583901058719,0.0052823301689527554,-0.0033359716981588585,0.022173444851192277,0.9829931022515882
2011-12-19,1,0.00511138887246923,0.0060384039492326624,-0.00441218475481832,0.015551290006527533,0.9858869778004308
2011-12-21,1,0.004030230075459798,0.0047147768212598236,-0.00629525799147066,0.013468247198590423,0.9869055569121996
2011-12-23,1,0.0036470706325356338,0.004235713771617672,-0.009064009254388066,0.014404018084130926,0.9862264849576949
2011-12-28,1,0.0021458805665594337,0.0023868330965583543,-0.009064009254388066,0.016365161331356164,0.985933939924756
2011-12-30,1,0.0015355539397093867,0.0017845624975673074,-0.009064009254388066,0.018731629084002457,0.985383598484084
2012-01-04,1,0.0019134848216379704,0.002278123561602112,-0.0056345860557914925,0.02623413078402233,0.9854361397795149
2012-01-06,1,0.004523135304612181,0.005295669465593287,-0.009064009254388066,0.014404018084130926,0.9874134416208503
2012-01-10,1,0.005063165088532339,0.005903797855264407,-0.009064009254388066,0.014404018084130926,0.9869310299608353
2012-01-12,1,0.003909223764892167,0.004454297760415903,-0.011133846424138706,0.014404018084130926,0.9863338741113014
2012-01-17,1,0.0046615139642404236,0.005390902219789954,-0.011133846424138706,0.01771872330896618,0.9849521678849131
2012-01-19,1,0.0040010143371886995,0.004601112439287957,-0.011133846424138706,0.022475725460837054,0.9845931626945441
2012-01-23,1,0.004386847488427103,0.005137496100205988,-0.008214572790548425,0.022475725460837054,0.9857331736676636
2012-01-25,1,0.00475888349564,0.005581064960770151,-0.009106053241290093,0.022475725460837054,0.9850747840073113
2012-01-27,1,0.0045144813419422825,0.005243328159892663,-0.007826945009334384,0.011887695237564087,0.9865427832951531
2012-01-31,1,0.005238252158706395,0.006094613639986209,-0.007826945009334384,0.009841872870361357,0.987485278715953
2012-02-02,1,0.004475916694199924,0.005056277701838495,-0.008347706913387867,0.00598909717844886,0.9859886339149241
2012-02-06,1,0.003632390677213661,0.004125291642027355,-0.008347706913387867,0.00598909717844886,0.9861433086436849
2012-02-08,1,0.004896947953136761,0.005553918231013786,-0.008347706913387867,0.0059670414834781926,0.9873432307159105
2012-02-10,1,0.004723499356000197,0.005364163557051832,-0.008347706913387867,0.008597240250244316,0.9863115255087348
2012-02-14,1,0.004567514561854479,0.0050944486386670295,-0.006988590593892727,0.005832346582757722,0.9879106374995711
2012-02-16,1,0.004441329079928598,0.004920217154670928,-0.01118452479284296,0.005832346582757722,0.9872428172378053
2012-02-21,1,0.0048100761580642856,0.005394809256513278,-0.019246837038696465,0.008597240250244316,0.9858615530798056
2012-02-23,1,0.0026409921611814944,0.002792371970665576,-0.01118452479284296,0.008597240250244316,0.9871303203801075
2012-02-27,-1,-0.0005604936708313443,-9.678422063470488e-05,-0.01118452479284296,0.010348071243598812,0.9846701056039784
2012-02-29,1,0.000646284532024108,0.0009625677929117766,-0.019246837038696465,0.010348071243598812,0.9835391600827847
2012-03-02,-1,-0.0020512117111800192,-0.0013964591013878186,-0.009516163595362658,0.012184922618840925,0.9843784565581117
2012-03-06,-1,-0.0029357433075337764,-0.0021887831090016854,-0.006077577499966508,0.013464987264862076,0.9840041785735343
2012-03-08,-1,-0.002628651688757962,-0.0019243336748381425,-0.007380264868916252,0.016176310073716157,0.9832962464233644
2012-03-12,-1,-0.004025421696953788,-0.003065343263465962,-0.011522781561832632,0.01400956949361612,0.9787720308156137
2012-03-14,-1,-0.004383309413964639,-0.0033748179976984664,-0.011522781561832632,0.0184890321737715,0.9758171055097892
2012-03-16,-1,-0.0042095963982887955,-0.0032568947835793717,-0.012490986059585363,0.01621703485915759,0.9761221632106415
2012-03-20,-1,-0.0023543485823396626,-0.0017951361381241245,-0.007380264868916252,0.020908752359487033,0.9767540328697555
2012-03-22,-1,-0.0019831521858510305,-0.0015751501850712279,-0.006746450155456499,0.022591241772677063,0.9741359885765336
2012-03-26,0,-9.975184910002296e-05,2.7645153849470405e-05,-0.0222501807350373,0.020908752359487033,0.9738336434664816
2012-03-28,1,0.00046361087803330724,0.0006263612693767049,-0.012490986059585363,0.018170438047455877,0.9759180233184785
2012-03-30,0,0.0,0.0,-0.02464989025217548,0.01530426342181387,0.9746562822497753
2012-04-03,0,0.0,0.0,-0.02464989025217548,0.017518496345732378,0.9747818449197543
2012-04-05,0,0.0,0.0,-0.034782880880673134,0.01530426342181387,0.9736005245459414
2012-04-10,0,0.0,0.0,-0.019019589171745406,0.01530426342181387,0.9796058390500919
2012-04-12,0,0.0,0.0,-0.01943459884828689,0.007727643726970455,0.9811227344684258
2012-04-16,0,0.0,0.0,-0.019092664062842546,0.007727643726970455,0.9809387655806471
2012-04-18,0,0.0,0.0,-0.0201130681696945,0.0031421710458428807,0.9810894053652243
2012-04-20,0,0.0,0.0,-0.02050003082719167,-6.726319916036712e-05,0.9821161381430251
2012-04-24,0,0.0,0.0,-0.0201130681696945,0.0007675701209329654,0.9834277596821152
2012-04-26,0,0.0,0.0,-0.0201130681696945,0.00576506690933786,0.9819689612027486
2012-04-30,-1,-0.0018398105649852332,-0.001410204242961634,-0.01898516792260558,0.007727643726970455,0.983394716760927
2012-05-02,-1,-0.0020061424958626546,-0.0015430274800466185,-0.019052487368655866,0.00576506690933786,0.9835248587685559
2012-05-04,-1,-0.009376917546728538,-0.00784557549773437,-0.019052487368655866,0.00576506690933786,0.9857051791122037
2012-05-08,-1,-0.010902823272610426,-0.0090745654246662,-0.019052487368655866,0.01270270602598174,0.9820653253811586
2012-05-10,0,0.0,0.0,-0.0201130681696945,0.027702275259648912,0.973185481523989
2012-05-14,0,0.0,0.0,-0.02168397981103861,0.027702275259648912,0.9688727939700855
2012-05-16,0,0.0,0.0,-0.02168397981103861,0.031208891895073813,0.9674083387928448
2012-05-18,0,0.0,0.0,-0.020214984019167218,0.031208891895073813,0.9687978598874449
2012-05-22,1,0.0004892584231741437,0.000568420649719292,-0.01031370050026983,0.02960166180716583,0.9693710592013001
2012-05-24,1,0.0003732020192172903,0.00043337278498286247,-0.01031370050026983,0.02960166180716583,0.9696863735932144
2012-05-29,0,0.0,0.0,-0.020214984019167218,0.02583346565139291,0.9692621104426736
2012-05-31,0,0.0,0.0,-0.016061603916656824,0.02583346565139291,0.9686957201687716
2012-06-04,0,0.0,0.0,-0.01341193706877512,0.02583346565139291,0.9696106097412205
2012-06-06,0,0.0,0.0,-0.01341193706877512,0.02005829250509316,0.9728868292707379
2012-06-08,1,0.0003478832213079015,0.00041960665657584257,-0.01341193706877512,0.02005829250509316,0.9754303061474613
2012-06-12,1,0.0012366638253549051,0.001381779610942901,-0.009231452765737943,0.02005829250509316,0.9806133044813345
2012-06-14,1,0.0003789589755658973,0.0004327320987908215,-0.009231452765737943,0.02005829250509316,0.9814364195880919
2012-06-18,0,0.0,0.0,-0.01085098918712871,0.023223990531041638,0.9794386062988509
2012-06-20,0,0.0,0.0,-0.01085098918712871,0.02005829250509316,0.9804656300437744
2012-06-22,-1,-5.528552786390522e-06,-4.12062173746514e-06,-0.014440201748050979,0.02005829250509316,0.977860676114506
2012-06-26,0,0.0,0.0,-0.01341193706877512,0.023921180551001696,0.9769065143812093
2012-06-28,1,0.0011100675587968377,0.001110067558796838,-0.011065973910862382,0.027892289116612543,0.9753267922239605
2012-07-02,0,0.0,0.0,-0.016083257417958893,0.027892289116612543,0.9740847452996573
2012-07-05,0,0.0,0.0,-0.016083257417958893,0.027892289116612543,0.9731956595756912
2012-07-09,0,0.0,0.0,-0.014938569591988204,0.02441627852468951,0.9777765813443975
2012-07-11,0,0.0,0.0,-0.014938569591988204,0.027892289116612543,0.9758060823917626
2012-07-13,0,0.0,0.0,-0.014938569591988204,0.02441627852468951,0.9763972542778451
2012-07-17,0,0.0,0.0,-0.013362578670466278,0.019010153471858037,0.9777243864003482
2012-07-19,0,0.0,0.0,-0.013362578670466278,0.019010153471858037,0.9769146331965096
2012-07-23,0,0.0,0.0,-0.012032079546781966,0.01992039853635482,0.9776248465797174
2012-07-25,0,0.0,0.0,-0.013362578670466278,0.01992039853635482,0.9780203107806391
2012-07-27,0,0.0,0.0,-0.013362578670466278,0.01632282857018051,0.9809528055962584
2012-07-31,0,0.0,0.0,-0.011282953748898494,0.017434182252177615,0.9822174203089515
2012-08-02,0,0.0,0.0,-0.007837040505870061,0.017434182252177615,0.9831284115461807
2012-08-06,0,0.0,0.0,-0.0065059644209375525,0.017434182252177615,0.9836131138100058
2012-08-08,-1,-0.0012802323822630952,-0.0011952372931553657,-0.0065059644209375525,0.011120265951469178,0.9858409552717967
2012-08-10,-1,-0.0009844026730607756,-0.0009412446411340603,-0.007722953690855427,0.011120265951469178,0.9854361259449996
2012-08-14,-1,-0.0019225703269478715,-0.0017509529274643307,-0.008281535437194457,0.011120265951469178,0.982367707657431
2012-08-16,-1,-0.0009760197697309511,-0.0009590122723413138,-0.008281535437194457,0.005087869107825577,0.9846629913219237
2012-08-20,-1,-0.00044989641859155246,-0.00021729371075325,-0.008281535437194457,0.005087869107825577,0.9863388573644248
2012-08-22,1,0.0007091914106829849,0.0011567269004333503,-0.009325331126083004,0.0027724391441872453,0.9873975827144564
2012-08-24,0,0.0,0.0,-0.009852970036197133,0.0041308774556647375,0.9858620460262777
2012-08-28,0,0.0,0.0,-0.01252418353407962,0.0026644764292816526,0.9858108968997543
2012-08-30,1,0.00018361605929452851,0.0002032949684706028,-0.01252418353407962,0.007743147832067081,0.9849799944540619
2012-09-04,0,0.0,0.0,-0.016348769832269364,0.004290635559711807,0.9846861515515355
2012-09-06,0,0.0,0.0,-0.016348769832269364,0.004290635559711807,0.9842344877437837
2012-09-10,0,0.0,0.0,-0.01252418353407962,0.004290635559711807,0.9852199013861354
2012-09-12,0,0.0,0.0,-0.012066143737874745,0.004290635559711807,0.9882277116703061
2012-09-14,0,0.0,0.00014884528633165358,-0.012066143737874745,0.004549330821179636,0.9882073509301696
2012-09-18,0,0.0,0.0,-0.014730609557469077,0.0033838116905483225,0.9887583749755632
2012-09-20,1,0.00298140622492896,0.0031281855322813547,-0.009569399075437015,0.004549330821179636,0.9852121091647003
2012-09-24,1,0.003185090085331992,0.0033043499589470856,-0.009682271912110376,0.0033838116905483225,0.9862721923345007
2012-09-26,1,0.0017793798716752992,0.002123190688450903,-0.009143200316614919,0.0026679845799480496,0.987747821066881
2012-09-28,1,0.0017565247130543128,0.0021204124554416483,-0.009143200316614919,0.0012642354937721198,0.9882256446297328
2012-10-02,1,0.00045651015911572453,0.00100564518903932,-0.0072495736821989515,0.0020596706382872356,0.988907898855232
2012-10-04,0,-0.00044749415912785553,0.00025748917386187223,-0.006774978578753314,0.0026679845799480496,0.9895296645734973
2012-10-08,-1,-0.0015897234208438519,-0.0007102661658810708,-0.0055033890980156226,0.0049559779720676255,0.9844704796673597
2012-10-10,-1,-0.002884463588656593,-0.0018019368462753051,-0.0055033890980156226,0.0049559779720676255,0.9830536297760659
2012-10-12,-1,-0.0033638258069850794,-0.0022298543840298867,-0.003057441652692815,0.005055642093530983,0.982984269863292
2012-10-16,-1,-0.0038689334466489086,-0.002700160698678969,-0.003057441652692815,0.005055642093530983,0.982966582731631
2012-10-18,-1,-0.0015931860935422862,-0.0007161924809341649,-0.003057441652692815,0.005055642093530983,0.9878837810176869
2012-10-22,-1,-0.002712007649142881,-0.0016678134145646168,-0.0015592728906947794,0.005055642093530983,0.9874849174147708
2012-10-24,-1,-0.0037522921313450676,-0.0025334523495620103,-0.003024473109414033,0.007797459946873095,0.9868923026868103
2012-10-26,-1,-0.0036093434147310074,-0.0024259191351415493,-0.003024473109414033,0.007797459946873095,0.9861565472398504
2012-11-01,-1,-0.001327023717138893,-0.0005263365499431835,-0.0004114277867249543,0.007797459946873095,0.98709830842333
2012-11-05,0,0.0,0.0,-0.0019058290464541027,0.008925708378011779,0.9860264207177258
2012-11-07,0,0.0,0.0,-0.003024473109414033,0.004787417627400901,0.9911021211970374
2012-11-09,0,0.0,0.0,-0.002073462014486802,0.007015024274991126,0.9920628507178435
2012-11-13,0,0.0,0.0,-0.0027450946438702718,0.007015024274991126,0.9921059955321814
2012-11-15,0,0.0,0.0,-0.005039370997564443,0.007015024274991126,0.9874125142179396
2012-11-19,0,0.0,0.0,-0.0062832343972712545,0.007015024274991126,0.9859330372973678
2012-11-21,0,0.0,0.0,-0.008466556489391435,0.007015024274991126,0.9855967335525873
2012-11-26,0,0.0,0.0,-0.011716026020321423,0.006718115253099056,0.9849315963358702
2012-11-28,0,0.0,0.0,-0.010309761986234053,0.0070148309554062815,0.9854661105531815
2012-11-30,0,0.0,0.0,-0.011716026020321423,0.0070148309554062815,0.983347671159935
2012-12-04,1,0.002220836347070195,0.0022573999746528474,-0.011716026020321423,0.0070148309554062815,0.9835986371070858
2012-12-06,1,0.0018570462708382349,0.0018602422209197506,-0.011716026020321423,0.009686846784149866,0.982791446105749
2012-12-10,1,0.002711591842981183,0.002853312105942225,-0.01289189832430473,0.00818613323380317,0.9817480519311591
2012-12-12,1,0.0027634570956439645,0.0029635037642913456,-0.01289189832430473,0.010279663770019463,0.9812581142765365
2012-12-14,-1,-0.0007008581848919285,-0.0003474440472743149,-0.01289189832430473,0.015299424842804768,0.9853427443338769
2012-12-18,1,0.0012352221754276024,0.0012594426758127302,-0.011302777714832535,0.010279663770019463,0.9866217348952974
2012-12-20,1,0.00237798466946825,0.0026760001095540815,-0.011302777714832535,0.015299424842804768,0.9853756240241827
2012-12-24,1,0.00023264450558792873,0.0003196212042011387,-0.006036946718757428,0.015299424842804768,0.9859630118447358
2012-12-27,-1,-0.0003253475489854496,-0.00011574466400731591,-0.007413029028615736,0.015299424842804768,0.9857341864500162
2012-12-31,1,0.001207812621668192,0.0012281119877714688,-0.007413029028615736,0.010899063774832024,0.9877951043521961
2013-01-03,1,0.001539602848304725,0.0016926869605236672,-0.007413029028615736,0.014789992969142258,0.9875123856044538
2013-01-07,1,0.0026305064602352678,0.002926637338368298,-0.009781140762569711,0.010899063774832024,0.9850779999197754
2013-01-09,1,0.0010993122135674583,0.001137880120394142,-0.008174380518417571,0.010899063774832024,0.9858786185836861
2013-01-11,1,0.0023664491457053988,0.0026860554005205327,-0.009781140762569711,0.010911909738401008,0.984164332730516
2013-01-15,1,0.002039897188508143,0.0022498802349042507,-0.008174380518417571,0.00886859490661011,0.9853333506628725
2013-01-17,1,0.003223199514499857,0.0036080909470391134,-0.008174380518417571,0.009676765484963948,0.9855905168868911
2013-01-22,1,0.0033732496066783157,0.0037271069423013416,-0.009188765105897502,0.008520133999167082,0.9865479666505227
2013-01-24,1,0.002930091092260587,0.0032545459953620196,-0.009188765105897502,0.008520133999167082,0.9865656136614321
2013-01-28,1,0.0027225575154331922,0.0030184027919586227,-0.011031687248996388,0.008520133999167082,0.985544789964825
2013-01-30,1,0.0033056468116625585,0.0036939038836850016,-0.008591229347226465,0.008836454938871034,0.985920007028098
2013-02-01,1,0.002496259180427803,0.0028027212418300002,-0.008591229347226465,0.008836454938871034,0.9854314894547909
2013-02-05,1,0.0033436478661699807,0.003680511016399972,-0.0077290356586741495,0.010827801878742214,0.9885068444198127
2013-02-07,1,0.0022112366066668636,0.002218271304786067,-0.005632107182131776,0.015467941571757678,0.987034584024886
2013-02-11,1,0.0019260062977859255,0.001964731165730301,-0.008345063073706721,0.014011610650100148,0.9883568835310175
2013-02-13,1,0.0020073786739448498,0.002018496634279121,-0.010646664002380252,0.014011610650100148,0.9867210926449829
2013-02-15,1,0.0015896711524701003,0.0016979652113653992,-0.010646664002380252,0.014011610650100148,0.9867436041921382
2013-02-20,1,0.0016160837490744521,0.0017041064909366866,-0.008713674135725585,0.014011610650100148,0.986627838492172
2013-02-22,1,0.0008709764746307738,0.0010705684557150048,-0.010734480660293871,0.014011610650100148,0.9864643695782658
2013-02-26,1,0.00036564994524395614,0.0005852643859580725,-0.00853559394497405,0.014011610650100148,0.9876131935261004
2013-02-28,0,-0.0001275021417984929,0.00021628322241854826,-0.00853559394497405,0.011798940651645062,0.9881170614241866
2013-03-04,-1,-0.0005844643842982549,-0.00018678012542457751,-0.007861762855258008,0.011452504386256467,0.9894264989593057
2013-03-06,1,7.327452687346967e-05,0.0004223935142028089,-0.00853559394497405,0.007329213311824699,0.989639199627912
2013-03-08,1,0.008314422452093377,0.008483370021027238,-0.010734480660293871,0.0006009642795529956,0.9851414624506314
2013-03-12,1,0.006541238931131357,0.0068863107495850204,-0.007861762855258008,0.007329213311824699,0.985268362886909
2013-03-14,-1,-0.001998978149579555,-0.001302184689574042,-0.007413393718325161,0.007594872107106819,0.98810826873786
2013-03-18,0,-5.958229623473149e-05,0.00022417160674733207,-0.007413393718325161,0.0084391167739136,0.9861722164608386
2013-03-20,1,0.0014430488805673163,0.001555310155138288,-0.012460722939307261,0.007829936572807079,0.984234817430736
2013-03-22,-1,-0.0014912434430186233,-0.001046841920081987,-0.010439687499879028,0.009923632857038674,0.9842956951796645
2013-03-26,0,0.0,0.0,-0.010439687499879028,0.012458754128800587,0.9820658385742739
2013-03-28,0,0.0,0.0,-0.011785221868731974,0.012458754128800587,0.9818157205345229
2013-04-02,0,0.0,0.0,-0.0137634601131633,0.010120786070727708,0.9814114538254678
2013-04-04,0,0.0,0.0,-0.01031514512358573,0.013505325219739944,0.9815271317452098
2013-04-08,0,0.0,0.0,-0.008851664707796627,0.013505325219739944,0.9824343927866133
2013-04-10,0,0.0,0.0,-0.008851664707796627,0.010280908353049564,0.985360870646654
2013-04-12,1,2.085591664932024,2.085591664932024,-0.008851664707796627,0.010503860964367234,0.324416492285858
2013-04-16,0,0.0,0.0,-0.004454162887615067,0.011817590230996617,0.9869304300763019
2013-04-18,-1,-0.0001062078658892418,-4.202064096478511e-05,0.004217813071830321,0.011817590230996617,0.9884762150365133
2013-04-22,0,0.0,0.0,0.001522917613964796,0.010078960436632726,0.988410297184823
2013-04-24,0,0.0,0.0,0.00038245975293725153,0.009418098069771928,0.9901599008163885
2013-04-26,0,0.0,0.0,0.00038245975293725153,0.009418098069771928,0.989289000242269
2013-04-30,0,0.0,0.0,0.0035040373529086717,0.010078960436632726,0.988880524638097
2013-05-02,0,0.0,0.0,0.00038245975293725153,0.009418098069771928,0.9878435988104699
2013-05-06,0,0.0,0.0,-0.005634656833628304,0.009084710020696182,0.987766550015517
2013-05-08,0,0.0,0.0,-0.0075737702834621345,0.008856778374404415,0.9871817983520232
2013-05-10,0,0.0,0.0,-0.0075737702834621345,0.008856778374404415,0.9871549640228195
2013-05-14,1,0.003329123301269387,0.0035908846851602605,-0.012733353809114351,0.008156842372895625,0.9875261130895981
2013-05-16,1,0.0033749446614245097,0.0036198405563307888,-0.012733353809114351,0.008156842372895625,0.9870583422508634
2013-05-20,1,0.001281425834473368,0.001360500525227725,-0.0075737702834621345,0.009045961540218979,0.9872042115858157
2013-05-22,1,0.0020372290026849913,0.002088729652188997,-0.012733353809114351,0.009045961540218979,0.9858881057922892
2013-05-24,1,0.0012763597707219473,0.0013740704926068076,-0.00779897966005889,0.008360187125208177,0.9868314937584998
2013-05-29,1,0.0017051684965751622,0.0017525797235033657,-0.011157326851935294,0.007483689757262295,0.9876023209039638
2013-05-31,1,0.000788203117794761,0.0008486137365070196,-0.007275657175584565,0.009631089145737261,0.9866835217058259
2013-06-04,-1,-0.000325015273471061,-7.922390767525322e-05,-0.006005098534956021,0.010096957181260684,0.9868533648128455
2013-06-06,-1,-0.00045925732824424637,-0.00018207686862363394,-0.005971502371274463,0.012770383704833996,0.9872130683834259
2013-06-10,1,0.0007906617118838789,0.0009165214074263648,-0.005971502371274463,0.011959613978813276,0.9883930987108168
2013-06-12,0,-6.306248349616955e-05,0.0001088564324024969,-0.005082956375661595,0.011959613978813276,0.9889476140566427
2013-06-14,1,0.0021258673155030348,0.0022689619094145626,-0.005082956375661595,0.01057273034625467,0.9894438645268298
2013-06-18,1,0.0029296006428539403,0.003152490216503307,-0.005279330900271759,0.009789680200735257,0.9899659886658297
2013-06-20,1,0.0013974515667320594,0.0014148724616620894,-0.0032543568978976724,0.009789680200735257,0.9916479840897128
2013-06-24,1,0.001081290849850288,0.0011422728403640118,-0.0006415102676951154,0.01057273034625467,0.9899727577911688
2013-06-26,1,0.0002829894931882025,0.0004374063975489714,-0.0006415102676951154,0.01057273034625467,0.9885708521989
2013-06-28,1,0.0027660446590766006,0.0029863979651906262,-0.0026099526349795624,0.00978786292258369,0.9908264002242188
2013-07-02,1,0.002970311430143813,0.003185054720059978,-0.0033198150727677266,0.008353161858752336,0.9904985021934934
2013-07-05,1,0.0029745826771837474,0.0031463136650477373,-0.0026099526349795624,0.00978786292258369,0.9906123837351285
2013-07-09,1,0.0036426813395974726,0.003924168842463115,-0.0026099526349795624,0.00978786292258369,0.9907694723613489
2013-07-11,1,0.00386602053816049,0.004185266140457932,-0.0031880803801704236,0.00978786292258369,0.9900452254173394
2013-07-15,1,0.003699196991483358,0.004015557281520775,-0.005960410902331126,0.008353161858752336,0.9899601353024912
2013-07-17,1,0.003414492950963593,0.0036384811511388313,-0.009272697683659669,0.008353161858752336,0.9896529822837641
2013-07-19,1,0.0029857706692160988,0.0030631289741970577,-0.011305434690071439,0.008353161858752336,0.9884745826301734
2013-07-23,1,0.004187531475196382,0.004462365988044318,-0.011305434690071439,0.008342820939313086,0.9900888778689172
2013-07-25,1,0.0030228536637906217,0.003112502587221532,-0.009615088873270988,0.00815404196332375,0.9908768277899089
2013-07-29,1,0.0028481049437536466,0.0029911935714046736,-0.008793179080840683,0.00948829618301784,0.9917529787151387
2013-07-31,1,0.003028670706439722,0.0032748253889821285,-0.008013927923536324,0.00948829618301784,0.9920885579049318
2013-08-02,1,0.0032681412722751334,0.0034654529657644375,-0.008793179080840683,0.00815404196332375,0.9915470195459175
2013-08-06,1,0.003265502565381221,0.0034266478481864582,-0.008793179080840683,0.009581747344321661,0.9904252321327597
2013-08-08,1,0.0025529234397227768,0.0026006453802156415,-0.008793179080840683,0.009581747344321661,0.9908183480051446
2013-08-12,1,0.002184341475690721,0.002186962361390915,-0.00812805832007343,0.009581747344321661,0.9911674172667229
2013-08-14,1,0.0009774064157007884,0.0011604873556461928,-0.005704933362164718,0.01187399174858072,0.990595520017195
2013-08-16,1,0.0002858123375008725,0.0005759192295903875,-0.0018910157216690832,0.012420021803223304,0.9904077776680714
2013-08-20,1,0.0005401379902393582,0.0008238698763120939,-0.005704933362164718,0.012420021803223304,0.9904754523746147
2013-08-22,1,0.0004233822111909081,0.0007030320183791723,-0.0078780621178686,0.012420021803223304,0.9896929161258254
2013-08-26,1,0.00048305531738660336,0.0007038602901358025,-0.0078780621178686,0.014858959934846238,0.9853175784090846
2013-08-28,-1,-0.0005190431470233324,-0.00017345111693721136,-0.008464799531709224,0.014858959934846238,0.9852299881564374
2013-08-30,1,0.0006290879262134173,0.0006868348737335515,-0.008464799531709224,0.014656397469452163,0.9857011630550061
2013-09-04,1,0.002590883760394574,0.002859131304577545,-0.009533296472283195,0.010855700032584265,0.985915897294809
2013-09-06,1,0.001519783079161573,0.0015884522716018172,-0.008464799531709224,0.015330822513394921,0.9858906305538886
2013-09-10,1,0.00019409546582124077,0.0004163004735270044,-0.00975286834678907,0.015330822513394921,0.9850308449497235
2013-09-12,1,0.000871559687764066,0.0009690977021238258,-0.00975286834678907,0.015330822513394921,0.9850561567324488
2013-09-16,1,0.0026671391700386652,0.0028164585115159554,-0.00975286834678907,0.00917067828722009,0.9861159880763488
2013-09-18,1,0.00182986177168881,0.001854260762237057,-0.009844220927571814,0.01480014318150447,0.9858265585564449
2013-09-20,-1,-0.0004630448582507437,-0.0001919830562237164,-0.009844220927571814,0.01480014318150447,0.9862592666260497
2013-09-24,1,0.0030482817177190894,0.0032397044004845495,-0.009844220927571814,0.007590080985792674,0.9910856689703058
2013-09-26,1,0.0031225832218395215,0.0033262810840944046,-0.010325986362735682,0.007590080985792674,0.9871138760713867
2013-09-30,1,0.0028887007648373784,0.00312023855449162,-0.010556611535906856,0.00536300829730275,0.9868249017344531
2013-10-02,1,0.003465433380225891,0.003835934879656619,-0.01178112275210552,0.003786955441354214,0.9863918607484277
2013-10-04,1,0.004212986672073716,0.004723438728556543,-0.014228685947636334,0.0005677459832931811,0.9847639009863788
2013-10-08,1,0.0035201821933530018,0.003959636764053221,-0.014228685947636334,0.0015941910467357307,0.9845031361465789
2013-10-10,1,0.003436335733415212,0.0037894685236040384,-0.017548329375463197,0.0005677459832931811,0.9838471555066717
2013-10-14,1,0.003554075042786118,0.0039327209723648586,-0.017548329375463197,0.002554229950545017,0.9827271999052003
2013-10-16,1,0.003258501643275369,0.003563712937252349,-0.017548329375463197,0.002554229950545017,0.9826571023847225
2013-10-18,1,0.0031655123754449573,0.0034685847286816548,-0.017548329375463197,-0.000902568711725077,0.982580371850299
2013-10-22,1,0.0022053922251717246,0.0022957981131745383,-0.017548329375463197,0.00497793329326395,0.9830304379497189
2013-10-24,-1,-0.0019121856012524702,-0.0014845573777556426,-0.010754809615802876,0.00497793329326395,0.988563018128384
2013-10-28,-1,-0.0036139877006159385,-0.002941442180649855,-0.009467513704386324,0.012428416494291012,0.9875427908592416
2013-10-30,-1,-0.004025972292195631,-0.003366276146066718,-0.007804787664083754,0.012428416494291012,0.9876843662187259
2013-11-01,-1,-0.005928291203033413,-0.005007689579804559,-0.004565464478438587,0.012428416494291012,0.9873317477567203
2013-11-05,-1,-0.004664936703242081,-0.003931275440472785,-0.0036317864608288886,0.012428416494291012,0.9887806429245156
2013-11-07,-1,-0.005412351516088041,-0.0046501615208747685,-0.0036317864608288886,0.012428416494291012,0.9886834437681655
2013-11-11,-1,-0.005558232093229964,-0.0047260951346989755,-0.007804787664083754,0.0062743557276821495,0.9884105506490485
2013-11-13,-1,-0.005479135130742624,-0.004627835500574532,-0.012663779208281751,0.003965142444626312,0.9883165068836892
2013-11-15,-1,-0.006159945510023326,-0.0051705001558464084,-0.012502293395054223,0.0062743557276821495,0.9850789249931171
2013-11-19,-1,-0.0041900440403567695,-0.0035154078112248537,-0.012584517195124902,0.007485586830011654,0.9850514886479161
2013-11-21,-1,-0.004435561996291041,-0.0037623434504249925,-0.013706644753324,0.015306788188816282,0.9837248272993385
2013-11-25,-1,-0.002647886128938714,-0.002195647047100748,-0.013706644753324,0.003967283716412006,0.9855551568516421
2013-11-27,-1,-0.002072957053460813,-0.0017199207932773256,-0.013706644753324,0.003967283716412006,0.9858256107722662
2013-12-02,-1,-0.0014700531680782543,-0.001162674858713757,-0.013706644753324,0.01289082772234737,0.98477042150512
2013-12-04,-1,-0.0007248539882171583,-0.0005186995684114561,-0.013706644753324,0.005845814887558996,0.9856182644263854
2013-12-06,-1,-0.0012530520865826308,-0.000987550795278226,-0.012584517195124902,0.01289082772234737,0.9851111264686452
2013-12-10,-1,-0.0045683702632311465,-0.0039538080195493834,-0.006389997905692332,0.0146623757148499,0.9855815238252668
2013-12-12,-1,-0.004978958000037229,-0.004375243875078762,-0.0026276087904084614,0.0146623757148499,0.9854849146414193
2013-12-16,-1,-0.003589618111910024,-0.0031027046753724138,-0.0015519571654238479,0.0146623757148499,0.9881704498529297
2013-12-18,-1,-0.003915875105965047,-0.003366954510940109,-0.002087666947862818,0.01289082772234737,0.9893805922096666
2013-12-20,-1,-0.004171681887705281,-0.003566217349248226,-0.002087666947862818,0.010397929181402529,0.9905219234107087
2013-12-24,-1,-0.0035378545047619493,-0.00308265531081327,-0.002419772181238994,0.01289082772234737,0.9897686635159946
2013-12-27,-1,-0.003099264782602929,-0.002728020879817593,-0.0044385783747386,0.01289082772234737,0.9896304684262771
2013-12-31,-1,-0.0018962390638091308,-0.00163419093983998,-0.0044385783747386,0.009834622877671317,0.9906855925165103
2014-01-03,-1,-0.0023005078997372554,-0.0019995433450986436,-0.005565661489870422,0.009834622877671317,0.9895998203447188
2014-01-07,-1,-0.0010956347194973905,-0.0008979883337780558,-0.005808760145210504,0.009834622877671317,0.9882475501854904
2014-01-09,-1,-0.0009731959553889154,-0.0007823293249256384,-0.005808760145210504,0.006668972063922888,0.9893093417734459
2014-01-13,-1,-0.0014844285094860478,-0.0012675874373630248,-0.005170531720569256,0.0032905233098553506,0.9906222873873572
2014-01-15,-1,-0.0004583393102808001,-0.0003635910860694901,-0.005808760145210504,0.0002851079081382631,0.9882016002993317
2014-01-17,-1,-0.0002521182624996508,-0.0002047122560003068,-0.005808760145210504,0.010378534959032638,0.9866733562509344
2014-01-22,-1,-0.0006270107452510647,-0.0005251307305990827,-0.008316865199469902,0.012353823461509674,0.985142249707662
2014-01-24,-1,-0.0008290444867376183,-0.0006656629221666771,-0.005808760145210504,0.012353823461509674,0.9851285376173079
2014-01-28,-1,-0.0006161024461384184,-0.0005522610092208152,-0.005170531720569256,0.012353823461509674,0.9851422300092816
2014-01-30,-1,-0.00044537223260221736,-0.0003908096603302647,-0.005170531720569256,0.013883992373522181,0.984965112665039
2014-02-03,-1,-0.0017668256851892158,-0.0015676325712919424,-0.005136988181147698,0.01656203082127033,0.9845635458993104
2014-02-05,1,0.00041893001099086087,0.0004781125837936389,-0.006657388727413333,0.013883992373522181,0.9868038701935956
2014-02-07,1,0.00047696972064898953,0.0006611717631105564,-0.006657388727413333,0.013883992373522181,0.9862808681650568
2014-02-11,1,0.0001130286335260381,0.00021574390872611818,-0.006657388727413333,0.013883992373522181,0.9859776253289548
2014-02-13,-1,-0.0013477730907115034,-0.0011950865397861725,-0.009458586293371693,0.011933120902236288,0.98804667353075
2014-02-18,1,0.0018087807950340029,0.002257104802752056,-0.009458586293371693,0.011465475455203504,0.9893596912194994
2014-02-20,1,0.0016153448049407093,0.001998621990541876,-0.0060010276461689716,0.011069211779165452,0.9907205810668663
2014-02-24,1,0.002883726781894679,0.0034298289068588035,-0.009458586293371693,0.009897649752679446,0.9910875882625018
2014-02-26,1,0.002734449116705248,0.0032774486068839516,-0.009458586293371693,0.009897649752679446,0.9908866517516491
2014-02-28,1,0.0037080202165630355,0.004424658458062862,-0.01162717373834713,0.007366549224669622,0.99003726687643
2014-03-04,1,0.0034661604062750746,0.004106118487018815,-0.009458586293371693,0.006881075789498237,0.9914776413204237
2014-03-06,1,0.003487680567638869,0.00417350747327907,-0.009658090494614047,0.006881075789498237,0.991295607719446
2014-03-10,1,0.004317136021457385,0.005158770668862455,-0.013765154422432181,0.006282549240758969,0.9887549680231077
2014-03-12,1,0.004740257514848545,0.005646152304115283,-0.013765154422432181,0.006301380415922572,0.987840221908843
2014-03-14,1,0.003933210129177064,0.004742232769347543,-0.01829865921799689,0.006301380415922572,0.9879627260517614
2014-03-18,1,0.0048192301521629765,0.005741506249487681,-0.01829865921799689,0.004136401756028262,0.9873178673164731
2014-03-20,1,0.0032557655046170555,0.003752545514951465,-0.019055500013696658,0.002004727582991995,0.9859866143959031
2014-03-24,1,0.0022418657740306477,0.0024911377259492972,-0.01829865921799689,0.004559268241527139,0.9818322375576707
2014-03-26,1,0.001157165560861558,0.0011854175522104916,-0.01829865921799689,0.009166622904640981,0.9811577403148298
2014-03-28,-1,-0.000458984607358855,-0.00017457803796950156,-0.0175084090788718,0.009166622904640981,0.982220153533375
2014-04-01,1,0.0008900549899716447,0.0009957766989010341,-0.0175084090788718,0.01365015472184658,0.9814640349173496
2014-04-03,-1,-0.0009729536500161535,-0.000569898701457948,-0.009953161535709142,0.01365015472184658,0.9823587043770888
2014-04-07,-1,-0.002262384948561242,-0.0017961539351080379,-0.006261166000945069,0.01483076533741012,0.9837847028779606
2014-04-09,-1,-0.0004932005831406981,-0.00025684292511809765,-0.007447856790955883,0.014308550772788394,0.9839937500808175
2014-04-11,-1,-0.002114582783268446,-0.0016345878024846818,-0.006261166000945069,0.01869177938938051,0.9830749582694299
2014-04-15,-1,-0.002145258479863065,-0.001699853094238476,-0.007628600252997231,0.01869177938938051,0.9825641232470497
2014-04-17,-1,-0.004460834068736317,-0.0037136747714849178,-0.006261166000945069,0.01869177938938051,0.9832702082917631
2014-04-22,-1,-0.0015951265494445854,-0.0013000077306329519,-0.006261166000945069,0.014308550772788394,0.9894606934427076
2014-04-24,1,8.078740618737673e-05,0.000156812827371759,-0.006261166000945069,0.012066301019282178,0.991066094166759
2014-04-28,-1,-0.0006136755992067274,-0.0004891106936423615,-0.005090057885711092,0.01411519364249119,0.9892873410666196
2014-04-30,1,0.000483444231703239,0.0004941379577335756,-0.005090057885711092,0.012595792316692521,0.9895453995253517
2014-05-02,0,-1.4576570445949243e-05,5.871319457313739e-05,-0.003208940189859375,0.0157013380898558,0.988770889772511
2014-05-06,-1,-0.0014813106646008674,-0.001322046567889285,-0.005611189232125241,0.012595015835070382,0.9867608537299211
2014-05-08,-1,-0.0025494832679576573,-0.002188384936195436,-0.003208940189859375,0.0118391785186112,0.986869832240158
2014-05-12,-1,-0.0004972366244446063,-0.0004623858870415067,-0.005611189232125241,0.010276940851508915,0.988710065364517
2014-05-14,-1,-0.0011281272350511878,-0.0010333165779560095,-0.0016195121509155323,0.010720432813939192,0.9884557632367923
2014-05-16,-1,-0.0007969524980794541,-0.0007326433563451982,-0.0016195121509155323,0.011565500383690627,0.9879059579905735
2014-05-20,-1,-0.0003417758647810724,-0.0003304014820778734,0.0008105889119909468,0.011856177937635218,0.9874943760031335
2014-05-22,-1,-8.042408786899611e-05,-4.7540216053516476e-05,-0.004630465063620314,0.011856177937635218,0.987468318395253
2014-05-27,1,0.0018019179576755223,0.0021363598164567026,-0.006274908412936721,0.0107260992869472,0.9885885622669788
2014-05-29,1,0.0012627448352086315,0.0014693467301015296,-0.004630465063620314,0.011856177937635218,0.9886290424168657
2014-06-02,1,0.0029614927602857385,0.003498675635130402,-0.004630465063620314,0.011017257893994915,0.989575924141899
2014-06-04,1,0.0018372498539102776,0.002263771736924938,-0.0014434095257652322,0.012799981839925346,0.9896687057406687
2014-06-06,1,0.0018184011845040213,0.002190811141399166,-0.004630465063620314,0.011978947435163631,0.9887881451366004
2014-06-10,1,0.002245403350538605,0.002716562732764465,-0.004630465063620314,0.011978947435163631,0.9882481534534338
2014-06-12,1,0.0026105882196457743,0.0031255858411391923,-0.005389909967880766,0.011413705526443899,0.9880645662249578
2014-06-16,1,0.002614765399334606,0.003115768185532746,-0.004630465063620314,0.010490593843918698,0.9890231659206785
2014-06-18,1,0.004393431577880885,0.0050483786657173095,-0.005389909967880766,0.009959543321490193,0.988151377050653
2014-06-20,1,0.0024025849856789544,0.0028224697355175342,-0.007623673668458072,0.009959543321490193,0.9873947381946975
2014-06-24,1,0.0021970617563195913,0.0023024334871090497,-0.007144879045023668,0.011753182093559595,0.9863011837923134
2014-06-26,1,0.002043281130058968,0.002048086670572965,-0.007623673668458072,0.009959543321490193,0.9832292403046894
2014-06-30,1,0.003562800930397989,0.003802797186154,-0.009228113542974734,0.011732866794848152,0.9822188224257042
2014-07-02,1,0.005608833759098341,0.006100246384139707,-0.012504220223515942,0.006559702654608799,0.9815474007786767
2014-07-07,1,0.004780586683405808,0.0051364158193687014,-0.010086485775429073,0.006559702654608799,0.9825935125227212
2014-07-09,1,0.0031544589013957638,0.003417467155937502,-0.010086485775429073,0.008276894088596522,0.9829850213700808
2014-07-11,1,0.0032858358716611955,0.003641792002265585,-0.011466405638956935,0.012568224550010575,0.9815797261163733
2014-07-15,1,0.003440311693290559,0.0037629803196366387,-0.011466405638956935,0.012568224550010575,0.9815056965423516
2014-07-17,1,0.004397339460254207,0.004961106670437314,-0.011466405638956935,0.012568224550010575,0.9819596213304841
2014-07-21,1,0.0027589202315885216,0.0031024181881054557,-0.010086485775429073,0.012568224550010575,0.9834836525493608
2014-07-23,1,0.003638400082494623,0.004113921011123577,-0.010086485775429073,0.012568224550010575,0.9854575919444789
2014-07-25,1,0.0034533332833810724,0.0038827931516518636,-0.010086485775429073,0.012568224550010575,0.9884946311973702
2014-07-29,1,0.0027518021003963425,0.0030284074701805103,-0.006791213461554752,0.009452448587520035,0.989461542575023
2014-07-31,1,0.001412656202050319,0.0015677545757868537,-0.0018782236633919367,0.012568224550010575,0.9899949516762117
2014-08-04,1,0.0023567413936767785,0.002644676294889921,-0.0031776731440490234,0.010073007940954996,0.9901950517916427
2014-08-06,1,0.002072522321058674,0.0022603257092745866,-0.0031776731440490234,0.008261824744997249,0.990980508193001
2014-08-08,1,0.0019073772446681816,0.0021267434264564404,-0.0018782236633919367,0.009933746328912328,0.9916913916340615
2014-08-12,1,0.002111648623804603,0.0023823153281497004,0.0002660454789250937,0.009933746328912328,0.9918328728596619
2014-08-14,1,0.0024529327266856653,0.0027079949838555435,-0.006778261208580421,0.008261824744997249,0.9914259434523964
2014-08-18,1,0.002092694377013412,0.002257298794856916,-0.006873751838215781,0.009933746328912328,0.990644547327363
2014-08-20,1,0.002444604508523998,0.002595943228160169,-0.006873751838215781,0.012017943875886356,0.9903957672923358
2014-08-22,1,0.002117723270655661,0.002248900929153884,-0.002739905034970803,0.012017943875886356,0.9908797630692119
2014-08-26,1,0.0013366262726137938,0.0013727607013441613,-0.004382619289713211,0.014787865517450682,0.9896231279228163
2014-08-28,1,0.0007735526672786087,0.0010015919658976802,-0.006873751838215781,0.012017943875886356,0.9902745751822958
2014-09-02,1,0.0008769306431218717,0.0010326427673290034,-0.006928495016968215,0.012017943875886356,0.9898128952631027
2014-09-04,1,0.00063901429608341,0.0009784320848933495,-0.009580692475427121,0.012017943875886356,0.9896599699857925
2014-09-08,1,0.0016457611313697347,0.0018948252809708652,-0.010421040757305324,0.011091701597134377,0.9892504240692271
2014-09-10,1,0.0008261723169940363,0.001236795092598688,-0.010421040757305324,0.012932953231192252,0.9877554703952441
2014-09-12,1,0.0007103318048457402,0.001097958611632123,-0.010763765314924111,0.012932953231192252,0.9866640168473304
2014-09-16,1,5.915726021897994e-05,0.0003409187813824231,-0.01150837282162627,0.011091701597134377,0.987201312500499
2014-09-18,1,0.000455156925061237,0.0007190980621123698,-0.01150837282162627,0.007027929398864747,0.9878797471007567
2014-09-22,1,0.0005677474598494264,0.0008175538169562758,-0.01150837282162627,0.009154162807763589,0.9871449871721947
2014-09-24,1,0.0011993262136187274,0.001410595595215228,-0.012318367581500823,0.009154162807763589,0.9861444231432936
2014-09-26,1,0.002594698008724399,0.0026107709271923694,-0.013034089599561812,0.012079160218448405,0.985154268981173
2014-09-30,1,0.002063803540723715,0.0021470031128881014,-0.013034089599561812,0.016053084057674707,0.9825702171573933
2014-10-02,1,0.00110948963112339,0.0011206551751851857,-0.011746946827646598,0.016053084057674707,0.9832008787250626
2014-10-06,1,0.0003123541162208499,0.00045053948281127324,-0.011459875849302978,0.016053084057674707,0.9829235574193077
2014-10-08,1,0.0011374786301347837,0.0011799242177058617,-0.011459875849302978,0.013989626837051556,0.9844588005195389
2014-10-10,-1,-0.0006890980035377717,-0.0004510943566409189,-0.007173827905451134,0.013989626837051556,0.9846777797447127
2014-10-14,-1,-0.0013768566432284482,-0.0010601867055581656,0.0035317165966612966,0.016053084057674707,0.9832211250336714
2014-10-16,1,0.00017320416615253635,0.0002294411410229831,0.0007649138223061523,0.019156076026629023,0.9833032196472558
2014-10-20,1,0.0008152799999363647,0.0008319445344588368,-0.003311318927865378,0.019156076026629023,0.9835122112343194
2014-10-22,1,0.0016189828525435775,0.001769483760370971,-0.000867784286071897,0.01582100765525746,0.985795746724061
2014-10-24,1,0.0008624749642053146,0.0008922450469921502,-0.000867784286071897,0.01486364647278483,0.986617021822172
2014-10-28,1,0.004503032000486681,0.005031723058159351,-0.000867784286071897,0.01385347050634075,0.9911402899120727
2014-10-30,1,0.0037629970726662217,0.004171472225016924,-0.000867784286071897,0.012377823649423223,0.991328950553916
2014-11-03,1,0.005056943489576715,0.00564731009917539,-0.000867784286071897,0.010868486444336573,0.9921800469794444
2014-11-05,1,0.004517296240637854,0.005032211159979849,-0.0024235756046698943,0.012377823649423223,0.9905424082360716
2014-11-07,1,0.005120669259112321,0.0057580250065150645,-0.004735816775529344,0.011677494875488756,0.9906076000004213
2014-11-11,1,0.005041885098402277,0.005665469095619764,-0.007424285058836847,0.0034078698958768033,0.9902842164013272
2014-11-13,1,0.005961272721550161,0.0065763441730618,-0.007424285058836847,0.006484510857915068,0.9886557579453257
2014-11-17,1,0.005701420664264529,0.006292823438171167,-0.007616536084192259,0.0034078698958768033,0.9882910802944653
2014-11-19,1,0.006385929895290345,0.007053576400916917,-0.007616536084192259,0.012610688098172427,0.9862186523232397
2014-11-21,1,0.007267758216362053,0.008165853618557834,-0.007616536084192259,0.012610688098172427,0.985724528335122
2014-11-25,1,0.007146079346595283,0.007964850911983125,-0.008130855706955655,0.012610688098172427,0.9851451815052686
2014-11-28,1,0.005575023372146311,0.006133261405710857,-0.008130855706955655,0.012610688098172427,0.985194986240889
2014-12-02,1,0.005290107813664519,0.0058007586891213065,-0.008130855706955655,0.011996447602937488,0.9849988770186556
2014-12-04,1,0.006053750801536327,0.00666148665287593,-0.007781247454378876,0.006714996060364653,0.9860125331670618
2014-12-08,1,0.004252727040487976,0.004675766278096655,-0.004472379887489873,0.006714996060364653,0.9878933294659644
2014-12-10,1,0.0028775717660566914,0.0030302647243201884,-0.004472379887489873,0.011216621832568824,0.9884003838662997
2014-12-12,1,0.005284388830221171,0.005753741420172594,-0.0065192201211704635,0.006714996060364653,0.9891350117608056
2014-12-16,1,0.0042907541399888035,0.004609754772745647,-0.004472379887489873,0.006714996060364653,0.9904419857932546
2014-12-18,1,0.006174438121527932,0.006742122417452741,-0.0065192201211704635,0.005511234238047751,0.9909010257174844
2014-12-22,1,0.004715598446304323,0.004971684827248349,-0.0065192201211704635,0.010636439969103654,0.9910821875072088
2014-12-24,1,0.004241550668080515,0.004446651807369192,-0.0065192201211704635,0.012578953263282074,0.9913826136519077
2014-12-29,1,0.003736416354370385,0.0038799652916998444,-0.007726681619796693,0.012578953263282074,0.9907957669064098
2014-12-31,1,0.0023603461763262814,0.0024350239079836077,-0.007726681619796693,0.012578953263282074,0.990697971342377
2015-01-05,1,0.0021049757609265234,0.002227052576251885,-0.007726681619796693,0.013677773161744296,0.9899678744087558
2015-01-07,1,0.002549709812135374,0.0025683069893443545,-0.007726681619796693,0.01605461830209711,0.9883496917289353
2015-01-09,1,0.002476430839514601,0.0025121522361990344,-0.00797478350443948,0.014314072711701603,0.9886877526751776
2015-01-13,1,0.002907429287489471,0.0029612218990299733,-0.005517818918434705,0.01802141208948012,0.9878692393040983
2015-01-15,1,0.0024587615377394015,0.002503406690649374,-0.007630263785803345,0.01802141208948012,0.9874583115704392
2015-01-20,1,0.0022243941717566755,0.002311386734600787,-0.005444813711520407,0.01802141208948012,0.9877329953857767
2015-01-22,1,0.003956320442511919,0.004135351004594352,-0.00767755948778821,0.01364116706179593,0.9883031607474966
2015-01-26,1,0.003638211619621239,0.0037415692734654184,-0.00767755948778821,0.017715106833768125,0.9871445948963232
2015-01-28,1,0.002035633925837682,0.0021747225464451895,-0.007573869356187384,0.017715106833768125,0.9881197295430181
2015-01-30,1,0.0021823558652363795,0.002249594721682291,-0.00443057916352331,0.017715106833768125,0.9887248959308786
2015-02-03,1,0.002835466154455906,0.0028510412981580155,-0.00443057916352331,0.012634695522838904,0.9896486699445552
2015-02-05,1,0.002915824260357313,0.0029663872097102926,-0.006869530086761541,0.012191794720706525,0.9903109438011429
2015-02-09,1,0.002323383664131282,0.00241180529601304,-0.006676335266625803,0.012191794720706525,0.9904656460281497
2015-02-11,1,0.004408252648917593,0.00463496685235626,-0.006676335266625803,0.011181941445226279,0.991273833311114
2015-02-13,1,0.003879234688409001,0.0040313822897074985,-0.0014186758778997207,0.012545283457364295,0.9905933093152447
2015-02-18,1,0.004462838434800026,0.00472560646511141,-0.0014186758778997207,0.012545283457364295,0.9899992057065956
2015-02-20,1,0.003189948247977194,0.0032427755615299435,-0.0009627277199609835,0.0156750621092542,0.9893250631282517
2015-02-24,1,0.003948103674451137,0.004087601776109697,-0.0009627277199609835,0.012545283457364295,0.9912883059104691
2015-02-26,1,0.0031816945014984796,0.003220805246814045,-0.0050306148831291905,0.012545283457364295,0.9900474498115975
2015-03-02,1,0.003141277623611394,0.00322707004698433,-0.0050306148831291905,0.0156750621092542,0.9886746513426012
2015-03-04,1,0.0030559475500243215,0.0031125269066236846,-0.00591480355873146,0.0156750621092542,0.9880177376200053
2015-03-06,1,0.0014633419228650768,0.0018331543425727942,-0.0050306148831291905,0.015322556377810836,0.9888792543315909
2015-03-10,1,0.0005659609958610233,0.001090906105154515,-0.0035382714821988524,0.015322556377810836,0.9890278047212119
2015-03-12,1,0.0013162605011138495,0.0017522898759645856,-0.005847781023021102,0.012284466388916178,0.9894563876374317
2015-03-16,1,0.002720958851767513,0.0029684030281907367,-0.005847781023021102,0.005611909344623436,0.990392056926421
2015-03-18,1,0.0032372384494259777,0.003355889021638685,-0.006674419806262042,0.005611909344623436,0.9890662214623954
2015-03-20,1,0.0037018151648192956,0.003802328849572752,-0.008010381411020727,0.005611909344623436,0.987892712198324
2015-03-24,1,0.004665643378937946,0.004919601570844881,-0.008010381411020727,0.011981976339018166,0.9874246902200906
2015-03-26,1,0.0031525574022974283,0.003171686242745257,-0.0053243763754509035,0.015223020304460709,0.988009801866746
2015-03-30,1,0.004893085764738174,0.005150502403417469,-0.008139534896245505,0.011981976339018166,0.9858366325103538
2015-04-01,1,0.004169780456596554,0.004346810489269351,-0.018626154779664714,0.011981976339018166,0.9815651835508702
2015-04-06,1,0.0037291820685118075,0.0038083892616723003,-0.018626154779664714,0.014904231725646427,0.9801707548966921
2015-04-08,1,0.004410468079667794,0.004642130427011362,-0.02388041970189824,0.014904231725646427,0.9793146602783572
2015-04-10,1,0.0038965816925397726,0.004068244243288062,-0.02388041970189824,0.017251856467186615,0.979466103225849
2015-04-14,1,0.0035025351873861953,0.003626628133823307,-0.02388041970189824,0.02235338126340207,0.9788819856786858
2015-04-16,1,0.0025795584122364767,0.0025877980450550193,-0.01834595952294358,0.017330534738445758,0.980774140422862
2015-04-20,1,0.0023800958975558634,0.002416256285915989,-0.006450265718152134,0.017330534738445758,0.981521807470442
2015-04-22,1,0.0026905359212365146,0.0027005465844705885,-0.006450265718152134,0.017330534738445758,0.9815952289969009
2015-04-24,1,0.003797726246441353,0.00390877476193494,-0.010824628708530685,0.011115558210599062,0.9827300889780626
2015-04-28,1,0.00015704293174731063,0.00048712638672698686,0.00013299511411880112,0.014317986656318003,0.9845345585025035
2015-04-30,-1,-0.004815556347083878,-0.003943086775693411,0.002850986220610991,0.016657192171891006,0.9840106484042741
2015-05-04,-1,-0.003547485398851984,-0.002780616462610904,0.0005502502122567048,0.010994959028217892,0.9857465081626225
2015-05-06,-1,-0.0049811297889437115,-0.003989528594627333,0.00013299511411880112,0.010994959028217892,0.9858616127427083
2015-05-08,-1,-0.0025124506704261892,-0.0019355117138727478,-0.0010271117420695675,0.009141542072033555,0.9885565736474087
2015-05-12,-1,-0.002121905213450708,-0.0015447401469157608,-0.0019733124130276855,0.009141542072033555,0.9895659119955333
2015-05-14,-1,-0.000731487788055224,-0.00041919384019301867,-0.0027199671512705696,0.009984781788993822,0.989041463030583
2015-05-18,0,-0.000151993710488199,0.000113316061560943,-0.0027199671512705696,0.013524678179098693,0.9878845172176229
2015-05-20,1,0.0003696629131617619,0.000613107525934157,-0.004563064555168463,0.013524678179098693,0.9879977387015908
2015-05-22,1,2.0869864870984474e-05,0.0003275073730817751,-0.0027199671512705696,0.013524678179098693,0.9879579522008203
2015-05-27,1,5.940170942104908e-05,0.0003664788378322384,-0.005229210495878845,0.011345981456817252,0.9874279110683171
2015-05-29,1,0.0011570815628777935,0.001373086858749415,-0.006411798718881019,0.011345981456817252,0.9868735501925358
2015-06-02,1,8.171248440102998e-05,0.0004258568507029219,-0.005229210495878845,0.011345981456817252,0.9885695254738428
2015-06-04,-1,-0.0006230438009900551,-0.00019719576457896573,-0.005229210495878845,0.011345981456817252,0.9849743057197227
2015-06-08,0,-0.0003300523225325076,7.955850970351851e-05,-0.006411798718881019,0.011345981456817252,0.982212213969511
2015-06-10,-1,-0.0007294147411770655,-0.000287980828358806,-0.006411798718881019,0.008215748595347,0.982555828327374
2015-06-12,1,0.0003112102584506126,0.0006672413034555288,-0.006411798718881019,0.008215748595347,0.982758415481323
2015-06-16,1,0.0026298452999886862,0.002631234486644379,-0.006411798718881019,0.007673374043851287,0.9843808460162586
2015-06-18,1,0.0023225265858056354,0.0023494700261335157,-0.002207938383554633,0.007659211485655763,0.984893192412614
2015-06-22,1,0.0021194283266310135,0.0022466794339952205,-0.009123540715204041,0.0067557744197269155,0.983077893817183
2015-06-24,1,0.0013421789330809344,0.0016606499527774365,-0.00834889720686393,0.0067557744197269155,0.9836613261906395
2015-06-26,1,0.0024915720389585777,0.0026676786985642548,-0.00834889720686393,0.006301885782107447,0.9847991417662464
2015-06-30,1,0.0029496215201369118,0.003039331614520771,-0.00834889720686393,0.0067557744197269155,0.9841869996772573
2015-07-02,-1,-0.0020132256354582867,-0.001312944283177063,-0.006847608554980123,0.007590189959389974,0.987548716424618
2015-07-07,-1,-0.004047124771606124,-0.0032113640927046443,-0.006642773537790506,0.008317931908480798,0.9894049545028384
2015-07-09,-1,-0.004315470856073448,-0.0034392922029594427,-0.006968303365469268,0.008994532043350125,0.9888539021251532
2015-07-13,-1,-0.0026730333908819323,-0.001992938044684224,-0.006968303365469268,0.008994532043350125,0.9897111624709951
2015-07-15,-1,-0.002083048502416968,-0.0014867166908252864,-0.00935727877091505,0.007590189959389974,0.9894410965100731
2015-07-17,-1,-0.001486615274512066,-0.000995839738236309,-0.009617069076911285,0.008787467464552758,0.988835305940821
2015-07-21,-1,-0.003754085862818923,-0.0029949726438083402,-0.009013913937771696,0.010796807192747655,0.9885588455434465
2015-07-23,-1,-0.004180064453090812,-0.0033663597655905985,-0.010348789353867559,0.010796807192747655,0.9852399779929806
2015-07-27,-1,-0.005342827191051409,-0.004482625887722308,-0.016152575265721534,0.010796807192747655,0.9825176255522015
2015-07-29,-1,-0.004609741209068463,-0.0038685530234221508,-0.016152575265721534,0.012235252325635451,0.981152324366003
2015-07-31,-1,-0.004342231331685782,-0.0035546643959970666,-0.016152575265721534,0.012235252325635451,0.9813592497803196
2015-08-04,-1,-0.0035835114604551898,-0.0029107448158976965,-0.023980053613819597,0.010136413210463262,0.9799524434894114
2015-08-06,-1,-0.0021639372238289735,-0.0017429150827393566,-0.023980053613819597,0.010136413210463262,0.9799429683397518
2015-08-10,-1,-0.0007537832805058298,-0.0005801493241215149,-0.023980053613819597,0.010136413210463262,0.978774896695538
2015-08-12,-1,-0.00220704570225511,-0.0019170526662868042,-0.015568961512710255,0.010136413210463262,0.9799200371848145
2015-08-14,-1,-0.0017273138430034635,-0.0013412558714774553,-0.015568961512710255,0.01046677962744667,0.9796423399622233
2015-08-18,-1,-0.001013647187721608,-0.0006723316411792481,-0.015568961512710255,0.007705936995050862,0.9812037540699958
2015-08-20,-1,-0.0016870976909770681,-0.0013253970238070658,-0.011620597754551015,0.007705936995050862,0.9840325699322459
2015-08-24,-1,-0.004893890535060248,-0.004204071421115599,-0.007656887142959887,0.007705936995050862,0.9867946567074901
2015-08-26,-1,-0.0031236039610120646,-0.0026791943187428648,-0.011620597754551015,0.007705936995050862,0.9872763125349389
2015-08-28,-1,-0.0031730405924627943,-0.002738674495303513,-0.01636410328005637,0.007705936995050862,0.9812711481047567
2015-09-01,-1,-0.007582733084386288,-0.006678014149382837,-0.008592322819267834,0.009859882234262863,0.9805201758891186
2015-09-03,-1,-0.00706526719016864,-0.006252661491700251,-0.010104423601189731,0.01007714788639261,0.9794408190196056
2015-09-08,-1,-0.0058446126763369265,-0.00513278693219275,-0.01636410328005637,0.007705936995050862,0.9799734743498596
2015-09-10,-1,-0.005423140475358539,-0.0047575176596205485,-0.01636410328005637,0.015355613368652307,0.9784843738959873
2015-09-14,-1,-0.004041871898474939,-0.0035856601220360137,-0.01636410328005637,0.015355613368652307,0.9775806727438805
2015-09-16,-1,-0.002410701164539105,-0.0022380012080664025,-0.01636410328005637,0.015355613368652307,0.9780435233952338
2015-09-18,-1,-0.005106534279688053,-0.004465306595047347,-0.010308683701057848,0.015879219593446518,0.9776040832898721
2015-09-22,-1,-0.008090606176580214,-0.0068487219384450754,-0.009616335240415757,0.01680078490581778,0.9757569097955734
2015-09-24,-1,-0.007415301414231449,-0.006365670861512731,-0.01586929966199872,0.01680078490581778,0.9746082502077248
2015-09-28,-1,-0.01326950434543466,-0.011481863711494676,-0.008737754542022004,0.020760292193405725,0.9754431566780003
2015-09-30,-1,-0.010783625578581476,-0.00937004840375941,-0.008737754542022004,0.0220729887146413,0.9756923779758079
2015-10-02,-1,-0.008282189190674723,-0.007239192928460248,-0.011274495697915946,0.01680078490581778,0.978636591211564
2015-10-06,-1,-0.010264347451341827,-0.009018599658555101,-0.009290474694522067,0.020381869891286625,0.9773047055707506
2015-10-08,-1,-0.007831304358766637,-0.006927917667842625,-0.00995294035994177,0.01807676011685578,0.9793552735963593
2015-10-12,-1,-0.005371168454921979,-0.004805175072424469,-0.010879029687395115,0.01597948617156871,0.981885490932289
2015-10-14,-1,-0.005385508355613384,-0.004822786453055511,-0.011274495697915946,0.01597948617156871,0.981080758576125
2015-10-16,-1,-0.003742211523897479,-0.0034141430649036984,-0.013081056420152743,0.01447080015891054,0.9812170969827407
2015-10-20,-1,-0.0010433074646974422,-0.0009492813385800473,-0.012154370587165501,0.01447080015891054,0.9823568886202028
2015-10-22,-1,-0.005057887146226885,-0.004623460067433888,-0.010879029687395115,0.01447080015891054,0.9806205732500749
2015-10-26,-1,-0.003153574372827596,-0.002903730285406777,-0.010879029687395115,0.011505747942157469,0.9804691770331835
2015-10-28,-1,-0.00027160640224175664,-0.0001598388145429263,-0.010879029687395115,0.007922066180160843,0.9830198875029216
2015-10-30,-1,-0.0009549915548835443,-0.0009086923588560792,-0.009924083448988964,0.011505747942157469,0.9817208359155376
2015-11-03,1,0.0009389350477441923,0.0012764922134428955,-0.009924083448988964,0.011505747942157469,0.9821439410079809
2015-11-05,1,0.004019136308392561,0.004914212158086602,-0.012267403085985548,0.012928233937375595,0.9793031545094221
2015-11-09,1,0.0016709098588727894,0.0022530631387020737,-0.01614202408344678,0.012928233937375595,0.9793339392553123
2015-11-11,1,0.000894623477953427,0.0014114771053089308,-0.009881786799743632,0.012928233937375595,0.9810812264203386
2015-11-13,1,0.0014507243458618806,0.002024556545279456,-0.008487770595548463,0.012928233937375595,0.9819253739439641
2015-11-17,1,0.001796603223700943,0.002454144875773748,-0.008487770595548463,0.02454589828754406,0.9794211837624275
2015-11-19,-1,-0.000695547091767427,-0.00035363824539007965,-0.006504669153227366,0.032997564236216866,0.9815115602545385
2015-11-23,0,-9.320032802333201e-05,0.0001387504454087369,-0.004410913896152885,0.02454589828754406,0.9841305702523067
2015-11-25,-1,-0.0003550224027712702,-0.00024908731407201795,-0.004023138726778931,0.02454589828754406,0.9835936381415378
2015-11-30,1,0.00044637286873617024,0.0006787505021999802,-0.0017591520115742727,0.013174796252792728,0.9853706658839038
2015-12-02,1,0.002101778831074031,0.0026408952068976677,-0.006231069140913855,0.009941025356225815,0.9858162952738267
2015-12-04,1,0.0025107440478505274,0.0031569759003721165,-0.004023138726778931,0.009941025356225815,0.9886516449981207
2015-12-08,1,0.00152854793293395,0.002102577160740899,-0.004193628229232288,0.009941025356225815,0.987158149311083
2015-12-10,-1,-0.0009659305531517447,-0.0007685526033131526,-0.00804078858847914,0.009941025356225815,0.9848006533217653
2015-12-14,1,0.0004191023821910942,0.0007017942775173228,-0.009163735980771255,0.011279255712316132,0.9823407588325317
2015-12-16,1,0.002660656136387977,0.0031992700920668404,-0.01521037206079099,0.009941025356225815,0.9839017761720062
2015-12-18,1,0.0044301403153793675,0.0051992590021854215,-0.01521037206079099,0.009941025356225815,0.9847953428401384
2015-12-22,1,0.004249059326106842,0.004978694720190311,-0.01870545200986628,0.011279255712316132,0.9803355306719522
2015-12-24,1,0.0026367267710566316,0.003310007571138298,-0.026790435371787963,0.011279255712316132,0.9785475853418553
2015-12-29,1,0.005538200085981739,0.00649629217176944,-0.027242558457668063,0.01606388302591636,0.9744282446908367
2015-12-31,1,0.005375754186160538,0.0063611918036080295,-0.027242558457668063,0.02505721555779796,0.9727292486845796
2016-01-05,1,0.00530038387285106,0.006192754483746528,-0.02780242037688179,0.02505721555779796,0.9699195334942387
2016-01-07,1,0.003351590121817346,0.00399570129256309,-0.02780242037688179,0.02505721555779796,0.9702656164321556
2016-01-11,1,0.002685159044123361,0.0033841487895091104,-0.03198850932557877,0.02741079144551698,0.9684914293027367
2016-01-13,1,0.0010929718019234153,0.001437733094086928,-0.03113954009265303,0.02505721555779796,0.969875147661351
2016-01-15,1,0.0008310961835375361,0.0010254995708006017,-0.03113954009265303,0.02505721555779796,0.9709774828333873
2016-01-20,1,0.002386184003507337,0.0028450305456882504,-0.03293919208173161,0.026199767336112244,0.9686073435597606
2016-01-22,1,0.0029056259631480676,0.0034025247643211143,-0.027704006366575017,0.026199767336112244,0.97089565179986
2016-01-26,-1,-0.0003965626954468854,-0.0003934521189611388,-0.023496136889174492,0.026199767336112244,0.9728299585547572
2016-01-28,-1,-0.0009294523360072602,-0.000882332859636334,-0.016468100771952075,0.024554611991351477,0.9760478225207372
2016-02-01,1,0.002308623253989156,0.0027497526053188465,-0.016468100771952075,0.011010329011995224,0.9780105762444532
2016-02-03,1,0.0002992351052803695,0.0004827523761384147,-0.011362386213152638,0.020448719801881704,0.9793150081383936
2016-02-05,-1,-0.0005947435280481022,-0.0005001076114437687,-0.011362386213152638,0.020448719801881704,0.9805807192520422
2016-02-09,-1,-0.0014478477944004828,-0.0014205485460112638,-0.011362386213152638,0.016430165032229986,0.9831430617850166
2016-02-11,-1,-0.0034965184339146014,-0.003253528878401609,-0.009083995365810253,0.020448719801881704,0.9818200267888739
2016-02-16,-1,-0.0024294899220530875,-0.002304317363135788,-0.011155915751797113,0.016430165032229986,0.9819996479760521
2016-02-18,-1,-0.0018164395140465991,-0.0017519656985105147,-0.011155915751797113,0.012991463731059636,0.9837607591070824
2016-02-22,-1,-0.0051202528694668575,-0.004362754947697062,-0.011155915751797113,0.012991463731059636,0.9842519594359453
2016-02-24,-1,-0.0040467269482749955,-0.0034521179873307217,-0.011155915751797113,0.020989661306968235,0.980530644845734
2016-02-26,-1,-0.0026074875682915175,-0.002213564264319676,-0.014284121972554072,0.020989661306968235,0.9791587224195446
2016-03-01,-1,-0.0034030989437541723,-0.002813644078202288,-0.012957353658926217,0.017452166771607942,0.9808546776843792
2016-03-03,-1,-0.0014855150378770908,-0.0011810748596309737,-0.015608941328551236,0.01588386023343865,0.981390928070903
2016-03-07,-1,-0.0018623711727278744,-0.0015982725713818845,-0.01284715687570084,0.01588386023343865,0.9820724349571922
2016-03-09,-1,-0.002208711264109796,-0.0018879453754872433,-0.011130204537889387,0.014493635232632585,0.9826469582610714
2016-03-11,1,3.2357634809485044e-05,5.0812356116619464e-05,-0.014805036027599118,0.009035785918572518,0.982811360887613
2016-03-15,-1,-0.0006147392554445015,-0.000584543683901628,-0.01284715687570084,0.012317689271540545,0.9836785563804372
2016-03-17,-1,-0.00410899319791647,-0.00351419233043985,-0.010821703001869501,0.012317689271540545,0.9851870214621601
2016-03-21,-1,-0.001954399417425576,-0.0016951422862434853,-0.010821703001869501,0.012265610519225766,0.9866289590793405
2016-03-23,1,0.0019523523893230487,0.0022775096975008865,-0.010821703001869501,0.009938885367776835,0.9890649275682283
2016-03-28,1,0.0012476257294157253,0.0014208540903122976,-0.008980497247892703,0.009938885367776835,0.9891774075298807
2016-03-30,1,0.0018066844800527409,0.0021258397775460987,-0.010821703001869501,0.012245379872790165,0.9856554097214402
2016-04-01,1,0.0015494312575984896,0.0018499395050666707,-0.013403083029878774,0.012245379872790165,0.9836871829241367
2016-04-05,1,0.0007773221919093631,0.000943302245859451,-0.011844946821954215,0.013420552704005325,0.9838092703843068
2016-04-07,1,0.0009168934308305758,0.0010279668265186768,-0.016889160039682855,0.012245379872790165,0.9830931869242772
2016-04-11,-1,-0.001350899510971395,-0.001122126669248076,-0.011517127094508514,0.013420552704005325,0.9839644278444365
2016-04-13,-1,-0.0005591560079176144,-0.00047529155173996543,-0.019630141514678304,0.013420552704005325,0.9821039784652666
2016-04-15,-1,-0.0034244413436729623,-0.002873590673486117,-0.019630141514678304,0.013420552704005325,0.9824996472118344
2016-04-19,-1,-0.0022122891251155595,-0.001884238340177472,-0.019630141514678304,0.010323866096036688,0.9821014121320537
2016-04-21,-1,-0.001430595643955205,-0.001186027282365206,-0.019630141514678304,0.009190309182380136,0.9823881800785789
2016-04-25,1,0.0005788857961101726,0.0005958547624316896,-0.019630141514678304,0.009190309182380136,0.9831105567535073
2016-04-27,1,0.0022377039601175087,0.0025203080560218354,-0.018057856597685773,0.010401560788744813,0.9846796518117795
2016-04-29,1,0.00018316193109362298,0.000212668135019578,-0.013109587938533151,0.013161696129880622,0.9861637112528364
2016-05-03,1,1.5264781203663466e-05,0.00010653833610821785,-0.013109587938533151,0.013161696129880622,0.985935721826291
2016-05-05,-1,-0.0012812286484362703,-0.0010442052037795094,-0.008105488322982338,0.013954377350295186,0.985644992203215
2016-05-09,-1,-0.0016551473012123875,-0.0013589497651928534,-0.0027023195330065784,0.013954377350295186,0.9856997225666942
2016-05-11,-1,-0.0022051847997141497,-0.0019928980723938855,0.0014266077943480464,0.016660205937660693,0.9863676277392677
2016-05-13,-1,-0.0013876811673779095,-0.0013759159242055067,-0.0006828897213434274,0.016660205937660693,0.9871438009153038
2016-05-17,-1,-0.0012353109099881214,-0.0012109266887089518,-0.0006828897213434274,0.016660205937660693,0.9880821523008053
2016-05-19,-1,-0.0008006869949066101,-0.0007111063109353814,-0.0005987245566402567,0.016660205937660693,0.9890613925673994
2016-05-23,1,0.00010952919824090647,0.0003724549252290786,-0.0011287807831583123,0.023501593300754478,0.9884905662197839
2016-05-25,1,0.0015885856313100322,0.0020184407607529995,-0.0011287807831583123,0.013954377350295186,0.9905369927715519
2016-05-27,1,0.0028992702581299087,0.0035255164820244935,-0.0021948462517044545,0.010763871131638372,0.9896862890690259
2016-06-01,1,0.002777001389462046,0.003324792702021963,-0.0021948462517044545,0.013159401107705502,0.9885299661218495
2016-06-03,1,0.003223401768655841,0.003728661906761975,-0.0021948462517044545,0.009667230206587335,0.9893433048424168
2016-06-07,1,0.003982652552710304,0.00461087442649494,-0.004618099840263145,0.0039241993914364585,0.9885553795229639
2016-06-09,1,0.005041054713809097,0.005801603296790839,-0.006254106488363968,0.0032708741629273895,0.9874620466247788
2016-06-13,1,0.004599027286938997,0.00536589325615964,-0.003908260063775795,0.009667230206587335,0.9884472130688604
2016-06-15,1,0.0043537103727783275,0.0050684171315645635,-0.0033549321612313015,0.009667230206587335,0.9884563007890661
2016-06-17,1,0.0033909886847030865,0.003940630626209514,-0.004453595613142736,0.010269846459700823,0.9880354729057037
2016-06-21,1,0.004026041281420357,0.004548602167703753,-0.004876568450028465,0.009667230206587335,0.9889235752229544
2016-06-23,1,0.005741279774632405,0.00665048245603949,-0.004876568450028465,0.010269846459700823,0.9878074058729898
2016-06-27,1,0.003486724781994234,0.00396777937347031,-0.00401468757242901,0.010269846459700823,0.9850949454517148
2016-06-29,1,0.003933810629758894,0.004407688525979219,-0.004876568450028465,0.010269846459700823,0.98416708445323
2016-07-01,1,0.003503483832065745,0.0037963225340544187,-0.007143238652606325,0.009818198323170244,0.9834971418369259
2016-07-06,1,0.0018597320520069573,0.001948136851881456,-0.006733109588483129,0.011099355920810981,0.9827279739382139
2016-07-08,1,0.002624256503225437,0.0027626180316332447,-0.005455612902761908,0.009818198323170244,0.9837442535544534
2016-07-12,1,0.003561962144875317,0.0037730030196848944,-0.008589987994287276,0.008623441897000208,0.9836186915179824
2016-07-14,1,0.0037982628489452892,0.00417928925309094,-0.008589987994287276,0.008623441897000208,0.9832865779314606
2016-07-18,1,0.003303997215872737,0.003598761426606737,-0.0075453508900144165,0.009266425971790473,0.9838016052711027
2016-07-20,1,0.0034037086767036272,0.0037171796831083946,-0.010910085122495188,0.008696442262188131,0.9821776139790667
2016-07-22,1,0.005114977241602251,0.005680422439572705,-0.010910085122495188,0.009392833682673142,0.9823646085400012
2016-07-26,1,0.0032517036054160744,0.0036352959596894336,-0.009489439987104649,0.009392833682673142,0.9865153559255031
2016-07-28,1,0.002128031590231827,0.002265357952915535,-0.01132058410704341,0.008665577800627764,0.9877291747678043
2016-08-01,1,0.0021591795221606396,0.002314503250180209,-0.009489439987104649,0.008333616705557503,0.9885229458252444
2016-08-03,1,0.003733529967985531,0.0041666160689409065,-0.009489439987104649,0.008333616705557503,0.9888937496240878
2016-08-05,1,0.00283307559899103,0.003071971868055438,-0.011016044226673566,0.009392833682673142,0.988292168485082
2016-08-09,1,0.0008649906238194418,0.0010004581360279151,-0.014215867525713497,0.009676717092232444,0.9856441251491502
2016-08-11,1,0.0011205958572632422,0.0011567793771226624,-0.014215867525713497,0.009676717092232444,0.9851958820770076
2016-08-15,1,0.0030591843615758035,0.003398754915459817,-0.015601378338841919,0.011498271214875122,0.9840244029326758
2016-08-17,1,0.001215404596662758,0.0012883087910702516,-0.012566051029988052,0.016693251761698058,0.9850831230203982
2016-08-19,1,0.0022937456822613627,0.0024831931819629185,-0.012566051029988052,0.011128993786308515,0.9860422402370572
2016-08-23,1,0.0016567621539640021,0.0017537395509417556,-0.012566051029988052,0.016693251761698058,0.9856782252362866
2016-08-25,-1,-0.00025631905418937106,-7.860980338086373e-05,-0.008421227376081298,0.016693251761698058,0.9866997551893346
2016-08-29,-1,-0.00020617581618710055,-9.733892261617252e-05,-0.008421227376081298,0.016693251761698058,0.985831124946139
2016-08-31,-1,-0.0007618618366918668,-0.0004990473393896807,-0.009992514285290644,0.014538992437697816,0.986294379193667
2016-09-02,-1,-0.00034631223632577946,-9.15999563812492e-05,-0.010679100672694546,0.011394624767251194,0.9847726820534232
2016-09-07,-1,-0.0016630899619647962,-0.0012445699976927629,-0.010679100672694546,0.009684208586063277,0.9875925891280075
2016-09-09,-1,-0.001760354204076798,-0.0013539806518021616,-0.009513006012343431,0.005059434675187718,0.988347372438078
2016-09-13,-1,-0.0013445568516104321,-0.0010304930539220634,-0.009513006012343431,0.005059434675187718,0.9880547750776445
2016-09-15,-1,-0.00030294263965426846,-0.00018688881574265796,-0.01117481148427955,0.0021449833129805213,0.9879207944037414
2016-09-19,1,0.0005509739724831374,0.0005527826098765221,-0.01117481148427955,0.00037345307233558115,0.9872594330899533
2016-09-21,-1,-0.0003093780725787916,-0.00015317135077815692,-0.01117481148427955,0.005059434675187718,0.9870912978582167
2016-09-23,0,-0.00013067636117529245,1.3118257607080475e-05,-0.01117481148427955,0.0028664959498087244,0.9875129374854371
2016-09-27,-1,-0.0006913031896045542,-0.0004198226158522695,-0.01117481148427955,0.005598599933393251,0.9861655005553754
2016-09-29,-1,-0.0018005512358211483,-0.0014135095577918217,-0.01117481148427955,0.005598599933393251,0.9860812614228495
2016-10-03,-1,-0.005673980195886193,-0.004700382362723476,-0.01013420719072515,0.005598599933393251,0.9892303457023472
2016-10-05,-1,-0.006942148984048711,-0.0057878448952221,-0.01013420719072515,0.005598599933393251,0.988954729295351
2016-10-07,-1,-0.007183920575704395,-0.005981331910571194,-0.01013420719072515,0.013350600739680491,0.9883794761446283
2016-10-11,-1,-0.007726993867458414,-0.006515280239666856,-0.008748992097005522,0.015388708015810314,0.9854986813902299
2016-10-13,-1,-0.008276109981478583,-0.00704488400879497,-0.00829649159666614,0.017802237018967885,0.9796681493850676
2016-10-17,-1,-0.006765697313241675,-0.005812588097620062,-0.008855242819050204,0.019227298288594485,0.9753914108557912
2016-10-19,-1,-0.006447357993264256,-0.00556742497981993,-0.008855242819050204,0.019227298288594485,0.9737030593808795
2016-10-21,-1,-0.005863027018016722,-0.005091362159089454,-0.00914634071083987,0.024552277699194606,0.9723382750868766
2016-10-25,-1,-0.0038296917719034184,-0.003338841943274897,-0.012116662602926768,0.019227298288594485,0.972949982232186
2016-10-27,-1,-0.003365189327049739,-0.002921990821704525,-0.00914634071083987,0.019227298288594485,0.9729861398461078
2016-10-31,-1,-0.003469417978736483,-0.0030448724812944775,-0.010810043956907446,0.024552277699194606,0.9704260417561257
2016-11-02,-1,-0.0041099093596218324,-0.003561056700716014,-0.005133385911889551,0.024552277699194606,0.9705181225815745
2016-11-04,-1,-0.00394328716210922,-0.003442250965969825,-0.008794759108859292,0.024552277699194606,0.9710471793037615
2016-11-08,-1,-0.0012285827320485136,-0.0010205293079899019,-0.008794759108859292,0.01638501425050855,0.9752524923416757
2016-11-10,-1,-0.002179093309033147,-0.0019864343719750454,-0.008260546034916164,0.015779072031902666,0.9807706832337727
2016-11-14,-1,-0.003846930420565193,-0.0034896236249043833,-0.008260546034916164,0.01405850437859746,0.9842920249369639
2016-11-16,-1,-0.002723964940997565,-0.002454548005310664,-0.008794759108859292,0.009949098122945964,0.9868806018730998
2016-11-18,-1,-0.0011014648856870334,-0.001081849510837065,-0.00916173933661754,0.006977030566824645,0.9881279573108718
2016-11-22,-1,-0.004112472677695886,-0.003881944600167119,-0.008344503981608693,0.008885080403533857,0.9880841734331236
2016-11-25,-1,-0.0021516656586982818,-0.0019774442417282052,-0.008344503981608693,0.009436915659404665,0.988485071992248
2016-11-29,-1,-0.0012974982505568546,-0.001265625787148702,-0.008344503981608693,0.00647766287341026,0.9904713382118177
2016-12-01,1,0.0014948987673561866,0.0017513572563040724,-0.00916173933661754,0.005089466014661969,0.9895739543745453
2016-12-05,-1,-0.001170247721474593,-0.0011586493251198517,-0.008017772659645449,0.010869410580030641,0.9875919066594774
2016-12-07,-1,-0.0010139609005530433,-0.001000374848107165,-0.008017772659645449,0.013830643940992251,0.9872279744127513
2016-12-09,-1,-0.000809908447279002,-0.0007602347522541997,-0.008017772659645449,0.014906227878271708,0.9866098946712621
2016-12-13,1,0.00011898164069583503,0.00037175133505908565,-0.007192618299179367,0.015601704790563421,0.9867533417818937
2016-12-15,1,0.000872363670416402,0.0012137082862115542,-0.006017041179632126,0.014906227878271708,0.988125178301889
2016-12-19,1,0.0004201681500520237,0.0007275003832027349,-0.0059939285332232806,0.014906227878271708,0.988362039116498
2016-12-21,1,0.0015293139646176308,0.001970040868742302,-0.0059939285332232806,0.014906227878271708,0.9892495060833295
2016-12-23,1,0.002191256167909309,0.0027855552023733268,-0.004013960340162113,0.015601704790563421,0.9888145784039171
2016-12-28,1,0.0014960951499327732,0.0019753118681617387,-0.004013960340162113,0.015601704790563421,0.9890036858205128
2016-12-30,1,0.0007378694851799335,0.001115277400059396,-0.0033656097372774148,0.015601704790563421,0.9886499424119838
2017-01-04,1,0.00251045863017831,0.0030937150713955205,-0.0033656097372774148,0.014723223383986073,0.9909519440913884
2017-01-06,1,0.003392405016444479,0.004136584511922808,-0.00437699851246658,0.011993715114589052,0.9903765619855536
2017-01-10,1,0.005746348595080563,0.006340546956407544,-0.00437699851246658,0.01519890844899544,0.9873731299398831
2017-01-12,1,0.00512205987335626,0.00580274173829969,-0.0033656097372774148,0.011993715114589052,0.988200252389159
2017-01-17,1,0.005133327980243305,0.00580724819156898,-0.0033656097372774148,0.014399724143316065,0.988044453999379
2017-01-19,1,0.003958502724583963,0.004433529174873437,-0.003088311583036129,0.014399724143316065,0.9876107886424168
2017-01-23,1,0.005270425811240275,0.005788874571350861,-0.006057971477983584,0.014399724143316065,0.9851969861370355
2017-01-25,1,0.003328857287916219,0.0038286120281555243,-0.006057971477983584,0.011894005208881767,0.98587352839847
2017-01-27,1,0.003109412229676288,0.0035859372088388975,-0.001166728972366776,0.011894005208881767,0.9864775326199418
2017-01-31,1,0.0024960416223012124,0.002856247635582598,-0.001166728972366776,0.014399724143316065,0.9857516532571444
2017-02-02,1,0.0026592015395925945,0.003034598575001931,-0.004987035841467331,0.011894005208881767,0.985403698643023
2017-02-06,1,0.002449330801058251,0.0027935366437892573,-0.00428675405831135,0.010892589697568567,0.9861895906521401
2017-02-08,1,0.004227302512533742,0.0048125026450224415,-0.006477422195403433,0.0074075606266847584,0.9885235453288499
2017-02-10,1,0.004415136219235706,0.0050245280973823195,-0.008853975166970864,0.0074075606266847584,0.9874204950332298
2017-02-14,1,0.004907592519786336,0.00559504615462687,-0.011322055889379977,0.007143643492823901,0.985716464492629
2017-02-16,1,0.004567569970804622,0.005211116687787085,-0.008853975166970864,0.005400739973967533,0.9866502240466415
2017-02-21,1,0.004640898676912513,0.005300926798975482,-0.01021417200891968,0.0016477337911801416,0.988537990858609
2017-02-23,1,0.00433857436548368,0.004925231375465163,-0.012031044007223332,0.0022078704390400363,0.9862593852302872
2017-02-27,1,0.0037500015355171066,0.004160052501401885,-0.012031044007223332,0.014886022051812097,0.9836467685069209
2017-03-01,1,0.0036666232005452366,0.004027305964766116,-0.012031044007223332,0.010060869942577566,0.9851666171078085
2017-03-03,1,0.00301009153413053,0.003276412994333377,-0.011943896355666403,0.014687792756375597,0.9853219808468819
2017-03-07,1,0.002635300502556919,0.002840920436246127,-0.012422551266610364,0.014687792756375597,0.984355057450014
2017-03-09,1,0.0018125813309322022,0.0018667868632288817,-0.012422551266610364,0.014687792756375597,0.9842305707645369
2017-03-13,1,0.0014724606034183126,0.0014819492031571504,-0.011943896355666403,0.014154818884367478,0.9848720810022841
2017-03-15,1,0.0015478811047106098,0.0015976061628901824,-0.011943896355666403,0.011321400800054282,0.9858351344757976
2017-03-17,1,0.0013753158953892883,0.0013929301836301746,-0.011943896355666403,0.011321400800054282,0.985370677154254
2017-03-21,1,0.0013002110545254132,0.0013779892429914308,-0.004924901880997633,0.011321400800054282,0.9863798279239425
2017-03-23,1,0.00013749421531324764,0.0002453478541567901,-0.004924901880997633,0.010322110592806704,0.9879125681959763
2017-03-27,1,0.0016255755060248969,0.0016731157969710059,-0.004924901880997633,0.010322110592806704,0.9900399820945014
2017-03-29,1,0.0013760586008423686,0.0014019073129409878,-0.006829070090854053,0.010322110592806704,0.9898817020141923
2017-03-31,1,0.001368534602325848,0.0013867621827693794,-0.004924901880997633,0.01097069132937836,0.9897588817819419
2017-04-04,1,0.001941662757307483,0.002097990431254931,-0.004924901880997633,0.012850713316136795,0.9899082438863448
2017-04-06,1,0.0017077069706447606,0.0017655731729521395,-0.004924901880997633,0.0127030458202791,0.9900428169569645
2017-04-10,0,-3.094803480612244e-05,0.00035905780887077014,-0.00559837011479652,0.0127030458202791,0.9899296646113181
2017-04-12,1,0.0008421368821543605,0.0010004445498678824,-0.00559837011479652,0.01476186976900298,0.9893422473081857
2017-04-17,1,0.001147114423601953,0.0012356336461683357,-0.007819658612761361,0.01476186976900298,0.9890420919967685
2017-04-19,1,0.0008364878210999602,0.0009912607286267049,-0.009721912480087556,0.01476186976900298,0.9887036310603058
2017-04-21,1,0.00035092028241371503,0.0005458750984776656,-0.007819658612761361,0.01476186976900298,0.98904336489852
2017-04-25,1,0.0017848938317070954,0.0017963802083290964,-0.009721912480087556,0.010360398489429231,0.9898300536257186
2017-04-27,1,0.0013900833951537893,0.0014456954317090803,-0.008692096300598206,0.010828766586853398,0.989768303573881
2017-05-01,1,0.0018747519307399155,0.0019119769947272723,-0.012590382788922952,0.007428521584048093,0.989753973024774
2017-05-03,1,0.001789762582423355,0.0018551646140578647,-0.011809981886726995,0.007428521584048093,0.9891518226971785
2017-05-05,1,0.001897448656040607,0.0019636954863207785,-0.011809981886726995,0.005761840677017361,0.9895755208710236
2017-05-09,1,0.001085579688397356,0.001250972403108231,-0.009602084431327039,0.008661847742769912,0.9895137193831277
2017-05-11,1,0.0010490942296857743,0.0012181469344907305,-0.007866427141196295,0.007100071930276281,0.9910947974682266
2017-05-15,1,0.0003871569440285597,0.0006726509209905009,-0.009602084431327039,0.007100071930276281,0.9904576672844972
2017-05-17,1,0.000448602865739407,0.000672459532402012,-0.007714073405232466,0.008355702049310111,0.990560339081038
2017-05-19,1,2.3924012701139006e-05,0.00030442441342460333,-0.005960726123768263,0.008355702049310111,0.99078059236672
2017-05-23,-1,-0.0012190632315270081,-0.0007508268590898993,-0.004190726466539919,0.008884882322847338,0.9900294486174955
2017-05-25,-1,-0.0013122207350639344,-0.0007884006568958249,-0.004190726466539919,0.01495015059109052,0.9884294505717456
2017-05-30,-1,-0.0010799562818521004,-0.0006882780792958412,-0.004190726466539919,0.01495015059109052,0.9877455848160327
2017-06-01,0,-0.00012433859157056281,0.00013946065998302916,-0.004190726466539919,0.00978082046539216,0.9891317349885319
2017-06-05,1,0.0001841334804967567,0.00038814237406770125,-0.004190726466539919,0.00978082046539216,0.989235548023503
2017-06-07,1,0.0010953513435745053,0.0011806287241704111,-0.0069596603044657125,0.00978082046539216,0.988380632136652
2017-06-09,1,0.0008946430812436226,0.0009982757792863018,-0.0069596603044657125,0.01491490473270045,0.9875436266264858
2017-06-13,1,0.000637151514187387,0.0008002270073582434,-0.004190726466539919,0.01132167585918253,0.9884604104830785
2017-06-15,1,0.0010894739946600172,0.0011840019750340236,-0.004190726466539919,0.01132167585918253,0.9886586747184859
2017-06-19,1,0.0011092813471373232,0.0011703310043642836,-0.002185518527820225,0.011525448394933548,0.9881411994044293
2017-06-21,1,0.0013053073308651913,0.0013676924525225416,-0.001309042824428671,0.010545011967216982,0.9890705836773747
2017-06-23,1,0.002495392453925582,0.0025572532635294103,-0.006652782055445141,0.00888541971561891,0.9906730889533595
2017-06-27,1,0.0012073613657240124,0.001296598738433147,-0.0027637070731933817,0.00888541971561891,0.9914291689521825
2017-06-29,1,0.00035495248262504156,0.0005674520026273821,-0.0027637070731933817,0.00934050487332322,0.9901718879587821
2017-07-03,1,0.0019415660987431988,0.0020446953635089226,-0.006652782055445141,0.010545011967216982,0.9880507781704119
2017-07-06,1,0.0017914170967797181,0.001889769022373972,-0.0027637070731933817,0.011303840968021228,0.9885613984033512
2017-07-10,1,0.0026895769124822043,0.0029458614916000178,-0.006652782055445141,0.010545011967216982,0.9893145321610655
2017-07-12,1,0.002907352447741471,0.0031589104337741217,-0.006652782055445141,0.009408429051906893,0.9896397204144683
2017-07-14,1,0.002896963986108097,0.0031489263799774465,-0.008318261076269776,0.009412374494811625,0.9887184205674199
2017-07-18,1,0.0034889987898808635,0.0038199000722171604,-0.008318261076269776,0.009190474097741782,0.988757033029888
2017-07-20,1,0.0038371931505000755,0.00422166498800842,-0.008318261076269776,0.00925303533717845,0.988591136109442
2017-07-24,1,0.0035980406132328675,0.003980631239328325,-0.0036002350748486427,0.009382330333080868,0.9891761142490543
2017-07-26,1,0.0026570734588539312,0.002863374208436611,-0.002760244498432358,0.010638139776811701,0.9888229128322921
2017-07-28,1,0.002070651455110582,0.0021799673650365237,-0.0012928229536330277,0.009382330333080868,0.9907756955092664
2017-08-01,1,0.0005377623816734288,0.0006533872637461188,-0.0012515947616386072,0.009093417809975862,0.9929568795117288
2017-08-03,1,0.0016555135042513375,0.0016591873364405429,-0.0012515947616386072,0.008987758238571722,0.993148512510489
2017-08-07,1,0.0008120212789229791,0.0009415943666956752,-0.0012515947616386072,0.008987758238571722,0.9935605406682537
2017-08-09,1,0.0006246840031714266,0.0007833173026541383,-0.0014310257629591033,0.008987758238571722,0.9930442783770614
2017-08-11,-1,-0.0005439929378440798,-0.0001913574793712601,-0.0012515947616386072,0.009093417809975862,0.9934084875955818
2017-08-15,-1,-0.001107743731225099,-0.0006167715265145111,-0.0012195291089134998,0.009093417809975862,0.9896469158978973
2017-08-17,1,0.0007205187993741817,0.0008005955374688157,-0.0014310257629591033,0.008759500712139882,0.9892668288584301
2017-08-21,1,0.0010307186843895024,0.0010604994731964745,-0.002815853257664042,0.006024189597513202,0.9865048971688413
2017-08-23,1,0.0014932622752981835,0.001512566265994787,-0.0016894942994641676,0.006024189597513202,0.9874180066159747
2017-08-25,1,0.0009485688299434897,0.0010364492768576436,-0.002815853257664042,0.009182724744626404,0.9858886829361986
2017-08-29,1,0.0013471621353671227,0.0013544382867399453,-0.002815853257664042,0.012167309977216306,0.9844895366564695
2017-08-31,1,0.002186961064804281,0.0022874515305884922,-0.002815853257664042,0.012167309977216306,0.9845309794528856
2017-09-05,1,0.001685317667510058,0.0016889221693956419,-0.0010397212402683284,0.012167309977216306,0.9846220437363912
2017-09-07,1,0.0016497650582347264,0.0016546830010346668,-0.0006809415301948944,0.012167309977216306,0.9848121127873727
2017-09-11,1,0.0020867117925913083,0.002147841016845023,-0.0035620083429242807,0.011977872024947765,0.9847831988634193
2017-09-13,1,0.004204893423932755,0.004505565233387382,-0.008282509401671065,0.010006659491195022,0.9875438083005427
2017-09-15,1,0.004213920663266086,0.004562794751479118,-0.010358199970294728,0.010006659491195022,0.985819152503224
2017-09-19,1,0.0014456135745568846,0.0014632919884111435,-0.004350303313743826,0.011977872024947765,0.9879071793554575
2017-09-21,1,0.00207305960050612,0.002192642717793584,-0.004350303313743826,0.013091967290376727,0.9878123052978794
2017-09-25,1,0.0019477291230942963,0.0020598773247217346,-0.0028573084452348622,0.015233594061905647,0.9881185275366626
2017-09-27,1,0.0027320982745741096,0.0029750808763617156,-0.008282509401671065,0.010378024579671342,0.9858696079880743
2017-09-29,1,0.003188549230617725,0.003459080948093657,-0.008282509401671065,0.008185041378321274,0.9854616400238431
2017-10-03,1,0.003180336420026984,0.0034514090252775174,-0.008282509401671065,0.008185041378321274,0.9849815132424145
2017-10-05,1,0.003164444430065961,0.0034254760599884393,-0.008755596946159596,0.013160900059964417,0.9834069101978687
2017-10-09,1,0.0027117138143644475,0.0028823284658637607,-0.008755596946159596,0.013160900059964417,0.9836075514335554
2017-10-11,1,0.0020727564883007152,0.0021435355397800707,-0.010895560973449951,0.013160900059964417,0.983152858291614
2017-10-13,0,-0.00018183888923486101,5.111079356965177e-05,-0.0066148708889060895,0.013160900059964417,0.9859674522079751
2017-10-17,1,0.0010506675059698057,0.001120374468456128,-0.007717933702726601,0.008544334649721465,0.9865868313342778
2017-10-19,1,0.0006559651645432253,0.0008145259217205657,-0.00888321711849989,0.009304165419956233,0.9849116366238192
2017-10-23,1,0.001883303371077612,0.0019011053631328117,-0.010618207301026753,0.004129519172072677,0.9849967119043058
