JNU-Tangyin/eata/results/Batch4_SP500/Batch4_SP500-F.csv
Date,Action,Predicted_Q25,Predicted_Q75,Actual_Q25,Actual_Q75,RL_Reward
2010-12-14,0,0.0,0.002563707400366724,0.00044830674635956344,0.009554708130580554,0.9927962758961842
2010-12-16,0,0.0,0.0,-0.0016040247116947798,0.007729279657260518,0.991832251713886
2010-12-20,0,0.0,0.0,-0.0016141199156081737,0.007729279657260518,0.9898345508310886
2010-12-22,0,0.0,0.0,-0.0019754898082464303,0.008042464614296205,0.9894449218373886
2010-12-27,0,0.0,0.0,-0.001786523975515778,0.008042464614296205,0.9901492520401652
2010-12-29,0,0.0,0.0,-0.0016141199156081737,0.019550383534114348,0.9881533985348548
2010-12-31,0,0.0,0.0,-0.001786523975515778,0.019550383534114348,0.9827786608222118
2011-01-04,0,0.0,0.0,-0.004497254307268225,0.01178249547290567,0.9827948206003922
2011-01-06,0,0.0,0.0,-0.004497254307268225,0.004448552201744692,0.9838524147838593
2011-01-10,0,0.0,0.0,-0.004497254307268225,0.012886823391333603,0.9825017804170946
2011-01-12,0,0.0,0.0,-0.008834915819657462,0.008442429416914064,0.9828505625855705
2011-01-14,0,0.0,0.0,-0.011353436897188061,0.012886823391333603,0.9808524014644152
2011-01-19,1,0.0014857701519774176,0.002065501553337285,-0.008834915819657462,0.012886823391333603,0.9826778158133416
2011-01-21,1,0.0018632004249225817,0.0023908660721808903,-0.010058189725758485,0.011767944049602245,0.982267937500088
2011-01-25,1,0.0012200019961751305,0.0017175593649592774,-0.018195378571692407,0.011767944049602245,0.979852529483586
2011-01-27,1,0.004058564550769844,0.004154875034308784,-0.018195378571692407,0.002483506103319776,0.9789317279016605
2011-01-31,-1,-0.0014702525050125192,-0.0006565023078346161,-0.013818716546571068,0.002483506103319776,0.9860357395474072
2011-02-02,-1,-0.003724049120540042,-0.002626827608817444,-0.011206229950214561,0.007133348778997723,0.9875499443355741
2011-02-04,-1,-0.002799936307312133,-0.0018305234497950134,-0.019037153628902712,0.0021714658175400357,0.9864361479642361
2011-02-08,-1,-0.0006799731084224361,-3.0311666964788833e-05,-0.019037153628902712,0.00015537956474517988,0.9851960703839387
2011-02-10,-1,-0.0018139468604371337,-0.0010398833666776406,-0.019037153628902712,0.0021714658175400357,0.9846090058132483
2011-02-14,-1,-0.002359564728666337,-0.0014700710298275609,-0.017830164676521106,0.0021714658175400357,0.9854792377256779
2011-02-16,-1,-0.0026376705776257306,-0.0017331860740146558,-0.023349967621409527,0.005936634703575988,0.9838270368798385
2011-02-18,-1,-0.004118524939532465,-0.0030178187599055177,-0.023349967621409527,0.009208253237908429,0.9832554329124631
2011-02-23,-1,-0.007961538904168518,-0.006344967208613565,-0.016355110545720454,0.009208253237908429,0.9846101475394246
2011-02-25,-1,-0.006296108075338697,-0.0049747240119977845,-0.016355110545720454,0.009208253237908429,0.9835468685454404
2011-03-01,-1,-0.0070953416293509835,-0.005742016028950168,-0.01335344805658052,0.009208253237908429,0.9841056168463469
2011-03-03,-1,-0.006165715600801699,-0.004985178536128011,-0.01335344805658052,0.009208253237908429,0.9843726531711475
2011-03-07,-1,-0.008606641757766646,-0.007155406903622288,-0.005632020853312901,0.017909720770085753,0.9826202759298042
2011-03-09,-1,-0.007556732343612614,-0.006243570205381511,-0.0038944839136190006,0.016288567538456637,0.9839272785114579
2011-03-11,0,0.0,0.0,-0.005632020853312901,0.01560780149414934,0.9867902224548185
2011-03-15,-1,-0.008292066223510633,-0.006879488100073685,-0.010673668411383903,0.009034520436643271,0.9851520528731899
2011-03-17,-1,-0.00914722629181529,-0.007683046611660934,-0.01033213340703306,0.009034520436643271,0.9859690087762181
2011-03-21,-1,-0.007308688025703298,-0.006123275319517572,-0.01033213340703306,0.003697266662983173,0.9882602575596806
2011-03-23,-1,-0.008639211681165757,-0.007272479248375389,-0.007562508958096498,0.007379628618924804,0.9861869383733088
2011-03-25,-1,-0.006392841412278055,-0.005284918305795361,-0.007562508958096498,0.009205227534611157,0.9880240032922695
2011-03-29,-1,-0.005173597932315454,-0.004358038286065473,-0.006276777935025902,0.009650017455733255,0.9880099623260611
2011-03-31,-1,-0.00301809725599212,-0.0026098750423251527,-0.006276777935025902,0.009650017455733255,0.9886606203928984
2011-04-04,-1,-0.0011709782494939529,-0.0009591354905770392,-0.006276777935025902,0.005303348232833794,0.9906475185955859
2011-04-06,1,0.00030567580294157737,0.00034914706160955037,-0.007901266621139708,0.003697266662983173,0.990240902224355
2011-04-08,0,0.0,0.0,-0.005380661797882047,0.003697266662983173,0.9913780137569452
2011-04-12,0,0.0,0.0,-0.005115109837482997,0.00465512101575,0.9928239818922522
2011-04-14,0,0.0,0.0,-0.005115109837482997,0.005263653987645451,0.9926755031243887
2011-04-18,0,0.0,0.0,-0.004742469516839708,0.005263653987645451,0.9926252425613338
2011-04-20,-1,-0.002235653779269883,-0.0019177340198257432,-0.004742469516839708,0.005263653987645451,0.9937626085255243
2011-04-25,-1,-0.0010981444773895924,-0.0008889957303521616,-0.005835212595595767,0.0023209448003436092,0.9944279676487698
2011-04-27,1,0.00041854579194293586,0.000519238417017686,-0.008317245954559176,0.0004973430557521001,0.9938316452051708
2011-04-29,-1,-3.955781084944603e-05,-1.8779970181015404e-05,-0.008317245954559176,0.0021788416792796026,0.9941859568394495
2011-05-03,-1,-0.00021300098448302126,-0.00020812286375774218,-0.009738363490863877,0.0028893531691572155,0.9911217075203186
2011-05-05,0,0.0,0.0,-0.009738363490863877,0.0028893531691572155,0.9912985880244265
2011-05-09,-1,-0.0017392267149006265,-0.0015214163038957573,-0.009738363490863877,0.0029856353828256145,0.9912493359531427
2011-05-11,-1,-0.00066388503426588,-0.0006352547167339194,-0.010880145700547758,0.0029856353828256145,0.9901340371296669
2011-05-13,-1,-0.0007761938531989645,-0.0007428330394950339,-0.012324871372786862,0.0027793441193160085,0.988797955200585
2011-05-17,-1,-0.0007516933409898532,-0.0007393823425627496,-0.013932575334910883,0.0027793441193160085,0.9873669960865162
2011-05-19,-1,-0.0003825004286109046,-0.0003566271690434322,-0.01627804141457124,-0.0003419685679154974,0.9864085193155155
2011-05-23,-1,-0.0015965383877272732,-0.0014535787662134062,-0.01627804141457124,0.003981544254518545,0.9856783124836972
2011-05-25,-1,-0.001978824942129485,-0.0018058119165670094,-0.01627804141457124,0.007532868222019192,0.9855790402945889
2011-05-27,-1,-0.0007785796280380307,-0.0007047737993455541,-0.017286550237867605,0.009503279591432124,0.9840328930151752
2011-06-01,-1,-0.0007204690184218316,-0.0005147871631621,-0.016066509094381645,0.007532868222019192,0.986599845978432
2011-06-03,-1,-0.000882097375996821,-0.0006806982767224825,-0.016066509094381645,0.014138370068936094,0.9850647913544412
2011-06-07,-1,-0.0003585920734697928,-4.683353406040227e-06,-0.016066509094381645,0.014138370068936094,0.9849273606919593
2011-06-09,0,0.0,0.0,-0.016047042381664225,0.014138370068936094,0.9846091389760222
2011-06-13,0,0.0,0.0,-0.015510538546395392,0.014138370068936094,0.9842688890634795
2011-06-15,-1,-0.0027183568750348626,-0.002691180441736083,-0.013927090442629523,0.011924075785815868,0.9848890674001832
2011-06-17,0,0.0,0.0,-0.013802074557117072,0.011924075785815868,0.9858416840010974
2011-06-21,-1,-0.00032440397456189713,-0.00019158489052625459,-0.013802074557117072,0.011440054679084493,0.9872068400525426
2011-06-23,0,0.0,0.0,-0.013802074557117072,0.012278161318895538,0.9868570352257972
2011-06-27,0,0.0,0.0,-0.013802074557117072,0.011440054679084493,0.9871351070713116
2011-06-29,0,0.0,0.0,-0.014639953383053725,0.011440054679084493,0.9855939360297009
2011-07-01,1,0.00041840411502263436,0.0006895583583087547,-0.014639953383053725,0.007137838985073424,0.986718562381701
2011-07-06,1,3.93322108398549e-05,0.0002208452102916553,-0.016907563494621365,0.0045525585569650105,0.9847539552007162
2011-07-08,0,0.0,0.0,-0.017024268411636966,0.0005647719738092877,0.9827333635357102
2011-07-12,0,0.0,0.0,-0.017024268411636966,0.0045525585569650105,0.9766255186700931
2011-07-14,0,0.0,0.0,-0.023219435228397624,0.004560825808515516,0.9732159705829924
2011-07-18,0,0.0,0.0,-0.023219435228397624,0.01228171066273934,0.9721433391033869
2011-07-20,0,0.0,0.0,-0.023219435228397624,0.011093258778964256,0.9718709989067337
2011-07-22,0,0.0,0.0,-0.04137673075329667,0.0013610683653209712,0.9678390902484197
2011-07-26,-1,-0.0010382468540530675,-0.0009215895655486587,-0.04137673075329667,0.011093258778964256,0.9679799581420735
2011-07-28,0,0.0,0.0,-0.03830067242456733,0.011994277089741781,0.9685071862471026
2011-08-01,-1,-0.00673037403997373,-0.005939487302244228,-0.03830067242456733,0.01673939488151294,0.9670913739986529
2011-08-03,0,0.0,0.0,-0.021594034385242315,0.02380446280527858,0.9678807582112475
2011-08-05,0,0.0,0.0,-0.02760347014398438,0.02380446280527858,0.9681497318475581
2011-08-09,0,0.0,0.0,-0.02046551243846222,0.02380446280527858,0.974289263297018
2011-08-11,0,0.0,0.0,-0.021695151142524068,0.015934012355170505,0.976566211583999
2011-08-15,0,0.0,0.0,-0.021695151142524068,0.012149603119831827,0.9777733821170242
2011-08-17,0,0.0,0.0,-0.021695151142524068,0.016811688757418435,0.976649878410152
2011-08-19,0,0.0,0.0,-0.01699942251619138,0.016811688757418435,0.9811923773357053
2011-08-23,0,0.0,0.0,-0.01960371908824722,0.013871548514664602,0.9801057235459184
2011-08-25,0,0.0,0.0,-0.021695151142524068,0.016811688757418435,0.9786570429673994
2011-08-29,0,0.0,0.0,-0.021695151142524068,0.016640018958707863,0.9804010878778987
2011-08-31,0,0.0,0.0,-0.021695151142524068,0.008974292080658683,0.9805291644299027
2011-09-02,0,0.0,0.0,-0.022636622734306357,0.008974292080658683,0.9805237851005977
2011-09-07,0,0.0,0.0,-0.022636622734306357,0.016640018958707863,0.9771258578991429
2011-09-09,-1,-0.007272264893658717,-0.006637491584282674,-0.020905387015374668,0.022971301176200228,0.9752837158540307
2011-09-13,-1,-0.005517984814664884,-0.0051659489862687005,-0.020905387015374668,0.02622070139907489,0.9735831055448282
2011-09-15,-1,-0.0025065854046286374,-0.002423647481063158,-0.020905387015374668,0.022971301176200228,0.9756044461122114
2011-09-19,-1,-0.001719889770907554,-0.0016298464702020057,-0.020905387015374668,0.022971301176200228,0.9744163994796037
2011-09-21,0,0.0,0.0,-0.01870041334854324,0.027044337211244378,0.9746525815000967
2011-09-23,0,0.0,0.0,-0.01504959035821648,0.03517991685076407,0.9746563526552783
2011-09-27,0,0.0,0.0,-0.01504959035821648,0.03517991685076407,0.9746323315770381
2011-09-29,0,0.0,0.0,-0.01504959035821648,0.03517991685076407,0.9728819497532314
2011-10-03,0,0.0,0.0,-0.008427107523182587,0.03517991685076407,0.9743386435883711
2011-10-05,1,0.0007440166855143216,0.0011865772809048906,-0.01504959035821648,0.01964816120216182,0.977780129251626
2011-10-07,1,0.0002978065631020796,0.0006850679800532891,-0.008427107523182587,0.018118841277887564,0.9800238503924682
2011-10-11,0,0.0,0.0,-0.008427107523182587,0.018118841277887564,0.9803651857991282
2011-10-13,1,0.0038134678473823974,0.0048580417155317645,-0.01504959035821648,0.018118841277887564,0.9786650393642149
2011-10-17,1,0.0022978066490230726,0.0028965784768080595,-0.012747902584342462,0.015857898859191383,0.9790316188939002
2011-10-19,1,0.00282753490803432,0.003504638466811431,-0.016875410261673454,0.014048279004415057,0.9791759450065666
2011-10-21,1,0.004146592237885294,0.004967275897553532,-0.027129683530149978,0.008150452513620673,0.9788300552189644
2011-10-25,1,0.004370300850232937,0.005200306689497891,-0.027129683530149978,0.004564487231235905,0.9794874961466385
2011-10-27,1,0.0037188352042648166,0.004460225736014196,-0.025992742440894372,-0.002317646481446194,0.980739097825524
2011-10-31,1,0.002763875546333692,0.0033614585232474565,-0.016650777330187674,0.004564487231235905,0.9818729943920034
2011-11-02,0,0.0,0.0,-0.011481903311233468,0.006397277713609777,0.982591777914954
2011-11-04,1,0.001467488742091151,0.001827935551775338,-0.011481903311233468,0.015053132775519854,0.9808902141578301
2011-11-08,1,0.0018820671718053478,0.0022559991404718124,-0.011481903311233468,0.006397277713609777,0.9822719576014471
2011-11-10,1,0.0011956335998218033,0.0015418133914621155,-0.011481903311233468,0.015053132775519854,0.9824963567070334
2011-11-14,1,0.0014892894363157945,0.0018915103792206637,-0.018681330812922767,0.007801586528387343,0.9810354951497913
2011-11-16,1,0.0006230022092630997,0.0009169562975641429,-0.018681330812922767,0.012205705831667468,0.9813710068865183
2011-11-18,0,0.0,0.0,-0.017849048368163985,0.012205705831667468,0.982406709819221
2011-11-22,0,0.0,0.0,-0.017849048368163985,0.02574239092777368,0.9798100160193352
2011-11-25,0,0.0,0.0,-0.008130136925031579,0.026101463050186072,0.9801329780250642
2011-11-29,0,0.0,0.0,-0.017849048368163985,0.026101463050186072,0.9795103233629242
2011-12-01,1,0.001097131737605107,0.0014029314895255347,-0.017849048368163985,0.020961166111893866,0.9816426074315255
2011-12-05,1,0.0019493259081086705,0.002366531037868912,-0.017849048368163985,0.0179671523267868,0.9816450622143579
2011-12-07,1,0.0022059372257030923,0.002653935628910098,-0.017849048368163985,0.025759406450858162,0.9805494282754547
2011-12-09,1,0.0023880735829674834,0.002883691397265984,-0.013668767269873733,0.01787145888106692,0.9829132443949573
2011-12-13,1,0.0011429463852921996,0.0015042110210233787,0.0,0.023576913403303194,0.9840112576326511
2011-12-15,1,0.0007880001683814635,0.0010474802036860098,-0.00041527209619437213,0.023576913403303194,0.98528154457155
2011-12-19,-1,-0.0002645210989058105,-0.00019324655475262318,0.0006855733043011846,0.02581438271302643,0.9835216730943553
2011-12-21,1,0.0014216878793749219,0.0017242473192925047,-0.0003965008848902968,0.022130346663021324,0.9870245902552666
2011-12-23,1,0.0014259908435877331,0.0016634924726658608,-0.0003965008848902968,0.016925536722787387,0.9873294013596049
2011-12-28,-1,-0.000709276257217174,-0.0005833293467469235,-0.0003965008848902968,0.016925536722787387,0.9855540513099375
2011-12-30,1,0.0008293122534016367,0.0009426477756036964,-0.0003965008848902968,0.016925536722787387,0.9864839291833949
2012-01-04,1,0.0014886108236532123,0.001682094927648905,-0.002665112623890403,0.011092840783916378,0.9882848011534764
2012-01-06,1,0.0030697814624580733,0.003536567774019877,-0.002665112623890403,0.012801574083934144,0.9877541923042367
2012-01-10,1,0.00241693502763916,0.0027391634006276506,-0.005801097406203106,0.012801574083934144,0.9872174666960384
2012-01-12,1,0.0018668503581840143,0.0019493135322100467,-0.007494107659441503,0.011092840783916378,0.9865273083365359
2012-01-17,0,0.0,0.0,-0.00644122246402875,0.011092840783916378,0.9865288569552688
2012-01-19,0,0.0,0.0,-0.00743798552880519,0.009079721969513099,0.9870844214455146
2012-01-23,0,0.0,0.0,-0.008716471009290343,0.009079721969513099,0.9865539897686315
2012-01-25,1,0.0023592429235457374,0.00269513607488071,-0.011041241228630863,0.00847195657466426,0.985636000636467
2012-01-27,1,0.0007451560956782552,0.0008133719555449597,-0.00893015307176163,0.00847195657466426,0.987888165947935
2012-01-31,0,0.0,0.0,-0.00893015307176163,0.00847195657466426,0.9880497186988538
2012-02-02,1,0.0017288058325756928,0.0017580683826521177,-0.00893015307176163,0.009982046957930778,0.9872671520390037
2012-02-06,1,0.003362659148690849,0.0036190616658043255,-0.014595993721444564,0.006302416778583785,0.9868325888969037
2012-02-08,1,0.003534545533245103,0.0038869775966968055,-0.014595993721444564,0.009982046957930778,0.9865229037966906
2012-02-10,1,0.0023031557596195555,0.0024698625250809962,-0.012370164605775162,0.009982046957930778,0.9872695441371994
2012-02-14,0,0.0,0.0,-0.012370164605775162,0.012848500283524947,0.9859847969948938
2012-02-16,0,0.0,0.0,-0.014595993721444564,0.011060919725488961,0.9862428111839456
2012-02-21,1,0.0012640256288329035,0.0013401151249125727,-0.012370164605775162,0.011060919725488961,0.9865979087408344
2012-02-23,0,0.0,0.0,-0.012370164605775162,0.011060919725488961,0.9866692603694786
2012-02-27,0,0.0,0.0,-0.008325341600639774,0.012551937367130783,0.9869831423221738
2012-02-29,1,6.479045859527906e-05,0.000419326198155333,-0.01214786887335501,0.012551937367130783,0.9872772027127643
2012-03-02,1,0.001216151897146156,0.0012326604251644377,-0.01214786887335501,0.012551937367130783,0.9876253499633683
2012-03-06,1,0.0007838789301559761,0.0008340908439049904,-0.002981503154110015,0.012551937367130783,0.9896241882729051
2012-03-08,1,0.0017314752130797684,0.0019240667298492957,-0.00791563179014414,0.01002760121388932,0.9903134223419314
2012-03-12,1,0.001350536680812888,0.0014767271980645137,-0.01091873944186811,0.009998731771539541,0.9885461663537236
2012-03-14,1,0.002623178622572254,0.0029395747696091008,-0.01091873944186811,0.009738764455392335,0.9888101504110572
2012-03-16,0,0.0,0.0,-0.010820482906621312,0.009738764455392335,0.9900042296127615
2012-03-20,1,0.0024204237515857248,0.002811062117884378,-0.010820482906621312,0.0044384493614829865,0.9897126715719851
2012-03-22,1,0.002090729293596479,0.002428365382011178,-0.011376596139291003,0.0044384493614829865,0.9891234032168077
2012-03-26,1,0.0016120915915663506,0.001799448442745353,-0.011376596139291003,0.0027749789166844944,0.9894809150097041
2012-03-28,1,0.0007964575270089039,0.0008111697396564002,-0.010470189978656692,0.01043807469081608,0.9884246534811341
2012-03-30,1,0.0011804131781262476,0.001261213277018513,-0.014332634954348868,0.005187696040273398,0.9866334496266002
2012-04-03,1,0.0022308223475847456,0.0025201633829452018,-0.014332634954348868,0.0027749789166844944,0.9858754887477839
2012-04-05,1,0.0005998299205728463,0.0006440288217579105,-0.020396292187930615,0.0027749789166844944,0.9852069089649055
2012-04-10,-1,-0.0011630313140337995,-0.0009093723806823433,-0.013374666980446735,0.0027749789166844944,0.9883576658741351
2012-04-12,-1,-0.001197944679933303,-0.0008752298433162171,-0.013374666980446735,0.002034520219836194,0.9890823318088373
2012-04-16,-1,-0.0029203465130712702,-0.0023253045750410766,-0.01752238826622421,0.002034520219836194,0.9886538039872947
2012-04-18,-1,-0.003134487021656073,-0.0025226262026860095,-0.01771486297480226,0.0012066707676793918,0.9884846465486006
2012-04-20,-1,-0.005251798648725818,-0.004318641389514726,-0.01628040138842502,0.0012066707676793918,0.9896066521758536
2012-04-24,-1,-0.004977643257058726,-0.00411099585927322,-0.01628040138842502,0.0012066707676793918,0.9886625653794684
2012-04-26,-1,-0.0022941517973167408,-0.001836217704123569,-0.01628040138842502,0.0012066707676793918,0.9883606066163017
2012-04-30,-1,-0.0032442844764693714,-0.002739996591716715,-0.012794584988990759,0.003288225114810076,0.9891972715385434
2012-05-02,-1,-0.0037376489283598925,-0.0031804378790205134,-0.01512686744034955,0.003288225114810076,0.9886906822498256
2012-05-04,-1,-0.0050013509265408596,-0.004290595842987285,-0.012794584988990759,0.003288225114810076,0.9881352268576593
2012-05-08,-1,-0.005686870629260947,-0.004824464614782946,-0.012794584988990759,0.015527924792074849,0.9852745601413383
2012-05-10,-1,-0.006402641385747683,-0.005411405161868687,-0.012794584988990759,0.015527924792074849,0.9852538363559891
2012-05-14,0,0.0,0.0,-0.01072654267272499,0.015527924792074849,0.9862301255812981
2012-05-16,0,0.0,0.0,-0.01072654267272499,0.015527924792074849,0.9856338114457965
2012-05-18,0,0.0,0.0,-0.00827405054177795,0.015527924792074849,0.9860242022152244
2012-05-22,0,0.0,0.0,-0.00827405054177795,0.015527924792074849,0.9855461931500357
2012-05-24,0,0.0,0.0,-0.011186905614627906,0.010489775195166466,0.9853233531838236
2012-05-29,0,0.0,0.0,-0.01686997395969074,0.008998615193562001,0.9856108841788788
2012-05-31,0,0.0,0.0,-0.010344926649481423,0.008998615193562001,0.9864859941402158
2012-06-04,0,0.0,0.0,-0.018010135665670078,0.008998615193562001,0.9854731440748661
2012-06-06,0,0.0,0.0,-0.018010135665670078,0.007370160644621388,0.9867734105345631
2012-06-08,1,0.010709741898400486,0.013828393006740056,-0.018010135665670078,0.005335029793087795,0.9809268715763467
2012-06-12,0,0.0,0.0,-0.012352541165321895,0.002495767173180137,0.9873338340608193
2012-06-14,-1,-0.00018005758004168148,-0.00016244974096639534,-0.012352541165321895,0.002495767173180137,0.9870489281114827
2012-06-18,0,0.0,0.0,-0.012352541165321895,0.007370160644621388,0.9868451335221504
2012-06-20,0,0.0,0.0,-0.012352541165321895,0.0018199306541143445,0.987933083000014
2012-06-22,-1,-0.0029234407816039103,-0.0026917551551823215,-0.011679787218682054,0.0018199306541143445,0.989821332725579
2012-06-26,-1,-0.0036258033664164618,-0.0032839442016847644,-0.010935362786195507,0.0018199306541143445,0.9900148954446825
2012-06-28,-1,-0.0016161606406858687,-0.0016056124129262507,-0.010935362786195507,0.00026158280633944184,0.9897149974925351
2012-07-02,-1,-0.004252769364187178,-0.00393156265257824,-0.007969317479338794,0.005508036179019584,0.9915771170540268
2012-07-05,-1,-0.004181641586825149,-0.0038346564686860696,-0.010935362786195507,0.004328058678472542,0.9916309557092572
2012-07-09,-1,-0.003987258283154948,-0.00368316886152871,-0.010935362786195507,0.007110276002911177,0.990207090191864
2012-07-11,-1,-0.0035960274040986954,-0.0033985143296946137,-0.010449243514774897,0.009257263676157697,0.9892195394676756
2012-07-13,-1,-0.0039168918387281525,-0.0036401978787136318,-0.005740773674375868,0.007110276002911177,0.9905952937689668
2012-07-17,-1,-0.003179127934825126,-0.0029938986977498276,-0.005740773674375868,0.0056607841259325095,0.9907227877221452
2012-07-19,-1,-0.0034033682003220874,-0.003192374979134618,-0.005740773674375868,0.00758481296445671,0.9899320235942624
2012-07-23,-1,-0.0035773889187855987,-0.0033514264383527116,-0.0010808705354530233,0.00758481296445671,0.9899130185947278
2012-07-25,-1,-0.003647510561705923,-0.003462376090666689,-0.0010808705354530233,0.00758481296445671,0.9902064169562173
2012-07-27,-1,-0.004086462802885264,-0.0037829490963480917,-0.0018514743362426378,0.00758481296445671,0.9901751823071951
2012-07-31,-1,-0.0021599693566397007,-0.0021460426446410223,-0.0044924278381172295,0.0053093508991500366,0.9918840936593698
2012-08-02,-1,-0.0032200248296693785,-0.0030838245524368608,-0.002655349421462558,0.0053093508991500366,0.9928922799391875
2012-08-06,-1,-0.001287847505464951,-0.001091123312740216,-0.002655349421462558,0.004546496002379992,0.9945377377840077
2012-08-08,-1,-0.0008925545074974815,-0.0007101886748767625,-0.002655349421462558,0.0053093508991500366,0.9930728568524614
2012-08-10,-1,-0.00043545438037488073,-0.00016007335728478373,-0.003268302595532166,0.00588428729629316,0.9920855998312835
2012-08-14,-1,-0.00043407261459858814,-0.0001851071369618764,-0.003268302595532166,0.006307182180841268,0.9920570942983312
2012-08-16,1,0.0006942376967949751,0.0011286653191893887,-0.003268302595532166,0.008804116974424066,0.9915553609626768
2012-08-20,1,0.0008822296970407708,0.0013157101073797946,-0.004201690716349749,0.008804116974424066,0.9909831607784518
2012-08-22,1,0.0007674681801970022,0.0012087809047438257,-0.0032727254237582227,0.013628166301555014,0.9902863577113088
2012-08-24,1,0.0012798798615261387,0.0018282774220631309,-0.004204769030791296,0.013628166301555014,0.9901557011855746
2012-08-28,1,0.0006857643758076304,0.0011396758526129437,-0.0047966357530707495,0.013628166301555014,0.9893416226943437
2012-08-30,1,4.7301086935691095e-05,0.0003322470083899784,-0.007751384113571016,0.013628166301555014,0.9885264661201872
2012-09-04,1,0.00105523214284576,0.0015383655059580696,-0.009270298154761849,0.013628166301555014,0.9881828050893936
2012-09-06,1,0.0029903470582556303,0.003695926096819027,-0.009270298154761849,0.013379899180603717,0.9892829491826254
2012-09-10,1,0.0031483893779159764,0.0038684844268020036,-0.011443875769081721,0.008507749685027557,0.9897325836956872
2012-09-12,1,0.0027848529142346125,0.0033796673462917447,-0.012234775322541027,0.008507749685027557,0.9890574285645329
2012-09-14,1,0.004097730744816208,0.004875057367520013,-0.012234775322541027,0.005506221821354803,0.9890549409690059
2012-09-18,0,0.0,0.0,-0.011090371209021396,0.008341200917835937,0.9895527692743223
2012-09-20,0,0.0,0.0,-0.008653160410215088,0.008341200917835937,0.9904288786857639
2012-09-24,0,0.0,0.0,-0.011090371209021396,0.008341200917835937,0.9897707096669581
2012-09-26,0,0.0,0.0,-0.011090371209021396,0.010080990078565055,0.9895992800781018
2012-09-28,0,0.0,0.0,-0.004872277792046484,0.011840113087623845,0.989229604161588
2012-10-02,0,0.0,0.0,-0.00220118817763841,0.015499324775137357,0.9861038418869985
2012-10-04,0,0.0,0.0,-0.003943369368269554,0.010080990078565055,0.986987144623441
2012-10-08,0,0.0,0.0,-0.003943369368269554,0.011787463063510266,0.9854862113176787
2012-10-10,0,0.0,0.0,-0.003943369368269554,0.011787463063510266,0.9854686059944371
2012-10-12,0,0.0,0.0,-0.003943369368269554,0.010080990078565055,0.9860326910740992
2012-10-16,0,0.0,0.0,-0.01064573468280961,0.008718291964138803,0.9849807175612628
2012-10-18,1,0.00310665709803573,0.0036749598627774382,-0.01064573468280961,0.009826176907233707,0.9839003171982956
2012-10-22,1,0.002159917487038625,0.002560743359466338,-0.007676354975155905,0.009826176907233707,0.9851648123076607
2012-10-24,1,0.0015285957012625005,0.0017653668545267909,-0.006744641989067554,0.009826176907233707,0.9858700562411681
2012-10-26,1,0.0027611537166477487,0.00325963475251999,-0.006744641989067554,0.009426767104649571,0.9865979558781457
2012-11-01,1,0.0054549223350600865,0.006318600468318175,-0.0069815873719585924,0.00874989539753739,0.9882825914812144
2012-11-05,1,0.004626558302101184,0.005344587985110766,-0.0073948592548235105,0.008217058082812603,0.9880642124545609
2012-11-07,1,0.003905079550452606,0.004514070765858894,-0.006701469669911338,0.0043576326929477965,0.9898585916098984
2012-11-09,1,0.003667003338895243,0.004217756125905914,-0.006297574614885944,0.008217058082812603,0.9898639636739133
2012-11-13,1,0.004103337653106484,0.004762165383471507,-0.006297574614885944,0.008217058082812603,0.9894056796334412
2012-11-15,1,0.002300160374236324,0.0026387303326208247,-0.006297574614885944,0.008217058082812603,0.9903721214139091
2012-11-19,1,0.0028207796123434405,0.0032027230315199084,-0.004167402429840878,0.014255995090556972,0.989866855301351
2012-11-21,1,0.0031302401661428975,0.0035753536966763163,-0.004167402429840878,0.014255995090556972,0.9899370383736843
2012-11-26,1,0.002366956975614473,0.0025881981874542226,-0.004167402429840878,0.015473182321570609,0.9884100586744056
2012-11-28,1,0.0033097333481262865,0.003666796086702684,-0.004167402429840878,0.022159955761737543,0.9874214580311941
2012-11-30,1,0.0033950774022887134,0.003741379012445644,-0.002632532838592525,0.011803570255502625,0.9885834571302117
2012-12-04,1,0.0025538000168046767,0.0027516496207703727,-0.001088413007346214,0.020110813800564176,0.9877326321513231
2012-12-06,1,0.002110873773495621,0.002234922494486885,-0.001088413007346214,0.020110813800564176,0.9872117099614353
2012-12-10,1,0.0027234326419977683,0.00294269974614729,-0.001891841088422977,0.019403011522294976,0.9878041682034444
2012-12-12,0,0.0,0.0,0.0019712129905535957,0.020918476323394587,0.9849767375521418
2012-12-14,0,0.0,0.0,0.004708541248226715,0.022764772181114733,0.9854449772927717
2012-12-18,1,0.0008441395701456804,0.0009288522667598848,-0.0001785755157470703,0.019403011522294976,0.9880229712842342
2012-12-20,1,0.002104812642722516,0.0021333325878427865,-0.001122116951085376,0.019403011522294976,0.9881064494322842
2012-12-24,0,0.0,0.0,-0.0031577712576689905,0.01404534802270511,0.9890350440015085
2012-12-27,0,0.0,0.0,-0.005685001960601925,0.009814597453594576,0.9896609291307161
2012-12-31,0,0.0,0.0,-0.008380927524949875,0.009814597453594576,0.9873358949977561
2013-01-03,0,0.0,0.0,-0.008380927524949875,0.00752550890359956,0.9889005293263723
2013-01-07,0,0.0,0.0,-0.008489898387021392,0.007729613451117685,0.9881405095107791
2013-01-09,0,0.0,0.0,-0.0100745487861358,0.0058815665539893565,0.9883153030999775
2013-01-11,0,0.0,0.0,-0.0100745487861358,0.002784622352989665,0.9900746306571013
2013-01-15,0,0.0,0.0,-0.0100745487861358,0.0017339103681396411,0.990934397489225
2013-01-17,0,0.0,0.0,-0.0100745487861358,0.002784622352989665,0.9906085655643087
2013-01-22,0,0.0,0.0,-0.011489185621268102,0.0017339103681396411,0.9896116172821061
2013-01-24,1,0.0036936612816301415,0.003842184085726904,-0.011489185621268102,0.003063557752681158,0.9882910277729319
2013-01-28,1,0.0033742993401464083,0.0034613845818957296,-0.01205997003349256,0.003063557752681158,0.9872503071252939
2013-01-30,1,0.0007757822046445262,0.000998485241190249,-0.0100745487861358,0.0053774199696533555,0.9892011885288665
2013-02-01,1,0.0020149260026190814,0.002032517886057575,-0.0100745487861358,0.00584202049437034,0.9885345012164982
2013-02-05,1,0.002432351706299036,0.002511618247944451,-0.007610819139994228,0.00584202049437034,0.989692692378911
2013-02-07,1,0.001926821624276027,0.0019473056827878942,-0.005207334585860391,0.007800832178277183,0.9896401908087062
2013-02-11,1,0.0024591674481071416,0.002598575033260792,-0.005207334585860391,0.009834398620242456,0.9883679001113809
2013-02-13,1,0.0018903160232234264,0.0019236515921255074,-0.005207334585860391,0.009834398620242456,0.9887495250622018
2013-02-15,1,0.0016418229647834253,0.0016527156270396502,-0.006429985309118643,0.009834398620242456,0.9885571598750799
2013-02-20,0,-6.930761424618257e-05,0.00016813769968645803,-0.005376479369574223,0.011249575152715302,0.9889327650140184
2013-02-22,-1,-0.001111160555343572,-0.0007004660658957303,-0.005362349503271162,0.011249575152715302,0.9894384280924696
2013-02-26,-1,-0.002075317259007293,-0.001513204454225428,-0.0011637008925251642,0.009834398620242456,0.9909925696820474
2013-02-28,-1,-0.0018179519217921426,-0.001270973295717,-0.004814866805499174,0.005164044076624488,0.9929467949725574
2013-03-04,-1,-0.0008409536463091602,-0.0004615587466495648,-0.005661753498543919,0.004942899981388527,0.9924939441400839
2013-03-06,-1,-0.0010494268321009296,-0.0006123541860102064,-0.006942630170014289,0.002633852494488385,0.9918246160018177
2013-03-08,-1,-0.0011757759089542478,-0.0007029113194645226,-0.007499117169085741,0.002633852494488385,0.9904772924214614
2013-03-12,0,-3.4161586751553594e-05,0.00029697515688933897,-0.007499117169085741,0.0022447487725508974,0.9907400270873618
2013-03-14,1,7.046791393145466e-05,0.00036410223174459166,-0.007499117169085741,0.003828612283752289,0.9891658884107102
2013-03-18,0,-0.00019037746912063268,0.00011053650853381624,-0.007499117169085741,0.009677239314931545,0.9872207734545958
2013-03-20,-1,-0.0008546513979675262,-0.0004361475151900061,-0.014061271587109002,0.003828612283752289,0.9870658737351987
2013-03-22,-1,-0.0014657177019379772,-0.0009742250111643999,-0.014061271587109002,0.010822464511436033,0.9862303761076584
2013-03-26,-1,-0.001303696818154648,-0.0008316226539752333,-0.014061271587109002,0.013374982157683797,0.9852796638888176
2013-03-28,0,-0.00017975628921612,2.3021848901763034e-05,-0.014061271587109002,0.014300202119062924,0.984387748919005
2013-04-02,-1,-0.0008334676117234746,-0.0005407639440645366,-0.005254772761378484,0.014300202119062924,0.9854967192360127
2013-04-04,-1,-0.0023698571435174978,-0.0018570203235250438,-0.005164401030083967,0.014300202119062924,0.9850873787552701
2013-04-08,-1,-0.0022576091948299975,-0.001738514567130157,-0.0016684086551386752,0.0158357784770497,0.9846226975002975
2013-04-10,-1,-0.001426830425472094,-0.000994564951843294,-0.0016684086551386752,0.014300202119062924,0.9858472905042891
2013-04-12,-1,-0.0013812277815455354,-0.0008779908626182417,-0.0032686265393584903,0.013374982157683797,0.9873020482056538
2013-04-16,-1,-0.002259239835433107,-0.0016873224171806017,-0.0032686265393584903,0.014300202119062924,0.988483301208944
2013-04-18,-1,-0.003442369398413272,-0.0027345060215949774,-0.0010599021165177886,0.01577539381218879,0.9874193718642501
2013-04-22,-1,-0.002296674752781246,-0.0017487469231278732,-0.0020032720577672254,0.018618573432470018,0.9879153165760618
2013-04-24,-1,-0.0014739652097182155,-0.0010482133575391297,-0.0020032720577672254,0.01577539381218879,0.9890745042621641
2013-04-26,0,-0.00025507029639382987,3.890922813265573e-06,-0.0031182384214754767,0.009962440735858879,0.9900288171615729
2013-04-30,-1,-0.000647115368903099,-0.00031908622062400344,-0.0031182384214754767,0.019826241702263235,0.9874909458571893
2013-05-02,-1,-0.001868972503335538,-0.0013787060453109865,-0.0031182384214754767,0.019826241702263235,0.9870918221149223
2013-05-06,1,0.0002566959649877964,0.000467786942507342,-0.006414665133590172,0.017595377427624487,0.9887003891825972
2013-05-08,1,0.0002752900651100306,0.0004941499207508453,-0.006714065423069741,0.017595377427624487,0.9868344029381166
2013-05-10,-1,-0.0009947810958843017,-0.0005605907588078461,-0.006714065423069741,0.018614236940577754,0.9863500128360507
2013-05-14,0,0.0,0.0,-0.007448587455544881,0.017651425600593136,0.986316824269098
2013-05-16,0,0.0,0.0,-0.009441850512692331,0.014565846889435099,0.98645955647545
2013-05-20,0,0.0,0.0,-0.009441850512692331,0.013460390089898952,0.9871364246422766
2013-05-22,0,0.0,0.0,-0.012917754810797797,0.013460390089898952,0.9849128570699632
2013-05-24,0,0.0,0.0,-0.013568224918416756,0.013460390089898952,0.9838417619642509
2013-05-29,0,0.0,0.0,-0.013568224918416756,0.013460390089898952,0.9845299816062718
2013-05-31,1,0.004606504799136441,0.00709694283627637,-0.012917754810797797,0.013460390089898952,0.9854731417955781
2013-06-04,1,0.004416637807504519,0.004983190897626834,-0.012917754810797797,0.01778542242186224,0.9838653239116958
2013-06-06,1,0.004405331088198304,0.0050348928186448195,-0.011808850359293506,0.01778542242186224,0.985033121179179
2013-06-10,1,0.005150667876087036,0.005912718048938488,-0.011808850359293506,0.01668831156889271,0.9859964401134292
2013-06-12,0,0.0,0.0,-0.008219844452323192,0.01668831156889271,0.9843311813188652
2013-06-14,1,0.003148135192686846,0.0036050014405390697,-0.0013431349577406558,0.01668831156889271,0.9866754639718169
2013-06-18,1,0.004266651832572625,0.004846466581922747,-0.008219844452323192,0.01668831156889271,0.985526794924669
2013-06-20,0,0.0,0.0,-0.0013431349577406558,0.01668831156889271,0.9858143267955172
2013-06-24,1,0.0011069621499567338,0.001142260445060333,-0.00102879149895735,0.016893139177088158,0.9868868692224108
2013-06-26,0,0.0,0.0,-0.006182910131136199,0.016501657047037068,0.9860286108184405
2013-06-28,1,0.002543236396243634,0.002792169497859698,-0.00102879149895735,0.015771035466031105,0.9885195926308924
2013-07-02,1,0.003488303380635644,0.003841946572757092,-0.006182910131136199,0.011995337221111834,0.9897811745268694
2013-07-05,0,0.0,0.0,-0.006182910131136199,0.01202010711219812,0.98881549662975
2013-07-09,0,0.0,0.0,-0.00949113367983692,0.01202010711219812,0.9879045525703778
2013-07-11,1,0.004014870096584326,0.004407904192211933,-0.010458424934027887,0.011263120327805505,0.987773201427512
2013-07-15,1,0.0033990717373066355,0.003654924953422409,-0.010458424934027887,0.011263120327805505,0.9880917592800901
2013-07-17,1,0.002553400299927863,0.0026733240906426023,-0.009983963858630297,0.009834969293523555,0.9893332170804153
2013-07-19,1,0.002111329915809597,0.002146196245446307,-0.010401037745430296,0.005783939365433715,0.9883165468588782
2013-07-23,0,0.0,0.0,-0.011209546905608754,0.0055999914320114565,0.9884943446508733
2013-07-25,0,0.0,0.0,-0.010234337849157253,0.005114898873318294,0.9902299642108784
2013-07-29,0,0.0,0.0,-0.010234337849157253,0.0046647926820018604,0.9903375325022001
2013-07-31,0,0.0,0.0,-0.010234337849157253,0.009073642961347933,0.9888977100099602
2013-08-02,0,0.0,0.0,-0.012098932356219188,0.004407292183741236,0.988294133473498
2013-08-06,0,0.0,0.0,-0.010234337849157253,0.009410251999559964,0.987458437976978
2013-08-08,1,0.0030082006910640956,0.0030838735016347767,-0.010234337849157253,0.009410251999559964,0.9867420821704813
2013-08-12,1,0.0029959230538660923,0.0030634292180155547,-0.010234337849157253,0.012306087325553631,0.9855168901875238
2013-08-14,1,0.002139492212889255,0.0022007925539483985,-0.009174687723657149,0.012306087325553631,0.985640979467872
2013-08-16,1,0.001067986950511703,0.0012601202916650677,-0.004897011054221715,0.012306087325553631,0.9873062225270961
2013-08-20,1,0.0006900837038303892,0.0009525202366591208,-0.0027434228847311613,0.011637013558985377,0.9877500721056404
2013-08-22,1,0.0002909267289696253,0.0006248693212880125,-0.003961741853912021,0.011637013558985377,0.9875819327274877
2013-08-26,0,-0.00035386120186144706,0.00011151401703425319,-0.00914541118376611,0.011637013558985377,0.9871080285755259
2013-08-28,-1,-0.0008517978307704844,-0.00036095699775201334,-0.0051796936371371225,0.011637013558985377,0.9885907717176531
2013-08-30,0,-0.0003336465624700325,6.474879785080029e-05,-0.009053248784835977,0.009672319969397042,0.9899184842930285
2013-09-04,1,0.0014598071575797763,0.0016150133421148612,-0.009053248784835977,0.006614100507893239,0.9909486507413717
2013-09-06,1,0.0008946383956384956,0.001167013316929649,-0.009053248784835977,0.005955384084007492,0.991884133500143
2013-09-10,1,0.0010046926127595494,0.0013103280228860597,-0.011379036599571117,0.0037797216526605595,0.9915260030802134
2013-09-12,1,0.0006676840411868346,0.0009861056496687374,-0.011379036599571117,0.00570869095786308,0.9909482208299786
2013-09-16,1,0.00048717174482679866,0.0007844227639873574,-0.011379036599571117,0.007519471261501893,0.9904462968059791
2013-09-18,1,0.00113200202714899,0.0013243741192138204,-0.01235241088472283,0.007519471261501893,0.9896526314691965
2013-09-20,1,0.00038302608421613186,0.000673143247714465,-0.011250198944822126,0.008652704621705181,0.9898407824653518
2013-09-24,-1,-0.0005512484923876795,-0.00010650662387250956,-0.010973711748031724,0.008652704621705181,0.9900918208077453
2013-09-26,1,9.146641420015292e-05,0.0003821474136314186,-0.010973711748031724,0.01003213292778871,0.9896592797194834
2013-09-30,-1,-0.0006952860692184125,-0.0003194913598720179,-0.005661337659349757,0.01003213292778871,0.9901720661158816
2013-10-02,-1,-0.00046954813155515216,-0.00010141233811529265,-0.00981264353342728,0.008652704621705181,0.9903691992538887
2013-10-04,-1,-0.0007231711312283243,-0.0003379441962731249,-0.012382192091609468,0.007912625243271944,0.9902728133627015
2013-10-08,-1,-0.0015071952652350293,-0.0010844217270861416,-0.005661337659349757,0.007912625243271944,0.99115874849051
2013-10-10,-1,-0.0003730812057137167,-0.00011617542332630093,-0.010955262978440667,0.005913922083893455,0.9910466959279511
2013-10-14,0,-0.00017151910290463053,7.489958376576274e-05,-0.010955262978440667,0.005913922083893455,0.9907576289511103
2013-10-16,-1,-0.00043930489409260655,-0.00019527847607442078,-0.010181972354964099,0.005913922083893455,0.9906723755834784
2013-10-18,1,0.0009082622789782722,0.0009437079423246443,-0.010181972354964099,0.005399171845251773,0.9909753311729728
2013-10-22,1,0.0009147428688065852,0.000960455904366874,-0.010181972354964099,0.0031039028993170613,0.9906726232739828
2013-10-24,1,0.0011982159926599227,0.001206247787835648,-0.010181972354964099,0.003546378480240306,0.9909520635571507
2013-10-28,1,0.0004058617421410134,0.0005401380965763243,-0.010181972354964099,0.003546378480240306,0.9912521483353282
2013-10-30,1,0.00013210153161482278,0.00027519853975603586,-0.007374883130714426,0.005598786416589424,0.9915056660606306
2013-11-01,-1,-0.001158389927444915,-0.000829604818473233,-0.004828925855874116,0.005598786416589424,0.9927860284641173
2013-11-05,-1,-0.0009743411871943764,-0.0006815087073607003,-0.005573845936870688,0.0031286646872481596,0.9918073760949903
2013-11-07,-1,-0.0017969741503674425,-0.001432332697289022,-0.004269433832807578,0.004522491581899514,0.9927631275473152
2013-11-11,-1,-0.002255372726617233,-0.0017687834877054538,-0.004828925855874116,0.0031286646872481596,0.9936385716990886
2013-11-13,-1,-0.0020187085278723102,-0.0015451368422424823,-0.004828925855874116,0.002942911729735281,0.9949765570453153
2013-11-15,-1,-0.0017113037078436972,-0.0013555626802586938,-0.004828925855874116,0.004522491581899514,0.9934211162738273
2013-11-19,-1,-0.0021179828325001435,-0.0017119902608631677,-0.005325716314213764,0.004522491581899514,0.9904528555426537
2013-11-21,-1,-0.0005794373869856722,-0.00043072283868803203,-0.007540511653184839,0.004522491581899514,0.9893972164467747
2013-11-25,-1,-0.0004904210755770986,-0.0004094518655297676,-0.00865996000317608,0.004522491581899514,0.9887520110408188
2013-11-27,-1,-5.026636729021942e-05,-2.837472525030363e-05,-0.00865996000317608,0.004522491581899514,0.9887619582796215
2013-12-02,-1,-1.3429430806580815e-05,-4.9856064268233495e-06,-0.00865996000317608,0.007375896400621452,0.9884065430780488
2013-12-04,-1,-0.0006410451204189643,-0.0005677639361922739,-0.007540511653184839,0.007375896400621452,0.9898545510553826
2013-12-06,-1,-0.0008353715724863742,-0.0007142998055288108,-0.00865996000317608,0.0053610730800004594,0.9895165487467013
2013-12-10,-1,-0.0012636690995969087,-0.0010871860967002988,-0.00781716084192309,0.009366657425236949,0.988399805713343
2013-12-12,-1,-0.0011676118002569903,-0.0010189156122703416,-0.0038401742074404225,0.009963371394071698,0.987757670237966
2013-12-16,-1,-0.00017052930279684334,-0.00012670835323212569,-0.0038401742074404225,0.009963371394071698,0.9876038729517709
2013-12-18,-1,-0.002074571456969294,-0.0018176049684746095,-0.0014696470224004907,0.009963371394071698,0.9897246580886999
2013-12-20,-1,-0.0030455766910013893,-0.0026567891077792062,-0.0014696470224004907,0.009963371394071698,0.9899717759594863
2013-12-24,-1,-0.0025826014294293275,-0.0023249229491704077,-0.0031323554159323396,0.009963371394071698,0.9892604039252342
2013-12-27,-1,-0.0028953452480461822,-0.0025466148013851978,-0.006806647073162442,0.009963371394071698,0.9894004462389314
2013-12-31,-1,-0.0023888233527576083,-0.0020990362062590006,-0.007333152331789074,0.008999287375655612,0.9888085293106961
2014-01-03,-1,-0.0019586531902217484,-0.0017315519139818947,-0.012623424730129241,0.008999287375655612,0.9872526125570507
2014-01-07,-1,-0.002231164302324561,-0.001917770374014556,-0.010199276130325532,0.011432376448539013,0.9865894376940595
2014-01-09,-1,-0.0022275974948075578,-0.0018958189154057708,-0.010199276130325532,0.008242859101185298,0.9872565297346775
2014-01-13,-1,-0.0014417560534614384,-0.0012121683342728928,-0.010199276130325532,0.008101358365559091,0.9874184352330809
2014-01-15,1,4.423178505399001e-06,6.028092744035811e-05,-0.010199276130325532,0.006020196226994736,0.9886424406937229
2014-01-17,-1,-0.0006836942221078953,-0.000539120335231083,-0.008866769806632804,0.008101358365559091,0.9883932821191024
2014-01-22,-1,-0.0009600908722105613,-0.000756981300604377,-0.009176366801890469,0.008082161518694654,0.9886361064000163
2014-01-24,-1,-0.002467714592264708,-0.0020987015420443136,-0.00878724122433963,0.008082161518694654,0.9900770790039398
2014-01-28,-1,-0.0014233539399435317,-0.001269025033668985,-0.00878724122433963,0.008082161518694654,0.9901044594967834
2014-01-30,-1,-0.0024529806761258988,-0.0021811957424944448,-0.007573790863649409,0.008101358365559091,0.9906798457304165
2014-02-03,-1,-0.0031305081550243364,-0.002838830171372973,-0.0032831741031661113,0.008239775379976473,0.9912436370789831
2014-02-05,-1,-0.0027188271289094964,-0.0024624596030246642,-0.0004940824447032252,0.008239775379976473,0.9917408747156758
2014-02-07,-1,-0.0022116572814804233,-0.002012391861262391,-0.004153674864982137,0.008194437006726195,0.9927362804040776
2014-02-11,-1,-0.0015756901713402023,-0.001488699206372482,-0.004153674864982137,0.0075753277328658285,0.9927124533589198
2014-02-13,-1,-0.0014554861167624862,-0.001359356896849188,-0.00708260046383071,0.0075753277328658285,0.9924011706453173
2014-02-18,-1,-0.0005047952215949856,-0.000473016705361371,-0.00708260046383071,0.0075753277328658285,0.9921359700017197
2014-02-20,-1,-0.0009801055737641753,-0.0009375436013404843,-0.006701288108699532,0.0075753277328658285,0.9923217179574377
2014-02-24,-1,-0.0015959997781235917,-0.0014482102043156392,-0.005525380771108854,0.0075753277328658285,0.9923270415839884
2014-02-26,-1,-0.0007485811029797474,-0.0007378354734864146,-0.005560800681898516,0.00703168549982937,0.9924125767808218
2014-02-28,-1,-0.0005447304527639175,-0.0005436924229213417,-0.005560800681898516,0.00769798659545935,0.9921713004276832
2014-03-04,-1,-0.0013079582525576403,-0.0011566019131846383,-0.00518310090487883,0.010560266662662597,0.9905483165430995
2014-03-06,-1,-0.00020821223668160023,-0.0001649122122169795,-0.00518310090487883,0.008860989355433726,0.9908950218314941
2014-03-10,1,0.00046825014609531317,0.0005775007363009026,-0.005560800681898516,0.008860989355433726,0.9899522704342795
2014-03-12,1,0.000573922605371976,0.0007106241374836416,-0.005560800681898516,0.009791004183606357,0.9896431065726083
2014-03-14,-1,-0.0005087810322049272,-0.0004269648348953591,-0.00518310090487883,0.009791004183606357,0.9901166074766887
2014-03-18,1,0.001175016693877457,0.001436147477388878,-0.00518310090487883,0.008663100457539255,0.9906151371379404
2014-03-20,1,0.0016544170302640816,0.0019907262988329245,-0.00518310090487883,0.009115108326147882,0.9898788737387627
2014-03-24,1,0.0012027649038272347,0.001456994016034956,-0.004571573086005231,0.009115108326147882,0.9901453638023325
2014-03-26,1,0.0007766699436955554,0.0009456579098134657,-0.0042785176580394215,0.009115108326147882,0.9900959150125416
2014-03-28,1,0.0012753029122257297,0.0014222252607628567,-0.006211759842237764,0.009115108326147882,0.9885656578237636
2014-04-01,1,0.0035325562263085644,0.00400666967826574,-0.006211759842237764,0.008663100457539255,0.9909703268075138
2014-04-03,1,0.0029024836020954277,0.0032274256634939914,-0.012148845389982217,0.008285166239971638,0.9904603087870328
2014-04-07,1,0.002626995757067114,0.0029538794452096265,-0.010406110604869536,0.008285166239971638,0.9907897049820718
2014-04-09,1,0.0026671470314009282,0.003032579782162994,-0.007335790602548969,0.008285166239971638,0.9906622911067797
2014-04-11,1,0.0010930634099775571,0.001327754036358579,-0.004873632772399017,0.008285166239971638,0.9911200803407728
2014-04-15,1,0.0013879641544075902,0.0016406910961610293,-0.0065539861125849625,0.007650700060669696,0.9912409783112338
2014-04-17,1,0.0018851815703332703,0.002229264266561345,-0.0065539861125849625,0.006036331914918221,0.991731032168981
2014-04-22,1,0.00257387455109274,0.002924576985017399,-0.007557270961442636,0.006177592509320894,0.9910668069722127
2014-04-24,1,0.002492219423138785,0.0029115282927879675,-0.007557270961442636,0.005565505585649217,0.9910668294784702
2014-04-28,1,0.001963272148977104,0.0023143000454252487,-0.0065539861125849625,0.007370206249356139,0.9928706339125637
2014-04-30,1,0.0030959255693447135,0.0034466710398365287,-0.0065539861125849625,0.008773672545567018,0.9921942557596822
2014-05-02,1,0.002408502275248833,0.0026860275920275126,-0.006141168847436389,0.008773672545567018,0.9926930454067198
2014-05-06,1,0.0016049890395243385,0.0017534886555312429,-0.002849918959803117,0.008978721248693148,0.9930585102973342
2014-05-08,1,0.002152310164655255,0.002362277900190366,-0.002849918959803117,0.008978721248693148,0.9930747911078012
2014-05-12,1,0.0026271275064992158,0.0029493054871336105,-0.004028121914759921,0.008978721248693148,0.9930531897543526
2014-05-14,1,0.0011121739308275285,0.001146883751417648,-0.005024370213316941,0.008978721248693148,0.9917578472563352
2014-05-16,1,0.0007575520931853907,0.0007979423709740885,-0.005024370213316941,0.008978721248693148,0.9919169077702034
2014-05-20,1,0.0003064931491468993,0.0004291634507064731,-0.0011709590758694824,0.008978721248693148,0.9923007719227358
2014-05-22,1,0.0005840766675627258,0.0006686013846123085,-0.005024370213316941,0.00887481702922495,0.9922652893369219
2014-05-27,1,0.0011714832949371607,0.0011759777121225583,-0.005024370213316941,0.009366934167192113,0.992166080185361
2014-05-29,1,0.0018875593576717833,0.0019775601858217683,-0.005024370213316941,0.007423506985032858,0.9925788942021738
2014-06-02,1,0.0013681750208170294,0.0013693396521404341,-0.0033990890797555777,0.007423506985032858,0.9926223548447459
2014-06-04,1,0.0024839236454058298,0.0026854225138707127,-0.0033990890797555777,0.004821309326306985,0.9932786527325909
2014-06-06,1,0.003121061280807114,0.003440105048761709,-0.002478860779847893,0.004821309326306985,0.9943490660225072
2014-06-10,1,0.0034818389509233163,0.003915800377952287,-0.002478860779847893,0.0054506279727209285,0.9933359512451292
2014-06-12,1,0.0023979679450169874,0.0026720860241455143,-0.0018838512233333867,0.0067607356275129135,0.9943168983383744
2014-06-16,1,0.0026378937274526334,0.0029434747570301007,-0.0018838512233333867,0.0067607356275129135,0.9941425959461279
2014-06-18,1,0.0022471187297377604,0.0024419131451740446,-0.002478860779847893,0.006812066094768147,0.9935885991005128
2014-06-20,1,0.0017687175801810381,0.0018973386398362592,-0.0012814845734186262,0.006812066094768147,0.9939640650869009
2014-06-24,1,0.0017672783547047646,0.0018544101373016248,-0.0018662876201530343,0.006050317579878086,0.9942045828173118
2014-06-26,1,0.001665495320147969,0.0017132119566863591,-0.002262176895195647,0.004940174439876013,0.9941025232074352
2014-06-30,1,0.0016204015456661026,0.0016511663768449792,-0.0025261491335348708,0.004886261760686411,0.9941464028353718
2014-07-02,1,0.0017744468602873173,0.0017954154608984647,-0.004541354215591513,0.004886261760686411,0.9926025318501046
2014-07-07,1,0.0017515556012316798,0.0017653927939354779,-0.00656014638436839,0.005129356027136484,0.9916706889836676
2014-07-09,1,0.0019083637322075938,0.0019596015412955176,-0.00656014638436839,0.005064549256733893,0.9923988907154002
2014-07-11,1,0.002220589046791485,0.002331873993711416,-0.006898814419007268,0.005064549256733893,0.9919230185567377
2014-07-15,1,0.0019798979733179375,0.0020450349059171293,-0.006898814419007268,0.005140914988759789,0.9920872631760489
2014-07-17,1,0.0019537049743792553,0.0020037772507886485,-0.006898814419007268,0.005140914988759789,0.9924096263180289
2014-07-21,1,0.0017611767441217973,0.001787762809466172,-0.007366831793045765,0.006585180068020531,0.9920441700639394
2014-07-23,1,0.0018201012306775079,0.0018585869889537069,-0.007366831793045765,0.005140914988759789,0.9921486135896453
2014-07-25,1,0.00152420763376971,0.001526098360154715,-0.007366831793045765,0.005140914988759789,0.9921047971790151
2014-07-29,1,0.0015924844909079741,0.0016330050369094671,-0.007366831793045765,0.005140914988759789,0.9921193457966555
2014-07-31,1,0.00043920502147120315,0.0005587147043162236,-0.004733217411477358,0.006623394400361495,0.9932513036013915
2014-08-04,1,0.000481530282423101,0.0006127521842295142,-0.002745117701497379,0.006623394400361495,0.9939253176559137
2014-08-06,0,-0.00013686522886595279,0.00010864270796617759,-0.004733217411477358,0.005243936091503343,0.9937038128730873
2014-08-08,1,0.00027133948812060974,0.00040868038038959414,-0.007010153249951042,0.003791100868714467,0.9935570227670287
2014-08-12,1,0.0005179683240298079,0.0006282483292573823,-0.007421709621294343,0.0034657517282479524,0.9932714114428836
2014-08-14,1,0.00058760662689239,0.0007099268627008621,-0.007421709621294343,0.003024152790046629,0.9935321319996026
2014-08-18,1,0.0002455161364404659,0.00042854900559953805,-0.007421709621294343,0.002919078291555424,0.9938283491365901
2014-08-20,1,0.0002626300525187192,0.00042139907092942063,-0.007421709621294343,0.0030275409102198106,0.9940146320138507
2014-08-22,1,0.0007562854619227436,0.0007651604645987855,-0.007421709621294343,0.0031409668174809747,0.993529461993333
2014-08-26,1,0.0007344985728970298,0.0007558773484768536,-0.008175437648432007,0.0031409668174809747,0.992521096638691
2014-08-28,1,0.0006926210082577137,0.0007212236837923836,-0.010451322427878062,0.0030275409102198106,0.9920938056996939
2014-09-02,1,0.00029819581912462714,0.00030575576720560834,-0.011909547927394414,0.0021091968606858193,0.988007253749911
2014-09-04,-1,-0.0005458842290354403,-0.0004180081777503982,-0.01297842385639218,0.0021091968606858193,0.9884083822770326
2014-09-08,-1,-0.001181802405386127,-0.0009987117696855935,-0.011909547927394414,0.00230150514770003,0.98945357911316
2014-09-10,-1,-0.0013932118004161757,-0.0011895386171361625,-0.01297842385639218,0.0030275409102198106,0.9881829180378942
2014-09-12,-1,-0.0013397633118192762,-0.0011531473241291998,-0.014496317745525391,0.0030275409102198106,0.9871353280462011
2014-09-16,-1,-0.001180411423627307,-0.0010270899033878005,-0.017595288458950153,0.003324051774174523,0.9858462573104967
2014-09-18,-1,-0.0018585361430302188,-0.001576338359169368,-0.017595288458950153,0.005116800300986759,0.9845180531540201
2014-09-22,-1,-0.0022495209508870367,-0.0019281947418841867,-0.014674247956853573,0.007857205203534218,0.984841595161547
2014-09-24,-1,-0.0024629992489440095,-0.0020872782080563323,-0.014674247956853573,0.006713941559328849,0.9854221232695816
2014-09-26,-1,-0.0031236649389021903,-0.0026339893864414355,-0.018891311339805438,0.006713941559328849,0.9835347464248612
2014-09-30,-1,-0.007024084070669796,-0.006111339099474993,-0.01208892411764879,0.008525788876699913,0.9856519499650677
2014-10-02,-1,-0.00757930832340236,-0.006604535510806746,-0.013122106578581903,0.008525788876699913,0.9850880373281465
2014-10-06,-1,-0.00770076744700884,-0.006708228004178736,-0.013122106578581903,0.010201643748615135,0.9847882152401051
2014-10-08,-1,-0.00814753806832502,-0.007112501430622572,-0.009740067969817367,0.010201643748615135,0.9858626876903528
2014-10-10,-1,-0.009334695881839432,-0.008162907517788993,-0.007602048661353832,0.012455540810968956,0.9848398408864891
2014-10-14,-1,-0.008965008501453365,-0.007857920962528431,-0.007602048661353832,0.012507731253497864,0.9848841059021712
2014-10-16,-1,-0.007760259952410695,-0.0068232253617148235,-0.003918701608317646,0.01544383695980456,0.9845742721284246
2014-10-20,-1,-0.006969904858986863,-0.00616634835125034,-0.003918701608317646,0.018227563807892814,0.9836411977024834
2014-10-22,-1,-0.007118245636599484,-0.006290107384247788,-0.003112135542707565,0.018227563807892814,0.9839331027312668
2014-10-24,-1,-0.007404585667613038,-0.006595216729640776,-0.0026452957072415416,0.01544383695980456,0.9860330919761638
2014-10-28,-1,-0.005546541023483013,-0.004996643532390389,-0.0026452957072415416,0.014848861162108354,0.987747203820163
2014-10-30,-1,-0.00608028074092753,-0.005460446327164534,-0.0026452957072415416,0.014848861162108354,0.9876584861040565
2014-11-03,-1,-0.0065602871118605206,-0.005835511102380821,-0.002098855767022682,0.014848861162108354,0.9869864087794695
2014-11-05,-1,-0.006218234997280463,-0.005557846032468138,-0.002098855767022682,0.014848861162108354,0.9867633810056121
2014-11-07,-1,-0.005087762352376741,-0.004588610574960324,-0.0040193278569160724,0.01420267680860271,0.988195830724343
2014-11-11,-1,-0.004123039286277813,-0.0037128275780863493,-0.0040193278569160724,0.009698995625329795,0.9896996979425798
2014-11-13,-1,-0.0020196500806241684,-0.001897100924676084,-0.0050876602840738555,0.007744419495160164,0.9910817680727552
2014-11-17,0,-4.202207613741946e-05,0.00011857466708822053,-0.0126954584639496,0.003636796819485498,0.9902965676266433
2014-11-19,0,-8.063276837593463e-05,7.974594743581485e-05,-0.0126954584639496,0.007744419495160164,0.9881526366716804
2014-11-21,-1,-0.00022758507532786307,-8.05711320480398e-05,-0.0126954584639496,0.0093429400595752,0.9869305909175314
2014-11-25,1,0.0006520371003196917,0.0009353251156894157,-0.0126954584639496,0.007997531575012063,0.9873749843050716
2014-11-28,1,0.0012507811963702875,0.001637430232561606,-0.0126954584639496,0.008633559273952719,0.9874604200358004
2014-12-02,1,0.001813541041077794,0.00228123808652635,-0.0126954584639496,0.008387643988276811,0.9876242282687703
2014-12-04,1,0.001687017630115743,0.0021519538931815477,-0.014278324957438384,0.008387643988276811,0.9860445093119856
2014-12-08,1,0.0011689635136583059,0.001589451664570002,-0.010440161721342416,0.010513277299369447,0.9855850928940301
2014-12-10,1,0.0005330985568609022,0.0008706110070538936,-0.010440161721342416,0.013194760000806598,0.9846409936981029
2014-12-12,1,0.00037623438624292537,0.0007093258034970578,-0.009145489651831646,0.013194760000806598,0.9858803135499734
2014-12-16,-1,-0.001734592985971375,-0.0016882422558250612,-0.007189055320798115,0.013194760000806598,0.9872483453478892
2014-12-18,1,0.00033561917918376234,0.0006556761015666039,-0.007189055320798115,0.01004472596510591,0.9895591822353454
2014-12-22,1,0.0008433922877521345,0.0011653765684246412,-0.007189055320798115,0.005204917218176614,0.9903849783843153
2014-12-24,1,0.0011275414610133379,0.0014930358109822113,-0.008246088401449421,0.005849063903325774,0.9898154163089338
2014-12-29,1,0.001784494123177649,0.0022416422329866697,-0.010518508335480507,0.001495103003137628,0.9878919811517674
2014-12-31,1,0.0017747461040065117,0.0022529622139794564,-0.010518508335480507,0.005697788793830584,0.9864073513033103
2015-01-05,1,0.0003972302655006755,0.0007010313948947887,-0.009442003719659257,0.014772646896337314,0.9862991238889662
2015-01-07,1,0.0016546378717576947,0.0021647948646702103,-0.008344926424058624,0.01206569312042404,0.9872562446424813
2015-01-09,1,0.0034687317639056636,0.004135714944568075,-0.006926991383157515,0.010925847996826957,0.9886851336943969
2015-01-13,1,0.003480621889582797,0.004153434496727205,-0.006926991383157515,0.010925847996826957,0.9884534605974609
2015-01-15,1,0.0023692738088321496,0.0028715830675668996,-0.0029155569853478985,0.010925847996826957,0.9892462302819287
2015-01-20,1,0.002947550205972764,0.003528383737992398,-0.004746680216770266,0.010859234783158344,0.989032098641764
2015-01-22,1,0.003328454336435042,0.003998303000466676,-0.004746680216770266,0.011944298094475976,0.9886924628517744
2015-01-26,1,0.0037178896675676342,0.0044654743945635065,-0.002286368820755514,0.011401783847874701,0.9891722412468019
2015-01-28,1,0.00201604588292981,0.002499922307797014,-0.0014016486393111085,0.011401783847874701,0.9904879065701253
2015-01-30,1,0.0024229604629832204,0.0029006264768667743,-0.0014016486393111085,0.011401783847874701,0.9915006021909205
2015-02-03,1,0.0033263157497105582,0.004008215644856778,-0.002748347879213632,0.009362524137577715,0.9924662790992003
2015-02-05,1,0.003730185859776871,0.004465820550679239,-0.004719194184297776,0.007369121371294626,0.9923673141164525
2015-02-09,1,0.003943698323826902,0.004709641707543819,-0.008070052968248156,0.007369121371294626,0.991297829503523
2015-02-11,1,0.004686187204917661,0.0055516211451632075,-0.008070052968248156,0.006400432880542236,0.9905168952086754
2015-02-13,1,0.0044814382383704865,0.005291720691169587,-0.008070052968248156,0.007000285922509939,0.9902842590222032
2015-02-18,1,0.0044156832404357894,0.005230757675769991,-0.006516748533649624,0.007000285922509939,0.9905907715848161
2015-02-20,1,0.004770671766082668,0.005621531827483402,-0.007436272447966411,0.006850089304040992,0.9904373764287826
2015-02-24,1,0.0029047160846319003,0.0032433141727805335,-0.007436272447966411,0.006850089304040992,0.9908926887600211
2015-02-26,1,0.002458142556419299,0.0026945285142640696,-0.00912017891188691,0.005665252777146023,0.989828115308962
2015-03-02,1,0.0027244105705461273,0.0029806074611346332,-0.00912017891188691,0.005665252777146023,0.9899493916336192
2015-03-04,1,0.0012141524904441675,0.0012342190696298559,-0.008094453122946576,0.005665252777146023,0.9908721825285893
2015-03-06,0,-4.389153795227279e-05,0.0001496667927633758,-0.006370812571665474,0.006593735540264078,0.9912933719825809
2015-03-10,-1,-0.0007612533643612154,-0.00046995324298341177,-0.006110734410634414,0.005981500586462761,0.9920461126933644
2015-03-12,1,0.0007191799203786547,0.0007911916740682959,-0.006110734410634414,0.005138875012227554,0.9929282363313746
2015-03-16,1,0.001456410430351798,0.0014590758799363731,-0.006510102002889082,0.005138875012227554,0.9928508409341308
2015-03-18,1,0.0011296081248997733,0.0011815725745613493,-0.007490156174531385,0.005661307051725321,0.9927370317458155
2015-03-20,1,0.0005219849408466064,0.0007063666068671814,-0.008562545089410224,0.005661307051725321,0.992665682346082
2015-03-24,1,0.001068487196434236,0.0011445475180205146,-0.008562545089410224,0.005832184471730034,0.9922546940312513
2015-03-26,-1,-0.0006982592942069983,-0.0003847950914230054,-0.006709921691438205,0.005832184471730034,0.9938027915401235
2015-03-30,-1,-0.0004777256396313567,-0.0001764074624736972,-0.006709921691438205,0.006271583949466422,0.9934894975458085
2015-04-01,-1,-0.0013532832074969717,-0.0009387901160490641,-0.006709921691438205,0.006271583949466422,0.993511992290694
2015-04-06,-1,-0.000974124292597357,-0.0006296484484406136,-0.006709921691438205,0.005832184471730034,0.993815434360315
2015-04-08,-1,-0.0008475116887815937,-0.0005417480334895133,-0.008424213629519256,0.005832184471730034,0.9934781915088966
2015-04-10,0,-2.9397707985131963e-05,0.00010451094076972101,-0.008424213629519256,0.006271583949466422,0.9930575646980859
2015-04-14,1,0.000584932293673637,0.0006100196055233597,-0.006335464565985996,0.005832184471730034,0.9933985182292953
2015-04-16,1,0.0002701453664019571,0.0003009657274976854,-0.009170729861683727,0.00287577443758889,0.9931878207395699
2015-04-20,1,0.00014755976280270006,0.0001973189883373924,-0.006584303310040819,0.005881751552961533,0.9932668452807791
2015-04-22,1,0.0004559213605585125,0.00046859564082670706,-0.009170729861683727,0.003068514971331888,0.9928434490654295
2015-04-24,1,0.00018400712435031572,0.00019578128554181788,-0.0092237624977649,0.006905841580814889,0.9919542988751362
2015-04-28,1,0.0009943133458860738,0.0011086848583674643,-0.0092237624977649,0.003068514971331888,0.9919058264088856
2015-04-30,1,0.00024439531577918726,0.00024583835057226324,-0.008157437086071608,0.003068514971331888,0.9924519307952736
2015-05-04,-1,-0.00039084994676655895,-0.00026887503132288533,-0.008157437086071608,0.0069845473118593645,0.9918662188268259
2015-05-06,-1,-0.0011212330530979014,-0.0009484835703245089,-0.008157437086071608,0.0069845473118593645,0.9923573034159384
2015-05-08,-1,-0.0009833382280523611,-0.0008090647042407423,-0.0092237624977649,0.006874747925979608,0.9917196440652175
2015-05-12,-1,-0.00245765502970591,-0.0019691829043620946,-0.0092237624977649,0.008228871627226606,0.9918677736010336
2015-05-14,-1,-0.0020941395573794586,-0.0017220983144036516,-0.006844849513452203,0.008938857200488084,0.9915274507002544
2015-05-18,-1,-0.0009396791478872416,-0.0007450626401681003,-0.00835329355191487,0.008228871627226606,0.9916824820929768
2015-05-20,-1,-0.0014694079541096995,-0.0012194006589717535,-0.006844849513452203,0.008228871627226606,0.9920838616800212
2015-05-22,-1,-0.001283454000954839,-0.001077259908649545,-0.005556910949845398,0.00802177281575545,0.9933055749546008
2015-05-27,-1,-0.001223795836355078,-0.0010187294847792039,-0.004576501445362655,0.008609459042848815,0.9926677338886686
2015-05-29,-1,-0.002366146790987092,-0.0019540282861715596,-0.0038862149623328304,0.008609459042848815,0.9929430985061737
2015-06-02,-1,-0.0015654707948217646,-0.001294902547281188,-0.0038862149623328304,0.00802177281575545,0.9926442549402041
2015-06-04,-1,-0.001814484896017553,-0.0015121844452321864,-0.003459452529135858,0.00802177281575545,0.9928464367050389
2015-06-08,-1,-0.0020378799111135104,-0.0017052005148517485,-0.003459452529135858,0.005039952553942311,0.9936614625322846
2015-06-10,-1,-0.0021202585257285318,-0.0017555519933539984,-0.004248234750729925,0.002014228766673393,0.9927531385039814
2015-06-12,-1,-0.0016277845740147244,-0.001337150240228936,-0.004248234750729925,0.005039952553942311,0.9924462925625928
2015-06-16,-1,-0.002043637264549625,-0.0017022937438228702,-0.003916082334602382,0.008608885762552029,0.992260642403261
2015-06-18,-1,-0.001808949881924172,-0.0014975565100017237,-0.004383497312595285,0.008793951429535658,0.9918841729613662
2015-06-22,-1,-0.002575162211155788,-0.0021184447726598195,-0.006036298265485881,0.008793951429535658,0.9917461424152952
2015-06-24,-1,-0.0015584445297011904,-0.0012385636124541632,-0.006653304321056193,0.0051016411096035195,0.9919560709579
2015-06-26,-1,-0.0007361219912076844,-0.0006434525637041261,-0.00804620072702199,0.008793951429535658,0.9906061416363697
2015-06-30,-1,-0.0013322625115080604,-0.001217487748765211,-0.006653304321056193,0.011067039985798095,0.9895862858239567
2015-07-02,-1,-0.001389340392818446,-0.0012698900039619238,-0.007466249866401891,0.011067039985798095,0.9888222107159327
2015-07-07,-1,-0.0008920386079515337,-0.0008603474885901869,-0.007466249866401891,0.011067039985798095,0.9887337305768613
2015-07-09,-1,-0.0018978408423717462,-0.0017493328455716454,-0.007268440167650894,0.011067039985798095,0.989966195849669
2015-07-13,-1,-0.0012527782312343185,-0.0011776284695691071,-0.007268440167650894,0.01124212293940811,0.990373414628006
2015-07-15,-1,-0.0009340208704599637,-0.0009168073781055733,-0.007575385674805648,0.008956775835793,0.9901585931230689
2015-07-17,-1,-0.000863073823304811,-0.0008439245732207619,-0.007268440167650894,0.008342735955019682,0.9907309085322243
2015-07-21,-1,-0.0011451838960267555,-0.001096022405214348,-0.006882411345310439,0.010443173503240968,0.9904323109239879
2015-07-23,-1,-0.000689607637509376,-0.0006642470758577072,-0.007268440167650894,0.008117519904912492,0.9901093840694464
2015-07-27,-1,-0.0031484255628012685,-0.0030443971754377293,-0.010003388123476065,0.005423328624822514,0.9872936764048694
2015-07-29,1,0.0013535569304311526,0.0014973950399288748,-0.01824717556708421,0.0027223455769904716,0.9866118795256898
2015-07-31,0,-4.763893112670606e-05,3.2318374163159207e-06,-0.01036973912481997,0.008117519904912492,0.9862758323197934
2015-08-04,1,0.0007498431643458974,0.0008753858954179139,-0.012947567584447081,0.009650565597260987,0.9857050572957357
2015-08-06,1,0.001150621137130894,0.0013562556660398736,-0.012947567584447081,0.010396697237278717,0.9855234833306727
2015-08-10,1,0.001525002202969727,0.0017915770805513676,-0.01956747001728485,0.009650565597260987,0.984860697845667
2015-08-12,1,0.0012430740078618143,0.0014546129202482987,-0.013168809030616008,0.010396697237278717,0.9847854679746375
2015-08-14,1,0.0010693623669457198,0.0012600620023471899,-0.013168809030616008,0.010396697237278717,0.9846725473537937
2015-08-18,1,0.0008817554539598478,0.000997611069522536,-0.013168809030616008,0.013651204085034672,0.9825934695579902
2015-08-20,1,0.0003113541712091413,0.00037710563559393054,-0.013168809030616008,0.013651204085034672,0.9826846182857366
2015-08-24,1,0.002433400265823585,0.0027531675816225487,-0.01038474234225158,0.013651204085034672,0.9858299077286808
2015-08-26,1,0.0027059762008688083,0.003074355865735212,-0.01038474234225158,0.011518259454293854,0.9868867193261761
2015-08-28,1,0.0035260402841089844,0.003991174392405428,-0.012421351134964662,0.00844941036375679,0.9861334831067329
2015-09-01,1,0.0032538762457849724,0.003693486470732841,-0.011991412888325441,0.008817280766525994,0.985748956152514
2015-09-03,1,0.003194839310134806,0.003616003528798884,-0.011991412888325441,0.009779539668106178,0.9852431095880855
2015-09-08,1,0.0031322066348811,0.0035320429557111977,-0.0091537578880494,0.01441742224507065,0.9858481716759596
2015-09-10,1,0.0038050750437709584,0.004300304498591107,-0.0042469784887982955,0.017968575851941716,0.9851544823951083
2015-09-14,1,0.0034736467949266973,0.0039331286885393585,-0.0042469784887982955,0.017968575851941716,0.9850605780975283
2015-09-16,1,0.00556432709253196,0.006265084857915347,-0.0042469784887982955,0.009916517324443824,0.9868775154330783
2015-09-18,1,0.004717991279480495,0.005356820516991324,-0.002312330576542932,0.014066984474985668,0.9883250989810521
2015-09-22,1,0.003956170420401587,0.004435695261435668,-0.0015489004647634918,0.014066984474985668,0.9898203341243402
2015-09-24,1,0.0038215232832208407,0.004272376478861356,0.001143573434511321,0.014066984474985668,0.9907076894938756
2015-09-28,1,0.0020937566452765674,0.002288680608730057,0.0017884541404081936,0.014066984474985668,0.9920817000098776
2015-09-30,1,0.003936044385309556,0.00440709194994867,0.001143573434511321,0.011771520748891918,0.9915184371098119
2015-10-02,1,0.0051362126416421554,0.005746174829878657,0.0006605098569323893,0.009100489907650253,0.9916420304243952
2015-10-06,1,0.004778135079559308,0.0053056392913304285,0.00014508508412249379,0.00551752618928718,0.9917727128685628
2015-10-08,1,0.006663365087511668,0.007473329733255113,-0.0030155046023892544,0.005269879927104974,0.9907507881153806
2015-10-12,1,0.0056948742920827425,0.006328910558470909,-0.0044036951192648055,0.005269879927104974,0.9907697206812904
2015-10-14,1,0.005522647172955958,0.006115914258088154,-0.0044036951192648055,0.005269879927104974,0.990746346682901
2015-10-16,1,0.005985317222185845,0.006649732631351066,-0.0091111415458597,0.00435976809223879,0.9888412044784899
2015-10-20,1,0.00553960708157398,0.006104125431647317,-0.0091111415458597,0.005387334282898743,0.9893752745096622
2015-10-22,1,0.005905311319044391,0.0065216908447190605,-0.0091111415458597,0.00551752618928718,0.9887703107429022
2015-10-26,1,0.005475544374821286,0.0059990671120730005,-0.0091111415458597,0.005387334282898743,0.9886387519726412
2015-10-28,1,0.005004216793399783,0.005447774821544026,-0.006232309445534127,0.004408656979177319,0.9911181317646202
2015-10-30,1,0.0042944313477642805,0.004644967127210652,-0.006232309445534127,0.0025926226095693105,0.9913102424625055
2015-11-03,1,0.0040678844493330715,0.004397663497197843,-0.0091111415458597,0.0034774584677539303,0.9900774865672449
2015-11-05,1,0.0031440514069348297,0.0033215086713929446,-0.00968160926870797,0.007664059719337621,0.9898973100257904
2015-11-09,1,0.002665451082010522,0.0027964275650322655,-0.009066050947273033,0.007664059719337621,0.9900866539573607
2015-11-11,1,0.00239172038847068,0.002461714782329605,-0.009066050947273033,0.007664059719337621,0.9899603011262165
2015-11-13,1,0.001696648093270668,0.0017173375032336236,-0.006950714135593523,0.007664059719337621,0.9902631626186645
2015-11-17,1,0.0020949397556371176,0.0021434099946071716,-0.006950714135593523,0.009639572975070695,0.9883672535951791
2015-11-19,1,0.0025572732816391344,0.0026373352195476997,-0.013097770896010236,0.0028041981080421446,0.987249378819665
2015-11-23,1,0.0017930819950256194,0.00183980235967633,-0.013097770896010236,0.007713877659040153,0.9859491409473964
2015-11-25,1,0.0019147770130651762,0.0019257107154123574,-0.013097770896010236,0.01238489288608995,0.9853639109574645
2015-11-30,1,0.0002485098011580279,0.0005459487308557164,-0.01118627452736298,0.01238489288608995,0.9861102623529421
2015-12-02,1,0.00036212747891427007,0.0006051785401891521,-0.009469223621831918,0.006596579812473623,0.9873176301426672
2015-12-04,1,0.0005946390901048914,0.0008158267488310511,-0.009469223621831918,0.0039044230909934404,0.9876027264245478
2015-12-08,-1,-0.00046733933060177707,-0.00011689025082072208,-0.014130490384612346,0.0039044230909934404,0.9851530688567792
2015-12-10,-1,-0.00125924571420119,-0.0007668026040297533,-0.014130490384612346,0.005461428166676706,0.98451532030612
2015-12-14,-1,-0.0016374658354885825,-0.0011030292679675639,-0.014130490384612346,0.00751540624842716,0.9829873600680364
2015-12-16,1,0.0008383096829258316,0.001048291361151468,-0.017933498564843102,0.0002667416236886706,0.9836497015637066
2015-12-18,0,-0.00019265063154002833,6.08759030761919e-05,-0.013922682527041992,0.0002667416236886706,0.9857790073298017
2015-12-22,1,0.00027536223049025256,0.0005588932011553946,-0.013922682527041992,0.004210698569644619,0.986544651837224
2015-12-24,0,-6.831329319800404e-05,0.0002591964894235715,-0.014358600457503205,0.004210698569644619,0.985628673061994
2015-12-29,-1,-0.00043043743623287327,-6.824870148969178e-05,-0.017933498564843102,0.0009514009842721553,0.9842014582918974
2015-12-31,-1,-0.000809708816680785,-0.00043793678254099196,-0.017933498564843102,0.009638892397758532,0.9832958449045546
2016-01-05,-1,-0.0015065857697290504,-0.0010364803012933791,-0.021354099693634446,0.009638892397758532,0.9823223995097402
2016-01-07,-1,-0.003720153155021794,-0.003002386749216971,-0.012743719348085446,0.009638892397758532,0.9854077866102261
2016-01-11,-1,-0.003276805195247482,-0.0026209448955558977,-0.014396609027973462,0.009638892397758532,0.985279313311098
2016-01-13,-1,-0.004920236332540462,-0.004027376975326991,-0.013632525004908082,0.009638892397758532,0.9874205451909354
2016-01-15,-1,-0.004793316667939075,-0.004187829703293985,-0.012155690257353717,0.011222612727208913,0.9846608253730588
2016-01-20,-1,-0.005373011818221694,-0.004592866221717029,-0.012155690257353717,0.014080651577763989,0.9827245772131408
2016-01-22,-1,-0.004141019276200609,-0.0035552413845467137,-0.013082828024269934,0.020574056117849574,0.9818149938855307
2016-01-26,-1,-0.0037943077688024577,-0.0032540886949135274,-0.01353571575063136,0.014080651577763989,0.9820709246869145
2016-01-28,-1,-0.00446745750174824,-0.0038435246790024654,-0.011622532401341354,0.02114654141782114,0.9819327304595651
2016-02-01,-1,-0.0037911320644819866,-0.0032436467312170827,-0.011622532401341354,0.026173115122129036,0.98110125855149
2016-02-03,-1,-0.004755610629810272,-0.004130945629152347,-0.007990442233978537,0.026173115122129036,0.980866318825368
2016-02-05,-1,-0.005157349380910213,-0.004485006054772539,-0.0034474389980595757,0.026173115122129036,0.98059053365012
2016-02-09,-1,-0.003863384159711681,-0.0034572694528174504,-0.005054202556454035,0.026173115122129036,0.9814003690106956
2016-02-11,-1,-0.004791819608021887,-0.004233560889928812,-0.003025721026890732,0.026173115122129036,0.9808950741591207
2016-02-16,-1,-0.002877008422956134,-0.0025213034725933498,-0.003025721026890732,0.014036242010309358,0.9850356721614435
2016-02-18,-1,-0.002156832351610448,-0.0018677020562422745,-0.003025721026890732,0.0130868603302695,0.9859055019079564
2016-02-22,-1,-0.0017005106117504594,-0.001389488075075824,-0.003016647378147855,0.011139971654709327,0.9876492949899056
2016-02-24,-1,-0.0017677143541697438,-0.0015108548959098405,-0.003016647378147855,0.011139971654709327,0.9880411045617731
2016-02-26,-1,-0.00020491089004726683,-0.00018041520312759175,-0.003025721026890732,0.010110043951597458,0.9889681472686849
2016-03-01,1,0.0015637297785688169,0.0018057819872246696,-0.003025721026890732,0.010110043951597458,0.9907030343498365
2016-03-03,1,0.0032061684965873334,0.0037513124210284193,-0.0035555554114634993,0.0089641048264716,0.9899224851867426
2016-03-07,1,0.0032248691100797726,0.00376748926266864,-0.007614056904782198,0.0089641048264716,0.9883922079215266
2016-03-09,1,0.002443776626764314,0.002887746347576477,-0.007614056904782198,0.0089641048264716,0.9891631727900984
2016-03-11,1,0.0029588095577311995,0.00350199148058283,-0.007614056904782198,0.008493729451397364,0.9894016162500481
2016-03-15,1,0.0029697150346256708,0.0035259050142661726,-0.007614056904782198,0.011267864589622844,0.9887478690148817
2016-03-17,1,0.003696294152919232,0.004372845329462671,-0.012365114918001857,0.009382666102231776,0.9889567233141091
2016-03-21,1,0.0043263574043587326,0.005095959154850139,-0.012365114918001857,0.011267864589622844,0.987956092707955
2016-03-23,1,0.0027255784634876994,0.003251117209515237,-0.004622589999017228,0.011484856550719387,0.9891301172811331
2016-03-28,1,0.002187506809047528,0.0026229568388541407,-0.0024903968819993375,0.011484856550719387,0.9894567718548732
2016-03-30,1,0.0027762445370231093,0.0032885609836714167,-0.003834166573924335,0.012015893708167696,0.9892326838878128
2016-04-01,1,0.0019635136868759832,0.0023386358656995723,-0.003834166573924335,0.012973709078631006,0.9878314954798614
2016-04-05,1,0.0012064173093599326,0.0014535454726925215,-0.003834166573924335,0.012973709078631006,0.988147546016378
2016-04-07,1,0.0005609611945555059,0.0007329359218929908,-0.003834166573924335,0.012973709078631006,0.9888254329795418
2016-04-11,1,0.00044960836726963294,0.0005601980241411314,-0.007141240030163013,0.012973709078631006,0.9883774048886875
2016-04-13,1,0.0016436248705373946,0.0019453408605593905,-0.00893022512757748,0.012579503531286186,0.9886405738181819
2016-04-15,1,0.001762977527035677,0.0021343637799852537,-0.00893022512757748,0.012579503531286186,0.9887473070256282
2016-04-19,1,0.0028184837105935537,0.0033248536149011925,-0.009135867202230034,0.007925439969225585,0.9891468668470564
2016-04-21,1,0.0032016109724534937,0.0037593014242799897,-0.009135867202230034,0.005209617700613819,0.9891966636892808
2016-04-25,1,0.0028441196642334373,0.0033298242517723836,-0.009135867202230034,0.007583033713778458,0.9892940156987939
2016-04-27,1,0.0029059376180400427,0.003391191755937732,-0.009135867202230034,0.007981781857413052,0.9890861061770395
2016-04-29,1,0.0027384690658511643,0.003196235187695538,-0.00893022512757748,0.007583033713778458,0.991940398059793
2016-05-03,1,0.0023639555028713032,0.002741994311254133,-0.00893022512757748,0.007583033713778458,0.9913972792621412
2016-05-05,1,0.0020279710246731957,0.002368559322676516,-0.009130881396652614,0.007630689672146054,0.9911040730121964
2016-05-09,1,0.0016836793911871762,0.0019427078758051152,-0.0064238033585104935,0.00841358737118891,0.9908880516048294
2016-05-11,1,0.0024235132961396314,0.002883929539613297,-0.005860591181842304,0.007630689672146054,0.991487379661996
2016-05-13,1,0.0016207982502850736,0.0019047295012698338,-0.007903832762182367,0.007630689672146054,0.9908998271078193
2016-05-17,1,0.0019485677974651785,0.002329990670198402,-0.007903832762182367,0.00841358737118891,0.99072955751735
2016-05-19,1,0.001935082799627174,0.0023249924384179475,-0.007903832762182367,0.010687124145929705,0.9904095975901076
2016-05-23,1,0.0019913653799193297,0.0023726628073479786,-0.009566721281052147,0.01106875533211358,0.9896807343384342
2016-05-25,1,0.0027204769629880997,0.0031833686380164784,-0.009566721281052147,0.010687124145929705,0.9899050210174394
2016-05-27,1,0.0020240842140072943,0.002330821816610653,-0.012267026055266155,0.010687124145929705,0.9855528022914292
2016-06-01,1,0.0003800795047609831,0.0004047302023771465,-0.011105921600268413,0.012278171808671794,0.985588388368305
2016-06-03,1,0.0002798353824707829,0.0003056941571205506,-0.009566721281052147,0.012278171808671794,0.9859559786389447
2016-06-07,1,0.0002865953875267486,0.0003368037729642025,-0.011105921600268413,0.012278171808671794,0.9853107870293817
2016-06-09,-1,-0.0003227403802615712,-0.00015660728954895828,-0.011105921600268413,0.01335733187893639,0.9837688390806067
2016-06-13,-1,-0.0012192212998683172,-0.0009200695666797097,-0.004965731171893679,0.013720007515587457,0.9831536641155983
2016-06-15,-1,-0.0008687195421257428,-0.0006517204956229094,0.000438760553871434,0.013720007515587457,0.9838141875916219
2016-06-17,-1,-0.00026228480526935326,-0.00012331428087003607,-0.0018602069252602984,0.013720007515587457,0.9846537815962593
2016-06-21,-1,-0.0011328108846570476,-0.0008220580506114601,-0.0003679260032948103,0.013720007515587457,0.9853022811718231
2016-06-23,-1,-0.00035985151304295416,-0.00017014122957187644,-0.0003679260032948103,0.01360070728099061,0.9856440713844764
2016-06-27,-1,-0.003499599620264046,-0.002856052662721878,0.0011951894692473015,0.01360070728099061,0.9880137964222011
2016-06-29,-1,-0.0029302664719012836,-0.002338223496717355,-0.0009026613364437161,0.013216439760163949,0.9863730983155303
2016-07-01,-1,-0.0026813021117021857,-0.002058531138655715,-0.002087259335313147,0.013216439760163949,0.9868740908917245
2016-07-06,-1,-0.00309835520439276,-0.002386701377784463,-0.002087259335313147,0.013216439760163949,0.9857388518539536
2016-07-08,-1,-0.0007927328327315773,-0.00046299730440213765,-0.003980950783028377,0.008396695183520347,0.9879042046756887
2016-07-12,1,0.00018002187884254164,0.000344221521631718,-0.003980950783028377,0.006985134203237969,0.9886283205314784
2016-07-14,1,0.0008710278510771633,0.0009082451682652678,-0.004310050427770086,0.006069868426346526,0.9884450598444885
2016-07-18,1,0.0007425747078812032,0.0008393274701993388,-0.004310050427770086,0.006972646234608866,0.9884568276742389
2016-07-20,1,0.0009499111569153868,0.000971749709800866,-0.0050923702537290245,0.005701077845979994,0.9881726149510601
2016-07-22,1,0.0021661236161669524,0.002358662692872303,-0.004850516566508652,0.004874158942733726,0.9884993780553362
2016-07-26,1,0.0024472028643059114,0.002734179217097157,-0.004850516566508652,0.004874158942733726,0.9882817632254058
2016-07-28,1,0.0014004575858652282,0.001548101880696812,-0.004850516566508652,0.005701077845979994,0.9914847027086788
2016-08-01,1,0.0003861096441962911,0.00041540047043451677,-0.004850516566508652,0.007479934448904621,0.9916428710716455
2016-08-03,0,-4.918122633983883e-06,6.364436911064018e-05,-0.0043021826065484355,0.00662899358333178,0.9940325770855785
2016-08-05,0,-8.08000596851132e-05,1.140336683592741e-06,-0.004850516566508652,0.005277342752850899,0.9938134998813651
2016-08-09,1,0.00045549232594837457,0.00046044532802450825,-0.004850516566508652,0.005277342752850899,0.9936975760096897
2016-08-11,1,0.0004731100366709806,0.0005033871199615381,-0.005436319972370516,0.0052535082574867295,0.9927278807423835
2016-08-15,1,0.00025399099558557345,0.0002873094880855923,-0.007223140030606897,0.0052535082574867295,0.9906081439280854
2016-08-17,1,0.00010071176126331388,0.0001680282299582862,-0.007828456859014938,0.0052535082574867295,0.9900680380912068
2016-08-19,1,0.0003549794608630121,0.0003606075688157205,-0.007828456859014938,0.005244649936615125,0.9904994242463848
2016-08-23,1,9.739259060139198e-05,0.00016211191527690108,-0.009227987159412795,0.00662899358333178,0.9900735396673785
2016-08-25,1,3.0207858354628562e-05,0.00011516273640738272,-0.007683843753753679,0.00662899358333178,0.9908304144906972
2016-08-29,-1,-0.000551555602462523,-0.00036638567139642315,-0.00998714951367602,0.005221236438782392,0.9907793444186878
2016-08-31,-1,-0.00022987212825703834,-9.301916435826518e-05,-0.010618780514288393,0.005478434079889467,0.9903731464910865
2016-09-02,0,-4.3119377862389346e-05,2.5429883607148892e-05,-0.009293917721022326,0.0074581391250680435,0.9906644452110114
2016-09-07,1,0.0001456800990676307,0.00020887180287286906,-0.009293917721022326,0.00769111335167672,0.9898975658746728
2016-09-09,-1,-0.0011225671218448659,-0.0011138892106855908,-0.008324135202324175,0.00769111335167672,0.9905724789684651
2016-09-13,1,0.00023402879536063293,0.0002520040274845444,-0.009293917721022326,0.0074581391250680435,0.9918351931215493
2016-09-15,-1,-0.001286986356183946,-0.0012812770664532018,-0.008324135202324175,0.0074581391250680435,0.9927293655252083
2016-09-19,-1,-0.001086241553048567,-0.0010625885169325102,-0.008324135202324175,0.0074581391250680435,0.9927203162715807
2016-09-21,-1,-0.000269858727159683,-0.00020891921801829643,-0.007426369798589337,0.007649239761087213,0.9928546350690692
2016-09-23,0,-2.7121965015884314e-05,5.5269936700601214e-06,-0.007426369798589337,0.005198947776052008,0.9928549080210369
2016-09-27,-1,-0.0007004008040946539,-0.0005711208478814661,-0.007426369798589337,0.008286854167536835,0.9916050297068982
2016-09-29,-1,-0.0008264128713777868,-0.0006780353233181327,-0.007426369798589337,0.005198947776052008,0.991850538622117
2016-10-03,-1,-0.0004947247287800003,-0.0003825645082871027,-0.007426369798589337,0.002942998535907761,0.9922399682283707
2016-10-05,1,0.0004466580614343696,0.00046126946112892914,-0.010812877562365177,0.0010579381472332783,0.9920679722573135
2016-10-07,-1,-0.0002963980852568402,-0.00018346502580309654,-0.010812877562365177,0.0010579381472332783,0.992857900578658
2016-10-11,-1,-0.001053439475072278,-0.0008516871133774607,-0.005448326496591342,0.0019127374556844007,0.9927596906769468
2016-10-13,-1,-0.0010542476585822642,-0.0008420009855908948,-0.005448326496591342,0.005310552703653995,0.9909491414632661
2016-10-17,-1,-0.000839103429598777,-0.0006849161992639783,-0.009245024636304092,0.009056252428071211,0.9887775076713429
2016-10-19,-1,-0.0005099901151783692,-0.00037711550091113833,-0.009245024636304092,0.005310552703653995,0.9891417070324022
2016-10-21,-1,-0.0007542597485751695,-0.0005672967580057238,-0.010893323101777708,0.0040764259580704865,0.9886549933729033
2016-10-25,-1,-0.0012682207792723038,-0.0010123236764648905,-0.009658608952846016,0.0040336973864271205,0.9902192019138952
2016-10-27,-1,-0.0009807948553679775,-0.0007995589819162898,-0.00879346643219272,0.008539056184856245,0.990154003264167
2016-10-31,-1,-0.0013081803352936634,-0.00107271406479358,-0.00944196521911605,0.008539056184856245,0.9898607007734977
2016-11-02,-1,-0.002592192089304217,-0.002169422044614777,-0.005448326496591342,0.009474310005141208,0.9887406012007316
2016-11-04,-1,-0.002649687579495266,-0.002229643350287356,-0.00879346643219272,0.01290851483352352,0.9873494729932659
2016-11-08,-1,-0.001736216071377118,-0.001459813236371722,-0.004808449728898085,0.01290851483352352,0.9864056696030872
2016-11-10,1,1.5779673192549935e-05,9.951102390370954e-05,-0.004808449728898085,0.01099953064199159,0.9881000535786238
2016-11-14,1,0.00021866169917912452,0.0002676292963648798,-0.005241830185676261,0.009920893150495502,0.9888545062050159
2016-11-16,-1,-0.0011474263072253884,-0.00084518818060532,-0.00944196521911605,0.009920893150495502,0.9879142192760882
2016-11-18,-1,-0.0012888888994855012,-0.0010158449422184106,-0.0026978812878351863,0.009920893150495502,0.9882987516357485
2016-11-22,-1,-0.0006309311634064242,-0.0004281576996305438,-0.005416764424356455,0.009920893150495502,0.9881117083522398
2016-11-25,-1,-0.0002748941052705787,-0.00011415817958158897,-0.010213718216109707,0.00952059055501422,0.9876657432152164
2016-11-29,1,0.0001785591605500914,0.00020378901296469974,-0.011040792400429112,0.00952059055501422,0.9873170552698657
2016-12-01,1,0.002093419043922757,0.0023674320166029695,-0.011040792400429112,0.005998723764864874,0.9888104304837039
2016-12-05,1,0.002243419471297669,0.002555472441726811,-0.008871068565131408,0.00952059055501422,0.9864909804793164
2016-12-07,1,0.004106908232410635,0.0046880211195506356,-0.011040792400429112,0.004202514635683155,0.9863153674690146
2016-12-09,1,0.004243360211605576,0.004848063078374996,-0.011040792400429112,0.004202514635683155,0.9855389064149466
2016-12-13,1,0.003210385940745209,0.0036903104445198164,-0.011040792400429112,0.004202514635683155,0.9864584097603567
2016-12-15,1,0.002908735904046346,0.003351862550148415,-0.010379714684944882,0.004190619404546273,0.9874012122536818
2016-12-19,1,0.002504862054400484,0.0028626741054853183,-0.011040792400429112,0.0035925271418556348,0.9866128146996143
2016-12-21,1,0.0020227726291455984,0.0022706175549207174,-0.010465938026405056,0.0020030107474402186,0.9870779539921449
2016-12-23,1,0.0015214912232090322,0.001667005682812934,-0.008679450440456723,0.005951443724806582,0.9867479789202479
2016-12-28,1,0.0009571383902487338,0.0010215028756986725,-0.008679450440456723,0.010844262564364129,0.9857420131844936
2016-12-30,1,0.000870787243003686,0.0009465005066904721,-0.009752782011851265,0.010844262564364129,0.9857337803964961
2017-01-04,1,0.0038264682694215115,0.004279306559938436,-0.009752782011851265,0.0020030107474402186,0.9878941993618121
2017-01-06,1,0.002697769996929638,0.003015033783039329,-0.007137510641679241,0.004808061246882199,0.9890839695580529
2017-01-10,1,0.002873451077924603,0.003211287670827437,-0.007137510641679241,0.003193213213894944,0.9895063819599648
2017-01-12,1,0.0023156921331432987,0.00257435553233431,-0.004441831531620357,0.004856335987477979,0.9904389448901556
2017-01-17,1,0.0021030991012864226,0.0023303902627791256,-0.004441831531620357,0.007799375828146068,0.9904007184093776
2017-01-19,1,0.0018760493565590573,0.0020876487511175875,-0.004441831531620357,0.007799375828146068,0.9907109198881261
2017-01-23,1,0.0014536501739287975,0.0015955325622098433,-0.0032388697764036446,0.008983228209866658,0.990957617678224
2017-01-25,1,0.0027343359621438803,0.003060584942325675,-0.004216538361414215,0.0047889985674103835,0.9918717352752516
2017-01-27,1,0.0019221320623005775,0.0021230814651458326,-0.004216538361414215,0.0047889985674103835,0.9929733542859644
2017-01-31,1,0.0019277969356108085,0.0021580524480329516,-0.004216538361414215,0.007560158535955038,0.9925668775137022
2017-02-02,1,0.0011446412567597756,0.0012259429639676417,-0.0041700083624539,0.007560158535955038,0.9927389238022015
2017-02-06,1,0.0016990889749490569,0.0018533414400068178,-0.007135831316084834,0.0047889985674103835,0.9930787685500747
2017-02-08,1,0.0010318769011214734,0.0010665676741759907,-0.005375749894934771,0.006004850032684313,0.9936365881962845
2017-02-10,1,0.0012471342728021476,0.001306718407005408,-0.005375749894934771,0.004402101553177985,0.9940435121561263
2017-02-14,1,0.0013662913998259436,0.001437616912744654,-0.005375749894934771,0.003796830477980798,0.9940814987092628
2017-02-16,1,0.0011123027861376015,0.0011567109095511217,-0.005385678457860794,0.004368926529869283,0.9936404976630955
2017-02-21,1,0.0011208762662200185,0.0011427002748719078,-0.009078566885714833,0.002788130070023586,0.9909589590547102
2017-02-23,1,0.0003103385205340339,0.0003359633815983048,-0.008939299491433848,0.004030995220556168,0.9910957901717046
2017-02-27,1,0.0009152760606645418,0.000984788266670541,-0.010270582125755176,0.002788130070023586,0.9911416188398986
2017-03-01,1,0.0014273818519461487,0.0016286156718276065,-0.008941310052593633,0.002919520831742819,0.9913198815464991
2017-03-03,1,0.0010122967771267798,0.0011203067308295975,-0.008941310052593633,0.002919520831742819,0.9913988241333549
2017-03-07,-1,-9.35894328875849e-05,-2.563520116764047e-05,-0.009814494143053642,0.002919520831742819,0.9911362353688329
2017-03-09,-1,-7.207951853666018e-05,-1.4500846342732849e-06,-0.0106982516446427,0.0024437755582683903,0.9910123603582363
2017-03-13,-1,-0.00023610389258426354,-0.0001308359276205621,-0.0106982516446427,0.001979530131573619,0.9909430405902013
2017-03-15,1,0.0003795327848950661,0.00039199172399733675,-0.0106982516446427,0.001979530131573619,0.9908452016120973
2017-03-17,-1,-0.00021770529770582907,-0.0001364184895521225,-0.009927327513507764,0.001979530131573619,0.9907967608513655
2017-03-21,-1,-0.002768479593855137,-0.00236100173572857,-0.00879079463424302,0.0025980354726838598,0.9933840760321068
2017-03-23,-1,-0.0030044622453636524,-0.00255593189058849,-0.009927327513507764,0.0025980354726838598,0.9922635745859721
2017-03-27,-1,-0.0036264957487308794,-0.0030661898112564626,-0.007007779034294056,0.0044028551748497005,0.9919994985366143
2017-03-29,-1,-0.0036459913536959795,-0.003065215921059478,-0.009927327513507764,0.0044028551748497005,0.9922200782805958
2017-03-31,-1,-0.003921035465754045,-0.003297348925097584,-0.009927327513507764,0.0044028551748497005,0.9921871849273577
2017-04-04,-1,-0.004500981804241522,-0.003834509885966403,-0.009927327513507764,0.005350326608587469,0.9900538239214708
2017-04-06,-1,-0.004199228705510842,-0.0036699907721467664,-0.007413940291983276,0.008565649762389363,0.9896157556041123
2017-04-10,-1,-0.004013710550349454,-0.003526549857795956,-0.007413940291983276,0.008565649762389363,0.9894525593243029
2017-04-12,-1,-0.004057966982392565,-0.003560819470072225,-0.010702409751025906,0.008565649762389363,0.9894039946873151
2017-04-17,-1,-0.004214941409362559,-0.003666766831783249,-0.008818969973680686,0.005350326608587469,0.9901863360726326
2017-04-19,-1,-0.004223536752787957,-0.0036985519367303257,-0.008818969973680686,0.005264920067133355,0.9901927646789396
2017-04-21,-1,-0.0034496001738187837,-0.003039759006901641,-0.006786127032868202,0.005134356103254897,0.9912307512553363
2017-04-25,-1,-0.0031410949178208468,-0.0027536762794392556,-0.006786127032868202,0.0039446257673127535,0.9909515356293697
2017-04-27,-1,-0.0021299709468735615,-0.0019379755823266806,-0.008152207688789541,0.0027185651309542943,0.9913863456765527
2017-05-01,-1,-0.0022362855898760744,-0.002034432564685963,-0.008152207688789541,0.006687865439767054,0.9904045516771649
2017-05-03,-1,-0.0021811897101412436,-0.00208289694816347,-0.006778729392439872,0.006687865439767054,0.9915074346974153
2017-05-05,-1,-0.001659538122876551,-0.0016354665936312534,-0.008152207688789541,0.00431901169135833,0.9919732588679091
2017-05-09,-1,-0.002099644598063432,-0.001972590477076627,-0.008333451957748605,0.00431901169135833,0.9916872966361963
2017-05-11,-1,-0.002766888188725592,-0.002543516862084259,-0.008152207688789541,0.00431901169135833,0.9916714813425646
2017-05-15,-1,-0.0026824716554258938,-0.0024850065098623187,-0.005980076312140536,0.006687865439767054,0.9912811409291593
2017-05-17,-1,-0.0031562301667945624,-0.002906477845701628,-0.0046930157497820455,0.006687865439767054,0.991722157358844
2017-05-19,-1,-0.0029090363061581494,-0.002668558899087691,-0.0046930157497820455,0.00431901169135833,0.9922671099855243
2017-05-23,-1,-0.0025404037494123066,-0.002316536235738151,-0.007431880875132336,0.002935093123244953,0.9929565304899671
2017-05-25,-1,-0.0032600440423957064,-0.0029402797423513883,-0.005742433254397578,0.00431901169135833,0.992679805381488
2017-05-30,-1,-0.0011968617025794584,-0.0010976933688355548,-0.00741724511197489,0.002935093123244953,0.9929359910352609
2017-06-01,-1,-0.0006946274722077856,-0.0005786187609036049,-0.00741724511197489,0.002704531215523368,0.9939840649449294
2017-06-05,-1,-0.0007996189464687045,-0.0006816973516694424,-0.005170874511638437,0.003835991667609756,0.9928234642343269
2017-06-07,-1,-0.0015183459435598428,-0.00151366278389327,-0.00741724511197489,0.003835991667609756,0.9917870915183195
2017-06-09,-1,-0.0011876814601589616,-0.001143977201380954,-0.00741724511197489,0.0071701457980315065,0.9914403497365533
2017-06-13,-1,-0.0009703282644882274,-0.0009179152411880946,-0.00741724511197489,0.0071701457980315065,0.9915450193466475
2017-06-15,-1,-0.0010588641790672956,-0.0010310421354196109,-0.00741724511197489,0.0073874305290720045,0.9908195947243227
2017-06-19,-1,-0.00022948339165603752,-3.6781062151227686e-05,-0.00741724511197489,0.0073874305290720045,0.991026541221201
2017-06-21,-1,-0.0011223941724984327,-0.001082717793065261,-0.0013827105472633914,0.0073874305290720045,0.9904730105862107
2017-06-23,-1,-0.0011426584026450037,-0.0011235988999452311,-0.00936329795857272,0.0071701457980315065,0.9896255863096227
2017-06-27,-1,-0.0009424611930774664,-0.0009012040078210708,-0.010711849223257052,0.007117498623567412,0.9898695801416766
2017-06-29,-1,-0.00017736129208212364,-2.8674157929216163e-06,-0.010711849223257052,0.007117498623567412,0.9900121930168564
2017-07-03,1,0.0007334860592911685,0.001010836601613014,-0.011874245872160748,0.006948605894469311,0.990479713440466
2017-07-06,1,7.862949561988832e-05,0.000290280084669866,-0.00751996164870525,0.006948605894469311,0.9914830921912197
2017-07-10,1,0.0008271152135915957,0.0011632855456403944,-0.00751996164870525,0.005554831368579561,0.9920760509466905
2017-07-12,1,0.0011756999114749542,0.0015456405735468145,-0.00751996164870525,0.004708905768691811,0.992249752436197
2017-07-14,1,0.0020364092194576928,0.0025439573063152287,-0.011675822727044599,0.0031851704428408085,0.991914441052598
2017-07-18,1,0.0021297356346400664,0.002635072492744747,-0.011675822727044599,0.0031851704428408085,0.991133485015659
2017-07-20,1,0.002213075034540355,0.002743600532266247,-0.013934651852284704,0.0020610346402431916,0.990800939428112
2017-07-24,1,0.001273053328829991,0.0016894674416610164,-0.006691775474812865,0.0020610346402431916,0.992650053001879
2017-07-26,1,0.0005673846307700954,0.0008895836506401122,-0.006376732491943092,0.004498776473713409,0.9934082478396312
2017-07-28,1,0.0007981298995592927,0.0011281366831713663,-0.006376732491943092,0.004498776473713409,0.9934550775573847
2017-08-01,1,0.00031225627807160124,0.0005882795444657396,-0.004358427152095894,0.004583155155420852,0.9945287481389127
2017-08-03,1,0.0005284300118779742,0.0008454198090593487,-0.003001972321519732,0.006117527652144862,0.9942735751186452
2017-08-07,1,0.0008471179881549742,0.0012215999592852251,-0.003001972321519732,0.007733113839271331,0.993129597094083
2017-08-09,1,0.000754238853922966,0.001096337312209159,-0.004371551023655301,0.008476288812639583,0.9923586982630423
2017-08-11,-1,-0.0005231370903476639,-0.0005145395193889093,-0.0035540848580908647,0.008476288812639583,0.9922322857664868
2017-08-15,-1,-0.0003546311983716401,-0.00033252651533204844,-0.002956656164438921,0.008476288812639583,0.9923075355615395
2017-08-17,-1,-0.0013684471146122176,-0.0012429092586542917,-0.0006931546630621359,0.008476288812639583,0.9922405127631615
2017-08-21,-1,-0.0010556821466635885,-0.0010020866858469325,0.0006454536777317784,0.008476288812639583,0.9922378845518914
2017-08-23,-1,-0.0005678019868658464,-0.0005676112957176555,-0.00021331545763631502,0.008476288812639583,0.9931151506152307
2017-08-25,-1,-0.0007246318746265105,-0.0006866200884296376,0.0004271774234007549,0.008640682965423405,0.9926471527715641
2017-08-29,-1,-0.0007930455382084247,-0.0007322350528525092,0.0004311278148952437,0.008640682965423405,0.9928690308106936
2017-08-31,-1,-0.00011703858288411443,-9.695832802688337e-05,0.0004177395858192782,0.007915439448336288,0.9939552574835913
2017-09-05,1,0.0012229290722366708,0.0013638436469428205,0.0004177395858192782,0.00884068634984593,0.9944955329889115
2017-09-07,1,0.0010429559113865807,0.0011992371796974107,-0.0008414106560617937,0.007915439448336288,0.9950547893043395
2017-09-11,1,0.0009566426457658042,0.0010864810590886199,0.0004177395858192782,0.007915439448336288,0.9951699695812207
2017-09-13,1,0.0017721790234280568,0.002036409758393006,-0.0008147057807140387,0.005827353797340487,0.9957847052371458
2017-09-15,1,0.0019907791897477087,0.0023087159645685243,-0.0008414106560617937,0.005608150102268087,0.9947567684373899
2017-09-19,1,0.0022470845731993056,0.0025958678056505237,-0.0008414106560617937,0.006468301786975542,0.9944002392938672
2017-09-21,1,0.002168054212555036,0.002497515624515508,-0.0014384671870481596,0.006468301786975542,0.994150779481806
2017-09-25,1,0.0020828678093856015,0.002341327069795394,-0.004288470122873694,0.004263407807453702,0.9938243379127808
2017-09-27,1,0.0021274203935979464,0.002401370783239902,-0.005162922264707232,0.005125770881814505,0.9927863829670928
2017-09-29,1,0.0021313778016864384,0.0024054499120124816,-0.005961673990342619,0.00686309062781231,0.99114645319551
2017-10-03,1,0.002772117535548402,0.0031002831030420455,-0.005961673990342619,0.005125770881814505,0.9917791828914203
2017-10-05,1,0.002337630919108674,0.002588903470652923,-0.005961673990342619,0.005986817644471728,0.992029547565852
2017-10-09,1,0.002191698149244483,0.0023735662229929875,-0.005961673990342619,0.005986817644471728,0.9915180212928186
2017-10-11,1,0.0021991687224599175,0.0024141422195727946,-0.008825110723777273,0.005986817644471728,0.990465267413708
2017-10-13,1,0.0017013632426140122,0.0018596827087943217,-0.0069459383116494845,0.005986817644471728,0.9915991027085636
2017-10-17,1,0.0019038869024128378,0.0020479437378931034,-0.008825110723777273,0.0058809837162493725,0.9910903247445909
2017-10-19,1,0.0020135060774215214,0.0022091031092759195,-0.008825110723777273,0.0058809837162493725,0.9913253086719986
2017-10-23,1,0.001969029697144475,0.0022088160569426396,-0.005679123037068082,0.007387886675772732,0.9917133692830903
2017-10-25,1,0.001685656149563999,0.001859612901222849,-0.0043018091456266064,0.0058809837162493725,0.9925086751877512
2017-10-27,1,0.001339283816145142,0.0014378079316215565,-0.002900111215538002,0.003916995442981175,0.9942520053208952
2017-10-31,1,0.0018756720662985804,0.002051342111800087,-0.002900111215538002,0.0058809837162493725,0.9932113429409322
2017-11-02,1,0.0024846522846100443,0.0027526401547409386,-0.00341988975351608,0.003698069975012463,0.9930476808338573
2017-11-06,1,0.0016234326589170095,0.0018141696062916176,-0.00341988975351608,0.004179005847161156,0.9928558615663101
2017-11-08,1,0.0009361653752914365,0.0010201402601481252,-0.0026649316942408507,0.005658634590079746,0.9933361052614289
2017-11-10,1,0.00042853196899995385,0.00044235304281492666,-0.0026649316942408507,0.006852920629660505,0.9931304032590452
