JNU-Tangyin/eata/results/Batch4_SP500/Batch4_SP500-TTWO.csv
Date,Action,Predicted_Q25,Predicted_Q75,Actual_Q25,Actual_Q75,RL_Reward
2010-12-14,0,0.0,0.0,-0.005296815124301264,0.0026425193593742034,0.9892868467541421
2010-12-16,1,0.0016430196040381163,0.0018516367170106872,-0.006921733406562982,0.004454881120525049,0.9873807115468295
2010-12-20,0,0.0,0.0,-0.009462958234471255,0.0026425193593742034,0.9905902970521389
2010-12-22,0,0.0,0.0,-0.010681439903503502,0.0026425193593742034,0.9894013754737754
2010-12-27,0,0.0,0.0,-0.009462958234471255,0.003874196423102375,0.9894193077152934
2010-12-29,0,0.0,0.0,-0.0068861206649094816,0.01191176038109109,0.9878326566697879
2010-12-31,0,0.0,0.0,-0.009462958234471255,0.01191176038109109,0.986159116456114
2011-01-04,0,0.0,0.0,-0.009462958234471255,0.019241744464857373,0.9814918874548082
2011-01-06,0,0.0,0.0,-0.0068861206649094816,0.021765743020341056,0.981034470438772
2011-01-10,1,0.0037883406349473077,0.00424120273077063,-0.0068861206649094816,0.01817086027027669,0.9820095890548526
2011-01-12,1,0.003270439947858199,0.0036611421367412356,-0.0068861206649094816,0.024112120685614687,0.9798702660775133
2011-01-14,0,0.0,0.0,-0.005199380560537897,0.022754068999862626,0.9792592579954144
2011-01-19,0,0.0,0.0,0.0012319465388215558,0.02771469946654884,0.9784366996241836
2011-01-21,0,0.0,0.0,0.0012319465388215558,0.02771469946654884,0.9798212631851709
2011-01-25,-1,-0.0012176455590964005,-0.0009147300455098963,-0.0014487821835212538,0.02771469946654884,0.978006297293992
2011-01-27,0,0.0,0.0,-0.0014487821835212538,0.028218781199924298,0.9784888135279487
2011-01-31,0,0.0,0.0,-0.005243061246003056,0.028218781199924298,0.9793127829313734
2011-02-02,0,0.0,0.0,-0.005243061246003056,0.01817086027027669,0.9835092656034846
2011-02-04,0,0.0,0.0,-0.01008431973502831,0.01652885042415518,0.9831779612318873
2011-02-08,1,0.002809702950579891,0.0029778457424316455,-0.011618318537798187,0.015441206858158302,0.9834568047186535
2011-02-10,0,0.0,0.0,-0.012925452863300432,0.009686936445554507,0.98555811328338
2011-02-14,1,0.01000611771681185,0.010911793928774859,-0.01347605840700736,0.005489758710182535,0.9822485243262273
2011-02-16,1,0.0044659502799624376,0.004870769359055066,-0.015099453733179448,0.001624339123728705,0.9854938813872179
2011-02-18,0,0.0,0.0,-0.013506193412000886,0.0070054180129147554,0.9877804098118279
2011-02-23,0,0.0,0.0,-0.010903696582836358,0.008050118370275458,0.9891527284611162
2011-02-25,-1,-6.259133179142727e-07,-5.896964128587203e-07,-0.010903696582836358,0.0070054180129147554,0.990319822899255
2011-03-01,1,0.001850791636466354,0.002162978921311012,-0.0074993554928229535,0.008050118370275458,0.9900881821105407
2011-03-03,1,0.008186384627162943,0.008817499847882116,-0.012394366089574244,0.0070054180129147554,0.9867111379464045
2011-03-07,0,0.0,0.0,-0.012394366089574244,0.0070054180129147554,0.9894805407808297
2011-03-09,1,0.001065559685138068,0.0013064166780591942,-0.0074993554928229535,0.009123862754785245,0.9888260079022893
2011-03-11,1,0.00016064540584200584,0.0001955513324792315,-0.006043062656699103,0.009123862754785245,0.9889775564828693
2011-03-15,-1,-0.0009243673386002139,-0.0007587097844425661,-0.006395934563193307,0.009123862754785245,0.988257060875049
2011-03-17,0,0.0,0.0,-0.006043062656699103,0.01008764456268962,0.9885517425120024
2011-03-21,0,0.0,0.0,-0.006395934563193307,0.01275457404568014,0.9875243515545059
2011-03-23,0,0.0,0.0,-0.006395934563193307,0.014351311943699735,0.9873757202875642
2011-03-25,0,0.0,0.0,-0.006904741145732845,0.010251126596305307,0.9878941969486675
2011-03-29,1,0.0030279553699354375,0.0030988970514633247,-0.006904741145732845,0.010251126596305307,0.9865495007072037
2011-03-31,1,0.0012975022562633314,0.0014597145116990405,-0.0065082311836603245,0.010251126596305307,0.9880279621349598
2011-04-04,1,0.000552222360035531,0.0007920502217140859,-0.0065082311836603245,0.010251126596305307,0.9885441826682685
2011-04-06,1,0.0024748685308456503,0.0025127406438814354,-0.007083119807759273,0.007819609684727308,0.9881704357165311
2011-04-08,1,0.0005593390927244871,0.0008560772836661971,-0.007083119807759273,0.009074414750250413,0.988519231299375
2011-04-12,0,-0.00031542313625958717,4.364311845515725e-05,-0.007083119807759273,0.009664231690072543,0.9883655685721668
2011-04-14,-1,-0.0006506295518633671,-0.00019788565252310355,-0.007083119807759273,0.00948548436075828,0.9886815307412432
2011-04-18,-1,-0.0017386008373722925,-0.001093303063677218,-0.005396439735710561,0.00948548436075828,0.9866534829848815
2011-04-20,-1,-0.0005968189831303977,-0.00010945372765806599,-0.005396439735710561,0.00948548436075828,0.9864917705754015
2011-04-25,-1,-0.0014244398681329577,-0.0008375393444503103,-0.007083119807759273,0.00948548436075828,0.9845056020989272
2011-04-27,1,0.0009159409196347162,0.0011880456931446664,-0.008219060737775586,0.00948548436075828,0.9834396206058087
2011-04-29,0,0.0,0.0,-0.0118086192740223,0.00948548436075828,0.9828296943034973
2011-05-03,0,0.0,0.0,-0.0118086192740223,0.00948548436075828,0.9832523860090954
2011-05-05,0,0.0,0.0,-0.007688055135728273,0.009042021799131614,0.9845768183217388
2011-05-09,0,0.0,0.0,-0.011127686638087622,0.0021058872229108593,0.9842391488993738
2011-05-11,0,0.0,0.0,-0.019233820039731238,0.0021058872229108593,0.9829323199774455
2011-05-13,0,0.0,0.0,-0.019233820039731238,0.0021058872229108593,0.9823078559434906
2011-05-17,0,0.0,0.0,-0.022925776565440408,-0.0013158195603617268,0.9834042991663341
2011-05-19,0,0.0,0.0,-0.022925776565440408,-0.001378620397878542,0.9843199882018647
2011-05-23,0,0.0,0.0,-0.019233820039731238,0.0021058872229108593,0.9855357438611331
2011-05-25,0,0.0,0.0,-0.012816544876770003,0.0021058872229108593,0.9867351232763593
2011-05-27,0,0.0,0.0,-0.012816544876770003,0.002415464898795343,0.9857901827951021
2011-06-01,0,0.0,0.0,-0.012816544876770003,0.008359976928413922,0.9852308108336838
2011-06-03,0,0.0,0.0,-0.012816544876770003,0.009287209619149916,0.9849174000546201
2011-06-07,-1,-0.0012389522364475289,-0.0005652942314759617,-0.009401221806993449,0.009678295114481358,0.9855928687264568
2011-06-09,0,0.0,0.0,-0.009401221806993449,0.009287209619149916,0.9872468022357085
2011-06-13,0,0.0,0.0,-0.00840665268753045,0.009287209619149916,0.9863331037013564
2011-06-15,-1,-0.007449792685439722,-0.006149998594886461,-0.005960761385612433,0.009287209619149916,0.9872908038267324
2011-06-17,-1,-0.007603249681575567,-0.006288704823685099,-0.00899474856274542,0.009287209619149916,0.9876188641959224
2011-06-21,-1,-0.005560296488968391,-0.0045515506918198615,-0.011880893974266352,0.008235093603070103,0.9882621217443096
2011-06-23,-1,-0.005769747483046809,-0.0046707209779378225,-0.011880893974266352,0.007879270249677574,0.9891704069831759
2011-06-27,-1,-0.0038384170987168535,-0.003142228551951058,-0.009121596473585842,0.006810901945577801,0.9909820973814918
2011-06-29,-1,-0.002692753187761973,-0.0021743671579349893,-0.011880893974266352,0.0012388966726677893,0.990163410958136
2011-07-01,-1,-0.0019068489535385908,-0.0015397785432004131,-0.014997297088483054,-0.0008380344356471899,0.9899175676086484
2011-07-06,0,0.0,0.0,-0.017668085520854315,-0.0008380344356471899,0.9868252154197843
2011-07-08,0,0.0,0.0,-0.01836050514353868,-0.0014031409397213994,0.984405183652145
2011-07-12,0,0.0,0.0,-0.01836050514353868,-0.0008380344356471899,0.9796629239391174
2011-07-14,0,0.0,0.0,-0.022336902333362964,0.0012388966726677893,0.9752904311901379
2011-07-18,0,0.0,0.0,-0.022336902333362964,0.01800519701524477,0.97342051360753
2011-07-20,0,0.0,0.0,-0.024917226224528487,0.007456715379857407,0.9738949775368194
2011-07-22,0,0.0,0.0,-0.031100281701671853,0.005870755959017698,0.9717746803383701
2011-07-26,-1,-0.006421190584242153,-0.006367757825059425,-0.031100281701671853,0.021696037261687562,0.9692853042297513
2011-07-28,-1,-0.007265100001203084,-0.007127792126702775,-0.02687750392442816,0.021696037261687562,0.9694909216191891
2011-08-01,0,0.0,0.0,-0.02687750392442816,0.030427943434872894,0.9670186676688407
2011-08-03,0,0.0,0.0,-0.014427859916134751,0.035348402415049426,0.9679066541369974
2011-08-05,-1,-0.00934492118557245,-0.008264207366136976,-0.01816290235182458,0.035348402415049426,0.966967236471985
2011-08-09,0,0.0,0.0,-0.007905521389137377,0.03470753025042287,0.9738351391767184
2011-08-11,0,0.0,0.0,-0.003849652111892153,0.029725252883269323,0.9776761204761314
2011-08-15,-1,-0.007983571417906251,-0.007071542755414673,-0.003849652111892153,0.02771091011129686,0.9761486945880453
2011-08-17,-1,-0.008469599023162204,-0.007548144307638132,0.0,0.02771091011129686,0.975181499095839
2011-08-19,0,0.0,0.0,0.0005357265472412109,0.02771091011129686,0.9816897914523599
2011-08-23,0,0.0,0.0,-0.007075947361479111,0.01779769725948638,0.9829372587921383
2011-08-25,0,0.0,0.0,-0.01389193650875334,0.022348222814079437,0.9805525229419711
2011-08-29,-1,-0.00282980168256485,-0.0026195645377097353,-0.01389193650875334,0.01605171146914505,0.9817456670198343
2011-08-31,-1,-0.0013521972124995519,-0.0012983623036147954,-0.016389714003630484,0.015939916487830327,0.9817853478537055
2011-09-02,-1,-0.003693268108557166,-0.0033156678300014547,-0.01893031827240424,0.015939916487830327,0.9801628826246098
2011-09-07,-1,-0.0018958181122420263,-0.0017583803459864868,-0.01893031827240424,0.016059191122116505,0.9784561101493566
2011-09-09,1,3.3051224949232506e-05,0.00011879464419233291,-0.027917496177369466,0.016059191122116505,0.9754598627813167
2011-09-13,1,0.0010907833619032744,0.0013775928368941373,-0.027917496177369466,0.020266852079793937,0.9735304927843369
2011-09-15,1,0.0015299387269776294,0.0018557268814296296,-0.027917496177369466,0.020266852079793937,0.9738163867347192
2011-09-19,1,0.0019330701890942774,0.002418003290333751,-0.027917496177369466,0.020266852079793937,0.9733111105745931
2011-09-21,1,0.0006182185059082071,0.0009337761046301607,-0.028036496438837467,0.021468748093657355,0.9729937721348162
2011-09-23,-1,-0.0002456750142885998,-6.525777912063117e-05,-0.019778388562646,0.02113336314971319,0.9754377905910768
2011-09-27,1,0.0008307882387814362,0.0011144532073454993,-0.019778388562646,0.022254708515474043,0.9734688386128123
2011-09-29,1,0.0005288193654228682,0.0007987601169667246,-0.010783938219683802,0.027534919166972417,0.9741998227243283
2011-10-03,-1,-0.0015438444715910227,-0.0014990358240942988,-0.006315019200477078,0.02813911266538183,0.9743814046236521
2011-10-05,1,0.0015794589276400053,0.002013477760323087,-0.010783938219683802,0.025345103260347383,0.9764041998417653
2011-10-07,1,0.0038678007908698585,0.004770460847908125,-0.006315019200477078,0.023454028826291298,0.9808682881568931
2011-10-11,0,0.0,0.0,-0.010783938219683802,0.021691482981723062,0.9820776495488915
2011-10-13,0,0.0,0.0,-0.018309741886100635,0.021691482981723062,0.9785003407574675
2011-10-17,1,0.0050811736825036,0.006086021810033133,-0.017416975746880337,0.021857351563903765,0.9791025473274573
2011-10-19,1,0.004981407330346387,0.005946210768474656,-0.020918235403880433,0.021346999072177544,0.9784197431178095
2011-10-21,1,0.005474393808675437,0.0064992271182233476,-0.020918235403880433,0.021346999072177544,0.9776891848723648
2011-10-25,1,0.008191805018685015,0.009556327823281793,-0.020918235403880433,0.01203298715751903,0.978513621565399
2011-10-27,1,0.009061355301156808,0.010491456648133203,-0.020918235403880433,0.006960930418712994,0.9779789493421803
2011-10-31,1,0.008403714279006658,0.00974776970690976,-0.019715194250708282,0.006960930418712994,0.9774602774531242
2011-11-02,1,0.006789058421194517,0.007885955258764543,-0.018649241323853295,0.006960930418712994,0.9793543544511065
2011-11-04,1,0.006162365390767579,0.007059401383779867,-0.018649241323853295,0.006960930418712994,0.9782204328423084
2011-11-08,1,0.005535274407511892,0.006339580951799652,-0.01683065400903861,0.00899508349368957,0.9791882972341845
2011-11-10,1,0.0035794744708479856,0.004184913477468618,-0.01683065400903861,0.012997685959806464,0.9816267953381422
2011-11-14,1,0.003914315809785173,0.004600695385999977,-0.018649241323853295,0.00899508349368957,0.9819904182842851
2011-11-16,1,0.0021703222305114256,0.0026167734870714294,-0.01573820305262328,0.011751527998795001,0.9836991794028129
2011-11-18,1,0.002219032661387225,0.0027013438314638654,-0.016107106866070406,0.011751527998795001,0.9831398932170982
2011-11-22,1,0.0021184888749000734,0.0025946575017548133,-0.01528113963031413,0.016744315539678156,0.982812881469687
2011-11-25,1,0.001799747574850952,0.0022453569961041644,-0.01528113963031413,0.020539601746969463,0.9826746221848294
2011-11-29,1,0.0027303991308952258,0.0032889742185728266,-0.01528113963031413,0.016744315539678156,0.9841334952348977
2011-12-01,1,0.0024661141807408703,0.0029188879270348354,-0.01528113963031413,0.0122700940481065,0.9851315982422423
2011-12-05,1,0.002911526755637048,0.003389050508014678,-0.01528113963031413,0.0122700940481065,0.9857198924616241
2011-12-07,1,0.0026735664887925364,0.0030816041024461184,-0.01528113963031413,0.01680112786393508,0.9840253526436298
2011-12-09,1,0.002480764470632637,0.002856937788962778,-0.01528113963031413,0.0122700940481065,0.9847139160911762
2011-12-13,1,0.0016899486604009962,0.0019468323869131355,-0.007630849866575698,0.0122700940481065,0.9857226606692474
2011-12-15,1,0.0015930388065992765,0.001837541766094606,-0.005187183071684863,0.013573064333374886,0.9860798124844676
2011-12-19,1,0.0001701047286371802,0.00019088187804495527,-0.0035456517516924855,0.020725420288951614,0.9852956002165675
2011-12-21,0,0.0,0.0,-0.002385138781675452,0.013573064333374886,0.9866795680940771
2011-12-23,0,0.0,0.0,-0.0017180371750293633,0.012353334559999844,0.987024949874013
2011-12-28,-1,-0.0025999526320072855,-0.002069237938261306,-0.0003311333983179206,0.017390575837339026,0.9855477074073099
2011-12-30,-1,-0.0027153940939525474,-0.002135730605690277,-0.0022729894963022133,0.017390575837339026,0.9861000089673556
2012-01-04,-1,-0.0025698426170115097,-0.0019448226462336156,-0.003183140757825746,0.011650080074810084,0.9874404426337612
2012-01-06,1,0.0001145493591247212,0.0003359590695693912,-0.003183140757825746,0.011650080074810084,0.9890108459916127
2012-01-10,-1,-0.001385084493591966,-0.000931000884806617,-0.003183140757825746,0.011650080074810084,0.9895789478970252
2012-01-12,0,0.0,0.0,-0.005210508715511037,0.011650080074810084,0.9885885690245023
2012-01-17,0,0.0,0.0,-0.005646783295257765,0.011647981233245928,0.9887052445779329
2012-01-19,0,0.0,0.0,-0.006175210671343372,0.006777590225380187,0.9892052206738433
2012-01-23,0,0.0,0.0,-0.010256078532726563,0.006777590225380187,0.9882377444383295
2012-01-25,0,0.0,0.0,-0.010256078532726563,0.00986458222788138,0.9878609811731492
2012-01-27,1,0.0015611772762289186,0.001589996789086118,-0.009181309550063445,0.0066469842265628395,0.9899884119927689
2012-01-31,1,0.0016363806195894984,0.0016511216886965965,-0.009181309550063445,0.0066469842265628395,0.9897880790047611
2012-02-02,1,0.002162915791984131,0.002291514088104075,-0.009181309550063445,0.005128887815982438,0.9902235076543
2012-02-06,1,0.0029828592573024957,0.003261972514602714,-0.009181309550063445,0.004639553472516864,0.9907944353444119
2012-02-08,1,0.002516673478298259,0.0027357038928473663,-0.008539650907143856,0.004639553472516864,0.9913055102402011
2012-02-10,1,0.0016040885015437825,0.0016690697412634439,-0.006899891863860472,0.006697556897836916,0.9920529564610248
2012-02-14,1,0.0008180944953947763,0.0009196190955470199,-0.006899891863860472,0.004819444055079336,0.9925172691843215
2012-02-16,0,0.0,0.0,-0.004996085621231817,0.0071416098554765136,0.9925417421396979
2012-02-21,0,0.0,0.0,-0.0016115746810918714,0.0071416098554765136,0.9931087875189142
2012-02-23,0,0.0,0.0,-0.004996085621231817,0.0058236147719130235,0.9937147357045556
2012-02-27,-1,-0.001133789382875444,-0.0007243568648830723,-0.004996085621231817,0.006248027726763181,0.9931669246845373
2012-02-29,0,-9.683102172405828e-05,5.640707842273393e-05,-0.006841347420338706,0.006248027726763181,0.9925611125837257
2012-03-02,1,0.00027218044471533754,0.0003572094604331942,-0.008252255776483083,0.006248027726763181,0.9919306769692914
2012-03-06,1,0.0007697649440350336,0.0008222665015870029,-0.008252255776483083,0.006248027726763181,0.9920237349585813
2012-03-08,1,0.0010318251870881328,0.0011053215031815503,-0.009014275257507295,0.0059313211201624085,0.9917133514718544
2012-03-12,1,0.0009157783875234647,0.0009336926884325528,-0.010426692526761441,0.0038938663351211584,0.9907879046756354
2012-03-14,1,0.0005175723088976513,0.0005543186598468775,-0.009014275257507295,0.0038938663351211584,0.9917106311461921
2012-03-16,1,0.0011078928365503371,0.0011674378359579057,-0.010426692526761441,0.00016961039750880078,0.9903504065554996
2012-03-20,1,0.0018428429056538197,0.002109617649712383,-0.011767177895713384,0.00016961039750880078,0.9881602670773313
2012-03-22,1,0.0020070760884164335,0.002341432246371744,-0.012547144355583826,0.00016961039750880078,0.9874567511716076
2012-03-26,1,0.002322900548277211,0.002695541009559091,-0.014143467750675202,-0.003863486401236522,0.98660128836886
2012-03-28,0,0.0,0.0,-0.012854176972128628,0.0013210345054756449,0.9873835773972474
2012-03-30,1,0.0017447751372889426,0.0020621351945240085,-0.013731204242212226,0.003313806267529539,0.9869310758246171
2012-04-03,1,0.001622387561312904,0.0019014004052741924,-0.016267897019693604,0.00016961039750880078,0.9851962782418507
2012-04-05,1,0.00021385475001254984,0.00022943695481784482,-0.01721173146340265,0.0013860275212082144,0.9856981231907315
2012-04-10,-1,-0.0008049996122631414,-0.0006631226359367065,-0.016267897019693604,0.002555033762269525,0.9874717741943182
2012-04-12,-1,-0.0016987896527308683,-0.0013790669730478166,-0.01721173146340265,0.003920243168988757,0.9845621979855579
2012-04-16,-1,-0.002993536717551016,-0.0025110995963385165,-0.016267897019693604,0.003920243168988757,0.9861461558153937
2012-04-18,-1,-0.0027477373492840462,-0.002281141728633567,-0.017616283723618658,0.002555033762269525,0.9862527689996825
2012-04-20,-1,-0.003975158110133192,-0.0033306332394955175,-0.020508652854784034,0.002555033762269525,0.9846171915725667
2012-04-24,-1,-0.004459074912493043,-0.003789743806107814,-0.020508652854784034,0.003920243168988757,0.984586973043942
2012-04-26,-1,-0.002818429961123245,-0.002366633154442816,-0.021801495871951914,0.002555033762269525,0.9825985224304985
2012-04-30,-1,-0.002859937941950185,-0.002431464451722394,-0.021801495871951914,0.004546703036587045,0.9815309077604562
2012-05-02,0,0.0,0.0,-0.021801495871951914,0.004546703036587045,0.9810458215476779
2012-05-04,0,0.0,0.0,-0.023890282967644137,0.0027638537181356206,0.9795246166362183
2012-05-08,0,0.0,0.0,-0.023890282967644137,0.007935229865031963,0.9765814519397019
2012-05-10,0,0.0,0.0,-0.024877929490086503,0.005045378620854286,0.9766810806294602
2012-05-14,0,0.0,0.0,-0.027230186653272946,0.009860085249392012,0.9750639017405683
2012-05-16,-1,-0.009977858086547541,-0.008741432319419318,-0.027230186653272946,0.009860085249392012,0.9776394430592424
2012-05-18,-1,-0.011856705293117796,-0.010441680667024555,-0.02324937766450108,0.009860085249392012,0.9791329440310695
2012-05-22,-1,-0.012292716220526814,-0.010766030367567396,-0.02324937766450108,0.018998891815570913,0.9781021278489148
2012-05-24,-1,-0.010860854092937505,-0.009536596816640312,-0.025307470743843777,0.007756144801404047,0.9798833100038434
2012-05-29,-1,-0.008850715684427222,-0.00780423970403727,-0.02612666331022481,0.002272798145204793,0.9806781228143912
2012-05-31,-1,-0.008688664413741607,-0.007753575600037366,-0.02612666331022481,0.002272798145204793,0.9806075342254147
2012-06-04,0,0.0,0.0,-0.02451008837573712,0.006748075920599679,0.9794695044983487
2012-06-06,0,0.0,0.0,-0.02612666331022481,0.002272798145204793,0.9793231593856496
2012-06-08,-1,-0.007801020597630809,-0.006930159020805294,-0.02270446477647265,0.002272798145204793,0.9833955032429086
2012-06-12,-1,-0.007382211858066855,-0.006614422008533067,-0.02153927201956913,0.002272798145204793,0.9846504909141692
2012-06-14,-1,-0.00907751251997134,-0.008126044999127516,-0.01822332730395649,0.002272798145204793,0.9863240813836662
2012-06-18,-1,-0.008026290726348678,-0.0072371654813567,-0.01822332730395649,0.0026192950170587995,0.9856635631161806
2012-06-20,-1,-0.006733877931069429,-0.006138072253158482,-0.01822332730395649,0.006945266691338553,0.9822579889486539
2012-06-22,-1,-0.008163214895544682,-0.007418140927136109,-0.022141376116322938,0.006945266691338553,0.9810568546015175
2012-06-26,-1,-0.009503657765564454,-0.008628811335229074,-0.016994156514729707,0.006945266691338553,0.9818588169061647
2012-06-28,-1,-0.009321979934480638,-0.008540792459855891,-0.01833796656217204,0.016239296620596342,0.9794916472624542
2012-07-02,-1,-0.00831644888664954,-0.0076553901714115314,-0.022566607508015604,0.006945266691338553,0.9791935075173049
2012-07-05,-1,-0.008435306934143178,-0.0077641397505620584,-0.022566607508015604,0.00356899555714547,0.9780210769834503
2012-07-09,-1,-0.00859048409427129,-0.007933065046260951,-0.022566607508015604,0.016239296620596342,0.9729348224568419
2012-07-11,-1,-0.008790694294220188,-0.008093983080732458,-0.026331053267386204,0.02412773728629023,0.9670594882937862
2012-07-13,-1,-0.01001274142660795,-0.00914648022810724,-0.025820734473882508,0.035531708835014,0.963857187396218
2012-07-17,-1,-0.008327484840176824,-0.007724255973220026,-0.033010580322273,0.035531708835014,0.963286658092188
2012-07-19,-1,-0.0041142119938327275,-0.004028892753837859,-0.033010580322273,0.04484671057955985,0.9616050033605925
2012-07-23,-1,-0.007057196549803541,-0.006637951226755696,-0.02423128304601699,0.04484671057955985,0.9623082864570218
2012-07-25,-1,-0.006872669824606647,-0.006512648880377812,-0.02423128304601699,0.04484671057955985,0.9625570483506676
2012-07-27,0,0.0,0.0,-0.02161633875593516,0.03799573228574743,0.9643191038646293
2012-07-31,0,0.0,0.0,-0.015822193717574567,0.04008676870137641,0.9638916653460398
2012-08-02,-1,-0.008918965700959666,-0.008422066774219677,-0.015822193717574567,0.04008676870137641,0.9670158590385458
2012-08-06,-1,-0.004360900087282134,-0.004333607226882855,-0.02003608459665551,0.026883954881668944,0.9703340351005614
2012-08-08,-1,-0.0015947885875836133,-0.0011310616139953832,-0.015822193717574567,0.026883954881668944,0.9748467628586436
2012-08-10,1,0.0005204379244296265,0.0012818035408816418,-0.01391220235233788,0.02240897859178776,0.9773754367356368
2012-08-14,-1,-0.0012923197675995524,-0.0007731999410092,-0.01213410414340009,0.02240897859178776,0.9782350048152703
2012-08-16,1,0.0037323478646732688,0.0049682084818653514,-0.01213410414340009,0.020681110225426118,0.9831094127628427
2012-08-20,1,0.005330056864938736,0.0067442823297752166,-0.01213410414340009,0.01953876188899979,0.9839015634956323
2012-08-22,1,0.004757006046878471,0.006071181591784423,-0.013494315290406973,0.01953876188899979,0.984043769440267
2012-08-24,1,0.005318636197298415,0.006745690304753006,-0.013787899618912088,0.01953876188899979,0.9837396779122873
2012-08-28,1,0.006148709019001385,0.007668940309222856,-0.01586600105827495,0.01680742204658109,0.9843495582111985
2012-08-30,1,0.004647065007212561,0.005910471695976584,-0.014095317754167868,0.01680742204658109,0.9852926174979912
2012-09-04,1,0.004779418263412574,0.006061701413843961,-0.014095317754167868,0.012505268531935747,0.9860187776569814
2012-09-06,1,0.00546623055887817,0.006765235887225692,-0.014095317754167868,0.012505268531935747,0.9848035554653688
2012-09-10,1,0.007071689109498419,0.008648543520877136,-0.016477269940926867,0.012505268531935747,0.9827729293371802
2012-09-12,0,0.0,0.0,-0.01912801828219857,0.010695337090562581,0.9821188173597412
2012-09-14,0,0.0,0.0,-0.01912801828219857,0.012642898485301545,0.9797937787639077
2012-09-18,0,0.0,0.0,-0.01912801828219857,0.012642898485301545,0.9794292268280377
2012-09-20,1,0.008993570274749464,0.010824945734946531,-0.01912801828219857,0.012642898485301545,0.9777790173778353
2012-09-24,1,0.007704859231346511,0.009293984639156113,-0.01912801828219857,0.012642898485301545,0.9771492738340889
2012-09-26,0,0.0,0.0,-0.016477269940926867,0.019348250258897675,0.9791132603852161
2012-09-28,0,0.0,0.0,-0.021514914906604166,0.019348250258897675,0.9780973972381011
2012-10-02,0,0.0,0.0,-0.01863682833521362,0.022128357458922464,0.9771629399139258
2012-10-04,1,0.007288206411886285,0.008668613032194121,-0.01863682833521362,0.019348250258897675,0.9785585650937577
2012-10-08,1,0.0066422000735281254,0.007822693844777465,-0.022440395962681783,0.019348250258897675,0.977986395479877
2012-10-10,1,0.003244605951910464,0.0038402595194270426,-0.00919179456463716,0.02049250341865313,0.9806155923867584
2012-10-12,1,0.005937068440265439,0.006882607061709129,-0.00919179456463716,0.02049250341865313,0.9821338204755654
2012-10-16,1,0.007611541627851159,0.008848283338548717,-0.00919179456463716,0.011166583415164294,0.9823970706648252
2012-10-18,1,0.00818636015244652,0.00957657327741935,-0.00919179456463716,0.023052832523352842,0.9808912190766562
2012-10-22,1,0.0059712731311220395,0.0069952643638702475,-0.007627268004825384,0.023052832523352842,0.9832471720834687
2012-10-24,1,0.00597161110955385,0.006882001737210688,-0.007627268004825384,0.023052832523352842,0.9833348822214245
2012-10-26,1,0.0054507355828325565,0.006430880458097638,-0.0026803869516729517,0.023052832523352842,0.9858980250773081
2012-11-01,1,0.005773136322503397,0.0066523490435720575,-0.004406605011338049,0.01338268439240135,0.9863177991186965
2012-11-05,1,0.004823034698592424,0.005550301778827097,-0.0032999248506988214,0.01338268439240135,0.9869492252904145
2012-11-07,1,0.0030008404911334103,0.0033425948150894967,-0.0032999248506988214,0.009938036209004636,0.9888551046337934
2012-11-09,1,0.0033248306256358326,0.0037045712520032644,-0.0026292725493785585,0.010734123435918704,0.9893332341239576
2012-11-13,1,0.005080522100422453,0.00572437681477231,-0.0026292725493785585,0.012466042529951048,0.9894851170334716
2012-11-15,1,0.004205946702652593,0.0046516762470659966,-0.0026292725493785585,0.012466042529951048,0.989321407662458
2012-11-19,0,0.0,0.0,-0.003767006165488849,0.009938036209004636,0.9898169875753761
2012-11-21,1,0.0039045127050698113,0.004261830050782503,-0.007200006010312766,0.009938036209004636,0.9865486713691776
2012-11-26,0,0.0,0.0,-0.013976968461512607,0.008199432696550627,0.9852219151069165
2012-11-28,1,0.00547731065732994,0.005960531704581402,-0.013976968461512607,0.0058886884009631425,0.9832969981536683
2012-11-30,0,0.0,0.0,-0.013976968461512607,0.0058886884009631425,0.9853874471474977
2012-12-04,0,0.0,0.0,-0.013976968461512607,0.012466042529951048,0.9819107545372557
2012-12-06,0,0.0,0.0,-0.012729493790331333,0.01654922276937215,0.9815967069374603
2012-12-10,0,0.0,0.0,-0.01596368410758909,0.013905447221158097,0.9808149360442056
2012-12-12,0,0.0,0.0,-0.01596368410758909,0.007000345753435969,0.981451728351992
2012-12-14,1,0.0033884979270903046,0.0035046187075754246,-0.01596368410758909,0.014241308250082884,0.9800806385223809
2012-12-18,1,0.0011006185050508133,0.0015351046204400366,-0.01293478665572209,0.01691321371357831,0.9813073655617855
2012-12-20,-1,-0.001763051937891726,-0.001022720084937099,-0.009843744204230762,0.01691321371357831,0.9849683285645009
2012-12-24,-1,-0.004672694673445804,-0.0035172985189204486,-0.0037982879029505403,0.01691321371357831,0.9854309531052717
2012-12-27,-1,-0.007765114070388339,-0.00606375475442013,-0.0008249652524051543,0.021833858745971622,0.9816597082304236
2012-12-31,-1,-0.005713291833906138,-0.00442161611930578,-0.0014177711775883958,0.021833858745971622,0.9830658751473349
2013-01-03,-1,-0.002203511402190185,-0.001414106216597895,-0.003602296603282578,0.017817963467222465,0.9830696149181217
2013-01-07,0,-0.00036352074260085796,4.1968632527458445e-05,-0.005663816002006149,0.015748703368043696,0.9833554037218823
2013-01-09,-1,-0.002811854463881149,-0.0019966620995356694,-0.0017413823318228618,0.021833858745971622,0.9785092847866766
2013-01-11,1,0.0013137894969802821,0.0015328276167948657,-0.0017413823318228618,0.017817963467222465,0.9802852374810564
2013-01-15,1,0.002540029189776429,0.0025498503596019283,-0.0017413823318228618,0.016325513687102836,0.9808424408886789
2013-01-17,1,0.0012678012955994742,0.0013391430203665837,-0.00019936660510878922,0.016325513687102836,0.9815540873186047
2013-01-22,1,0.0017921257398400578,0.0019236149212322879,-0.0017413823318228618,0.018340327709367783,0.979139484208164
2013-01-24,1,0.001700200388943669,0.0017131157777869135,-0.006904368444898198,0.018340327709367783,0.9785590993580402
2013-01-28,1,0.0021366870302953573,0.0021495106039557707,-0.006904368444898198,0.013046832856537146,0.9800020745913927
2013-01-30,1,0.0018936422225501745,0.00202546337835173,-0.01208357245570292,0.013046832856537146,0.9794546934954049
2013-02-01,1,0.0015055901632386897,0.0015565907160993483,-0.006899229951222279,0.013046832856537146,0.9840720526840657
2013-02-05,1,0.0018138436855206464,0.0018593747934161592,-0.0033525571683341695,0.016747739727187287,0.9843764340423042
2013-02-07,1,0.004777321837436754,0.005180317907153103,-0.0033525571683341695,0.0063250411171293305,0.9898306242128622
2013-02-11,1,0.005811379460437081,0.006410839037999299,-0.0033525571683341695,0.005935358232874621,0.9893321659254295
2013-02-13,1,0.005325443262784901,0.005886101578079497,-0.0025953354562435436,0.008105035980986972,0.9898746884709122
2013-02-15,1,0.005117670811005187,0.005610421598449108,-0.006899229951222279,0.00669238788686637,0.98816357099544
2013-02-20,1,0.004406382575052368,0.004749861833574857,-0.006899229951222279,0.00669238788686637,0.9889671321544063
2013-02-22,1,0.0034422057647770544,0.0036126761607816658,-0.005472781372117524,0.00669238788686637,0.9893181413431681
2013-02-26,1,0.0028729516695428815,0.002936366521226406,-0.005472781372117524,0.01236768302772808,0.9886544329265013
2013-02-28,1,0.0014181293037665592,0.0015944387259463635,-0.0030430356904722912,0.01236768302772808,0.9896049441988212
2013-03-04,1,0.0034185826543561932,0.003630733584672729,-0.007518493435334667,0.00968290520957166,0.9884132440132805
2013-03-06,1,0.004154734098392756,0.004454645391379091,-0.013412528204431156,0.006565954048908419,0.9885875172715316
2013-03-08,1,0.002444400430247665,0.0025077101135816482,-0.013412528204431156,0.008199528271693242,0.9888343460722501
2013-03-12,1,0.003844958497522021,0.004125706805944838,-0.013412528204431156,0.008199528271693242,0.9886323658747391
2013-03-14,1,0.0049598225556352505,0.005426541816236742,-0.013412528204431156,0.006148519484436786,0.98865076539497
2013-03-18,1,0.0035876622429655176,0.003856080181017305,-0.011880195495903892,0.006148519484436786,0.9876354082113548
2013-03-20,1,0.0028947256399635226,0.0029798438574322175,-0.011880195495903892,0.0053072450478982396,0.9874572693461562
2013-03-22,1,0.0026860475646867245,0.0027940045839625555,-0.011880195495903892,0.008199528271693242,0.986050288280962
2013-03-26,1,0.002697182842806612,0.002712765742976626,-0.011880195495903892,0.009201320744080988,0.9850710989108319
2013-03-28,1,0.0038490537562664746,0.00405212761573103,-0.015563252779327116,0.009201320744080988,0.9839569013478271
2013-04-02,1,0.0017534667911757156,0.001871407203059055,-0.011268179688233623,0.009201320744080988,0.9845256854223371
2013-04-04,1,0.0006411071762272016,0.0009440660964378466,-0.010625069498690541,0.012795617689412248,0.9845322963351156
2013-04-08,1,0.0008182467441074774,0.0010882790944963536,-0.010625069498690541,0.014410308296093337,0.9835363693839307
2013-04-10,1,0.0024974316035092396,0.0025024362742007726,-0.010625069498690541,0.014410308296093337,0.9825491744684481
2013-04-12,1,0.0019949225678545365,0.0020540731681818474,-0.011181209015541616,0.01915732283463862,0.9812983950029817
2013-04-16,1,0.0010665514271389865,0.0011077225513647948,-0.009204825190932553,0.01915732283463862,0.9833961130998996
2013-04-18,-1,-0.0010228265327058435,-0.0007177166292192685,-0.010395228924632577,0.01915732283463862,0.9838292758801072
2013-04-22,1,0.0011708678641440037,0.001209095308060649,-0.010395228924632577,0.017785865114240473,0.9849646287767062
2013-04-24,1,0.003234583522531564,0.0034856475019695255,-0.011890421440838402,0.010007633915515974,0.9859720304958635
2013-04-26,1,0.0020118007249320365,0.002053576758484,-0.01032805477635606,0.010007633915515974,0.9872543627827984
2013-04-30,1,0.0007752758870271433,0.0009005531210502669,-0.00893486947915836,0.013488298896353843,0.9873445458686051
2013-05-02,1,0.0004084637102313751,0.000601073079232774,-0.007670519132937011,0.013631857570289351,0.9877577193111102
2013-05-06,1,0.001550698980060836,0.00156118131052241,-0.011258408808473947,0.011023173816040416,0.9873913918386272
2013-05-08,1,0.003776932066236021,0.004145992036108775,-0.011258408808473947,0.009474577678982183,0.9884721172595209
2013-05-10,1,0.0041167858299942664,0.004507378123884718,-0.011258408808473947,0.009474577678982183,0.9865193487547695
2013-05-14,1,0.0032220862385622436,0.003410271347248647,-0.011890421440838402,0.011023173816040416,0.9821641503022565
2013-05-16,0,-8.966146461514648e-05,0.00031361776288355903,-0.009244987489864322,0.011023173816040416,0.9835916510394039
2013-05-20,-1,-0.0010852061894143171,-0.0004770000078810556,-0.009244987489864322,0.00895409815361331,0.984285383728239
2013-05-22,-1,-0.002650631541017707,-0.001760163846867821,-0.012208843347354587,0.00895409815361331,0.9834857739737083
2013-05-24,-1,-0.0026812273036903333,-0.0018659760362299388,-0.016508014208317563,0.00895409815361331,0.9824230023308242
2013-05-29,0,-0.00025922608588884073,0.00018335893693458873,-0.020076947582881796,0.0072639551972677584,0.9816863253160002
2013-05-31,1,0.00027160440672147675,0.0006527896134604775,-0.020076947582881796,0.008421113868161295,0.9797435949692223
2013-06-04,-1,-0.001831055220964215,-0.0011623714068911561,-0.016508014208317563,0.010424525564847475,0.9799144498469621
2013-06-06,-1,-0.0013602254320745713,-0.0008342409558632798,-0.016508014208317563,0.016617567573395015,0.9795582067434949
2013-06-10,1,2.7005788412499433e-05,0.0004133363485545735,-0.012982659547923277,0.016617567573395015,0.9820923229468027
2013-06-12,-1,-0.0033960254814486062,-0.002637953740346598,-0.006993721275834533,0.010978421745997193,0.985579136483903
2013-06-14,-1,-0.002996769715561906,-0.0022450697498070512,-0.01050680485033732,0.010978421745997193,0.9856904356503731
2013-06-18,0,0.0,0.0,-0.01050680485033732,0.017959353415638406,0.9854164795631941
2013-06-20,0,0.0,0.0,-0.0018084661729377248,0.017959353415638406,0.9860095876878622
2013-06-24,-1,-0.005417434696666051,-0.004502741609693103,-0.001693444457416201,0.017959353415638406,0.9853309555284852
2013-06-26,0,0.0,0.0,-0.001693444457416201,0.017959353415638406,0.9882137091848953
2013-06-28,-1,-0.004570437082640054,-0.0037277407284517844,-0.001693444457416201,0.015786637737564592,0.9875597841783847
2013-07-02,-1,-0.0009065736805760693,-0.0007071085271851456,-0.001693444457416201,0.015786637737564592,0.9888038299841921
2013-07-05,0,0.0,0.0,-0.0016788446638976938,0.01624764385901729,0.9882809983663587
2013-07-09,0,-4.8012630639963265e-05,4.9273674109711534e-05,-0.0016788446638976938,0.013865494583394259,0.9887065147540048
2013-07-11,1,0.0006393907274358496,0.0006398322631873164,-0.0016788446638976938,0.01625535814148955,0.988241578220543
2013-07-15,1,0.0003070849288714986,0.00034088425008271025,0.0007268942848190675,0.01625535814148955,0.9882718127363165
2013-07-17,1,0.0009584327288272909,0.000980937324740223,-0.0036192824728501103,0.013865494583394259,0.9891186609194013
2013-07-19,1,0.001513384308613401,0.0015963180415029508,-0.0048446855045327815,0.01004227509416045,0.9899759060730714
2013-07-23,1,0.0005452542422211774,0.0006207367504703299,-0.003633054554312796,0.014904784839526257,0.9880737560061477
2013-07-25,1,0.0008009016431955937,0.0008060028815710564,-0.003633054554312796,0.020205445762374475,0.9862356533093946
2013-07-29,1,0.002346682683378251,0.002600152360896624,-0.005116462864618843,0.015597441276501228,0.9872337408722414
2013-07-31,1,0.0032405341554981324,0.003606514040697446,-0.0067752435497004035,0.014854724836943113,0.9860677041094459
2013-08-02,1,0.0042841755570346305,0.004796799989527621,-0.011047989906453008,0.014519608556120275,0.9853600986606995
2013-08-06,1,0.004209022477169958,0.004756888989803804,-0.0067752435497004035,0.015245211627727209,0.9857050621935161
2013-08-08,1,0.004510828776500536,0.005034647878348304,-0.011047989906453008,0.014519608556120275,0.98495089927741
2013-08-12,1,0.00487671983872724,0.005464676907364362,-0.016102032640574544,0.015245211627727209,0.9831504098249426
2013-08-14,1,0.004091157982923558,0.004545381932250382,-0.019235016440012263,0.015245211627727209,0.9815558011206298
2013-08-16,1,0.004464862246238477,0.005028439071898702,-0.019235016440012263,0.015946955107281006,0.9800935700278638
2013-08-20,1,0.004802417432892975,0.0054219549255493625,-0.01924011186987589,0.015245211627727209,0.9807664250063846
2013-08-22,1,0.004884747446633649,0.00543715431830513,-0.021440664822236607,0.014519608556120275,0.9815799907399341
2013-08-26,1,0.004704035010872095,0.005202954017082039,-0.021440664822236607,0.015245211627727209,0.9801062942792564
2013-08-28,1,0.003827256703604528,0.00421226985908017,-0.01924011186987589,0.015245211627727209,0.9823265641351956
2013-08-30,1,0.0035956405269548814,0.00398626624899156,-0.01789761578575725,0.014543245479234128,0.9833588348805413
2013-09-04,1,0.0037603491760952257,0.004156280231299638,-0.01789761578575725,0.013560535152884716,0.9831123662723711
2013-09-06,1,0.0017277446488805468,0.0017280676831526879,-0.01789761578575725,0.013560535152884716,0.9828607544171851
2013-09-10,1,0.00039093708551729393,0.0006340279409936493,-0.021018651455284122,0.01216657952484444,0.9817263857525896
2013-09-12,-1,-0.0005823390658570765,-0.0003185761988698831,-0.018208555897803683,0.012695707186016193,0.9833302438079485
2013-09-16,1,0.0007375622842222933,0.0007543200002596518,-0.017258185649955658,0.012695707186016193,0.9840686433557547
2013-09-18,0,-0.0001002368560537212,5.089451447000442e-05,-0.013309147663930265,0.012695707186016193,0.9847943351911322
2013-09-20,-1,-0.0012646910479807176,-0.0009339935478635253,-0.010964692600663989,0.011785660038167152,0.9858642102411328
2013-09-24,1,0.0010689844875472452,0.0011276309899647893,-0.010964692600663989,0.007594683867713804,0.9886862883683094
2013-09-26,1,0.0019023547449868038,0.0019787250822048937,-0.013309147663930265,0.006125194033277205,0.9886758907833392
2013-09-30,1,0.0021035463482378613,0.002282287222772219,-0.010964692600663989,0.00861788299297206,0.9881349728690969
2013-10-02,1,0.0021823186542913138,0.002396383502105381,-0.013433111728389355,0.008846081083374112,0.9862685019327285
2013-10-04,1,0.0014932796035933265,0.0016222587674058835,-0.010964692600663989,0.013170570442199298,0.985415755822347
2013-10-08,-1,-0.0015000777343566216,-0.0012004717473226704,-0.004547413204187577,0.015556814620115754,0.9860335828878909
2013-10-10,-1,-0.0007320329649072813,-0.0005413044215512855,-0.010964692600663989,0.015556814620115754,0.9848580752753708
2013-10-14,-1,-0.0010056722135081929,-0.0007416538402526405,-0.00712444665979271,0.015556814620115754,0.9846350253342695
2013-10-16,-1,-0.0012072253751644418,-0.0009391694584808338,-0.005259097784598709,0.015556814620115754,0.9845587259820014
2013-10-18,-1,-0.00017775650924283345,-7.660579082581352e-05,-0.005259097784598709,0.015556814620115754,0.9851923776083427
2013-10-22,1,5.7107945918527e-05,0.00011691468903702557,-0.018012331130322183,0.015556814620115754,0.9834044590706202
2013-10-24,-1,-0.0012970102994050727,-0.0010147243179984794,-0.009921423997817725,0.015556814620115754,0.9839882192041614
2013-10-28,1,8.268985449545648e-05,0.00020246738740493545,-0.016815682722975747,0.007400960876748611,0.9847587480877269
2013-10-30,-1,-0.0005087830898774207,-0.00037078623047085996,-0.016815682722975747,0.0069275298269690835,0.9846940519418128
2013-11-01,-1,-0.00027550656777902834,-4.6492661906483916e-05,-0.016815682722975747,0.0069275298269690835,0.9861584544049408
2013-11-05,1,0.00015096987663916288,0.00032509248216837003,-0.016815682722975747,0.006408081636967879,0.9869643072266752
2013-11-07,-1,-0.0015255288298241139,-0.0011717093177900306,-0.006950624876983616,0.007186151847671659,0.987841637053302
2013-11-11,-1,-0.0012143823889312476,-0.000835715705068876,-0.006950624876983616,0.007186151847671659,0.9886903457916232
2013-11-13,-1,-0.0020817129487345903,-0.0015217338268046763,-0.012827470640663276,0.005792599626071281,0.9881848720083425
2013-11-15,-1,-0.0029583051029020884,-0.00224953630431616,-0.012827470640663276,0.009809161737120233,0.9852769550758872
2013-11-19,-1,-0.0037505890906654555,-0.0030448469590395573,-0.004497193458762762,0.01269020131450243,0.9858207427661876
2013-11-21,-1,-0.0033167076903773034,-0.0027020340049991303,-0.006193980060880391,0.01269020131450243,0.9855409833418027
2013-11-25,-1,-0.0033389021334976404,-0.002747038117358783,-0.0035992931702643516,0.01269020131450243,0.9858787102272382
2013-11-27,-1,-0.005047483279752477,-0.004266631951382721,-0.0035992931702643516,0.01269020131450243,0.9870347534501192
2013-12-02,-1,-0.004092626919570556,-0.003446635620355115,-0.005980138601709649,0.012059844295999853,0.9881115070156415
2013-12-04,-1,-0.0040256030253301885,-0.003367158745935604,-0.005980138601709649,0.012059844295999853,0.9878912195335086
2013-12-06,-1,-0.0034037951868525888,-0.0028675710881711186,-0.0035992931702643516,0.012059844295999853,0.9876671298131946
2013-12-10,-1,-0.00241030686596421,-0.0020249094236638766,-0.008273897675368253,0.009879580500068028,0.9879879040741909
2013-12-12,-1,-0.0037867477743867934,-0.0032140158310570424,-0.008028517785188274,0.009879580500068028,0.988417787826672
2013-12-16,-1,-0.001787848780684426,-0.0014410012114483544,-0.011446887269645966,0.007317385855968345,0.9905476964468178
2013-12-18,-1,-0.00039472119207484724,-0.0002717769199890816,-0.012262897532956934,0.006411414856196182,0.9892748338710795
2013-12-20,-1,-8.07661015771451e-05,-5.0881287972900195e-05,-0.011446887269645966,0.009879580500068028,0.9855212929896378
2013-12-24,1,0.0006764884662809515,0.0008058655524116209,-0.011446887269645966,0.009879580500068028,0.9854209307243414
2013-12-27,1,0.0004738858870398925,0.0005530589361828912,-0.011995890534387751,0.011893795648646467,0.9849940667382696
2013-12-31,1,0.00045163825776822764,0.0005867350175807694,-0.011995890534387751,0.02016436714994909,0.9834261297103839
2014-01-03,1,0.0011188421513120043,0.0013591008547553193,-0.012663892351916029,0.02016436714994909,0.9828979787034684
2014-01-07,1,0.0016431556009521787,0.0019123722387887178,-0.014122262772291705,0.02016436714994909,0.9769096423255891
2014-01-09,1,0.0013626603769202415,0.0016039624149364513,-0.012663892351916029,0.02117059155405886,0.9767305146407993
2014-01-13,1,0.0010635580023274195,0.0012810533448190285,-0.012663892351916029,0.02117059155405886,0.976118446030675
2014-01-15,1,0.00042183416867335485,0.0006051606703676506,-0.008207254195043071,0.02117059155405886,0.9774109499466009
2014-01-17,1,0.0008842640471933499,0.0011472542930373575,-0.005646773298040096,0.021244559638264684,0.9758795143383092
2014-01-22,1,0.0030238176309708323,0.003529127788686443,-0.008207254195043071,0.016468429501135022,0.9781070315801135
2014-01-24,1,0.00203021946094975,0.002380612413324587,-0.012429090347680527,0.017650015209368992,0.9773080289174118
2014-01-28,1,0.0025554590551967065,0.0030115175678998205,-0.007395030114277876,0.015407303853022285,0.9784145828079243
2014-01-30,1,0.0031111688735052244,0.0035844609116070223,-0.0070260352168246745,0.01484681432207563,0.9797137060883216
2014-02-03,1,0.0022322105779755764,0.002591061413916828,-0.0020663190650915568,0.015407303853022285,0.9793236798159852
2014-02-05,1,0.001485719688725089,0.0016407689410217789,-0.0014860807966254263,0.015407303853022285,0.9854829148528852
2014-02-07,1,0.002478520712262053,0.0027790677137522184,-0.003464828083040659,0.015407303853022285,0.9851291581530672
2014-02-11,1,0.0034183310322216795,0.0038242033288002214,-0.004545024173489409,0.01696930944159636,0.984894940939978
2014-02-13,1,0.003210394308686938,0.003539456137698782,-0.0070260352168246745,0.01895793062665977,0.9829954505559604
2014-02-18,1,0.0055504991655239274,0.006319080634351068,-0.006365516501875034,0.018815493822886376,0.9856148157237165
2014-02-20,1,0.004463785442124059,0.005114009020678403,-0.0069080393307770615,0.018815493822886376,0.98609964486069
2014-02-24,1,0.0044422684490931594,0.005065675489668093,-0.006542244951292517,0.018815493822886376,0.9868410736320097
2014-02-26,1,0.004630473797911407,0.0052683494466612465,-0.012733039008412427,0.018815493822886376,0.9853603481777427
2014-02-28,1,0.004074250958015596,0.004585814497343323,-0.011635655869958794,0.021072704847468884,0.9855394616475185
2014-03-04,1,0.00425494450596573,0.004646475337034796,-0.011635655869958794,0.020935140191634408,0.9856133764392876
2014-03-06,1,0.0048181565654457515,0.005310655074683163,-0.011635655869958794,0.020935140191634408,0.9853465101697825
2014-03-10,1,0.004804914477314888,0.005301132186077879,-0.014107871540497845,0.01582480352006076,0.9851829455930132
2014-03-12,1,0.005195294753541609,0.005712789071882135,-0.016305322057969945,0.014672891259895543,0.983787145115758
2014-03-14,1,0.0037288847847352083,0.004143459420064566,-0.01722827073320635,0.008564280458180092,0.9846346602057848
2014-03-18,1,0.006493379692120884,0.007201757941331919,-0.01756233506253385,0.004791318854544874,0.9830562841525902
2014-03-20,1,0.004230086740934163,0.004623796386072349,-0.01722827073320635,0.011284849143327306,0.9839161395404962
2014-03-24,1,0.004272353521098126,0.004756855030754964,-0.01722827073320635,0.01577085266070226,0.9840075932160464
2014-03-26,1,0.003049252398663111,0.0032836946144612967,-0.01044712069315401,0.01577085266070226,0.9857373300481349
2014-03-28,1,0.004954690504820018,0.005521012846549567,-0.01722827073320635,0.011100927029216518,0.9846728325938398
2014-04-01,1,0.005820978472608896,0.006523554487201129,-0.01722827073320635,0.00384021134837047,0.9848234959881679
2014-04-03,1,0.003941476932685876,0.00427417552729621,-0.01722827073320635,0.01100695918717911,0.9863262868037461
2014-04-07,1,0.003147544341879764,0.0034342918209448615,-0.0023018872770167176,0.01100695918717911,0.9879341531834275
2014-04-09,1,0.0024871216690467613,0.00268694781716707,-0.0023018872770167176,0.01100695918717911,0.9879380676973418
2014-04-11,1,0.0010430534719608306,0.0010481361868941693,-0.0019238013669204657,0.01447502660040174,0.9877336434590314
2014-04-15,-1,-0.0008307657860332337,-0.0005010360437800106,-0.0030161817067732564,0.01447502660040174,0.9850475271610758
2014-04-17,1,0.0010196216401599683,0.0011238867559980898,-0.007063981341101243,0.009008057604642725,0.9863757217096177
2014-04-22,1,0.0013910184364127418,0.0015158916470860515,-0.007063981341101243,0.009008057604642725,0.9860990884553913
2014-04-24,1,0.00013430491624259722,0.0005107273398265342,-0.015830769793637865,0.009008057604642725,0.984726103394864
2014-04-28,-1,-0.0008704085688455137,-0.00040780413779192663,-0.010825071620538411,0.014967066811968851,0.982863039822322
2014-04-30,-1,-0.0008372799552822524,-0.00041019205767595015,-0.010825071620538411,0.014967066811968851,0.9824081066314295
2014-05-02,0,-0.0002779095157520151,0.00010887148380932222,-0.015830769793637865,0.015616896960656487,0.9797308739961967
2014-05-06,0,-9.700407482121751e-05,0.0002499459999332648,-0.015830769793637865,0.015616896960656487,0.9799657954292745
2014-05-08,-1,-0.001198986601425936,-0.0006453727988083554,-0.010825071620538411,0.014393695811577414,0.982319671348795
2014-05-12,0,-0.0002832495259954801,4.2017725463446465e-05,-0.00694519995278325,0.015616896960656487,0.9822751692686411
2014-05-14,-1,-0.0022649773959373468,-0.001751600341116616,-0.00694519995278325,0.015616896960656487,0.9851746206087558
2014-05-16,-1,-0.0023430528763377124,-0.0017980054511487701,-0.0037484762802907344,0.018446838599557758,0.9842400291606392
2014-05-20,-1,-0.0013530498919515801,-0.0009294216206192898,-0.0037484762802907344,0.020588923457337215,0.9840871763456328
2014-05-22,-1,-0.003260698270580553,-0.002607302805559295,-0.00200879169624568,0.020588923457337215,0.9840622649743669
2014-05-27,-1,-0.0012149148983735295,-0.0007498070001060726,-0.002278808295900225,0.0115516310960867,0.9874602840190247
2014-05-29,-1,-0.0006271958136478629,-0.00026677942659189243,-0.002278808295900225,0.01355401769861463,0.986953999144733
2014-06-02,-1,-0.0010827780880067772,-0.0007433477041293103,-0.002278808295900225,0.01355401769861463,0.9887782577172162
2014-06-04,-1,-0.0018557481648951704,-0.0013553246555671333,-0.002721716364319055,0.018436053831061807,0.9877953862222745
2014-06-06,-1,-0.0026706321072535993,-0.0020336675146672917,-0.002721716364319055,0.018436053831061807,0.9872006521131249
2014-06-10,-1,-0.002026857797208512,-0.0013849008242882263,-0.0037871899701723386,0.012829347626779519,0.988197228542757
2014-06-12,-1,-0.0032419240982929777,-0.002462773100376813,-0.002651751187475829,0.012829347626779519,0.9883139499306784
2014-06-16,1,0.0004341847716444905,0.0006431809929124926,-0.0031284849380688686,0.009599553580507056,0.990731876154063
2014-06-18,1,0.0009352286341483399,0.001123086996664812,-0.004909129801726832,0.007633684025295677,0.9908624011403302
2014-06-20,1,0.001333710275764058,0.0014833801676294612,-0.004909129801726832,0.007633684025295677,0.9889134091643668
2014-06-24,1,0.0011895574280018975,0.0013327924317359987,-0.004909129801726832,0.007633684025295677,0.9885037586468586
2014-06-26,1,0.0016245004431385004,0.0017309723152788988,-0.004909129801726832,0.009017033792325189,0.9884197100362345
2014-06-30,1,0.0012301127375936051,0.001360357015081656,-0.00652926426658625,0.00762956863200927,0.989063218952155
2014-07-02,1,0.0023479398212359367,0.002413773754146299,-0.013222000176303761,0.006166243408700292,0.9884107837968361
2014-07-07,1,0.0024286303330863287,0.0025698176090475843,-0.007015168277004127,0.006166243408700292,0.988949353584242
2014-07-09,1,0.002093196600053924,0.0021754530870937584,-0.016294116311233647,0.005657044498268304,0.9860589348942076
2014-07-11,1,0.0026977977167929454,0.0030206306486449596,-0.016294116311233647,0.006166243408700292,0.9852349576240685
2014-07-15,1,0.0016762136549037829,0.0017458844613039608,-0.016294116311233647,0.00762956863200927,0.9855164891874042
2014-07-17,1,0.0010897628094321424,0.0010958474470486377,-0.006238816443765846,0.011330486129173041,0.9848360550581503
2014-07-21,1,0.0030688392774953495,0.003333474276666913,-0.016294116311233647,0.010974078999131685,0.985677740444326
2014-07-23,1,0.002269208978552994,0.0024161971267746283,-0.006421376831066071,0.010974078999131685,0.9864041690599529
2014-07-25,1,0.003813169261781789,0.004234310152957131,-0.00706189378532935,0.010974078999131685,0.986048213200834
2014-07-29,1,0.003061130295271593,0.003404278500086634,-0.006033554187137284,0.01195575918362782,0.9863389093418921
2014-07-31,1,0.0019720839943189227,0.0021631540564146703,-0.005653900024736193,0.014218276283181362,0.9867565498210196
2014-08-04,1,0.002339203617486014,0.0026374924820767253,-0.005653900024736193,0.015919170466451745,0.9847894853880061
2014-08-06,-1,-0.00041541867664092187,-0.00037578732391514366,-0.005018323254917751,0.015919170466451745,0.9871629598298626
2014-08-08,1,0.0010499807875329918,0.0012773710339775064,-0.005018323254917751,0.014218276283181362,0.9882732932137754
2014-08-12,1,0.000951388740164598,0.0011099622589851295,-0.006502517970685985,0.014218276283181362,0.9877560696926961
2014-08-14,1,0.002473799159780106,0.002813578661755097,-0.008366250181219828,0.013792181655095145,0.9871477607861177
2014-08-18,1,0.0014790272805526787,0.0016105743740850494,-0.008366250181219828,0.011944870019304325,0.9873834379101657
2014-08-20,1,0.002118994194073234,0.0024181718016077053,-0.008366250181219828,0.014185608790210882,0.986634346926216
2014-08-22,1,0.002828102411069946,0.0032608354801848833,-0.008366250181219828,0.011944870019304325,0.9869114580092806
2014-08-26,1,0.0024716360397688073,0.0028182163736882415,-0.008366250181219828,0.013899683505701279,0.9864653136529753
2014-08-28,1,0.0018505459078582852,0.0020324402981639527,-0.008366250181219828,0.01379916947132327,0.9863537920230242
2014-09-02,1,0.0031830209942110264,0.003489675415427327,-0.009922265380827125,0.009503952682995538,0.9874764669904329
2014-09-04,1,0.001778968422418249,0.0018307030262516392,-0.01272209493400115,0.009503952682995538,0.987172814856915
2014-09-08,1,0.0016160408232432494,0.0016167972479784415,-0.01272209493400115,0.01379916947132327,0.9865653568055968
2014-09-10,1,0.002797446216103775,0.003055227276488417,-0.016387873049011077,0.013953314447356136,0.9848322225767768
2014-09-12,1,0.002794096959770102,0.003078779917574539,-0.016387873049011077,0.009521829663547157,0.9854650553502009
2014-09-16,1,0.001965775629129564,0.0021373629528489146,-0.01669691471984162,0.009521829663547157,0.9846375658245566
2014-09-18,1,0.0021399061041332107,0.0022736396115269914,-0.01669691471984162,0.013928996599252008,0.9845118496773643
2014-09-22,1,0.0019935807980206053,0.0021019386695496373,-0.01669691471984162,0.013928996599252008,0.9846245693199648
2014-09-24,1,0.0021361332988636622,0.0022935540700585247,-0.015983245072827335,0.013928996599252008,0.9843180977981167
2014-09-26,1,0.0018474898771065067,0.0019664841773315875,-0.014726948382496878,0.014464344374427672,0.984302867930165
2014-09-30,1,0.0011602680202193096,0.0011875153211944982,-0.014726948382496878,0.015859165169443256,0.9823059753017831
2014-10-02,-1,-0.00020990814592263457,-5.688109953432073e-05,-0.01395280814108386,0.018438177233253007,0.9782387529106464
2014-10-06,-1,-0.0015708338977476045,-0.0010684141069489757,-0.014726948382496878,0.019040085693941826,0.9760951805975251
2014-10-08,-1,-0.002442286732641937,-0.001835772783804227,-0.01395280814108386,0.019040085693941826,0.9778143227712482
2014-10-10,-1,-0.0036494582982217207,-0.0029539862441545477,-0.00800777651769724,0.019040085693941826,0.9785167791726727
2014-10-14,-1,-0.006280712953675647,-0.00519230995949304,-0.0032715798977820394,0.019040085693941826,0.9795185335520367
2014-10-16,-1,-0.003337247830624933,-0.002718700766729378,-0.00800777651769724,0.015836311300064847,0.9810599671491315
2014-10-20,-1,-0.0026969555806314813,-0.0021639505857601526,-0.00800777651769724,0.024447555522658284,0.9806962734347533
2014-10-22,-1,-0.0030570027277813856,-0.0024319839241439167,-0.006411546729496539,0.023530030532948935,0.9810246279070541
2014-10-24,-1,-0.0023734193194943345,-0.0018294591530821022,-0.0034774797760990365,0.011804293217807576,0.9824237486391596
2014-10-28,-1,-0.0014310908609457354,-0.0009854570225584448,-0.0019654034099721995,0.011804293217807576,0.9836375174234564
2014-10-30,1,0.0007910125914982484,0.0009139367168284462,-0.0019654034099721995,0.008542911777031153,0.9884209724835941
2014-11-03,1,0.0008898573857535488,0.001071017655337095,-0.0019654034099721995,0.008542911777031153,0.989595743979802
2014-11-05,1,0.0017495795746584298,0.0017759189845384146,-0.003232086297782738,0.010715821840362167,0.9877214123346012
2014-11-07,1,0.0023268630549672237,0.002474616885603158,-0.006293065929498635,0.010715821840362167,0.9851548191215043
2014-11-11,1,0.0023544398879920864,0.002514492694897686,-0.009710855251933855,0.014727534518372153,0.9834831272168674
2014-11-13,1,0.0013039156186548672,0.0013300510231257822,-0.006293065929498635,0.02130305419726368,0.9821215991967379
2014-11-17,1,0.0029195507218930735,0.0031683240904419215,-0.009710855251933855,0.0198662475973561,0.9813827178393475
2014-11-19,1,0.0038241148153701065,0.004236445879333019,-0.008974674816984959,0.020149268081410668,0.9808650614228877
2014-11-21,1,0.004115683063516834,0.004607226917943826,-0.01209200584318736,0.020149268081410668,0.9800068972628139
2014-11-25,1,0.005178387140806909,0.005783345929201772,-0.01209200584318736,0.019680045348032464,0.9808680264689763
2014-11-28,1,0.004268565533554106,0.004736600185504872,-0.00979492347528826,0.019680045348032464,0.9810153739912896
2014-12-02,1,0.0034794522701568614,0.0038207489915549646,-0.010439568341153248,0.019680045348032464,0.9817350288231115
2014-12-04,1,0.0044936919250109725,0.004963670197677161,-0.011529567904176974,0.016361063285768786,0.9827293407980897
2014-12-08,1,0.0029911415557853675,0.0032310501311846227,-0.010439568341153248,0.016361063285768786,0.9851002423479085
2014-12-10,1,0.0030254662498484233,0.003372391121272505,-0.010439568341153248,0.01404880224817059,0.9855346428488848
2014-12-12,1,0.004834088846691866,0.005385895836114015,-0.010439568341153248,0.011620633813643822,0.9871953421041593
2014-12-16,1,0.003754309771410124,0.004215165387288738,-0.00979492347528826,0.011620633813643822,0.9891489465843184
2014-12-18,1,0.005260980731167805,0.005866933063697669,-0.00979492347528826,0.007556116780289586,0.9879828635397311
2014-12-22,1,0.004091637579325355,0.00448447264529095,-0.007258557931697217,0.007556116780289586,0.9887048206045169
2014-12-24,1,0.0036327367266921025,0.003963954727662989,-0.007258557931697217,0.011620633813643822,0.9883492318989979
2014-12-29,1,0.0025819157486760445,0.0025883157542301314,-0.007630409234786242,0.008367088337607284,0.9876292314644884
2014-12-31,1,0.0015486648840988058,0.001649982076784207,-0.005979538720965066,0.008367088337607284,0.987980399317039
2015-01-05,1,0.000904151634016373,0.0010653907472174737,-0.005226500805769618,0.009619538056085444,0.9881580825934236
2015-01-07,1,0.002305953959299257,0.0024004848175569046,-0.006569839792319315,0.00783235728023373,0.9870207382817585
2015-01-09,1,0.0016880283621156184,0.0016937487945626322,-0.006569839792319315,0.0068721385592848735,0.9876833989017617
2015-01-13,1,0.001282297950591622,0.001337252351671517,-0.013303642564191656,0.0068721385592848735,0.9863247448727853
2015-01-15,1,0.001344242664447247,0.001376490216667298,-0.013303642564191656,0.00783235728023373,0.9850352030905831
2015-01-20,1,0.0026721071778524927,0.002798611996451604,-0.013303642564191656,0.0068721385592848735,0.9873401829596331
2015-01-22,1,0.003477726499777897,0.0037140342927439473,-0.01647201653641241,0.005459449156138281,0.9857368888787453
2015-01-26,1,0.005165141482748747,0.005731447718587544,-0.01647201653641241,0.0024890857628723346,0.985361657722025
2015-01-28,1,0.003826992890329381,0.004165009895193365,-0.013303642564191656,0.0012635366136933973,0.9865766091273983
2015-01-30,1,0.002929599716385101,0.003167671375074857,-0.016255702873396075,0.0007880137369198674,0.9868269738629284
2015-02-03,1,0.0036947444409889344,0.004015560487242536,-0.01647201653641241,-0.0001038851687148334,0.9846920471795448
2015-02-05,1,0.001939953404622337,0.001986259615591466,-0.016255702873396075,0.0007880137369198674,0.9869777409509685
2015-02-09,1,0.0006623073127942397,0.0008136469467477478,-0.01640256464228506,0.000568929764319508,0.9875381095638276
2015-02-11,-1,-0.00045466121516292174,-0.00020364353923426302,-0.012025188957679405,0.0019028491381168017,0.989448996055073
2015-02-13,1,0.000870303989757539,0.0009726298368166952,-0.012025188957679405,0.0019028491381168017,0.9883156690115572
2015-02-18,1,0.0003475871893381272,0.0004891712069943309,-0.015290700373189699,0.0024603888868420434,0.9878191626203151
2015-02-20,-1,-0.0015629178183545632,-0.0011823581130656325,-0.011833187415321038,0.0024603888868420434,0.9901078133606246
2015-02-24,-1,-0.002069823375314169,-0.0016075462592806179,-0.011833187415321038,0.0024603888868420434,0.990075258698982
2015-02-26,-1,-0.0038042561598718564,-0.0030526409412746083,-0.015290700373189699,0.0024603888868420434,0.9892687626644263
2015-03-02,-1,-0.004177421610388633,-0.0034427840934743606,-0.012167980508746217,0.004371162276469448,0.9885987570470591
2015-03-04,-1,-0.005983211270605013,-0.005029279971508071,-0.012167980508746217,0.007050630318951067,0.9878232674530114
2015-03-06,-1,-0.007997188773964634,-0.006691351206598249,-0.0063977937773480814,0.007699386834577519,0.987446923780142
2015-03-10,-1,-0.010344660764549134,-0.00867895859385687,-0.004120580246345269,0.01005006764275883,0.9854409722947272
2015-03-12,-1,-0.00880945094480013,-0.007401465637009313,-0.0063977937773480814,0.010622041957555072,0.9852950288122333
2015-03-16,-1,-0.006425512163680909,-0.005310628904021909,-0.012167980508746217,0.00925982176023917,0.9881750700045432
2015-03-18,-1,-0.006570438875406911,-0.005457213034583212,-0.0063977937773480814,0.00823909425511788,0.9884615247698733
2015-03-20,-1,-0.00616736280404385,-0.005136426595041075,-0.011489603891198017,0.00823909425511788,0.9885613855441409
2015-03-24,-1,-0.0057673518548502205,-0.004835352727278704,-0.011489603891198017,0.00823909425511788,0.9879340920279026
2015-03-26,-1,-0.005760719066397658,-0.004927877285283005,-0.002684602927848264,0.00823909425511788,0.9882431789564985
2015-03-30,-1,-0.004468678022588185,-0.003822940206555996,-0.006696323267161586,0.007359144332870423,0.9895980290543357
2015-04-01,-1,-0.004871574333791179,-0.004198760955217203,-0.010705876200732599,0.006943844017022638,0.9897600543093658
2015-04-06,-1,-0.0046197008358290145,-0.003985853240481632,-0.010705876200732599,0.00705076001028848,0.9884128525895862
2015-04-08,-1,-0.003759568537593641,-0.0032204853572709745,-0.013085867303679994,0.004018539888769537,0.9892444510548772
2015-04-10,-1,-0.004280663886909058,-0.0036546332552540046,-0.010705876200732599,0.004740576900698878,0.9888822103482856
2015-04-14,-1,-0.004117161403585419,-0.003564401166195068,-0.008510264330704995,0.004018539888769537,0.9898150283578778
2015-04-16,-1,-0.0034603862064038916,-0.0030200296143449556,-0.008510264330704995,0.003781045452397596,0.9902169454746936
2015-04-20,-1,-0.0038003261536925445,-0.0033251470752207303,-0.008510264330704995,0.003781045452397596,0.9899905356742666
2015-04-22,-1,-0.0019417390507789106,-0.001750393525119248,-0.01140655114377406,0.003321726066930714,0.9843668037706852
2015-04-24,-1,-0.0019361524642224049,-0.0017380014003658003,-0.013840375398106279,0.0024816385033358474,0.9840499376797769
2015-04-28,-1,-0.0029652265932293012,-0.0026124659464191896,-0.010957378898874694,0.009189387400994073,0.9832434913409522
2015-04-30,-1,-0.0033883858792459285,-0.0030479195386765292,-0.010810794300131956,0.009189387400994073,0.9839735006704077
2015-05-04,-1,-0.0030569298760906227,-0.0026781718498274255,-0.010810794300131956,0.009004148880533202,0.9852006159927934
2015-05-06,-1,-0.0034526424328965148,-0.0030257791755798746,-0.009784186992463,0.010082545837876468,0.9843443001231376
2015-05-08,-1,-0.0005002971492604432,-0.00046753686253661326,-0.009784186992463,0.00756362684875436,0.9853063476971349
2015-05-12,-1,-0.0016883707582005022,-0.0015015104840912907,-0.009784186992463,0.00756362684875436,0.9854123004416133
2015-05-14,-1,-0.0007755211455204203,-0.0007687292159578611,-0.009784186992463,0.009993893611580373,0.9847754915268676
2015-05-18,-1,-0.0013740138461795807,-0.0013169933528980743,-0.009784186992463,0.009993893611580373,0.9849208291559823
2015-05-20,1,0.00011135084098812102,0.0002481566637726647,-0.00877293092391729,0.009993893611580373,0.9901289988765354
2015-05-22,-1,-0.00020880827697888145,-0.00010442830460914926,-0.007771526349884525,0.009993893611580373,0.9904885001498854
2015-05-27,1,0.0003789429863441525,0.0005215795856219944,-0.007771526349884525,0.00756362684875436,0.9905976505163557
2015-05-29,-1,-0.0004905935852819367,-0.0004830195622944933,-0.0073497627666348,0.008550448382622243,0.9909080286082712
2015-06-02,1,0.0002110807307888222,0.0003467438360325409,-0.007771526349884525,0.007114673870489909,0.9897781453073035
2015-06-04,1,0.0004548503854223197,0.0006076116320069215,-0.007409269500952612,0.005184782817923555,0.9911552039406722
2015-06-08,1,0.00043149222633989714,0.000577276168410375,-0.0073497627666348,0.004853986139449089,0.9915846328109412
2015-06-10,1,0.0007462271989030137,0.0009353857165115611,-0.007409269500952612,0.006122283835066511,0.9904033055642791
2015-06-12,1,0.0017037954812601816,0.00209915428627013,-0.007388056972405292,0.010571532297471684,0.9894136065375688
2015-06-16,1,0.0016029500939842292,0.002029333172162184,-0.004994876674233307,0.01697373490077667,0.9898623536809718
2015-06-18,1,0.0026513790455437573,0.003267555935604594,-0.00450816452421397,0.01817260986467727,0.9884766277436696
2015-06-22,1,0.0023230074761199323,0.0028742391770333127,-0.0032412432804637056,0.01817260986467727,0.9886136104848464
2015-06-24,1,0.0030342865037252696,0.0036782365996393365,-0.005100061806110973,0.01697373490077667,0.988696565265035
2015-06-26,1,0.003261180116015538,0.00396202933637836,-0.005884267565277485,0.01697373490077667,0.9880308749640192
2015-06-30,1,0.0016727063131944417,0.002086498934693398,-0.0028592056189262922,0.01817260986467727,0.9884401807314857
2015-07-02,1,0.0013120690622841933,0.0016640683350585856,-0.0028592056189262922,0.01817260986467727,0.987827660385054
2015-07-07,1,0.0011045076755249893,0.001357640400289857,-0.0036572344329734905,0.01817260986467727,0.987610278677442
2015-07-09,1,0.0019321504385204798,0.0023735977340083887,-0.0036572344329734905,0.01716470178864058,0.9881908085908254
2015-07-13,1,0.002925794712556242,0.0034842185740127,-0.006319966385945953,0.012408507345264448,0.9887311659099298
2015-07-15,1,0.0024642868550800653,0.002897202418872107,-0.009919709090886023,0.009039913117120489,0.9881331077546511
2015-07-17,1,0.004306908210062861,0.004971467701087624,-0.009919709090886023,0.007523999788385579,0.989183760324389
2015-07-21,1,0.0037634512075240454,0.004325935342151897,-0.010556595374146896,0.009039913117120489,0.987654251482055
2015-07-23,1,0.0033602382875997858,0.003844880240792873,-0.012282838820779553,0.009039913117120489,0.9855027957935882
2015-07-27,1,0.002958475410877343,0.0033174114041520375,-0.015528220478823984,0.003978323452404378,0.984158820716389
2015-07-29,1,0.0021405975538908158,0.002388944366202952,-0.015528220478823984,0.003978323452404378,0.9844003571704795
2015-07-31,1,0.0018080288445703671,0.001983170598340596,-0.015528220478823984,0.014833155450879123,0.9831782771273345
2015-08-04,1,0.0017765675897053381,0.0019570610541016983,-0.018220480273190585,0.014833155450879123,0.9810763043531456
2015-08-06,1,0.0023663364944654227,0.0027035306497159755,-0.018220480273190585,0.014334657096270543,0.9813694826770243
2015-08-10,1,0.0018295570681105084,0.002092322801455674,-0.018220480273190585,0.019909685401604493,0.9803441540780148
2015-08-12,1,0.0015404845248683358,0.0017477568463475147,-0.018220480273190585,0.019909685401604493,0.9807743551505478
2015-08-14,1,0.0017419542765981953,0.0019703802175569034,-0.018220480273190585,0.015000814447066644,0.981471774315042
2015-08-18,1,0.0011317413267926781,0.001237439019126344,-0.018220480273190585,0.013397732051577795,0.9830138878348433
2015-08-20,1,0.00012813487324980416,0.00013185906649085797,-0.010420855145282114,0.013397732051577795,0.9858348254961009
2015-08-24,1,0.0002478816100077359,0.0002548018419054652,-0.007478093417706069,0.014033107219345965,0.9873811295302574
2015-08-26,-1,-0.0007200042340202452,-0.0006113700184367436,-0.0056865451047541996,0.012910158500680648,0.988489967995686
2015-08-28,1,0.000655320152082724,0.0007416330694807896,-0.008442317667360618,0.006645137097870109,0.9880391864135197
2015-09-01,-1,-0.0010126321997343734,-0.0008868014451005624,-0.0056865451047541996,0.009464427432836625,0.9881331673543798
2015-09-03,-1,-0.0008271751645056717,-0.0007004439976125555,-0.007048142175921321,0.009676219155426014,0.9870930494895306
2015-09-08,1,0.00034292959388153706,0.00035206495000442145,-0.007048142175921321,0.009676219155426014,0.9862964818492522
2015-09-10,-1,-0.0007270354250474354,-0.0005931165457490743,-0.005251651440364006,0.009676219155426014,0.986839796654573
2015-09-14,-1,-0.0005126026464808113,-0.0004260770377922696,-0.0029092015297698566,0.014033107219345965,0.9856409902151865
2015-09-16,-1,-0.00022674765884769238,-0.00016638012575345443,-0.0029092015297698566,0.009676219155426014,0.986195009725014
2015-09-18,-1,-0.0004463989451864159,-0.0003376691386111749,-0.007048142175921321,0.016006116910653435,0.9840895513309105
2015-09-22,-1,-0.0007856655450444126,-0.0006058834886746794,-0.006621862553377135,0.014690199191075424,0.9842330316954858
2015-09-24,-1,-0.0004116054123122542,-0.0003031290286597049,-0.006621862553377135,0.02433389468244954,0.9830622524835876
2015-09-28,-1,-0.0018045282287196518,-0.0015116942651132535,-0.004567177720566589,0.02433389468244954,0.9844725218842489
2015-09-30,-1,-0.0003416156140900144,-0.0002875054528714741,-0.004339026341019098,0.02187262597259908,0.986176023028712
2015-10-02,1,0.00033514722077712997,0.0003383403109213021,-0.004339026341019098,0.014185118969519355,0.9875742895707453
2015-10-06,-1,-0.0005414733461365814,-0.00042837838057530254,-0.0019786990733316034,0.012231792415782615,0.9894720877676041
2015-10-08,-1,-0.0007256779306879319,-0.0005403697123341371,-0.004339026341019098,0.012231792415782615,0.9881424492062298
2015-10-12,1,0.000518095259980164,0.0005257054420617064,-0.005937408414734661,0.012231792415782615,0.9864481362163834
2015-10-14,-1,-0.0003215122634165816,-0.0002002571805223325,-0.005937408414734661,0.012231792415782615,0.9864852208872166
2015-10-16,1,0.0008827153648169417,0.0009552601436897853,-0.004339026341019098,0.010868737582453838,0.9885548535434346
2015-10-20,1,0.0006333618027227368,0.0006449120473091443,-0.0021087555442355133,0.011309553289224986,0.9876587178337277
2015-10-22,1,0.0015941858627797618,0.00173563052569173,-0.0021087555442355133,0.009886701269672135,0.9889765339709284
2015-10-26,1,0.0014576933718883243,0.0015787153851038052,-0.0025626277616762013,0.009886701269672135,0.9878703068135913
2015-10-28,1,0.0016758091588733486,0.001823855954327774,-0.0025697268515938124,0.010634930018629158,0.9871418847952231
2015-10-30,1,0.0014436831354117544,0.0015670682892108068,-0.0025697268515938124,0.010634930018629158,0.9871390611921137
2015-11-03,1,0.0020121253801483933,0.0022040497788461976,-0.0037245758681527497,0.011628634520419992,0.9871232125293161
2015-11-05,1,0.0007422528534646165,0.0007478651879837016,-0.002854454127609764,0.018107685579139828,0.9873672820875985
2015-11-09,1,0.0010866875468926625,0.0011613321097709269,-0.002854454127609764,0.011628634520419992,0.9902000018511877
2015-11-11,1,0.000753585240425633,0.0007557496236841302,-0.005014768609966477,0.011628634520419992,0.9890756238822818
2015-11-13,1,0.00123647278019247,0.0013296899874741415,-0.006538301699805411,0.011628634520419992,0.9885280380639339
2015-11-17,1,0.002184374684648985,0.0023993928417095586,-0.006538301699805411,0.010714162386024961,0.9889226860552693
2015-11-19,1,0.0012109813257916054,0.0012336598578663448,-0.010432524351391827,0.00917392151573835,0.9871675426604969
2015-11-23,1,0.0011762331106288685,0.0011848363616358852,-0.00932802675407098,0.007106977101703028,0.9888794052732116
2015-11-25,1,0.002050341467177976,0.0021942765010164763,-0.00932802675407098,0.007106977101703028,0.99005513033951
2015-11-30,1,0.0013366820123203883,0.0013732290868979091,-0.0061859689706444355,0.007106977101703028,0.9904070761998661
2015-12-02,1,0.0019699802140966793,0.002143880748527043,-0.010432524351391827,0.006517791264387198,0.9899810178220977
2015-12-04,1,0.002605822382977526,0.002871533586170451,-0.010760275621556485,0.006517791264387198,0.9892963856407568
2015-12-08,1,0.0032996430508155017,0.0037692735226582353,-0.01837213772071674,0.006517791264387198,0.98634760465739
2015-12-10,1,0.002260426249151767,0.0025578197922405265,-0.013398501537190702,0.007106977101703028,0.9870725828879964
2015-12-14,1,0.0020312806028177457,0.0022834687410946287,-0.018958611912324563,0.007770404954468118,0.9850063767625872
2015-12-16,1,0.002736491377926314,0.00306553096653514,-0.018958611912324563,0.007106977101703028,0.9856667520965532
2015-12-18,1,0.0017003048001579168,0.0019203092892199054,-0.011415339099583758,0.007106977101703028,0.9876831630748799
2015-12-22,1,0.0023128989886990084,0.0026117289396535856,-0.011415339099583758,0.008636463641433317,0.9868867977794871
2015-12-24,1,0.002388783103665846,0.002689138954755,-0.011415339099583758,0.011371322427431213,0.9862902023358601
2015-12-29,1,0.0023239947519201843,0.002619363280012364,-0.016316007832547025,0.011371322427431213,0.9852399161380379
2015-12-31,1,0.0011966592187850227,0.0013162201140356725,-0.006756115165044428,0.014215679780966925,0.9851767126679813
2016-01-05,1,0.0013591980152499847,0.00148710291767627,-0.016159422298546038,0.011371322427431213,0.9842432169790941
2016-01-07,-1,-0.00019640065134300043,-0.0001640088042765226,-0.006756115165044428,0.014881429691078625,0.9821237661978807
2016-01-11,1,0.00012364064294574022,0.00013067308998139472,-0.006756115165044428,0.019732304171163242,0.9812172299732492
2016-01-13,-1,-0.0008786555147069211,-0.0007038708307319558,-0.003486890381472315,0.018185527944088488,0.9832029575016636
2016-01-15,-1,-0.0006786896901183504,-0.000496517934278818,-0.006756115165044428,0.018185527944088488,0.9816703411066542
2016-01-20,-1,-0.000856582967136944,-0.0006285781278694102,-0.011508234876921668,0.018185527944088488,0.981167074718411
2016-01-22,-1,-9.364851552132896e-05,-5.6761790022610435e-06,-0.011508234876921668,0.01853777306000642,0.9807002621060421
2016-01-26,-1,-0.0006538802442712785,-0.000418682007731369,-0.01257739156117068,0.01781911633167338,0.9806012201039507
2016-01-28,-1,-0.001139145876048448,-0.0008602899750002539,-0.010545570122364095,0.01781911633167338,0.9807800614904046
2016-02-01,0,-2.480565046982918e-05,8.041283954189171e-05,-0.010545570122364095,0.01781911633167338,0.9802042860405619
2016-02-03,-1,-0.0014071740064947828,-0.0011000939379674024,-0.0086114583989254,0.01781911633167338,0.9813751466287924
2016-02-05,-1,-0.001432791313411579,-0.0011114708442835628,-0.010545570122364095,0.015412826092792355,0.9845939728085199
2016-02-09,-1,-0.00016912721321031955,-2.839945202135776e-06,-0.010545570122364095,0.013550667536241026,0.9856132822404983
2016-02-11,1,0.0002377026161244652,0.0003586224739898514,-0.010545570122364095,0.013550667536241026,0.9852051133354612
2016-02-16,-1,-0.0005579971731182185,-0.0003457573628671787,-0.010545570122364095,0.010721858326314608,0.9864772069156607
2016-02-18,-1,-0.0013997784125182777,-0.0010877646871319045,-0.012199741549615315,0.010721858326314608,0.986156337446354
2016-02-22,-1,-0.0009452467134865239,-0.0006445804171509686,-0.012199741549615315,0.009480308291759536,0.9878330242777695
2016-02-24,-1,-0.0006000709401924664,-0.00035953761405853,-0.008403216791556027,0.009480308291759536,0.9878385368951768
2016-02-26,-1,-0.0002904029334833563,-0.00012517908489219354,-0.008403216791556027,0.008884721313733007,0.988092186271778
2016-03-01,1,0.0008735352462936037,0.0009323113280965978,-0.008403216791556027,0.008884721313733007,0.9875935266350837
2016-03-03,0,-0.000121785863790096,4.528257238854217e-05,-0.006293874941574849,0.009480308291759536,0.9880634394937241
2016-03-07,-1,-0.0010800621862647882,-0.0008362930665589427,-0.006293874941574849,0.009480308291759536,0.9893005705601122
2016-03-09,-1,-0.0012312919910846313,-0.0009524760525832119,-0.007086156412145418,0.008884721313733007,0.9890999163502975
2016-03-11,-1,-0.0002748644189141272,-0.00014143234138905498,-0.009885088823552133,0.006988628149030695,0.9892483528737388
2016-03-15,-1,-0.0005193999782114274,-0.0003668567492963846,-0.007086156412145418,0.008710272076698174,0.9889544845284605
2016-03-17,-1,-0.00022612594612961306,-0.0001451656503783081,-0.007086156412145418,0.006988628149030695,0.9890159377573747
2016-03-21,-1,-0.0004473996376318822,-0.0003384769780048777,-0.006827337557852878,0.009257845081488764,0.9875979882576535
2016-03-23,-1,-0.00010103568716227497,-4.491659164484064e-05,-0.007841234885572434,0.007836513675888925,0.9881717607346595
2016-03-28,-1,-9.931668307932204e-05,-2.862143175903217e-05,-0.009885088823552133,0.007836513675888925,0.9877704648404305
2016-03-30,1,0.001188262351542608,0.0013141135222586352,-0.01366634356719889,0.006546862773028421,0.9885268989637274
2016-04-01,1,0.0013991641550624616,0.0014904866514491946,-0.01434080943009282,0.0002635164484101583,0.9879945924181123
2016-04-05,1,0.0005660965164979512,0.0005878476790682057,-0.01434080943009282,0.004796921380678233,0.9864794875431914
2016-04-07,1,0.00019491747435445292,0.0002644071060338996,-0.01434080943009282,0.0037586693998922635,0.9868195668072247
2016-04-11,-1,-0.0004654099127395566,-0.0003307122902581628,-0.011864863124729948,0.006546862773028421,0.9866776771291786
2016-04-13,1,0.0006794263391285808,0.0007409841225585016,-0.011864863124729948,0.006546862773028421,0.9860455230874309
2016-04-15,1,0.0002565291992170609,0.00026162541029525635,-0.008722042355007984,0.017010544776524306,0.9854454300647618
2016-04-19,1,0.0007453113012227564,0.0008357813712735905,-0.011864863124729948,0.006342789274048316,0.9857441315189868
2016-04-21,1,0.0007191640814809429,0.0008510138870111981,-0.011864863124729948,0.017010544776524306,0.9838030476550449
2016-04-25,1,0.0005987482155737495,0.0006656540812035301,-0.013023346065355783,0.017010544776524306,0.9833307386171077
2016-04-27,1,0.0001957887416847034,0.00023218560460211538,-0.009436347455832415,0.02046049126289301,0.9820833794040964
2016-04-29,0,-3.928021432676336e-05,6.669577653741057e-06,-0.007162073073231961,0.02046049126289301,0.9824503291922321
2016-05-03,-1,-0.00014942964924325065,-0.0001284551327240346,-0.007162073073231961,0.017010544776524306,0.9850802988516969
2016-05-05,-1,-0.0007767718344513295,-0.0006840834748133125,-0.004386048865821073,0.017010544776524306,0.9850399445256758
2016-05-09,-1,-0.0002923060838843966,-0.00024800089086034595,-0.003033978042973476,0.017010544776524306,0.9853380209129576
2016-05-11,1,0.001061883962668268,0.0012457025891478412,-0.004056205037116015,0.013165489377982863,0.9866596642153547
2016-05-13,1,0.001352096266523289,0.0014920773651525918,-0.009300943584473642,0.008397861654584223,0.9864158193440731
2016-05-17,1,0.0007558875888579626,0.0008516912144877658,-0.009300943584473642,0.008397861654584223,0.9865547136174349
2016-05-19,1,0.003289022991198757,0.003736794587435162,-0.011313668994073486,0.0071321396984826285,0.9878728892850027
2016-05-23,1,0.0012113248873921291,0.0013852276167353062,-0.011012943932200217,0.008397861654584223,0.9877814446680961
2016-05-25,1,0.0019520905051259763,0.002168229665603246,-0.011012943932200217,0.008397861654584223,0.9893215485667994
2016-05-27,1,0.0021185936810398905,0.0023624938379270873,-0.013622023438100667,0.0071321396984826285,0.9864616913093913
2016-06-01,1,0.0007238753204665495,0.000775507852493379,-0.013622023438100667,0.011042565222290524,0.9858585963923155
2016-06-03,1,0.001116784088697753,0.001130689263212593,-0.013622023438100667,0.014328458649865414,0.9847216227529078
2016-06-07,1,0.0015407534816303356,0.0015891579049055837,-0.013622023438100667,0.013498023038727387,0.9851715601132528
2016-06-09,1,0.0013968111338663136,0.0014458745714871699,-0.013622023438100667,0.015742323137185252,0.9842694257965277
2016-06-13,1,0.0002751756730354257,0.00036540452849958015,-0.005723355898315126,0.016818429414271564,0.984100573031476
2016-06-15,0,-4.7373581797808845e-05,6.0648890852602196e-05,-0.005723355898315126,0.016818429414271564,0.9835168093069887
2016-06-17,0,-3.983437557553225e-05,4.4092506231960564e-05,-0.0008710872643407204,0.016818429414271564,0.983863081593632
2016-06-21,-1,-0.0004377513885806064,-0.00027086131474300386,-0.0008710872643407204,0.016061177160324708,0.9836407244431494
2016-06-23,1,0.0007135435911967677,0.0007209779234720137,-0.00259132514127423,0.015655624910665456,0.9841574569095162
2016-06-27,-1,-0.002307886391952749,-0.0018813300050184749,0.0009395997980150767,0.015655624910665456,0.9852576906259911
2016-06-29,-1,-0.0013967212606566927,-0.001066307889737008,-0.0008034676493402083,0.015128454828732818,0.986907422896694
2016-07-01,1,0.000754617842645606,0.0007555341390969102,-0.003278454725724438,0.014828936017860882,0.9891059768306331
2016-07-06,1,0.001657580325495768,0.0018035821597695034,-0.003278454725724438,0.014940514309996369,0.9893178637518999
2016-07-08,1,0.0022454925223101673,0.0024229502607213947,-0.003952532482935051,0.012890693775039146,0.9895566455625247
2016-07-12,1,0.0027775851782010424,0.002977149285445397,-0.006401908097510921,0.010433839898781693,0.9901820481204514
2016-07-14,1,0.002384178188619474,0.002607880703690382,-0.003952532482935051,0.010433839898781693,0.9919253688183821
2016-07-18,1,0.0026716972435246885,0.002934828360125404,-0.003952532482935051,0.010433839898781693,0.9911926699820663
2016-07-20,1,0.002627145172435492,0.0028966170757542637,-0.004259582438648566,0.007541048517151863,0.9910444489075794
2016-07-22,1,0.0034848525347851564,0.003970267496220686,-0.0035745570960530916,0.0037332148099876333,0.9913592626770333
2016-07-26,1,0.0024738929948177205,0.002761123334626933,-0.003278454725724438,0.008174743669189598,0.9913182478301645
2016-07-28,1,0.0014705107768180265,0.0015157989223907693,-0.003101907769050728,0.008174743669189598,0.9916774214015167
2016-08-01,1,0.0013803187984712806,0.001418560492485791,-0.0027524175797547087,0.011362275828679137,0.9896644270086592
2016-08-03,1,0.0022478805222064177,0.0024464811564326523,-0.004259582438648566,0.008174743669189598,0.9895166575942846
2016-08-05,1,0.0022312442049426708,0.0023912598396735475,-0.0029782006789140555,0.008174743669189598,0.9895908806481226
2016-08-09,1,0.0020754570885181626,0.0021982758425780585,-0.0029782006789140555,0.0068945753165194,0.9890958338016567
2016-08-11,1,0.0017690551240663135,0.0018271505956462563,-0.0067611782616959215,0.0068945753165194,0.9882098550960419
2016-08-15,1,0.002618066783832861,0.0028027600429865757,-0.0067611782616959215,0.0068945753165194,0.9883258352172946
2016-08-17,1,0.00147122370962891,0.001505398314414625,-0.0036147926324936012,0.010352977001267747,0.9887164601394957
2016-08-19,1,0.002070033501004966,0.0022855824307456345,-0.0067611782616959215,0.010352977001267747,0.9883372632328123
2016-08-23,1,0.0034207659589908053,0.0038546094656111965,-0.0067611782616959215,0.013570124726974565,0.9880443556141892
2016-08-25,1,0.0027778851668717503,0.0030611837058846132,-0.007858155353704335,0.013570124726974565,0.9872816240997461
2016-08-29,1,0.004073235657638378,0.0045029681071120774,-0.008379521562459802,0.010321320206138887,0.9890023073795308
2016-08-31,1,0.0026444394525080264,0.002827187075390167,-0.009336101496414296,0.010321320206138887,0.9886530924996075
2016-09-02,1,0.003637017433099471,0.0039707231753428555,-0.009336101496414296,0.00810588546039344,0.9893459580663091
2016-09-07,1,0.0023915814526559464,0.0025332448848262375,-0.007087810660101363,0.00810588546039344,0.990758146015829
2016-09-09,1,0.002159350209377534,0.0023369480702156555,-0.005408404226966839,0.00810588546039344,0.9907174249108522
2016-09-13,1,0.0026616011821203843,0.002868238376573522,-0.010370491365442066,0.007531025074864356,0.9885914551140437
2016-09-15,1,0.003375794205537839,0.0036322515482644212,-0.010370491365442066,0.0050893321982398085,0.9891592587987084
2016-09-19,1,0.0022033492611077577,0.002235872189264972,-0.009336101496414296,0.0076536772541050836,0.9876793974900545
2016-09-21,1,0.0026295868091238163,0.0026738786830444432,-0.011673201885469716,0.005671380853859388,0.9879219882791455
2016-09-23,1,0.00240488966484042,0.0024071136568618442,-0.01086685152268009,0.005671380853859388,0.9881190710867267
2016-09-27,1,0.0016555326024990597,0.001765578443053663,-0.007207937707495842,0.006856121653919736,0.9879393594639592
2016-09-29,1,0.0009620890418796309,0.0011273438241959054,-0.006582028508743459,0.006856121653919736,0.9881982065251922
2016-10-03,1,0.0013408115832832883,0.0014203849040252624,-0.009591504426550318,0.006856121653919736,0.987398647693394
2016-10-05,1,0.0021404850631331113,0.0022183090250183527,-0.010877932137723308,0.006981008966999734,0.9860437058293317
2016-10-07,1,0.00029360067192055433,0.00043458977914355174,-0.009076246107198949,0.010317943113650136,0.9838522895928206
2016-10-11,-1,-0.00012332847961797855,-2.860689348309711e-05,-0.007084825813800295,0.017841118545185306,0.9849498237525363
2016-10-13,-1,-0.001518956725918803,-0.001081173616858945,-0.007529780846536509,0.017841118545185306,0.9833074497325301
2016-10-17,1,0.0009825066372088466,0.0010072511226884172,-0.009076246107198949,0.017841118545185306,0.9832358143874271
2016-10-19,1,0.0006532858441824069,0.0006610079413023675,-0.007529780846536509,0.017841118545185306,0.9844340856726402
2016-10-21,1,0.0003509224171498761,0.0005164684838741698,-0.009076246107198949,0.019965393968308733,0.9821767911031815
2016-10-25,1,0.0013547143783492607,0.0014291401916721677,-0.010877932137723308,0.011090841347778609,0.9816382789145118
2016-10-27,1,0.0009113723436219204,0.0009530927009330708,-0.009076246107198949,0.020232376201547345,0.9812549497183182
2016-10-31,1,0.0007260642822660506,0.0007363491458197377,-0.007886187058726218,0.022482838964243655,0.9801866753124341
2016-11-02,-1,-0.0010960789960095254,-0.0007086743999148476,-0.016003707593845055,0.022482838964243655,0.9790545386548615
2016-11-04,1,0.0018503285409795026,0.0019121337091018722,-0.016003707593845055,0.02039187360496196,0.9813128861276093
2016-11-08,1,0.001915148423044463,0.001960666333081036,-0.016003707593845055,0.02032515695538439,0.9814743209334438
2016-11-10,1,0.000760186267841855,0.0008587127078237362,-0.010255801263716413,0.02032515695538439,0.9832637818325629
2016-11-14,1,0.00046217433759432515,0.0005750333678784662,-0.007188040578631516,0.017296838340785166,0.9847705473351457
2016-11-16,-1,-0.003507117557030681,-0.0028020584024537106,-0.010255801263716413,0.017296838340785166,0.9826192392370923
2016-11-18,-1,-0.002910649485913427,-0.0023360047803170914,-0.010255801263716413,0.013889452285011173,0.9848983014439927
2016-11-22,-1,-0.002995774472898006,-0.0024330505477204688,-0.007188040578631516,0.016519540163512106,0.9850440075962438
2016-11-25,-1,-0.0015200983264481236,-0.0011741887808398555,-0.00886455385989392,0.013889452285011173,0.9857930351916343
2016-11-29,0,-3.2226652030212374e-06,0.00011985253183211984,-0.009751647068866972,0.01285789564011673,0.9871406186077631
2016-12-01,-1,-0.0014954857672563953,-0.0012644979197982485,-0.006504193571942292,0.01285789564011673,0.98926933059739
2016-12-05,1,0.0014013180057435453,0.0014395783996062285,-0.006504193571942292,0.01285789564011673,0.989540028173823
2016-12-07,1,0.0016529336408326485,0.0017293180454819842,-0.006799891308266642,0.012162725957135991,0.9896678885107032
2016-12-09,1,0.0017235694356307167,0.0018031006771306425,-0.006799891308266642,0.011253115669434982,0.9895875322070797
2016-12-13,1,0.002308001566100929,0.0024590128964449716,-0.006799891308266642,0.010412587451403775,0.9899197014485565
2016-12-15,1,0.0017264747220464625,0.0017714291037240599,-0.004984128020910675,0.01064588266918502,0.9904615889438164
2016-12-19,1,0.0006592045803652985,0.0007461883909344343,-0.004225667579384133,0.01064588266918502,0.9916198328813751
2016-12-21,1,0.000780149728929231,0.0008587592182914554,-0.004225667579384133,0.010360845066305953,0.9919042236910535
2016-12-23,1,0.0010923487047165385,0.0011137481243143187,-0.003739283715084294,0.011097888514141516,0.991497347384801
2016-12-28,1,0.0006202410628874862,0.0006940240822626166,-0.002716939483494931,0.011097888514141516,0.9919293146056941
2016-12-30,1,0.0005845079769811088,0.0006616943762463195,-0.002716939483494931,0.011097888514141516,0.9922147768200598
2017-01-04,1,0.0009107375721241831,0.0009626402654291544,-0.002716939483494931,0.011097888514141516,0.9922642166258384
2017-01-06,1,0.001125858288802789,0.0011379587847999795,-0.002716939483494931,0.010360845066305953,0.9926092227712608
2017-01-10,1,0.0007624747347065861,0.000853442872770305,-0.003653301373381754,0.008773833889083552,0.9928267769551574
2017-01-12,1,0.0004987543000002088,0.0006297340223237204,-0.002716939483494931,0.013180619618099262,0.9896788267059552
2017-01-17,1,0.0012226321927958053,0.0012260643634402803,-0.002494288059567343,0.011400352544684461,0.9899991428594008
2017-01-19,1,0.0011337393161053682,0.001158872172700322,-0.002494288059567343,0.013180619618099262,0.989057754355499
2017-01-23,1,0.001992582735347753,0.0021664030904421103,-0.002985347101598991,0.013180619618099262,0.9890093146628519
2017-01-25,1,0.003972011949587758,0.004405579695514413,-0.00579069863916142,0.009019848087767233,0.9890633484967288
2017-01-27,1,0.004342220898296296,0.004896303786804921,-0.006048601329195188,0.009019848087767233,0.9888896699270379
2017-01-31,1,0.0018597835762268727,0.0019508233540407778,-0.00868357784459737,0.010305674498255507,0.9874387652947328
2017-02-02,1,0.00198462055524945,0.0020486383401201414,-0.009173019211834318,0.009019848087767233,0.9872914420119077
2017-02-06,1,0.001889542763093175,0.001980228013277197,-0.00868357784459737,0.009621082261709822,0.9876351240343584
2017-02-08,1,0.001955150876554512,0.00211484685581991,-0.005891240085586467,0.009621082261709822,0.9880770004077746
2017-02-10,1,0.003803858450972265,0.004167063819464503,-0.005891240085586467,0.008712179099841136,0.9907689771543482
2017-02-14,1,0.003997504822514195,0.004448819941591262,-0.005891240085586467,0.008035338392147973,0.9905033882559345
2017-02-16,1,0.004421159612452028,0.004914551491799569,-0.008569454692340252,0.0025571802125231246,0.989968404346945
2017-02-21,1,0.003552820507554335,0.003907984820182545,-0.008569454692340252,0.0025571802125231246,0.9900717547215017
2017-02-23,1,0.002750398023985346,0.002952483575827257,-0.005891240085586467,0.005067964295600467,0.9909470883508159
2017-02-27,1,0.0024208344383158465,0.002578723594213171,-0.0054082932974459565,0.007765070605908375,0.9911693093491175
2017-03-01,1,0.0032240168977124527,0.0034931925129822717,-0.00400363299298603,0.0071331290430645105,0.992828374422606
2017-03-03,1,0.002062973505947846,0.0021361524674407056,-0.0029988578402527903,0.0071331290430645105,0.9937062818661297
2017-03-07,1,0.0012755311281978017,0.0013709176307125433,-0.005413126150887987,0.004643721027813239,0.9931250825281528
2017-03-09,1,0.0010564783616170957,0.0011749551339189541,-0.005413126150887987,0.004643721027813239,0.99322871864926
2017-03-13,1,0.0017033377106476268,0.00172543545772199,-0.005413126150887987,0.004643721027813239,0.9932892715822184
2017-03-15,1,0.001183043631161169,0.0012513508462850384,-0.008569454692340252,0.004643721027813239,0.9932962278960297
2017-03-17,1,0.0006112075558827714,0.0007191144261420775,-0.0030202529675156567,0.0064438532717894705,0.9931206383324219
2017-03-21,1,8.497826457215155e-05,0.0002445396170160319,-0.0004260962838568253,0.00736203598476469,0.9927850542957563
2017-03-23,1,0.00016491928759739926,0.00035498541491659884,-0.0004260962838568253,0.00736203598476469,0.9923026494089386
2017-03-27,1,0.0004750210699800907,0.0006554513342702894,-0.0004260962838568253,0.0065201555856895296,0.9928121469139856
2017-03-29,1,0.0004337387087735694,0.000596801304469036,-0.0002994179280367703,0.0065201555856895296,0.992650448530856
2017-03-31,1,0.002383445545549367,0.0024725316870599467,-0.0017007558742171062,0.009013061040133,0.9921115084537692
2017-04-04,1,0.0016320801739029645,0.0016504960391887863,-0.0002994179280367703,0.009013061040133,0.9931874029563097
2017-04-06,1,0.00043170201101643956,0.0006711213543172784,-0.0009031510104151818,0.015192508352565928,0.9915427841093412
2017-04-10,1,0.00015996841380435452,0.0004669427366802588,-0.002357827443573088,0.015192508352565928,0.9915854151614778
2017-04-12,-1,-0.0006178556439163541,-0.00021706197147218563,-0.0013729178342835224,0.017759452768364374,0.9890760572220163
2017-04-17,1,0.00033092971549688373,0.0005749444652451739,-0.0013729178342835224,0.01788094273032151,0.9891402676730429
2017-04-19,1,0.0012498791357191956,0.0014085201988822895,-0.002357827443573088,0.016404817690074715,0.9873934744992464
2017-04-21,1,0.0029324132381475425,0.0030431288037983052,-0.004852252593583314,0.016404817690074715,0.9862869729222895
2017-04-25,1,0.003608786732859699,0.003845484387347483,-0.004852252593583314,0.01963305500330779,0.983002226432572
2017-04-27,1,0.002064366823079559,0.002146176325407005,-0.004852252593583314,0.02311471997466485,0.9797169975265978
2017-05-01,1,0.0028006590553625657,0.002857060015612573,-0.006350516055521609,0.02311471997466485,0.9790087616662705
2017-05-03,1,0.0026764772543719025,0.002736735897498615,-0.006350516055521609,0.02311471997466485,0.978250327610995
2017-05-05,1,0.003446208695006179,0.003637938650902582,-0.006735631057080628,0.01963305500330779,0.9791370350206956
2017-05-09,1,0.0033312955635362764,0.003547077767737698,-0.006735631057080628,0.022995413663983257,0.9785184083262595
2017-05-11,1,0.004773081120978406,0.005151525816618418,-0.009913796475799026,0.01963305500330779,0.9783585278394256
2017-05-15,1,0.004440218307982207,0.00468014628776963,-0.013448602054841139,0.018888150074458515,0.9781761761196333
2017-05-17,1,0.0028037798436207108,0.002845935900489374,-0.007756104693903824,0.018888150074458515,0.9806473655479698
2017-05-19,1,0.003129751769031751,0.003208617538890882,-0.005734985478502243,0.012520917909886888,0.9826418269931447
2017-05-23,1,0.005300426787163691,0.005620840982137039,-0.007756104693903824,0.009178734128303365,0.9843722918157453
2017-05-25,1,0.007543017375903647,0.008143000800496656,-0.007756104693903824,0.0026194205772035687,0.9856346857292096
2017-05-30,1,0.006246140835378147,0.00669374472847736,-0.005734985478502243,0.005499934182277432,0.9865285521127809
2017-06-01,1,0.006631397404390335,0.007102992809688973,-0.007071328716252848,0.0026194205772035687,0.9850215614220521
2017-06-05,1,0.006071266359995366,0.006488704206548611,-0.011050904339515598,0.005664933870734475,0.9850351550490641
2017-06-07,1,0.006789928948280326,0.007284138983486922,-0.011050904339515598,0.003886993239620345,0.9849345905596628
2017-06-09,1,0.004452285181998129,0.0046415033564257985,-0.006289820895637778,0.009775806264254434,0.9882256807921169
2017-06-13,1,0.003844720431695598,0.003951403320612379,-0.003655874555912428,0.013091409918315247,0.988465750003659
2017-06-15,1,0.003271100590076691,0.0033017072800270598,-0.00430446770400481,0.013091409918315247,0.9883135290364016
2017-06-19,1,0.003561955870806324,0.0036893135548880934,-0.00430446770400481,0.017092581187072353,0.9876081254444706
2017-06-21,1,0.002572930032403315,0.002594670078006165,-0.0030204665068420335,0.017092581187072353,0.9878501607565717
2017-06-23,1,0.0020226463624424323,0.002124137830258531,-0.0024541449207052452,0.017092581187072353,0.987437453988269
2017-06-27,1,0.0011890810831428455,0.0013561395923571834,-0.001499015114618815,0.017092581187072353,0.9884773430059163
2017-06-29,1,0.0013781866733229378,0.0015636758829511014,-0.001499015114618815,0.01592357606212323,0.9891787429515713
2017-07-03,1,0.00044371666970200634,0.0007746460719460778,-0.001499015114618815,0.01592357606212323,0.9898804022185343
2017-07-06,1,0.0025507910594571724,0.002630995478904139,-0.0024541449207052452,0.016226937190969973,0.9858071963737076
2017-07-10,1,0.002719579806584563,0.002835749353695518,-0.005514062227963815,0.016226937190969973,0.9845477272265326
2017-07-12,1,0.004432724645843643,0.004837936552153485,-0.006196154903074522,0.012996686202604756,0.9856051686678544
2017-07-14,1,0.0031833423713106004,0.003373189372653215,-0.006196154903074522,0.012996686202604756,0.9844195201003462
2017-07-18,1,0.003188054476212991,0.003326867432109795,-0.006196154903074522,0.012996686202604756,0.9845409869673358
2017-07-20,1,0.0029049125748228694,0.0029797261816958947,-0.007002008083798127,0.014858581204395541,0.9840007491218041
2017-07-24,1,0.0038131043427612494,0.004047657955445835,-0.007002008083798127,0.013022083510763501,0.9842579485585682
2017-07-26,1,0.0040360407346162735,0.0042564577067341625,-0.007002008083798127,0.013069564774206172,0.9831107709604192
2017-07-28,1,0.003501376729546148,0.003675606158187465,-0.006492135124920643,0.013069564774206172,0.9836175325217281
2017-08-01,1,0.0030080860596013487,0.0031064365838156544,-0.006108225661109916,0.013069564774206172,0.9836190791755784
2017-08-03,1,0.0042760467892918866,0.004541879151787039,-0.0058467471633031325,0.013069564774206172,0.9880183318202226
2017-08-07,1,0.004297082016470132,0.004533765395440389,-0.0058467471633031325,0.012474291627148016,0.9887543750057626
2017-08-09,1,0.0036296347403081217,0.00371848348549341,-0.0059454072372518395,0.013215205553549084,0.9869984756860491
2017-08-11,1,0.001969843702920451,0.002150859283577808,-0.00218122658972493,0.013215205553549084,0.9888276469574766
2017-08-15,1,0.0021063224504408312,0.0021655410913928434,-0.0059454072372518395,0.012474291627148016,0.9887042812546442
2017-08-17,1,0.0026605873534676296,0.002719789761884124,-0.0026468274675748664,0.012378399746267154,0.9894271473889882
2017-08-21,1,0.002770004375317201,0.0028300426179000094,-0.0026468274675748664,0.012426946672714791,0.989390405856292
2017-08-23,1,0.0034808920266775974,0.003512641799640661,-0.0027997603494762657,0.010636685357842958,0.9904424654703928
2017-08-25,1,0.0024608840378257083,0.002624194504711967,-0.004125167619779527,0.011348581458519883,0.9881475044146384
2017-08-29,1,0.002589488057456135,0.002753425243291096,-0.004125167619779527,0.011412910036445262,0.987377529757774
2017-08-31,1,0.003056494155689117,0.0031707018980638773,-0.004125167619779527,0.011412910036445262,0.9875564097480384
2017-09-05,1,0.0019855105932550954,0.0022655766830816486,-0.004125167619779527,0.010298673145753116,0.9878439763688955
2017-09-07,1,0.002703267440058955,0.0028914206415915243,-0.0014751641691891052,0.011578384798316788,0.9890835423601921
2017-09-11,1,0.0030731654221688195,0.0031554871761203165,-0.004125167619779527,0.013578575511240943,0.9865993400768298
2017-09-13,1,0.0025847404926747095,0.0026677788567263812,-0.004086467393554456,0.013578575511240943,0.9862434171230063
2017-09-15,1,0.0029777715220342697,0.0030210930216516742,-0.004169145305278352,0.013578575511240943,0.9862598915009595
2017-09-19,1,0.0034922706689995394,0.003514942561610948,-0.00930976527046751,0.011586114495904375,0.986362141737693
2017-09-21,1,0.0030335101529160393,0.0030492277961186643,-0.003257903261286051,0.011586114495904375,0.9868196339569073
2017-09-25,1,0.0012043926585475159,0.0014500569555966972,-0.0014616853611657693,0.011586114495904375,0.9895887677036738
2017-09-27,1,0.0023519603055754497,0.0024303426844694007,-0.0019898597718612104,0.009548831824984425,0.9907727201250724
2017-09-29,1,0.0025149869046534267,0.0026058051393942107,-0.0019898597718612104,0.009548831824984425,0.9904196669328316
2017-10-03,1,0.0026856175697638047,0.002686754089284287,-0.0007445870289053338,0.011882858553168285,0.9905422796209534
2017-10-05,1,0.003753597908640764,0.0039035009988164665,-0.0019898597718612104,0.008690586659634602,0.9906313074296096
2017-10-09,1,0.00253019696176505,0.0026096997959980904,-0.0019898597718612104,0.00726712996082672,0.9924129667385121
2017-10-11,1,0.0014660620588059477,0.0016319280461979736,-0.0019898597718612104,0.00726712996082672,0.9884158427023971
2017-10-13,1,0.0027023048853178425,0.0029577311887889826,-0.003919997022496751,0.0057133121629499494,0.9877756128658907
2017-10-17,1,0.0019355775611553483,0.0020926827057398774,-0.0014416458308223496,0.00726712996082672,0.9871702354419231
2017-10-19,1,0.0019020486881422473,0.0020244399470843366,-0.003919997022496751,0.009684971101911707,0.9862462770628119
2017-10-23,1,0.0018423683070109757,0.0019831299941198348,-0.006546524845197718,0.009684971101911707,0.9855819368538433
2017-10-25,1,0.0016117600454414885,0.0016880135639578194,-0.009076362180687723,0.01322650029506971,0.9846723680757143
2017-10-27,1,0.0024892915678740362,0.002725866236483722,-0.009076362180687723,0.009684971101911707,0.9856468963371948
2017-10-31,1,0.003283639000954461,0.0035935631985735943,-0.012922249502259673,0.004697231652664364,0.9835440517700944
2017-11-02,1,0.0023486043284600914,0.002480985622922732,-0.009987918482071994,0.004697231652664364,0.9844010678645564
