JNU-Tangyin/eata/results/Batch4_SP500/Batch4_SP500-DPZ.csv
Date,Action,Predicted_Q25,Predicted_Q75,Actual_Q25,Actual_Q75,RL_Reward
2010-12-14,0,0.0,0.00183651025857755,-0.004402834413104511,0.012213510403975744,0.990790582307529
2010-12-16,1,0.0010697232527701957,0.001109647833995257,-0.0034388730963511695,0.009295128856569614,0.9913022627907492
2010-12-20,0,0.0,0.0,-0.005150884817692625,0.005396068609304718,0.9903762113034754
2010-12-22,0,0.0,0.0,-0.0044843820689175464,0.007086263903235455,0.9902705873437068
2010-12-27,0,0.0,0.0,-0.005396771455595433,0.009347644856806761,0.9892108020208474
2010-12-29,0,0.0,0.0,-0.007240591351425993,0.012280272406906254,0.9879048964414605
2010-12-31,-1,-0.0007102153151282088,-0.000608984010518765,-0.008200291235838465,0.012280272406906254,0.9863560544064085
2011-01-04,1,0.0026904669394054942,0.0027567840333822995,-0.008074348978354975,0.012280272406906254,0.9863841670671777
2011-01-06,1,0.003965646740505872,0.004238106074229939,-0.011376982299029371,0.009347644856806761,0.9868214415406658
2011-01-10,0,0.0,0.0,-0.011376982299029371,0.009597916658629125,0.9860988857627936
2011-01-12,0,0.0,0.0,-0.00857737640353355,0.008901743540755618,0.9876937856439466
2011-01-14,0,0.0,0.0,-0.00857737640353355,0.009597916658629125,0.9868860480896884
2011-01-19,0,0.0,0.0,-0.0073662864073243545,0.012280272406906254,0.987054658078941
2011-01-21,0,0.0,0.0,-0.008387366551300509,0.01094256845875282,0.9869453676167532
2011-01-25,0,0.0,0.0,-0.010131534559926292,0.006822396304777508,0.9862327728275487
2011-01-27,0,0.0,0.0,-0.008387366551300509,0.006822396304777508,0.9865934478337811
2011-01-31,0,0.0,0.0,-0.008387366551300509,0.006822396304777508,0.9868709170364884
2011-02-02,0,0.0,0.0,-0.008387366551300509,0.00922528426915141,0.9865214236222636
2011-02-04,1,0.0031437366368306614,0.003491939879583618,-0.008387366551300509,0.010300182445231404,0.9864961268730591
2011-02-08,1,0.0026875027459782575,0.0027802900286002744,-0.008173792731583876,0.014615884166316607,0.9859992827438445
2011-02-10,0,0.0,0.0,-0.008173792731583876,0.01788455833632826,0.9849099056477335
2011-02-14,0,0.0,0.0,-0.01033966084881339,0.014615884166316607,0.9850629809714218
2011-02-16,0,0.0,0.0,-0.008571928872704014,0.013105310256264753,0.9862892293555823
2011-02-18,0,0.0,0.0,-0.0074014661298462195,0.014319001782558672,0.9861117950812408
2011-02-23,-1,-0.0006773073610465252,-0.00011656445674494264,-0.006096489448132717,0.014319001782558672,0.9874364945281495
2011-02-25,-1,-0.0013906222692455926,-0.0008053680763614624,-0.006096489448132717,0.01413540078319926,0.987612604522186
2011-03-01,-1,-0.002492101283353104,-0.0018022494964543333,-0.006096489448132717,0.01413540078319926,0.9884997854783534
2011-03-03,1,0.0011217000767865957,0.0012486945466758845,-0.007429480853791668,0.01413540078319926,0.9891657473263146
2011-03-07,1,0.0013585986980439086,0.0014179942715638572,-0.006096489448132717,0.01413540078319926,0.9903023889039673
2011-03-09,0,0.0,0.0,-0.007429480853791668,0.0090745907988131,0.990588749574972
2011-03-11,0,0.0,0.0,-0.007855783761639597,0.0063708918760460795,0.9910464067241004
2011-03-15,0,0.0,0.0,-0.007855783761639597,0.005240162506943057,0.9919689152007178
2011-03-17,0,0.0,0.0,-0.007855783761639597,0.0067448482942913815,0.9918412812358594
2011-03-21,0,0.0,0.0,-0.007855783761639597,0.005726914286901552,0.9922958570720518
2011-03-23,1,0.0024676816584701337,0.0025691048099889847,-0.005231756362985843,0.0067448482942913815,0.9919303838983229
2011-03-25,1,0.0032317178206324893,0.003421083861604426,-0.005231756362985843,0.005262765651756625,0.9918740871111422
2011-03-29,0,0.0,0.0,-0.00436694969939759,0.0067448482942913815,0.9922424068531384
2011-03-31,0,0.0,0.0,-0.00436694969939759,0.0067448482942913815,0.9932716283877009
2011-04-04,0,0.0,0.0,-0.00436694969939759,0.008745971916858858,0.9923964572228128
2011-04-06,0,0.0,0.0,-0.0035730101022643933,0.010298427362632345,0.9879056339715228
2011-04-08,0,0.0,0.0,-0.001489953598884904,0.01238402770340175,0.9872659525058758
2011-04-12,0,0.0,0.0,-0.0011358378783138437,0.014551995041365385,0.9857800289121063
2011-04-14,0,0.0,0.0,-0.0011358378783138437,0.01917869865767043,0.9817163225485968
2011-04-18,0,0.0,0.0,-0.0011358378783138437,0.01917869865767043,0.9844477861830114
2011-04-20,0,0.0,0.0,-0.0011358378783138437,0.020871519321735595,0.9833087141999589
2011-04-25,0,0.0,0.0,-0.0006728544332409682,0.020871519321735595,0.9834342862577654
2011-04-27,1,0.00018472065000726295,0.0009984961779767661,-0.0007328204665033403,0.020871519321735595,0.9872966532527317
2011-04-29,1,0.0003507014629535578,0.0006190493624855418,-0.0007328204665033403,0.020871519321735595,0.9847179349672719
2011-05-03,1,0.0021499664270169007,0.0021885337976044494,-0.0013959766424673815,0.015580382374321312,0.9846506195839054
2011-05-05,0,0.0,0.0,-0.002043183868727766,0.012680718579255887,0.988800568714749
2011-05-09,0,0.0,0.0,-0.003560797091834685,0.01174282461763847,0.9884402824709231
2011-05-11,0,0.0,0.0,-0.005147657849802682,0.011188733733707903,0.9889160189786256
2011-05-13,0,0.0,0.0,-0.008528563286985771,0.008864891572501641,0.9895344666135024
2011-05-17,0,0.0,0.0,-0.01266455908873765,0.008864891572501641,0.9881575973261971
2011-05-19,0,0.0,0.0,-0.01266455908873765,0.006472859544686806,0.9896178438646324
2011-05-23,0,0.0,0.0,-0.01266455908873765,0.011029117180709825,0.9881653126835173
2011-05-25,0,0.0,0.0,-0.01266455908873765,0.011098858357774992,0.9875495321011967
2011-05-27,1,0.008421366073594588,0.009228885702074627,-0.01266455908873765,0.011966515635122606,0.986611033932313
2011-06-01,1,0.008565821645046493,0.00943421953258395,-0.014151323843933795,0.012808173126799438,0.9857486075706486
2011-06-03,1,0.007743562573240038,0.008498704657914665,-0.009427350322582876,0.017235674862759197,0.9863541396542086
2011-06-07,1,0.006956611329383427,0.007628053354450295,-0.003540515680810361,0.017235674862759197,0.987579180879355
2011-06-09,1,0.006299071454862943,0.006901989648568494,-0.001986046340699578,0.017235674862759197,0.9890529970385208
2011-06-13,1,0.0045147071667972685,0.004768603155769538,-0.0035188149410487445,0.017235674862759197,0.9888238396373349
2011-06-15,1,0.005099420553721839,0.005446073426888197,-0.0035188149410487445,0.013956405511537125,0.9899678580835676
2011-06-17,1,0.005102193213327527,0.0054511612107332776,-0.00805840534050127,0.013956405511537125,0.989260445421538
2011-06-21,1,0.0063253216711046546,0.006849023070540244,-0.008208008682863553,0.013956405511537125,0.9885950499598448
2011-06-23,1,0.005482868344801905,0.005788209260346494,-0.008142906463578705,0.00871229007729685,0.9895252142496705
2011-06-27,1,0.005935928520580556,0.006352421934682299,-0.008142906463578705,0.01048069611562745,0.9883438089119274
2011-06-29,1,0.004878546172912679,0.005122199821255026,-0.008142906463578705,0.007914010807325447,0.9890055910901064
2011-07-01,1,0.0052538388141960095,0.005534988072337192,-0.008142906463578705,0.007914010807325447,0.9895271372564152
2011-07-06,1,0.00466005574689623,0.004844685462448697,-0.008487056733988436,0.010370327256720692,0.9860349871849503
2011-07-08,1,0.005463505644759425,0.0057968720805555395,-0.009022908299859779,0.010370327256720692,0.9828852038052914
2011-07-12,1,0.004520727563205339,0.004724061700098887,-0.009022908299859779,0.012544427348821385,0.9764628843072999
2011-07-14,1,0.0039039280230961934,0.003955602911035872,-0.008487056733988436,0.012698561152101235,0.977078731739977
2011-07-18,1,0.0020842453823885702,0.002334414425770808,-0.005646143007990703,0.013357303689855405,0.9774022914928152
2011-07-20,1,0.0025394825408458343,0.002711341124217217,-0.004210026644753488,0.012653639335832682,0.9784507817381838
2011-07-22,1,0.0016726154205738838,0.002000272433137773,-0.012495531929646878,0.012653639335832682,0.9769625859366182
2011-07-26,1,0.0035594399269613932,0.0035679656902150034,-0.012495531929646878,0.013357303689855405,0.9765735251462845
2011-07-28,0,0.0,0.0,-0.014532512037327054,0.015800873730316772,0.97490438783769
2011-08-01,1,0.002418397036818384,0.002467590038005651,-0.014532512037327054,0.02354026585516136,0.9729496309272331
2011-08-03,0,0.0,0.0,-0.010271912587216575,0.02069296692884376,0.9751613655947406
2011-08-05,0,0.0,0.0,-0.011711572631809447,0.02069296692884376,0.976207313621313
2011-08-09,0,-0.0004214725950305923,7.704670907779029e-05,-0.010271912587216575,0.01944772220721379,0.9833688849546568
2011-08-11,1,0.0003315810568802807,0.0007209343419618604,-0.011711572631809447,0.02069296692884376,0.9813120539463316
2011-08-15,1,0.0003165866146434631,0.0007276682028560229,-0.013932252979239095,0.02131277556511442,0.98010193438721
2011-08-17,0,0.0,0.0,-0.013932252979239095,0.02131277556511442,0.9794318325523478
2011-08-19,0,0.0,0.0,-0.011711572631809447,0.0231945119021234,0.9787663934617158
2011-08-23,0,0.0,0.0,-0.013932252979239095,0.020846655052500475,0.9802764256980491
2011-08-25,-1,-0.0007570058449820065,-0.000222158038087152,-0.013932252979239095,0.020846655052500475,0.980663732015092
2011-08-29,1,0.00107243902208324,0.0014220375246461808,-0.013932252979239095,0.019654325085970675,0.9827533389453333
2011-08-31,0,0.0,0.0,-0.01807402368913026,0.019171598293833757,0.9808622354368767
2011-09-02,0,0.0,0.0,-0.01807402368913026,0.019171598293833757,0.979803916472059
2011-09-07,0,0.0,0.0,-0.01807402368913026,0.020846655052500475,0.9793988192217007
2011-09-09,0,0.0,0.0,-0.01807402368913026,0.020846655052500475,0.979632357241925
2011-09-13,-1,-0.0022850335971477016,-0.0014663625922219973,-0.00826463575780742,0.02174022960833069,0.9789566421375157
2011-09-15,-1,-0.002306288195894106,-0.0014557765808967883,-0.00826463575780742,0.02174022960833069,0.9795985295764933
2011-09-19,0,-0.0002813394846290008,0.00031546654636869587,-0.016858321462798566,0.014195441973046674,0.9811181119616001
2011-09-21,0,0.0,0.0,-0.0076492199952066355,0.024617932786838333,0.9766250272595163
2011-09-23,0,0.0,0.0,-0.007456961777386004,0.026034895073285543,0.9759887811316873
2011-09-27,1,0.0008104409829562885,0.0009790817463610278,-0.01566613104673589,0.026034895073285543,0.9759385846937646
2011-09-29,-1,-0.0010436431866158956,-0.0006271319455513991,-0.015523899966350624,0.02909908229685667,0.9762975245434389
2011-10-03,-1,-0.001799659547117154,-0.00136106168410786,-0.009885090918366306,0.02909908229685667,0.9782561962782989
2011-10-05,0,-5.438137975945711e-05,0.00012631716904713916,-0.014873760072669443,0.027057071899514208,0.9789702002461104
2011-10-07,-1,-0.0003528235942697047,-0.00013805907228309363,-0.009685053332951034,0.018241809962938862,0.9808311547406802
2011-10-11,1,0.0018322988578411597,0.001943633500284766,-0.009685053332951034,0.015042665274928793,0.981950646410199
2011-10-13,1,0.0016989216722971877,0.0017808855411991073,-0.014873760072669443,0.015042665274928793,0.9812275235613415
2011-10-17,1,0.0016089372302728188,0.0016913767602378888,-0.009685053332951034,0.014813724956887292,0.9818942225180248
2011-10-19,1,0.004952408334111251,0.005460176949531459,-0.014873760072669443,0.012470149430611917,0.9843874346928406
2011-10-21,1,0.006088679987877182,0.006737750301602034,-0.009685053332951034,0.009792983097936766,0.9875330286405021
2011-10-25,1,0.005092394214795494,0.005569021217692317,-0.009685053332951034,0.008377773670787575,0.9871499454111738
2011-10-27,1,0.005053020202690768,0.005480321757705377,-0.009685053332951034,0.006053906501483805,0.9873592961477969
2011-10-31,1,0.0040040904426522405,0.004254298543774856,-0.00952208357591502,0.012470149430611917,0.9870516085099935
2011-11-02,1,0.0031419772534137308,0.0032411920171862727,-0.005495632103445204,0.015629775409908828,0.9857370541953725
2011-11-04,1,0.003494106268540453,0.003662879094042506,-0.007314782951854692,0.015629775409908828,0.9861803843529422
2011-11-08,1,0.003817749020990191,0.004026419151771228,-0.007314782951854692,0.012941105823423907,0.9867309799934612
2011-11-10,1,0.0035310372762281735,0.0037558751014086463,-0.0038136688774478436,0.015629775409908828,0.9865658036539142
2011-11-14,1,0.003981882083523052,0.004274010282556464,-0.0038136688774478436,0.015629775409908828,0.986877715347674
2011-11-16,1,0.0035880078027804574,0.0038455710973927548,-0.0038136688774478436,0.013648809848392719,0.9866042807090215
2011-11-18,1,0.003659487633523893,0.003922781166877347,-0.007314782951854692,0.013648809848392719,0.9851022970575511
2011-11-22,1,0.0027642395796731558,0.0029386982076235824,-0.004480829482106185,0.015629775409908828,0.9855409250892048
2011-11-25,1,0.0015333380934054082,0.0015396614059237166,-0.00292347190459989,0.015711229173498938,0.9858432576280872
2011-11-29,1,0.002820584599444476,0.003011856560033967,-0.00292347190459989,0.013648809848392719,0.9877954768687173
2011-12-01,1,0.003936684668521678,0.004226497025736407,-0.004478672854180056,0.007531746222234997,0.9892582238166419
2011-12-05,0,0.0,0.0,-0.004478672854180056,0.010306669389861047,0.9869671321886173
2011-12-07,1,0.0032553496094378225,0.003414504553819963,-0.008483915456096615,0.010306669389861047,0.9869957591520925
2011-12-09,1,0.004379172028647951,0.004702281514175089,-0.008483915456096615,0.008421755626435892,0.9877276434945018
2011-12-13,1,0.0042560184322865974,0.004553083875188588,-0.00945495016396503,0.009593997501308479,0.9871238038814362
2011-12-15,1,0.003545065802845489,0.0038422469901121335,-0.01016915041633058,0.008653096743593418,0.9871614595359561
2011-12-19,1,0.0020695561324750884,0.0021109665737886305,-0.009865025881339326,0.011067227786072895,0.9873044618697692
2011-12-21,1,0.003101316407314629,0.0032981946969692184,-0.01238611418385099,0.008653096743593418,0.9865745361618526
2011-12-23,1,0.003062681221786037,0.0032361009512015698,-0.01238611418385099,0.011067227786072895,0.9861377884167702
2011-12-28,1,0.002023929781510994,0.0021013746526553695,-0.01238611418385099,0.011067227786072895,0.9858708080171192
2011-12-30,1,0.0013481306810632448,0.0015673135445836016,-0.011554517894676484,0.011067227786072895,0.9864267300842247
2012-01-04,1,0.0012704820016731682,0.0014697750226924692,-0.009865025881339326,0.01023212597297525,0.9882760061167433
2012-01-06,0,0.0,0.0,-0.009865025881339326,0.011067227786072895,0.9866538445843567
2012-01-10,0,0.0,0.0,-0.009865025881339326,0.01023212597297525,0.987628781854193
2012-01-12,0,-0.0002125677794837834,0.0002006883258839395,-0.011554517894676484,0.007836670634543545,0.9876215639727749
2012-01-17,-1,-0.0012664464236996653,-0.0008244644883973462,-0.008371351652579571,0.007836670634543545,0.989652158738647
2012-01-19,-1,-0.0019079226978341442,-0.0013455839333660628,-0.004140992826655639,0.007836670634543545,0.9899937969040131
2012-01-23,-1,-0.0020702379908490555,-0.0015940415449614321,-0.00143303211699928,0.01103124098890966,0.9904623726400881
2012-01-25,-1,-0.0004840815965803858,-0.00019790573756193542,-0.0030316955483600076,0.007315820875163378,0.9920541350437616
2012-01-27,0,0.0,0.0,-0.0030316955483600076,0.008650945068232815,0.9915578677662457
2012-01-31,0,0.0,0.0,-0.004382232168578604,0.008657813535665481,0.9867268549411273
2012-02-02,0,0.0,0.0,-0.008584436890669898,0.008657813535665481,0.9863707352380939
2012-02-06,0,0.0,0.0,-0.004382232168578604,0.008657813535665481,0.9877220170133438
2012-02-08,0,0.0,0.0,-0.004382232168578604,0.011051846391207654,0.9862741062579926
2012-02-10,-1,-0.0011992401675325567,-0.0008658901803337612,-0.0036723170676784917,0.011051846391207654,0.9869990438136338
2012-02-14,-1,-0.0013641636513767568,-0.0009857410683667544,-0.00623342026256933,0.012838426319046737,0.9862847507658458
2012-02-16,-1,-0.001500484366543476,-0.0010815700610889633,-0.00623342026256933,0.012436103873678685,0.9863388897006768
2012-02-21,-1,-0.0007329239287678323,-0.0004379314876922373,-0.008584436890669898,0.012436103873678685,0.9843100161663442
2012-02-23,-1,-0.002339136604479913,-0.0017494428859412675,-0.008590770703973091,0.012436103873678685,0.9806992304427276
2012-02-27,-1,-0.002999319877251066,-0.002311035179123243,-0.009953272468080641,0.012436103873678685,0.9804568121360219
2012-02-29,1,0.0011483143587755467,0.001319499358887402,-0.012173020314868372,0.010748595373870441,0.98450330070765
2012-03-02,1,0.00010058599882200399,0.000422820543383838,-0.009044807350196384,0.012436103873678685,0.9846000738823932
2012-03-06,1,0.0009446847593992193,0.0011247708912252548,-0.009044807350196384,0.012436103873678685,0.9844923401315621
2012-03-08,1,0.0017244752332384035,0.0018190348265664366,-0.012173020314868372,0.010748595373870441,0.984660482160156
2012-03-12,1,0.0012149594338875607,0.0013854384414896527,-0.01844888869834366,0.010748595373870441,0.9823080389216741
2012-03-14,1,0.0029510829214497722,0.0031864548145125694,-0.01844888869834366,0.010748595373870441,0.9813540519153655
2012-03-16,1,0.0036745188456340084,0.004076179270941074,-0.01844888869834366,0.006778194767889506,0.9817583016170802
2012-03-20,1,0.003890131789949675,0.0042929948974497235,-0.013431699003664352,0.003953413577338552,0.9833807721601965
2012-03-22,1,0.0023302661687797975,0.0025389475643536477,-0.012274360450595483,0.006778194767889506,0.9867564799842841
2012-03-26,1,0.001986889951875963,0.002125000779671135,-0.0134957405572273,0.003953413577338552,0.9863543654029816
2012-03-28,1,0.0009262202664757438,0.0009445209431113073,-0.012623231094090179,0.015673567101560523,0.9850708467244125
2012-03-30,1,0.0013999451952345175,0.0014483283291725215,-0.012623231094090179,0.017588601777417966,0.9843352017015304
2012-04-03,1,0.001960467443252959,0.0020974102387762376,-0.016102752912325272,0.015641705127182902,0.979403475441142
2012-04-05,1,0.001167785046095552,0.0011706890791133991,-0.0134957405572273,0.015641705127182902,0.9792560595180897
2012-04-10,0,-0.00011288787660583782,7.873013606084288e-06,-0.012418454564756373,0.015641705127182902,0.9818928544974412
2012-04-12,1,7.639194522889248e-05,0.0002100920048383482,-0.012418454564756373,0.015641705127182902,0.98147331912684
2012-04-16,1,0.0003786814434964499,0.00047018252366912887,-0.012623231094090179,0.015641705127182902,0.9801588273780169
2012-04-18,-1,-0.000777546946430907,-0.0005080247083163169,-0.0134957405572273,0.015641705127182902,0.980199250388595
2012-04-20,-1,-0.0015944324653167424,-0.001170626815397424,-0.015678828107469858,0.006280694930353161,0.979494478747431
2012-04-24,-1,-0.002134856363995152,-0.0016973922451846743,-0.014016694256898249,0.015641705127182902,0.9783021600058309
2012-04-26,1,0.0008465302616535847,0.0008607429250003561,-0.016173919961547836,0.00518202714856484,0.979140230269996
2012-04-30,1,0.0018667219834575775,0.0020112842960646237,-0.016173919961547836,0.0038258661649592453,0.9798622254579431
2012-05-02,1,0.0005808352944058034,0.0005993013192549948,-0.0130980702014537,0.005616139662069042,0.9849989590331313
2012-05-04,1,0.0003372723593234407,0.000350712370282262,-0.015202401913270894,0.005616139662069042,0.9832263210754387
2012-05-08,1,0.00048543425339857694,0.0005301870114983185,-0.015202401913270894,0.007655027287201799,0.9815060491103915
2012-05-10,1,0.00037159642347021394,0.00042688062465751596,-0.015202401913270894,0.007044222106281634,0.9833620949886701
2012-05-14,-1,-0.0014311963067461073,-0.0011119374273034152,-0.015202401913270894,0.007044222106281634,0.9841852009243452
2012-05-16,-1,-0.0017414873676154133,-0.0014341834297318344,-0.015202401913270894,0.007655027287201799,0.9829821770891268
2012-05-18,-1,-0.0031976731817251274,-0.0027347363551054205,-0.012280903812055467,0.008696729671695203,0.9845722023636538
2012-05-22,-1,-0.0013095088654850313,-0.0010812516625848447,-0.015202401913270894,0.007655027287201799,0.9854852932183612
2012-05-24,-1,-0.002418135693386936,-0.0020530316883228504,-0.01589099178796686,0.009021507558205475,0.9839416131068324
2012-05-29,-1,-0.002015402902261472,-0.0016974425131659728,-0.01589099178796686,0.009021507558205475,0.9843649104957156
2012-05-31,-1,-0.002607945967611775,-0.002195750986520849,-0.009365889942592761,0.012722988550792562,0.9840074215062716
2012-06-04,-1,-0.004011193990886484,-0.0034806945909928453,-0.0061921331949968674,0.015729938727428568,0.9845130909723536
2012-06-06,-1,-0.0026168310116122095,-0.00225802705850287,-0.0061921331949968674,0.012722988550792562,0.9870649269565615
2012-06-08,-1,-0.0036299354164810193,-0.003095183787725065,-0.0077761038106617,0.012722988550792562,0.9862504995793397
2012-06-12,-1,-0.003943299823252962,-0.003362458025032804,-0.0061921331949968674,0.012722988550792562,0.9871404945125073
2012-06-14,-1,-0.004931689395707381,-0.0041971759484157115,-0.005672085002853464,0.012722988550792562,0.9867277814809781
2012-06-18,-1,-0.0035445942962066272,-0.003030694149199366,-0.0061921331949968674,0.015729938727428568,0.9857954991055321
2012-06-20,-1,-0.0040103974877411545,-0.0034214599428181464,-0.005672085002853464,0.01941452894899828,0.9854986427488964
2012-06-22,-1,-0.00418467983726694,-0.003588557531454017,-0.0061921331949968674,0.011019822590989171,0.9865752987407818
2012-06-26,-1,-0.0044156478863168125,-0.003811396858924605,-0.0028393332581990688,0.01941452894899828,0.9841991386366655
2012-06-28,-1,-0.0036039175327319695,-0.0030919726891985412,-0.0028393332581990688,0.015622226090173328,0.9850797702120005
2012-07-02,-1,-0.0022860257063808363,-0.0019254061505594154,-0.0028393332581990688,0.01142574358464906,0.9869144970502779
2012-07-05,-1,-0.002932603975638797,-0.002463030880790807,-0.007066931666501164,0.01142574358464906,0.9862132733716531
2012-07-09,-1,-0.002846037317315443,-0.002400250619379477,-0.005162541191422969,0.015622226090173328,0.9857353841896026
2012-07-11,-1,-0.002843244604493097,-0.002414700124796253,-0.0051488707653638615,0.015622226090173328,0.9851256118897782
2012-07-13,-1,-0.0012215799597440433,-0.0010048407219764494,-0.006431584263747921,0.01142574358464906,0.9871453476522029
2012-07-17,-1,-0.0013835681942974618,-0.0011455173557614147,-0.00608906317993951,0.010855256812632282,0.9891554384919072
2012-07-19,-1,-0.00033541378109994813,-0.00022674979043253891,-0.00608906317993951,0.01142574358464906,0.9884488982506412
2012-07-23,1,0.0006205655240478381,0.0008052456112260784,-0.0051488707653638615,0.012585869977244545,0.9891596610036308
2012-07-25,1,0.0016944176811220621,0.001992143190441796,-0.0055629852813503175,0.010855256812632282,0.9904317509645274
2012-07-27,1,0.0024366186075176245,0.0028583668717826445,-0.006252286805065594,0.011339668192068173,0.989528968756551
2012-07-31,1,0.003024313833373494,0.0035855997554521944,-0.006252286805065594,0.013075264298284085,0.9890283664038173
2012-08-02,1,0.002464786107012209,0.0029472561923626957,-0.006252286805065594,0.013075264298284085,0.9891958370476988
2012-08-06,1,0.0031064942886918964,0.0036675107802201902,-0.006252286805065594,0.011339668192068173,0.9900057208704436
2012-08-08,1,0.0033486445373209764,0.003952113277842941,-0.007632503422415964,0.013075264298284085,0.989349885042683
2012-08-10,1,0.003516959647451864,0.004106530903334501,-0.006252286805065594,0.013075264298284085,0.9899102691367889
2012-08-14,1,0.0028131125888285224,0.0032876290766359205,-0.007866799559962084,0.013075264298284085,0.9889934264703256
2012-08-16,1,0.004039653676595096,0.004676940874126241,-0.009332900695018785,0.006497340078377956,0.9890536769737414
2012-08-20,1,0.004269384149441168,0.0048812517952096,-0.009332900695018785,0.005209320369099886,0.9894187356850673
2012-08-22,1,0.00409691874908473,0.004705783738409543,-0.009332900695018785,0.006497340078377956,0.9898770713202804
2012-08-24,1,0.004548263612651773,0.005251739998619975,-0.007920063860625015,0.006497340078377956,0.9902454449581003
2012-08-28,1,0.0046278382862950645,0.005330556157174562,-0.007920063860625015,0.009274443179596388,0.9901101183344079
2012-08-30,1,0.003288113810417729,0.003715678863934816,-0.004642224971325751,0.01230893092444816,0.9892001292321079
2012-09-04,1,0.0036162442034692486,0.0041197309090403676,-0.007920063860625015,0.014177121657846447,0.9884560355442037
2012-09-06,1,0.003915881424872844,0.004474918644964963,-0.0033530026950927606,0.01230893092444816,0.9895562356373974
2012-09-10,1,0.003675374967053382,0.004161917244341897,-0.002894490813395713,0.01230893092444816,0.9895332268343833
2012-09-12,1,0.0029924788514479215,0.0033856798185112596,-0.0011243700319139647,0.01230893092444816,0.9900523106432885
2012-09-14,1,0.0017495242742419286,0.0019251759438210555,-0.0010582261628015277,0.01230893092444816,0.9910472076089726
2012-09-18,1,0.0023743128527510112,0.002702065564013701,0.00013262814985839564,0.014323631421731571,0.9874591957088786
2012-09-20,1,0.0037871563332266874,0.004505057440236614,-0.0010582261628015277,0.014177121657846447,0.9879908123313196
2012-09-24,1,0.0031493545900691425,0.003676599489499237,-0.0011260514936043285,0.01230893092444816,0.9873664577007504
2012-09-26,1,0.00328264083454891,0.003762927867148489,-0.0017312739193681096,0.008436874151025734,0.9877156981028484
2012-09-28,1,0.004404853634314641,0.005033191719631982,-0.0019069528795501796,0.00707969964194051,0.9889764857382839
2012-10-02,1,0.005053773008031281,0.005828203882804918,-0.0017312739193681096,0.0069522127123679,0.9899394133971874
2012-10-04,1,0.004445479672105826,0.0050657860771794044,-0.0019069528795501796,0.00707969964194051,0.9895241223638089
2012-10-08,1,0.0038303700177031224,0.004308525101760838,-0.002440321210857057,0.00707969964194051,0.9889692032836798
2012-10-10,1,0.0019837516092533905,0.002067237594505096,-0.002440321210857057,0.0069522127123679,0.9894746369977127
2012-10-12,1,0.002967221815281577,0.003267210246034397,-0.002440321210857057,0.006819374094532655,0.9898035555875374
2012-10-16,1,0.0039575036117912785,0.004325825752558948,-0.0033197359103362776,0.0032924759695662077,0.992526413116763
2012-10-18,1,0.003923104193747653,0.004302985481244845,-0.0033197359103362776,0.005463138644809394,0.9921253163963766
2012-10-22,1,0.002922997549776351,0.0031417364414491186,-0.002440321210857057,0.005463138644809394,0.9936499076062929
2012-10-24,1,0.0009887765252079273,0.0011714769513728471,-0.0028671357219699897,0.006790982812737034,0.9932754528232961
2012-10-26,0,0.0,0.0,-0.003909588795349834,0.006790982812737034,0.9928363892093361
2012-11-01,0,0.0,0.0,-0.004530272880741838,0.006790982812737034,0.9924475853952397
2012-11-05,0,0.0,0.0,-0.0054392159828466225,0.005463138644809394,0.9928036576831094
2012-11-07,1,0.000968232340423317,0.0011372543794642657,-0.004702593513080622,0.006790982812737034,0.9925870483327244
2012-11-09,1,0.0003439739604990631,0.0005625394247053103,-0.003909588795349834,0.007602667554466612,0.9929662238420985
2012-11-13,1,0.00022062318900684173,0.00048651343298568577,-0.004702593513080622,0.010033848059208232,0.9923546343583854
2012-11-15,0,-5.9207049167015434e-05,0.00022708811319324673,-0.003909588795349834,0.010033848059208232,0.9927853087099192
2012-11-19,1,0.00017890408302037673,0.0004818337138655258,-0.003909588795349834,0.009926422815540285,0.9933618060620012
2012-11-21,1,0.0011711339779913491,0.0012972429801867038,-0.004283453422144381,0.010074249869340588,0.9925848844010183
2012-11-26,1,0.001434882887461993,0.0014994673575311713,-0.005319935702387113,0.009926422815540285,0.9922810087302275
2012-11-28,1,0.0013132375403139154,0.0014096160220529506,-0.005319935702387113,0.009926422815540285,0.9924996665990773
2012-11-30,1,0.00062969045545541,0.0008167928906406941,-0.005319935702387113,0.01021978905398317,0.9914142040650207
2012-12-04,-1,-0.00038681731794679283,-3.287179664585222e-05,-0.005319935702387113,0.011701263280293027,0.9888901676933212
2012-12-06,1,0.000545487685312348,0.0007272226899632882,-0.004372057273028479,0.011701263280293027,0.9891133491406229
2012-12-10,1,0.0012145319967815957,0.0012957547172444258,-0.004841260959951755,0.011701263280293027,0.9892842640676047
2012-12-12,1,0.001837406996830145,0.0018674691995597314,-0.004841260959951755,0.01021978905398317,0.9897445533487358
2012-12-14,1,0.0004995608719318925,0.0007240200183542333,-0.004841260959951755,0.01021978905398317,0.9895391488830328
2012-12-18,1,0.0019957517433470424,0.002015660787117984,-0.004841260959951755,0.011070487354169196,0.9895084876256893
2012-12-20,1,0.0027739562232641326,0.0029239988141259122,-0.00435221238919544,0.011754038351148315,0.9893816884668827
2012-12-24,1,0.001932110812258673,0.0019886436873704067,-0.0033681933519078664,0.011754038351148315,0.9898526957945619
2012-12-27,1,0.0018299853467342515,0.0018381270796460829,-0.004955826214767111,0.011754038351148315,0.9896236135888374
2012-12-31,1,0.0024833859537824444,0.0026013651976758093,-0.004438124865404097,0.007219599841946235,0.9910128799189525
2013-01-03,1,0.002612632649959477,0.002748939877489964,-0.0032404296150029934,0.007219599841946235,0.9929147095652979
2013-01-07,1,0.0028476084554550584,0.0029817061261997934,-0.004438124865404097,0.004797353141280283,0.9922233553008186
2013-01-09,1,0.0022897601493685753,0.0023134229659947155,-0.004572535004052492,0.004797353141280283,0.9922191950126775
2013-01-11,1,0.002723153332126418,0.0029219816831640793,-0.0032404296150029934,0.00517071145005751,0.9926957225996292
2013-01-15,1,0.002470288120593923,0.002625461868964616,-0.0054093605379718565,0.00517071145005751,0.9914279516732011
2013-01-17,1,0.002363226308751279,0.0024636081742982928,-0.005661463182289465,0.00517071145005751,0.9907701888613591
2013-01-22,1,0.003507403576334746,0.0037659599612436113,-0.005969197736727586,0.002566057315529936,0.9908921037149158
2013-01-24,1,0.0032507861986176096,0.003491138610467834,-0.006376832604874209,0.004471419211788832,0.989695842768062
2013-01-28,1,0.0023382418096243606,0.002420842354049367,-0.008421380940912741,0.00517071145005751,0.9888479713712134
2013-01-30,1,0.002403319519959605,0.002487821936197843,-0.008421380940912741,0.013929322247165029,0.9877560154886307
2013-02-01,1,0.00353098856808754,0.0037739842917787238,-0.008421380940912741,0.013124395707699143,0.9880364496686167
2013-02-05,1,0.0024233057104474072,0.002517733620376731,-0.006376832604874209,0.014454685893905661,0.9885797100996219
2013-02-07,1,0.001282875617884559,0.0013973703403820606,-0.006376832604874209,0.014454685893905661,0.9886302412741218
2013-02-11,1,0.0007587347926489876,0.0009783985885244944,-0.006376832604874209,0.014454685893905661,0.9884538791381642
2013-02-13,-1,-0.0007929347278279619,-0.00036509934262723303,-0.0031108341514658926,0.014454685893905661,0.9892650637379872
2013-02-15,-1,-0.0006463879108282082,-0.00026481801387507773,-0.002804480412719241,0.014454685893905661,0.9903854165225056
2013-02-20,-1,-0.0007207753872387626,-0.0003780963964980953,0.0005076861184854758,0.014454685893905661,0.9899410506894881
2013-02-22,1,0.0006065471368842505,0.0007539906059116781,0.0007174775418876769,0.012955174421449934,0.9920016925651592
2013-02-26,1,0.0011974556969664477,0.0012141666465745444,0.0006365001212260549,0.008774457315952874,0.9939561565390026
2013-02-28,1,0.0020457172146472235,0.002133097080337415,-0.00039069163168366873,0.006825163901538273,0.995581251015599
2013-03-04,1,0.002681392195221771,0.0028498823996025353,-0.002172855357774889,0.003990700965591387,0.9949475552624242
2013-03-06,1,0.0032413271233896913,0.0034703055839053485,-0.002804480412719241,0.0033835364908418293,0.9935922673353658
2013-03-08,1,0.0025909736595027934,0.0027027230325185362,-0.0031040817972526457,0.0055114193276625005,0.9929542675015574
2013-03-12,1,0.002530233219325617,0.002647062476772478,-0.004297712475371364,0.006825163901538273,0.9918003912736653
2013-03-14,1,0.003107255218638665,0.003381495899924419,-0.005794197955476376,0.006902368135562909,0.9912134029527258
2013-03-18,1,0.002875167118759399,0.003107496385188466,-0.00883730367710242,0.007499594484436282,0.98970081431077
2013-03-20,1,0.003109443700248682,0.0033357759486410043,-0.009663560066389115,0.006902368135562909,0.9890795057239673
2013-03-22,1,0.003005027772926889,0.003199565819531858,-0.009663560066389115,0.007499594484436282,0.9888845360891992
2013-03-26,1,0.002856821026085448,0.003031140495949349,-0.009663560066389115,0.008457483456094705,0.9889218193982614
2013-03-28,1,0.0029232434143819106,0.0031112032452800223,-0.009663560066389115,0.009228450886101,0.9885723692778374
2013-04-02,1,0.002002213234324568,0.002073355281556061,-0.005794197955476376,0.011029963672473983,0.9874434147403869
2013-04-04,1,0.0023754007570352376,0.0024653563508822162,-0.005847340615037814,0.011029963672473983,0.9883183774750139
2013-04-08,1,0.0018157963293274969,0.001841447438179033,0.0007168471581409839,0.011568322543438132,0.9882981163961659
2013-04-10,0,0.0,0.0,0.0029000738886978063,0.011568322543438132,0.9877959585533082
2013-04-12,0,0.0,0.0,0.0029000738886978063,0.011568322543438132,0.9877370387533955
2013-04-16,0,0.0,0.0,0.0037268832909316523,0.013063467412530214,0.9887446499001609
2013-04-18,0,0.0,0.0,0.0036118511318122474,0.013063467412530214,0.9882462731994799
2013-04-22,0,0.0,0.0,0.0002366491016824678,0.011380391611594614,0.9879574973259662
2013-04-24,1,0.0016080075915302669,0.00160944789936635,-0.00615719784663381,0.011380391611594614,0.9886239173187115
2013-04-26,1,0.0017362725439195891,0.0017463629310010866,-0.007107650161912647,0.013274021867100486,0.9867628588115056
2013-04-30,1,0.0021509386675475682,0.0021808917357256053,-0.007107650161912647,0.013274021867100486,0.9881972117296131
2013-05-02,1,0.0022303670921299166,0.0022809278981314072,-0.007107650161912647,0.011250844533043008,0.9886352908945105
2013-05-06,1,0.0030754618135521326,0.0032405932248277293,-0.007107650161912647,0.009129776447498605,0.9892598606054014
2013-05-08,1,0.0029978609874895725,0.0030831873146259393,-0.008380973389981098,0.009129776447498605,0.987575511792985
2013-05-10,1,0.0027980855175015456,0.002839410357049393,-0.008380973389981098,0.011250844533043008,0.9873989507573616
2013-05-14,1,0.003344045300275881,0.003480650264324303,-0.009472177637389,0.009129776447498605,0.9866529465750874
2013-05-16,1,0.0016279436238415658,0.0017128367163785718,-0.00744211099424794,0.010123056502568412,0.9876812822925745
2013-05-20,1,0.0008457793443091753,0.0010495217523929876,-0.006568154404375921,0.011182089853823208,0.9881522051234722
2013-05-22,1,0.0008750051197656437,0.0010622130640043934,-0.008380973389981098,0.011182089853823208,0.9861747141035864
2013-05-24,1,0.0015629217903106224,0.0016361771858993165,-0.008565604756514456,0.008934368431523038,0.9881604661394626
2013-05-29,1,0.0022997417337177646,0.002395310542620802,-0.008565604756514456,0.008908171928969566,0.9888139409922329
2013-05-31,1,0.002458169684127532,0.002612965385734689,-0.009154921987535657,0.009849058978932426,0.9881908378695919
2013-06-04,1,0.002753543891549145,0.0029343258827659777,-0.009154921987535657,0.011182089853823208,0.987256383379905
2013-06-06,1,0.0024888049404628446,0.002617251412074522,-0.007503654783092393,0.010683320563952887,0.9891040761457959
2013-06-10,1,0.0026938367925268113,0.0028361211827920806,-0.007503654783092393,0.010683320563952887,0.9892286309071617
2013-06-12,1,0.00181304582912453,0.0018462019914824745,-0.0022945225970019078,0.012395661412671073,0.9899446080839951
2013-06-14,1,0.0022785977049689906,0.0024255074093363386,-0.0005589016219072126,0.012395661412671073,0.9906228156649587
2013-06-18,1,0.002384825760329218,0.0025594761619740823,-0.0030748065365220054,0.010419839261838489,0.9907407889364644
2013-06-20,1,0.0007931505651297995,0.0008788567388277968,-0.000826488960092428,0.012395661412671073,0.9919067496431138
2013-06-24,1,0.0002733152031911761,0.0004190896436335856,-8.153411055544676e-05,0.012395661412671073,0.9889651152489857
2013-06-26,1,0.0010994798370415734,0.0011313880672986537,-8.153411055544676e-05,0.01328135504258153,0.9881259885824422
2013-06-28,1,0.0007190044241297154,0.0008369985779696305,-8.153411055544676e-05,0.01320869003747827,0.9884520112392348
2013-07-02,1,0.001457918567365294,0.0015036535496787337,-8.153411055544676e-05,0.012395661412671073,0.9898122552464994
2013-07-05,1,0.0017756036932786838,0.0017824400635004104,-0.0027526520510089665,0.012654014654116325,0.9889607184530048
2013-07-09,1,0.001494589715453904,0.0015861638969531188,-0.006107907847054651,0.012523075050490915,0.9882421211488278
2013-07-11,1,0.0015579314292579129,0.0016550894610340289,-0.007092914130934198,0.00938862132413427,0.9882719159897506
2013-07-15,1,0.0013337441495899064,0.0014793683336227713,-0.007092914130934198,0.00938862132413427,0.9882484524709416
2013-07-17,1,0.0012027338720027622,0.0013398530183541802,-0.006126450674395082,0.00938862132413427,0.9882949395638267
2013-07-19,1,0.0010661773088319368,0.0012288118701763429,-0.0072857155611370334,0.007440041989771767,0.9883682772096124
2013-07-23,-1,-0.0014499668912069193,-0.0010484562946697867,-0.007034454782524501,0.00938862132413427,0.9905161228034315
2013-07-25,-1,-0.00028121981414910304,-4.36063923955392e-05,-0.007034454782524501,0.008797165330831138,0.9910762645080573
2013-07-29,1,0.00019871634929763616,0.00035249955769194844,-0.006715991957384263,0.006277916070248292,0.991519066336309
2013-07-31,1,0.0003370248028901752,0.00048324061779419136,-0.007034454782524501,0.007083280030901504,0.9909358655669664
2013-08-02,1,0.00039879724765577295,0.0005465549905250581,-0.007034454782524501,0.0045230451440620946,0.9917165121541636
2013-08-06,1,0.00016536510477038779,0.0003383272465026383,-0.006715991957384263,0.0045230451440620946,0.992717526245883
2013-08-08,0,-0.00016023905236484234,5.663969317292979e-05,-0.006715991957384263,0.0045230451440620946,0.9928452093464472
2013-08-12,0,-7.859753536083381e-05,0.0001104032753056933,-0.006715991957384263,0.010573617306418003,0.990698441590571
2013-08-14,0,-0.00015489052557458643,3.9133916939563564e-05,-0.006715991957384263,0.010573617306418003,0.9908074182114531
2013-08-16,-1,-0.0008040309150723097,-0.0005250436090856725,-0.005874556708658507,0.011509417648002108,0.9907580799379446
2013-08-20,-1,-0.0006444705999899494,-0.0003866988548638456,-0.00560159238687685,0.010573617306418003,0.9910271831400019
2013-08-22,-1,-0.0009950610147913405,-0.0006536906495484449,-0.00560159238687685,0.00940749667722958,0.9912378343585145
2013-08-26,-1,-0.0011385768793212734,-0.000806848546364773,8.318969642391973e-05,0.00940749667722958,0.9910823642830999
2013-08-28,-1,-0.0013669208267023136,-0.0009977794063925033,8.318969642391973e-05,0.009516768149030677,0.991184266620535
2013-08-30,-1,-0.0015293809218325763,-0.001156682785567013,8.318969642391973e-05,0.009516768149030677,0.9913971363484816
2013-09-04,-1,-0.0012833265827753345,-0.0009417654492628859,0.0010257589807268763,0.009631902605947398,0.9908733105691476
2013-09-06,-1,-0.0021046355011560417,-0.0016335727418443655,0.001983586623625619,0.009631902605947398,0.9895840761805351
2013-09-10,-1,-0.0010888459007702478,-0.0007024358943694853,-0.0024544864975397877,0.006292145060766063,0.9919393118053191
2013-09-12,-1,-0.0007050076708177738,-0.00038778978691168277,-0.005597507739029688,0.006926378860201826,0.9914809143602903
2013-09-16,-1,-0.00028499956199087384,-2.651093258524285e-05,-0.005597507739029688,0.0075909896838298645,0.9911123823257595
2013-09-18,1,0.00025353998817446695,0.00042026229872057006,-0.0077941748082909984,0.0075909896838298645,0.9878002609919259
2013-09-20,1,0.0007842604054170156,0.0008128125123906629,-0.005597507739029688,0.0075909896838298645,0.9883745372345014
2013-09-24,1,0.000925876901983342,0.0009322229729032491,-0.005597507739029688,0.0075909896838298645,0.9884960108497817
2013-09-26,1,0.0012100851590380363,0.0012767956410542106,-0.007151923459828496,0.0075909896838298645,0.9880266951443801
2013-09-30,1,0.0015623836349813196,0.0017038143110377634,-0.007151923459828496,0.0075909896838298645,0.9884448802689525
2013-10-02,1,0.002111884234293543,0.0023199686138297426,-0.008490282855836612,0.0075909896838298645,0.9886243837316525
2013-10-04,1,0.001961243484756573,0.002167271318861825,-0.008359591556507793,0.0075909896838298645,0.9889104489022037
2013-10-08,1,0.0009035725855086836,0.0009074252629270988,-0.0036932378120391723,0.009343706060695641,0.9891552972053061
2013-10-10,1,0.000612609549353204,0.0006567483265437051,-0.0036932378120391723,0.008074446461865075,0.9891603275789692
2013-10-14,1,0.0011868369929905372,0.0011959359063775886,-0.0036932378120391723,0.007426184740900593,0.9895950012835638
2013-10-16,1,0.0006814984900144299,0.0006869187052499146,-0.0015159973753509802,0.009666572175255742,0.9927516375756927
2013-10-18,1,0.0009726782456514583,0.0010120810060627987,-0.00327371534745782,0.009666572175255742,0.9928015176361519
2013-10-22,1,0.0009812671691249628,0.0010131861470734224,-0.005909335757142285,0.009666572175255742,0.9920743274683556
2013-10-24,1,0.0012087402059284098,0.001293480735817116,-0.0036930560486561673,0.009666572175255742,0.9925460322651724
2013-10-28,1,0.0009238265075103341,0.0009544803737854667,-0.0038456076987702734,0.009666572175255742,0.9919809396201984
2013-10-30,1,0.0012820284502688005,0.0013972870637153295,-0.003144987517392614,0.008830259856480848,0.9926277762358514
2013-11-01,1,0.00042706498316872883,0.0004648211799377744,-0.003144987517392614,0.008830259856480848,0.992861929669333
2013-11-05,1,0.0009016257564294848,0.0009250064324148211,-0.0036763111224704394,0.007334797438672378,0.9929645940018397
2013-11-07,1,0.00045551765104161787,0.00046908706616073626,-0.003144987517392614,0.008690658317145055,0.9933260671884845
2013-11-11,0,-0.00011756438822349205,4.268829060211408e-05,-0.0036763111224704394,0.008690658317145055,0.9929983824129814
2013-11-13,1,0.00020835265077785188,0.0003587237003393751,-0.004981923563661431,0.006807728121929523,0.9934276748746214
2013-11-15,1,9.400919658979212e-05,0.00024216432042344104,-0.0036763111224704394,0.006807728121929523,0.9934213123310117
2013-11-19,-1,-0.00047345163312571077,-0.00026342533500689025,-0.002772159047209881,0.006807728121929523,0.9939082228104299
2013-11-21,1,0.0008335277808354617,0.000844940634469646,-0.0036763111224704394,0.006442148539633359,0.9938134227052894
2013-11-25,1,0.0011058109093891521,0.0011437351994851425,-0.0031509310021736003,0.006442148539633359,0.9938510724777884
2013-11-27,1,0.0012617098834535327,0.001353155813833733,-0.005307274976164513,0.006807728121929523,0.9932421380992323
2013-12-02,1,0.0010927770637954432,0.0011835237651745488,-0.004194596826638218,0.006807728121929523,0.9933655550465109
2013-12-04,1,0.0011882179569965166,0.0013015306843347503,-0.004689244815441134,0.006442148539633359,0.9933683823987817
2013-12-06,1,0.0014509121725483007,0.0015794727449544065,-0.004689244815441134,0.00505099325757557,0.9936489790696234
2013-12-10,1,0.0015767083910840749,0.0017398571053232038,-0.0038932778088663278,0.00505099325757557,0.9946015179579867
2013-12-12,-1,-0.00042092922904123347,-0.00019672692734955786,-0.0037037790140977576,0.006538206266825609,0.9939334352612661
2013-12-16,1,0.000375251742639278,0.00045535302786549624,-0.0037037790140977576,0.006538206266825609,0.9942949025042384
2013-12-18,1,0.0005955125931199679,0.0006438160340110117,-0.0037037790140977576,0.007378814985844909,0.994156950469007
2013-12-20,1,0.00018471595980447603,0.00026446393899534203,-0.0022819614690393467,0.008076574248699031,0.9939797518403647
2013-12-24,1,0.0007263356689228729,0.0007323274917963819,-0.0038932778088663278,0.007378814985844909,0.993141656443765
2013-12-27,1,0.0007243664767986159,0.0007380722051616319,-0.0038932778088663278,0.005559668778215846,0.9930700619188212
2013-12-31,1,0.00023250312710952666,0.00031320880671940475,-0.00457789277818825,0.007378814985844909,0.9920473646581845
2014-01-03,-1,-0.00031490119666991004,-0.00015864524026923545,-0.00457789277818825,0.008076574248699031,0.9896732793042872
2014-01-07,0,-4.8107830145963885e-05,8.446536432184937e-05,-0.009276549431743466,0.008677861010924812,0.9888695901047375
2014-01-09,-1,-0.00023650536076390088,-4.718976040456635e-05,-0.009276549431743466,0.011156492073443654,0.9876256416323123
2014-01-13,1,9.886950145079828e-05,0.0002420596298141083,-0.009276549431743466,0.008888491323841717,0.9877991035893593
2014-01-15,1,0.00029619937889525813,0.0004015591680196024,-0.009276549431743466,0.011156492073443654,0.9870700458239839
2014-01-17,1,0.00011587070209663405,0.00026726629151967613,-0.009276549431743466,0.011156492073443654,0.987202844637647
2014-01-22,1,0.0007863827523575096,0.0008676341868451233,-0.009276549431743466,0.008888491323841717,0.9879583990271285
2014-01-24,-1,-0.0006468031697213982,-0.0003818543765229706,-0.0031812275924256073,0.01292297097797264,0.9876595089534944
2014-01-28,-1,-0.0013029059142864296,-0.0009688194883447623,0.0029984376679727033,0.013770660477308442,0.9862448402144158
2014-01-30,-1,-0.001802600010420497,-0.0013891538954120945,0.0045087184703755286,0.013785066632546085,0.9863953211382499
2014-02-03,-1,-0.001856851964805011,-0.0015259324644789824,0.0045087184703755286,0.013705297962375752,0.9885235844968542
2014-02-05,-1,-0.0019460194545279743,-0.0016186705102044464,0.0035367494045518795,0.013705297962375752,0.9895134656137454
2014-02-07,-1,-0.00032830731129794886,-0.00021723682194192077,0.0016733943928571723,0.010089295612114363,0.9918280704427995
2014-02-11,1,0.0004617628291126427,0.00046922600304050697,0.00034281786303774157,0.011679346782220858,0.9920047097753039
2014-02-13,1,0.0008920731513574696,0.0009374237159850067,-0.0020101684323619606,0.009415579235978026,0.9920577976742779
2014-02-18,1,0.0010810133300624986,0.0011656488554885455,-0.0011381004681177119,0.009415579235978026,0.992182197699415
2014-02-20,1,0.0011974648969906708,0.0013043577289881853,-0.0012602430206916826,0.009415579235978026,0.9912584471747298
2014-02-24,1,0.002305690186878525,0.0025645826745852316,-0.005094017049397194,0.007521148732636268,0.9915448338712148
2014-02-26,1,0.004094040892864656,0.004636038105306313,-0.007032593761998785,0.006156961458004858,0.9917398213564969
2014-02-28,1,0.004453136824446208,0.005008763831084098,-0.007032593761998785,0.006156961458004858,0.9912452973117808
2014-03-04,1,0.004131790322012977,0.00459648952926244,-0.007032593761998785,0.007521148732636268,0.9908761841697703
2014-03-06,1,0.0038231162163870048,0.004229271576099309,-0.007787557542950222,0.007521148732636268,0.9905008663764981
2014-03-10,1,0.004419492498061536,0.004951157537131936,-0.013066376539475085,0.007521148732636268,0.987623160573096
2014-03-12,1,0.004203779295293685,0.004613882743213123,-0.013066376539475085,0.008604724870385789,0.9870137294903795
2014-03-14,1,0.003992880799667736,0.004378414008807567,-0.017778932642105203,0.007888719043156208,0.9851367994618462
2014-03-18,1,0.00389038488620886,0.004264366021873044,-0.017778932642105203,0.010118862694203638,0.9849026669110421
2014-03-20,1,0.003167160901642993,0.003443785527869423,-0.014918574133339912,0.01092784096787288,0.9854256428426269
2014-03-24,1,0.0020103798425527997,0.00213558661396709,-0.010490985059933327,0.011737024659411736,0.9863350457764338
2014-03-26,1,0.0012347556413488056,0.0012605673668728465,-0.007863532924911511,0.011737024659411736,0.9869191386228943
2014-03-28,1,0.001097183642594843,0.0011268669048126352,-0.015307877896978997,0.01092784096787288,0.9860654273306809
2014-04-01,1,0.002574894460330004,0.0027718133631861753,-0.015307877896978997,0.01092784096787288,0.9858139137933868
2014-04-03,1,0.00144710295777256,0.0014551508920428828,-0.018601008901574807,0.012090709985331719,0.9843548967409131
2014-04-07,-1,-0.0006564062128937744,-0.00043579673952587827,-0.01052941117453862,0.012090709985331719,0.9866962681049084
2014-04-09,1,0.0014864947632362686,0.0015656039428779012,-0.010893030065672119,0.006967686194825656,0.9872389874557563
2014-04-11,-1,-0.001073684291682068,-0.0008294915894431756,-0.007233067205902367,0.011665407582226877,0.9895256009705843
2014-04-15,-1,-0.0007417174066570427,-0.0004956988410540405,-0.009324920184882938,0.0035042913189990174,0.9897699914414251
2014-04-17,-1,-0.00021947266593056938,-7.771610915789987e-05,-0.007354273502946867,0.0019312096064276465,0.990314739458212
2014-04-22,1,0.0005698684726153913,0.0006110099948574157,-0.00981988220535572,0.0018615186692951045,0.9899349834622874
2014-04-24,1,0.00010277343344294073,0.00020887743375045856,-0.00981988220535572,0.0068923144304309375,0.989130398771785
2014-04-28,-1,-0.001770730377364928,-0.0014193953508687737,-0.006455081215490233,0.0068923144304309375,0.9904431997241877
2014-04-30,-1,-0.0007520672943656222,-0.0005216359988749461,-0.007354273502946867,0.006239256218323248,0.991032458559558
2014-05-02,-1,-0.001239659065906395,-0.0009838948755509082,-0.006455081215490233,0.006239256218323248,0.9931041570339368
2014-05-06,-1,-0.0017756699455370585,-0.0014544791233412793,-0.006006254638349173,0.0068923144304309375,0.9928288347411388
2014-05-08,-1,-0.0028214412021617293,-0.0023541150449116763,-0.003761452230469105,0.007127254120025099,0.9924803250321149
2014-05-12,-1,-0.0018493126623040327,-0.0015088356807913986,-0.00528115672864467,0.0068923144304309375,0.9934812054742922
2014-05-14,-1,-0.0025029602819889576,-0.0020979022101799286,-0.004513944755949228,0.0068923144304309375,0.9930985969150302
2014-05-16,-1,-0.0027336408310364166,-0.0022704594170104625,-0.004918175281953513,0.0068923144304309375,0.9931517042802815
2014-05-20,-1,-0.0025914613982016095,-0.0021727836744570373,-0.004918175281953513,0.007127254120025099,0.9925316223570153
2014-05-22,-1,-0.0013145311605858722,-0.0010536546078842954,-0.004918175281953513,0.0045885904845029135,0.9940576204405147
2014-05-27,-1,-0.0014873838216549642,-0.0011872328577541152,-0.004918175281953513,0.0049430492587352074,0.9940123762895489
2014-05-29,-1,-0.002355984223308122,-0.0019314419533488598,-0.004513944755949228,0.004983109884517889,0.9941073484533512
2014-06-02,-1,-0.0018560388540136944,-0.0015084473578157037,-0.004513944755949228,0.004532194609845775,0.9941781276410444
2014-06-04,-1,-0.0015458291273185779,-0.0012511854818268555,-0.004918175281953513,0.004532194609845775,0.9937492803755023
2014-06-06,-1,-0.0009395120803760236,-0.0007342581676481667,-0.004918175281953513,0.004119609520340529,0.9941648106881245
2014-06-10,-1,-0.0014195982505761007,-0.0011643547352107873,-0.0023287539180785934,0.004532194609845775,0.9936282688340918
2014-06-12,-1,-0.0016925254565135417,-0.0014189443209532237,-0.0023287539180785934,0.004532194609845775,0.9938996813142804
2014-06-16,-1,-0.0011905259296031423,-0.0010256564447576762,-0.0023287539180785934,0.004532194609845775,0.9939866142856427
2014-06-18,-1,-0.0020810934202864567,-0.0017487953468660472,-0.002916182205356409,0.003185100283499464,0.9951301389808914
2014-06-20,-1,-0.0026949054635162116,-0.002251980053559383,-0.002916182205356409,0.004532194609845775,0.9942977058591067
2014-06-24,-1,-0.002709059435299521,-0.0022520616309568945,-0.0035079396776944867,0.004532194609845775,0.9925547932399517
2014-06-26,-1,-0.003186292293184934,-0.0026153101522010625,-0.005579367643600772,0.0035576247472220283,0.9925483331352027
2014-06-30,-1,-0.0031460103903363556,-0.002563478850175929,-0.005579367643600772,0.002353692883911773,0.9931594829298145
2014-07-02,-1,-0.0021919717693991187,-0.0017879883784330502,-0.005579367643600772,0.0012597166334118435,0.993161073385156
2014-07-07,-1,-0.0017707147940356483,-0.001446799980350493,-0.006751707536003285,0.0012597166334118435,0.9912260861305198
2014-07-09,-1,-0.0007135883847745217,-0.0005515069132270406,-0.006751707536003285,0.0005533904942139585,0.9916187547403307
2014-07-11,-1,-0.0012510259514845008,-0.0010322923464468985,-0.005579367643600772,0.0012597166334118435,0.9917698081950647
2014-07-15,-1,-0.0014078076810669473,-0.0011751025693364288,-0.00532586808237529,0.008902162060971101,0.9908674553248203
2014-07-17,-1,-0.0009219956796413416,-0.0008122084742362601,-0.0045222261898657905,0.009704674144130562,0.9903705574728078
2014-07-21,1,0.000349155628740058,0.0004801773969336183,-0.0045222261898657905,0.009704674144130562,0.9906040679879621
2014-07-23,1,0.001750216279638481,0.002108405180739266,-0.0045222261898657905,0.007323402790835651,0.9922323666209982
2014-07-25,1,0.001341659262785535,0.0016608016887547723,-0.0030896408903594947,0.007323402790835651,0.9927116613356961
2014-07-29,1,0.0011471398186527777,0.0014334392736814134,-0.0030896408903594947,0.009704674144130562,0.9924381531179155
2014-07-31,1,0.00040748138245194523,0.0006096349646222633,-0.0002989911557828073,0.009704674144130562,0.9934996750297979
2014-08-04,1,0.0002742525808175954,0.0004712264342042836,0.00010508733961211915,0.007861074394879491,0.995057266931495
2014-08-06,1,0.0003149558061252707,0.000513011329759104,-0.0015658595818707883,0.007861074394879491,0.9946566539192435
2014-08-08,1,0.0008961430514746276,0.001187697487231719,-0.002767150854732694,0.007861074394879491,0.994451166796546
2014-08-12,1,0.0014995794680586298,0.001841850062725188,-0.00349174426483479,0.0067519648970034455,0.9947469405401231
2014-08-14,1,0.0015532328185156622,0.00184863498355899,-0.00349174426483479,0.0038423178470357163,0.994950632157612
2014-08-18,1,0.0013689853940128149,0.001603393019399177,-0.00349174426483479,0.0034128930904674054,0.9952390669845332
2014-08-20,1,0.0013567021671767646,0.0016086625891973453,-0.00282632826362616,0.0034128930904674054,0.9955333291500655
2014-08-22,1,0.0016586614402150559,0.002016546897328448,-0.00282632826362616,0.003754829142862371,0.9952529463162026
2014-08-26,1,0.002035587396808538,0.002418457814092617,-0.00282632826362616,0.003754829142862371,0.9954852545430111
2014-08-28,1,0.0010501456420883419,0.0011939452646395725,-0.00282632826362616,0.005388606988318772,0.9949147367800363
2014-09-02,1,0.002037493605477833,0.0023904213860299573,-0.00349174426483479,0.004708007549904044,0.9946258692119643
2014-09-04,1,0.000832999111992029,0.0009228207899256743,-0.0012779017103841644,0.005197712651301593,0.9948074166463545
2014-09-08,1,0.0014523542855268612,0.0016623132140929494,-0.0004930168580898663,0.004708007549904044,0.995845269389152
2014-09-10,1,0.0015230421960911067,0.0017445555211595425,-0.0004930168580898663,0.004708007549904044,0.995267769224089
2014-09-12,1,0.001708642195171749,0.001986770851665786,-0.0015345091464538112,0.004708007549904044,0.9944781302816632
2014-09-16,1,0.001762915440325291,0.0020348862348868748,-0.004993323243749919,0.005050678198490049,0.9892776045962852
2014-09-18,1,0.0012180294935231826,0.001354766746021562,-0.007940596698632885,0.005050678198490049,0.9887662794255596
2014-09-22,1,0.0011809926412715784,0.0013545255388202934,-0.004763301899186995,0.007952556791879813,0.9885954634186311
2014-09-24,1,0.0010224537177623482,0.0011399745576138017,-0.004763301899186995,0.007379873780828274,0.9886251163321326
2014-09-26,1,0.0011652986005335235,0.0012809751805122364,-0.004763301899186995,0.0071273794325302665,0.9887349829422262
2014-09-30,1,0.0007205207424984701,0.0007462806262470726,-0.0010324472857989617,0.008746306972658283,0.9885364960243804
2014-10-02,1,0.001177557956355862,0.0012946640448121514,-0.0017881568092435515,0.008746306972658283,0.9888653907356226
2014-10-06,1,0.0009357926289739721,0.000988128927198593,-0.0017881568092435515,0.00887774581462043,0.9883887517020788
2014-10-08,1,0.00095047246074841,0.0010089329470185484,-0.001040399218319831,0.008428107597884342,0.989330591975912
2014-10-10,1,0.00020407246274504998,0.0002480434790431059,-0.00030608787582989095,0.008428107597884342,0.9899323297595631
2014-10-14,1,0.003237050018972103,0.003633363196954936,-0.00030608787582989095,0.008428107597884342,0.9953938677437678
2014-10-16,1,0.0030450752967643023,0.0034155039458364086,-0.0001433982779346124,0.008428107597884342,0.9957386821508091
2014-10-20,1,0.003437695928050551,0.0038333406531691483,-0.000665870538401684,0.006915445208757827,0.9958265652882291
2014-10-22,1,0.0035612560638384073,0.003979954703007917,-0.001040399218319831,0.006915445208757827,0.9957641276604338
2014-10-24,1,0.003906272488747238,0.00436972839786778,-0.001040399218319831,0.006915445208757827,0.9955460554735693
2014-10-28,1,0.004324343518870978,0.004853350789292851,-0.0011433990624165895,0.005926893472352103,0.9952427604734913
2014-10-30,1,0.003916294850481248,0.0043640247921713435,-0.0010598816731536875,0.006794545142995854,0.9955861337934262
2014-11-03,1,0.0037972331816104868,0.004205465103719514,-0.000713192122989841,0.006794545142995854,0.995799681471793
2014-11-05,1,0.003864040690143104,0.004269208135316668,-0.000713192122989841,0.006473778282477042,0.9958301317652328
2014-11-07,1,0.003760129514085416,0.0041373929393564825,-0.0014636614569437727,0.006473778282477042,0.9952851550373641
2014-11-11,1,0.0037554245004860678,0.004118557599444447,-0.0028025468196258537,0.005723719272192942,0.9947696704908278
2014-11-13,1,0.0036931588107647064,0.004047827397609066,-0.0028025468196258537,0.006794545142995854,0.9944807157743373
2014-11-17,1,0.003335036510815396,0.00364432270838979,-0.0029447003223622846,0.006794545142995854,0.993807244894743
2014-11-19,1,0.003370809313960409,0.003689846813071673,-0.0029447003223622846,0.007563930556272412,0.9936798056069887
2014-11-21,1,0.0036778238876348656,0.004037192620538177,-0.0029447003223622846,0.007563930556272412,0.9936319612296166
2014-11-25,1,0.003642834769740905,0.003992290390964819,-0.003447641852465119,0.0071307969463344075,0.9934530663260195
2014-11-28,1,0.003948776171698564,0.004355294487206371,-0.003447641852465119,0.00695440795579493,0.9933502516827195
2014-12-02,1,0.003920823587751847,0.004287538652307356,-0.0060617181348469615,0.005720207064810283,0.9925494921314522
2014-12-04,1,0.003898193920772959,0.0042428078455429745,-0.0060617181348469615,0.006259633068307997,0.9921930786309595
2014-12-08,1,0.0032251321711349616,0.0034606915408091537,-0.0060617181348469615,0.008952880710690458,0.9908723827723064
2014-12-10,1,0.002572416212927239,0.0027281833521791703,-0.0035518949188860084,0.010299405782028818,0.9905898129908993
2014-12-12,1,0.0034010260005688433,0.00371013545026044,-0.004446772325782123,0.011316567668701203,0.990054744103624
2014-12-16,1,0.0022510183383841,0.0023687713044048065,-0.004446772325782123,0.011316567668701203,0.9890717176155029
2014-12-18,1,0.0024979537189658437,0.0026273824480086186,-0.0060617181348469615,0.012668113858024632,0.9882255955850721
2014-12-22,1,0.0023031107724964524,0.002348117505622379,-0.0060617181348469615,0.013415796917715465,0.9879333026481854
2014-12-24,1,0.0017110657239788828,0.0017779850390838446,-0.00822379999737454,0.013415796917715465,0.9878352686001807
2014-12-29,1,0.0014022647068918145,0.0015145637971235785,-0.00822379999737454,0.013415796917715465,0.9876365942556034
2014-12-31,1,0.0007947308620524422,0.0009661463459465221,-0.00938082209657792,0.014541431818475562,0.9866604208508589
2015-01-05,1,0.0014652024701453698,0.001524154202865824,-0.009832335780863379,0.014541431818475562,0.9860726154167118
2015-01-07,1,0.002196483880130129,0.0022466161584312047,-0.00934153215940077,0.013368261307777646,0.9881377793876478
2015-01-09,1,0.0029519028643471583,0.003098676956013376,-0.009832335780863379,0.01056600068980523,0.989047068567408
2015-01-13,1,0.0029386217000058864,0.003063801726587351,-0.009832335780863379,0.01056600068980523,0.9886576521728891
2015-01-15,1,0.0007812578459926102,0.0009483573343802871,-0.00647434977083439,0.01056600068980523,0.991095279684092
2015-01-20,1,0.0011148134936223633,0.0012244972789547343,-0.004959051053005321,0.01020823363585181,0.9916296120357825
2015-01-22,1,0.0013817634558630125,0.0014698365362227142,-0.004959051053005321,0.007954210955100988,0.99210036260068
2015-01-26,1,0.0011951716147006611,0.001295388526505123,-0.004959051053005321,0.01020823363585181,0.9914633779514435
2015-01-28,1,0.0011263685600513655,0.0012562134518191224,-0.004959051053005321,0.008458622883570962,0.9917752615014721
2015-01-30,1,0.0007237931442211753,0.0008939231504294667,-0.004959051053005321,0.008458622883570962,0.9909670083322552
2015-02-03,1,0.0006115649878996466,0.0008049513020328598,-0.004959051053005321,0.006867738109841793,0.9911239130401535
2015-02-05,1,0.0003921203660023282,0.0006253417785654551,-0.006497169954363149,0.006867738109841793,0.9900291880224947
2015-02-09,0,-0.0001637348221105835,0.00013183753571180726,-0.006497169954363149,0.006867738109841793,0.9892557954290793
2015-02-11,1,0.00026150000957324163,0.0005139929599416799,-0.008909452635214964,0.006867738109841793,0.9889813546476917
2015-02-13,-1,-0.0004605867550231148,-9.50951840440026e-05,-0.009443859892533102,0.008458622883570962,0.9878609627656029
2015-02-18,1,3.573374736978935e-05,0.0003405599128801476,-0.009443859892533102,0.006422699301899677,0.9885137628788914
2015-02-20,1,0.00020722638723585398,0.0004848407073439516,-0.009443859892533102,0.01013071377232671,0.9877889094021783
2015-02-24,1,0.00016201772530500028,0.0004611407975621337,-0.009071004195660745,0.006651838752807741,0.9888815169225946
2015-02-26,1,0.00016676279142376852,0.0004656470791232878,-0.011300274700787576,0.006651838752807741,0.9873753178118543
2015-03-02,1,0.00012368212061531977,0.00043170961655162384,-0.009071004195660745,0.006651838752807741,0.988992118218506
2015-03-04,-1,-0.0005937076229377445,-0.00019187271108500755,-0.009071004195660745,0.006651838752807741,0.9889450143381829
2015-03-06,-1,-0.0022457250745427275,-0.0016080641828796537,-0.006568847234208473,0.006651838752807741,0.9896444779144685
2015-03-10,-1,-0.001362763299439408,-0.0009605374323298297,-0.006568847234208473,0.00847948696933316,0.9899388983366806
2015-03-12,-1,-0.0009556252782528881,-0.0005907713520530689,-0.00685468402694504,0.00847948696933316,0.9905305600801897
2015-03-16,-1,-0.0002674294705555713,-2.222977235715048e-05,-0.007089685599188651,0.006651838752807741,0.990973288991809
2015-03-18,0,-0.00011704935372341323,0.00010649164563480507,-0.007089685599188651,0.00847948696933316,0.9901734033084001
2015-03-20,1,0.0009244995257980337,0.0010045145614324027,-0.011113658987744576,0.0049248577555475875,0.990264183280098
2015-03-24,1,0.0008556171677385671,0.0009224656522263167,-0.011113658987744576,0.0049248577555475875,0.9902967418200164
2015-03-26,-1,-0.0005931819885929379,-0.0003781101042911525,-0.004955958960172404,0.010067656734190076,0.9854960735278913
2015-03-30,1,6.534288991730437e-05,0.0001997203595172915,-0.011113658987744576,0.010067656734190076,0.9841510774138909
2015-04-01,-1,-0.0005299409613527276,-0.00033863751904934997,-0.012406324457155699,0.010067656734190076,0.9834822584959522
2015-04-06,-1,-0.0004769177984937993,-0.0002941769212428121,-0.012406324457155699,0.010067656734190076,0.9833924862775739
2015-04-08,-1,-0.0005675290016050427,-0.0003853522594262593,-0.012406324457155699,0.006683713092927384,0.9833332588765037
2015-04-10,-1,-0.0005293629932496151,-0.00035220481252969615,-0.012406324457155699,0.011830782408975489,0.9830871465776205
2015-04-14,-1,-0.0014992029191613092,-0.0011913937276447509,-0.008288188806531782,0.011830782408975489,0.9833263083087899
2015-04-16,-1,-0.0008299338954826828,-0.0006047928181113235,-0.008288188806531782,0.01116813198967105,0.9837183353483692
2015-04-20,-1,-0.0008848877650321871,-0.0006743125030945392,-0.004613566328436146,0.01116813198967105,0.9838862571778245
2015-04-22,-1,-0.0008175942578410723,-0.0006202619999802561,-0.0054209542965472125,0.01116813198967105,0.9839886292100826
2015-04-24,1,0.0032175001441432493,0.003535453497383232,-0.007688055739862025,0.006578788493240762,0.9898916142044487
2015-04-28,1,0.0027579123876380774,0.003032826678049577,-0.0054209542965472125,0.005033994071387465,0.9917410695380903
2015-04-30,1,0.0017006620067524562,0.0018467038763414875,-0.004448279380520927,0.005492105102416022,0.9933238909876057
2015-05-04,1,0.0014994168612510045,0.0016054279331358195,-0.004448279380520927,0.005492105102416022,0.9934775051609079
2015-05-06,1,0.00048561204886341647,0.0005489788724228658,-0.0036909094404024754,0.005492105102416022,0.9947036742045837
2015-05-08,1,0.001534427708985833,0.0016300088811709832,-0.0036909094404024754,0.004222704381475804,0.9953282993164372
2015-05-12,1,0.000993902600767874,0.0010135195154690132,-0.0031806741436629913,0.005111218344418321,0.9950971234341228
2015-05-14,1,0.001362131060507003,0.0014117426720935975,-0.003332820956531539,0.004208396427470273,0.9954167561633273
2015-05-18,1,0.0017701229835683716,0.0018961808803600556,-0.004147349879008119,0.003309518885596172,0.9948509947283909
2015-05-20,1,0.0013707394868865265,0.0014290668785534285,-0.003332820956531539,0.003966106231676117,0.9947692262815266
2015-05-22,1,0.0008686740452738556,0.0008795709178702753,-0.0022611869765214944,0.005111218344418321,0.9943815104579329
2015-05-27,1,0.00033885345962782285,0.0004368977834629949,-0.002604095406624151,0.005111218344418321,0.9936337855380603
2015-05-29,1,0.0004587185929505631,0.0005268540063149693,-0.0017649245444537978,0.006046844105208216,0.9927298993160085
2015-06-02,1,0.0007568343171502137,0.00075724320032771,-0.0043854481545789695,0.006046844105208216,0.9922556763387225
2015-06-04,1,0.0011551638482309528,0.001256956644475362,-0.005409614559787309,0.009207760635619133,0.9915130547347017
2015-06-08,1,0.0014635363117546834,0.0016241966990173154,-0.005852514367058038,0.006357959491232854,0.9915434121369335
2015-06-10,1,0.0012417173688945675,0.0012872600313325526,-0.005852514367058038,0.0034057013390048573,0.9922493272493155
2015-06-12,1,0.00119926209508624,0.001248610429249123,-0.005852514367058038,0.011324730097787204,0.9902879873930709
2015-06-16,1,0.0009370583508572015,0.0009728481784838929,-0.00548134301497177,0.011324730097787204,0.9906099826277356
2015-06-18,1,0.0012297771530650333,0.0012960744994116639,-0.006043707512566583,0.005515702692722236,0.9875777258463971
2015-06-22,1,0.001662116365707126,0.0017964456287592994,-0.0060332385403327644,0.005252327102259829,0.9881930883513332
2015-06-24,1,0.0009025395682464885,0.0009169116494657822,-0.005855907627288763,0.00860211653062704,0.9886379758564111
2015-06-26,1,0.0016771692015128236,0.0017937490104189835,-0.00595242944811728,0.0050904978018543705,0.9895099412552952
2015-06-30,1,0.0012357286538499299,0.0012958283692151731,-0.005855907627288763,0.00860211653062704,0.9894516679173885
2015-07-02,1,0.00107427104969334,0.0010868979498961174,-0.005488225932613768,0.005209517687723287,0.9900501020769839
2015-07-07,1,0.0011251656439762703,0.0011732035239236237,-0.0029181112919115346,0.008410982427596782,0.9900383536368285
2015-07-09,1,0.001014612710791182,0.001035098085349399,-0.00595242944811728,0.008410982427596782,0.9887247651278706
2015-07-13,1,0.002608654500503146,0.00286633105504478,-0.00595242944811728,0.005199749420181687,0.9903683549986624
2015-07-15,1,0.0023497300724550927,0.002579063877061142,-0.006435786742436915,0.005199749420181687,0.9901129083969995
2015-07-17,1,0.00022954885113949153,0.0002620610361015864,-0.0033866272909483983,0.008410982427596782,0.9923678013281076
2015-07-21,1,0.0006349603411882055,0.0006571602751629995,-0.00595242944811728,0.007487005659497801,0.9917238439732315
2015-07-23,1,0.0007207602705758978,0.0007607370404297518,-0.008948820151525,0.004895013253329227,0.9900672457496361
2015-07-27,1,0.0003983702732546486,0.0004250538571339246,-0.018879609605603472,0.004895013253329227,0.987768480030652
2015-07-29,1,0.00046609938528164023,0.000519967712614261,-0.018879609605603472,0.007487005659497801,0.9865892802482659
2015-07-31,1,7.349084278895354e-05,0.00020568774318724295,-0.018879609605603472,0.009347964632625713,0.9858575556811598
2015-08-04,1,0.0006698414524621618,0.000710883031247355,-0.02133845614781163,0.008433756132068333,0.984204582953027
2015-08-06,-1,-0.00029588832647252356,-0.00015356798970908857,-0.02004415184844125,0.012342899761865988,0.9852114574764189
2015-08-10,1,0.00011251735796606062,0.0002010548234558807,-0.02004415184844125,0.012342899761865988,0.9842063602565289
2015-08-12,1,0.00011627366894170893,0.00017159353924216977,-0.02004415184844125,0.012342899761865988,0.9845359383087745
2015-08-14,1,0.0006197877080007313,0.0006283560636380572,-0.02004415184844125,0.012342899761865988,0.9844849649694757
2015-08-18,-1,-0.0005758313368609123,-0.00036899157288644644,-0.02004415184844125,0.013073339853353206,0.985037121825371
2015-08-20,-1,-0.0019061166083841016,-0.0015734258407579384,-0.007684824471735299,0.013073339853353206,0.9862574338199981
2015-08-24,-1,-0.004293026361223532,-0.0036492117873050847,-0.0031882759572392236,0.013073339853353206,0.9876330910687439
2015-08-26,-1,-0.002842250831977754,-0.0023715328871195393,-0.005897106906629896,0.00978655028072077,0.9903192329203502
2015-08-28,-1,-0.002327628993661528,-0.0019085593506165946,-0.006476571969635082,0.00978655028072077,0.9885786124383138
2015-09-01,-1,-0.0038149499678922973,-0.0032234138360411144,-0.005897106906629896,0.013073339853353206,0.987825717184282
2015-09-03,-1,-0.0038469782210940975,-0.003218040658545817,-0.006476571969635082,0.014083283003780676,0.9869312234234688
2015-09-08,-1,-0.002359371735562818,-0.001932134200452726,-0.007684824471735299,0.013783442398259833,0.9880721371647823
2015-09-10,-1,-0.0028939054746250684,-0.002391196709383038,-0.008642863488478036,0.013783442398259833,0.9854971054308538
2015-09-14,-1,-0.0019512572049405882,-0.0015613100593632081,-0.008642863488478036,0.013783442398259833,0.9850563875800421
2015-09-16,1,0.0007892431346995968,0.0009382083867820719,-0.011783442577017005,0.010023251129022978,0.9848626464081304
2015-09-18,1,0.0004919043131295273,0.0005664294748355791,-0.011783442577017005,0.01388434375346057,0.984842602266709
2015-09-22,-1,-0.00043747746677428554,-0.0003352206657208407,-0.011783442577017005,0.01388434375346057,0.9841318735461224
2015-09-24,-1,-0.0006388902038700142,-0.0005133669776374136,-0.018692631489968584,0.01388434375346057,0.9829692997089516
2015-09-28,-1,-0.0015505527636173644,-0.0012895802695213898,-0.011783442577017005,0.01388434375346057,0.9849251747405192
2015-09-30,-1,-0.0011574432240142951,-0.0009888227591375548,-0.009927559618175756,0.01388434375346057,0.9845264649922277
2015-10-02,-1,-0.0015097386879541737,-0.0012986033565175505,-0.009927559618175756,0.010711071556739548,0.9851173603495541
2015-10-06,-1,-0.0012326621720416837,-0.0010668227068446967,-0.011044758457183598,0.010841661020539248,0.9846491214064135
2015-10-08,-1,-0.002508592983491077,-0.002213162324957391,-0.011044758457183598,0.010841661020539248,0.9860872262993335
2015-10-12,-1,-0.0013943445693000319,-0.0012198253734963835,-0.0136858181428762,0.006048800240071612,0.9870724120319951
2015-10-14,-1,-0.002225190247978077,-0.0019328750195858782,-0.010763780348319579,0.010159867142983305,0.9867754446478205
2015-10-16,-1,-0.00164699178624924,-0.001416528382669859,-0.0136858181428762,0.009475892583398687,0.9862819872651155
2015-10-20,-1,-0.0016710129786290297,-0.0014375613122435047,-0.0136858181428762,0.009938915747282883,0.9857558225884507
2015-10-22,-1,-0.002385350948078839,-0.0020727832898974055,-0.012608645016279155,0.012768328579573288,0.9860506895510289
2015-10-26,-1,-0.0016551639835388886,-0.0014314454257955177,-0.012608645016279155,0.01313647230503419,0.9853919108941619
2015-10-28,-1,-7.323406963714731e-05,-4.853929510002355e-05,-0.012608645016279155,0.012640665258961872,0.9869855138944642
2015-10-30,-1,-0.0006002332092579416,-0.0005548954896772375,-0.012144658121590175,0.012640665258961872,0.9875974493276403
2015-11-03,-1,-0.00040456988178245903,-0.0003813747633989483,-0.011165038553166235,0.011895161520035875,0.9885889151933638
2015-11-05,-1,-0.0017334256574142977,-0.0015323323876258782,-0.011165038553166235,0.013679339915161813,0.9881172712474174
2015-11-09,-1,-0.0016908947731874469,-0.0015257643915767825,-0.006150780003848916,0.013679339915161813,0.9884656755729219
2015-11-11,-1,-0.0005794842905595209,-0.0005669363770257203,-0.008445566359325299,0.013679339915161813,0.9891921576346576
2015-11-13,-1,-0.002200989961468649,-0.001967159847370704,-0.005036144220648992,0.013679339915161813,0.9899865142499336
2015-11-17,-1,-0.001270127626743231,-0.001202140056077848,-0.005036144220648992,0.008342059936411498,0.9910023807209787
2015-11-19,-1,-0.0006187696076417151,-0.000606183754103254,-0.005235000956524562,0.005526942006849307,0.9919444763323234
2015-11-23,1,0.0005830284316648388,0.0007392148098196478,-0.005235000956524562,0.005526942006849307,0.9929097586506964
2015-11-25,1,0.001009351336727653,0.0012151120121924076,-0.005235000956524562,0.005045968872138356,0.9937452622424487
2015-11-30,1,0.0005534730919924129,0.0007054269471304542,-0.004268820005768159,0.005742462086626172,0.9935975411899882
2015-12-02,1,0.0019844071912320117,0.002435215457250276,-0.00449273426712046,0.005170606750234678,0.9937664509055049
2015-12-04,1,0.0022538723252855837,0.0027265290879672386,-0.00449273426712046,0.005170606750234678,0.994196535903409
2015-12-08,1,0.0009491430092221365,0.001095596249669332,-0.005235000956524562,0.005117808898730645,0.9932517768884261
2015-12-10,1,0.0009710028432421376,0.0011449501769214836,-0.005235000956524562,0.00564171204718454,0.9914763661078513
2015-12-14,1,0.0010512108342826355,0.001241902943187678,-0.005249157507167182,0.00564171204718454,0.9896758819014114
2015-12-16,1,0.0009541465879004008,0.0011260346834580668,-0.009796413306199151,0.00564171204718454,0.9884111963502855
2015-12-18,1,0.001176097114807669,0.0014165349138415785,-0.009796413306199151,0.007516611865144948,0.9877318761011222
2015-12-22,1,0.0014525305615953792,0.0017379852540497654,-0.009796413306199151,0.012475589134796693,0.9860652346989573
2015-12-24,1,0.0017539716859829707,0.0021062834016916917,-0.009946602557479015,0.01342288360638487,0.9851878267194243
2015-12-29,1,0.001976105770332399,0.002296653763573919,-0.01152163582760236,0.01205726407944852,0.985069661844797
2015-12-31,1,0.0019523929182350087,0.002293425654450076,-0.01152163582760236,0.01342288360638487,0.9848917924582496
2016-01-05,1,0.0013833018615009825,0.0016273897738301587,-0.008320666368560166,0.01342288360638487,0.9855969086985055
2016-01-07,1,0.0008050540288507364,0.0010157583933240134,-0.008320666368560166,0.01342288360638487,0.9854422494439121
2016-01-11,1,0.0005138512905959709,0.0006667789028983785,-0.01152163582760236,0.01205726407944852,0.9854480019848421
2016-01-13,1,0.0002256363253916775,0.00024324307998497345,-0.008320666368560166,0.01205726407944852,0.9870962811385725
2016-01-15,-1,-0.0023520507618483358,-0.001965958367084952,-0.005884190265590197,0.01340657079776932,0.9863182367877348
2016-01-20,-1,-0.000565052366769381,-0.00046617586169252976,-0.007860898292226456,0.01340657079776932,0.98670794476749
2016-01-22,1,0.001446679443827946,0.0016395619069882474,-0.007860898292226456,0.01340657079776932,0.9880640271452081
2016-01-26,1,0.0007961478188620686,0.0008149136454200138,-0.005949433279297604,0.014676661641998823,0.9878416176358542
2016-01-28,1,0.0008687932817829978,0.0009250193244980586,-0.0020126826993465026,0.015772861248107006,0.9835325937258409
2016-02-01,1,0.0019010961260617315,0.0021576651655963045,-0.005949433279297604,0.015030597720868712,0.9836668974271164
2016-02-03,1,0.0015350122969478145,0.001723559540232914,-0.008073772004825052,0.015030597720868712,0.9833784756760254
2016-02-05,1,0.0009591194368266359,0.0011085090547571846,-0.0032542058229268816,0.015030597720868712,0.9845958699228329
2016-02-09,-1,-8.547475326003807e-05,-5.233829126064554e-05,-0.0011142735472229287,0.015030597720868712,0.9861833484843295
2016-02-11,1,0.00030494541554070595,0.00039227136427562434,-0.004008998826300764,0.015030597720868712,0.9862280365587841
2016-02-16,1,0.0013063855469708226,0.0015132462722950019,-0.006330969582741042,0.009060390047653816,0.9873438882530147
2016-02-18,1,0.0014575141561834794,0.0016742807211427798,-0.0047381514864657725,0.007894540395154326,0.9881069196493333
2016-02-22,1,0.0019519090404584993,0.002206680545464813,-0.0047381514864657725,0.007231515093386475,0.9888924853490181
2016-02-24,1,0.0024526071389120207,0.0027604143426725363,-0.004938520484653044,0.005480847528689748,0.9892397346867745
2016-02-26,1,0.005284974301511189,0.005944362648922763,-0.006348114254217415,0.0028602217089343032,0.9920281800553076
2016-03-01,1,0.005089968200602493,0.005723038684052174,-0.004938520484653044,0.0036270519184557564,0.9929540260952344
2016-03-03,1,0.004355835714249879,0.004798361953716846,-0.004465741537170623,0.006772300163053694,0.993854728306891
2016-03-07,1,0.004983650111468369,0.005563991125062061,-0.004938520484653044,0.005406899978081548,0.9930143186917021
2016-03-09,1,0.004389454496083422,0.004853136096399695,-0.004938520484653044,0.006772300163053694,0.9926073801423808
2016-03-11,1,0.003995417442179618,0.004432329079534424,-0.0037279471867263103,0.006772300163053694,0.993686860925268
2016-03-15,1,0.0036485309583364823,0.004032560979948994,-0.0035390223564948304,0.006039498256048793,0.9941980634205512
2016-03-17,1,0.0031275723476809495,0.00339480544071633,-0.0033919029001385514,0.006772300163053694,0.9943376516465745
2016-03-21,1,0.0031769762112777624,0.003476868944804377,-0.003426646298034368,0.006772300163053694,0.9939787371387979
2016-03-23,1,0.0032906056150391995,0.0036690848707560514,-0.0015289329922629673,0.006916177898347683,0.9930823462949656
2016-03-28,1,0.002456920398088413,0.0026694391523423545,-0.0015289329922629673,0.007837747269519947,0.9913385849008277
2016-03-30,1,0.00278399494630517,0.003042875420888415,-0.0019196653107684642,0.007475547422378336,0.9914544530969234
2016-04-01,1,0.0020491931761394944,0.0021918404436596407,-0.004682036895714569,0.004001928613006138,0.9872710679270558
2016-04-05,1,0.0015629308963932362,0.001621658814604094,-0.005201747046829312,0.004001928613006138,0.9868146975077648
2016-04-07,1,0.002316856482990811,0.002496707327996886,-0.005201747046829312,0.004359363936615228,0.9876017753248795
2016-04-11,1,0.0018427427149675499,0.0019088393929642378,-0.005914764790811896,0.004821364497724839,0.9867138665004898
2016-04-13,1,0.00169558899664689,0.001745575027331564,-0.00987171069096314,0.006293800834723404,0.9858203465001064
2016-04-15,1,0.0019956989826191676,0.0021088448313321536,-0.00987171069096314,0.006293800834723404,0.985562950566319
2016-04-19,1,0.001988294743239733,0.0021349164288492067,-0.015045348343394077,0.008113317563426632,0.9848518964698574
2016-04-21,1,0.0020582612734977913,0.0022251056436947774,-0.007636531927741531,0.006293800834723404,0.9861642667550168
2016-04-25,1,0.0011014822826815151,0.0011164494057726007,-0.0062744841854703035,0.006293800834723404,0.9872196639808994
2016-04-27,1,0.0011112852225272484,0.0011384445642286533,-0.009701401519676234,0.006293800834723404,0.9866038766091826
2016-04-29,-1,-0.001123804456907745,-0.0008952112364492947,-0.007397203422338849,0.008235381178327564,0.9905229214843168
2016-05-03,-1,-0.0016550860047654468,-0.0013629091316345304,-0.007397203422338849,0.008235381178327564,0.990565480466138
2016-05-05,-1,-0.0015238729756877228,-0.0012378418976126556,-0.008725811260006603,0.010903727865924482,0.9901315385584719
2016-05-09,-1,-0.0012686124076149046,-0.001009782825351631,-0.008725811260006603,0.010903727865924482,0.9901392448383893
2016-05-11,-1,-0.0017135168824765831,-0.0013984753714193696,-0.007109533464785339,0.0128342276908625,0.9901303639817614
2016-05-13,-1,-0.0014042445039756171,-0.0011182770023603372,-0.009603765450504212,0.01064761024286164,0.9902872283361309
2016-05-17,-1,-0.0015958528179709714,-0.001290700554166271,-0.008725811260006603,0.012578865993645334,0.9908351021924771
2016-05-19,-1,-0.0017072669158225294,-0.0013881575742472716,-0.008725811260006603,0.012578865993645334,0.9904585580158992
2016-05-23,-1,-0.0012098176702178968,-0.0009743715214773467,-0.007109533464785339,0.00961262609604384,0.9917962461704969
2016-05-25,-1,-0.001480853240226139,-0.0012048057533923346,-0.007109533464785339,0.012578865993645334,0.9909416537115509
2016-05-27,-1,-0.0015413861819676303,-0.0012423458023106734,-0.009896464862331315,0.00961262609604384,0.9900850001453061
2016-06-01,-1,-0.0022208724486594555,-0.0018044995677317889,-0.008740755577843682,0.013245567072349761,0.9885712835556613
2016-06-03,-1,-0.0022282485380997917,-0.0018015904162954962,-0.0033533765721138363,0.013285994578856895,0.9873336300614504
2016-06-07,-1,-0.0014983093645711191,-0.0011780528036715863,-0.0033533765721138363,0.012578865993645334,0.9877858026859054
2016-06-09,-1,-0.001633125334076935,-0.0012497332615840798,-0.008635266836732491,0.010725020083385328,0.9880922089357931
2016-06-13,-1,-0.00195271226027392,-0.001555988263444439,-0.0015846205437489904,0.010725020083385328,0.9883745514974316
2016-06-15,-1,-0.0010188855152194977,-0.0007879260743663333,-0.0019150250021688299,0.009530164684210852,0.9892600465473799
2016-06-17,-1,-0.0008615666611355591,-0.0006526993824479116,-0.0019150250021688299,0.009530164684210852,0.9896482769896419
2016-06-21,-1,-0.0009415481616345042,-0.000720898586701799,-0.0019150250021688299,0.009940796739226985,0.9892069910001433
2016-06-23,-1,-0.0007193764555421678,-0.0005484608020246541,-0.0012528780635391048,0.012297472321062111,0.9865359130528717
2016-06-27,-1,-0.001792130343284564,-0.0014878086848150874,-0.0012528780635391048,0.012297472321062111,0.9872511131786995
2016-06-29,-1,-0.0013014686629279717,-0.0010262164129589315,-0.0012528780635391048,0.009474991757024407,0.9890110509908648
2016-07-01,-1,-0.0010156669631443507,-0.0007244889467284337,-0.0012528780635391048,0.008214483293225149,0.9912517633539303
2016-07-06,-1,-0.0006307275328390143,-0.0003895716725097607,-0.0019150250021688299,0.006822285773671537,0.9913828509738171
2016-07-08,-1,-0.0002346753978813314,-7.928958957083e-05,-0.0018177190135208543,0.005307891773319832,0.9920921073535302
2016-07-12,-1,-0.0001586227730232695,-1.7606846158280305e-05,-0.0018177190135208543,0.002965006748651599,0.9919834329231285
2016-07-14,1,6.933873924286967e-05,0.00015859477530758709,-0.0013750885043535411,0.005419714660113852,0.9918088091423486
2016-07-18,1,0.00023707483832151855,0.0002861965303264431,-0.0033148708296811113,0.005419714660113852,0.9915316743524809
2016-07-20,1,0.0015016991198476075,0.0017381814752238508,-0.006861381476761847,0.004346045147976584,0.991428901014013
2016-07-22,1,0.003063278849508013,0.003503205611761388,-0.006861381476761847,0.002786538862800808,0.9939565837097554
2016-07-26,1,0.0026169273541686074,0.0029845329715609027,-0.00044418440677796984,0.004346045147976584,0.9945438305537891
2016-07-28,1,0.002792742571731257,0.0031913470058041416,-0.0027347347450267638,0.003144408074106496,0.9944543698058725
2016-08-01,1,0.002775590565662148,0.0031676032710479607,-0.004966024056868912,0.004346045147976584,0.9935157183230634
2016-08-03,1,0.0023765193742762603,0.0026950630760872517,-0.0038967226607973106,0.003144408074106496,0.9941670843303707
2016-08-05,1,0.0022731806409922463,0.0025707764042115005,-0.003904585869298002,0.0048843110025614785,0.993586360280193
2016-08-09,1,0.002056311169385998,0.0023232574756547036,-0.003904585869298002,0.0048843110025614785,0.9938722531233497
2016-08-11,1,0.0021383113227669897,0.0024123909427040476,-0.005749492138397145,0.003144408074106496,0.9925128614188319
2016-08-15,1,0.001976332955736503,0.0022152754869182107,-0.004647043999390641,0.005889416216183965,0.9915007017246644
2016-08-17,1,0.0017330938043154589,0.0019273931749780695,-0.003904585869298002,0.010198814128479733,0.9916052086149673
2016-08-19,1,0.0021921151796434855,0.0024614059770853213,-0.004647043999390641,0.009876859284401535,0.991375732906756
2016-08-23,1,0.0027321721724515345,0.0030933255089074943,-0.004647043999390641,0.005773383777974238,0.9920416011237824
2016-08-25,1,0.0025334576725499366,0.0028541874728778395,-0.00416574189647408,0.009690469531168151,0.9920127532849776
2016-08-29,1,0.0027148209264028283,0.0030936344742132967,-0.004055989283172619,0.005715318511428142,0.9926764868698882
2016-08-31,1,0.002677380281214091,0.0030576439016108516,-0.005456087335602805,0.005715318511428142,0.9922212572750312
2016-09-02,1,0.0028028778171813856,0.0031963266615075807,-0.005456087335602805,0.004309672489492632,0.9926656917537372
2016-09-07,1,0.0027864044832101795,0.0031884792706883738,-0.005126829495698424,0.004309672489492632,0.9926449875724885
2016-09-09,1,0.0020625380277147034,0.002357074219046388,-0.0033911279156289605,0.004309672489492632,0.9942463177827314
2016-09-13,1,0.002432963147783824,0.0027771512691692228,-0.0037236131568316,0.004309672489492632,0.9946824006652127
2016-09-15,1,0.0022841724421187133,0.002569799071389745,-0.005065510067127107,0.0015856698045424082,0.9942330292281265
2016-09-19,1,0.002085350261915529,0.002341987732970261,-0.0037236131568316,0.003231017541185179,0.9950618926813742
2016-09-21,1,0.0016981136474562715,0.0017310810959075135,-0.0037236131568316,0.005513974046335385,0.9913816011632512
2016-09-23,1,0.001505450200153385,0.0015399812913868566,-0.0037236131568316,0.005492673158952209,0.9916262475843901
2016-09-27,1,0.0013314150599856907,0.0013772054518507014,-0.003797621596245675,0.005492673158952209,0.9914478792234298
2016-09-29,1,0.0009326138719219935,0.001010413988460773,-0.0018133074630361022,0.005825452938730941,0.9918979898232336
2016-10-03,1,0.0004211879915272432,0.0005876424559122695,-0.0011687973468812306,0.007153336382172243,0.9911216881244931
2016-10-05,1,0.00039697732008803487,0.0005489244384539574,-0.0018672853229687453,0.007153336382172243,0.990727804457084
2016-10-07,1,1.7982382140642418e-05,0.00023193008637174275,-0.002709435602924393,0.007153336382172243,0.990345413774083
2016-10-11,1,6.666788396431805e-05,0.00028604915955846434,-0.0011515810326885659,0.007153336382172243,0.99076865782418
2016-10-13,-1,-0.0004287763433918233,-0.0001568592505666309,-0.0008718644149559489,0.008069498433066011,0.9881984685301153
2016-10-17,-1,-0.000413778444691018,-0.00011030081796008261,-0.007155150964467133,0.008069498433066011,0.9876439939328785
2016-10-19,1,0.0023495790030471165,0.002372744480321124,-0.007155150964467133,0.007153336382172243,0.9905260419286465
2016-10-21,1,0.002158940383353445,0.0021805841201231278,-0.007155150964467133,0.008069498433066011,0.9898842943667727
2016-10-25,1,0.0016425416413358854,0.0017231014160159442,-0.0030019042693693364,0.009510922449036568,0.989491782460344
2016-10-27,1,0.001969452157295457,0.0019855583042588973,-0.0030019042693693364,0.011967733145205581,0.9889515192376748
2016-10-31,1,0.0026662732136656505,0.0027688334103721695,-0.007155150964467133,0.010494096791980401,0.9889737856086087
2016-11-02,1,0.0016044685372596389,0.0016831926688009747,-0.007155150964467133,0.010494096791980401,0.9885902299352278
2016-11-04,1,0.001432055661843602,0.0015166436142976833,-0.009480933126332565,0.010494096791980401,0.9882062638941252
2016-11-08,1,0.001695359853276881,0.0017461547311291934,-0.009480933126332565,0.012157641546132527,0.9874501119077292
2016-11-10,0,-0.00016892792803873194,0.0001084851888219873,-0.009480933126332565,0.012157641546132527,0.9892861733786092
2016-11-14,-1,-0.001331474923366653,-0.0009004417537588579,-0.008621276895233437,0.012157641546132527,0.9898407758657491
2016-11-16,-1,-0.0015197715969620406,-0.000982042257194877,-0.010232253052378702,0.010494096791980401,0.990660621446532
2016-11-18,-1,-0.00038751735402816224,-4.151807739794075e-05,-0.010232253052378702,0.008068529799842152,0.9910518879093139
2016-11-22,1,0.001166193187729129,0.0012604791862878175,-0.010232253052378702,0.0055198257018557306,0.9915069598217084
2016-11-25,1,0.0020317807917614554,0.002063484598564869,-0.010232253052378702,0.002202316870056088,0.9916444080975656
2016-11-29,1,0.0015164575613337186,0.0015551280431594745,-0.008621276895233437,0.0018393196221172894,0.9924255632711411
2016-12-01,1,0.0008916626356390126,0.0010042533100232496,-0.008621276895233437,0.0018393196221172894,0.9923639880504709
2016-12-05,1,0.00012731513340002965,0.0003390655474063149,-0.008020759079778991,0.003577683105336036,0.9915919072539686
2016-12-07,1,0.0001744273019008511,0.0003926722530807388,-0.006374468614000647,0.0029626086596232183,0.9925334795327039
2016-12-09,-1,-0.0007320785758790834,-0.00042598198146485055,-0.004715526398590804,0.006400065893810893,0.9928568760306008
2016-12-13,1,0.0006232027496645611,0.0006463668142390847,-0.003774698046227901,0.007021707700678264,0.9925192491732562
2016-12-15,-1,-0.00048077507778096517,-0.00028885965464067926,-0.004715526398590804,0.007021707700678264,0.992146777845278
2016-12-19,0,-3.836431555562849e-05,9.041122196933304e-05,-0.004715526398590804,0.006400065893810893,0.9922702038113981
2016-12-21,1,0.0002363406641041634,0.00033255139918511963,-0.005089804932112638,0.006400065893810893,0.9920002583733578
2016-12-23,-1,-0.0004041022326633756,-0.0002097161502779601,-0.00457003465642778,0.007918156559060531,0.9913908175263483
2016-12-28,-1,-0.0006232746226205539,-0.0003998303254311694,-0.0038994575574018454,0.007918156559060531,0.9912320193408443
2016-12-30,-1,-0.0015024895783657148,-0.0011543344362106877,-0.0019001307145073852,0.011041912163604924,0.9914572094286203
2017-01-04,-1,-0.00046448573849859045,-0.0002477068183966135,-0.0019001307145073852,0.011041912163604924,0.9913211559377144
2017-01-06,-1,-0.000641422824204353,-0.00038747671762652774,0.0007390834213938957,0.011138857904573233,0.9906488266702366
2017-01-10,0,-0.0001941108155707656,2.2738702189340322e-05,0.0007390834213938957,0.011774702425566247,0.9897239340817339
2017-01-12,1,0.0005849903525126131,0.0006782611799636372,0.0024384778987723175,0.011241226549398173,0.9907101680422942
2017-01-17,1,0.00010448697627775248,0.00021526787466823416,0.0027610071042449393,0.011241226549398173,0.9904778203496061
2017-01-19,1,0.00020627479868453203,0.00031255124824748355,0.0024384778987723175,0.011241226549398173,0.9905591386091637
2017-01-23,1,0.0002606292027784351,0.0003681575234790163,0.0032624331915267145,0.011241226549398173,0.99066217203172
2017-01-25,1,0.0008821639656141402,0.0009250191468084809,0.0024384778987723175,0.011241226549398173,0.9896369980988126
2017-01-27,1,0.001262822579825408,0.0012796060000666296,0.0006185400713812716,0.011241226549398173,0.9897814489178187
2017-01-31,1,0.0015710097372827294,0.0016128081736622559,-0.0012347098316878127,0.011774702425566247,0.9887115712464507
2017-02-02,1,0.0008004240624373393,0.0009174809487986137,-0.0005161899918420602,0.010595798606631311,0.9901155867800524
2017-02-06,1,0.00180780698812166,0.001857354855147954,-0.0010307454468687532,0.009935693259706132,0.9908974883192739
2017-02-08,1,0.0033313127583947458,0.003604327822210279,-0.004703950951981753,0.0056874970989072215,0.9912093397669904
2017-02-10,1,0.0032807366397060783,0.003534004318441737,-0.004703950951981753,0.0069877197797296505,0.9907516060423759
2017-02-14,1,0.0029061986050831204,0.003117547904792027,-0.004703950951981753,0.009935693259706132,0.9902673414173961
2017-02-16,1,0.0031380189740067045,0.003394711882973938,-0.004703950951981753,0.009935693259706132,0.98976436685277
2017-02-21,1,0.003370973209650851,0.003640321486085687,-0.0052662134729532,0.004188626594696588,0.9895165469697838
2017-02-23,1,0.0024252790564008703,0.0025336672975588143,-0.004703950951981753,0.0018900349095746342,0.9922198819030691
2017-02-27,1,0.002001017620812667,0.0020408935738034806,-0.0052662134729532,0.0029944397465799587,0.9922460234694774
2017-03-01,1,0.0020809882149044417,0.0021120499606117516,-0.0052662134729532,0.002973427947866277,0.9931482778931252
2017-03-03,1,0.0021110270943342584,0.0021340700631427866,-0.0052662134729532,0.002973427947866277,0.9934149886856587
2017-03-07,1,0.00211557504326601,0.0021515495808708566,-0.0052662134729532,0.005402939004956688,0.9930803712259947
2017-03-09,1,0.0005344758772097097,0.000727548773164172,-0.004733934761958239,0.005402939004956688,0.9942573068932162
2017-03-13,1,0.0009533742778816327,0.0010724581372749988,-0.006808431665856981,0.0048293343449876,0.9913855963329279
2017-03-15,1,0.002609053319306506,0.0028597217106073056,-0.006262488832856928,0.0048293343449876,0.9917659763305932
2017-03-17,1,0.0023314402718676366,0.002558860306363297,-0.006304629408363486,0.005402939004956688,0.9919106832411116
2017-03-21,1,0.001855224392378353,0.001993471151240706,-0.006304629408363486,0.005535932246721623,0.9917272751687513
2017-03-23,1,0.0019180243707336965,0.002074044093849702,-0.006304629408363486,0.006954962618015285,0.9910300052404344
2017-03-27,1,0.0021278139288890933,0.002353695768832366,-0.005462466763544482,0.007228855899855853,0.9913542695323251
2017-03-29,1,0.0015206784209096423,0.0016338693232628133,-0.0029259492328689574,0.0077696252313325005,0.9909445331685643
2017-03-31,1,0.001564376222122136,0.0016770420164094252,-0.005462466763544482,0.007666882364614448,0.9899496238603231
2017-04-04,1,0.002118686426176391,0.002327417696123962,-0.005462466763544482,0.009345144666092453,0.9894256665728375
2017-04-06,1,0.0009338745102816945,0.0009741499560770566,-0.0029259492328689574,0.012641256422122542,0.9881788704398137
2017-04-10,-1,-0.0023812529016805396,-0.0019042953252560093,-0.0005412649363518687,0.013717009348208258,0.9892437221834364
2017-04-12,-1,-0.001520926420815126,-0.0011950240726107068,-0.00037051322232142434,0.013717009348208258,0.9900399476869667
2017-04-17,-1,-0.0012489800069807608,-0.0009834016350450262,-0.00012796358508590467,0.013717009348208258,0.9903175486848125
2017-04-19,-1,-0.0006037220453457644,-0.0004574188822424571,-0.0007528208115076098,0.013717009348208258,0.9901196231516834
2017-04-21,1,0.000611012553845827,0.0006501650771589078,-0.0007528208115076098,0.014360324505396416,0.9903673072669185
2017-04-25,1,0.0006436775548179845,0.0006677222705393994,-0.0007528208115076098,0.014674280901720224,0.9899216038800479
2017-04-27,1,0.0012788340079154643,0.0013559448033936962,-0.0007528208115076098,0.014674280901720224,0.9894024996420938
2017-05-01,1,0.00018833634141223745,0.0002778944857859203,-0.0007528208115076098,0.014674280901720224,0.9897152271857123
2017-05-03,1,0.0012854548310666952,0.001341544784583917,-0.0007528208115076098,0.015610623506804519,0.9898392992674256
2017-05-05,1,0.001772464322048094,0.001833906330817035,-0.0014773033910711114,0.015441024853770089,0.9905819430233749
2017-05-09,1,0.0017941444939834172,0.001827455722266356,-0.0007528208115076098,0.013294566697839601,0.991462514324942
2017-05-11,1,0.0012746275624981093,0.0013376841216967716,-0.0012971526825132414,0.013294566697839601,0.9886743027809042
2017-05-15,1,0.001442962819530949,0.0014749262392713736,-0.002195986379419675,0.015441024853770089,0.9874946142473782
2017-05-17,1,0.00038125148531692444,0.0005277660507562434,-0.002017418836933334,0.015441024853770089,0.9878208422290494
2017-05-19,1,0.0008756316842831031,0.0009830371594252512,-0.002017418836933334,0.015441024853770089,0.9876610679573673
2017-05-23,1,0.0012617506842069724,0.001336849239790066,-0.003522783201719099,0.013311668030716643,0.9881267413502299
2017-05-25,1,0.002351687907858393,0.00237544848914538,-0.004454898676171753,0.010919721155589764,0.9895428831012321
2017-05-30,1,0.002556975564373129,0.0026487485983451094,-0.004454898676171753,0.010919721155589764,0.9884789172026393
2017-06-01,1,0.003480317378648243,0.0036867033877965956,-0.004754090827148271,0.008637284769346158,0.9889630376846489
2017-06-05,1,0.0037724016899570558,0.004043252649164168,-0.0054792862011855655,0.0066888339380221686,0.9891795941841048
2017-06-07,1,0.003911748780857559,0.004213484269690966,-0.007959269113850224,0.0066888339380221686,0.988662527971129
2017-06-09,1,0.0012552868408380797,0.0013480445207208968,-0.0054792862011855655,0.008637284769346158,0.9906448595126377
2017-06-13,1,0.0015576233486807125,0.0016108169986687932,-0.004754090827148271,0.007164124119851448,0.9919098538159841
2017-06-15,1,0.0016401528323268725,0.0016835766332432937,-0.006321871303070799,0.006266460191403398,0.9914994162834782
2017-06-19,1,0.0028544427709906828,0.0030014611363535517,-0.006321871303070799,0.0053825876349695954,0.9917103881575174
2017-06-21,1,0.0028277508758112455,0.0029780367726041554,-0.006321871303070799,0.0054806870837135774,0.9918515779151549
2017-06-23,1,0.0029976821141043633,0.0031925920845037796,-0.006321871303070799,0.00418532626547339,0.9924800499113724
2017-06-27,1,0.0019499106798496347,0.0020220123009381773,-0.007959269113850224,0.003749210734939511,0.9875596425493826
2017-06-29,1,0.0017351683688925268,0.001800894001413452,-0.007959269113850224,0.003749210734939511,0.9870897950825185
2017-07-03,1,0.002148025192728674,0.0023427581540446337,-0.006669923948133627,0.00418532626547339,0.9867867396479301
2017-07-06,1,0.0019599577155457464,0.002137944755855238,-0.004914564445357443,0.008897845730995562,0.9845806337729325
2017-07-10,1,0.0021313937343588867,0.0023101838519526516,-0.0069992680632087675,0.0054806870837135774,0.9846637452553761
2017-07-12,1,0.002404148781835453,0.0026256716535765006,-0.009065811109211841,0.005994170130010264,0.9836382223805789
2017-07-14,1,0.0018866890286069683,0.0020646301306063842,-0.0069992680632087675,0.005994170130010264,0.9844125701337955
2017-07-18,1,0.0018810202179212353,0.0020258137866139957,-0.009656885706839402,0.005156344388822355,0.9836673466165646
2017-07-20,1,0.0018121800881161886,0.0019324528902902893,-0.009656885706839402,0.0041148092542337466,0.9836452121055218
2017-07-24,1,0.0020849885063847083,0.00225990346074664,-0.009656885706839402,0.004620895794921338,0.9836711686392556
2017-07-26,-1,-0.0024265256597253712,-0.002067909497776856,-0.006929121629862815,0.004620895794921338,0.9895401024898125
2017-07-28,-1,-0.0030801171131620226,-0.0026471050121282882,-0.007053862129829799,0.004620895794921338,0.9885963783838717
2017-08-01,-1,-0.002931819105888761,-0.0024726610209163326,-0.007053862129829799,0.00344444789160582,0.989634611191967
2017-08-03,-1,-0.00042571957805848207,-0.0002773046471069232,-0.007053862129829799,0.003098376787204716,0.9913225654798639
2017-08-07,-1,-0.0011069398314679248,-0.0008713674664263918,-0.006776121771501662,0.00344444789160582,0.9913801006872258
2017-08-09,-1,-0.0016468326787676805,-0.0013324329289643479,-0.006129572986954584,0.0033023835711949974,0.9923125675750387
2017-08-11,-1,-0.002025287467950862,-0.0016553755672249716,-0.0034771594784950583,0.004620895794921338,0.9910166014331003
2017-08-15,-1,-0.0029652937466320434,-0.002486895648000557,-0.0034771594784950583,0.004450143024508891,0.9918883409590212
2017-08-17,-1,-0.00303177836831171,-0.002540854692133084,-0.0033446402078573523,0.007234027465110625,0.990299683998929
2017-08-21,-1,-0.0030036018465310708,-0.002501881463631314,-0.0033446402078573523,0.007234027465110625,0.9903231729097494
2017-08-23,-1,-0.0032302184531273967,-0.0027154752077490256,-0.0004055412140401501,0.007578313935202103,0.9895937328143302
2017-08-25,-1,-0.004804646532713654,-0.004126465893371806,-0.0004055412140401501,0.007578313935202103,0.9899181688567478
2017-08-29,-1,-0.004923269004475885,-0.004227890947217796,0.0003920882069509483,0.009789235667060452,0.9888855122352294
2017-08-31,-1,-0.0057109716384432085,-0.004798540344403425,0.0003920882069509483,0.007852956819210263,0.9891102439804272
2017-09-05,-1,-0.005547889529594341,-0.004667091766986594,0.0009401175026553523,0.009789235667060452,0.9882424008487305
2017-09-07,-1,-0.005438660519770128,-0.004568448043808827,0.0006198501873460266,0.013944673692853847,0.9877545087798085
2017-09-11,-1,-0.0042576387355030346,-0.0035295348848063857,-0.0011910300981209558,0.007852956819210263,0.9900377366282045
2017-09-13,-1,-0.003953152422612438,-0.0032967703183301848,-0.0006652635150697999,0.009841232760479329,0.9895594691076001
2017-09-15,-1,-0.0025102136968564405,-0.0020424053409831304,-0.0033412355940502774,0.007852956819210263,0.9885853473664994
2017-09-19,-1,-0.0018914657749501819,-0.0015330753862956852,-0.004333789065128364,0.007852956819210263,0.9889664566210864
2017-09-21,-1,-0.0020125263885144573,-0.0016029198696677156,-0.006549928724844457,0.007355312153370689,0.98828472051564
2017-09-25,-1,-0.0023925379839958667,-0.001984734079914288,-0.006549928724844457,0.007355312153370689,0.9882592086142258
2017-09-27,-1,-0.001042024196089552,-0.0008488813079809377,-0.006549928724844457,0.007355312153370689,0.988429213745341
2017-09-29,-1,-0.0004992916723414663,-0.0003889361338447039,-0.006549928724844457,0.0067821762587637,0.9886614333959977
2017-10-03,1,0.0002696523520682432,0.00029158291738339557,-0.01070367628866644,0.0031535077734151907,0.9883959382169613
2017-10-05,1,0.0008750592000843801,0.000940353971415935,-0.01677664644371662,0.002681927249716733,0.9878093431612324
