JNU-Tangyin/eata/results/Batch4_SP500/Batch4_SP500-CHRW.csv
Date,Action,Predicted_Q25,Predicted_Q75,Actual_Q25,Actual_Q75,RL_Reward
2010-12-14,0,0.0,0.0,-0.0025084581509366394,0.0017848407959755665,0.9958225890367975
2010-12-16,0,0.0,0.0,-0.003413243308463331,0.0008138926115483907,0.9953480788608818
2010-12-20,1,2.5177412860954262e-05,3.1759055954610525e-05,-0.004783991793958185,0.0017848407959755665,0.9941842554118662
2010-12-22,-1,-8.112929696546527e-06,-6.384997961534657e-06,-0.004783991793958185,0.0011154282072689812,0.9947424312273638
2010-12-27,0,0.0,0.0,-0.004783991793958185,0.0014489231308711008,0.99476123107591
2010-12-29,0,0.0,0.0,-0.004952622376257011,0.0014489231308711008,0.9948825414387754
2010-12-31,0,0.0,0.0,-0.005222984246817065,0.002010708296617206,0.9934322776120816
2011-01-04,0,0.0,0.0,-0.005222984246817065,0.002010708296617206,0.9913657324239885
2011-01-06,0,0.0,0.0,-0.004924492187069884,0.003195366297563798,0.9911442525212867
2011-01-10,0,0.0,0.0,-0.005403339861325536,0.003195366297563798,0.9908149906054459
2011-01-12,1,0.0011058877038843326,0.0011326100506157742,-0.005403339861325536,0.00499424650304591,0.99038330337031
2011-01-14,1,0.0003134059602152694,0.0004166666935012562,-0.0056502554405780114,0.0058537659364652295,0.9899141586790295
2011-01-19,-1,-0.0002200081037209248,-3.970696220335413e-05,-0.004924492187069884,0.007024998080386769,0.9904436673145984
2011-01-21,-1,-0.0003946826698876932,-0.00018938698073875067,-0.004924492187069884,0.007024998080386769,0.9904897440338863
2011-01-25,1,0.0001726294594168703,0.00029718863359297744,-0.008985993021164356,0.007024998080386769,0.9878789325130073
2011-01-27,0,-1.5655690360156897e-05,0.00011851859350434936,-0.008985993021164356,0.009695918278024962,0.9870198589420501
2011-01-31,1,0.00011943249577696369,0.00023754926086863657,-0.008985993021164356,0.009272572651055931,0.9876418810463099
2011-02-02,0,0.0,0.0,-0.0056502554405780114,0.009272572651055931,0.9890052574630535
2011-02-04,0,0.0,0.0,-0.009836297162845897,0.008014482973134689,0.9886276480438179
2011-02-08,0,0.0,0.0,-0.009836297162845897,0.009475615991249495,0.9880792488950919
2011-02-10,-1,-0.001180572560301346,-0.0011558208184721174,-0.012724367394479198,0.008290960408920075,0.9879336504166518
2011-02-14,0,0.0,0.0,-0.009474430169995603,0.008290960408920075,0.9885122510604207
2011-02-16,-1,-0.0011376494902575686,-0.0009129017713965421,-0.009989618084128916,0.00817638286689122,0.9883899596876826
2011-02-18,-1,-0.0010675713815169329,-0.000831286229551766,-0.009989618084128916,0.010758465620412707,0.9871721305528128
2011-02-23,-1,-0.0028346850241205116,-0.0023993330930350003,-0.008683469397495607,0.010758465620412707,0.9884757303281535
2011-02-25,-1,-0.0020691208643029784,-0.0017162246913237206,-0.008683469397495607,0.0101153770342103,0.9890722002981569
2011-03-01,-1,-0.0024050622918941576,-0.0020301907399938902,-0.008039159759398099,0.0101153770342103,0.9893466281315753
2011-03-03,-1,-0.0008489701922746441,-0.000662952929089136,-0.008039159759398099,0.0101153770342103,0.9909533479622155
2011-03-07,-1,-0.0019273599627977912,-0.001596992449226195,-0.0028403988415071834,0.010520735222970281,0.9905518349731504
2011-03-09,-1,-0.0009531891343542696,-0.0007692416620636161,-0.003559886841426547,0.010006662226881253,0.9916258734952031
2011-03-11,-1,-0.0015381080817174352,-0.0012738344862209682,-0.0060713433978135285,0.010006662226881253,0.9914149143991903
2011-03-15,-1,-0.0017424087078205357,-0.0014647757505499613,-0.0033274942482148643,0.010006662226881253,0.9914315061530757
2011-03-17,-1,-0.001906725690510466,-0.0016138873058012012,-0.002056808750043266,0.010520735222970281,0.9913766607279548
2011-03-21,-1,-0.001741770012972864,-0.0014720401187787505,-0.0033274942482148643,0.010006662226881253,0.9915792408966391
2011-03-23,-1,-0.0029976120567502,-0.0025351448041012526,-0.0005914530885927239,0.010520735222970281,0.9914295423579174
2011-03-25,-1,-0.002604233103263769,-0.0021919401009846944,-0.0005914530885927239,0.010805585881474357,0.9914822606056152
2011-03-29,0,0.0,0.0,-0.0005914530885927239,0.011060339071842496,0.9919094575205284
2011-03-31,0,0.0,0.0,-0.0033274942482148643,0.010729646964993764,0.9916064365273891
2011-04-04,0,0.0,0.0,-0.005374165618178481,0.010729646964993764,0.9921185311177605
2011-04-06,0,0.0,0.0,-0.006615520632587664,0.010729646964993764,0.9917885833261136
2011-04-08,0,0.0,0.0,-0.0015258788744061714,0.010729646964993764,0.9920138803902419
2011-04-12,0,0.0,0.0,-0.0018865264680638756,0.010729646964993764,0.9917705303914945
2011-04-14,-1,-16.024063400724362,-14.139360302605628,-0.006518226787940041,0.010037425084772348,0.0621713594683387
2011-04-18,0,0.0,0.0,-0.006518226787940041,0.009425494069667485,0.99275173786437
2011-04-20,0,0.0,0.0,-0.006518226787940041,0.009425494069667485,0.9925701376271635
2011-04-25,0,0.0,0.0,-0.0069184551226292995,0.008301365203634491,0.9929601281635603
2011-04-27,0,0.0,0.0,-0.0069184551226292995,0.005644626587159695,0.993664129593502
2011-04-29,0,0.0,0.0,-0.006518226787940041,0.004785207309243106,0.9943917509016661
2011-05-03,0,0.0,0.0,-0.006518226787940041,0.004785207309243106,0.9934617096447548
2011-05-05,-1,-0.0007699124810118274,-0.0006967964945909792,-0.0066348061116163325,0.005230040997942061,0.9929273631609016
2011-05-09,-1,-0.0002878147375892507,-0.00013704110672049368,-0.007281839682243631,0.003977097046895596,0.9931214543847534
2011-05-11,-1,-0.000212254012424538,-3.055769324714389e-05,-0.007281839682243631,0.0032696676915273857,0.9934204882828053
2011-05-13,-1,-0.00042216867036382175,-0.000272048915979456,-0.007281839682243631,0.003707788364950148,0.9935733265006285
2011-05-17,-1,-0.00026206895311599234,-7.535105438644747e-05,-0.007422195656489336,0.003977097046895596,0.9925297243678503
2011-05-19,1,0.00026691771334970036,0.0005296428709424347,-0.007422195656489336,0.003707788364950148,0.9928923399676541
2011-05-23,1,0.00018700471832371296,0.00045094440555968067,-0.007103859280813954,0.00485104281688856,0.9927880809060546
2011-05-25,1,0.0002520432126090327,0.000528731081928427,-0.007103859280813954,0.00485104281688856,0.9926901628715908
2011-05-27,1,0.00033141259087917675,0.000605659192367139,-0.008330202340275756,0.006142861870716311,0.991557508798151
2011-06-01,-1,-0.0005327843246925358,-0.0003852348279604599,-0.007103859280813954,0.008268218588314568,0.992222666764925
2011-06-03,-1,-0.0004276105951742149,-0.00025868550608148047,-0.005187903169489552,0.008804659300249533,0.9917045933407638
2011-06-07,-1,-0.0004482729802297464,-0.0002707624470893779,-0.003214870656066383,0.008832066514083315,0.9917451508798067
2011-06-09,0,0.0,0.0,-0.003214870656066383,0.010028830786536045,0.9912035839622063
2011-06-13,0,0.0,0.0,-0.005351247134025551,0.010028830786536045,0.9905696715319023
2011-06-15,-1,-0.002241136356341164,-0.001683739526210632,-0.005351247134025551,0.008832066514083315,0.9915844950766998
2011-06-17,0,0.0,0.0,-0.006565859609252356,0.008832066514083315,0.9915339131774886
2011-06-21,0,0.0,0.0,-0.007586858877187594,0.010028830786536045,0.9910697837464756
2011-06-23,0,0.0,0.0,-0.007586858877187594,0.011372309129692726,0.990336913486865
2011-06-27,0,-7.330012004506977e-05,0.0,-0.007586858877187594,0.010168892955864975,0.9907018223222677
2011-06-29,1,0.0003520079285725323,0.0003522633253227284,-0.009328091150074078,0.009627692061926794,0.9867075167783962
2011-07-01,1,0.0013350500389788923,0.0014492060239139188,-0.00935164837896766,0.008159449219623095,0.9872405559842354
2011-07-06,1,0.0015305487609432213,0.0016993505105679352,-0.011718457214146948,0.008440250324838472,0.9860557634467871
2011-07-08,1,0.0011690642130672978,0.0012576206360744625,-0.01202619912429085,0.0028541771331119003,0.9846830329270941
2011-07-12,1,0.0006576161230855258,0.0007136732342294476,-0.012825011711801294,0.008440250324838472,0.9828249253658365
2011-07-14,1,0.0004468004446495623,0.00046038230602123945,-0.01634100914398874,0.01015231497814783,0.9794269092759269
2011-07-18,-1,-0.0009767544565552253,-0.0007366578576722835,-0.01634100914398874,0.012131484013146322,0.9785251116646858
2011-07-20,-1,-0.00023463725427568004,-0.00012627178351382127,-0.01634100914398874,0.01015231497814783,0.9786281884181106
2011-07-22,0,0.0,0.0,-0.0212755882038923,0.003411266606949046,0.9770630376617625
2011-07-26,0,0.0,0.0,-0.0212755882038923,0.012013551878106358,0.9759820622166504
2011-07-28,0,0.0,0.0,-0.017358318890488805,0.013738843518611708,0.9790199337700584
2011-08-01,0,0.0,0.0,-0.017358318890488805,0.018050956453748334,0.9767375621855928
2011-08-03,0,0.0,0.0,-0.015358169054432241,0.017159316787272654,0.9772644838133132
2011-08-05,1,0.22334354159374192,0.24096888985565404,-0.016532278887924367,0.017159316787272654,0.811287678166464
2011-08-09,-1,-0.008267243651426287,-0.007154464299832221,-0.016532278887924367,0.026672526943794864,0.9775683892323773
2011-08-11,0,0.0,0.0,-0.015137968547768959,0.017159316787272654,0.9802205712734505
2011-08-15,-1,-0.0033412156092267158,-0.002876786933871844,-0.015137968547768959,0.015244905910257213,0.981509751451465
2011-08-17,-1,-0.0034609560349390216,-0.0029980966924969222,-0.014114824692109847,0.017226734572997768,0.9803668257317758
2011-08-19,0,0.0,0.0,-0.011552659702453377,0.017226734572997768,0.9825686807785979
2011-08-23,-1,-0.007758251028910027,-0.00676411221589255,-0.014114824692109847,0.01509451503670825,0.9823939681022769
2011-08-25,-1,-0.002967115666310601,-0.0026115257819934296,-0.014114824692109847,0.013930473964568183,0.9823808214376221
2011-08-29,-1,-0.0022955484757463136,-0.0020167717210214336,-0.014114824692109847,0.01299959791622846,0.9831238674405213
2011-08-31,-1,-0.0025498950091794982,-0.002213810537990299,-0.017011355884055168,0.01299959791622846,0.9825658472542749
2011-09-02,-1,-0.004165098932921026,-0.0036420365650957705,-0.014814102194903932,0.01299959791622846,0.9830896858036483
2011-09-07,-1,-0.0032833396416381802,-0.0028911220458693325,-0.012982967997987885,0.014283715554429637,0.9827638080410874
2011-09-09,-1,-0.003843623617156838,-0.003400714072269462,-0.010132587307526817,0.014283715554429637,0.9822706660350573
2011-09-13,0,0.0,0.0,-0.010132587307526817,0.014283715554429637,0.9824296588450228
2011-09-15,0,0.0,0.0,-0.012619389871503139,0.013325486652683228,0.98296391242596
2011-09-19,0,0.0,0.0,-0.013684993650778297,0.015329339763463996,0.9815837220642942
2011-09-21,0,0.0,0.0,-0.010055776687336149,0.021614160290431984,0.982646422522107
2011-09-23,-1,-0.002145260643842365,-0.0019798886736570277,-0.007479068919788518,0.021614160290431984,0.9826395790379533
2011-09-27,0,0.0,0.0,-0.010055776687336149,0.019165884308499463,0.9835651764374619
2011-09-29,0,0.0,0.0,-0.010055776687336149,0.02143504726070957,0.9802276732632641
2011-10-03,0,0.0,0.0,-0.010055776687336149,0.02143504726070957,0.9810846568428492
2011-10-05,1,0.0040451283975526465,0.004557875736163603,-0.012851540971435045,0.018117042799411905,0.9818532675361547
2011-10-07,0,0.0,0.0,-0.012851540971435045,0.018117042799411905,0.9819964153314631
2011-10-11,0,0.0,0.0,-0.012851540971435045,0.018117042799411905,0.9824175724113411
2011-10-13,1,0.0037424464640737737,0.004216802824713554,-0.014381446950574018,0.018117042799411905,0.9811430724432624
2011-10-17,1,0.0036881641513203537,0.004141419327287198,-0.008789343421482645,0.017824809250528144,0.9818378912181677
2011-10-19,1,0.004063529518686547,0.004564873933877377,-0.015147183220599183,0.01629711877175116,0.9818845223883477
2011-10-21,1,0.0043341505846541594,0.004835067940319683,-0.019156693669489806,0.012533312255870161,0.981405259914862
2011-10-25,1,0.0040748916653399435,0.004530663538278547,-0.015516546724699994,0.008779179072753045,0.9818684873495687
2011-10-27,1,0.0031694966119589912,0.0034788995210941987,-0.014559017842436172,0.006085621725847649,0.9858608742190647
2011-10-31,1,0.002287872081017013,0.0024833091957409802,-0.014559017842436172,0.008779179072753045,0.984981936146275
2011-11-02,1,0.0016454436556555098,0.0017734903505022318,-0.012993169278811282,0.008779179072753045,0.9848771890758123
2011-11-04,1,0.001919108578136619,0.002084337461711618,-0.012993169278811282,0.009870525650938888,0.9844470181703141
2011-11-08,1,0.002629439875192407,0.0028915197435037173,-0.013938181253352933,0.006085621725847649,0.9846459003323024
2011-11-10,1,0.001879178795244121,0.002062061960252285,-0.013938181253352933,0.008064563839010584,0.9854185243062558
2011-11-14,1,0.0019146698192098856,0.0020923502749489726,-0.014219995255721873,0.0050294654165876345,0.9850867811081847
2011-11-16,1,0.0012945861234853419,0.0013787470995529068,-0.01390687446802211,0.005545409059634496,0.9859830798050306
2011-11-18,1,0.0011077341617091803,0.0011827368864513665,-0.01390687446802211,0.005091240021017252,0.98618639946567
2011-11-22,1,0.0010238623812663424,0.0011559803909027661,-0.012867924492690811,0.008721850552113514,0.9851356729418334
2011-11-25,1,0.0007039809982197919,0.0007947757148083559,-0.011685849406481333,0.013950769510186723,0.9850410553327097
2011-11-29,1,0.001584919585697855,0.0017942659577806198,-0.012867924492690811,0.010780698491173442,0.9857982443063121
2011-12-01,1,0.0022247909514513586,0.0024791276487160637,-0.012000853397995215,0.009671649334686061,0.988077756228366
2011-12-05,0,0.0,0.0,-0.01390687446802211,0.008094177723309542,0.9882235766530569
2011-12-07,0,0.0,0.0,-0.013478818428110561,0.008094177723309542,0.9883213868832574
2011-12-09,0,0.0,0.0,-0.011858168051358033,0.006203149424790506,0.9898560774722184
2011-12-13,0,0.0,0.0,-0.007567324750604399,0.006203149424790506,0.9903591042200045
2011-12-15,0,0.0,0.0,-0.007567324750604399,0.006314283979159519,0.9904475105529087
2011-12-19,0,0.0,0.0,-0.004681675441902388,0.009671649334686061,0.9896120459485774
2011-12-21,0,0.0,0.0,-0.007567324750604399,0.008094177723309542,0.990745039146435
2011-12-23,0,0.0,0.0,-0.0077832584682200655,0.006183557181216769,0.9911844217860544
2011-12-28,0,0.0,0.0,-0.0077832584682200655,0.006183557181216769,0.990849544260482
2011-12-30,0,0.0,0.0,-0.009612174176899291,0.006183557181216769,0.990353727486445
2012-01-04,1,0.00045893083135750776,0.0005767244358076142,-0.009612174176899291,0.006183557181216769,0.9876978264306221
2012-01-06,1,0.0005614199571198343,0.0006022689449938948,-0.00678165590246704,0.0066962265144831275,0.9878078049938818
2012-01-10,-1,-0.00039245827828491653,-0.00020033539388116222,-0.00788674211991954,0.0066962265144831275,0.9880427671501743
2012-01-12,-1,-0.0018812221836387825,-0.001438496875377189,-0.006540379405391465,0.0066962265144831275,0.9886020556491105
2012-01-17,-1,-0.0009158274877573432,-0.000664070397489918,-0.006540379405391465,0.011539734223929019,0.9874748319690417
2012-01-19,1,0.0002612910905248078,0.00038432654855107847,-0.00788674211991954,0.008141664696132127,0.9858931736254708
2012-01-23,1,0.00039461206472478605,0.00040462206433155174,-0.006540379405391465,0.008141664696132127,0.9868727032666783
2012-01-25,1,0.000375054463756034,0.00038207445372617234,-0.006335426451724224,0.011804658495434764,0.986541767134435
2012-01-27,-1,-0.0004195402237196353,-0.00023696846048628772,-0.0046969190767526744,0.0077403993219942666,0.9878263228444081
2012-01-31,0,-1.9356897198693536e-05,8.991854396740945e-05,-0.0046969190767526744,0.0030017239295998485,0.9883118261947597
2012-02-02,-1,-0.0009900170130639143,-0.0007233815001196684,-0.0046969190767526744,0.007490994860118172,0.9907859465993115
2012-02-06,-1,-0.0006843336227270719,-0.0004888371200361422,-0.007574308010773351,0.003930247399947512,0.9904633855753615
2012-02-08,-1,-0.000425572641101365,-0.00030519038006502497,-0.005109879596435717,0.01039726642149534,0.9901528635694653
2012-02-10,-1,-0.0005247473633998497,-0.00039275908807238425,-0.0065221164045174695,0.01039726642149534,0.989561339281213
2012-02-14,1,0.00028200400648288734,0.0004242002943776315,-0.008018952329811488,0.007475009381542488,0.9899697467673427
2012-02-16,1,0.000684624157498158,0.0007794515587321606,-0.0065221164045174695,0.005416535270725952,0.9930673603780481
2012-02-21,1,0.001269006455895333,0.0013243345486228712,-0.008018952329811488,0.005416535270725952,0.9921176466598476
2012-02-23,1,0.0016995480280875958,0.0017953158771481068,-0.008125241493979899,0.005416535270725952,0.9921399255004156
2012-02-27,1,0.0005828831827608659,0.0006933872788681898,-0.008125241493979899,0.007170003006603399,0.9923073160410917
2012-02-29,1,0.0009971188493844434,0.001142193950987552,-0.007586018528139283,0.007170003006603399,0.9926045326882748
2012-03-02,1,0.0008475010645020527,0.0009748459742413799,-0.0065221164045174695,0.007170003006603399,0.9927614601457038
2012-03-06,1,0.0005567169861779041,0.0006840044331916859,-0.0040982486523656455,0.007170003006603399,0.9933736389502047
2012-03-08,1,0.0006485175531524882,0.0007481681411710747,-0.0055578494665215585,0.0065539673708021546,0.9934280117891182
2012-03-12,1,0.0007947137487766185,0.0009169728704688259,-0.006501761870171285,0.005275849500780284,0.992711158781398
2012-03-14,1,0.0008227917545747468,0.0009879561650833644,-0.0055578494665215585,0.006747945696766396,0.9930118010485757
2012-03-16,1,0.0012441436157778836,0.0014966691401637347,-0.006128357709552396,0.007884261220000511,0.9923770395918057
2012-03-20,1,0.000557261618647037,0.000691218095595191,-0.0055578494665215585,0.010465831752801791,0.9919225486675736
2012-03-22,1,0.0002913830942353013,0.00035236267564081093,-0.0055578494665215585,0.010465831752801791,0.991832132204671
2012-03-26,1,0.000390483012382264,0.0004374335946818889,-0.006128357709552396,0.00881591153488427,0.9915166874694504
2012-03-28,1,0.00046760081906123136,0.0005448193580298482,-0.0104265703930242,0.00881591153488427,0.9867765671557125
2012-03-30,1,0.0007847485934086465,0.00091672309439783,-0.0104265703930242,0.00881591153488427,0.9868147690499431
2012-04-03,1,0.001173067872991368,0.0013787528050484517,-0.0104265703930242,0.01078878229293748,0.9853331391024709
2012-04-05,-1,-0.0002647565515011481,-0.00017774448550419948,-0.013300100414432539,0.01078878229293748,0.9843921368829268
2012-04-10,1,7.954745994311074e-05,0.0001254653215833041,-0.011332856851656317,0.01078878229293748,0.9851656527153418
2012-04-12,1,0.00045700722330669437,0.0005193136569020423,-0.011332856851656317,0.01078878229293748,0.98542828084791
2012-04-16,1,0.0005068551925860659,0.0005570350850341962,-0.011332856851656317,0.008504918701400833,0.9857178707871777
2012-04-18,1,0.0009346095728219727,0.0009976001056982674,-0.011332856851656317,0.005406556262635774,0.9867799202214718
2012-04-20,-1,-0.0006406995514419998,-0.000418323374786361,-0.013300100414432539,0.0049172710864421355,0.9864511879847702
2012-04-24,-1,-0.0001424192346433284,-5.2491972596245724e-05,-0.012813588362881137,0.005859798357613074,0.986440065904906
2012-04-26,-1,-0.0028278864736848925,-0.002448427671086499,-0.00886688238272119,0.007631983192866887,0.9907504602726839
2012-04-30,-1,-0.0018724634532036096,-0.001652592849896746,-0.00886688238272119,0.007631983192866887,0.9904869332986125
2012-05-02,-1,-0.0007673706546197769,-0.0006618863542414322,-0.012813588362881137,0.0049172710864421355,0.990601500727732
2012-05-04,-1,-0.001774316247241543,-0.0015538632269513014,-0.011135890901398344,0.0049172710864421355,0.9908507665304388
2012-05-08,-1,-0.0018555154849766147,-0.001577898818669795,-0.011135890901398344,0.0049172710864421355,0.9902846405183476
2012-05-10,-1,-0.0022836275603541805,-0.0019499384291786295,-0.00940261788435083,0.005490101701509614,0.990134319557368
2012-05-14,-1,-0.0027070817862899377,-0.0022944207532178346,-0.00940261788435083,0.006522893224556505,0.9899033667075535
2012-05-16,-1,-0.001637364780544983,-0.0014260605833693078,-0.011343542911668449,0.007934985187751474,0.9889648307873107
2012-05-18,-1,-0.0021326966082783655,-0.001902885428955824,-0.008158228443616775,0.008462524083503037,0.9892099766375776
2012-05-22,-1,-0.0015206176792947365,-0.0013513939667677377,-0.008306794997916757,0.008462524083503037,0.9891102429997468
2012-05-24,-1,-0.0014107299377831787,-0.001267331784221279,-0.008989110582112108,0.008462524083503037,0.9884075714187317
2012-05-29,-1,-0.0010589265042250753,-0.0009298377172785947,-0.011627654664138946,0.007808525881747021,0.9884785991561941
2012-05-31,-1,-0.002319054106816568,-0.0020413030710189784,-0.008175898731161514,0.008462524083503037,0.9899093479287631
2012-06-04,-1,-0.0034262616558662293,-0.0030022853509057822,-0.00810206242373606,0.010917528570726242,0.9871037092013337
2012-06-06,-1,-0.002761735867760074,-0.002391550701469899,-0.00810206242373606,0.010917528570726242,0.9874961575847853
2012-06-08,-1,-0.002751680048899043,-0.002386444602858241,-0.008175898731161514,0.010917528570726242,0.9874824483220576
2012-06-12,-1,-0.001910919772486946,-0.0017108379492599764,-0.008055750591088581,0.010917528570726242,0.9878485103518726
2012-06-14,-1,-0.00205293214858188,-0.001814872683388922,-0.008055750591088581,0.011121252486971012,0.9873829728529838
2012-06-18,-1,-0.0013241815403242725,-0.0011752235093046032,-0.01196368262235574,0.011121252486971012,0.9863977762017697
2012-06-20,-1,-0.0010163254546088575,-0.0009065441368226765,-0.01196368262235574,0.011881540352987972,0.9859244771563362
2012-06-22,-1,-0.0019141132872832025,-0.0017617796847988693,-0.01196368262235574,0.011881540352987972,0.9853404355509686
2012-06-26,-1,-0.003940589020745251,-0.0035275649917084146,-0.01196368262235574,0.011881540352987972,0.9831987859674943
2012-06-28,-1,-0.003230670630188219,-0.00288670303786099,-0.01196368262235574,0.01776067678320782,0.9823441918663544
2012-07-02,-1,-0.0006437511676168996,-0.0005939654223741565,-0.01196368262235574,0.001367449288219209,0.9849050099281329
2012-07-05,-1,-0.0005771389009992718,-0.0005370024403942259,-0.01196368262235574,0.001367449288219209,0.9856931338547765
2012-07-09,-1,-0.0005787318839109938,-0.0005585464859301565,-0.008360324844323475,0.00504328030212714,0.9860820874344512
2012-07-11,-1,-0.0007264871181407115,-0.0006964642485573996,-0.008360324844323475,0.00504328030212714,0.9862360580355919
2012-07-13,-1,-0.0002807894954198065,-0.00018751899214011357,-0.006881416587812031,0.00504328030212714,0.9874813020103113
2012-07-17,-1,-0.0011821171575925574,-0.0011574245128457624,-0.0028639097239790408,0.0072535512202845515,0.9881587647876231
2012-07-19,-1,-0.00032669958349211157,-0.00020105245753265435,-0.0028639097239790408,0.008158518692655041,0.9885235752501556
2012-07-23,-1,-0.00229222271032201,-0.0021559920202261934,-0.0004638324953031099,0.008158518692655041,0.9891950650791911
2012-07-25,0,0.0,0.0,-0.00013056572081340017,0.008158518692655041,0.9939691752643456
2012-07-27,0,0.0,0.0,-0.0008555296577433104,0.007257579571723407,0.9943358406538018
2012-07-31,0,0.0,0.0,-0.0008555296577433104,0.007257579571723407,0.9938791632208367
2012-08-02,0,0.0,0.0,-0.002044700439565442,0.008158518692655041,0.9927006961140341
2012-08-06,0,0.0,0.0,-0.002044700439565442,0.007257579571723407,0.9928132419529105
2012-08-08,0,0.0,0.0,-0.003107419788597207,0.008786959734936971,0.9922318627968505
2012-08-10,0,0.0,0.0,-0.003107419788597207,0.008051968465143111,0.9922859299971654
2012-08-14,0,0.0,0.0,-0.003107419788597207,0.006879320439876672,0.9930612481937718
2012-08-16,1,0.00024080604537478378,0.0004444122677019119,-0.004019339941436002,0.006541539331087998,0.9942400994669652
2012-08-20,1,0.0007788356456287615,0.0010557310754828676,-0.0053450793177405725,0.0032406126824765895,0.9939995332116729
2012-08-22,1,0.0018112866039144682,0.002144704954725049,-0.0053450793177405725,0.006265377164610821,0.9932738265775207
2012-08-24,0,0.0,0.0,-0.004055828387028464,0.00664292107479692,0.9932296265282288
2012-08-28,0,0.0,0.0,-0.0023932156184937763,0.007132326531704724,0.9937362050706756
2012-08-30,0,-0.00010480252091819126,8.071605908660062e-06,-0.0023932156184937763,0.00664292107479692,0.994475899215269
2012-09-04,0,0.0,0.0,-0.0038408681669403312,0.007132326531704724,0.9939225887312633
2012-09-06,0,0.0,0.0,-0.0023932156184937763,0.007132326531704724,0.9936588126494096
2012-09-10,0,0.0,0.0,-0.0038408681669403312,0.007139705597516491,0.993490939139563
2012-09-12,1,0.002281296758917176,0.0027782332784513104,-0.005537457145908939,0.007139705597516491,0.9927927454267361
2012-09-14,1,0.0020967546329018617,0.0025407888355634773,-0.005537457145908939,0.008237628177169193,0.9922575645071642
2012-09-18,0,0.0,0.0,-0.002597645602765029,0.008894103407251022,0.9919168300039789
2012-09-20,0,0.0,0.0,-0.00485213637153409,0.008894103407251022,0.9919419207785656
2012-09-24,0,0.0,0.0,-0.006789123684317497,0.008237628177169193,0.9915632766382526
2012-09-26,0,0.0,0.0,-0.00892895316316603,0.008894103407251022,0.9882919383338302
2012-09-28,1,0.0,0.0019451502464638525,-0.006789123684317497,0.009952762222544622,0.988342797435933
2012-10-02,0,0.0,0.0,-0.005537457145908939,0.015775991947909275,0.9865522797916372
2012-10-04,1,0.0026576360347993202,0.0029389612695568633,-0.005537457145908939,0.013516275727459934,0.9875408647962683
2012-10-08,1,0.002480558642646468,0.0027358993533855725,-0.007257839742419274,0.014548162602383119,0.98685996824569
2012-10-10,1,0.0013882927960169244,0.0014405263119588213,-0.00629438862814051,0.014548162602383119,0.9868680460507221
2012-10-12,1,0.0021590994093500762,0.0023501298238900142,-0.00629438862814051,0.013315999747081336,0.9876734413141564
2012-10-16,1,0.0025839732975248097,0.0028305043243710077,-0.011087490001260983,0.013315999747081336,0.9864636540541398
2012-10-18,1,0.003152719826689087,0.003499896809298809,-0.011087490001260983,0.011827356132623553,0.986415544613049
2012-10-22,1,0.0015202745283597555,0.0015737400051990405,-0.0058130642625726075,0.011827356132623553,0.9878244647387929
2012-10-24,0,0.0,0.0,-0.002639633746725093,0.011395475419199332,0.9904377216565831
2012-10-26,0,0.0,0.0,-0.0058130642625726075,0.011395475419199332,0.9907718859103466
2012-11-01,1,0.0020307727425409074,0.0022978712124668496,-0.0058130642625726075,0.008386053866997246,0.9921097958661138
2012-11-05,1,0.00219972326835055,0.0024869221372521913,-0.007304628532847706,0.005310155664144265,0.9918059411764285
2012-11-07,0,0.0,0.0,-0.007304628532847706,0.005310155664144265,0.9916025375398165
2012-11-09,0,0.0,0.0,-0.0058130642625726075,0.008896352103750177,0.9910681799671645
2012-11-13,1,0.002068796138795765,0.0023740429680039615,-0.0058130642625726075,0.008896352103750177,0.9908163272589653
2012-11-15,1,0.0005972727625070601,0.0006482790659838976,-0.004676273267469457,0.008896352103750177,0.9918705626424817
2012-11-19,1,0.0004953165510986758,0.000499716440720108,-0.0038738935862392358,0.011323143981250202,0.9911306660573911
2012-11-21,1,0.0006558198259667067,0.0006868203767015324,-0.0038738935862392358,0.011323143981250202,0.9913353837268994
2012-11-26,0,0.0,0.0,-0.0043715067920692945,0.0065973982055980585,0.991905036064999
2012-11-28,0,0.0,0.0,-0.0043715067920692945,0.00420751588683827,0.9927489258169083
2012-11-30,0,0.0,0.0,-0.004604770525970194,0.0065973982055980585,0.9917659611634028
2012-12-04,0,0.0,0.0,-0.004604770525970194,0.0065973982055980585,0.991686377890259
2012-12-06,0,0.0,0.0,-0.0043715067920692945,0.0065973982055980585,0.9927755218847174
2012-12-10,0,0.0,0.0,-0.0043715067920692945,0.0065973982055980585,0.9930713648158476
2012-12-12,1,0.001637679738641728,0.0018050409793835447,-0.0033525870711659353,0.0047083350009137865,0.9934841875545459
2012-12-14,0,0.0,0.0,-0.002636153591143591,0.009088371805433143,0.9930440892149818
2012-12-18,1,0.0008736968430182642,0.0010435445909896422,-0.003362917018959109,0.0029927862779431562,0.9943527150300961
2012-12-20,1,0.0021830865223819965,0.002206517151620149,-0.003362917018959109,0.008502756381087013,0.9936180894109301
2012-12-24,0,0.0,0.0,-0.003473128702015665,0.008838784253352312,0.9923474416117336
2012-12-27,0,0.0,0.0,-0.00046041573086136735,0.008838784253352312,0.9925034436471903
2012-12-31,0,-2.0008681168346136e-05,8.864701684456564e-05,-0.00046041573086136735,0.008502756381087013,0.993057594279428
2013-01-03,1,0.0005895708916330972,0.0007657159838533312,0.0006381788553990583,0.008838784253352312,0.9928077534053469
2013-01-07,1,0.0009013291415868984,0.0010294900259063741,-0.001433979459001021,0.008838784253352312,0.9921165133758549
2013-01-09,1,0.0013816731639209189,0.0014008004213979124,-0.009437937212590718,0.008502756381087013,0.9875654800462915
2013-01-11,0,0.0,0.0,-0.009437937212590718,0.008502756381087013,0.9870540850197829
2013-01-15,0,0.0,0.0,-0.009437937212590718,0.00669190546190502,0.9872278003984696
2013-01-17,0,0.0,0.0,-0.009937132238525428,0.00669190546190502,0.9869465245234035
2013-01-22,0,0.0,0.0,-0.009937132238525428,0.005090235423455365,0.9872551160771792
2013-01-24,0,0.0,0.0,-0.011716272678403545,0.005090235423455365,0.9874002472880447
2013-01-28,0,0.0,0.0,-0.013121658050096505,0.0028032149094301827,0.9859615490073061
2013-01-30,0,0.0,0.0,-0.013121658050096505,0.0032407808096729706,0.9856199591162804
2013-02-01,0,0.0,0.0,-0.012523869794485845,0.0009544552409412561,0.9868469850320398
2013-02-05,0,0.0,0.0,-0.010169323640061248,0.0009544552409412561,0.9875242363282638
2013-02-07,0,-0.0011208641198809227,3.461474404563389e-05,-0.005649610733981516,0.001350493135230358,0.9929463142427593
2013-02-11,-1,-0.0005466829733077359,-0.00028333194758110066,-0.0053936350075090254,0.002820017089657036,0.9927495055905944
2013-02-13,0,0.0,0.0,-0.0052783895546797705,0.00656108782740342,0.9914692761526431
2013-02-15,-1,-0.002498002408130228,-0.0021195492175830155,-0.003539884939833773,0.00656108782740342,0.9915901044787652
2013-02-20,-1,-0.0019007305669935912,-0.00161439038369677,-0.0052783895546797705,0.003308721920143282,0.9922374231685784
2013-02-22,0,0.0,0.0,-0.0052783895546797705,0.003308721920143282,0.9918345968073216
2013-02-26,0,0.0,0.0,-0.0026437588630590396,0.00765664672797802,0.9927707327010277
2013-02-28,0,0.0,0.0,-0.0025294169916113374,0.006483331816248199,0.9936079093444834
2013-03-04,0,0.0,0.0,-0.003211128100367292,0.006483331816248199,0.9928953942366214
2013-03-06,-1,-0.0011554345745135742,-0.0008594539705573037,-0.003211128100367292,0.006153233337381152,0.9926919446225915
2013-03-08,-1,-0.0017228650229423135,-0.0013334548066922863,-0.0025294169916113374,0.00765664672797802,0.9916396907475512
2013-03-12,-1,-0.0013928202203084851,-0.0010587259422949577,-0.0025294169916113374,0.007665211208572902,0.9913158215582145
2013-03-14,0,-1.2023662256069486e-05,0.0001259414669689826,-0.0033826856767184637,0.007515209769695302,0.9919439995932806
2013-03-18,0,-2.2203689344741327e-05,0.00011797597060490215,-0.006577817990400659,0.007515209769695302,0.9906498726368865
2013-03-20,-1,-0.0008481519631827182,-0.0005709403588088219,-0.0089749608744641,0.007515209769695302,0.9902684087839873
2013-03-22,-1,-0.0014040255908612138,-0.0010051141029620932,-0.006565664368133578,0.007515209769695302,0.9911045026082287
2013-03-26,0,-0.000170319465299555,1.9953336298345254e-05,-0.006565664368133578,0.007046192516334514,0.9914392934980019
2013-03-28,1,0.0006772580729982388,0.0006955927467548866,-0.006565664368133578,0.007232756338288952,0.9912062179914878
2013-04-02,1,0.0003423144423896521,0.0003926569530933696,-0.005852365883606174,0.007694110782744681,0.9911429549896572
2013-04-04,1,0.0003615879148428366,0.0004093140562671943,-0.005852365883606174,0.008035966773677084,0.9910727798585656
2013-04-08,1,0.0008068062464920299,0.0008212536777737159,-0.005852365883606174,0.007637726247267652,0.9912067880388318
2013-04-10,1,0.0007826580208700586,0.0007971263097515141,-0.006496641431963488,0.008321529114213652,0.9874593248839686
2013-04-12,0,-7.230620997818264e-05,7.623067813727262e-05,-0.006496641431963488,0.00939560632882084,0.986865175851707
2013-04-16,-1,-0.0005221565256469789,-0.0003217064072310081,-0.006436989188095887,0.010173151447601858,0.9867903021427858
2013-04-18,-1,-0.000869222480530945,-0.0006300783032815395,0.0006532534802676937,0.012526580010018936,0.9864798746333472
2013-04-22,-1,-0.0002778327741778747,-0.00013357695370539997,-0.0017547115175739498,0.010628073932773457,0.9869130481939433
2013-04-24,1,9.55537543836956e-05,0.00020776955710121142,-0.003605823984926749,0.013985477075941609,0.9855592762666493
2013-04-26,1,0.0003339531634754465,0.0004117378707861162,-0.009361419232692353,0.013985477075941609,0.9852800143956619
2013-04-30,1,0.00048312925236372725,0.0005560105493636097,-0.012840496619660366,0.013985477075941609,0.9851385933946603
2013-05-02,1,0.00034608657791859374,0.00044437653630169003,-0.013309243957209796,0.013985477075941609,0.9850818461345566
2013-05-06,1,0.0010728941986277855,0.0011084982933834975,-0.013309243957209796,0.009304884186823877,0.9852116015070082
2013-05-08,1,0.0006571598535026998,0.000677337222200492,-0.012840496619660366,0.006765548477651959,0.9893596540761967
2013-05-10,1,0.0005954802308808839,0.000620692899553739,-0.010273828152527349,0.006765548477651959,0.990281333067385
2013-05-14,1,0.0009120079795567793,0.0009723634082680091,-0.008738439482390106,0.00610453402325493,0.9909823767134979
2013-05-16,1,0.0012946230569278645,0.0014111034999830638,-0.008738439482390106,0.00610453402325493,0.9908076571036902
2013-05-20,1,0.0013679824594807913,0.0014797172879787213,-0.008738439482390106,0.006591450960273167,0.9906857959617539
2013-05-22,1,0.0014280585764087448,0.0015378108347348775,-0.010420181877716185,0.00610453402325493,0.9909006874429371
2013-05-24,1,0.0013764213995477808,0.0014925136175451222,-0.009942214452695226,0.002165707690372321,0.9907735391175302
2013-05-29,1,0.0008388110428829494,0.0008639651292557757,-0.008738439482390106,0.006877578656638236,0.9913435354088977
2013-05-31,1,0.000595923102300314,0.000608994645694341,-0.008420648625757466,0.007587395031111892,0.9912787307895837
2013-06-04,1,0.0005162476900025558,0.0005434800484114045,-0.0066912712280686685,0.007587395031111892,0.9918107023470782
2013-06-06,1,0.000619315663211057,0.0006683432069085702,-0.0066912712280686685,0.008360497031575766,0.9910980306823655
2013-06-10,1,0.0009430346577861765,0.0010373309227548104,-0.006191526312634055,0.008360497031575766,0.9914167506552264
2013-06-12,1,0.00045118547088689935,0.000474943142234727,-0.00397943165326183,0.010462295863245392,0.9912237549686514
2013-06-14,1,0.0007330372551902281,0.0008195684254430345,-0.0053100852778151676,0.010462295863245392,0.9894555463323264
2013-06-18,1,0.001457484930404287,0.0016301751319681619,-0.0053100852778151676,0.010462295863245392,0.9898334807520779
2013-06-20,1,0.0008400969384826701,0.0009408461119227347,-0.0019827503593915765,0.010676425849781077,0.9908540241354865
2013-06-24,1,0.00048564147325531263,0.0005301369583120385,-0.0016074097455335626,0.010676425849781077,0.9911374815663508
2013-06-26,1,0.0009553441338841476,0.0010502204534994551,-0.0020123001582758398,0.010676425849781077,0.9912012878595952
2013-06-28,1,0.0014924827290276827,0.0016583323312257341,-0.00331180052979812,0.007569740393643313,0.9917067745218463
2013-07-02,1,0.0014732885101058585,0.0015440409823306775,-0.00331180052979812,0.007977703078140958,0.9916002008462033
2013-07-05,1,0.0017010889084520086,0.0017988009160587782,-0.004516089556053288,0.007977703078140958,0.9903020069104058
2013-07-09,1,0.0016682801697827138,0.0017513406131241301,-0.004516089556053288,0.005402281060608591,0.9906930197722138
2013-07-11,1,0.001742130493719333,0.0017941938401851627,-0.006419789211876465,0.005402281060608591,0.9884466251943904
2013-07-15,1,0.0026184916655209965,0.0027957563022570514,-0.0035463349802981646,0.004775321331667711,0.9907325934801933
2013-07-17,1,0.002462972035004434,0.0026117784989652336,-0.010231509398314043,0.0038499520051885686,0.9897405312471628
2013-07-19,1,0.002107098287385715,0.002155570425593131,-0.010231509398314043,0.0037798285934267655,0.9903181382757565
2013-07-23,1,0.0019492083473032903,0.0020112905665900863,-0.006419789211876465,0.004543995910355014,0.9906627780290219
2013-07-25,1,0.0018544989163887906,0.0019011624977513476,-0.0027747335991268204,0.004979200861222787,0.9912091921575015
2013-07-29,1,0.0016217018480105788,0.0016281224217848443,-0.00149561081725504,0.00601391964927382,0.9901136937818447
2013-07-31,1,0.0013623704594454885,0.0013901372064683984,-0.00453904308247721,0.005102849165751088,0.9891189573042575
2013-08-02,1,0.0015794988493931803,0.0015818329720492963,-0.004260348547670421,0.0047955822471498575,0.9907218432436291
2013-08-06,1,0.001848510904453726,0.0019486915698679673,-0.004260348547670421,0.005102849165751088,0.9905852047060192
2013-08-08,1,0.0017213839362050878,0.0017901942832702859,-0.002470810580036101,0.005102849165751088,0.9932174297087559
2013-08-12,1,0.0016028926176976396,0.0016386781914104892,-0.002470810580036101,0.006397591885115971,0.9922523368265004
2013-08-14,1,0.0009012298303512068,0.0009551595490830769,-0.0020773411315042523,0.00844041766239587,0.9924821574029229
2013-08-16,1,0.0013052729919721324,0.0013102169416501976,-0.002470810580036101,0.010768621156658942,0.9916165678927669
2013-08-20,1,0.0012445272805232022,0.0012523495744231595,-0.002470810580036101,0.01265151958836972,0.9907753091437869
2013-08-22,1,0.0011301136716597375,0.0011636037937833173,-0.0026728114900412105,0.01265151958836972,0.9905379675068579
2013-08-26,1,0.0014697382670064755,0.0014709399787886403,-0.0037261319661615086,0.010768621156658942,0.9916052969762378
2013-08-28,1,0.0017331531466528768,0.0017877222272882029,-0.0037261319661615086,0.010768621156658942,0.9921135274295836
2013-08-30,1,0.001310564621654995,0.0013209146408382092,-0.006436875687992506,0.010768621156658942,0.9915692192719917
2013-09-04,1,0.0012563206129280555,0.0012839540275200408,-0.007364415559420092,0.008840133009367855,0.9912022506312412
2013-09-06,1,0.0010709317538644594,0.0011500331331151974,-0.007882505557490177,0.012468619368201728,0.989919275815144
2013-09-10,1,0.0012477593827286745,0.00131853376753832,-0.008476128996340846,0.006404612252914148,0.9903404176826095
2013-09-12,1,0.0013110935238586576,0.0013573539906211304,-0.008476128996340846,0.006404612252914148,0.9907426520873086
2013-09-16,1,0.0014045566882570555,0.0014340201435556657,-0.007973593617325742,0.006404612252914148,0.9912561890727322
2013-09-18,1,0.0019945251978418167,0.002045125333309212,-0.009463149142452191,0.004892685911887321,0.991696631889398
2013-09-20,1,0.0020546795620928673,0.0021278195386644346,-0.009463149142452191,0.006687126003679936,0.9914070854287825
2013-09-24,1,0.0017676990573636127,0.0017905948181859345,-0.009463149142452191,0.006687126003679936,0.9916466779858873
2013-09-26,1,0.0015598909051569312,0.0015693775277541215,-0.007973593617325742,0.006687126003679936,0.9922329407147003
2013-09-30,1,0.0013621559371034834,0.0013984200094296613,-0.003909228524181534,0.006687126003679936,0.9930143015584524
2013-10-02,1,0.0011622568998754831,0.0011629759819361133,-0.003909228524181534,0.006687126003679936,0.9931587901334686
2013-10-04,1,0.001193330624681004,0.0012028842476682817,-0.003909228524181534,0.005854228464685168,0.9943253266263059
2013-10-08,1,0.000571109975046496,0.0006020833225019648,-0.000978758411230869,0.006687126003679936,0.9926813548540588
2013-10-10,1,0.0007393642838518578,0.000752331631827706,-0.008438036095550125,0.005854228464685168,0.99217261119118
2013-10-14,1,0.0011246713036463067,0.0012118938645722228,-0.008438036095550125,0.0036451844026900975,0.992587678574734
2013-10-16,1,0.0007369154407087987,0.0007779661397036091,-0.007011622066709169,0.00416258408680778,0.9923190252630154
2013-10-18,1,0.0011147994749205455,0.001175611401294366,-0.007011622066709169,0.0034139512959772693,0.9931226051815191
2013-10-22,1,0.0009386277735041499,0.0009546095432742959,-0.008438036095550125,0.0030602712490519325,0.9924222512362855
2013-10-24,1,0.001053660618329523,0.001072465832876125,-0.009222129781446736,0.0021938628069543857,0.9911700151712266
2013-10-28,1,0.0007043549726959014,0.0007316708813196912,-0.009222129781446736,0.0034321042559786576,0.9910448170998144
2013-10-30,1,0.0006319358523985937,0.0006595534413229938,-0.008438036095550125,0.0034321042559786576,0.9912829542015714
2013-11-01,1,3.748796144146269e-05,0.0001686785793941743,-0.007011622066709169,0.00309965768777561,0.9916856486516238
2013-11-05,1,0.0005738020639144607,0.00063042674734118,-0.006043832157598662,0.002145128379907945,0.9933767015658693
2013-11-07,1,0.0003573174154222023,0.00041749390515055684,-0.005827105034825712,0.002145128379907945,0.9941569353497876
2013-11-11,-1,-0.0002842712126778957,-9.638740425203319e-05,-0.0047704068642547325,0.002145128379907945,0.9943301244168595
2013-11-13,0,-8.806340332003653e-05,9.127398113346517e-05,-0.0047704068642547325,0.0018789371095392382,0.9948186474117097
2013-11-15,-1,-0.00023498121325833123,-4.83769595355344e-05,-0.005876416004668619,0.0017190915229321783,0.9942710247786752
2013-11-19,-1,-0.0003542787752242217,-0.00018076409614336267,-0.0047704068642547325,0.0019512067052367362,0.995023536623604
2013-11-21,-1,-0.0005199342370374916,-0.0003176085874755497,-0.004243139732466227,0.0018789371095392382,0.9964407887517067
2013-11-25,0,-9.571130119928985e-05,2.753206161643047e-05,-0.004243139732466227,0.0012697592975578664,0.9965256341156558
2013-11-27,-1,-0.0002046465975121808,-7.380619855642628e-05,-0.003705418027038415,0.00165638091697143,0.9962995985468176
2013-12-02,-1,-0.0002796468005035269,-0.0001409761923694309,-0.003705418027038415,0.0021548461139075407,0.9958976677717744
2013-12-04,1,0.00041270629216758715,0.0004222431271012805,-0.004653449353640582,0.0021548461139075407,0.9953359795396666
2013-12-06,-1,-0.00012463790466860937,-5.7320714507437374e-05,-0.004653449353640582,0.0021548461139075407,0.9950708766531241
2013-12-10,-1,-0.00016681524904224896,-0.00010495233018630615,-0.006356244033233378,0.00243086642520805,0.994638866507489
2013-12-12,-1,-0.0006245364636162842,-0.0004927981734280805,-0.005057964022703369,0.003512655506476242,0.9938218507728145
2013-12-16,-1,-0.0008989988206317076,-0.0007318776036398383,-0.0012159841133302482,0.005951539804893727,0.9927770339121377
2013-12-18,-1,-0.0007442350885881319,-0.0006011084239376218,-0.004887668943939804,0.005951539804893727,0.9926926292829366
2013-12-20,-1,-0.0007974137343818768,-0.0006544915453437336,-0.004887668943939804,0.008873292576992514,0.9918035660996942
2013-12-24,-1,-0.0004911457830668944,-0.00038368054302121237,-0.007695966630200029,0.008737701458090129,0.9899367228251301
2013-12-27,-1,-0.00014240539854596702,-8.237695743633464e-05,-0.007695966630200029,0.008086689790082924,0.9900055322680018
2013-12-31,-1,-0.0009836032605999544,-0.0009112886498906641,-0.007695966630200029,0.008161882768865206,0.989757691128056
2014-01-03,-1,-0.0013586994503679852,-0.0012557949754789053,-0.0067227041286456665,0.008161882768865206,0.9896145233983463
2014-01-07,-1,-0.0017820609265461408,-0.0016500910617202286,-0.0067227041286456665,0.009110994054971483,0.9848572239512604
2014-01-09,-1,-0.0010200473469290199,-0.0008435428463889989,-0.00811220138451288,0.009110994054971483,0.9850129023203439
2014-01-13,-1,-0.000684451019994208,-0.0005537116529307064,-0.00811220138451288,0.009742433315121823,0.9847932487645188
2014-01-15,1,0.0001992775344644138,0.00022912421059343596,-0.00811220138451288,0.009110994054971483,0.9861872039116031
2014-01-17,1,0.0004359989103679654,0.00047858690237856177,-0.006217677125843484,0.009742433315121823,0.9859386949745451
2014-01-22,1,0.00032468207671475675,0.0003400250646602855,-0.012155966993076146,0.00849789470794654,0.985847489853177
2014-01-24,-1,-0.0005120621208635314,-0.00038900826546496033,-0.006005806660733795,0.00849789470794654,0.9876358295974035
2014-01-28,-1,-0.0004058027930283702,-0.0003030807411291076,-0.012155966993076146,0.008016659817980193,0.9872553562352573
2014-01-30,-1,-8.358716026889252e-05,-1.9298825306218335e-05,-0.012155966993076146,0.005159592988735858,0.9873328673774883
2014-02-03,1,8.319170856454345e-05,0.0001000206406483269,-0.01014797973987338,0.0075171239405590895,0.9876651949181694
2014-02-05,-1,-0.0003842585575190129,-0.00031928688719670847,-0.008424142719357312,0.0075171239405590895,0.9920791236202379
2014-02-07,-1,-0.0006609482328766874,-0.000570661516306802,-0.005032057256541088,0.0075171239405590895,0.9923471061155897
2014-02-11,1,0.00045880463764128043,0.0005536168340323376,-0.005032057256541088,0.0047811708711999875,0.993326758446752
2014-02-13,1,0.00035974867501620256,0.0004359671307696396,-0.008424142719357312,0.0028656382280295867,0.9923534938798666
2014-02-18,1,0.00029533410761684183,0.0003511656728701382,-0.008424142719357312,0.001479214700265251,0.9929130788558312
2014-02-20,1,0.0003217133473124371,0.0003745908936376936,-0.008097254798049564,0.0014474792345740093,0.9933544235449858
2014-02-24,-1,-0.00017362033176370368,-0.00014906118277387712,-0.007303012475693315,0.001812506161329278,0.993760344715153
2014-02-26,-1,-0.0005537192782589604,-0.00047154167645218394,-0.007303012475693315,0.002317881274413582,0.9942088912681599
2014-02-28,-1,-0.0006280514600663556,-0.0005383119423553739,-0.004474231158352037,0.004381763567282498,0.9943525007721187
2014-03-04,-1,-0.0008224922238521,-0.0006881959028902922,-0.005056185828547872,0.004381763567282498,0.9932514634538215
2014-03-06,-1,-0.0003110647083521098,-0.0002499907286789472,-0.00380818743547048,0.004381763567282498,0.9933272904511953
2014-03-10,-1,-8.883908701936168e-05,-6.938479990759261e-05,-0.007055663014837693,0.002317881274413582,0.9928211553604476
2014-03-12,-1,-0.00029451521091902874,-0.00023916424599723922,-0.007055663014837693,0.004674444129116668,0.9922351845311622
2014-03-14,-1,-0.0005054366220973833,-0.00045153604349205685,-0.003008136004483556,0.009565861171309262,0.9916279252633067
2014-03-18,-1,-0.000525184981768745,-0.0004756058628215524,-0.003008136004483556,0.014028774163851516,0.9910396123626208
2014-03-20,-1,-0.00034679367139589317,-0.00033272480319954323,-0.002254522860604127,0.014028774163851516,0.9905101278964149
2014-03-24,-1,-0.00032871425609814033,-0.00030281500439239303,-0.0009437116687307965,0.014028774163851516,0.9901764339669942
2014-03-26,-1,-0.000596579529079462,-0.0005313585816753381,-0.0009437116687307965,0.014028774163851516,0.9900860857487395
2014-03-28,-1,-0.00046459836515440236,-0.0004072725869630494,-0.0015020285169534413,0.014028774163851516,0.9898487855259159
2014-04-01,1,0.0007810983901206932,0.0009055164032318354,-0.002169418257480149,0.014028774163851516,0.9889472003014956
2014-04-03,1,0.00024329033492147067,0.0003029031902816287,-0.00470459220252834,0.013174986838540952,0.9891390706469698
2014-04-07,-1,-6.135263610866713e-05,-4.5110029058217116e-05,-0.003781262684008601,0.013174986838540952,0.9897430335428357
2014-04-09,1,0.0003427008730457898,0.00042140465104354357,-0.003781262684008601,0.012048593950242383,0.9904620908414498
2014-04-11,1,0.0009128637351147785,0.0010711641812642136,-0.003781262684008601,0.008530125652288615,0.9915573102980313
2014-04-15,1,0.0008951406429446003,0.0010316021525069935,-0.004008956913073445,0.005697591556905657,0.9919417737029285
2014-04-17,1,0.001123127330159742,0.0012844643577654192,-0.004008956913073445,0.003122794168372958,0.9927559029046646
2014-04-22,1,0.0014174832227377117,0.0016252546307069507,-0.004520100571149214,0.0020065580816798862,0.9924950080028901
2014-04-24,1,0.0010848412981949117,0.0012461701786232416,-0.004008956913073445,0.003597360844789121,0.9931369263449951
2014-04-28,1,0.0009980533664039038,0.0011427686321298374,-0.004008956913073445,0.0030781161573559686,0.9935041647158249
2014-04-30,1,0.001688525567371061,0.0019231008781995886,-0.003781262684008601,0.0036274979977243453,0.9959911802753608
2014-05-02,1,0.0015050641598379623,0.001706620150385006,-0.0013877023348182198,0.0036274979977243453,0.9962779852418074
2014-05-06,1,0.0013627308352285087,0.0015404946796281514,-0.0013877023348182198,0.0036274979977243453,0.9962277501507465
2014-05-08,1,0.001316193458549132,0.0014761787514263967,-0.0013877023348182198,0.004806368113764466,0.9949639405030075
2014-05-12,1,0.0013453344901794588,0.0014939830082839934,-0.002064967285663453,0.004806368113764466,0.994758159182346
2014-05-14,1,0.0012676128308666012,0.001410270752319203,-0.0013657931256946425,0.004806368113764466,0.9948967044869635
2014-05-16,1,0.0012397050455908267,0.0013729727910425447,-0.0013657931256946425,0.007341096954157633,0.994563716767121
2014-05-20,1,0.0012971811187544027,0.00144463598274364,-0.0013657931256946425,0.007341096954157633,0.994262257539593
2014-05-22,1,0.0015422888700528108,0.001730639091177216,-0.0013657931256946425,0.007341096954157633,0.9943738538190185
2014-05-27,1,0.0013986196639986519,0.0015723133858495438,-0.001520506972353719,0.007341096954157633,0.9938483543280372
2014-05-29,1,0.0014065017082924207,0.00156022912955459,-0.001520506972353719,0.007586902129943278,0.9938006693188927
2014-06-02,1,0.0011768352426087608,0.0012928220570276449,-0.001520506972353719,0.007586902129943278,0.9939351256439108
2014-06-04,1,0.0009791802060889153,0.0010676987359743019,-0.001520506972353719,0.0087937499439637,0.9936531615285874
2014-06-06,1,0.001410271998609541,0.0015628052196634298,-0.0021711914748184496,0.004737975398119582,0.9947210315545594
2014-06-10,1,0.0019441805703666888,0.002207225531588701,-0.0021711914748184496,0.004737975398119582,0.9946809193507425
2014-06-12,1,0.0015489455827627711,0.0017450688397779128,-0.0036606364207488356,0.004737975398119582,0.9942254553715194
2014-06-16,1,0.001909947945143362,0.002166979372927923,-0.0036606364207488356,0.00569091663301664,0.9940920289809448
2014-06-18,1,0.0017086595112172874,0.0018947129467167096,-0.0041053798080320095,0.00569091663301664,0.9937738165337469
2014-06-20,1,0.001602041325343525,0.0017823319181332214,-0.0041053798080320095,0.009057743577718227,0.9930554681618791
2014-06-24,1,0.0014057749673876505,0.0015600656569112036,-0.0012553516278614666,0.009057743577718227,0.9935996413864657
2014-06-26,1,0.001648412702300684,0.001823539004113125,-0.0041053798080320095,0.009057743577718227,0.9935573454130908
2014-06-30,1,0.0020322627729912604,0.0023320477539612635,-0.005604540643000567,0.009057743577718227,0.9922706697490957
2014-07-02,1,0.0012327760545865138,0.0014116994148804076,-0.008593648802456548,0.009057743577718227,0.9888835348585081
2014-07-07,1,0.0013959383106379,0.0016195268909434525,-0.008593648802456548,0.00945831809076021,0.9887412611952511
2014-07-09,1,0.001297799746677667,0.0015108076343956474,-0.010699938147914523,0.009057743577718227,0.9879890658853954
2014-07-11,1,0.0010439955147833824,0.0012182791140129567,-0.010699938147914523,0.009752443088139915,0.9877248817517426
2014-07-15,1,0.001298393416260481,0.0015037036610878209,-0.010699938147914523,0.009752443088139915,0.9882541802378361
2014-07-17,1,0.0006586388870557159,0.0007437402491811773,-0.0057606751403423695,0.007848670534417184,0.989035412976717
2014-07-21,1,0.0009503869746729293,0.0010575436035010568,-0.0057606751403423695,0.006929217122194619,0.9892679475193901
2014-07-23,1,0.0008317424853741887,0.0009021068629698673,-0.0057606751403423695,0.006857418885076098,0.989298022570135
2014-07-25,1,0.0008623981341495255,0.0009391253643229482,-0.005376610621363544,0.006857418885076098,0.989594622988905
2014-07-29,1,0.00017673959131466927,0.00018482828132967353,-0.00263348433466458,0.006857418885076098,0.9908062127832421
2014-07-31,1,0.00011091614449736941,0.00012811564815062067,-0.00263348433466458,0.004367095097056051,0.9944324965947667
2014-08-04,1,0.00046256254497701633,0.0004843069263393676,-0.00263348433466458,0.0029446079182774707,0.9949374180288532
2014-08-06,-1,-0.0009624496031052707,-0.000775696124556768,-0.002378429239155781,0.003828736117174666,0.9951422181404056
2014-08-08,-1,-0.0005451953149475518,-0.00040503975136763076,-0.00263348433466458,0.0029446079182774707,0.9956260670761261
2014-08-12,-1,-0.0006634580199410404,-0.0005044340378885497,-0.003166100130412468,0.0019432835325654426,0.9954096653904153
2014-08-14,-1,-0.0008832456469451311,-0.0007000806900867183,-0.0025306684884633503,0.003178042225505453,0.9953136045348245
2014-08-18,-1,-0.0007474451501316373,-0.0005692331976308842,-0.0025306684884633503,0.002749892375816682,0.995892417708493
2014-08-20,-1,-0.0006697755522467707,-0.0005045599042678657,-0.0025306684884633503,0.002749892375816682,0.995505206662638
2014-08-22,-1,-0.0005956440815651841,-0.00046175770192055085,-0.00344241400702112,0.002749892375816682,0.9945558717232138
2014-08-26,-1,-0.0006359373873676992,-0.0005137082328285222,-0.003890865905602344,0.0031446865651247585,0.9943002926635268
2014-08-28,-1,-0.000984667398587534,-0.0008001235858192467,-0.0048735253176614545,0.0037961490200058116,0.9930937971750002
2014-09-02,-1,-0.0007112352364395545,-0.000578178526099319,-0.0048735253176614545,0.0037961490200058116,0.9932096410400216
2014-09-04,-1,-0.0008284455517262567,-0.0007194916439621864,-0.0048735253176614545,0.0037961490200058116,0.9930457557842959
2014-09-08,-1,-0.0008291301190819984,-0.0007179839660736661,-0.006403027595890513,0.0037961490200058116,0.9923198838375388
2014-09-10,-1,-0.0009030409240925622,-0.0008050633065810966,-0.006403027595890513,0.00593467323082736,0.9912009636812087
2014-09-12,-1,-0.0005425985781767981,-0.000502093054618216,-0.010652846033640003,0.005834606249685276,0.9903933812320087
2014-09-16,-1,-0.000786890702404861,-0.0007000190614848171,-0.01601703385521209,0.012285273526963993,0.9881070071759626
2014-09-18,-1,-0.0006155442668807404,-0.0005468156773856847,-0.01601703385521209,0.012285273526963993,0.9875786517026189
2014-09-22,-1,-0.0010716258255948122,-0.0009249875980780534,-0.010745346773038622,0.0141836584704079,0.9870351806953215
2014-09-24,-1,-0.0010677467819960062,-0.0009076532464507123,-0.010745346773038622,0.0141836584704079,0.9865022770606415
2014-09-26,-1,-0.0013480662224324745,-0.001146093056112569,-0.00791242138836972,0.01502614460581778,0.9866842508372526
2014-09-30,-1,-0.001426222705460738,-0.0012236251168451845,-0.00791242138836972,0.01502614460581778,0.9859033209342604
2014-10-02,-1,-0.0010457052417089674,-0.0008854337675660783,-0.00791242138836972,0.01502614460581778,0.9854528577724229
2014-10-06,-1,-0.0009955362077852803,-0.0008286114710811607,-0.00785889178889482,0.013933206516265229,0.9863100691864601
2014-10-08,-1,-0.0008605395420043535,-0.0007028855905316246,-0.006168349815461067,0.015837533041231547,0.9858840577277457
2014-10-10,-1,-0.0015197677711162327,-0.0012840135300304907,-0.0033824077496688687,0.015837533041231547,0.9866873678346224
2014-10-14,-1,-0.001255929967809343,-0.0010581073747439498,-0.0033824077496688687,0.01502614460581778,0.988493019437456
2014-10-16,-1,-0.0011055390123058614,-0.000914290330529404,-0.002295883387842636,0.015010520021393798,0.9888112588910314
2014-10-20,-1,-0.00025599546538413907,-0.0001785005618801357,-0.003918234787814519,0.01085801144852207,0.990272060746742
2014-10-22,-1,-0.00046354811419837454,-0.00035527946093678766,-0.003943119760220182,0.0091784584797361,0.9904681832787398
2014-10-24,1,2.6887431762989607e-05,8.407935737086847e-05,-0.003943119760220182,0.0091784584797361,0.9907369947731804
2014-10-28,1,0.00047397904790511295,0.0005006310256077803,-0.003943119760220182,0.007982577024150322,0.9910941191489903
2014-10-30,-1,-0.0010557322633770677,-0.0009063059527711827,-0.002153088164344551,0.007982577024150322,0.9925058153690406
2014-11-03,-1,-0.0006637509143372152,-0.0005602203379482858,-0.002153088164344551,0.010284663326101447,0.9914266072597533
2014-11-05,1,0.00015752382206878757,0.00015817801062797683,-0.002153088164344551,0.007982577024150322,0.992837087105501
2014-11-07,1,0.00022255254253310166,0.0002444133247681902,-0.0035147340897259288,0.007982577024150322,0.9925734819572972
2014-11-11,1,0.000296838604513726,0.000335021398793673,-0.007509506974118182,0.006170519994272504,0.9918265034670929
2014-11-13,1,0.00036591707455925466,0.0003832881062658625,-0.007509506974118182,0.006170519994272504,0.9921207141127876
2014-11-17,1,0.0003245098023006576,0.0003631231761219997,-0.004577514672337535,0.006170519994272504,0.9922798695759975
2014-11-19,-1,-4.0425898195793167e-05,-2.9845280040517745e-05,-0.0029603760953226246,0.007831237593973918,0.9914785298969517
2014-11-21,1,0.0006675059675147494,0.00072185367584711,-0.0029603760953226246,0.007246730539055831,0.9906107941318651
2014-11-25,1,0.000781500816080861,0.0008503166433878537,-0.00286661863127074,0.007246730539055831,0.9908932476625049
2014-11-28,1,0.000656880393640478,0.0007009693184683128,-0.004846341577870018,0.007246730539055831,0.9907120928176725
2014-12-02,1,0.0006592073148503532,0.0006921382647202619,-0.005861174014209002,0.0036885607347525618,0.9912348275079343
2014-12-04,1,0.0009443081994487455,0.0010249316271323933,-0.009514964376863411,0.0024968024576082683,0.9889794364066756
2014-12-08,1,0.00069551449376733,0.0007185065310565046,-0.010694752133219788,0.0020468524671836638,0.9888329132584617
2014-12-10,1,0.00015590586171613168,0.00018340968758013095,-0.009514964376863411,0.0036885607347525618,0.9878225073923564
2014-12-12,1,0.0005603184368629345,0.0005892973650653439,-0.009514964376863411,0.007349005118485705,0.9873256244312164
2014-12-16,1,0.0002703783073272224,0.00027813490773697985,-0.009514964376863411,0.007349005118485705,0.9868775629935076
2014-12-18,1,0.0005024326049664813,0.0005218187107341828,-0.009514964376863411,0.007349005118485705,0.9873472040047527
2014-12-22,1,0.00305677500789687,0.003347264211519441,-0.009514964376863411,0.004485344440623481,0.9869139694465033
2014-12-24,1,0.0032911982312386233,0.0036444451834071246,-0.009514964376863411,0.007696542618766983,0.9862023723076614
2014-12-29,1,0.002426878368290264,0.002605358310248957,-0.010743506043593361,0.007696542618766983,0.9858701386107221
2014-12-31,1,0.0019206584004925484,0.002061361856530525,-0.011151124767207726,0.007696542618766983,0.9855836867916938
2015-01-05,1,0.0006079821847982666,0.0006453843898520657,-0.009197943311268945,0.011983670294919764,0.986171195308597
2015-01-07,1,0.0006167680937162924,0.00065926401781301,-0.009197943311268945,0.011983670294919764,0.9834735391600248
2015-01-09,1,0.0016529480798245044,0.0017679146196343128,-0.00829566081622822,0.01021876917452267,0.9857184960267553
2015-01-13,1,0.0020499455335131977,0.0022206384218558584,-0.00829566081622822,0.007566673509667566,0.9861553675158936
2015-01-15,1,0.0016456563370126054,0.001753007476296386,-0.007963018957668879,0.009525239728939502,0.9863675644510194
2015-01-20,1,0.0016185676657180764,0.0017152757732976664,-0.008774305639404302,0.008410252382079804,0.9864068224746984
2015-01-22,1,0.0022015287834697365,0.002365423678816915,-0.008774305639404302,0.008402065894549036,0.9871534362660861
2015-01-26,1,0.002181841838839713,0.0023436558063337264,-0.007513459649981638,0.009195320337108496,0.9871218856286695
2015-01-28,1,0.0011627950363099129,0.0011692252118291244,-0.005856296290979903,0.009195320337108496,0.9874218957886549
2015-01-30,1,0.00045608102679599375,0.0005413761296701499,-0.005856296290979903,0.009195320337108496,0.9883831694821379
2015-02-03,1,0.002019434939395542,0.002118058918268102,-0.006111421038339442,0.009026858295808089,0.9900449064288345
2015-02-05,1,0.001472294985250758,0.001502881728840272,-0.006111421038339442,0.009026858295808089,0.9929634460803033
2015-02-09,1,0.001296237053109212,0.001297583589846903,-0.006312395074716136,0.009026858295808089,0.9922242307088983
2015-02-11,1,0.001363236571607709,0.0013903555238050527,-0.006312395074716136,0.009026858295808089,0.9916223253061701
2015-02-13,1,0.001470337763365613,0.0014773292400030412,-0.00709382473601858,0.009026858295808089,0.9907735272877113
2015-02-18,1,0.0006736590390591587,0.0007588732436838361,-0.00709382473601858,0.009026858295808089,0.9908504916252933
2015-02-20,1,0.0010724876941982336,0.0011198995675645255,-0.00709382473601858,0.008864041618995285,0.991390751107214
2015-02-24,1,0.0012898720267954826,0.0013222330990838205,-0.007708643111326719,0.005156634222732387,0.9916015915323083
2015-02-26,1,0.001097855610512931,0.0011555295203689512,-0.00902286475457299,0.004491013154212203,0.9909800161354831
2015-03-02,1,0.0005194263972279917,0.0006486107981306256,-0.007708643111326719,0.004491013154212203,0.9914040936468368
2015-03-04,1,0.0008311365787174434,0.0009220196790974272,-0.007708643111326719,0.0035161042540280745,0.9916378272103746
2015-03-06,1,9.221650403384179e-05,0.0003059244193252742,-0.00902286475457299,0.0035161042540280745,0.9917845947607032
2015-03-10,1,7.593165772896374e-05,0.0002935601786060667,-0.00751697276481516,0.002544128913300101,0.9927352014006465
2015-03-12,1,0.000782312024406043,0.0008952391931226887,-0.00751697276481516,0.003522178255718959,0.9930214717401734
2015-03-16,1,0.0017224161519385837,0.0017659163790154186,-0.00902286475457299,0.003522178255718959,0.9929867554640609
2015-03-18,1,0.0014260746259506431,0.0014267869549796125,-0.00902553668700647,0.002544128913300101,0.9928003736551283
2015-03-20,1,0.001633152094892175,0.0016961354495502552,-0.009438925350877893,0.0028731478811554,0.9911800959022947
2015-03-24,1,0.0014034862611918737,0.001456851769979938,-0.009438925350877893,0.0032024115537203617,0.9915153312271847
2015-03-26,0,-0.00015754469061105328,2.6155693747261172e-05,-0.008119840374429197,0.00347988398357348,0.9930892163167456
2015-03-30,0,-3.537679608996353e-05,0.00012979854472221583,-0.011069851647793514,0.00347988398357348,0.9897845048553984
2015-04-01,-1,-0.0001530215022944205,-3.9431071540236174e-05,-0.011069851647793514,0.00347988398357348,0.9896137314992932
2015-04-06,-1,-0.0002728923320811794,-0.00014230190123591132,-0.011069851647793514,0.00583537265140885,0.9888101994737448
2015-04-08,-1,-0.0003927984498341898,-0.0002578645264450187,-0.013983932201039233,0.0058712643105359626,0.9870607200844449
2015-04-10,1,0.00015393211326503956,0.00019719666937861912,-0.013983932201039233,0.006616580543612876,0.9867225251885477
2015-04-14,-1,-0.0004727910743410789,-0.00034134552300458886,-0.011069851647793514,0.006616580543612876,0.9877055300241597
2015-04-16,-1,-0.0012703661327134212,-0.0010250285141205895,-0.008573888778110167,0.006616580543612876,0.9882564169309069
2015-04-20,-1,-0.0006976768870875927,-0.0005465172718871968,-0.006639703372328914,0.006616580543612876,0.9890608826768629
2015-04-22,-1,-0.0004967895352142428,-0.0003723426846426933,-0.009968145680351233,0.005877996010301948,0.9883521241087174
2015-04-24,-1,-0.00045185551267181535,-0.00033914075921335997,-0.009968145680351233,0.0059086590715281126,0.9880895117331222
2015-04-28,-1,-0.0019776245917500954,-0.0016924147193230234,-0.007295208188073967,0.006926039145983111,0.990569464967269
2015-04-30,-1,-0.002205412716684902,-0.0019096039205658208,-0.009386411641841981,0.006926039145983111,0.990330447383501
2015-05-04,-1,-0.0016080744090905203,-0.0013766675090420388,-0.009386411641841981,0.0063251414355576935,0.9909939306889375
2015-05-06,-1,-0.002476217907289595,-0.002099952705328918,-0.009386411641841981,0.0063251414355576935,0.9898671940364165
2015-05-08,-1,-0.0020302624294179943,-0.0017224090900880133,-0.012473107032226222,0.005646329638563062,0.9895223000652071
2015-05-12,-1,-0.0023401383256823416,-0.00198845602479015,-0.012473107032226222,0.006274359404187158,0.98938559999303
2015-05-14,-1,-0.0020163362121667304,-0.001753278906355665,-0.012473107032226222,0.006680647757636637,0.9887353118685094
2015-05-18,-1,-0.0008515963290380835,-0.0007870659922720297,-0.012473107032226222,0.006274359404187158,0.9892375950822642
2015-05-20,-1,-0.0014416246941021413,-0.001312736914790867,-0.010309467022594363,0.006680647757636637,0.9894617470200142
2015-05-22,-1,-0.001345231354928902,-0.0012174008581065823,-0.010309467022594363,0.006680647757636637,0.989515702005728
2015-05-27,-1,-0.0018154440644145573,-0.001607234319777124,-0.010309467022594363,0.006274359404187158,0.9896218125515808
2015-05-29,-1,-0.0033061854573889337,-0.002866458110737419,-0.007951679038253875,0.006931032961226175,0.9899055441900625
2015-06-02,-1,-0.003120537862461752,-0.0027005897042256853,-0.00923857103026906,0.008156994659280718,0.989015902383031
2015-06-04,-1,-0.001833938487058756,-0.0016165714927734083,-0.006835202175623542,0.008156994659280718,0.9918593080201138
2015-06-08,-1,-0.0014380023704789388,-0.0012942826875735527,-0.006835202175623542,0.008156994659280718,0.9916489848835124
2015-06-10,-1,-0.0013981163090148665,-0.0012423946380798003,-0.00923857103026906,0.008156994659280718,0.9909276189646099
2015-06-12,-1,-0.001244852977846322,-0.0011147559613769913,-0.006835202175623542,0.01151672285470378,0.9895833900272141
2015-06-16,-1,-0.0006875227998923366,-0.0006558299322174709,-0.01039678571855974,0.01151672285470378,0.988573913714412
2015-06-18,-1,-0.0003556073680359923,-0.0003465507361614607,-0.01039678571855974,0.009680048601579217,0.988765340062267
2015-06-22,-1,-0.000919555626060462,-0.0008338441682458841,-0.009468107240483671,0.01168197827179677,0.9873810029960524
2015-06-24,-1,-0.0018099099739910642,-0.0015970075401690353,-0.009080154465567458,0.01168197827179677,0.9879127844473998
2015-06-26,-1,-0.0005636280222558268,-0.0005605824646035542,-0.009080154465567458,0.01168197827179677,0.9879267901623074
2015-06-30,-1,-0.0015932583284983533,-0.0014135324623613349,-0.005756958313609966,0.017583689083239977,0.9857075148861655
2015-07-02,-1,-0.001718122252554549,-0.0015675945086527636,-0.005756958313609966,0.017583689083239977,0.9860185215858479
2015-07-07,-1,-0.0013110559428792068,-0.0012191512687532732,-0.004445016075473703,0.013011584135674159,0.9869700017362938
2015-07-09,-1,-0.001536295158048065,-0.0014491683952528112,-0.004445016075473703,0.013011584135674159,0.9877733232592717
2015-07-13,-1,-0.0004109242160148008,-0.0003759405640547548,-0.005756958313609966,0.008744782863822017,0.9888759420698835
2015-07-15,-1,-0.0008589831376146596,-0.0008524475431689845,-0.004445016075473703,0.008744782863822017,0.9894347921038723
2015-07-17,-1,-0.0005789079818217515,-0.0005088879863809802,-0.004592589771329623,0.010182383683986135,0.9891947198421084
2015-07-21,1,0.0006819027476710852,0.0009254164386524793,-0.004592589771329623,0.007279431237197448,0.9909642687976072
2015-07-23,0,-7.896060558092036e-05,5.270851781603701e-05,-0.004592589771329623,0.008604641220298656,0.9897279356138208
2015-07-27,1,0.00013295316665104084,0.0003468096634329914,-0.009475807418049063,0.008604641220298656,0.987314169618128
2015-07-29,1,0.0019168021011907138,0.0023191972985990173,-0.010889154798831527,0.0051653758255371576,0.9877070986794185
2015-07-31,1,0.0018375441416382872,0.002205972709050836,-0.010889154798831527,0.008175546443188419,0.9870677770131228
2015-08-04,1,0.00229297613734613,0.002762530369891241,-0.012740785785530527,0.005215481321814959,0.9864510669440993
2015-08-06,1,0.0024164707915276134,0.002908964110422766,-0.012740785785530527,0.008754957709132061,0.9848222217095509
2015-08-10,1,0.002274214635148891,0.002740783632426318,-0.011860172874080628,0.008754957709132061,0.9846653836590804
2015-08-12,1,0.00214259605081005,0.002584722719554875,-0.0103275174379187,0.008754957709132061,0.9851649529151101
2015-08-14,1,0.002266258823784795,0.002720113489887467,-0.0103275174379187,0.005215481321814959,0.9853751985912028
2015-08-18,1,0.0020368248837822015,0.0024210805244401995,-0.0103275174379187,0.009487835280083469,0.9849503548097638
2015-08-20,1,0.001862324800500409,0.002225342392820212,-0.012080842073250608,0.005319374723295846,0.9850532447980448
2015-08-24,1,0.0007400836910487813,0.0009303929871137731,-0.009136518125242958,0.009487835280083469,0.9863198018794955
2015-08-26,1,0.0015476725343371756,0.0018370628979420495,-0.008029795392221031,0.00813890939062343,0.9891014264762489
2015-08-28,1,0.0013212748736648244,0.0015828747563038066,-0.008335954639424114,0.009300881738685074,0.9887102751162972
2015-09-01,1,0.0009962660201396053,0.0012274946838950044,-0.007462459386113393,0.009300881738685074,0.989395544724004
2015-09-03,1,0.0016060297328450751,0.0018975769537976919,-0.005904775012234909,0.009300881738685074,0.9909999844966219
2015-09-08,1,0.0017875952416093017,0.0020625075183383647,-0.004835567670917232,0.009300881738685074,0.9914206308825023
2015-09-10,1,0.002024837833554811,0.002360340513094653,-0.004835567670917232,0.010831060067942759,0.9911144752933941
2015-09-14,1,0.0017531744346236692,0.0020476687071008157,-0.0021318715239636013,0.011918847538158563,0.9909684087866599
2015-09-16,1,0.002231258132418864,0.0025902412203742814,-0.006356452874964082,0.01047942513923948,0.9907823483521201
2015-09-18,1,0.0006807857757451976,0.00076458058489912,-0.005438431399549881,0.012190271646423972,0.990863347582367
2015-09-22,1,0.00025641298712281895,0.00026237054789417355,-0.0021318715239636013,0.01047942513923948,0.9923812095346
2015-09-24,1,0.0009236110665353549,0.0010379006350595206,-0.004164706347657234,0.011667340305432138,0.9922708700893997
2015-09-28,1,0.0006144394276236236,0.0006515177557341329,-0.003803415297317748,0.01047942513923948,0.9931315141742991
2015-09-30,1,0.0007753285722872255,0.0008396228023764057,-0.004354558248531422,0.01047942513923948,0.9904699520712139
2015-10-02,1,0.0011084869664203265,0.001228659956647151,-0.004354558248531422,0.01047942513923948,0.9903590836590105
2015-10-06,1,0.0012063894778970433,0.0013212024816538434,-0.004354558248531422,0.01047942513923948,0.9905707656925038
2015-10-08,1,0.0016625440823469426,0.0018667000088043425,-0.006377096392455096,0.005924862550249145,0.9896371147357004
2015-10-12,1,0.0014598431643741906,0.0015902151315670097,-0.007962375349921152,0.003936449404599943,0.9893169322630915
2015-10-14,1,0.0010600856686629426,0.0011382946938019221,-0.006377096392455096,0.007603916392034987,0.9895653979643787
2015-10-16,1,0.00114435456285778,0.0012227835997976715,-0.008386861817796461,0.003936449404599943,0.9894898968743151
2015-10-20,1,0.0007816114443912382,0.0007969530399698735,-0.008386861817796461,0.006169611067090441,0.9892286731280968
2015-10-22,1,0.0008369354314805945,0.0008504406449083975,-0.008386861817796461,0.006169611067090441,0.9896829347840215
2015-10-26,1,0.0010049469546205302,0.001051096099935804,-0.008386861817796461,0.006169611067090441,0.9895474333480818
2015-10-28,-1,-0.0006005522325633285,-0.0004525000025141875,-0.004556100692928092,0.006169611067090441,0.9924418364971082
2015-10-30,-1,-0.00011397339999487366,-2.8766612233141275e-05,-0.006179521299873253,0.0059017761262237884,0.9923256618047145
2015-11-03,0,-2.5557001842071146e-06,6.486489932852423e-05,-0.008386861817796461,0.0059017761262237884,0.9894664522165673
2015-11-05,-1,-0.0004297075729051005,-0.0002846096852082463,-0.008386861817796461,0.006169611067090441,0.9892203165014973
2015-11-09,-1,-0.0004335041917322674,-0.0003054079909645718,-0.013216864851033983,0.0059220731350551475,0.9883916547783184
2015-11-11,-1,-0.00042054810181961754,-0.00027541867617136953,-0.013216864851033983,0.0059220731350551475,0.9882655268014052
2015-11-13,-1,-0.0015077152113801917,-0.001204393168550502,-0.006737195796920774,0.006331423437705075,0.9886071833108383
2015-11-17,-1,-0.0010063065221801544,-0.0007662385561841286,-0.006737195796920774,0.007775291369641464,0.9872735149308892
2015-11-19,-1,-0.0012581220147540877,-0.0009733068559184716,-0.013790389592558211,0.007775291369641464,0.9863452772598817
2015-11-23,-1,-0.0012646850467666073,-0.0009883257650080348,-0.013790389592558211,0.00830509125588643,0.9857684212355522
2015-11-25,-1,-0.0010804597989790958,-0.0008301300819529363,-0.013790389592558211,0.009191607464107928,0.9853666330117329
2015-11-30,-1,-0.002075990334646633,-0.0016791533328438346,-0.008141326692225356,0.009191607464107928,0.9861791684967941
2015-12-02,-1,-0.002599311143553734,-0.0022079249885111896,-0.008141326692225356,0.009191607464107928,0.9889200160041925
2015-12-04,-1,-0.003537433768071259,-0.00299270282282228,-0.005890253233630915,0.010461181210751335,0.9889048520745796
2015-12-08,-1,-0.004321117357724813,-0.0036818054055426015,-0.005234017887929765,0.010461181210751335,0.9900486231664293
2015-12-10,-1,-0.0029345315444625755,-0.0025244146874843732,-0.005466457596832077,0.008261717268092782,0.9902259889689266
2015-12-14,-1,-0.0034090557963944055,-0.0029106149361398043,-0.005466457596832077,0.010461181210751335,0.9896705033807974
2015-12-16,-1,-0.002090698624878126,-0.0017582663245359485,-0.005466457596832077,0.006863185386446582,0.9910682745056448
2015-12-18,-1,-0.001530388599338379,-0.0013351941898648515,-0.005026217938733785,0.006863185386446582,0.9921264814183574
2015-12-22,-1,-0.0008981279585600699,-0.0007867600144351374,-0.005026217938733785,0.006863185386446582,0.9922633132393417
2015-12-24,-1,-0.0007791170857318816,-0.0006833559941883918,-0.005026217938733785,0.006863185386446582,0.9908369239043863
2015-12-29,-1,-0.0009596515079324643,-0.000830985229199154,-0.005026217938733785,0.006863185386446582,0.9904366375554549
2015-12-31,-1,-0.0014616939764028575,-0.0012765648954962505,-0.004406457695251175,0.00832382043033003,0.9894563174459527
2016-01-05,-1,-0.0006509695091797881,-0.0005388189920285199,-0.0046745429224424265,0.00832382043033003,0.9886350566306571
2016-01-07,-1,-0.0008814945126308336,-0.0007597454641587954,-0.004406457695251175,0.014159136209249839,0.9863816672200466
2016-01-11,-1,-0.0013258823961345518,-0.00115379225166834,-0.0026283208667059596,0.02022714309412838,0.986087130001971
2016-01-13,-1,-0.00097364701494445,-0.0008334705223458855,-0.0026283208667059596,0.014467258376474123,0.9865155070186935
2016-01-15,-1,-0.0013092257111868028,-0.0010602969718764127,-0.0026283208667059596,0.019780124191844675,0.9854584327581267
2016-01-20,-1,-0.000586024382901103,-0.0004687629802886799,-0.004554279476883927,0.019780124191844675,0.9855079074060716
2016-01-22,-1,-0.0005265147912334234,-0.00041093681853769453,-0.006054057146254387,0.019780124191844675,0.9857669097436741
2016-01-26,-1,-0.0007956961181851005,-0.0006374399723395019,-0.006054057146254387,0.016055043766595712,0.9870658461659534
2016-01-28,-1,-0.0005475155843074745,-0.00045293288029868385,-0.005351279767957811,0.016055043766595712,0.9876222721957424
2016-02-01,1,0.0007158530670621207,0.0007978672214766056,-0.006054057146254387,0.013515124962012529,0.9885791664050635
2016-02-03,1,0.0006802254464446261,0.0007596340115747816,-0.005351279767957811,0.010808644834216424,0.9905086135901517
2016-02-05,1,0.0019387239070488135,0.0021720765037943016,-0.006054057146254387,0.010808644834216424,0.9915307602132625
2016-02-09,1,0.002713922403070658,0.0030744601039745098,-0.006054057146254387,0.009620454896641751,0.9920179828271081
2016-02-11,1,0.0019467430498083425,0.0021574556527634743,-0.005351279767957811,0.010808644834216424,0.9923312547139314
2016-02-16,1,0.0026934528131078066,0.002988110387363176,-0.005351279767957811,0.008681681120657697,0.9930656093945386
2016-02-18,1,0.0026606114889509767,0.002962960016168005,-0.0036531160850208915,0.009565586862776984,0.9930827449923381
2016-02-22,1,0.0022378250899172027,0.002487595808292093,-0.0024883840647534827,0.009565586862776984,0.9932222282848926
2016-02-24,1,0.0022534956324259895,0.0025008312533113513,-0.0023162935818889867,0.008681681120657697,0.9937443239530749
2016-02-26,1,0.0023020208223087715,0.002585197994788374,-0.0023162935818889867,0.008681681120657697,0.9938021518768131
2016-03-01,1,0.00258128707666571,0.0029330147352890626,-0.0005770474046955012,0.007285376446013721,0.9945418923542056
2016-03-03,1,0.002891738673471411,0.0032960109868813365,-0.0024883840647534827,0.006386555729018636,0.9940240524363915
2016-03-07,1,0.0029950080725705207,0.0034337140279389177,-0.002366453089987692,0.004604503683514257,0.995151747495305
2016-03-09,1,0.002653234246235779,0.0030232651174890964,-0.002366453089987692,0.004604503683514257,0.9942270083386703
2016-03-11,1,0.0032238451717799986,0.0036857253954177354,-0.002366453089987692,0.0036708245916817466,0.9943727547426926
2016-03-15,1,0.0033754999273592104,0.0038631646786395414,-0.002342141200666746,0.004604503683514257,0.9944043991758186
2016-03-17,1,0.0036198145722448516,0.004149581912393536,-0.002342141200666746,0.004604503683514257,0.9943234509413383
2016-03-21,1,0.0034097268605896777,0.00390453156450531,-0.001307834901833416,0.006246056707598364,0.994434156618668
2016-03-23,1,0.002363860474913414,0.0026359081909623177,-0.0029061011908768832,0.006246056707598364,0.9940840924954035
2016-03-28,1,0.0026655273760863617,0.003008195733123398,-0.0029061011908768832,0.006246056707598364,0.993999635827791
2016-03-30,1,0.0025494380765392058,0.00289311282503784,-0.004624390237476567,0.006799801263208404,0.9910371279550684
2016-04-01,1,0.0019974533448642116,0.0022147686937015964,-0.003238074503808824,0.006799801263208404,0.9911803507117735
2016-04-05,1,0.0017340974664422793,0.0019065591212795228,-0.005876803739770637,0.008213509131543851,0.9902499727708467
2016-04-07,1,0.0014005743786253285,0.0015422446545674806,-0.005876803739770637,0.008783742386087133,0.9903004002879942
2016-04-11,1,0.0010437889673508107,0.0011052420036958524,-0.005876803739770637,0.010483032028593657,0.9889460400563022
2016-04-13,1,0.0014690172132010126,0.0015904116569183605,-0.006384432448940221,0.009234710120684709,0.9892008253258368
2016-04-15,1,0.001501166702937636,0.0016298383547696344,-0.006384432448940221,0.009080584168777743,0.9893047603831909
2016-04-19,1,0.0019234695674096628,0.0020987689484130044,-0.006384432448940221,0.004469166920694879,0.9900753674753469
2016-04-21,1,0.0015724207560822829,0.001705974979932421,-0.0032301825817183582,0.004791079591330379,0.9906022211432349
2016-04-25,1,0.0013403124127675608,0.0014113167101235246,-0.0032301825817183582,0.006771872851665283,0.9899166796984805
2016-04-27,1,0.0003837229198392366,0.0004889455206803499,-0.001791754967669736,0.004791079591330379,0.9929309006518457
2016-04-29,1,0.0003955040575950784,0.0005043907266849675,-0.0013361133386701205,0.004791079591330379,0.9935039363060304
2016-05-03,0,-0.00018655464454378078,3.2892929744162596e-05,-0.001791754967669736,0.004501792999954863,0.9940528000078778
2016-05-05,0,-8.511064372280011e-05,9.989870082096296e-05,-0.002320955814529707,0.004405268330987619,0.994701468852767
2016-05-09,1,0.0006495544495168515,0.0007518654883735426,-0.002917074880150394,0.002304377441972992,0.9958886369612162
2016-05-11,1,0.0007458256383868218,0.0007904198758244597,-0.002320955814529707,0.004501792999954863,0.9955874003799449
2016-05-13,1,0.0002016840747711349,0.00034790099989683547,-0.002917074880150394,0.004501792999954863,0.9950494099231401
2016-05-17,1,0.0004400513584836859,0.0005306831476281865,-0.004222519506664629,0.003210304745552444,0.9949352592464908
2016-05-19,1,0.0003524780233988344,0.0004709299713652682,-0.005852864774204794,0.002304377441972992,0.9948248590483345
2016-05-23,1,0.0005393761490794914,0.0006374907382936579,-0.005995870918117322,0.002304377441972992,0.9948976561405354
2016-05-25,1,0.00028701357930549894,0.00043332737244716936,-0.005995870918117322,0.001160892290678284,0.9950274346326885
2016-05-27,1,0.0004920451903567515,0.0005872394156361993,-0.005995870918117322,0.0007261388353931757,0.9945718640931999
2016-06-01,0,-0.00010236962669141767,8.49518132128883e-05,-0.005852864774204794,0.0038426838290761354,0.9944476124045168
2016-06-03,-1,-0.000573903266636134,-0.0003150492152960881,-0.0037389809732852435,0.0075982521122978834,0.9940211090375419
2016-06-07,-1,-0.0006573799490192974,-0.0004033957513691008,-0.0033660974050527368,0.0075982521122978834,0.9940300026573757
2016-06-09,0,-0.00014408769441983955,2.8077401797910043e-05,-0.0044022491740666365,0.0075982521122978834,0.9931442593758669
2016-06-13,-1,-0.0006625859298665298,-0.0004104621050876751,-0.0044022491740666365,0.007871583099537713,0.9918269813544836
2016-06-15,-1,-0.0009853530045139483,-0.0006890222580244859,-0.0044022491740666365,0.007871583099537713,0.9916116518109425
2016-06-17,-1,-0.0010445347108676937,-0.0007523033090022469,-0.005285330250871687,0.007871583099537713,0.9913896014653455
2016-06-21,-1,-0.001412245788253214,-0.0010575860970738994,-0.005305252208552716,0.007689930620600157,0.9916765673858936
2016-06-23,-1,-0.0010600528514783584,-0.0007798110571241053,-0.005305252208552716,0.008162553492684294,0.9911506332590669
2016-06-27,-1,-0.001283541435261683,-0.0009733226070388305,-0.006449977620170819,0.008395528676718538,0.9909059447312034
2016-06-29,0,-4.73681189537416e-05,8.393480342342791e-05,-0.007031978049497294,0.008395528676718538,0.9887165734271215
2016-07-01,1,0.0007021201284108745,0.0007203620423449217,-0.007031978049497294,0.006277629652231131,0.9890637491724418
2016-07-06,1,0.00030205958830252413,0.00038087948622455594,-0.007297410095234684,0.006770263983133746,0.988489647604533
2016-07-08,1,0.0006943503845565093,0.0007103467400253559,-0.007031978049497294,0.006770263983133746,0.9893774656969228
2016-07-12,1,0.000543489442719303,0.0005516274626793482,-0.006449977620170819,0.005797598280807858,0.9912029293719367
2016-07-14,0,-4.213718719189071e-06,9.812757917165762e-05,-0.005664509890248408,0.005797598280807858,0.9918041008394408
2016-07-18,0,-3.4984303256040236e-05,5.644206349742002e-05,-0.005664509890248408,0.00695543456244872,0.9916006011859826
2016-07-20,-1,-0.0002480303210606123,-0.00012744368241362055,-0.004938594947646689,0.008629457806417044,0.9915119475264981
2016-07-22,1,0.00016244949222896373,0.0002370417439465622,-0.005708216269444476,0.007133456242198601,0.9911873337133102
2016-07-26,1,0.00025681318672078114,0.00031578836191627734,-0.004938594947646689,0.006385304572543368,0.9919471165048023
2016-07-28,1,0.00026046037399481034,0.00031586211734165395,-0.004938594947646689,0.005797598280807858,0.9944416624407935
2016-08-01,1,6.416775068689476e-05,0.00015269199809649558,-0.004462199827101293,0.006385304572543368,0.9944524974636708
2016-08-03,1,0.0003561478553476409,0.0003897590536886006,-0.0021690956531393735,0.0043693591609865745,0.9952520347516344
2016-08-05,1,0.0005047588611762932,0.0005389369129052695,-0.0013397538896462195,0.004623698269254532,0.9946884837523441
2016-08-09,1,0.0002881321283458139,0.0003363332546144871,-0.0013397538896462195,0.004623698269254532,0.9941464886659112
2016-08-11,1,0.00035810694611708525,0.0004034648167224701,-0.0032166365111712886,0.004623698269254532,0.9932418080760588
2016-08-15,1,0.0002473825653923782,0.00030621750339421874,-0.004401832338332282,0.0036870850990574,0.9930690135414665
2016-08-17,1,0.0005764430616633925,0.0005890374840765873,-0.008223322756047861,0.002097970484584692,0.9930124085077238
2016-08-19,1,0.0004363660376593861,0.0004602980816790899,-0.004584415258180059,0.0018283255762937525,0.9937300367726869
2016-08-23,1,0.0002108310663632414,0.00027429654850357426,-0.004584415258180059,0.0036870850990574,0.992933896775374
2016-08-25,-1,-0.00013042091452568084,-1.799832094274875e-05,-0.002527638534105382,0.005519425397691844,0.9929283573501815
2016-08-29,0,-0.00012088357256475322,1.471122629059362e-05,-0.002527638534105382,0.005519425397691844,0.9930260732390026
2016-08-31,-1,-0.00023805230302803874,-8.59434801259202e-05,-0.002527638534105382,0.005519425397691844,0.9930067897589817
2016-09-02,1,0.0006043828263321384,0.0006405072953270616,-0.002527638534105382,0.0031202179248464735,0.9943122852949595
2016-09-07,1,0.0003410265104793283,0.00040503593207927226,-0.002527638534105382,0.0031202179248464735,0.9948208891751559
2016-09-09,1,0.0001237404380202306,0.0001756141617793243,-0.00039324643184058015,0.0031202179248464735,0.9956168412197645
2016-09-13,-1,-0.00036155472358977055,-0.0002324714399448297,-0.00039324643184058015,0.005519425397691844,0.9959158499075373
2016-09-15,-1,-0.0002590222184243633,-0.00014767913383502174,-0.00082295899501785,0.005519425397691844,0.9961209645361241
2016-09-19,-1,-0.0005901253562485039,-0.00041958510124302513,-0.00082295899501785,0.005519425397691844,0.9952392398172063
2016-09-21,1,3.3744398791297125e-05,0.00014040369684689756,-0.00082295899501785,0.001953245096633836,0.9961454622725431
2016-09-23,1,0.0003384370818056458,0.00041354861958180195,-0.00082295899501785,0.001663488005806561,0.9967922759069128
2016-09-27,1,0.0004540920990277712,0.0005131585928809107,-0.0008174412599860407,0.0018637398274786781,0.9968712923246477
2016-09-29,1,0.0015840284697423708,0.0016715532066060887,-0.001522379604165459,0.0019027894637872514,0.9951431399238969
2016-10-03,1,0.0014698789924421389,0.0015237275972398347,-0.001522379604165459,0.0020418993839871023,0.9948934861827141
2016-10-05,1,0.0011946428781398207,0.0012046922937924676,-0.0008174412599860407,0.002723531160318006,0.9950850210065271
2016-10-07,1,0.0011329222278025652,0.0011350884744058213,-0.001522379604165459,0.003932837340153225,0.9945605506320139
2016-10-11,1,0.001115426028195526,0.0011304064898681303,-0.0008174412599860407,0.003932837340153225,0.9938406745815781
2016-10-13,1,0.0012602057177422915,0.0013148186541748596,-0.00025445049871651256,0.00511654931396097,0.9927895184731622
2016-10-17,1,0.001072731859244806,0.0010954322246983757,0.0002829510132235536,0.007218954956973539,0.9934155797176857
2016-10-19,1,0.0010122467119960026,0.0010285908470675936,0.0005449173739217368,0.007775904993284188,0.9931667822253546
2016-10-21,1,0.0008140405230210084,0.0008371990913552301,0.0005449173739217368,0.007775904993284188,0.9928061982474615
2016-10-25,1,0.0007848486179122319,0.0008236367375362577,-0.0005402423689371085,0.007775904993284188,0.992750748740011
2016-10-27,1,0.00040682166903616824,0.0005003421778953767,0.00021851477923094068,0.007775904993284188,0.9941023745603755
2016-10-31,1,0.0008119206428425689,0.0008416189696110633,-0.0005402423689371085,0.008409536472147363,0.9940520127164332
2016-11-02,1,0.0006046761511740807,0.0006745345595061907,-0.0010163456933037199,0.008409536472147363,0.9940826003460568
2016-11-04,1,0.00040756593455111936,0.0005133464421309495,-0.0010163456933037199,0.010460580484645049,0.9931677120409649
2016-11-08,1,0.0013882367654667615,0.001395991981546379,-0.0010163456933037199,0.010460580484645049,0.9937241787087913
2016-11-10,1,0.002163071375890422,0.0022656087140759647,-0.001341984328619514,0.008259484013184876,0.994485191056975
2016-11-14,1,0.0021833495890066033,0.0022760841175135035,-0.0018733200778089372,0.005890672999527067,0.9948006339362913
2016-11-16,1,0.002354303942834203,0.0024653533193821197,-0.0032323187829109996,0.003361771028434082,0.9930968602300558
2016-11-18,1,0.002509410957922684,0.002706995618052589,-0.005590346994271647,0.004488335580707393,0.9916166031716056
2016-11-22,1,0.002535840586255264,0.002768521046686917,-0.0032323187829109996,0.004488335580707393,0.9919218194030041
2016-11-25,1,0.0023612852655192206,0.002551704160742878,-0.0032323187829109996,0.004488335580707393,0.9916856450248875
2016-11-29,1,0.0027805676062250756,0.003006325045066103,-0.005590346994271647,0.002372648723478539,0.9910684895642164
2016-12-01,1,0.0026024565838941908,0.00280400137503696,-0.005875983593424827,0.0029291056901811986,0.9910412845709519
2016-12-05,1,0.0027906007477277875,0.002999324470391284,-0.005624858902849354,0.002372648723478539,0.9919073296221668
2016-12-07,1,0.002985206386462629,0.003195591050124128,-0.005624858902849354,0.0029291056901811986,0.9919738454153165
2016-12-09,1,0.0027167549267543218,0.0028763695735164654,-0.005875983593424827,0.002122772718203174,0.9918981431309316
2016-12-13,1,0.002804138864808004,0.00299562455465684,-0.005875983593424827,0.0023260336267505355,0.9919290535740215
2016-12-15,1,0.0022337363880232997,0.0023473309604665218,-0.003007031511758653,0.002724463640271397,0.9940369448671599
2016-12-19,1,0.003176616953032074,0.003435691603976875,-0.003007031511758653,0.002724463640271397,0.9946384589943756
2016-12-21,1,0.0029056402915044527,0.003118637867226203,-0.003007031511758653,0.003235775520841957,0.9949659843176317
2016-12-23,1,0.0027525339943991556,0.002937818283940483,-0.002011936914862944,0.0036796074325310215,0.9947229326107399
2016-12-28,1,0.002244845736652397,0.002364624862051167,-0.0004093398798183973,0.005835420280976788,0.9941064013212115
2016-12-30,1,0.0018802669553769453,0.0019384715610425822,-0.002011936914862944,0.005835420280976788,0.9934026751649744
2017-01-04,1,0.0016099750061094678,0.0016348318462832071,-0.0031679029639250533,0.005835420280976788,0.9928684078044709
2017-01-06,1,0.0020808078541881014,0.002163640919940822,-0.006706979882928113,0.0047416493184446315,0.9925481030504045
2017-01-10,1,0.0017809463727600382,0.001841021972476299,-0.0031679029639250533,0.007093094272404199,0.9927751088063135
2017-01-12,1,0.0017620939329414148,0.0018052343220403334,-0.006085981697591538,0.008744208593190219,0.9920263204190876
2017-01-17,1,0.001519216758946338,0.001521191846153005,-0.006085981697591538,0.008744208593190219,0.9919049525744733
2017-01-19,1,0.0011215163076904301,0.0011812549549624451,-0.0031679029639250533,0.009245539619066582,0.9922431752639614
2017-01-23,1,0.001389351462276501,0.0014043310338249099,-0.0031679029639250533,0.011025582545825117,0.9916527449816145
2017-01-25,1,0.0015755595688425857,0.0015800523431048132,-0.0031679029639250533,0.009245539619066582,0.992212050047748
2017-01-27,1,0.0032963159716970095,0.0035760598229945353,-0.0031679029639250533,0.008212862937284331,0.9937564843722817
2017-01-31,1,0.0025539882365526595,0.0027125569202226425,0.00044072853401238405,0.008212862937284331,0.994768896248122
2017-02-02,1,0.0019416871371875928,0.001973756658177581,0.00044072853401238405,0.008212862937284331,0.9946624415680139
2017-02-06,1,0.0015591332756897535,0.00159096023094014,-0.0011146704012159096,0.007166104120832455,0.9947720588507882
2017-02-08,1,0.0021077134758104975,0.0021413521499512238,-0.0030208595603962384,0.005638670871097758,0.9950167120188014
2017-02-10,1,0.0020397281645932906,0.0020493460968758776,-0.002662034770044589,0.005638670871097758,0.995423686932275
2017-02-14,1,0.00236522245662249,0.002446386817634278,-0.0030208595603962384,0.0049393275218928175,0.9948649154286272
2017-02-16,1,0.002627257062711004,0.002757123724238147,-0.004111288851202341,0.0049393275218928175,0.9944373648187409
2017-02-21,1,0.002955629438689762,0.003132915890504475,-0.004223415765292116,0.0013722800669907097,0.994206095310215
2017-02-23,1,0.0026428885184581153,0.00276752019743483,-0.004528988837736538,0.0013722800669907097,0.9939350562874341
2017-02-27,1,0.002781668013308112,0.002921586188389357,-0.005389915984884674,-0.00015922040529570058,0.9934967615866905
2017-03-01,1,0.00259890164636666,0.0026965102572286447,-0.005389915984884674,-0.0003472130285689891,0.9933744246146801
2017-03-03,1,0.002018391996387276,0.002033253762871028,-0.0047897222442688375,-0.00015922040529570058,0.9941921020025208
2017-03-07,1,0.0017363972421024078,0.0017578935822301666,-0.0047897222442688375,0.0005839123528314034,0.9945816678775923
2017-03-09,1,0.0012978725973128338,0.001383057929765097,-0.005389915984884674,0.0005839123528314034,0.9946974714183545
2017-03-13,1,0.0011011215377724755,0.0012322406907000682,-0.005820259650927254,0.0005839123528314034,0.994646873919749
2017-03-15,1,0.0005951604553560153,0.0007895589890443053,-0.00599783202945142,0.0005839123528314034,0.9944418094443676
2017-03-17,1,0.000542156490040748,0.0007460089976304518,-0.00599783202945142,0.0005839123528314034,0.9941044330855501
2017-03-21,1,0.00010650655550471897,0.00034609855341162,-0.005820259650927254,0.0009868876119696808,0.9944281182102708
2017-03-23,-1,-0.001390850893609977,-0.0010084734054837253,-0.005820259650927254,0.0026310248688803215,0.9944844918327538
2017-03-27,-1,-0.0016192141520167357,-0.001225979258216955,-0.005230017069836272,0.005116297812179527,0.9939335691448223
2017-03-29,-1,-0.0009892663292599248,-0.0006127259446182885,-0.00599783202945142,0.0026310248688803215,0.9912904974785578
2017-03-31,-1,-0.0012410337690322098,-0.0008323933882620732,-0.00599783202945142,0.0015521464052960948,0.9916880586823156
2017-04-04,-1,-0.0007789240916840232,-0.0004619980581004999,-0.005230017069836272,0.0016490838609356559,0.9918501374279421
2017-04-06,-1,-0.0005950693266771862,-0.00035893957385807224,-0.004564726523968745,0.0034409843072525682,0.9914477651155305
2017-04-10,-1,-0.00037824105068665114,-0.00018841220904793846,-0.00537308791442268,0.0016490838609356559,0.9904791580111756
2017-04-12,-1,-0.00087005990270056,-0.0006386882007971237,-0.005155807320240003,0.0016490838609356559,0.9906872883986948
2017-04-17,-1,-0.00023747951956282968,-8.202222734987152e-05,-0.00570899879340693,0.0014958855314459786,0.9912750897344195
2017-04-19,-1,-0.0007419116938654037,-0.0005123799547886595,-0.006720742555687545,0.0017656126394603767,0.9902594511381896
2017-04-21,0,-0.00015027504824918655,6.6140068861312066e-06,-0.008731599523719142,0.0017656126394603767,0.9903450198282526
2017-04-25,1,0.0004868859247724117,0.0005549534781308414,-0.008731599523719142,0.001989250401514605,0.9902201679084465
2017-04-27,-1,-0.00032373751302773124,-0.00015363412232626504,-0.0072540170973854085,0.001989250401514605,0.993127222135812
2017-05-01,-1,-0.0002700335626849069,-0.00012134997742727825,-0.008731599523719142,0.002568125355156617,0.9924691642592809
2017-05-03,1,0.000254881993804686,0.00031027797900605935,-0.008731599523719142,0.003289887976067386,0.9919397234515829
2017-05-05,1,0.00053448359466246,0.000556746888757305,-0.008731599523719142,0.0022141895155344117,0.992290291381258
2017-05-09,-1,-0.00043160607366374737,-0.00029498584535716686,-0.0063399867947538735,0.0022141895155344117,0.9939047769531277
2017-05-11,-1,-0.0013213151016669615,-0.0010301807397029422,-0.005533465269442013,0.003289887976067386,0.9937755297809795
2017-05-15,-1,-0.0008249083553032925,-0.0006219723073806874,-0.004231483910653348,0.003845024067531133,0.9931979855083426
2017-05-17,-1,-0.0017421200823031931,-0.0014249357960785438,-0.004231483910653348,0.00506896908686123,0.9923625878028038
2017-05-19,-1,-0.0018909399032335282,-0.0015542643662628903,-0.003865543246572048,0.008498080474044597,0.9923721506355431
2017-05-23,-1,-0.001651083609693497,-0.0013143031406652828,-0.005711223450007968,0.005066266484825156,0.9913848409590723
2017-05-25,-1,-0.0021216413711092896,-0.0017285882735034704,-0.004785707565845942,0.005066266484825156,0.9914152305633395
2017-05-30,-1,-0.002445768896860283,-0.0020078498201775846,-0.004052093936648647,0.008498080474044597,0.9915710629478839
2017-06-01,-1,-0.0018425062808437177,-0.0015074914565757678,-0.004052093936648647,0.005066266484825156,0.991871430051211
2017-06-05,-1,-0.0024857901779658793,-0.0020480722468727585,-0.0037413275983221475,0.009927888946821558,0.99000646739344
2017-06-07,-1,-0.002306668444020061,-0.001910174769235743,-0.00738144629997922,0.009927888946821558,0.9887756567676378
2017-06-09,-1,-0.0019383730075729865,-0.0015830095051869815,-0.00738144629997922,0.008573369447071303,0.9890843872027105
2017-06-13,-1,-0.0014572930887845085,-0.0011498237250924708,-0.00738144629997922,0.006190916492591524,0.9896225095008725
2017-06-15,-1,-0.0006058822508181127,-0.00041014725199926133,-0.003926068816719679,0.006190916492591524,0.9912779374635741
2017-06-19,-1,-0.00016299888920783613,-4.620574263112143e-05,-0.0055062775774728555,0.006268908067654302,0.9909943378622985
2017-06-21,-1,-0.0008264717374552502,-0.0007158694389135601,-0.0055062775774728555,0.006268908067654302,0.9897328089828765
2017-06-23,-1,-0.00019331397462454933,-9.782552969977466e-05,-0.0048260288023512935,0.008546960688778067,0.9896923846143537
2017-06-27,-1,-0.00022203158556592672,-0.00010202460505268735,-0.003249455086706461,0.006182113573160446,0.990065483163487
2017-06-29,0,-5.131463722786206e-05,5.9945370125564796e-05,-0.0071722102146506775,0.006182113573160446,0.9897824051090212
2017-07-03,1,0.0017284984912141668,0.0018857708903740064,-0.008555156359727457,0.004898789718049665,0.9907964433337288
2017-07-06,1,0.0008853821571679814,0.0009405518994759633,-0.004112929317002577,0.0054463847079287125,0.9921643171273902
2017-07-10,1,0.00121129994630226,0.0013249334208072566,-0.0071722102146506775,0.006252979598589012,0.9908703464513303
2017-07-12,1,0.0017272886089243866,0.001926872471257543,-0.008476725815877014,0.006252979598589012,0.990535168327761
2017-07-14,1,0.002220281531235161,0.00251434408803028,-0.008476725815877014,0.004922411726525853,0.9904428919889304
2017-07-18,1,0.002108943137285689,0.00238405160541386,-0.0077676153700856785,0.006252979598589012,0.9897629180477598
2017-07-20,1,0.0018079374851444271,0.002062691149021674,-0.006935840066053566,0.006252979598589012,0.9922009679027614
2017-07-24,1,0.002062511896381,0.0023600449035195217,-0.006935840066053566,0.004922411726525853,0.9922919244892252
2017-07-26,1,0.0013508018541176924,0.0015214599996885485,-0.006935840066053566,0.004071481337003381,0.9925245699289735
2017-07-28,1,0.001314082593821638,0.0014709600408432202,-0.004274480644857873,0.006561750072454343,0.9913858250069524
2017-08-01,1,0.0008814707420373845,0.0009847954388652396,-0.0020531455412126022,0.010548161050246987,0.9904491988408547
2017-08-03,1,0.001683546448473967,0.0019138632191530065,-0.004274480644857873,0.015034862213459696,0.9882587728378553
2017-08-07,1,0.0016408150024602621,0.001857895744851493,-0.0040875115456431715,0.015034862213459696,0.9884352228586366
2017-08-09,1,0.0016569719358203675,0.001897338045144031,-0.0020531455412126022,0.015442837233736455,0.9882246868415112
2017-08-11,1,0.0010517312255260852,0.0011831291537462774,-0.0020531455412126022,0.015442837233736455,0.9877209847412837
2017-08-15,1,0.0024046083739086015,0.00270059411552072,-0.0040875115456431715,0.008901773173584164,0.988850876217805
2017-08-17,1,0.001481810551565463,0.0016565942774135634,-0.0040875115456431715,0.01061916364058555,0.9883610366704889
2017-08-21,1,0.00202000442218322,0.0022700031433392164,-0.0040875115456431715,0.011810229804656437,0.988052057753846
2017-08-23,1,0.0019608619115367306,0.0021904103466444474,-0.0040875115456431715,0.011810229804656437,0.9881390900109451
2017-08-25,1,0.0031908257454019654,0.0035805928726250266,-0.002040127719073341,0.010901190862071095,0.9898185269079282
2017-08-29,1,0.003867395294043445,0.004314490025231411,-0.002040127719073341,0.010901190862071095,0.9905206224328482
2017-08-31,1,0.0034635806587491585,0.003864557072272857,-0.001072594032274829,0.010612286189485627,0.9925797772990652
2017-09-05,1,0.004275069339137445,0.004738856413879097,-0.001072594032274829,0.010612286189485627,0.9926307783760118
2017-09-07,1,0.0051741331258044095,0.005790523473961967,-0.0037336208946018917,0.010612286189485627,0.991819147365271
2017-09-11,1,0.004494323557863148,0.004995697645736097,-0.0037336208946018917,0.010612286189485627,0.9917563036422977
2017-09-13,1,0.004136551104006745,0.004622198497684795,-0.0032467529082857677,0.010901190862071095,0.9912304924401547
2017-09-15,1,0.00450094991618933,0.005048815058575835,0.00011675481369999503,0.010901190862071095,0.9925447738841662
2017-09-19,1,0.0043157756482736925,0.004838961531735884,-0.0032467529082857677,0.010612286189485627,0.9916119723484813
2017-09-21,1,0.004125906627457863,0.004613097915124542,-0.0032467529082857677,0.011382597615436339,0.9909426750846421
2017-09-25,1,0.00462832693303092,0.005186481412366468,-0.0032467529082857677,0.011192190721401844,0.9912788687466786
2017-09-27,1,0.005337083448256627,0.00599723205660223,-0.00345303865195781,0.00822933350583959,0.9914744788680869
2017-09-29,1,0.0049413016625962924,0.005479953372885351,-0.00345303865195781,0.009355278109520212,0.9915604771119849
2017-10-03,1,0.004439670486369588,0.004879575517485513,-0.00345303865195781,0.006762454445715245,0.9918452701678239
2017-10-05,1,0.004583269664254342,0.005020182966587249,-4.990765856158219e-05,0.006762454445715245,0.9928446644561153
2017-10-09,1,0.0033700254674863387,0.003587426074358653,-0.0017665176733909457,0.006762454445715245,0.9932941367322785
2017-10-11,1,0.003932922303325045,0.004226955510171338,0.00033382426836003236,0.006762454445715245,0.9937242870956331
2017-10-13,1,0.003897323072189443,0.004218352631840628,-0.0017665176733909457,0.005893891475655216,0.9934055619616927
2017-10-17,1,0.003299392597547325,0.0035117904851350015,-0.0002523464849513886,0.005893891475655216,0.9943711616229639
2017-10-19,1,0.004055278931730313,0.004347612172144726,-0.0017665176733909457,0.0043527363380332,0.9944544369340552
2017-10-23,1,0.0039023896843117505,0.00417324697090699,-0.0032728118407321385,0.0034424166131079986,0.9930322649719795
