JNU-Tangyin/eata/results/Batch4_SP500/Batch4_SP500-BBY.csv
Date,Action,Predicted_Q25,Predicted_Q75,Actual_Q25,Actual_Q75,RL_Reward
2010-12-14,0,0.0,0.0,-0.006783343367891306,0.005699141344257811,0.99138082855117
2010-12-16,0,0.0,0.0,-0.005257549933863142,0.005699141344257811,0.9920279383094237
2010-12-20,0,0.0,0.0,-0.005257549933863142,0.005699141344257811,0.9919289531830549
2010-12-22,0,0.0,0.0,-0.00521233813287416,0.00829496344197956,0.9918712293519933
2010-12-27,0,0.0,0.0,-0.00521233813287416,0.005699141344257811,0.9928709385444495
2010-12-29,1,3.4037049350933794e-06,4.2520169272207585e-05,-0.0057733587718292855,0.004730164507170934,0.9929889330381
2010-12-31,0,-3.87678034519718e-06,3.1126571028165196e-05,-0.005990825795527872,0.004730164507170934,0.9918931811563693
2011-01-04,0,0.0,0.0,-0.005990825795527872,0.0055253633357446935,0.9919709805893671
2011-01-06,0,0.0,0.0,-0.0057733587718292855,0.006819156433113654,0.9927270274418752
2011-01-10,0,0.0,0.0,-0.006231620274356975,0.0049883661781130705,0.9923963120938729
2011-01-12,-1,-0.003508119632394064,-0.0026445999110762323,-0.006683875822914761,0.006223484618789909,0.9927390806139069
2011-01-14,-1,-0.004704058990224293,-0.003634125791443771,-0.013568311503452637,0.006223484618789909,0.9921774669756402
2011-01-19,-1,-0.0059754424653117155,-0.004759884428137346,-0.008697073830877061,0.006223484618789909,0.9926855002503763
2011-01-21,-1,-0.006146131208873648,-0.004876083716416266,-0.008697073830877061,0.0059128377077626824,0.992454534016163
2011-01-25,-1,-0.005311759743229682,-0.0042221425592469785,-0.012658029856967325,0.0059128377077626824,0.9922487753717862
2011-01-27,-1,-0.005207271366736259,-0.004190401123324591,-0.013768257575395522,0.006207193900969398,0.9911500076726221
2011-01-31,0,0.0,0.0,-0.012658029856967325,0.006233287122020497,0.9908935435728747
2011-02-02,0,0.0,0.0,-0.012658029856967325,0.006207193900969398,0.9909618527168808
2011-02-04,0,0.0,0.0,-0.013768257575395522,0.005562297330339496,0.9899113301397066
2011-02-08,-1,-0.003832944992690138,-0.003191205015177674,-0.012658029856967325,0.005562297330339496,0.991404297937697
2011-02-10,-1,-0.003403910988808781,-0.002874515598138003,-0.011965374675320302,0.005562297330339496,0.9907447238233259
2011-02-14,-1,-0.004085357003857474,-0.003422901042524376,-0.01102168730208067,0.005562297330339496,0.9908297130829987
2011-02-16,-1,-0.0035298125962115573,-0.0029988946357631416,-0.01102168730208067,0.005562297330339496,0.9906920635083938
2011-02-18,-1,-0.002853443829929859,-0.0024234245207750433,-0.01102168730208067,0.006368682434604995,0.9895703711623909
2011-02-23,-1,-0.0027660886053662305,-0.0023809289118730697,-0.01102168730208067,0.008051510784684607,0.9888802217480929
2011-02-25,-1,-0.00417581292966966,-0.003578178073357798,-0.012633255246887716,0.008051510784684607,0.9863806503148511
2011-03-01,-1,-0.0036307145869039336,-0.0031261149840135487,-0.012633255246887716,0.006270488531237304,0.9861483971914154
2011-03-03,-1,-0.002708097228388224,-0.00232526747806976,-0.015479023259778898,0.004454382531458201,0.9860631095451888
2011-03-07,-1,-0.00440819520420958,-0.003812523365019591,-0.015479023259778898,0.004454382531458201,0.9872011956153596
2011-03-09,-1,-0.004942559295192648,-0.0042985034992963946,-0.015479023259778898,0.012222506242025415,0.9844607568845544
2011-03-11,-1,-0.0035413417371588218,-0.003145576189433642,-0.015479023259778898,0.008984119788256499,0.9851295955683369
2011-03-15,-1,-0.004130819756578103,-0.0036575395988058526,-0.011014144667428491,0.012222506242025415,0.9847793601573008
2011-03-17,-1,-0.003855625054336089,-0.0034401095937735948,-0.015479023259778898,0.012222506242025415,0.9839263044960563
2011-03-21,-1,-0.002218348194851345,-0.0020165771290088495,-0.01685853501894788,0.00925664426788876,0.9839334591962098
2011-03-23,-1,-0.002172911900767078,-0.0019808276336301615,-0.01685853501894788,0.012869896634538516,0.9836664505481524
2011-03-25,-1,-0.006850578594331021,-0.006083990755613101,-0.009316964775956914,0.012869896634538516,0.986209109341425
2011-03-29,-1,-0.006405789288247971,-0.005727268152917134,-0.005872533156948589,0.013892693817166046,0.985564864848889
2011-03-31,-1,-0.0052504178684431545,-0.004833926467104783,-0.00410156275390188,0.013892693817166046,0.9856606435264319
2011-04-04,-1,-0.006104572595228407,-0.005574514140599569,-0.0019372079197827589,0.013892693817166046,0.9850305444426346
2011-04-06,-1,-0.0030292682102996973,-0.002882089257563154,-0.00410156275390188,0.012447454551042951,0.989206256001456
2011-04-08,-1,-0.003055276909308046,-0.002852951634021789,-0.00410156275390188,0.012447454551042951,0.9890109885596272
2011-04-12,-1,-0.0019470750687718519,-0.0018656034558354742,-0.0035394733528491635,0.008605747464143523,0.9905527018053961
2011-04-14,-1,-0.002769091156129532,-0.0026346358266117814,-0.0008114046461106591,0.012869896634538516,0.9882407835041335
2011-04-18,-1,-0.002428852273430415,-0.002382150608685713,-0.0017498447860985202,0.012492431705774062,0.9897323302691218
2011-04-20,-1,-0.0006138188822698734,-0.0003840657553271895,-0.0037105504275980715,0.007559148245862373,0.9911487903980747
2011-04-25,-1,-0.001159755924747765,-0.0010937322507252724,-0.0053610601021289095,0.007559148245862373,0.9901490654837098
2011-04-27,1,0.00014781379947240104,0.00044664447005444,-0.007372144669283826,0.007428890693590479,0.9900010193451089
2011-04-29,1,0.0005345398314887602,0.0008359247703757408,-0.007372144669283826,0.007428890693590479,0.989800069111516
2011-05-03,1,0.0004510421315981531,0.0006892373327770161,-0.012840455052869019,0.006451920460314814,0.9887213745539354
2011-05-05,1,1.550971600778109e-05,0.0002144177897792051,-0.01324767032586511,0.006451920460314814,0.988715495706965
2011-05-09,0,0.0,0.0,-0.014108227871674444,0.006451920460314814,0.9869538132556623
2011-05-11,0,0.0,0.0,-0.014108227871674444,0.007744463378181183,0.9861193779269972
2011-05-13,0,0.0,0.0,-0.015492945949633814,0.006451920460314814,0.9875125646563602
2011-05-17,0,0.0,0.0,-0.015492945949633814,0.008424698636308852,0.9853773755626603
2011-05-19,0,0.0,0.0,-0.015492945949633814,0.009585783057095133,0.9841503823713579
2011-05-23,0,0.0,0.0,-0.014821320845502323,0.014308996882831822,0.983043615184503
2011-05-25,0,0.0,0.0,-0.015073249275442476,0.014308996882831822,0.9828209640260435
2011-05-27,0,0.0,0.0,-0.018689655844251394,0.011835462617039695,0.9815035391248629
2011-06-01,0,0.0,0.0,-0.015073249275442476,0.014561232230368027,0.9816608964013673
2011-06-03,0,-0.001299562845255686,0.0,-0.014525151218025579,0.017514420114096742,0.9816959305093407
2011-06-07,-1,-0.003952215245165858,-0.0038687293349458913,-0.008404056592325742,0.017514420114096742,0.982450518299262
2011-06-09,-1,-0.0034821602045223008,-0.0034653280158579427,-0.00944564086787118,0.017514420114096742,0.9823310499290587
2011-06-13,0,0.0,0.0,-0.00944564086787118,0.017514420114096742,0.9833555355870406
2011-06-15,-1,-0.001581764124809361,-0.0013531639497476248,-0.013427737061848967,0.012678812840300013,0.9830512521705801
2011-06-17,1,0.00027087142327928554,0.0006750154814465408,-0.01539741337572156,0.01106447303459842,0.9842676112740106
2011-06-21,1,0.0014640278887765605,0.0020123814491546247,-0.01539741337572156,0.007812529802322388,0.9861516665200425
2011-06-23,0,0.0,0.0,-0.009719822502645397,0.007812529802322388,0.985782182605587
2011-06-27,0,0.0,0.0,-0.008356171442591282,0.007812529802322388,0.9868730740134171
2011-06-29,0,0.0,0.0,-0.016175735051802035,0.005693789348777827,0.9851654507546758
2011-07-01,0,0.0,0.0,-0.022199453739357226,0.0036806392809639946,0.9847597388274657
2011-07-06,0,0.0,0.0,-0.022199453739357226,0.0032444575900449487,0.9851963628030752
2011-07-08,1,0.0007389823174544264,0.0010209155099149968,-0.023003262140825022,0.0032444575900449487,0.981420628142545
2011-07-12,1,3.582678592231039e-06,0.0001535395338117607,-0.024688074346265614,0.003783156574917499,0.9774095798472376
2011-07-14,-1,-0.001418111522030498,-0.0014129839198222618,-0.024688074346265614,0.007743699476363552,0.9768115419275882
2011-07-18,-1,-0.0019231305884990994,-0.0018472684535940458,-0.030122727955921823,0.017794035167577063,0.9741121822137903
2011-07-20,-1,-0.002243326033345027,-0.002101998149024937,-0.030122727955921823,0.017794035167577063,0.9736684206385032
2011-07-22,-1,-0.0007838914296766158,-0.000739796827823293,-0.032113992899913346,0.014630481201524353,0.9732681273198664
2011-07-26,0,0.0,0.0,-0.032113992899913346,0.01519405883909351,0.9731959783615177
2011-07-28,-1,-0.003078277366052081,-0.0028547468821710047,-0.032963305008083976,0.019484768080284532,0.9734196709730697
2011-08-01,-1,-0.004518286935421483,-0.0040944682168352654,-0.032963305008083976,0.026094208885946515,0.9717378122311672
2011-08-03,0,0.0,0.0,-0.032963305008083976,0.026094208885946515,0.9715287177245536
2011-08-05,-1,-0.005659908022585397,-0.005026742667913062,-0.031407126326486415,0.026094208885946515,0.9734356591234667
2011-08-09,-1,-0.005908253300018068,-0.005246182437843308,-0.031407126326486415,0.026094208885946515,0.974521158255038
2011-08-11,-1,-0.005818945403014699,-0.005313247525597756,-0.0286909138016781,0.019919711650387577,0.9768697882143362
2011-08-15,-1,-0.006041678851605221,-0.005521480444851741,-0.0286909138016781,0.01815937084343485,0.9769833968364703
2011-08-17,-1,-0.007176600879697762,-0.006363986014745516,-0.0286909138016781,0.026094208885946515,0.9728508809428823
2011-08-19,-1,-0.008271213782355812,-0.007301421256244802,-0.017650874192428646,0.026094208885946515,0.9739902562210574
2011-08-23,0,0.0,0.0,-0.02722872794700356,0.026094208885946515,0.9730245472387494
2011-08-25,0,0.0,0.0,-0.01744917535191807,0.02053581364257135,0.9756605185647622
2011-08-29,0,0.0,0.0,-0.022518021959218617,0.015395432325530069,0.9751238125904044
2011-08-31,0,0.0,0.0,-0.022518021959218617,0.013991364932127097,0.9755778244183708
2011-09-02,-1,-0.004022092134185457,-0.0037802665491044637,-0.022518021959218617,0.013991364932127097,0.9749883447384291
2011-09-07,-1,-0.006446110404636816,-0.005756024952940983,-0.01594617296949328,0.017204814740264,0.9767628377763696
2011-09-09,-1,-0.006415333469525325,-0.0057085773962267435,-0.014986351819459492,0.02283308048106372,0.9741989711684468
2011-09-13,-1,-0.007451367013883454,-0.006687540713724696,-0.012507131083583384,0.027991073269734122,0.9754657091803679
2011-09-15,-1,-0.0034027957176822215,-0.0031278954622817987,-0.012507131083583384,0.017766513555990602,0.9803570415989328
2011-09-19,0,0.0,0.0,-0.014516687002694829,0.017766513555990602,0.9793466538697931
2011-09-21,0,0.0,0.0,-0.011191847542248848,0.020635491762972864,0.9796092705101275
2011-09-23,0,0.0,0.0,-0.011191847542248848,0.022655664746825534,0.9780340535831231
2011-09-27,0,0.0,0.0,-0.011191847542248848,0.020635491762972864,0.9797698162697486
2011-09-29,0,0.0,0.0,-0.011191847542248848,0.021524862293109154,0.9785496351292614
2011-10-03,0,0.0,0.0,-0.010255779370123704,0.021524862293109154,0.9816437307701658
2011-10-05,0,0.0,0.0,-0.010702085107751624,0.021524862293109154,0.9821078442758628
2011-10-07,-1,-0.0006470411821795723,-0.0004649913680928293,-0.010702085107751624,0.01697320252013242,0.9840418421134361
2011-10-11,1,0.0010674202830556723,0.0014737822790023018,-0.011927019098473872,0.015205878719762488,0.9843337621209478
2011-10-13,1,0.0007326367045467116,0.0010865250284849582,-0.011927019098473872,0.015205878719762488,0.9840561654655371
2011-10-17,-1,-0.00024619989885591657,-3.4518274600872406e-05,-0.011927019098473872,0.01697320252013242,0.9832082652881943
2011-10-19,1,0.0004283575307037074,0.0007675118189054753,-0.010500836555532045,0.015345382741553018,0.9843870342443085
2011-10-21,1,0.0015883093991466922,0.002041887760058672,-0.014788221841732108,0.015055868104420065,0.9847127167807059
2011-10-25,1,0.0014990311450632679,0.0019324971339318442,-0.016193760255589978,0.015055868104420065,0.984289848487234
2011-10-27,1,0.0017880558599094242,0.002142643856666491,-0.017024534535222294,0.014208791604315468,0.9846841593283108
2011-10-31,1,0.000600107444117617,0.0008314632882770012,-0.016193760255589978,0.015345382741553018,0.9823608033668666
2011-11-02,1,0.0010392015993365387,0.001314376636264018,-0.017024534535222294,0.01456984873629853,0.9826790101860495
2011-11-04,1,0.003988816201351823,0.004676593251022837,-0.017024534535222294,0.0162912528905622,0.9814449185304229
2011-11-08,1,0.004056333209038655,0.004796677152726868,-0.016193760255589978,0.0162912528905622,0.9827751967274503
2011-11-10,1,0.0053035613044740415,0.0062892225114796595,-0.017024534535222294,0.020975204685832218,0.9806208757364019
2011-11-14,1,0.00560202621799342,0.0066205481457499715,-0.018275621798909496,0.0162912528905622,0.9772183585818447
2011-11-16,1,0.00575597153144305,0.006726697965014591,-0.018275621798909496,0.005215930285790494,0.9764905038143707
2011-11-18,1,0.004777474471304167,0.005644375251275112,-0.019469681795627636,0.005215930285790494,0.977015214264752
2011-11-22,1,0.004051193668779946,0.0048575977868366375,-0.01649825799169693,0.02022495166072233,0.9779478038411007
2011-11-25,1,0.0033406524961426044,0.004049564612804375,-0.010348137029605013,0.02022495166072233,0.9789967894057514
2011-11-29,1,0.0066219339533051345,0.007753945198360087,-0.016598225553577078,0.00854749856321724,0.9802347527847403
2011-12-01,1,0.005174139782427627,0.006085932722220638,-0.010348137029605013,0.012152949642267886,0.9824940438106196
2011-12-05,1,0.005910305863656035,0.006811058558182122,-0.016598225553577078,0.007645099419220598,0.9823322076960607
2011-12-07,1,0.005355696990047304,0.006150761083079181,-0.016598225553577078,0.01175412441424773,0.982097249880103
2011-12-09,1,0.005389376111835806,0.006178784082060759,-0.009857665705137044,0.01175412441424773,0.983905336816077
2011-12-13,1,0.0026913829695346166,0.0031670285771213083,-0.0074094846552306875,0.01175412441424773,0.9889677596702444
2011-12-15,1,0.0024350842527497566,0.002894754977952203,-0.0074094846552306875,0.01175412441424773,0.988675101385012
2011-12-19,1,0.00011913262026944518,0.00014076502278043276,-0.002206733388706945,0.013663671390197345,0.9878680904497259
2011-12-21,0,-5.796992087669174e-06,5.593145475791151e-05,-0.002206733388706945,0.013663671390197345,0.9877656449922856
2011-12-23,1,0.0006952517377757557,0.0007250217730461622,-0.003081827069008861,0.013398934953824458,0.9875021429557259
2011-12-28,-1,-0.0008328848752734601,-0.0006051302152565304,-0.003081827069008861,0.014479736021544705,0.9862600424767408
2011-12-30,-1,-0.00032699180200381525,-0.0001807390291808199,-0.006199424643028136,0.014479736021544705,0.9843417033147358
2012-01-04,-1,-0.0007845176987383212,-0.0005581561239448941,-0.003081827069008861,0.014479736021544705,0.9851314279280534
2012-01-06,1,0.0007369684406850485,0.0008289264995042006,-0.006199424643028136,0.014479736021544705,0.9848007799301619
2012-01-10,1,0.001241676559267362,0.001269905045001449,-0.006199424643028136,0.0145475443679742,0.9843334526137137
2012-01-12,1,0.00036392675068121173,0.0005537392455863526,-0.011199544584748243,0.0145475443679742,0.9840022684024734
2012-01-17,0,-3.365390597361321e-05,0.0001809100288024338,-0.005650785529707011,0.0145475443679742,0.984490319570353
2012-01-19,1,0.0005018520206081579,0.0006885553766821618,-0.0067819709021505565,0.0145475443679742,0.9848081207814453
2012-01-23,1,0.0027738770632178885,0.002975324880141998,-0.007301354592737526,0.011780348829237106,0.9856905351092295
2012-01-25,1,0.002750291909249895,0.002952272429336114,-0.007301354592737526,0.009979173487136898,0.9852162564711533
2012-01-27,1,0.0008572647580371506,0.001021516310230566,-0.006623550403316652,0.008235158399751587,0.9868784695521328
2012-01-31,-1,-0.000773936189107532,-0.0004455296292454977,-0.006623550403316652,0.009979173487136898,0.9869997860371713
2012-02-02,-1,-0.0005794373259267707,-0.00025422989385617996,-0.008617492903164497,0.008611011013837305,0.9870218107052051
2012-02-06,-1,-0.0005293035913250179,-0.00010665790138091741,-0.008617492903164497,0.008611011013837305,0.9878093313242905
2012-02-08,1,0.0026147692522205802,0.002807290668316193,-0.008617492903164497,0.008611011013837305,0.9879902996062583
2012-02-10,1,0.0013332940114123212,0.001392713585657379,-0.008074275900874447,0.009497697930314759,0.9879522928069464
2012-02-14,1,0.0008191721657338874,0.0010226169827254334,-0.010305909523325878,0.00807466654747754,0.9873413993428796
2012-02-16,1,0.001263195586329073,0.001408084709122793,-0.010305909523325878,0.0098956151489197,0.985434318713209
2012-02-21,1,0.0014691285546040034,0.0015438492453591598,-0.010305909523325878,0.012917464601191376,0.9847498158181106
2012-02-23,0,-2.141265507471686e-05,0.00023663247725960648,-0.008074275900874447,0.013609920309155928,0.9845396143323285
2012-02-27,-1,-0.002483446795492853,-0.0017528706518536606,-0.007093725722156976,0.015386940045739077,0.9833053554575033
2012-02-29,-1,-0.0020750249433872754,-0.001485544702542429,-0.009236354521035604,0.013609920309155928,0.9848082776871656
2012-03-02,-1,-0.0014593945537463952,-0.0010915327539324686,-0.012652482931812323,0.013609920309155928,0.9802102170077317
2012-03-06,-1,-0.0009267543256788728,-0.0007147015659253835,-0.009236354521035604,0.012952727117023253,0.981777248329
2012-03-08,-1,-0.0006024569164752648,-0.0003913703336900356,-0.013822962300507826,0.0098956151489197,0.9809882085542504
2012-03-12,-1,-0.0013132276833760313,-0.0009702933235953619,-0.018426421736067823,0.008055919083261764,0.9791934416056614
2012-03-14,-1,-0.0021904472415784767,-0.0017635069398207453,-0.013822962300507826,0.014663024532995197,0.9785006687949342
2012-03-16,1,0.0012662025026015675,0.0013240596772478841,-0.013822962300507826,0.008068940825556573,0.9799809716506706
2012-03-20,1,0.0022001169169162515,0.002363242264288369,-0.013822962300507826,0.0039994438401170975,0.9806280749882852
2012-03-22,1,0.0034085942474537355,0.003802900173197241,-0.01807974605193539,0.0008009118261112619,0.9803761400492921
2012-03-26,1,0.00321949714062065,0.0035247191750560148,-0.01807974605193539,0.0008009118261112619,0.9809701412502142
2012-03-28,1,0.003209158019880173,0.003478840993374682,-0.01582669371721893,0.0039994438401170975,0.981862656222707
2012-03-30,0,0.0,0.0,-0.009655450586687724,0.007277679441765148,0.9873932698271637
2012-04-03,0,0.0,0.0,-0.012000640594895792,0.010650284862493902,0.9860636835392981
2012-04-05,0,0.0,0.0,-0.012630208607892032,0.010650284862493902,0.9850830027150744
2012-04-10,1,0.05696682893068344,0.05870666196231318,-0.012630208607892032,0.010650284862493902,0.9428692815192636
2012-04-12,-1,-0.0024672145876174713,-0.0022758516666883965,-0.012630208607892032,0.0039994438401170975,0.9885889923437171
2012-04-16,-1,-0.0038221814003563453,-0.003408374948559379,-0.01746189593949913,0.007277679441765148,0.9869194252401271
2012-04-18,0,0.0,0.0,-0.022640346706757776,0.0035065994226234484,0.9853405633020708
2012-04-20,0,0.0,0.0,-0.022851665368215156,0.0035065994226234484,0.9843059106662387
2012-04-24,0,0.0,0.0,-0.022851665368215156,0.008730601583932684,0.983872824004056
2012-04-26,0,0.0,0.0,-0.022851665368215156,0.008730601583932684,0.9838461450701631
2012-04-30,0,0.0,0.0,-0.022851665368215156,0.009608690793867117,0.9837134727749854
2012-05-02,-1,-0.0015102247724148139,-0.001369688920971516,-0.023369775184403828,0.006550163188621673,0.9843344870231023
2012-05-04,-1,-0.0040640466191480176,-0.0036285937916843117,-0.022565257484417962,0.006550163188621673,0.9864969899757962
2012-05-08,-1,-0.007122740415964217,-0.006184699049476088,-0.02245063123342909,0.013727620135315644,0.9828260482017902
2012-05-10,-1,-0.007893695037462841,-0.006834056530327437,-0.02245063123342909,0.014290541027121273,0.9819376337070689
2012-05-14,-1,-0.009617766230614954,-0.008280887117887551,-0.02245063123342909,0.014649931488502268,0.9815697106598171
2012-05-16,-1,-0.01057452731383943,-0.009164466829876178,-0.02252107078724822,0.01661955408116255,0.9793965669995901
2012-05-18,-1,-0.011989377539047575,-0.010460596505269678,-0.010035064613178893,0.01661955408116255,0.978946478801702
2012-05-22,-1,-0.011048978779546411,-0.009609523022035795,-0.010035064613178893,0.019231446456850217,0.9793356836170893
2012-05-24,-1,-0.0095160608369777,-0.008298467741337898,-0.01677423540110255,0.019231446456850217,0.9799674819356425
2012-05-29,-1,-0.00831575316851187,-0.00723414487151933,-0.02283292716661576,0.021279806868301488,0.9781216187929737
2012-05-31,-1,-0.008331537141496823,-0.007350550334128982,-0.01677423540110255,0.02357248382827,0.9746388438272363
2012-06-04,-1,-0.008693992099476652,-0.007728625566189095,-0.012333889132474999,0.030158928351265334,0.9716322864093567
2012-06-06,-1,-0.004056038388601416,-0.003642008118733317,-0.01623283580258193,0.02183768936439831,0.976313578842098
2012-06-08,-1,-0.003812596446384249,-0.003405201452227973,-0.019310275539765352,0.02183768936439831,0.9766051283378833
2012-06-12,-1,-0.0027285279431951844,-0.002512399218047934,-0.019310275539765352,0.021279806868301488,0.975169984210052
2012-06-14,-1,-0.0022715365622218674,-0.002167692693490675,-0.018299465058710506,0.013758470135370498,0.9768696440488158
2012-06-18,-1,-0.002008700754383856,-0.0019451060855902387,-0.018299465058710506,0.008395186469591188,0.9776871347747528
2012-06-20,-1,-0.0010491133236669287,-0.0010108591096225565,-0.018299465058710506,0.00215341757732194,0.9786104071890475
2012-06-22,-1,-0.004202154995040224,-0.0037823596971632324,-0.018299465058710506,0.008423358982665887,0.9789251149112157
2012-06-26,-1,-0.0032545852567103886,-0.002984674442492209,-0.019310275539765352,0.00215341757732194,0.9795719811406165
2012-06-28,1,0.0003945263666651893,0.0006231730441040879,-0.019310275539765352,5.3685870040551416e-05,0.9805567726146244
2012-07-02,1,0.0027489950924041396,0.0033694492364092555,-0.019310275539765352,5.3685870040551416e-05,0.9812656363304456
2012-07-05,1,0.001796472590705097,0.0022637784005752402,-0.02130560840569531,-0.0003901402160353504,0.9810527995361666
2012-07-09,1,0.001215411199337452,0.001654138845329671,-0.020614807391482026,0.0048398954057095045,0.9775287209280128
2012-07-11,0,0.0,0.0,-0.009275111338042633,0.0048398954057095045,0.9815352445720422
2012-07-13,0,0.0,0.0,-0.011820720675551913,0.0048398954057095045,0.9807815908968655
2012-07-17,0,0.0,0.0,-0.012068010127496549,0.014135422747556484,0.9802416336300701
2012-07-19,0,0.0,0.0,-0.012068010127496549,0.015005021211800092,0.9779226030201882
2012-07-23,0,0.0,0.0,-0.01290682608768572,0.014135422747556484,0.9753509630381151
2012-07-25,-1,-0.008993409238999989,-0.008260042731712169,-0.007796671716140925,0.014135422747556484,0.9764545121095105
2012-07-27,-1,-0.007438353460943528,-0.006834223733050627,-0.01139810132809653,0.014135422747556484,0.9763550049317169
2012-07-31,-1,-0.005516289023516967,-0.00517446025376209,-0.01139810132809653,0.014135422747556484,0.9760460987433819
2012-08-02,-1,-0.00624190130642105,-0.005832384183234586,-0.01139810132809653,0.014873494229846542,0.9756809311550341
2012-08-06,-1,-0.0061052432088977635,-0.005680712839539048,-0.01139810132809653,0.014487297803009811,0.9805934229377932
2012-08-08,-1,-0.004802606568157251,-0.004647543770407174,-0.01139810132809653,0.015929119396206524,0.9796522646509892
2012-08-10,-1,-0.004098665905008843,-0.004093658605711377,-0.007796671716140925,0.015929119396206524,0.9810732389153985
2012-08-14,-1,-0.0029281866998693423,-0.0027077743048533956,-0.007796671716140925,0.016880669724472098,0.9810383220501494
2012-08-16,0,-0.0005125206261180557,8.813939343871053e-05,-0.01139810132809653,0.015929119396206524,0.9827172088178062
2012-08-20,-1,-0.002047878713818588,-0.001695009046956045,-0.013823278409243661,0.015929119396206524,0.9854189105921835
2012-08-22,-1,-0.004075873736953435,-0.004005842377510755,-0.008076660134332208,0.01598274418901364,0.9843017093113338
2012-08-24,-1,-0.0042679343688763185,-0.004180070530818911,-0.011920575214392649,0.015801453863183865,0.9860356358761182
2012-08-28,-1,-0.003909061101254548,-0.0038086231528931605,-0.014364716003575976,0.015801453863183865,0.9843019877363499
2012-08-30,-1,-0.004329606417234571,-0.004107271510491798,-0.014364716003575976,0.014590009084028209,0.985313458532691
2012-09-04,-1,-0.0024465253933242796,-0.002342192473193261,-0.014364716003575976,0.009818924992612478,0.9858778663173431
2012-09-06,-1,-0.0019931487334273446,-0.001857592553904973,-0.014364716003575976,0.014607884014963915,0.9828935329519755
2012-09-10,-1,-0.001505124038418364,-0.001267207745950679,-0.015784588059669008,0.014607884014963915,0.981946367770351
2012-09-12,-1,-0.0008338248425109915,-0.0005524481550869027,-0.015784588059669008,0.009818924992612478,0.9828075385741654
2012-09-14,0,-0.000228143039419929,0.0001705807678600861,-0.015784588059669008,0.003775727531465801,0.9833687351709387
2012-09-18,-1,-0.0012941507641963243,-0.00098652930112553,-0.011474526621754412,0.007668144803684034,0.985184969596082
2012-09-20,0,-3.0324051265693923e-05,0.0004563663704757418,-0.011474526621754412,0.00013542225586754596,0.9856851029497244
2012-09-24,-1,-0.0005816670647704088,-0.0001456426858975693,-0.010696746999511678,0.00013542225586754596,0.9861544419496776
2012-09-26,-1,-0.0006568124439607199,-0.00033632152489763035,-0.010696746999511678,0.00013542225586754596,0.9891589394935595
2012-09-28,-1,-0.003085566339812701,-0.003084663986162272,-0.012519585917981114,-0.0002899975873434218,0.9853725037824642
2012-10-02,-1,-0.0033422368352545202,-0.003308712052577278,-0.01125210513919113,0.002426380847769893,0.984649313670596
2012-10-04,-1,-0.0008357077735196026,-0.0005598754757862005,-0.013752363979380417,-0.001965588898744595,0.9862773054035588
2012-10-08,-1,-0.002067438527764317,-0.0020122308429022535,-0.013518227501555395,0.002426380847769893,0.9845109171494553
2012-10-10,-1,-0.002930593615886946,-0.0027917683314521036,-0.013611525654480849,0.002706871021446916,0.9840281938844083
2012-10-12,-1,-0.002432701157297156,-0.002400272709747046,-0.013611525654480849,0.004082129884028071,0.9822917653707459
2012-10-16,-1,-0.001920575985966491,-0.0018481337759170906,-0.013752363979380417,0.002706871021446916,0.9818505563000586
2012-10-18,-1,-0.0015306597147034997,-0.0013146584959825153,-0.014126367375229732,0.002706871021446916,0.9772828137288695
2012-10-22,-1,-0.002537626711848284,-0.0024710361758480395,-0.023655230491601342,0.002706871021446916,0.9722879838357625
2012-10-24,-1,-0.0030839033781502635,-0.003042528959629426,-0.023655230491601342,0.012604781408769207,0.9692496512597684
2012-10-26,-1,-0.00399466592582856,-0.003940055090137275,-0.017123813959709546,0.03293248410249258,0.9708120100596684
2012-11-01,-1,-0.0038261984934084814,-0.0038158183424688106,-0.023655230491601342,0.03293248410249258,0.9700796577868264
2012-11-05,-1,-0.004640534013702396,-0.004560189142152115,-0.02516580118899638,0.03293248410249258,0.9684610495093444
2012-11-07,-1,-0.0025720393132141603,-0.0023793334301844948,-0.02516580118899638,0.015061097062847665,0.9705820207301424
2012-11-09,-1,-0.0024523949653753358,-0.002218391698419485,-0.02994209719560138,0.025597246865584736,0.9683755970861291
2012-11-13,-1,-0.0006306961187560651,-7.918632148188622e-05,-0.02994209719560138,0.015061097062847665,0.9691442252487189
2012-11-15,-1,-0.0024059615651893605,-0.0019834445488361796,-0.03062412268008082,0.025597246865584736,0.96107697938723
2012-11-19,-1,-0.0034388944498313654,-0.003113437705790239,-0.02994209719560138,0.025597246865584736,0.9641746041376825
2012-11-21,-1,-0.0045431993180768595,-0.004192565952962265,-0.01926360925115007,0.025597246865584736,0.9688484204129457
2012-11-26,-1,-0.0014155662313668376,-0.0006408394443473977,-0.023214861641441886,0.0194876589584951,0.9716482062202568
2012-11-28,1,0.0001174670724472639,0.0010800785041726194,-0.023214861641441886,0.007500605907649456,0.9741855387480857
2012-11-30,0,-0.0003566374580159454,0.0005110714016823528,-0.019985108883169272,0.008976126539531934,0.9729878901429135
2012-12-04,-1,-0.003737107737557708,-0.003533758450228919,-0.018392337262333407,0.015995269916951438,0.9756414090986928
2012-12-06,-1,-0.00291775135443735,-0.002636399957788755,-0.018392337262333407,0.011316564562938974,0.9758672513195714
2012-12-10,-1,-0.00255819208972617,-0.002231296251761353,-0.019200004324203435,0.008695335269936334,0.9766836586968505
2012-12-12,-1,-0.0026655276972394584,-0.002341730751830858,-0.018392337262333407,0.015995269916951438,0.9705269319974379
2012-12-14,-1,-0.0053290080274170665,-0.005129496397376867,-0.013706698136495105,0.015995269916951438,0.978579986071889
2012-12-18,-1,-0.006851923067811436,-0.006331761997675319,-0.011020204188494146,0.015765207048587263,0.9786224103010572
2012-12-20,-1,-0.0063440152086025586,-0.005952421438539945,-0.008587507973290942,0.01808807233781592,0.9767499286034618
2012-12-24,-1,-0.006853566647131949,-0.00645547854730463,-0.003957954399510209,0.01808807233781592,0.9770089642822553
2012-12-27,-1,-0.007618362863948182,-0.007072587911475421,-0.0035302642851773106,0.02142128998149588,0.9742945865450298
2012-12-31,-1,-0.004412475048070796,-0.004252013572989785,-0.003957954399510209,0.01808807233781592,0.9794266441460371
2013-01-03,-1,-0.0035492255489904005,-0.0034829245590616547,-0.004197366289626432,0.019910888676055113,0.9791644065831827
2013-01-07,-1,-0.003187215017098053,-0.003105126976686559,-0.00467610900145375,0.019910888676055113,0.9788750097337716
2013-01-09,-1,-0.00489332030414389,-0.004645285147555685,-0.004197366289626432,0.019910888676055113,0.979517564030746
2013-01-11,-1,-0.0005848337370809426,-0.0001536178091332955,-0.00467610900145375,0.01808807233781592,0.9859585940623934
2013-01-15,-1,-0.0006821103990369855,-0.0004974923137733756,-0.011374557897167951,0.017753940705522754,0.9851715621062083
2013-01-17,-1,-0.0029637569444129425,-0.002901324726566095,-0.011374557897167951,0.02384839602356855,0.9804424414708787
2013-01-22,0,-7.73235326544697e-05,0.000181103473280667,-0.011374557897167951,0.023797981984208048,0.9816680139659327
2013-01-24,1,0.0008406319654812899,0.0013011495332538499,-0.01802067041335315,0.023797981984208048,0.9803657774572155
2013-01-28,1,0.0030002983566492325,0.0037471858310991497,-0.018982893407821774,0.013750492127106263,0.9802572740117759
2013-01-30,1,0.0030597136509458015,0.0038590902324455428,-0.018982893407821774,0.013750492127106263,0.9801306509266292
2013-02-01,1,0.00381404519921325,0.004749124519133466,-0.018982893407821774,0.02731769688399843,0.9780961780587081
2013-02-05,1,0.0038842149123241732,0.004817077257861339,-0.01802067041335315,0.029464944889397975,0.9774592583709487
2013-02-07,1,0.0035854925430086853,0.004548495536558873,-0.013040117683072084,0.03547667727155209,0.9757295997727279
2013-02-11,1,0.004267902930582648,0.0053288980683951805,-0.006323654743891136,0.03547667727155209,0.9774022649030003
2013-02-13,1,0.0013516526685647704,0.0018939834842597062,-0.00199685622996378,0.03547667727155209,0.9758281487788439
2013-02-15,1,0.004721994352613742,0.0057870409595981685,-0.00285967941558046,0.032031442153414684,0.9807465540877813
2013-02-20,1,0.004176644468544828,0.00509791576139643,-0.0014627227241761976,0.03362906636653165,0.9804158891988686
2013-02-22,1,0.003638943469331659,0.004500499942194305,-0.0014627227241761976,0.03362906636653165,0.9797396051641787
2013-02-26,1,0.0017806746835576878,0.002339199259025961,0.00348551966074122,0.03362906636653165,0.9786745164475731
2013-02-28,1,0.0014775684313311033,0.00196286467572134,-0.0005813864774482194,0.03362906636653165,0.9781368249374025
2013-03-04,1,0.006832322901820481,0.00824607308422708,-0.00285967941558046,0.02832539812544585,0.9820170093176911
2013-03-06,1,0.00844102981455076,0.009999708696849904,-0.00285967941558046,0.02832539812544585,0.9792059167391494
2013-03-08,1,0.01187131649612987,0.013801802319400118,-0.00285967941558046,0.021470270529850073,0.981118412418194
2013-03-12,1,0.011779984011987104,0.013669773397760947,-0.011660645337671454,0.021470270529850073,0.9787093279609821
2013-03-14,1,0.014114933625131873,0.01629881177702629,-0.021302129100488836,0.015295024445540335,0.9765502394335331
2013-03-18,1,0.014990859905332464,0.01726355891690138,-0.022221073694405805,0.015295024445540335,0.9740011811476185
2013-03-20,1,0.01571968699877925,0.01801348020555365,-0.022221073694405805,0.01311229215597873,0.9720340141879881
2013-03-22,1,0.014557098456182277,0.01665153116037696,-0.021302129100488836,0.014159693484113004,0.9745598524207891
2013-03-26,1,0.011990685755813857,0.013512138104310473,-0.01845699521979595,0.014174045572065723,0.975990017021443
2013-03-28,1,0.010663207020487222,0.012010583282782832,-0.01845699521979595,0.01629800473895915,0.9767562174042528
2013-04-02,1,0.008434353585136332,0.00935805742982455,-0.015573438366887344,0.01926230389867841,0.9748881845839659
2013-04-04,1,0.014054522151345993,0.015896979228545893,-0.015573438366887344,0.01862181003766122,0.9785953007869596
2013-04-08,1,0.013740183782139714,0.015491998471141211,-0.015573438366887344,0.01629800473895915,0.9777037409340085
2013-04-10,1,0.012074459652161633,0.01365360551944058,-0.015573438366887344,0.01629800473895915,0.9788566105115483
2013-04-12,1,0.009581848229829678,0.010733361440551467,-0.012605545093635595,0.01629800473895915,0.9804239370797133
2013-04-16,1,0.0075269295262563474,0.00822198238444145,-0.00969685489462559,0.01629800473895915,0.981431654903048
2013-04-18,1,0.004523794480023164,0.004538278480404405,-0.009917027606704435,0.01629800473895915,0.9813021619187122
2013-04-22,1,0.007409367981479564,0.007963934532502612,-0.009917027606704435,0.016425177994866334,0.9799797538061499
2013-04-24,1,0.008349439084989335,0.009164172203448966,-0.009917027606704435,0.014316176767031593,0.9785929453412888
2013-04-26,1,0.006829662997138309,0.0073803439572450984,-0.009210692803472215,0.016662557750723925,0.9792933997500105
2013-04-30,1,0.0066478519575227804,0.006968204762316066,-0.009210692803472215,0.012173040130188745,0.9824124405733538
2013-05-02,0,0.0,0.0,-0.009210692803472215,0.014935960210879718,0.9831159989188675
2013-05-06,0,0.0,0.0,-0.009210692803472215,0.014935960210879718,0.9835187126811096
2013-05-08,0,0.0,0.0,-0.009210692803472215,0.022572274383709713,0.9834516322045658
2013-05-10,0,0.0,0.0,-0.010245737514650705,0.024878188325124156,0.9822971107926589
2013-05-14,0,0.0,0.0,-0.011375557581880358,0.022547897827818814,0.9831325242445836
2013-05-16,0,0.0,0.0,-0.010245737514650705,0.024878188325124156,0.9822306225171293
2013-05-20,1,0.0027390843597834896,0.003283984806854024,-0.010245737514650705,0.023998922355352913,0.9823031987004338
2013-05-22,0,-0.00043823415615124603,0.0005177201719142243,-0.011375557581880358,0.023998922355352913,0.9821968111610875
2013-05-24,1,0.00021853912098818498,0.0010584668306084749,-0.012234300410454209,0.0222629346898587,0.9826813503076062
2013-05-29,1,0.0013778370767179313,0.0020916291398885875,-0.012234300410454209,0.02059068968555125,0.9827001385617616
2013-05-31,1,0.001723436522242099,0.0023829348064666684,-0.014893838130540474,0.020277834509702632,0.9823471741870297
2013-06-04,0,-0.0008988112179899562,0.00019674179787946503,-0.01718716090798688,0.020840694319801484,0.977102195968521
2013-06-06,1,0.0013238364381811432,0.0019153538539348697,-0.01718716090798688,0.02132436916231285,0.9768627598060502
2013-06-10,1,0.001535280765372065,0.0020781851149277502,-0.01718716090798688,0.020277834509702632,0.9776682196024081
2013-06-12,0,-0.0006749538504689594,0.00012249010627970102,-0.01718716090798688,0.02132436916231285,0.9759936358895337
2013-06-14,0,-6.555156670393341e-05,0.0005734930566226751,-0.014893838130540474,0.020277834509702632,0.9776428513333405
2013-06-18,1,0.0010781420739675704,0.0016108230366417239,-0.01718716090798688,0.017016712327085255,0.97792075226387
2013-06-20,0,-0.0006172397687527532,4.452752258000416e-05,-0.01585790288528471,0.017016712327085255,0.9797344370281552
2013-06-24,-1,-0.0019111235690475823,-0.0010597631037298182,-0.011130336111132278,0.017016712327085255,0.9799012449694472
2013-06-26,0,-0.0005705998298592592,0.00010981733754926448,-0.011130336111132278,0.016246434684125066,0.9808137065346085
2013-06-28,-1,-0.0014155964175154847,-0.0005922030729534665,-0.011130336111132278,0.012645397379443825,0.9809804523204784
2013-07-02,0,-0.0008122291194450192,7.851221428435608e-06,-0.00943145288472194,0.01529021399925725,0.9849127385264295
2013-07-05,1,0.00016870810317184265,0.0008803220380509263,-0.00943145288472194,0.017276997466264377,0.9848133685609233
2013-07-09,-1,-0.001477500449073302,-0.00044368261250152296,-0.00561829074265933,0.017276997466264377,0.9853391247583443
2013-07-11,-1,-0.0006784399744301228,-2.593587099068489e-05,-0.00561829074265933,0.017276997466264377,0.9864704676492588
2013-07-15,0,-0.00010347834352282884,0.0005001338388417578,-0.010239088612147125,0.017276997466264377,0.9863433779261354
2013-07-17,-1,-0.0026190740064656044,-0.0016756620978722082,-0.002032922426576409,0.019254590522293048,0.9859728140808418
2013-07-19,-1,-0.0032629826065856647,-0.002165528660319018,-0.010239088612147125,0.019254590522293048,0.9850491943876216
2013-07-23,-1,-0.003451134100117701,-0.002309262598118398,-0.010239088612147125,0.019651017986578586,0.9802056754346548
2013-07-25,-1,-0.0013994833846268065,-0.0006485939980391069,-0.013238358143189482,0.019688001324149287,0.978284215655005
2013-07-29,-1,-0.0023184871050329244,-0.0015859629137066344,-0.005779495312088535,0.020656003374339094,0.9784269319539399
2013-07-31,1,0.0004889979250046499,0.0007567537417422067,-0.013238358143189482,0.020656003374339094,0.9787581744942752
2013-08-02,1,0.001981767043056276,0.002068830172783577,-0.013238358143189482,0.019739188189989872,0.9793327717782436
2013-08-06,1,0.0029861176032061373,0.003139354832386957,-0.013238358143189482,0.021246813935497953,0.9784688749341358
2013-08-08,1,0.0028370688573513604,0.0030270244363291704,-0.012625231278727327,0.021246813935497953,0.979801833718273
2013-08-12,1,0.0031960672756744307,0.0035054181260687897,-0.010355603978479889,0.021246813935497953,0.9800347620096423
2013-08-14,1,0.0036973930201192875,0.004042909430854068,-0.010355603978479889,0.020541431452880555,0.980672332361378
2013-08-16,1,0.0018747916711503913,0.0019536490014959197,-0.004337800954631298,0.020541431452880555,0.9817535783576301
2013-08-20,1,0.0018611500740431603,0.0018769359892454388,-0.004337800954631298,0.018068056525404247,0.9862087089104076
2013-08-22,1,0.001493328510199569,0.0015782425813749513,-0.004337800954631298,0.016648744465845494,0.9886597361628905
2013-08-26,1,0.003458793075026416,0.0038091542994543176,-0.007750159048050314,0.015663660284424022,0.9885868815109717
2013-08-28,1,0.004093729979384403,0.00465095331565611,-0.007301236361168088,0.0151608048846073,0.9897104138230318
2013-08-30,1,0.003219554564101905,0.003554568272601363,-0.00900883591783321,0.014311678230410909,0.9892550070275207
2013-09-04,1,0.0034723348658990726,0.0037638732035789814,-0.00900883591783321,0.012486849333110655,0.9894346193336061
2013-09-06,1,0.0027002911954784907,0.0028338044399931032,-0.0076894628767149595,0.012640513749251625,0.9900399788179056
2013-09-10,1,0.002691553211163783,0.0027543360939239255,-0.013047307030129218,0.012051241817099073,0.9874315451994892
2013-09-12,1,0.0027702021518408305,0.0028692401454224166,-0.013047307030129218,0.014311678230410909,0.9838610942419608
2013-09-16,1,0.0031999465616675375,0.0033419445944247246,-0.013047307030129218,0.012640513749251625,0.9841449297469304
2013-09-18,1,0.0033355352541961343,0.003445054078900202,-0.013047307030129218,0.014311678230410909,0.9827166407673262
2013-09-20,1,0.0036830520744454785,0.003866422837607431,-0.009034213493018611,0.015688656862221196,0.9827969783126825
2013-09-24,1,0.003500520418574006,0.0036730245345146517,-0.0076894628767149595,0.014595631062847586,0.9837665310956829
2013-09-26,1,0.003497278973533445,0.0036631674809873838,-0.008806931363478316,0.013288808514812837,0.984005152266534
2013-09-30,1,0.0015034094224548225,0.001659664454725891,-0.0004044636049466639,0.013288808514812837,0.9849921890538322
2013-10-02,1,0.0011561182911213517,0.0013750682711689234,-0.0004044636049466639,0.013288808514812837,0.9856072058590503
2013-10-04,1,0.0024453293161419394,0.0024568285747469994,-0.0004044636049466639,0.010821367450081458,0.9862114258205076
2013-10-08,-1,-0.0010795801254370949,-0.0006166556029017988,0.0015202143878310058,0.016910946917025615,0.986883678644808
2013-10-10,1,0.0018327351473977145,0.001914726884962401,-0.0004044636049466639,0.008343324673579015,0.9890229213131527
2013-10-14,1,0.0010857839867889501,0.0013404682797311174,-0.0004044636049466639,0.019548190104032786,0.9856675350738272
2013-10-16,1,0.0027190741100402106,0.002727483456396039,-0.0038993454960227557,0.0067684039148857384,0.9871456340378513
2013-10-18,1,0.004210114930872426,0.004457784522396333,-0.006395794708378481,0.0067684039148857384,0.9871783586690807
2013-10-22,1,0.004357664430697649,0.004652417560158999,-0.012385204071136581,0.005807918978332612,0.9822035199085463
2013-10-24,1,0.00390811263011416,0.004062563571781712,-0.006478246424196393,0.00819164274690123,0.9825767161702488
2013-10-28,1,0.003903137923516542,0.004070564572299501,-0.006478246424196393,0.008517201339934444,0.9824001237610939
2013-10-30,1,0.003823715541305379,0.003996606097962877,-0.005389724678259086,0.008517201339934444,0.9824218281596497
2013-11-01,1,0.00289399788362529,0.002952419064579993,-0.005389724678259086,0.010242540820079311,0.9810241819684322
2013-11-05,1,0.00341404026386126,0.0034273527955606415,-0.005389724678259086,0.014564661083102032,0.9803152565913633
2013-11-07,1,0.0007874697102388276,0.0010321248711731676,-0.005389724678259086,0.014564661083102032,0.9817168098928023
2013-11-11,1,0.002204287302962725,0.00234730844218327,-0.005389724678259086,0.009183010151277916,0.9852090817233193
2013-11-13,1,0.0012117189722095252,0.001501688592767477,-0.008489166821146,0.009183010151277916,0.9843828828735125
2013-11-15,1,0.0012899211450435343,0.0015161244192393166,-0.003959545814725893,0.010242540820079311,0.983818597108496
2013-11-19,-1,-0.0011992770549981422,-0.0006688314824656089,-0.003804488973186649,0.014290860340032548,0.9871019773905865
2013-11-21,0,-2.5516156796198263e-05,0.0002906919175676363,-0.012471321509084442,0.014290860340032548,0.9851219264121824
2013-11-25,1,0.0014480560601300685,0.0015361430024059387,-0.012471321509084442,0.01822619865318552,0.9841830342050137
2013-11-27,1,0.0010886842761317806,0.0012270447508513375,-0.013550269436575842,0.019382665293425864,0.9824553809409373
2013-12-02,1,0.0015756143838904127,0.0016918427188247478,-0.013550269436575842,0.01822619865318552,0.9836031915483598
2013-12-04,1,0.003300101675153993,0.0034068364841205213,-0.013550269436575842,0.00955050298002132,0.9844704943305291
2013-12-06,1,0.00013796087796910856,0.0005024253242846084,-0.01620297654474236,0.00955050298002132,0.9841147466302246
2013-12-10,1,0.000680007246171307,0.0009590655487150383,-0.01620297654474236,0.009106615567859199,0.9833521603169572
2013-12-12,-1,-0.0007156100792371314,-0.00029803041217634873,-0.01620297654474236,0.009482228781584126,0.9837203329871211
2013-12-16,1,0.0008515678853531239,0.0010587513930123411,-0.01620297654474236,0.009104350692450582,0.9842001750184688
2013-12-18,1,0.0007551232169977011,0.0010795187408470918,-0.025378102487561914,0.0057311432419022,0.9765139979059085
2013-12-20,-1,-0.0012674967206794383,-0.0007664098305967238,-0.02218058449731218,0.009104350692450582,0.9765373152727753
2013-12-24,1,1.4145890594095887e-05,0.0002794091970676439,-0.025378102487561914,0.0057311432419022,0.9758792441147484
2013-12-27,1,0.00025945702119920477,0.0004583846936090089,-0.025378102487561914,0.0049471544223845644,0.9767755809264377
2013-12-31,-1,-0.00042439606742567134,-0.00010576583771702331,-0.03055967584806846,0.0049471544223845644,0.9733168564491979
2014-01-03,0,-0.00017448893936972652,0.00011436409033954221,-0.03055967584806846,0.0049471544223845644,0.971573172197244
2014-01-07,-1,-0.0021018042567428055,-0.0016164866491853128,-0.02642918722177038,0.0057311432419022,0.9732561136450238
2014-01-09,-1,-0.004295617304809245,-0.0034382158579880384,-0.02642918722177038,0.014257670118396428,0.9710701261475744
2014-01-13,-1,-0.0052829989962332406,-0.004417871502142375,-0.02255950144685005,0.01757377311647556,0.9703863998700097
2014-01-15,-1,-0.003950085941609692,-0.0032886886406379512,-0.023222265348787054,0.01757377311647556,0.9707407939338434
2014-01-17,-1,-0.007212079619262399,-0.006221025354716276,-0.01758144670748275,0.01757377311647556,0.9780089805339831
2014-01-22,-1,-0.005020844341195,-0.004276799166840058,-0.01758144670748275,0.010087249163296381,0.9816743900344255
2014-01-24,-1,-0.005764928235165955,-0.004946256239035751,-0.013624439600752263,0.016571476701990728,0.9822022258651717
2014-01-28,-1,-0.005677814791580933,-0.004917967271275568,-0.009470413818115043,0.020490052980101984,0.9814596120849542
2014-01-30,-1,-0.009935522810177094,-0.00864285366542901,-0.008147942033177865,0.02251206507414494,0.9807421685086285
2014-02-03,-1,-0.006527228939967086,-0.0056971451091658515,-0.008748419286411466,0.020490052980101984,0.9839601772953113
2014-02-05,-1,-0.005911282853496291,-0.0051424962400227585,-0.008748419286411466,0.020490052980101984,0.9851359016862896
2014-02-07,-1,-0.0037989067811681123,-0.003327046920171239,-0.008748419286411466,0.014876740279956524,0.9869197820390593
2014-02-11,-1,-0.0013442606232812629,-0.0011966226798907494,-0.009781176289490977,0.009893627346746954,0.9879756901140679
2014-02-13,-1,-0.003398424383340552,-0.0029670536188513294,-0.009781176289490977,0.014666152802034373,0.9878183120401781
2014-02-18,-1,-0.002831520205793467,-0.002465293544401349,-0.009781176289490977,0.014666152802034373,0.9878201953173182
2014-02-20,-1,-0.0027907064736758967,-0.0024395970052917913,-0.009781176289490977,0.014666152802034373,0.9875300691455284
2014-02-24,-1,-0.002964558068464524,-0.002521465412544152,-0.010130503886085905,0.014666152802034373,0.9858169559338099
2014-02-26,-1,-0.0017553470530865477,-0.001456053641304696,-0.011063322762694573,0.012584399782244541,0.986108648378284
2014-02-28,-1,-0.0003100290287163242,-0.0002048915396378393,-0.011063322762694573,0.012350215022018215,0.9873949556250571
2014-03-04,-1,-0.0038010148393586977,-0.003112747386130952,-0.009161630164225682,0.013084900655795813,0.9887275936927851
2014-03-06,-1,-0.0026727409627885423,-0.0022524286340196552,-0.006768164123681943,0.013448337835890913,0.9880605120367212
2014-03-10,-1,-0.0010491697253098649,-0.0008664289750183561,-0.009214679429315819,0.013084900655795813,0.9871689610023802
2014-03-12,-1,-0.0011085118298710598,-0.0010076729003214786,-0.005285388841405572,0.013084900655795813,0.9875723217271107
2014-03-14,-1,-0.0005885972976493355,-0.0005590999791294527,-0.008563239736854703,0.012307130882061958,0.9858854290836414
2014-03-18,1,3.522807455214375e-05,0.0001273886941278736,-0.016630383374081032,0.008846514468617374,0.9849529838962822
2014-03-20,1,0.0002978204884617412,0.0003626803316752604,-0.01910867694321316,0.008846514468617374,0.9842568219514322
2014-03-24,1,0.0005924166226135287,0.0007037752464427734,-0.016630383374081032,0.008846514468617374,0.9859349074568808
2014-03-26,-1,-0.00034665747009972585,-0.00034141471644868804,-0.015632262260105754,0.008846514468617374,0.9865799527106971
2014-03-28,1,0.000617210211864608,0.0007663469670631149,-0.015632262260105754,0.009151275414023977,0.984494122615719
2014-04-01,1,0.0016888632566098476,0.00202894010484655,-0.015632262260105754,0.008239174373453537,0.9845155493510678
2014-04-03,1,0.00018197164904875063,0.00022444184770540232,-0.015632262260105754,0.007549667434678849,0.9849411945496541
2014-04-07,1,0.0026077001528048635,0.003033647486949254,-0.01632937910097485,0.0068270891176400155,0.9856482093076152
2014-04-09,1,0.002798923581167522,0.0032360706196969662,-0.01632937910097485,0.007549667434678849,0.985608936102438
2014-04-11,-1,-0.0006786452831307868,-0.000639496014810324,-0.009031875801488273,0.00961931895706775,0.98713929673273
2014-04-15,-1,-0.0016867808416832833,-0.0014551243725240365,-0.007960115142308667,0.00961931895706775,0.9883388654726689
2014-04-17,-1,-0.001994875868936748,-0.001756175254186843,-0.007960115142308667,0.00961931895706775,0.9882375730768902
2014-04-22,-1,-0.0012968392780501401,-0.0011936298823038618,-0.007960115142308667,0.00961931895706775,0.9858952671133666
2014-04-24,-1,-0.0015673813383347344,-0.0014096884250788804,-0.0027684576595889123,0.013566639488259018,0.9831242471345235
2014-04-28,1,0.0009268687783651174,0.0011462758622933103,-0.0027684576595889123,0.013566639488259018,0.985290291936404
2014-04-30,1,0.0026899061138512905,0.0032667647647715097,-0.005506519140342811,0.016972417458304353,0.9851980743796254
2014-05-02,1,0.0022213459680148675,0.0026334711704481635,-0.007327783380254542,0.016972417458304353,0.9845688234688916
2014-05-06,1,0.0007239550219859446,0.0009666471687257234,-0.0020642718119006035,0.020217471410343645,0.9844038915269377
2014-05-08,1,0.000434413814278389,0.0005465224584779126,-0.0020642718119006035,0.020217471410343645,0.9840321020460884
2014-05-12,1,0.002101682569635018,0.002512747372600071,-0.0027507393308748456,0.020217471410343645,0.9849423651247436
2014-05-14,1,0.0019256196118540372,0.0023262151141013538,-0.005409421372625079,0.020217471410343645,0.9835896355764414
2014-05-16,-1,-0.0004223467643914724,-0.00038064912659714487,-0.0027507393308748456,0.020217471410343645,0.9832866762128069
2014-05-20,-1,-0.0021034153625753924,-0.0019133721989377807,0.0011493160984585708,0.018380540068080035,0.9858374713927036
2014-05-22,-1,-0.00012828622311155728,-9.228757938414597e-05,-0.005233496191354998,0.013783168623691677,0.9884221376706224
2014-05-27,1,0.0015640462855402246,0.0018156486586202842,-0.005233496191354998,0.013705237962193547,0.9893453770843227
2014-05-29,1,0.002468447638560814,0.002899545126799026,-0.0067029100687265655,0.013705237962193547,0.9880105821977373
2014-06-02,1,0.0036252779339441942,0.003936959780784949,-0.0031819022295753413,0.01722878037631045,0.987735816814081
2014-06-04,1,0.004587489603766041,0.0049657702637968424,-0.0031819022295753413,0.013211529659448428,0.9885046014237052
2014-06-06,1,0.004392406624379548,0.004699151436176788,-0.00685858761284637,0.01566972480657696,0.9873722757394114
2014-06-10,1,0.006346654246277683,0.006897634613482001,-0.008460124972945309,0.011980203726718878,0.9867866440700196
2014-06-12,1,0.002533792319893175,0.002740331535205882,-0.008460124972945309,0.011980203726718878,0.9860144889464506
2014-06-16,1,0.004098662413766414,0.004650568845222455,-0.011306757594924556,0.011980203726718878,0.9852771243471621
2014-06-18,1,0.003543934136513973,0.0038939365141706338,-0.015668392631351065,0.01566972480657696,0.9821151844919955
2014-06-20,1,0.002011022460083994,0.0021154106150071293,-0.011306757594924556,0.017345551834662847,0.9828830179509449
2014-06-24,1,0.0013919069015625445,0.0016193653809757674,-0.011306757594924556,0.0186953187796651,0.9828999581922371
2014-06-26,1,0.0040473193789141585,0.004206088040616236,-0.013612423029003756,0.01783195705338624,0.9839811825078096
2014-06-30,1,0.004572238794075934,0.004800369748076486,-0.015668392631351065,0.017018294300876483,0.9833961281297536
2014-07-02,1,0.005677045037264555,0.006194596789745087,-0.019549297503848324,0.017018294300876483,0.9817609246230593
2014-07-07,1,0.006555636835082179,0.007270022418412691,-0.019549297503848324,0.017018294300876483,0.9813922964736879
2014-07-09,1,0.005358580365831903,0.005831856404871533,-0.019039959465681527,0.017018294300876483,0.9822333058215329
2014-07-11,1,0.0034980072521469227,0.0037399468674845465,-0.015354999209735739,0.01783195705338624,0.9836089887087149
2014-07-15,1,0.002864684286646056,0.0030022734763970205,-0.014581329433240699,0.01783195705338624,0.9841836774590706
2014-07-17,1,0.002778223582939959,0.002919692147692327,-0.007893296962171382,0.017018294300876483,0.9873546111980702
2014-07-21,1,0.0033844044267527596,0.0036805694135268936,-0.011973923100174862,0.017018294300876483,0.9862737554675635
2014-07-23,1,0.004565185444760967,0.005064801438419295,-0.011973923100174862,0.0178918863963247,0.9852386262796433
2014-07-25,1,0.004002025037137268,0.004350335967937893,-0.007903980136044474,0.017110790690757674,0.9862334468245865
2014-07-29,1,0.0031971712677913945,0.003413619745299831,-0.007903980136044474,0.018423780882507835,0.9836980740203519
2014-07-31,1,0.0029218130830518775,0.0030989087872942246,-0.006229847084498909,0.019815662245738497,0.9823272274202957
2014-08-04,1,0.0025300142538289545,0.002585063799076726,-0.007739587652712356,0.019815662245738497,0.9825066260596138
2014-08-06,1,0.0020679013479024217,0.0020831133199867725,-0.007739587652712356,0.022442733246409483,0.9813546784157291
2014-08-08,1,0.0021020066009013014,0.002111175256447929,-0.006955158134646809,0.020556737005573564,0.9825614072373834
2014-08-12,1,0.0016768295664714478,0.0017443883455807118,-0.00843350458429835,0.020556737005573564,0.9817973558173884
2014-08-14,1,0.0019001327997262328,0.0019166379390055097,-0.00843350458429835,0.024829588247486635,0.9802776566173917
2014-08-18,1,0.0016445611167113711,0.001739718700670394,-0.006955158134646809,0.023751487815096933,0.9804994439835603
2014-08-20,1,0.003302112634223105,0.0034411394759458385,-0.007800309347658976,0.018823873954563124,0.9818522475140062
2014-08-22,1,0.0031485330835317486,0.003276649245608496,-0.010153229461707193,0.018823873954563124,0.9802569109389933
2014-08-26,1,0.001957986854518859,0.001961203242749752,-0.009408052464237782,0.017737982323545228,0.9832389887248426
2014-08-28,1,0.0049638983214521535,0.00538213834299257,-0.010153229461707193,0.013569096439503804,0.9851637051997506
2014-09-02,1,0.0039900396403712525,0.004278569577994608,-0.009310492367529344,0.01674958349783264,0.985818118211339
2014-09-04,1,0.004020056681711038,0.0042275868126741825,-0.009718717973227164,0.013569096439503804,0.985753627621571
2014-09-08,1,0.002346824200510392,0.0024079102901248726,-0.010153229461707193,0.01674958349783264,0.9838401623962745
2014-09-10,1,0.0013728007306112737,0.0015464129897757768,-0.012877799365984186,0.01913005656388731,0.9801890770131421
2014-09-12,1,0.002579641797776047,0.002638644275639583,-0.020840520435420565,0.014280876526445198,0.9799996565708173
2014-09-16,1,0.0032687017488306734,0.0032847074413698565,-0.022421301230925245,0.01126195926831414,0.9794576608383038
2014-09-18,1,0.003798887510197535,0.003960800196534072,-0.022421301230925245,0.014190346463370567,0.9787010933890027
2014-09-22,1,0.002768312263992956,0.002781190367173806,-0.020840520435420565,0.01913005656388731,0.9797630224099491
2014-09-24,1,0.003006444896456996,0.003049009391623495,-0.020840520435420565,0.01451901670164072,0.9804285329748481
2014-09-26,1,0.000527442732850353,0.0008618082118938007,-0.014149333082933133,0.01451901670164072,0.9815902762038085
2014-09-30,1,0.0013801896693927734,0.001602748669674553,-0.014149333082933133,0.012653333175955035,0.9820170637650968
2014-10-02,1,0.0007765174396049544,0.0010225471116559791,-0.010499729048849327,0.01451901670164072,0.9811621420976907
2014-10-06,-1,-0.0009480511769692399,-0.0005259422348215228,-0.009619602878380328,0.013419402468080112,0.9824834344784368
2014-10-08,-1,-0.0018311139680037693,-0.0012171764306444807,-0.005091131550529104,0.012653333175955035,0.9868678938368733
2014-10-10,-1,-0.00413886703763373,-0.003189537172530263,-0.0010022579704335043,0.013419402468080112,0.9861295323427003
2014-10-14,-1,-0.0033489958840725326,-0.0025966191520902723,-0.0010022579704335043,0.013419402468080112,0.9874710572925153
2014-10-16,-1,-0.0009254012357232252,-0.0005187995765103656,-0.0010022579704335043,0.011151463828680222,0.9897065166508636
2014-10-20,1,0.000335367626612857,0.0005752860398101856,-0.001995845444619496,0.009050361499439294,0.9911052191110755
2014-10-22,1,0.0009565188315965555,0.001134515435170869,-0.004127040646123399,0.009050361499439294,0.9905737082425852
2014-10-24,1,0.00019566436725612798,0.0003064381381708609,-0.004127040646123399,0.011833995687765634,0.9875688550842647
2014-10-28,-1,-0.0001466431017005757,-2.279511145359894e-05,-0.002498635723098717,0.01571398774349654,0.9864570889923606
2014-10-30,1,0.0011392817140078938,0.001197270000152342,-0.0010022579704335043,0.01571398774349654,0.9878199829783217
2014-11-03,1,0.0009289882755334736,0.0009718244313630454,-0.0026165332507543,0.012080985385925825,0.9859890219341458
2014-11-05,1,0.0014188982395827677,0.0014395732161454986,-0.006989376544938833,0.012080985385925825,0.9848448967618557
2014-11-07,1,0.0018767418458212762,0.001979614752645368,-0.011406529882942011,0.012225309708122575,0.9837670322255786
2014-11-11,1,0.0008039610370180624,0.000891632491376987,-0.011406529882942011,0.012225309708122575,0.9837879778726769
2014-11-13,1,0.001763282836882246,0.0018326046502661593,-0.011406529882942011,0.01714919801253999,0.9833945251233556
2014-11-17,1,0.002082231702354692,0.002275141864055542,-0.012503339165518775,0.01714919801253999,0.9822404161843806
2014-11-19,1,0.0026155074832046278,0.0029152733362617874,-0.012503339165518775,0.018844209568386408,0.9802793900290446
2014-11-21,1,0.004754478561447745,0.005359399691332372,-0.012503339165518775,0.01714919801253999,0.9831165629459033
2014-11-25,1,0.00513881099952228,0.005806667532154967,-0.012576062663418718,0.014588081442329363,0.9833221738126235
2014-11-28,1,0.0056357926810471455,0.006343455964261539,-0.012576062663418718,0.012237611987211301,0.983565162602214
2014-12-02,1,0.0026065580273453015,0.002804850266895306,-0.010736185179458147,0.012237611987211301,0.9858091355800134
2014-12-04,1,0.0011783346170133688,0.0011849554799377095,-0.010736185179458147,0.012237611987211301,0.9856394495512415
2014-12-08,1,0.0015496621358481609,0.001568690097208144,-0.009287189446907828,0.012237611987211301,0.9857591865772573
2014-12-10,1,0.0011925644916764757,0.0011949755971474665,-0.009287189446907828,0.014093331234218881,0.984582337950052
2014-12-12,1,0.0023715915380217696,0.0025633282226615386,-0.009287189446907828,0.014093331234218881,0.9844454093968643
2014-12-16,1,0.001224003888587848,0.0012762099003168536,-0.009287189446907828,0.016468977086479212,0.9800827732808277
2014-12-18,1,0.00468285685875266,0.005044231751173991,-0.012657157124658602,0.014093331234218881,0.9814281125627953
2014-12-22,1,0.0044772606316206,0.004731267152564531,-0.012657157124658602,0.016319112396062818,0.9808333539352595
2014-12-24,1,0.003865167773185073,0.00402040352637605,-0.009287189446907828,0.020266554391701122,0.981420205054726
2014-12-29,1,0.0035526012235748256,0.0036487753769132185,-0.010618390169555288,0.020266554391701122,0.9805142025555698
2014-12-31,1,0.0031418092095010655,0.003177008656860932,-0.015165981659965005,0.021328907174761554,0.9789039262251702
2015-01-05,1,0.0017052797188197868,0.0018638209670363806,-0.009748100819369455,0.023230882689976542,0.9790820438173654
2015-01-07,1,0.002190955030800208,0.002301049770636187,-0.008720629506599305,0.021328907174761554,0.9803672644230926
2015-01-09,1,0.0016699685450935289,0.0018196612692641988,-0.007660932688006588,0.023230882689976542,0.9803342994473708
2015-01-13,1,0.003036956719363097,0.0031246154885802013,-0.007660932688006588,0.023230882689976542,0.9803656882765365
2015-01-15,1,0.0010475844622653994,0.001221875577808901,-0.0068073411337355345,0.02371026749590506,0.9847001693811586
2015-01-20,0,-0.0003755943633221052,4.874915351626226e-05,-0.004688506438879845,0.02371026749590506,0.9864574448703631
2015-01-22,1,0.0016816458938905296,0.0017186191971338167,-0.004688506438879845,0.02371026749590506,0.9875047948766765
2015-01-26,1,0.0018142118193537038,0.0018880371215540142,-0.007443896670626921,0.011567947020273514,0.9872141445690792
2015-01-28,1,0.0013137483742283896,0.0014127907557354756,-0.006746262941782614,0.011567947020273514,0.9873276980725265
2015-01-30,1,0.0010810465017694593,0.0012158582950684566,-0.004688506438879845,0.01409490162938405,0.9886231291679766
2015-02-03,1,0.0017283696704495067,0.0017937112619105535,-0.0035038081816369045,0.014339993530256945,0.9889915033952535
2015-02-05,1,0.002263016721958255,0.002329935641502261,-0.004034159177778419,0.014339993530256945,0.9892382970653713
2015-02-09,1,0.0034344274374214496,0.0037139395343853973,-0.0025362416245856877,0.013992527096101715,0.9914228807009031
2015-02-11,1,0.004200308262283639,0.004581509814988539,-0.0025362416245856877,0.013992527096101715,0.9918008217021107
2015-02-13,1,0.004008556599823309,0.004289613450404085,-0.004034159177778419,0.013992527096101715,0.9914019500024731
2015-02-18,1,0.0038671456850785314,0.0041325142350415985,-0.0008251484302484176,0.013992527096101715,0.9916025633523112
2015-02-20,1,0.003183142802451639,0.003292116715236127,-0.004898170177117174,0.013992527096101715,0.9903724317489876
2015-02-24,1,0.002443097906839003,0.0024813269024803646,-0.0011888695323159,0.013992527096101715,0.9917249228012401
2015-02-26,1,0.0010729418369820514,0.0012418392825528503,-0.004033318697536264,0.013992527096101715,0.9895717670339389
2015-03-02,1,0.0015742402401045159,0.0017212672669903988,-0.004033318697536264,0.0064451791194939,0.9906107892307373
2015-03-04,1,0.001994188755265969,0.0021210355339392707,-0.009712153549379298,0.0032202485825545382,0.9897339434693434
2015-03-06,1,0.0009191757557077925,0.0012238961334375606,-0.009712153549379298,0.0041998649591158,0.9888206942675404
2015-03-10,1,0.00041612371104949447,0.0008156397852958101,-0.009712153549379298,0.0064451791194939,0.9885495874534619
2015-03-12,1,0.0013950281389740668,0.001574134077536604,-0.009712153549379298,0.004095678830848228,0.9886657039852861
2015-03-16,1,0.0020569005972353666,0.002123559165953766,-0.014400404083156518,0.0023429671388229796,0.9889599918360452
2015-03-18,1,0.0021560857694394218,0.002189640463397211,-0.014400404083156518,0.00180789492489314,0.9880419063530368
2015-03-20,1,0.001326794778379002,0.0014568991215911276,-0.014400404083156518,0.0023852995766506803,0.9886165301369085
2015-03-24,1,0.0008054016818139801,0.0010241990911209944,-0.014400404083156518,0.0023852995766506803,0.9882609289762458
2015-03-26,-1,-0.0006235440082592854,-0.0002965437165766805,-0.010711557836169899,0.0023852995766506803,0.9907487407362514
2015-03-30,1,2.0839914159329108e-05,0.00027383628983438627,-0.010711557836169899,0.0006265641291855356,0.9902814244145614
2015-04-01,-1,-0.0011335512694683888,-0.0007467879858886201,-0.00795237323155289,0.0006265641291855356,0.9913103466255057
2015-04-06,-1,-0.0003672226629961669,-8.455964279983951e-05,-0.00795237323155289,0.0044390828425623,0.9909113136341392
2015-04-08,-1,-0.0006588384927420493,-0.00031955194596775167,-0.00795237323155289,-0.00021363003944604867,0.9912095643404891
2015-04-10,-1,-0.00043653904041880643,-0.00013541238326211617,-0.00795237323155289,0.00522820499409365,0.989916626278895
2015-04-14,-1,-0.0011902571383080483,-0.0007911268599324261,-0.006812172513193422,0.010134736373334124,0.9904407103018388
2015-04-16,-1,-0.0015555858048479502,-0.0011518291420827122,-0.009631641533278924,0.010134736373334124,0.9886779802541332
2015-04-20,-1,-0.0008160044579649556,-0.0004699005747955192,-0.006805894533146658,0.011547965797768737,0.988533483321427
2015-04-22,-1,-0.001167460360697815,-0.0007889373289862527,-0.009030116255389667,0.011547965797768737,0.9873545900463008
2015-04-24,-1,-0.0012157843102307718,-0.0009384067550156966,-0.009030116255389667,0.013198173339689291,0.985306338339799
2015-04-28,-1,-0.0018304447451609215,-0.0014162672485899701,-0.013470198774643253,0.013566777236520047,0.9848311885470714
2015-04-30,-1,-0.0029805975014022823,-0.0023986900669945702,-0.008085413613601435,0.013790731624053566,0.9853364010653197
2015-05-04,-1,-0.0021810132528702264,-0.0017018082291383365,-0.010263978293999646,0.013566777236520047,0.9857437541453694
2015-05-06,-1,-0.0028354902866723044,-0.0022539394584000167,-0.013243572628771435,0.013566777236520047,0.9849434687041114
2015-05-08,-1,-0.0015832910864282122,-0.0011734755271763995,-0.013243572628771435,0.01028457182498789,0.9862923445255001
2015-05-12,-1,-0.002055694496909775,-0.0015505202739334832,-0.013910672580549482,0.011555683337863333,0.985910733423421
2015-05-14,-1,-0.0019521516434825774,-0.0015769222453904115,-0.010263978293999646,0.011555683337863333,0.9881828435473353
2015-05-18,-1,-0.0015232929400726082,-0.001220984705084957,-0.010263978293999646,0.009353131909303399,0.988673309325962
2015-05-20,-1,-0.002436265099792595,-0.002019200640170106,-0.009895043013762553,0.011555683337863333,0.9883652990139925
2015-05-22,-1,-0.0017708508159828844,-0.0014394235026786877,-0.0075903469224468615,0.009353131909303399,0.9913579651915185
2015-05-27,-1,-0.0018109947853639792,-0.0014701785685130898,-0.0075903469224468615,0.008091972179752355,0.9913872691594994
2015-05-29,-1,-0.0020544955576972416,-0.0016513413274262998,-0.0075903469224468615,0.00508205562172015,0.9920356849046155
2015-06-02,-1,-0.0016432479680527769,-0.0013366777573206915,-0.007975250921828226,0.0010345801217184923,0.9912547182079608
2015-06-04,-1,-0.002013373292917676,-0.0016453935249296934,-0.004487350471569777,0.0017067965439497312,0.9909285441247118
2015-06-08,-1,-0.001710954469287983,-0.001429498273896082,-0.004018389467116613,0.00508205562172015,0.9903269158705043
2015-06-10,-1,-0.004078724326041018,-0.003576835316334851,-0.004018389467116613,0.004222458362867341,0.9902979433904823
2015-06-12,-1,-0.003979161350015572,-0.003485029439924939,-0.004018389467116613,0.007769868947610206,0.9893141082548232
2015-06-16,-1,-0.003361240189063931,-0.0029779347555937774,-0.004738936291499127,0.006732639916699725,0.9895728346353622
2015-06-18,-1,-0.002519627053127668,-0.0022749535494481356,-0.004738936291499127,0.006732639916699725,0.9881531203991325
2015-06-22,-1,-0.002489271452269559,-0.0021936841159081967,-0.004738936291499127,0.006732639916699725,0.9881036606653485
2015-06-24,-1,-0.0030884788476130795,-0.0027340958017713466,-0.004738936291499127,0.008159422447742088,0.9885939816940763
2015-06-26,-1,-0.0028098576347397536,-0.002512110092268766,-0.006156960165697957,0.008159422447742088,0.9880027468776761
2015-06-30,-1,-0.0038211853617480737,-0.003419445393838684,-0.00516791689904559,0.008159422447742088,0.9892117858994942
2015-07-02,-1,-0.002719834746393081,-0.0024695166464356365,-0.00516791689904559,0.006732639916699725,0.9904143192161512
2015-07-07,-1,-0.00198842420558801,-0.0018676098141564514,-0.006156960165697957,0.005570243204522973,0.9909509983812966
2015-07-09,-1,-0.0016563013800321462,-0.001609171848272591,-0.006563522793216777,0.005570243204522973,0.9901724702377265
2015-07-13,-1,-0.001025096215062019,-0.000990130561129195,-0.010245282147995008,0.002960725997379731,0.989992026798076
2015-07-15,-1,-0.000820101641283698,-0.0007443778376816627,-0.010245282147995008,0.00548758173511178,0.9898420275311259
2015-07-17,-1,-0.0023321283726207578,-0.002191028041252022,-0.006563522793216777,0.00548758173511178,0.9914437612947024
2015-07-21,-1,-0.0024744556751342232,-0.0022974840971705466,-0.008451785812442266,0.00548758173511178,0.9911662197454449
2015-07-23,-1,-0.002033847242768474,-0.0019672881178898994,-0.010245282147995008,0.002960725997379731,0.9906521092599345
2015-07-27,-1,-0.0027829764139152753,-0.0027505567200161235,-0.010245282147995008,0.002960725997379731,0.988261460333057
2015-07-29,-1,-0.0011882339705397088,-0.001187010427331669,-0.010245282147995008,0.006380690546495809,0.9804167310193173
2015-07-31,-1,-0.0009837174612424718,-0.0009275507315553831,-0.010245282147995008,0.009380362614074572,0.9797647104699437
2015-08-04,-1,-0.0007904919539921372,-0.0006843795776720538,-0.014643203248051368,0.016009659238115873,0.9775706235375706
2015-08-06,-1,-0.0009435109492083246,-0.0008393831664218205,-0.008786829710212406,0.01827432839102089,0.9771262213519808
2015-08-10,-1,-0.0006457539446267403,-0.0004924017419365636,-0.00638681214539577,0.02303870129372838,0.9770627726587625
2015-08-12,-1,-0.0004827463402285221,-0.00032545804627885546,-0.00638681214539577,0.02303870129372838,0.9773516287174663
2015-08-14,1,0.0001742884349195022,0.00042989593511156676,-0.00638681214539577,0.01921821695776254,0.9773951583016177
2015-08-18,-1,-0.00039612010055765023,-0.00029366674143690676,-0.005463017470861649,0.01921821695776254,0.977066235872754
2015-08-20,-1,-0.0007600072801781537,-0.0006882961571121934,-0.008575444942162344,0.01921821695776254,0.9766753172297342
2015-08-24,-1,-0.002695177067875451,-0.0024923313677792896,-0.004913535524005247,0.01921821695776254,0.978681088647045
2015-08-26,1,3.0972687240119834e-05,0.0001935594215344026,-0.0056260911041384875,0.013453560220844046,0.9871273179822353
2015-08-28,1,0.00030549988657555167,0.0005126823548289387,-0.008811675220556838,0.012458185262617738,0.9866045064701493
2015-09-01,1,0.0001622627208716749,0.00036925659560239465,-0.0056260911041384875,0.01268599064673417,0.9872531578927599
2015-09-03,1,0.0006323500826692691,0.0008807076153914612,-0.0056260911041384875,0.01268599064673417,0.9881107534374101
2015-09-08,1,0.0010338360771325215,0.0013195360542973878,-0.007273163357338748,0.012441134850682909,0.9888829847927281
2015-09-10,1,0.000709972011248613,0.0009370605881829328,-0.007273163357338748,0.012441134850682909,0.9893817046129524
2015-09-14,1,0.0011711407524434849,0.0014479725724780615,-0.008428792157253274,0.0022290409243012265,0.989926646645418
2015-09-16,1,0.001198576685481291,0.001455954616922808,-0.011092668111516005,0.0008689749670805545,0.9873277536478964
2015-09-18,1,0.00038568443621636865,0.000573302656959346,-0.008428792157253274,0.0022290409243012265,0.9876086112693307
2015-09-22,-1,-0.00020198787724497004,-0.00012761608365827502,-0.006898041993657201,0.00779832619686634,0.9876813728020236
2015-09-24,0,-1.9014773548706892e-05,0.00011684019388571922,-0.008428792157253274,0.00955432545253086,0.9870559962994484
2015-09-28,-1,-0.0006790532559436919,-0.0006366161078250285,-0.008428792157253274,0.00955432545253086,0.9877892326039915
2015-09-30,1,0.0005702422274124122,0.0008189139751226698,-0.008428792157253274,0.006057458971250752,0.9893868123279019
2015-10-02,1,0.0010960028714188767,0.001425517833600562,-0.008428792157253274,0.006057458971250752,0.9889310419555039
2015-10-06,1,0.00032861619066620196,0.0004762598072575077,-0.007415319310193238,0.008858473459263551,0.9887217701292496
2015-10-08,1,0.00037822185635905993,0.0005459057749248743,-0.009236281171783552,0.00955432545253086,0.9863849488324722
2015-10-12,-1,-0.0001884364671775641,-0.0001247497126885461,-0.008597929688405061,0.0107812138582498,0.986329855556328
2015-10-14,-1,-0.0015870630371682232,-0.0014743020950633325,-0.009904078595699648,0.0107812138582498,0.9878715115515136
2015-10-16,-1,-0.0015919686724232636,-0.0014842705643562293,-0.011056220470620022,0.00955432545253086,0.9866933325367933
2015-10-20,-1,-0.0012277357207824123,-0.001200105576466332,-0.012925096807628236,0.008858473459263551,0.9857152975221228
2015-10-22,-1,-0.0012355519433649887,-0.0012174028394049104,-0.014546519410055216,0.009346383372247061,0.9848025643785392
2015-10-26,-1,-0.00033878890018156934,-0.0003357235241591917,-0.014546519410055216,0.009421298309120214,0.9846157169451585
2015-10-28,-1,-0.00043318355824510494,-0.0004128270602600836,-0.014546519410055216,0.01189428317559812,0.9833905265428277
2015-10-30,-1,-0.0001467594097376738,-0.0001396263492570669,-0.01598199257259504,0.011207063857731504,0.9833327771671737
2015-11-03,1,0.00028273490625692197,0.00034659555186781886,-0.016185979709573764,0.009931541505144218,0.9828808337522154
2015-11-05,-1,-7.064682729547936e-05,-4.581197764368084e-05,-0.014778518700742097,0.009931541505144218,0.9843751193489061
2015-11-09,1,0.0003527447559690619,0.00046161062852620975,-0.014778518700742097,0.009019653524802558,0.9845933224941606
2015-11-11,-1,-0.0002821241417195903,-0.00025898838648089496,-0.01335352372744297,0.009019653524802558,0.9853613995351901
2015-11-13,-1,-0.002440742159302802,-0.002174000106218147,-0.01335352372744297,0.009019653524802558,0.9882568947221998
2015-11-17,-1,-0.003381776064967021,-0.003009674650604614,-0.01148842498990894,0.010383665448940186,0.9886096762820072
2015-11-19,-1,-0.00424174372577087,-0.0037219215658630834,-0.01335352372744297,0.009019653524802558,0.9883694456109311
2015-11-23,-1,-0.0036912362229685235,-0.003271843373898362,-0.01335352372744297,0.010383665448940186,0.9867836353095929
2015-11-25,-1,-0.0026152493395128996,-0.002335147430536917,-0.01335352372744297,0.005894212444000015,0.9879186158069756
2015-11-30,-1,-0.0027062155295886716,-0.0024138812665444732,-0.01148842498990894,0.0053132393152716065,0.9884683334818111
2015-12-02,-1,-0.0030248166177452617,-0.0027247121016350964,-0.009066967109729528,0.0053132393152716065,0.9891078330648965
2015-12-04,-1,-0.0027722078896602795,-0.0025066117800215016,-0.007272559656024569,0.006727581115019024,0.9888025745937872
2015-12-08,-1,-0.0037595050604611177,-0.0033313842601751104,-0.009827568838241176,0.00774172161991258,0.9864272469956571
2015-12-10,-1,-0.0041622716534576235,-0.003684861351429429,-0.011443235810911988,0.010658874695867526,0.983935417412198
2015-12-14,-1,-0.004358815332365465,-0.0038677352667844094,-0.01344901806995358,0.015019961374835057,0.9823461805606736
2015-12-16,-1,-0.004110994379709812,-0.003611707125225294,-0.026346185248277757,0.015019961374835057,0.9782324981581784
2015-12-18,-1,-0.005887832726314822,-0.005175757195329854,-0.014291903284987145,0.016379984087515342,0.9765127935264992
2015-12-22,-1,-0.004514933556508054,-0.003961797639003986,-0.014291903284987145,0.016379984087515342,0.97744222226582
2015-12-24,-1,-0.004276157200612342,-0.0037399934924105586,-0.014291903284987145,0.018381524476396887,0.9764046783150929
2015-12-29,-1,-0.004502625904954958,-0.003898767868750722,-0.027814299540995423,0.018381524476396887,0.9757630899262029
2015-12-31,-1,-0.004668809876108878,-0.004054884563188365,-0.027814299540995423,0.02421695289297076,0.9729841037087066
2016-01-05,-1,-0.003616989459372992,-0.0031482885934323544,-0.027814299540995423,0.02421695289297076,0.9740473159383279
2016-01-07,-1,-0.003935543396062681,-0.003479666143125403,-0.015116052857623432,0.02421695289297076,0.9759670263254819
2016-01-11,-1,-0.004801050764050246,-0.00423759969463694,-0.01436546807470548,0.02421695289297076,0.9768759883430345
2016-01-13,-1,-0.005484885796335723,-0.0047949414706218675,-0.015716389535768385,0.023563847504659167,0.9781817697180285
2016-01-15,-1,-0.010551146847478467,-0.009187141752878616,-0.011639125120100095,0.026201597759915866,0.9781425864869437
2016-01-20,-1,-0.006591595038647629,-0.005814910202947391,-0.009575632821220353,0.024538371953747716,0.9797505220197184
2016-01-22,-1,-0.0038567314713586947,-0.003453880117273829,-0.011639125120100095,0.02398174241254701,0.9793296587537189
2016-01-26,-1,-0.002862481463819691,-0.002555229433535924,-0.011639125120100095,0.023009438902603114,0.980029253983824
2016-01-28,-1,-0.0032637830382972327,-0.002989498661539305,-0.006506423363077367,0.023587857036145403,0.9796751254526008
2016-02-01,1,0.00027147072518347295,0.0005035074528857474,-0.006506423363077367,0.02087461104741082,0.9827428926865769
2016-02-03,0,-0.00010348050323022678,6.054710135318831e-05,-0.002797216412023628,0.02087461104741082,0.9823583314533376
2016-02-05,1,0.0006100588543543221,0.000956306839966118,0.0006564578137341334,0.02324988012763439,0.9819368360183046
2016-02-09,1,0.0007289118119619643,0.0011311072244517236,0.0006564578137341334,0.02324988012763439,0.9833514080653095
2016-02-11,-1,-0.0012705519053527094,-0.0012134892572934753,0.0017348360143228914,0.02324988012763439,0.9831259241170881
2016-02-16,1,0.0031894034218971612,0.003810640344369121,-0.0031330092641242814,0.019000023872175528,0.9862522096020365
2016-02-18,1,0.005258202082852003,0.006118295472690353,-0.0031330092641242814,0.013963615416370413,0.9879426198908495
2016-02-22,1,0.00468530386851648,0.005398912297460788,-0.0031330092641242814,0.00968583947281775,0.989458929488121
2016-02-24,1,0.006999011438582826,0.008132424953985699,-0.009151665302041338,0.008069287289843304,0.9879530845583309
2016-02-26,1,0.00883851404115332,0.010256005538120765,-0.009151665302041338,0.006799094320962393,0.986720888882098
2016-03-01,1,0.009325315524754687,0.010775354971456557,-0.009151665302041338,0.006799094320962393,0.986660291111097
2016-03-03,1,0.009610457530106324,0.011090434285990047,-0.009615567063592774,0.006799094320962393,0.9851421486428764
2016-03-07,1,0.010447758256259154,0.01202670110699245,-0.010230241526292405,0.006292688107051594,0.9829374481074903
2016-03-09,1,0.008974142450605483,0.010216439904695689,-0.01183338409156324,0.006292688107051594,0.9830761565040507
2016-03-11,1,0.00863733920528104,0.009818407298590067,-0.01183338409156324,0.006647692661280383,0.9835405344175646
2016-03-15,1,0.0064400261140194655,0.007367358921908974,-0.009615567063592774,0.00880568481089681,0.9871244732853829
2016-03-17,1,0.006678590096471805,0.007625079367761478,-0.009615567063592774,0.00880568481089681,0.9867721894664252
2016-03-21,1,0.006297850012251581,0.00716052144081351,-0.007603059436990012,0.009425605064996907,0.9873952796685985
2016-03-23,1,0.005202906573261346,0.005915316391341959,-0.004815422471992451,0.009425605064996907,0.9888508681204715
2016-03-28,1,0.005224495970329447,0.005956996430612184,-0.007099518219243209,0.010387118916740977,0.9878397803717143
2016-03-30,1,0.005730626671350282,0.006576874089075835,-0.007099518219243209,0.011148768023402535,0.9875897227487966
2016-04-01,1,0.0059979143704993665,0.006832098581853284,-0.010252112469063854,0.01020491498890739,0.986685039487163
2016-04-05,1,0.005046775037411926,0.0057762177916852115,-0.009993629388935023,0.01020491498890739,0.987651172440903
2016-04-07,1,0.00320108999420241,0.0036165712498763603,-0.0076336199174388605,0.01020491498890739,0.9888331544680544
2016-04-11,1,0.0025104146236873412,0.0026617443542458603,-0.0076336199174388605,0.011142971233714336,0.9880556731633318
2016-04-13,1,0.003711149289048487,0.003924611494808655,-0.009993629388935023,0.01020491498890739,0.9880100576661465
2016-04-15,1,0.003635005452367538,0.003980295531295964,-0.011305967737851193,0.01020491498890739,0.9869557825730415
2016-04-19,1,0.0042896842897917654,0.004717580860729846,-0.011305967737851193,0.01020491498890739,0.9862914416773189
2016-04-21,1,0.004803799500492344,0.005390734197861039,-0.016682427273721108,0.011142971233714336,0.9841122695638577
2016-04-25,1,0.004116452152666577,0.004589461800353476,-0.011305967737851193,0.020541723085165726,0.9838649488152726
2016-04-27,1,0.004384161451146238,0.004809852639553241,-0.016682427273721108,0.020621943688842438,0.9789406719293878
2016-04-29,1,0.0028120959289012933,0.0030416026395969657,-0.00906033358601303,0.020621943688842438,0.9807548342647481
2016-05-03,1,0.002151747769846858,0.0022746112755110005,-0.007891185367102762,0.020621943688842438,0.9815428250636398
2016-05-05,1,0.001440394534380116,0.0014572244399211265,-0.005026449362365493,0.020621943688842438,0.981343777809448
2016-05-09,1,0.002243572846913604,0.00229004816377178,-0.00906033358601303,0.012220870937081723,0.9809785435127076
2016-05-11,1,0.0013091932357601247,0.001332062195058908,-0.00906033358601303,0.01132611149702955,0.9810039452523852
2016-05-13,-1,-0.0010152616983596986,-0.0006117800785319166,-0.009517815399209942,0.01132611149702955,0.9806602526838085
2016-05-17,1,0.0010366430798158333,0.001128650646873841,-0.009827331437575141,0.007661232869193194,0.981478711068754
2016-05-19,1,0.0009016383831778006,0.0009914995187509015,-0.0054846242278185,0.009035932160322712,0.9829496489404751
2016-05-23,1,0.0028309373741133266,0.0029935646728759743,-0.006978914150132029,0.0062331117338965975,0.9842836430233937
2016-05-25,1,0.001971516112620272,0.001989362932595326,-0.0054846242278185,0.0062331117338965975,0.9897817482620136
2016-05-27,1,0.0024418888311505457,0.002568421157717232,-0.009534410260979936,0.0062331117338965975,0.9881291904468574
2016-06-01,1,0.0018344897410115138,0.0018603627892160412,-0.009534410260979936,0.009035932160322712,0.9866673703171487
2016-06-03,1,0.0010476394406852734,0.0012203606480454226,-0.009534410260979936,0.011596987464924999,0.9860819342296648
2016-06-07,0,-0.00023756458070190323,8.507551049137107e-05,-0.009534410260979936,0.011596987464924999,0.9861123682410899
2016-06-09,-1,-0.003278016367932596,-0.0024972792903377758,-0.006645972303133,0.011739847252319614,0.9872980150534753
2016-06-13,-1,-0.004796085551462539,-0.0037990693654191415,-0.0021830791438919956,0.011739847252319614,0.9863929673744772
2016-06-15,-1,-0.004264739935389775,-0.0033960543741146086,-0.0017653168753489956,0.011760147434538315,0.9863575611323837
2016-06-17,-1,-0.0025850074006282062,-0.0019588629838883636,-0.005392685497503998,0.011760147434538315,0.9873617935622266
2016-06-21,-1,-0.003958715725650917,-0.003094227855774497,-0.005359352574197754,0.011760147434538315,0.987021722480043
2016-06-23,-1,-0.002385288904141918,-0.0018054527400048744,-0.005519808226254644,0.012452136910015048,0.9873195417523091
2016-06-27,-1,-0.004056923251533148,-0.003258430240925315,-0.0017653168753489956,0.015557519574139516,0.9863153181170382
2016-06-29,-1,-0.0028296527218816705,-0.0021618105182355306,-0.002160613995562759,0.011444687547880288,0.9885574325303743
2016-07-01,-1,-0.002190803237539696,-0.001574772862217273,-0.00393249733643021,0.010560207585055246,0.9897658331210316
2016-07-06,-1,-0.0040718729995241135,-0.0031663734394191847,-0.00393249733643021,0.011444687547880288,0.9894763463155174
2016-07-08,-1,-0.0015628720462382373,-0.0011792289076519283,-0.00393249733643021,0.012452136910015048,0.9894329733145151
2016-07-12,1,0.0006251964235311135,0.0007454495966568859,-0.004176576409363993,0.012452136910015048,0.9897091041154965
2016-07-14,1,0.000799937414390573,0.0009046714012604733,-0.003985982553782507,0.015744601201326498,0.9890229514808093
2016-07-18,1,0.000882596544290922,0.0009085867034090524,-0.003985982553782507,0.011554123492377541,0.98965511991753
2016-07-20,1,0.0015402320306163847,0.0016908997965341215,-0.0047016074129843976,0.011554123492377541,0.9885362445298483
2016-07-22,1,0.0023517936219676315,0.0026247014615329994,-0.006927519755035446,0.009778440975242438,0.9882751881252119
2016-07-26,1,0.003817650632524972,0.004293820765517159,-0.006927519755035446,0.007819788657355888,0.9846252322888681
2016-07-28,1,0.0019072267841217818,0.002368532875566898,-0.006927519755035446,0.007819788657355888,0.9847601245117404
2016-08-01,1,0.0020421713907046893,0.0025137625974507834,-0.010655920473768978,0.006967189633315811,0.9845757012255668
2016-08-03,1,0.0020434084716657473,0.00251789248883534,-0.010442300397077534,0.0065533746069856924,0.985366297218751
2016-08-05,1,0.0014817642025757973,0.0017641048867078203,-0.010442300397077534,0.005697561859123888,0.986383694206204
2016-08-09,1,0.0011221354278977995,0.0013815031735025947,-0.010442300397077534,0.0065533746069856924,0.9864810153522109
2016-08-11,1,0.0019922860135496564,0.0023663796682277614,-0.012028896284620904,0.005697561859123888,0.985275402375693
2016-08-15,1,0.0015360515212003271,0.0018066349901001402,-0.012028896284620904,0.005697561859123888,0.9856647175703033
2016-08-17,1,0.0003845820916286322,0.0005000310551031037,-0.01101058581365072,0.005697561859123888,0.9873758328631707
2016-08-19,-1,-0.0001132477318002342,-5.1354863639449814e-05,-0.0050057303593486705,0.0065533746069856924,0.9877453296943011
2016-08-23,1,0.0021568000620074876,0.0025486678684088805,-0.008991841721572344,0.005807270203776632,0.9921612790584097
2016-08-25,1,0.0017848088568661736,0.0020758388937279146,-0.01101058581365072,0.005281749208386981,0.9916064006121201
2016-08-29,1,0.000889088498599138,0.001001820360525312,-0.01121703497990505,0.0062097855020895815,0.9906644521898139
2016-08-31,1,0.0006114850570240997,0.0007042902780639464,-0.012516679963421607,0.0062097855020895815,0.9902240866393286
2016-09-02,1,0.0013326498938079153,0.0016069014664682776,-0.012516679963421607,0.008657590465857472,0.9895885806975081
2016-09-07,1,0.0013020273642614685,0.001580209501612583,-0.009411910964518117,0.006042674319089028,0.9901684489727611
2016-09-09,1,0.0003120680742877332,0.0004861585695568936,-0.005720177764487324,0.009217277933823747,0.9911899809411776
2016-09-13,1,0.0007854769798781767,0.0010239764528758252,-0.007471746318778418,0.00786345929403641,0.9911876127251569
2016-09-15,1,0.0008187037053196282,0.0010433748526443212,-0.007471746318778418,0.009344042297847898,0.98957662761059
2016-09-19,1,0.0016356782409740478,0.0020232242584040973,-0.009411910964518117,0.008714940757688583,0.9891998512714679
2016-09-21,1,0.0011549853334618457,0.0014083254163136526,-0.00849352356685317,0.00583297380570259,0.9899923404185308
2016-09-23,1,0.0007986146056846393,0.0009881104268118666,-0.005720177764487324,0.004966095033928655,0.9906637361635956
2016-09-27,1,0.0009484704924112301,0.0011523928483942372,-0.005110923535217236,0.003490935991037923,0.9918725448146434
2016-09-29,1,0.000848301003005968,0.0010924209044936915,-0.003044365012523955,0.003490935991037923,0.9920241378510557
2016-10-03,1,0.0009291015883336569,0.0011263711230828691,-0.003044365012523955,0.003531755084269388,0.9925558679409567
2016-10-05,1,0.0004691507260993815,0.0005709945347536888,-0.005343363215837214,0.003531755084269388,0.992300255508365
2016-10-07,1,0.0015787933136498168,0.0018679243100600464,-0.006436273480537691,0.0023988122646706007,0.9928132067189663
2016-10-11,1,0.0008724947732518125,0.001064610134139566,-0.006436273480537691,0.003311451979676091,0.991348870786372
2016-10-13,1,0.00263009356692865,0.003105532678771546,-0.006436273480537691,0.003531755084269388,0.9904012018132602
2016-10-17,1,0.0013477637344693897,0.0016488443665525184,-0.006436273480537691,0.004463262820204241,0.987512114787647
2016-10-19,1,0.0011695252992144265,0.0014200775544045297,-0.006436273480537691,0.00926910945004543,0.9869796149711294
2016-10-21,1,0.0014999544681492667,0.0017780714010097365,-0.007253926500077473,0.013839010360610846,0.9810947155470959
2016-10-25,1,0.001414607800694488,0.001680455634290478,-0.007253926500077473,0.019603157569659586,0.9797155227352866
2016-10-27,1,0.0003737325260676445,0.0004555781942601521,-0.007253926500077473,0.019603157569659586,0.9797469446822239
2016-10-31,-1,-0.00021971233073515525,-0.00012254717367422716,-0.007493134477455084,0.019603157569659586,0.9786012057111749
2016-11-02,-1,-0.0013806906699208503,-0.0011009490282748652,-0.007493134477455084,0.019603157569659586,0.9787629817854733
2016-11-04,-1,-0.0016313845583118757,-0.0013177089426490635,-0.006125828284393952,0.0213685129615155,0.9775903656947035
2016-11-08,-1,-0.0013596819265331824,-0.0011224504332034983,-0.002494259085474144,0.021903004971996688,0.978194883731271
2016-11-10,-1,-0.0004494678977805306,-0.0002978724031610339,-0.0056745408017334605,0.019603157569659586,0.9799362155594821
2016-11-14,-1,-0.0005550845993322526,-0.00040664569253522797,-0.004888016013496712,0.017011655148599165,0.983556623139118
2016-11-16,-1,-0.001072605205398695,-0.000805323586934527,-0.0056745408017334605,0.017011655148599165,0.983887626374315
2016-11-18,1,0.0006471555949628454,0.0006652160356939553,-0.0067380724077756885,0.009864492505510296,0.98835728004328
2016-11-22,1,0.002076768048699242,0.0022878635290851795,-0.008380915611354268,0.006729432570779937,0.9889627029771463
2016-11-25,1,0.001427700640622424,0.0015096271283942266,-0.009263435951646621,0.005229686423852877,0.9874883358078279
2016-11-29,1,0.0007779034608323957,0.0007856224273651659,-0.009263435951646621,0.002972184004500016,0.9879749798857267
2016-12-01,1,0.0007886058875659582,0.0008279305732754402,-0.00932304585628774,0.002972184004500016,0.9870871972411313
2016-12-05,1,0.0016145474702150453,0.0017681348209164617,-0.00932304585628774,0.002169269507048432,0.9870013347442835
2016-12-07,1,0.0025263897824363345,0.002797349526329986,-0.01068174085776484,0.00019225001636046196,0.9866915570617546
2016-12-09,1,0.0025079099666871214,0.0027612262503142367,-0.01068174085776484,0.0023441118086093213,0.9868383285201232
2016-12-13,1,0.00235208483800331,0.0025981102528472117,-0.011184467627729913,0.005286145348300303,0.9861076439538926
2016-12-15,1,0.002419131837237019,0.0027214156312303384,-0.011184467627729913,0.012330396276424349,0.9852519156071938
2016-12-19,1,0.0013872429089573143,0.0015530106328326358,-0.011184467627729913,0.012330396276424349,0.985719824558979
2016-12-21,1,0.0015622715654363514,0.0017596580047478686,-0.011184467627729913,0.0061130150320109974,0.9863790842470826
2016-12-23,1,7.725510900625574e-05,8.550713965576893e-05,-0.009473425591829718,0.012330396276424349,0.9874992539326015
2016-12-28,-1,-0.0005093264850590351,-0.00046426160176345113,-0.009473425591829718,0.012734079643254619,0.9861187853431453
2016-12-30,-1,-0.0017257856793216858,-0.0015150202183315514,-0.006902205583603448,0.013612665864210415,0.9857635933627813
2017-01-04,-1,-0.00041318864742039723,-0.000404060632924534,-0.006902205583603448,0.012734079643254619,0.9871255041387673
2017-01-06,-1,-0.0013505906841978462,-0.001230876925696364,-0.006902205583603448,0.012734079643254619,0.9871177080205762
2017-01-10,-1,-0.0015160699793212466,-0.0013304910023523172,-0.009228094615258503,0.011624027925392594,0.9876428721230053
2017-01-12,-1,-0.0017310937665068154,-0.00148436145033885,-0.006902205583603448,0.011624027925392594,0.9879930047644058
2017-01-17,1,0.0004317046403644944,0.0004887531882243445,-0.007086716311874279,0.011624027925392594,0.9874316864782585
2017-01-19,-1,-0.00036859282094504897,-0.00032709344893792924,-0.007086716311874279,0.012879880494696032,0.9874883920782574
2017-01-23,-1,-0.0007345230305827546,-0.0006279811173501525,-0.005647630745674788,0.014050068418534659,0.987031783679546
2017-01-25,-1,-0.0002491885714604778,-0.0001744997534565331,-0.01033055404491226,0.012879880494696032,0.9866055811213351
2017-01-27,-1,-0.0013337287427456358,-0.0011469375684505974,-0.006686353700697475,0.014522010467387964,0.9870509435794386
2017-01-31,-1,-0.00102122075381005,-0.0008887835750303892,-0.012955691402746144,0.013190042935830542,0.9841029355973492
2017-02-02,-1,-0.001795040290560496,-0.0014592907580885848,-0.012955691402746144,0.014522010467387964,0.9810872918778523
2017-02-06,-1,-0.0017793414770725774,-0.0014651122682220992,-0.012955691402746144,0.015367482584501378,0.9808182221759578
2017-02-08,-1,-0.001792529489059161,-0.0014839085524353908,-0.012955691402746144,0.015367482584501378,0.9807904551635684
2017-02-10,-1,-0.0009800960993652098,-0.0007840948959427871,-0.012955691402746144,0.014192118600369528,0.9816105070585891
2017-02-14,-1,-0.00047351915221963847,-0.00034105186094630013,-0.011021082415875447,0.013190042935830542,0.9831882484341524
2017-02-16,-1,-0.000727725071927367,-0.0005475947152890553,-0.006999280112970049,0.013471866974868347,0.9829803127806435
2017-02-21,-1,-0.00022058943075955377,-0.0001086277765610708,-0.012282079435506856,0.012496736338895373,0.9821093856527741
2017-02-23,-1,-0.0022427690225314463,-0.0018570265097422995,-0.009339313195923722,0.013471866974868347,0.9824002463923223
2017-02-27,-1,-0.0005082879818072057,-0.0003575885294860457,-0.009339313195923722,0.013018644253100238,0.9826795987574205
2017-03-01,-1,-0.004345794045062107,-0.003729954470919672,-0.004785663116161321,0.016758040098285035,0.9844602941680678
2017-03-03,-1,-0.001911949916563572,-0.0016249292480495182,-0.004556707415018836,0.016758040098285035,0.9867439896657126
2017-03-07,-1,-0.002339626553231395,-0.0019741729050641236,-0.004556707415018836,0.016758040098285035,0.9874532040720796
2017-03-09,-1,-0.001308840106148101,-0.0011310327165370978,-0.005336718442670061,0.016758040098285035,0.9879191522626767
2017-03-13,-1,-0.0015214038287800075,-0.0013015316303671403,-0.005336718442670061,0.016758040098285035,0.9873060008906587
2017-03-15,-1,-0.0018631352435645554,-0.0016053155837368292,-0.004605716025497648,0.016758040098285035,0.9873711489069019
2017-03-17,-1,-0.0008357812277494019,-0.0006931195619655881,-0.004605716025497648,0.012810444103733751,0.9890576899621552
2017-03-21,-1,-0.0024242412337549778,-0.002086051374384424,-0.00015255874512638714,0.016758040098285035,0.988959429586636
2017-03-23,-1,-0.002425850451681329,-0.0020513598336534405,0.0015026206416581395,0.016758040098285035,0.9889917611091494
2017-03-27,-1,-0.000914913078847582,-0.0007324740229177388,0.0015026206416581395,0.013257562233135926,0.9904618528401055
2017-03-29,-1,-0.00017214312173585684,-5.011552305226962e-05,0.0015026206416581395,0.010434607608001013,0.9919678866977946
2017-03-31,1,0.0005996318786313077,0.0006443291414290097,-0.002886025026783222,0.007450636552017611,0.9928111711648805
2017-04-04,0,-5.434214280071177e-05,9.674599161895109e-05,-0.00015255874512638714,0.007450636552017611,0.99319615568195
2017-04-06,1,0.00036822541795338774,0.0004603693421317453,0.00026344890167395187,0.009471610662125339,0.9926053730308406
2017-04-10,1,0.0005351046917040824,0.0005933265897636117,0.00026344890167395187,0.009471610662125339,0.9930487574961606
2017-04-12,1,0.0005066367931126248,0.0005419182109542902,0.0005844853300543539,0.009471610662125339,0.993215926764716
2017-04-17,1,0.001740320285129519,0.0019567050614864236,0.0005844853300543539,0.009471610662125339,0.9930421814022908
2017-04-19,1,0.0031675166247673615,0.003659122683996734,-0.002121548854751301,0.009471610662125339,0.9919699807682621
2017-04-21,1,0.0039273957957484396,0.004518416662125277,-0.002121548854751301,0.009471610662125339,0.9920725009596973
2017-04-25,1,0.004226022560792209,0.004805383321031871,-0.0045874359350852704,0.004650754565344984,0.9919799700925838
2017-04-27,1,0.004097807998848549,0.004633465152286022,-0.007645405251703611,0.004650754565344984,0.9864314215441438
2017-05-01,1,0.0036568467047099996,0.004226908157045592,-0.00667398564886955,0.005988229972579156,0.9858247258387713
2017-05-03,1,0.004323942191096381,0.005048882549981357,-0.00667398564886955,0.00936191033700545,0.9852499075571143
2017-05-05,1,0.004457234984664758,0.0052169761660253436,-0.005510506541624477,0.005988229972579156,0.9855450342355297
2017-05-09,1,0.004434533331333556,0.005176952137799865,-0.011972839235189452,0.00936191033700545,0.9843435144835028
2017-05-11,1,0.004312162838541798,0.005017404013836024,-0.01655582763982089,0.00936191033700545,0.9832047259105626
2017-05-15,1,0.0032110065756469214,0.0037036275547863403,-0.01659271146693897,0.012810253384962242,0.9830982462824932
2017-05-17,1,0.0029558527620701224,0.0034253363381084208,-0.016279472384228694,0.00933176122177264,0.9834791953864315
2017-05-19,1,0.002466513600721533,0.0027675696928404015,-0.016279472384228694,0.005988229972579156,0.983305284116143
2017-05-23,1,0.0020110918771899643,0.0021938788362991365,-0.016279472384228694,0.004591085880206232,0.9830463168148587
2017-05-25,1,0.003190670487979212,0.003477659181824371,-0.015981195864881854,0.002979073736758167,0.988239972522388
2017-05-30,1,0.002402802413631001,0.002619451844990378,-0.015539989478047935,0.002979073736758167,0.9896133549237432
2017-06-01,1,0.0022307146510564323,0.002373621544906229,-0.015539989478047935,0.005434689099186211,0.9896260342796763
2017-06-05,1,0.0020795560868996183,0.0022453902895359992,-0.015539989478047935,0.009098951407532462,0.9889745583963344
2017-06-07,1,0.002006321696353456,0.002172908908956381,-0.015539989478047935,0.005434689099186211,0.9888066384614483
2017-06-09,1,0.0014152421312322843,0.0015276909767918062,-0.015539989478047935,0.0080355735143048,0.986688615648178
2017-06-13,1,0.0011832435807864875,0.0012018202485485816,-0.013269088195336834,0.005236119717403811,0.9872075738600535
2017-06-15,1,0.00019610345921480853,0.00034034600727297573,-0.010606653194486866,0.009098951407532462,0.9867639415305289
2017-06-19,1,8.272378662150105e-05,0.00020240089620257584,-0.00793733475622997,0.010620700619170902,0.986802025160043
2017-06-21,-1,-0.0008427779202326235,-0.0005673746823838674,-0.00793733475622997,0.010620700619170902,0.9855138080362585
2017-06-23,-1,-0.0007056670642796639,-0.0004895058155959225,-0.00793733475622997,0.011280343951905494,0.9847610349986057
2017-06-27,-1,-0.0003331422348675186,-0.00014704304204772578,-0.00793733475622997,0.010620700619170902,0.985178691715555
2017-06-29,0,-2.6345413572383906e-07,0.00016563597826021916,-0.00793733475622997,0.011280343951905494,0.9843980713216858
2017-07-03,1,0.0009297966304234481,0.0009974129232176567,-0.00793733475622997,0.01215592173725489,0.9847300147078085
2017-07-06,1,6.651445126270938e-05,0.0002099063487841424,-0.0021984047253330767,0.01215592173725489,0.9856843641889672
2017-07-10,-1,-0.0017613818897038289,-0.0014233409206286126,0.0020815545712508914,0.012490778724854091,0.9866791877137477
2017-07-12,-1,-0.0023905869192297237,-0.0019798350898537157,0.0020815545712508914,0.012490778724854091,0.9866497231043931
2017-07-14,-1,-0.0010045340865661328,-0.0007743143479716411,-0.0021984047253330767,0.01215592173725489,0.987894012423514
2017-07-18,-1,-0.0014844343819700597,-0.0011340190051846982,-0.0023943235911132814,0.01102675935553165,0.9867014261981751
2017-07-20,-1,-0.0018373625703371212,-0.0015061898416280774,-0.0023943235911132814,0.01215592173725489,0.9869639515548934
2017-07-24,-1,-0.0030691962208876464,-0.0024535200050278014,-0.005067452576155504,0.013227990399515539,0.9862435824653841
2017-07-26,-1,-0.0015572181283664847,-0.0012104918984606745,-0.005067452576155504,0.01724432001928665,0.9860066416731748
2017-07-28,-1,-0.0006147305289068643,-0.0003708206387863811,-0.005290387520920521,0.013227990399515539,0.9877834786770591
2017-08-01,1,0.00031689775014303516,0.0004432694596431964,-0.007144350362859122,0.01007686080277892,0.9840688306125163
2017-08-03,1,0.0004638342983402946,0.0005855585274964127,-0.009254445786372219,0.01007686080277892,0.9836218970986973
2017-08-07,1,0.0010573821232925961,0.0011287385192348045,-0.009254445786372219,0.00993689954073501,0.9844292997514705
2017-08-09,1,0.0010288752188513215,0.00107084119250625,-0.009254445786372219,0.00993689954073501,0.984499429588555
2017-08-11,0,-0.00021665604723109064,2.3270279096814926e-05,-0.008704548719896957,0.00993689954073501,0.9846738090800609
2017-08-15,-1,-0.0006947490226346456,-0.00041153273114456854,-0.0057659049224123874,0.014445882707174439,0.9841394827657762
2017-08-17,1,0.00025498063039911656,0.0003864435048929711,-0.004023392959295668,0.010852632469064125,0.9858545451890469
2017-08-21,1,0.0008024553997121835,0.0008299443393442182,-0.005899551074974622,0.00864065147303031,0.9823527705378249
2017-08-23,1,0.0015711924253394897,0.0016997615338332393,-0.005899551074974622,0.00864065147303031,0.9823114304493509
2017-08-25,1,0.001240999868982542,0.0013039282619296017,-0.005092038326832015,0.00864065147303031,0.9822897755748043
2017-08-29,-1,-0.0017816341214555742,-0.0014615173212428412,-0.003355133046163237,0.010086598562574281,0.9847009076933242
2017-08-31,-1,-0.002019079981797912,-0.0016820858610321105,-0.0015006032735713436,0.010086598562574281,0.9849706881541987
2017-09-05,-1,-0.0015919799148026276,-0.0012980169584208582,-0.003355133046163237,0.008385306837533696,0.9853734054966992
2017-09-07,-1,-0.001261889975484259,-0.0010038596930273436,-0.003355133046163237,0.008385306837533696,0.9856424099165495
2017-09-11,-1,-0.0009840863923283893,-0.000785913100722592,-0.0015006032735713436,0.010215322939154925,0.9851585451345853
2017-09-13,1,0.0007392478947275123,0.0007827571721241322,-0.005036139964151687,0.006480900828869396,0.9848776607160783
2017-09-15,1,0.0009996847370678152,0.0011119504374989377,-0.006817554896097168,0.006480900828869396,0.9849173415136016
2017-09-19,-1,-0.0018424541757384883,-0.001625824551358443,-0.0037699358726922547,0.006480900828869396,0.9890418022054965
2017-09-21,-1,-0.0014246475342399015,-0.0012338770310500046,-0.0037699358726922547,0.006480900828869396,0.9897095571169666
2017-09-25,-1,-0.0012216643217360706,-0.0010604771468555702,-0.0037699358726922547,0.007022600116328767,0.9894770582823534
2017-09-27,1,0.0001356392368302482,0.00013870659586052224,-0.00508360327981867,0.0061298252832221005,0.9902304579272357
2017-09-29,1,0.00030337418009886364,0.00032713548322319604,-0.006817554896097168,0.007022600116328767,0.9891291328898575
