JNU-Tangyin/eata/results/Batch4_SP500/Batch4_SP500-CNP.csv
Date,Action,Predicted_Q25,Predicted_Q75,Actual_Q25,Actual_Q75,RL_Reward
2010-12-14,0,0.0,0.0,-0.003306014114247123,0.0025208738153871947,0.9959401424407387
2010-12-16,0,0.0,0.0,-0.003306014114247123,0.002054157066664816,0.9965848010545795
2010-12-20,0,0.0,0.0,-0.003306014114247123,0.0028674503458776556,0.9964247704584953
2010-12-22,0,0.0,0.0,-0.003306014114247123,0.0039909590022682365,0.9960174094705089
2010-12-27,-1,-0.0005159620079722365,-0.0003598236225759787,-0.003306014114247123,0.004633906768551655,0.995339905423084
2010-12-29,-1,-0.0005810702295898963,-0.000426203809435225,-0.0028511109358133144,0.004633906768551655,0.9952530262444013
2010-12-31,-1,-0.0006064040065362921,-0.0004667125005526233,-0.0028296154504473094,0.005084203907670336,0.9947882987222414
2011-01-04,-1,-0.0011397143259068974,-0.0008882491865438494,-0.003952390652126504,0.005359934069332018,0.9942979593671402
2011-01-06,-1,-0.001617230892107394,-0.001309045219033786,-0.0024848911137529774,0.005748374125457082,0.9944021712790824
2011-01-10,-1,-0.001168584869286622,-0.0009324061804099136,-0.0029917681852297327,0.006515454889531424,0.9941297575731434
2011-01-12,0,0.0,0.0,-0.0029917681852297327,0.005748374125457082,0.9944894834961716
2011-01-14,0,0.0,0.0,-0.003412049553361788,0.005748374125457082,0.993579011947272
2011-01-19,-1,-0.0013048240454587353,-0.0010435624136040079,-0.003412049553361788,0.005748374125457082,0.993601745129343
2011-01-21,0,0.0,0.0,-0.0034096910332572076,0.005178460756850261,0.9940197126568207
2011-01-25,0,0.0,0.0,-0.007459496645423806,0.004049341243052115,0.9936701773602907
2011-01-27,0,0.0,0.0,-0.007459496645423806,0.005178460756850261,0.99302289940348
2011-01-31,-1,-0.0004193227247464417,-0.0003011486214505118,-0.0078155351444978,0.005178460756850261,0.9926384917737238
2011-02-02,-1,-0.0005758366014940474,-0.0004516392431273461,-0.006476771445463672,0.006118537264059432,0.992595662990795
2011-02-04,-1,-0.00031174975024629467,-0.00022012729330698772,-0.006476771445463672,0.005696490597323516,0.9926062601781703
2011-02-08,-1,-0.0006600356687062416,-0.000499904984969857,-0.0052651543568227556,0.007928373603570953,0.9922593639836492
2011-02-10,-1,-0.0002141673882290047,-0.00015117348543885648,-0.0052651543568227556,0.007928373603570953,0.9917740345787963
2011-02-14,-1,-0.0009042376401785265,-0.000743237706513704,-0.008358786005564204,0.007928373603570953,0.9914554966985193
2011-02-16,-1,-0.00048227296905758066,-0.0004006092305723197,-0.011481930713121365,0.007928373603570953,0.9905836606549926
2011-02-18,-1,-0.0003100924405908983,-0.0002645412500895274,-0.011481930713121365,0.01048409338965568,0.984554929110428
2011-02-23,-1,-0.001523278879502535,-0.001308666503674347,-0.01116543159870044,0.01048409338965568,0.9849205489706806
2011-02-25,-1,-0.0009014624275977944,-0.0007690684774511582,-0.01116543159870044,0.01048409338965568,0.9850419126023469
2011-03-01,-1,-0.0010119942149642391,-0.000878831899169227,-0.008573082053169144,0.009059779152021021,0.985727912572132
2011-03-03,-1,-1.8006278617707874e-05,-1.3377230396882e-05,-0.008573082053169144,0.009617244198418147,0.9851953923968136
2011-03-07,-1,-0.00035654298758399625,-0.000319460356097445,-0.008573082053169144,0.011210590880382065,0.9844888474001768
2011-03-09,1,0.0004795915652608737,0.0005337671790725826,-0.01116543159870044,0.009465576008022222,0.9851877255133755
2011-03-11,1,0.0003338466501521277,0.00038885761941391815,-0.01116543159870044,0.009465576008022222,0.9854432751167804
2011-03-15,-1,-0.0002601464959651032,-0.0002462275590591668,-0.008446101074824058,0.009465576008022222,0.986191270860973
2011-03-17,-1,-0.0010532135899370464,-0.0009754398591947711,-0.0055940797304096564,0.011210590880382065,0.9859891207378249
2011-03-21,1,0.0028171316942029994,0.0032339184120985702,-0.0055940797304096564,0.009465576008022222,0.9917774432906021
2011-03-23,1,0.0024806164922077534,0.002850105132425505,-0.003815834677715008,0.011210590880382065,0.991740407559978
2011-03-25,1,0.002783275013608739,0.0032097611116579496,-0.003815834677715008,0.009745331218870812,0.9919451407255393
2011-03-29,0,0.0,0.0,-0.003815834677715008,0.009745331218870812,0.991811651947124
2011-03-31,0,0.0,0.0,-0.0016595064249230029,0.009107327647490903,0.992560642166346
2011-04-04,0,0.0,0.0,-0.0016595064249230029,0.006803271705065858,0.9933528136975949
2011-04-06,0,0.0,0.0,-0.0016595064249230029,0.006803271705065858,0.9933533293000036
2011-04-08,0,0.0,0.0,-0.0006944142872567094,0.008034797689414069,0.9931753973881658
2011-04-12,0,0.0,0.0,-0.0005435300476736285,0.009577712531398839,0.9926422970815092
2011-04-14,0,0.0,0.0,-0.0016595064249230029,0.008034797689414069,0.9928253779079923
2011-04-18,1,0.002095997803953431,0.0023166441524889764,-0.0024042553776792946,0.006803271705065858,0.9935668396592149
2011-04-20,0,0.0,0.0,-0.0024042553776792946,0.006803271705065858,0.993278032610721
2011-04-25,0,0.0,0.0,-0.004354795217805541,0.006474420746838428,0.9930928382021115
2011-04-27,0,0.0,0.0,-0.004354795217805541,0.006803271705065858,0.9926777055589645
2011-04-29,0,0.0,0.0,-0.004354795217805541,0.006074784930710855,0.9930886288533138
2011-05-03,1,0.003470334154932779,0.0038181085568026185,-0.005439022833984612,0.007376066896663937,0.9922656320894735
2011-05-05,1,0.0034654276915139443,0.003830170958033419,-0.005439022833984612,0.007376066896663937,0.9920449043593973
2011-05-09,1,0.004110198486743024,0.004584598042515935,-0.005439022833984612,0.0037952313604540312,0.9918119791858694
2011-05-11,1,0.004090226644803308,0.004533360261963307,-0.005740665613503214,0.0027654872938400604,0.9919636741406994
2011-05-13,1,0.0031451814724786117,0.003454130566326397,-0.004338595981227399,0.0027654872938400604,0.9932409493474339
2011-05-17,1,0.002684004476457175,0.0029179830937118467,-0.005347783869994151,0.0037952313604540312,0.9928082713486157
2011-05-19,1,0.0032733325190630637,0.003588530702201077,-0.005347783869994151,0.004644752920498734,0.9931158702765731
2011-05-23,1,0.00244150505390034,0.0026211064441008015,-0.004338595981227399,0.005890541000299936,0.9938746839315
2011-05-25,1,0.0027035855430777946,0.002896822037716772,-0.005347783869994151,0.005031249052392049,0.9934886705318501
2011-05-27,1,0.0027592357766626314,0.002967610709974705,-0.005347783869994151,0.007050471086718324,0.9928530692534179
2011-06-01,1,0.002468312068055849,0.0025989780375827204,-0.005030396770874399,0.006309646235335655,0.993406183978574
2011-06-03,1,0.0022247233967017106,0.0023406736779110816,-0.0010582000703802036,0.007050471086718324,0.9932471834970263
2011-06-07,1,0.001979799482586477,0.0020519145485053186,-0.0025741518267022112,0.007050471086718324,0.9931614373669214
2011-06-09,1,0.0012542928343957185,0.0012925709058796253,-0.0008839225960535256,0.007050471086718324,0.9935484437436031
2011-06-13,1,0.0010686255878643279,0.0011211493755179961,-0.0008839225960535256,0.008463578565017746,0.9924338772845016
2011-06-15,1,0.0004517086362702914,0.0005791729638809126,-0.0021472552788868093,0.008463578565017746,0.9931258615603177
2011-06-17,1,0.0011003279960388349,0.0011268422172569079,-0.0021472552788868093,0.006780682061435462,0.99356787863624
2011-06-21,1,0.00142067802941669,0.0014228684396972063,-0.0021472552788868093,0.008463578565017746,0.9924237568866485
2011-06-23,0,0.0,0.0,-0.0012449791266076187,0.008463578565017746,0.9925020626677267
2011-06-27,0,0.0,0.0,-0.0024970178307822766,0.006695140457956983,0.9929314388369661
2011-06-29,0,0.0,0.0,-0.0025365987739649383,0.005095265057186866,0.9928578026105894
2011-07-01,1,0.0030296275716543645,0.0032333006359649167,-0.0030878604223889424,0.0033141925538253177,0.9923171015838653
2011-07-06,1,0.0026699128624568004,0.0027985836551440717,-0.0054537191679452455,0.00220209177024573,0.9918306504167178
2011-07-08,1,0.001973590916736977,0.001975508014563499,-0.008575862655497653,0.004326709677787811,0.9900468328615091
2011-07-12,1,0.0010992184822241403,0.001199991946075792,-0.008575862655497653,0.004326709677787811,0.9853553473915234
2011-07-14,0,0.0,0.0,-0.008575862655497653,0.005646612228517136,0.9832337000873721
2011-07-18,-1,-0.0006226497840085686,-0.00029467442600753576,-0.011200476608265116,0.009959047332226694,0.9804187004161022
2011-07-20,0,0.0,0.0,-0.011200476608265116,0.00470789215079153,0.9812879841456232
2011-07-22,1,0.000591799560676996,0.0007908886234221912,-0.013176525182278555,0.002329152594580303,0.9797714222768749
2011-07-26,1,0.00030539403236223817,0.0005135672895227318,-0.013176525182278555,0.00470789215079153,0.9788354258950275
2011-07-28,0,0.0,0.0,-0.014568340705549828,0.008343610667926459,0.9777743822758252
2011-08-01,0,0.0,0.0,-0.014568340705549828,0.016769246940788324,0.9768764518635772
2011-08-03,0,0.0,0.0,-0.011508388281548288,0.016769246940788324,0.977177052875353
2011-08-05,0,0.0,0.0,-0.012461486499745142,0.016769246940788324,0.9782158276272926
2011-08-09,0,0.0,0.0,-0.01107363030630584,0.016769246940788324,0.9831897237583056
2011-08-11,0,0.0,0.0,-0.012698972495415042,0.016769246940788324,0.9837227993607872
2011-08-15,0,0.0,0.0,-0.01107363030630584,0.015159034352192131,0.9862225179186008
2011-08-17,1,0.0002773229516207432,0.00040428077357495396,-0.01107363030630584,0.015159034352192131,0.9867498889101376
2011-08-19,-1,-0.0014696165124566435,-0.0011668607295365174,-0.005551594781222696,0.015159034352192131,0.9879772603512462
2011-08-23,-1,-0.0004543775440468328,-0.0002908187211128494,-0.01107363030630584,0.014452039645843028,0.9875523155363998
2011-08-25,0,-9.374346403958971e-05,6.566957567393113e-06,-0.01107363030630584,0.014002815364456501,0.9870405810970229
2011-08-29,0,0.0,0.0,-0.01107363030630584,0.009483089257666522,0.9877709506135504
2011-08-31,0,0.0,0.0,-0.01107363030630584,0.013980499813985584,0.985794627960244
2011-09-02,0,0.0,0.0,-0.012741832477412831,0.013980499813985584,0.9852465883495232
2011-09-07,0,0.0,0.0,-0.008548616375011052,0.013980499813985584,0.9854205965809771
2011-09-09,0,0.0,0.0,-0.006773961957772387,0.013980499813985584,0.9860833556578248
2011-09-13,0,0.0,0.0,-0.011710017752008115,0.013980499813985584,0.9843998977892856
2011-09-15,0,0.0,0.0,-0.011710017752008115,0.013980499813985584,0.9837948565083681
2011-09-19,0,0.0,0.0,-0.011710017752008115,0.014021660024623937,0.9829587875638961
2011-09-21,0,0.0,0.0,-0.008842946173945297,0.014021660024623937,0.9845382954652063
2011-09-23,0,0.0,0.0,-0.006409822904164335,0.014021660024623937,0.9855357278278433
2011-09-27,0,0.0,0.0,-0.008842946173945297,0.01387458502727688,0.9854294177988
2011-09-29,1,0.0006914565902610304,0.0007580440140895236,-0.008842946173945297,0.013259084772053117,0.9872992048213423
2011-10-03,-1,-0.0004736944085684835,-0.0004139629265605889,-0.004290449510449799,0.013259084772053117,0.9877103430260766
2011-10-05,1,0.0003200510966702592,0.00033362257065675985,-0.008842946173945297,0.01147206136340413,0.9874796263234263
2011-10-07,1,0.00022874753460394104,0.00025486922258659105,-0.00768073571203424,0.01094548880291562,0.9884582544818361
2011-10-11,1,0.000819307961394207,0.0008929008467914988,-0.00768073571203424,0.010780315474577848,0.9905726512825754
2011-10-13,1,0.0005343534780762331,0.0005470345743617802,-0.007772339850888457,0.010780315474577848,0.9898028850426513
2011-10-17,1,0.0009043228778002397,0.0009943683311763804,-0.01063391955196724,0.010780315474577848,0.9888710035651816
2011-10-19,1,0.0013236995865440885,0.0014735973579294186,-0.01620918800386506,0.01094548880291562,0.9878124892223081
2011-10-21,1,0.002238823182719592,0.0025050330326337406,-0.01620918800386506,0.004818027550466386,0.9885232883041949
2011-10-25,0,0.0,0.0,-0.0171471807379196,0.004818027550466386,0.9884805594715672
2011-10-27,0,0.0,0.0,-0.0171471807379196,0.0019041765924572825,0.98846807419283
2011-10-31,0,0.0,0.0,-0.012939314276936698,0.0062418953193138955,0.9879504674260015
2011-11-02,0,0.0,0.0,-0.009543961642991119,0.011414036929756455,0.987768975697452
2011-11-04,0,0.0,0.0,-0.009543961642991119,0.009310090582051619,0.9875110722969408
2011-11-08,0,0.0,0.0,-0.009349440963616396,0.009310090582051619,0.9874700600550821
2011-11-10,-1,-0.0006694735008675266,-0.0005369834305645677,-0.009349440963616396,0.012885469136312,0.9870740413160708
2011-11-14,0,0.0,0.0,-0.011816548383383422,0.009407835434155978,0.9874228731708374
2011-11-16,0,0.0,0.0,-0.011816548383383422,0.009407835434155978,0.987129396469984
2011-11-18,0,0.0,0.0,-0.011816548383383422,0.009407835434155978,0.9867468090390573
2011-11-22,0,0.0,0.0,-0.009349440963616396,0.014414946591959573,0.9862398069496783
2011-11-25,0,0.0,0.0,-0.0068290464484035245,0.015826070776991556,0.9859141098366262
2011-11-29,-1,-0.0004948562881412868,-0.000361725917291952,-0.00731631035015252,0.012986353116533483,0.9870237768342143
2011-12-01,0,0.0,0.0,-0.007336754600649038,0.009186926999344116,0.9884862476187665
2011-12-05,-1,-0.00011349932988065963,-5.5310715812020264e-05,-0.0076790987814937955,0.009146636120384386,0.9886018741101927
2011-12-07,0,0.0,0.0,-0.010552846344831958,0.009146636120384386,0.9884751760364162
2011-12-09,0,0.0,0.0,-0.00819952764247468,0.00811994949073337,0.989673628027016
2011-12-13,-1,-0.0002199873887602854,-0.00021865661481110165,-0.007781109202113437,0.00811994949073337,0.990260696696182
2011-12-15,-1,-0.00028728978688407773,-0.00026641448006346877,-0.007093861497885295,0.006736289393023079,0.9920042267734425
2011-12-19,-1,-0.0006584248573309574,-0.0005719007911018112,-0.00869416743851801,0.005362574248916336,0.9909022698240542
2011-12-21,1,0.00022661078880049676,0.00023138880357926044,-0.00869416743851801,0.003343777893862434,0.9912433460424542
2011-12-23,1,0.0005884428415697799,0.0006260047806404861,-0.008886402265811697,0.00231513653462036,0.9914613768953051
2011-12-28,-1,-0.0003781760803673814,-0.00024204963059977253,-0.010407600351587267,0.000902737129888846,0.9910779260358903
2011-12-30,-1,-0.00045913151489545043,-0.0003140401951299684,-0.010407600351587267,0.0030799753025909475,0.990920672230614
2012-01-04,-1,-0.00036782663333115946,-0.0002846232245767728,-0.010390150150491936,0.006297604053750885,0.9907584843574367
2012-01-06,-1,-0.00031482175444586414,-0.00027291516531360014,-0.008886402265811697,0.007199952031489003,0.9903227049270628
2012-01-10,-1,-0.0007131408334395959,-0.0005951009312388425,-0.008886402265811697,0.006297604053750885,0.9908307198677088
2012-01-12,-1,-0.0018123709333113533,-0.0015184059613998463,-0.0065041217701348915,0.006297604053750885,0.9915302126816247
2012-01-17,-1,-0.0011494504710409421,-0.0009869204344923486,-0.008886402265811697,0.006297604053750885,0.9911196885898118
2012-01-19,-1,-0.0025120440753081856,-0.002171477064049881,-0.005471555230872951,0.007199952031489003,0.9921074878657474
2012-01-23,-1,-0.0011750650378129952,-0.0010423010605639586,-0.005471555230872951,0.006944451721457781,0.9929035941764477
2012-01-25,-1,-0.0007980552866514753,-0.0007166280007410237,-0.005471555230872951,0.00624965939519989,0.9931830908826493
2012-01-27,-1,-0.002101112294642195,-0.0018323415424742852,-0.0033234819631613143,0.00624965939519989,0.9938231371394028
2012-01-31,-1,-0.0013928608835517917,-0.0012281262509310671,-0.005357651925082078,0.00571987979040354,0.9918511096568311
2012-02-02,-1,-0.0015334049893871529,-0.001338051613031543,-0.005484492831169416,0.00571987979040354,0.9919295441209537
2012-02-06,-1,-0.0007491552551583236,-0.0006798764430149282,-0.006944527261360041,0.004118529707427356,0.9920788492893391
2012-02-08,-1,-0.0006083397822248381,-0.0005461634998242914,-0.006944527261360041,0.006750655600359768,0.9917106271988503
2012-02-10,-1,-0.00034180553015442355,-0.0003257155309286017,-0.007885712500058642,0.006750655600359768,0.99129010911226
2012-02-14,-1,-0.0014858036879428437,-0.0012729232321164285,-0.007885712500058642,0.006750655600359768,0.9910019415557949
2012-02-16,-1,-0.0011229683675232265,-0.0009600781254779738,-0.007912993421447452,0.005968312639544769,0.9910686593258126
2012-02-21,-1,-0.001052414825340284,-0.000895886938905322,-0.007912993421447452,0.005968312639544769,0.9905960192108387
2012-02-23,-1,-0.0005000738893195758,-0.00046018778284979647,-0.007777069957336079,0.006750655600359768,0.9905193602441903
2012-02-27,0,0.0,0.0,-0.0070547036825337715,0.007284017214329255,0.9905170029651216
2012-02-29,0,0.0,0.0,-0.007777069957336079,0.006750655600359768,0.9922982582641952
2012-03-02,1,2.2539526637124692e-05,4.1113419566230436e-05,-0.007777069957336079,0.007310410859902747,0.9916711809387333
2012-03-06,-1,-0.0008693021764192325,-0.0007398366360873859,-0.0035915468878854446,0.007926568881172566,0.9919174640089415
2012-03-08,0,0.0,0.0,-0.0070637973229967085,0.007926568881172566,0.9920872061025462
2012-03-12,0,0.0,0.0,-0.0070637973229967085,0.007926568881172566,0.9915345243501047
2012-03-14,0,0.0,0.0,-0.006691416809623547,0.008995330258930425,0.9921062404721611
2012-03-16,0,0.0,0.0,-0.005167072222505262,0.008995330258930425,0.9920809680927123
2012-03-20,0,0.0,0.0,-0.005167072222505262,0.008432816794341639,0.9921503328391663
2012-03-22,0,0.0,0.0,-0.005167072222505262,0.008541577071471143,0.9921044006416362
2012-03-26,0,0.0,0.0,-0.007040566455523499,0.0085585961097861,0.9913211525653566
2012-03-28,0,0.0,0.0,-0.005167072222505262,0.009474403425885743,0.9915757485522645
2012-03-30,0,0.0,0.0,-0.005167072222505262,0.008643312292093076,0.9920900205991723
2012-04-03,1,0.0,0.0019201705890435042,-0.007040566455523499,0.009787244303388239,0.992189227545879
2012-04-05,1,0.0007424450661723328,0.0008655723474667012,-0.007040566455523499,0.009991368197386462,0.9904714589856153
2012-04-10,0,0.0,0.0,-0.0054996894395931435,0.009991368197386462,0.9910717962159331
2012-04-12,0,0.0,0.0,-0.006519857382990397,0.010143294426801994,0.9900991560573499
2012-04-16,1,0.0006412816655637436,0.000748259033107845,-0.007923858809940591,0.010143294426801994,0.9904060809792992
2012-04-18,1,0.00023165455437152048,0.0002436763425386401,-0.007923858809940591,0.010143294426801994,0.9900581173812892
2012-04-20,1,0.00027663406401401717,0.0002912054088332217,-0.009765394212416324,0.009815291205641764,0.9895568518502118
2012-04-24,1,0.0008095623197019395,0.000921818048511847,-0.008357665913876246,0.009815291205641764,0.9900021386213549
2012-04-26,1,0.001516166960652433,0.0017424988769163788,-0.008357665913876246,0.009704979146938002,0.9900355337255158
2012-04-30,1,0.0021375241280496868,0.002443220221406082,-0.008357665913876246,0.008434616450940027,0.9903835463776911
2012-05-02,1,0.001826989194684636,0.002092591754490198,-0.008357665913876246,0.008434616450940027,0.9907463435951511
2012-05-04,1,0.0019020766141345825,0.0021840869108619774,-0.00949645270391842,0.007629643709055332,0.991073115494317
2012-05-08,1,0.0010241925014392692,0.0011274456243443873,-0.00949645270391842,0.008434616450940027,0.9908652934441562
2012-05-10,1,0.0014211380033633076,0.0015777262393235493,-0.00949645270391842,0.008148431271917092,0.991921002491728
2012-05-14,0,0.0,0.0,-0.009783144475040997,0.008148431271917092,0.9911865277533394
2012-05-16,0,0.0,0.0,-0.00949645270391842,0.007700631581478112,0.9920032689189138
2012-05-18,0,0.0,0.0,-0.001376360179218224,0.008148431271917092,0.9922703571727846
2012-05-22,0,0.0,0.0,-0.005577643275336478,0.007700631581478112,0.9928612086926716
2012-05-24,0,0.0,0.0,-0.006724238954681191,0.007669707168180912,0.992181136860264
2012-05-29,0,0.0,0.0,-0.006724238954681191,0.007669707168180912,0.9925267419623565
2012-05-31,0,0.0,0.0,-0.0036609324092258715,0.007669707168180912,0.9927804760537263
2012-06-04,0,0.0,0.0,-0.00012142094229881045,0.007669707168180912,0.99354923194779
2012-06-06,0,0.0,0.0,-0.0035370398201325856,0.0058001656669497545,0.9937527391598708
2012-06-08,0,0.0,0.0,-0.0035370398201325856,0.005386967989054367,0.9940743483232184
2012-06-12,0,0.0,0.0,-0.0033067295320219235,0.004999078160818302,0.9946621222499877
2012-06-14,1,0.0008875603477777372,0.0009203073426161042,-0.0033067295320219235,0.005364513881218846,0.9939573710129888
2012-06-18,1,0.0012839178926975841,0.0013693271079067192,-0.004607749730022094,0.004995124735206662,0.9936984347440891
2012-06-20,1,0.0004691647312973478,0.0005333252919912952,-0.0033067295320219235,0.005364513881218846,0.9936196627159677
2012-06-22,1,0.0003198972998754824,0.00038022292076082907,-0.0033067295320219235,0.005364513881218846,0.9939760294807871
2012-06-26,1,0.0001831419983409667,0.0002590600078924277,-0.004607749730022094,0.005364513881218846,0.9930917170950138
2012-06-28,1,0.0008629577675389291,0.0008778362210759028,-0.004607749730022094,0.005835183639945729,0.9925137115570464
2012-07-02,1,0.0009939116010592966,0.001035156988702,-0.0055077653400409324,0.005835183639945729,0.9923836605001551
2012-07-05,1,0.0004970942407443258,0.000519010077997372,-0.004816834475708945,0.005835183639945729,0.9925529068796296
2012-07-09,1,0.000289345393194036,0.0003607331494618589,-0.005078191881190923,0.008157269549368431,0.9918546649122395
2012-07-11,1,0.0002992073398219294,0.0003560410342584098,-0.005078191881190923,0.008157269549368431,0.9919722554581688
2012-07-13,1,0.0010050370521405873,0.0010383653655915515,-0.005086586913878073,0.005426036008197153,0.9925797764710045
2012-07-17,1,0.0005593482303497073,0.0005933576467704032,-0.006500598152312341,0.00430170219066904,0.9922443647544827
2012-07-19,1,0.00041489653938768794,0.00048591521774918583,-0.006500598152312341,0.003328169217718953,0.9923550737606363
2012-07-23,1,0.0012002574492778401,0.001314090954587655,-0.006500598152312341,0.003328169217718953,0.9921690078847376
2012-07-25,1,0.0006493703788062325,0.0006849768366860374,-0.005086586913878073,0.003328169217718953,0.9931857635243335
2012-07-27,1,0.001143490138831484,0.0012059197307895029,-0.006318627236966318,0.0008317453870992469,0.9938206315284737
2012-07-31,1,0.0010141835862566674,0.0010814733388390474,-0.005270194573742907,0.003486940530562118,0.9937225834319224
2012-08-02,1,0.000667573743422213,0.0006820008046203234,-0.00472871432678312,0.003486940530562118,0.9941568791667454
2012-08-06,1,0.0005997721112244998,0.0006193895529274368,-0.005136665660138091,0.003486940530562118,0.9943003884653073
2012-08-08,1,0.0006027960481333854,0.0006294649984956017,-0.005136665660138091,0.004675094944864828,0.9936992768586186
2012-08-10,1,0.0005735640476572254,0.0005943336230449307,-0.004874916706730002,0.004675094944864828,0.9939048014298127
2012-08-14,-1,-0.00014688887448447444,-5.0210023811393255e-05,-0.0032835971553790816,0.004675094944864828,0.9948533860394215
2012-08-16,-1,-0.00027344466712263553,-0.00017196668300328052,-0.0031344358441324424,0.006854446044411801,0.9940301728714512
2012-08-20,-1,-0.0005256474098902111,-0.0003684452653245835,-0.0031344358441324424,0.004675094944864828,0.9944396407462427
2012-08-22,-1,-0.00021532615291376884,-0.0001406633713370273,-0.003924811949581242,0.006854446044411801,0.9939199869524422
2012-08-24,-1,-0.000205146570652466,-0.00013571039895888187,-0.0031344358441324424,0.0074419035207719635,0.9934455735121154
2012-08-28,-1,-9.319961380104634e-05,-1.3728911948824332e-05,-0.0031344358441324424,0.0074419035207719635,0.9937581024810624
2012-08-30,-1,-0.0007866718643099948,-0.0005845173607610291,-0.003924811949581242,0.0074419035207719635,0.9935997329533133
2012-09-04,-1,-0.0003259929860536863,-0.0001987295924358014,-0.003924811949581242,0.006389449111887134,0.9940326025579119
2012-09-06,1,0.00014268696958827883,0.0002168386407765331,-0.003924811949581242,0.006389449111887134,0.9941064598364462
2012-09-10,-1,-0.00021061870018692622,-8.697707049808102e-05,-0.004405892988869817,0.006389449111887134,0.994046622426133
2012-09-12,-1,-0.0004294651117285964,-0.0002946920956410934,-0.003924811949581242,0.006389449111887134,0.994297654874692
2012-09-14,0,0.0,0.0,-0.004405892988869817,0.003299618619710198,0.9950350876680024
2012-09-18,0,0.0,0.0,-0.003539067199992005,0.006389449111887134,0.9948519437503245
2012-09-20,1,0.00015425191700477604,0.00020096774417326536,-0.0028882318957499614,0.006591896510562097,0.9945787735049342
2012-09-24,0,0.0,0.0,-0.0047784569617100635,0.001992931356525552,0.9945316473786084
2012-09-26,0,0.0,0.0,-0.005623349517923913,0.001992931356525552,0.9942492567141685
2012-09-28,0,0.0,0.0,-0.0047784569617100635,0.003904095415392362,0.9937785927462797
2012-10-02,1,0.0007072969390868791,0.0007620600267036154,-0.0036201089203556267,0.005486001582544428,0.9935792406176435
2012-10-04,0,0.0,0.0,-0.005848154201250825,0.003904095415392362,0.9935479380533551
2012-10-08,1,0.0007136900986443739,0.0007380081958023205,-0.007904277078830128,0.004443997199078797,0.9915152302279938
2012-10-10,0,0.0,0.0,-0.009253720122752227,0.004443997199078797,0.9907002569824801
2012-10-12,0,0.0,0.0,-0.009542274768813294,0.004443997199078797,0.9905584810100116
2012-10-16,0,0.0,0.0,-0.011667765784181312,0.003904095415392362,0.9892174772065035
2012-10-18,1,0.0011089812029577702,0.0011957669064934751,-0.011667765784181312,0.003904095415392362,0.9881612487998677
2012-10-22,1,0.0002632393133927749,0.0002906074076929312,-0.010569290891694502,0.003904095415392362,0.9891864977932079
2012-10-24,-1,-0.0006158284422282547,-0.000437002659306588,-0.010569290891694502,0.004443997199078797,0.9892018370035366
2012-10-26,1,0.0004551764791184321,0.0004744437193299223,-0.010569290891694502,0.003709529130346403,0.9892879094190552
2012-11-01,1,0.0011382994615262516,0.0012313957866002725,-0.010569290891694502,0.0015267845593716503,0.9894633302839
2012-11-05,1,0.0002761322222887631,0.0003068859726651774,-0.010569290891694502,0.0019073102039585295,0.9902585357180312
2012-11-07,-1,-0.001335318841377817,-0.0011259326294630872,-0.009994140530349102,0.0019073102039585295,0.9919527915909017
2012-11-09,-1,-0.001957712433791193,-0.0017059388366732564,-0.003969183629505707,0.0033087297636238432,0.9926415066149717
2012-11-13,-1,-0.002487757683748032,-0.0021623747453741343,-0.003033827125951373,0.0033087297636238432,0.9929933282930327
2012-11-15,-1,-0.0047098536595811405,-0.004100139803663931,-0.002307371007022882,0.0033087297636238432,0.9932155488811575
2012-11-19,-1,-0.0041055301692554695,-0.0035625805712860715,-0.002024180448854802,0.0033087297636238432,0.9942613495684111
2012-11-21,-1,-0.003773287918468858,-0.003306753090902849,-0.002188230253512991,0.0033087297636238432,0.9943399813679183
2012-11-26,-1,-0.002888189269547524,-0.0025421846132152592,-0.0031582927256306507,0.003035013694047476,0.9954089425200247
2012-11-28,0,0.0,0.0,-0.0047811824020910195,0.0011400363088631658,0.9949674238756917
2012-11-30,0,0.0,0.0,-0.0047811824020910195,0.0018964631168130273,0.9943119539539552
2012-12-04,0,0.0,0.0,-0.0037433074470302912,0.0033016210155101975,0.9936115232382755
2012-12-06,0,-0.001501474306864795,0.0,-0.005153575888273585,0.0033016210155101975,0.99420186274793
2012-12-10,0,0.0,0.0,-0.006991674393697178,0.004072004972024253,0.993005026822687
2012-12-12,0,0.0,0.0,-0.006991674393697178,0.0074959942090313545,0.9922553859549978
2012-12-14,0,0.0,0.0,-0.006970560354428062,0.008745540517584232,0.991863568064841
2012-12-18,0,0.0,0.0,-0.007230304211872851,0.007598927932789112,0.9920695050507777
2012-12-20,0,0.0,0.0,-0.006719288713624156,0.008632219503389684,0.9919496582711614
2012-12-24,0,0.0,0.0,-0.004794608922385634,0.008632219503389684,0.9923837342767897
2012-12-27,-1,-0.0027455327012505812,-0.002453987722213968,-0.0029522408751471987,0.008632219503389684,0.9921247134117018
2012-12-31,-1,-0.0018604355237250205,-0.0016926114150218937,-0.0020982054494821274,0.008632219503389684,0.992367695974007
2013-01-03,-1,-0.0009540894086951934,-0.0009011010566822813,-0.0035434826706579547,0.007458220537633172,0.9934195991434586
2013-01-07,-1,-0.0010963573863701725,-0.0010252728663347871,-0.0019676771446486014,0.007237322192889806,0.9938823994201917
2013-01-09,-1,-0.0013826162625916844,-0.0012287953054974062,-0.001465792993269873,0.0062803423821351356,0.9940726146509171
2013-01-11,-1,-0.0008048533488625694,-0.0007036478119665935,-0.001465792993269873,0.0056113667016825155,0.9950577972914878
2013-01-15,-1,-0.0005795468575576955,-0.0005125501863034001,-0.001465792993269873,0.0056113667016825155,0.9950043001461483
2013-01-17,-1,-0.0011570505877874673,-0.001011622573563336,-0.001465792993269873,0.0056113667016825155,0.9944010918621611
2013-01-22,-1,-0.0004751234663896523,-0.00040665770688128673,-0.001465792993269873,0.005459011128131908,0.9945130290267724
2013-01-24,-1,-2.2376571358263325e-05,-6.768689422581815e-06,-0.0014517525186497238,0.005956619058469836,0.9942188112318904
2013-01-28,-1,-7.215647886275921e-05,-7.07303207078145e-05,-0.0014517525186497238,0.006365396472392022,0.9932834715182361
2013-01-30,1,0.000486433550786413,0.0005768685907058351,-0.0014517525186497238,0.007307430291078734,0.9924970380637288
2013-02-01,1,0.0009235560505094328,0.0011109032005270345,-0.0010965583045137212,0.007307430291078734,0.9926892238161207
2013-02-05,1,0.001024272166069264,0.0012105455624576264,-0.0010965583045137212,0.008894908301842756,0.9923103418474292
2013-02-07,1,0.001220889696103193,0.0014075857465915415,-0.002008214974596785,0.008904040821715954,0.9921055017282818
2013-02-11,1,0.0015858181579470863,0.0018590113424605743,-0.003667226371074625,0.008904040821715954,0.992021852822585
2013-02-13,1,0.0011371235425376221,0.0013285945642464235,-0.0020023122790082263,0.008904040821715954,0.9925584840804482
2013-02-15,1,0.00025186404728998895,0.00030951987386262236,-0.0020023122790082263,0.00930301660887066,0.9890484965686166
2013-02-20,1,0.0007460823159034951,0.0008912179896485416,-0.003667226371074625,0.008943257726183974,0.9892480840595849
2013-02-22,1,0.0009588800647959458,0.001137057239886388,-0.003667226371074625,0.008943257726183974,0.9892265669703424
2013-02-26,1,0.0007626300361605583,0.0009096806761999482,-0.0019441610112675973,0.009490454250614445,0.989736399318455
2013-02-28,1,0.0013033672767166673,0.0015144653951227672,-0.003441644299062717,0.009013044654523697,0.9906946489553162
2013-03-04,1,0.0015567510865293504,0.0018148476060648106,-0.003667226371074625,0.009013044654523697,0.9903971264745972
2013-03-06,1,0.001529172483795035,0.0017800420760886815,-0.003667226371074625,0.008800490767847849,0.9903039457184277
2013-03-08,1,0.001521724892953754,0.001762196019943853,-0.003441644299062717,0.00849640223584255,0.9903570708725478
2013-03-12,0,0.0,0.0,-0.003876533180926754,0.00849640223584255,0.9899149301060357
2013-03-14,0,0.0,0.0,-0.0055651692821237575,0.00849640223584255,0.9895184228813555
2013-03-18,0,0.0,0.0,-0.0055651692821237575,0.00849640223584255,0.9919235155603799
2013-03-20,0,0.0,0.0,-0.005720106955689642,0.00849640223584255,0.9916105202306007
2013-03-22,1,0.0013907910850649943,0.0016970851952666098,-0.005720106955689642,0.00849640223584255,0.9913977547880067
2013-03-26,1,0.0022417388735864936,0.002699042074628326,-0.005720106955689642,0.007504088704909314,0.9918839961433329
2013-03-28,1,0.0027635605296439866,0.0033114264830273153,-0.005720106955689642,0.00711121930066321,0.9923137385536943
2013-04-02,1,0.0024266254473732426,0.00289186542691848,-0.00507843857410345,0.007504088704909314,0.9923411985668209
2013-04-04,1,0.0017043385978299337,0.0019946963216498003,-0.0061048989429383915,0.00711121930066321,0.9918168661685296
2013-04-08,1,0.0013508719202614066,0.0015457227837303573,-0.006984390929671773,0.00711121930066321,0.991592570537262
2013-04-10,1,0.0011675471737173204,0.0013183789605993453,-0.006984390929671773,0.007477234040557045,0.9914346301235133
2013-04-12,1,3.849435927876443e-05,0.00011507662231255691,-0.006565446539949284,0.007477234040557045,0.9915786904888825
2013-04-16,-1,-0.00011750046600139853,-4.27669123643243e-05,-0.005667923197155728,0.00711121930066321,0.9929601126727078
2013-04-18,-1,-0.00048483435650246884,-0.00036149960597468134,-0.005667923197155728,0.007375891674056723,0.9926875426272616
2013-04-22,1,0.00011295337552045185,0.00014288165654461607,-0.005667923197155728,0.007375891674056723,0.9932871933810835
2013-04-24,1,0.0005026363111172835,0.0005265660123999105,-0.006565446539949284,0.006961772142501085,0.9921559657534823
2013-04-26,1,0.0005956541338661476,0.0006164328432845876,-0.006984390929671773,0.006961772142501085,0.9916728645897792
2013-04-30,1,0.001029243268327418,0.0010921439429968606,-0.009306066660072252,0.0049996555844637695,0.9912429818336502
2013-05-02,1,0.0003764794323570903,0.00037671489066119594,-0.006565446539949284,0.005527205860439715,0.9920809893508014
2013-05-06,1,0.00041586393964766896,0.0004254205112567251,-0.005779031078031378,0.0049996555844637695,0.9925795265047015
2013-05-08,1,0.00033161311439688766,0.00034240843015778086,-0.006950981121387133,0.0049996555844637695,0.9921183923424202
2013-05-10,1,7.599256401389102e-05,0.00013425380933990724,-0.006950981121387133,0.005527205860439715,0.9920384141327528
2013-05-14,1,0.0001662911262484475,0.0001933569372651811,-0.009563572638264477,0.005527205860439715,0.9918140521704107
2013-05-16,-1,-0.0002876405922406042,-0.00018574855850799334,-0.006388655168051647,0.005527205860439715,0.9917468576646488
2013-05-20,-1,-0.0003595339821274075,-0.00020986402269768513,-0.007627731815988028,0.005171716224537576,0.9916207199980861
2013-05-22,-1,-0.0017108399982292636,-0.0013692638302547086,-0.009563572638264477,0.005171716224537576,0.9909190191557209
2013-05-24,-1,-0.001697392201340881,-0.0013661845092055149,-0.007627731815988028,0.005877968638052565,0.9908869672752406
2013-05-29,0,0.0,0.0,-0.006405809988809417,0.010069018617648032,0.990105060409677
2013-05-31,0,0.0,0.0,-0.006405809988809417,0.010069018617648032,0.9900880031765853
2013-06-04,0,0.0,0.0,-0.007627731815988028,0.010069018617648032,0.9894826227121507
2013-06-06,0,0.0,0.0,-0.006405809988809417,0.008608306682641627,0.990447240907591
2013-06-10,0,0.0,0.0,-0.006405809988809417,0.008608306682641627,0.9900975647475034
2013-06-12,0,0.0,0.0,-0.004416248474397645,0.010285033507929652,0.9896215663417197
2013-06-14,0,0.0,0.0,-0.004416248474397645,0.00986945172371781,0.9903131060527586
2013-06-18,0,0.0,0.0,-0.004197454629539441,0.00986945172371781,0.9905768135211807
2013-06-20,0,0.0,0.0,-0.0024895126328919343,0.010285033507929652,0.9922969468805288
2013-06-24,0,0.0,0.0,-0.0021387835946926636,0.00986945172371781,0.9926705024605671
2013-06-26,0,0.0,0.0,-0.002785772359166089,0.008574911306068151,0.9929618913463659
2013-06-28,-1,-0.0007501652376319652,-0.0007152916139643412,-0.0038889827661442214,0.008561559760918705,0.9927922013496596
2013-07-02,0,0.0,0.0,-0.002785772359166089,0.008561559760918705,0.9933501206412444
2013-07-05,0,0.0,0.0,-0.0021387835946926636,0.010035511722732465,0.9928081144085709
2013-07-09,0,0.0,0.0,-0.0028367956515464097,0.008561559760918705,0.9927802259666608
2013-07-11,0,0.0,0.0,-0.004350524506680404,0.006898384776986383,0.9932643973900839
2013-07-15,-1,-0.001088384748258148,-0.0010501178355301329,-0.005418050049685477,0.004960148870424324,0.9936141004342702
2013-07-17,-1,-0.0009372729021818252,-0.0008710082714705689,-0.005840752530511242,0.004960148870424324,0.992807428455337
2013-07-19,-1,-0.0009299509921109508,-0.0008709904502337007,-0.006069504861869247,0.0023334483836203405,0.9928767951739964
2013-07-23,-1,-0.0007265811454739858,-0.0006183916571799975,-0.00730693395387662,0.0023334483836203405,0.9920060162216222
2013-07-25,0,0.0,0.0,-0.00730693395387662,0.000732938558094018,0.9922196326163445
2013-07-29,0,0.0,0.0,-0.00852279951298102,0.000732938558094018,0.9920116017451838
2013-07-31,0,0.0,0.0,-0.00852279951298102,0.0017642595227034166,0.9919018392654045
2013-08-02,0,0.0,0.0,-0.00852279951298102,0.000732938558094018,0.9920993547829252
2013-08-06,0,0.0,0.0,-0.0075025735236744105,0.0008698215286612962,0.9924858973573419
2013-08-08,0,0.0,0.0,-0.0075025735236744105,0.0021803820788546305,0.992453617682595
2013-08-12,0,0.0,0.0,-0.0075025735236744105,0.004668347140507659,0.992394745617417
2013-08-14,0,0.0,0.0,-0.0075025735236744105,0.004668347140507659,0.9929878760750146
2013-08-16,0,0.0,0.0,-0.007413871523393272,0.004668347140507659,0.9936793253517513
2013-08-20,0,-0.0007875134606441505,0.0,-0.006702654980397608,0.0069467011039148225,0.9922917072693563
2013-08-22,-1,-0.001365432339310485,-0.001206235076943719,-0.006702654980397608,0.0069467011039148225,0.9917671451884771
2013-08-26,0,0.0,0.0,-0.006702654980397608,0.00707564005062379,0.9914545219697946
2013-08-28,0,0.0,0.0,-0.006702654980397608,0.004799549645372469,0.9916571004993248
2013-08-30,-1,-0.001150597839440382,-0.0010318083751436368,-0.0068347831485524955,0.004799549645372469,0.9917525620292744
2013-09-04,-1,-0.0011255624239662303,-0.001003543447066947,-0.004745600403232361,0.009115526606182268,0.9914849154707774
2013-09-06,-1,-0.0014497743218401223,-0.0012828108361040398,-0.004745600403232361,0.009185275917463945,0.9902506604917635
2013-09-10,-1,-0.0010072979219872074,-0.0008826571504476676,-0.007249349425997912,0.009115526606182268,0.9906242069180193
2013-09-12,-1,-0.0011132953504086472,-0.0009981686169009414,-0.004745600403232361,0.009606708590792974,0.9900385225475099
2013-09-16,-1,-0.0009624969755963042,-0.0008792661951703679,-0.004745600403232361,0.009606708590792974,0.9898139009829805
2013-09-18,1,0.0012625297148975765,0.0014686107229788712,-0.007249349425997912,0.009115526606182268,0.9916445425667639
2013-09-20,1,0.0010115151131446518,0.0012223282886343534,-0.004091554388436102,0.009606708590792974,0.9917212332280568
2013-09-24,1,0.0008095796209249368,0.0009468313588628255,-0.002343463942792663,0.009115526606182268,0.9925654401909613
2013-09-26,1,0.0009510259553531075,0.0011118637388682292,-0.002633694472429539,0.009115526606182268,0.9925585269133529
2013-09-30,1,0.0008289919376957517,0.000976902172805463,-0.0021408661154389344,0.009422229326031747,0.9924017382845283
2013-10-02,1,0.001439525776942169,0.0016691222726727315,-0.002633694472429539,0.006236170584179239,0.992318286170657
2013-10-04,1,0.0010022187480567613,0.0011656552270150093,-0.002633694472429539,0.004909024420686403,0.9933829818893353
2013-10-08,1,0.000565936318878776,0.0006686955334740947,-0.002633694472429539,0.004909024420686403,0.9936160965905485
2013-10-10,1,0.0014879655353964756,0.0017307327629912264,-0.0043620156722836735,0.004909024420686403,0.9921994010955737
2013-10-14,1,0.0010993117609700035,0.0012377128883788125,-0.0043620156722836735,0.00548955345369262,0.9921620509480324
2013-10-16,1,0.0009047803301590568,0.0010050054289060958,-0.003431119780565273,0.004579117731584686,0.9931902908423783
2013-10-18,1,0.0007626372657971413,0.0007923496691070989,-0.002823326298504088,0.004579117731584686,0.9936640070784214
2013-10-22,1,0.0009474976753501734,0.0010092249894923353,-0.006717492726752061,0.0039549818340927564,0.9930133541727605
2013-10-24,1,0.0006933668222375509,0.0007137393040015415,-0.0077354448056356885,0.00497961543437727,0.9924141542066144
2013-10-28,1,0.0010000959708784212,0.0010644018394070285,-0.0077354448056356885,0.00497961543437727,0.991864290062289
2013-10-30,1,0.0004598460261212771,0.0004688786728129509,-0.0077354448056356885,0.00497961543437727,0.989787452409617
2013-11-01,1,7.48351579801292e-05,0.00013639698546153545,-0.008136542394826826,0.004032602110081393,0.9897875885473604
2013-11-05,1,0.0004052156741726591,0.0004369831753186177,-0.007094898355996866,0.004032602110081393,0.9899175392145383
2013-11-07,1,0.0009692431211024302,0.0010695688621668467,-0.005730364377873436,0.004551290811218677,0.991588536275633
2013-11-11,1,0.0002739681437366022,0.0003645872366888026,-0.005730364377873436,0.0034923602083331146,0.9918685344303121
2013-11-13,1,0.0002584111664043685,0.0003465348603844046,-0.007094898355996866,0.0023842721858621683,0.9913689415653656
2013-11-15,1,0.0009439992587058196,0.000996266955555319,-0.00788817645565637,0.0023842721858621683,0.9908220847670504
2013-11-19,1,0.00047594934314576466,0.00048126237501465864,-0.0059947904110932695,0.004373508133923053,0.991426066503326
2013-11-21,1,0.00015044012949327684,0.0001880555078495734,-0.0059947904110932695,0.004373508133923053,0.9908332797981627
2013-11-25,1,0.0004989897685524157,0.0005082470968634379,-0.007622887615239129,0.00434035593235403,0.9912572996885921
2013-11-27,-1,-0.0012924770381493988,-0.0011159204903413496,-0.0044539883826937915,0.00434035593235403,0.9939578211647317
2013-12-02,-1,-0.001363969384445997,-0.0012158528779782753,-0.0034564673418011832,0.00434035593235403,0.9942671666661942
2013-12-04,-1,-0.0010448711107092724,-0.000961654491528845,-0.0044517472675681125,0.00434035593235403,0.9938023835367962
2013-12-06,-1,-0.0006902958793162787,-0.000636395867098236,-0.0044517472675681125,0.004019335791412746,0.9938469256180681
2013-12-10,-1,-0.0006568589612359023,-0.0006228076607390121,-0.007622887615239129,0.004373508133923053,0.9929566510287458
2013-12-12,-1,-0.0011084128511958178,-0.0010349753136087844,-0.007622887615239129,0.004503395478679896,0.9923607020445934
2013-12-16,-1,-0.001179327892584177,-0.0010950353708006808,-0.004634806722812664,0.008660093531186942,0.9919431876393858
2013-12-18,-1,-0.0007812244610117422,-0.0007432726871918608,-0.006499703448403457,0.008660093531186942,0.9920757384246561
2013-12-20,-1,-0.00014725870268594707,-9.018287173576139e-05,-0.004077352545289554,0.008660093531186942,0.9929794259120994
2013-12-24,1,3.4511110052737846e-06,0.00011131209581760181,-0.006768595446609854,0.008660093531186942,0.9922968353930581
2013-12-27,-1,-0.00035130557464155857,-0.0003306259670074376,-0.006768595446609854,0.008660093531186942,0.9920522580048934
2013-12-31,-1,-0.0003704842667990642,-0.0003701529517638722,-0.008417324072352666,0.010052695646149867,0.9909570722450342
2014-01-03,-1,-0.0012084631822635284,-0.0010894006792599464,-0.008417324072352666,0.010052695646149867,0.9906001246843746
2014-01-07,-1,-0.0012411864850149837,-0.0010756563558275757,-0.008417324072352666,0.008660093531186942,0.9912230512255278
2014-01-09,-1,-0.0015631855063370525,-0.0013304424042677792,-0.006812196596038115,0.007238488573925637,0.991505323048457
2014-01-13,-1,-0.0015422489839433157,-0.0013223946950489812,-0.006049039643072625,0.006853824192022618,0.9921822570701628
2014-01-15,-1,-0.0011294088752041194,-0.0009332404082604006,-0.006812196596038115,0.006562709529687163,0.9923660730633852
2014-01-17,-1,-0.0012524949753793685,-0.0010391209389411906,-0.006812196596038115,0.006853824192022618,0.9914887339383721
2014-01-22,-1,-0.00045162845928589304,-0.0003478037924172328,-0.006812196596038115,0.006562709529687163,0.9920800559446262
2014-01-24,-1,-0.001849993827115945,-0.001559264660127073,-0.0016716756303479002,0.006853824192022618,0.992234204984845
2014-01-28,-1,-0.00153836465357878,-0.0012837429111146278,-0.006725362348339556,0.006562709529687163,0.9913819265087618
2014-01-30,-1,-0.0013635466044879627,-0.0011163041567540863,-0.004656089924584036,0.006175041424905752,0.9923395714480385
2014-02-03,-1,-0.0019257873714743452,-0.0016382904090076703,-0.0016716756303479002,0.006175041424905752,0.9923781962883887
2014-02-05,-1,-0.0021988820389933113,-0.0018593193032158308,-0.004860778239280718,0.006175041424905752,0.9919306457518994
2014-02-07,-1,-0.0017184814698196081,-0.0014342657311377381,-0.005031205919445809,0.005602393579799928,0.9926388711026471
2014-02-11,1,9.096939960818618e-05,0.00014145411916103296,-0.005031205919445809,0.005602393579799928,0.9924684639545228
2014-02-13,-1,-0.0002886091848110829,-0.0002600999924566433,-0.004141792206283926,0.005602393579799928,0.9922092370397261
2014-02-18,1,0.0006809152003974738,0.0007866230271613662,-0.005031205919445809,0.005602393579799928,0.9923525279592097
2014-02-20,1,0.0009890972401335216,0.001140387887776755,-0.007262208289682104,0.004923441387146902,0.991796228094314
2014-02-24,1,0.001008967627757086,0.0011514248223452842,-0.007510372217085662,0.004044788142069742,0.9919504321238705
2014-02-26,1,0.00017688659590199484,0.00024764781359271656,-0.007138475974770268,0.004044788142069742,0.9933243002469403
2014-02-28,1,0.00013157349692508497,0.0001735134003077536,-0.007138475974770268,0.00492794067249009,0.9929817514382873
2014-03-04,-1,-0.00014459596433912678,-0.00012827654584122975,-0.006559626158295167,0.0057086629761227605,0.9930554370331299
2014-03-06,-1,-0.00025650030481254825,-0.0002453709816286203,-0.005120156136146865,0.0063159389856944585,0.9932770591694944
2014-03-10,-1,-0.00039294661020356994,-0.0003917135282735709,-0.006559626158295167,0.0063159389856944585,0.9926179141815098
2014-03-12,1,9.635912869799973e-05,0.0001595950577575082,-0.006559626158295167,0.006382352668267364,0.992366606956803
2014-03-14,1,0.0010292709519580576,0.001238137133118523,-0.006559626158295167,0.0063159389856944585,0.9934132726829514
2014-03-18,1,0.0013538846031702222,0.0016157760573258131,-0.005120156136146865,0.0063159389856944585,0.9937716832447413
2014-03-20,1,0.0008074459702266301,0.0009907093192533156,-0.003775752566144218,0.006382352668267364,0.9938161218095138
2014-03-24,1,0.0007778946005737814,0.000977487627115771,-0.003775752566144218,0.006382352668267364,0.9935097305701629
2014-03-26,1,0.00017476896987087215,0.0002655984334158228,-0.002560978647459882,0.006382352668267364,0.9935676287501615
2014-03-28,1,0.0005521827918530427,0.0006888330910832475,-0.002560978647459882,0.0065730937398704335,0.9935568407557258
2014-04-01,1,0.0008748154863046327,0.0010421194729934393,-0.0031103964433498235,0.006979043536054759,0.9933679376686617
2014-04-03,1,0.0013073542034335419,0.0015721803548204957,-0.0031103964433498235,0.006979043536054759,0.992953018063874
2014-04-07,1,0.0008732682606609563,0.0011055117974574213,-0.0027387567534950716,0.007234617707725907,0.9931711435905467
2014-04-09,1,0.0015729395855968934,0.0018970861655167935,-0.004262781925941999,0.0070376345463754285,0.9933490745227491
2014-04-11,1,0.0018836158761631658,0.0022584736806896964,-0.008647510763681412,0.0070376345463754285,0.9920071064821112
2014-04-15,1,0.002278101220668449,0.002674051679945208,-0.008647510763681412,0.006338989704851568,0.9923583506349851
2014-04-17,1,0.0023799196015094008,0.002777478437861829,-0.008647510763681412,0.006338989704851568,0.9919898613110505
2014-04-22,1,0.0024979739272074863,0.002937126941514176,-0.009039393303882736,0.005875490223959781,0.9916537507515867
2014-04-24,1,0.0015901300796362936,0.001790961723865658,-0.009039393303882736,0.0070376345463754285,0.9914637603901358
2014-04-28,1,0.0016431316032420238,0.001817802728817947,-0.009039393303882736,0.005875490223959781,0.9916065751993307
2014-04-30,1,0.0014356240093160884,0.0015761765830042166,-0.0072413961294262065,0.00421014364406981,0.9923834445529165
2014-05-02,1,0.0009032361396582608,0.0009964617428949527,-0.006411467876746971,0.00421014364406981,0.9932078387436908
2014-05-06,1,0.0006919023189408417,0.0007437384024521678,-0.0061722460903965775,0.002812954409234587,0.9936150776540469
2014-05-08,1,0.0004419397197735677,0.0004604565215023268,-0.004080210497372521,0.002812954409234587,0.9939969408204365
2014-05-12,-1,-0.0007621285118326651,-0.0005948931792835618,-0.002728955569306071,0.002812954409234587,0.9950315470140579
2014-05-14,-1,-0.000652579307899802,-0.0005137652181003118,-0.003335085558696928,0.00421014364406981,0.9947478733235797
2014-05-16,-1,-0.0001020245732241045,-4.887111260763689e-05,-0.002701392793361776,0.00421014364406981,0.9943006123850462
2014-05-20,-1,-0.0006324179232105119,-0.0005092399000006765,-0.002701392793361776,0.004297746361362389,0.994440327206487
2014-05-22,0,-4.4648863241495454e-05,1.3890169035602509e-05,-0.003335085558696928,0.004297746361362389,0.9941068675923285
2014-05-27,-1,-0.00014864709481976886,-8.14201583077476e-05,-0.002701392793361776,0.0059337196671972355,0.994253515373344
2014-05-29,-1,-0.0004267910157107798,-0.00029433805970220444,-0.002701392793361776,0.006242142881175309,0.993673147907576
2014-06-02,-1,-0.0001841325591757098,-0.00010018600222830897,-0.002701392793361776,0.0073106417377450965,0.9931168585115681
2014-06-04,-1,-0.00045857720573638436,-0.00034282116264563545,-0.0037588989454121822,0.0073106417377450965,0.9921476138368354
2014-06-06,-1,-0.00038654625418526597,-0.00027184578275729463,-0.005147222644303397,0.0073106417377450965,0.9922957579863693
2014-06-10,-1,-0.00026380408775797924,-0.00019781615749297793,-0.003916560854102341,0.0073106417377450965,0.9923311552005459
2014-06-12,-1,-0.00022595405526724166,-0.00016031259371087798,-0.0040985922314372945,0.0073106417377450965,0.9923070243392987
2014-06-16,1,0.0011535260054790723,0.0012953163752518703,-0.00573768595339251,0.007143744232173949,0.9932500927146986
2014-06-18,1,0.0007809947224674033,0.0008107468964551214,-0.004715664352268115,0.006593723501501014,0.993737330233594
2014-06-20,1,0.0005780316516409481,0.0005969290306018089,-0.003797077558735374,0.006593723501501014,0.994282825334785
2014-06-24,1,0.0009871759740684646,0.0010761859778519415,-0.004504888087941902,0.006593723501501014,0.9943311772440799
2014-06-26,1,0.0010811393790072414,0.0011301077009281506,-0.004987879577395234,0.0064064196177780865,0.9941108779132322
2014-06-30,1,0.001530481728636473,0.001632739921449091,-0.005781344110838267,0.0037143670314905225,0.9937866807252618
2014-07-02,1,0.0007562162909950364,0.000779656976016382,-0.005905017896791073,0.0037143670314905225,0.9938159568568048
2014-07-07,1,0.0006903034699176701,0.0007248844736431296,-0.005272689103812431,0.0064064196177780865,0.9937294779661022
2014-07-09,1,0.0007481260570758829,0.0007818613992571932,-0.009831987071066988,0.0064064196177780865,0.9920054305256437
2014-07-11,1,0.0013201215737060597,0.0014861221375319996,-0.009831987071066988,0.007062992589215581,0.9909231965655179
2014-07-15,1,0.001336623092184742,0.0015218824559665805,-0.007512579323002717,0.0065475291233004235,0.991753238747879
2014-07-17,1,0.0012368434433472674,0.0014173185262635417,-0.007512579323002717,0.007862514791632217,0.9912235708699458
2014-07-21,1,0.0009564026869705294,0.0010201197166114472,-0.007512579323002717,0.0065475291233004235,0.9914020007070516
2014-07-23,1,0.0007872101918296921,0.0008343112045757239,-0.007512579323002717,0.007907630165831665,0.9911599959107827
2014-07-25,1,0.0004932027568515388,0.0004938619337097503,-0.00679093026627415,0.007907630165831665,0.991550524334035
2014-07-29,1,0.00020081991780027464,0.00026892334910969174,-0.007483534423477813,0.007907630165831665,0.9914821611695315
2014-07-31,-1,-0.0012093647384475797,-0.0009597207199779016,-0.005312011147444676,0.009059700164627562,0.9921056372796061
2014-08-04,-1,-0.0006909882869994947,-0.0005285278257362947,-0.005312011147444676,0.009059700164627562,0.9923820864908666
2014-08-06,-1,-0.0017855504935930283,-0.0015373053817009635,-0.004243333927516522,0.009059700164627562,0.9933078874881375
2014-08-08,-1,-0.0001966620198227231,-0.0001474068930415989,-0.0049782579779947145,0.006375677616234921,0.9944138844986276
2014-08-12,-1,-0.0005001563464879836,-0.00038391446106847627,-0.005528441511027142,0.006375677616234921,0.9941271857568658
2014-08-14,-1,-0.0005163531960800482,-0.00038306035302644115,-0.005528441511027142,0.005666300450065146,0.9937316340051409
2014-08-18,-1,-0.001058268538862405,-0.0008372551023633,-0.005528441511027142,0.0059146632577570905,0.9935781750388618
2014-08-20,-1,-0.0002473289062927528,-0.00014130521986348055,-0.005920041039650257,0.005666300450065146,0.9938931364027976
2014-08-22,-1,-0.00037398637085776565,-0.00027599576133631676,-0.006480495298551176,0.005666300450065146,0.993564605956385
2014-08-26,-1,-0.0002936555287275676,-0.00020781098266967656,-0.005920041039650257,0.003552319737815172,0.9944876524185539
2014-08-28,-1,-0.0003786386844787612,-0.00023857275207784357,-0.005920041039650257,0.0036141106845150777,0.994004147485338
2014-09-02,-1,-0.00010943221702323908,-4.030768533672108e-05,-0.005920041039650257,0.0036141106845150777,0.9939963991098915
2014-09-04,1,6.9804327585308785e-06,5.1828436334414474e-05,-0.005920041039650257,0.0028856468027407462,0.9943705689708007
2014-09-08,1,0.0005659928096191033,0.0006330365890070577,-0.004772784725380534,0.0028856468027407462,0.9946351477167229
2014-09-10,1,0.00031350838597653523,0.00036152022925306027,-0.004757611411572988,0.0036215836914258053,0.9943396409370587
2014-09-12,-1,-0.0003531316934206834,-0.00031237873466294857,-0.004832140625188397,0.0028856468027407462,0.9941736189775545
2014-09-16,-1,-5.273013218316534e-06,-4.120353754538452e-06,-0.0059619107866534,0.0028630374978357697,0.9919232985953719
2014-09-18,-1,-0.00010488436441421145,-9.035872472346813e-05,-0.007136613827924681,0.0028856468027407462,0.9900011409944286
2014-09-22,-1,-0.0008167155441221235,-0.0007425424333508005,-0.004832140625188397,0.008872283778265202,0.988463089320256
2014-09-24,-1,-0.001252967305915499,-0.0010878780035101581,-0.007930557726304566,0.01177674495346788,0.9871512161921158
2014-09-26,-1,-0.000287679761860035,-0.0002324885899967001,-0.007930557726304566,0.011460840341501759,0.9873301175962876
2014-09-30,-1,-2.5366940747590397e-05,-1.048341890306364e-05,-0.007930557726304566,0.011935144389155466,0.986904529341431
2014-10-02,-1,-0.0006399264159279001,-0.0004965774812662222,-0.007930557726304566,0.011935144389155466,0.9864724381480339
2014-10-06,-1,-0.0005686728444596726,-0.0004291308178064682,-0.007930557726304566,0.012926790141879698,0.9861067311216244
2014-10-08,-1,-0.0001823710916099319,-0.00010348094476012227,-0.010900413048529834,0.013586136328273626,0.9855233539049019
2014-10-10,-1,-0.0016449452670072228,-0.0013749251436336266,-0.008082045878633044,0.013586136328273626,0.9855858338521764
2014-10-14,-1,-0.0035036966011780745,-0.003051260428581741,-0.003290372675315164,0.013586136328273626,0.9869376718131252
2014-10-16,-1,-0.003809254587097256,-0.003319533041913174,-0.004669083484998774,0.012926790141879698,0.9873473089407568
2014-10-20,-1,-0.0018791305476240955,-0.001623869032220868,-0.006540827681550892,0.011935144389155466,0.9891421587739188
2014-10-22,-1,-0.0018700763006279423,-0.0016179911687971425,-0.006540827681550892,0.011636359236419489,0.9897063076132805
2014-10-24,-1,-0.0011577385082507574,-0.000977372831224521,-0.006540827681550892,0.009415202623710473,0.9907860881073334
2014-10-28,-1,-0.0005476587311461314,-0.00044751075444751214,-0.006540827681550892,0.008629655984564572,0.9913427356160361
2014-10-30,-1,-0.0005303158827790959,-0.0004181729399307515,-0.007805496838207875,0.006612380823411052,0.9912544634329721
2014-11-03,1,0.0002831984113307938,0.00029707050129779356,-0.008816646255478998,0.006612380823411052,0.990575525214464
2014-11-05,1,0.0012178136568406013,0.0013882571506355712,-0.007805496838207875,0.006612380823411052,0.9907109722091758
2014-11-07,1,0.0014548156679051992,0.001668607978682229,-0.011361041191057353,0.0017945905118436553,0.9901269484175993
2014-11-11,1,0.00138628454559555,0.0015725546730685732,-0.014064267856216991,0.0019177269470599429,0.9886170621874124
2014-11-13,-1,-0.0001442711893710906,-0.00014350382898981626,-0.011361041191057353,0.0019177269470599429,0.9899918417120749
2014-11-17,1,0.0005179164556670466,0.0006449334908154767,-0.014064838096002223,0.0019177269470599429,0.989379876538426
2014-11-19,1,0.0008627132959152317,0.0010718249857625292,-0.014064838096002223,0.006801427470878813,0.9873027299782938
2014-11-21,1,0.0003326609337771789,0.0004155981395581676,-0.014064838096002223,0.007492534921655091,0.9870647561659198
2014-11-25,1,0.00019401787049594415,0.00024705975831677216,-0.014064838096002223,0.008791501344097077,0.9861663482446758
2014-11-28,-1,-0.0002661239071759424,-0.00026153235980625063,-0.011828849312530186,0.011921934136145396,0.9857520503419406
2014-12-02,-1,-0.0004223765021348142,-0.00041613790654339175,-0.015694389484326988,0.009224054298809625,0.985479161237772
2014-12-04,-1,-0.00019187390843175117,-0.00017376958198600734,-0.01711697193708435,0.008053160028527972,0.9845496781071567
2014-12-08,-1,-0.00129673709372866,-0.0011775496013039868,-0.019739444383702943,0.009642948431310795,0.9839327379067002
2014-12-10,-1,-0.002049450805657859,-0.0018710662476487917,-0.019739444383702943,0.013027707725901193,0.9836088823503804
2014-12-12,-1,-0.0032596004307991313,-0.0029339024880132058,-0.01711697193708435,0.013027707725901193,0.9841839302855097
2014-12-16,-1,-0.003779960492765271,-0.003389014822682961,-0.008047526053773034,0.013027707725901193,0.9850641168031596
2014-12-18,-1,-0.0010401956532909143,-0.000982457293414678,-0.008047526053773034,0.009642948431310795,0.9879116749127681
2014-12-22,-1,-0.0011349146973485785,-0.0010140913663002093,-0.01251652632690016,0.011759948150351909,0.9874997526553246
2014-12-24,-1,-8.12559933636012e-05,-6.5115211611466e-05,-0.01251652632690016,0.009241682492170127,0.9883530714972071
2014-12-29,0,-5.562623342041746e-05,2.399643628683731e-06,-0.016385014075090076,0.006699201468325227,0.9883667025329511
2014-12-31,-1,-0.0007626545487601879,-0.0006880220319147113,-0.011418634036524608,0.009241682492170127,0.9881545715380735
2015-01-05,-1,-0.0016412019081837891,-0.001470363698966194,-0.00897929801729296,0.007404868041338932,0.9896476136474005
2015-01-07,-1,-0.0018351782223192175,-0.0016537173127243445,-0.006011506788538273,0.007404868041338932,0.9904360278253528
2015-01-09,-1,-0.001752933356520593,-0.0015741459938168486,-0.006011506788538273,0.00414296204530091,0.990664176031296
2015-01-13,-1,-0.0014125138820070948,-0.001303265845686242,-0.00897929801729296,0.007404868041338932,0.9877645598328857
2015-01-15,-1,-0.0014351000467620115,-0.001308014275313961,-0.011418634036524608,0.012270116632783799,0.9861438355053505
2015-01-20,-1,-0.0009036216105919395,-0.0008445048836606471,-0.011418634036524608,0.012454198540159264,0.985901730665622
2015-01-22,-1,-0.0005608120459483931,-0.0005547651123827983,-0.012746155326596932,0.008500384370286954,0.9859411104338784
2015-01-26,-1,-0.00039181056412968527,-0.000369267294509623,-0.012746155326596932,0.015956859137919235,0.9852837570128055
2015-01-28,-1,-0.0006918985328519831,-0.0006801671795476462,-0.015238252346905828,0.015956859137919235,0.9842249950430224
2015-01-30,0,-3.28430777937652e-06,8.66471229862783e-05,-0.015238252346905828,0.008099888240919964,0.9851589230736552
2015-02-03,-1,-0.0005078346017606695,-0.0005029639006939584,-0.015238252346905828,0.008099888240919964,0.9855080119903874
2015-02-05,-1,-0.0001676112499360259,-0.00014743919228897892,-0.015238252346905828,0.006816573535909171,0.9850963094603635
2015-02-09,-1,-0.0016031135111991537,-0.0014697786182574098,-0.014852792907230607,0.006816573535909171,0.987105161279307
2015-02-11,-1,-0.002631694424110842,-0.00236477696180897,-0.011903966392194557,0.006816573535909171,0.989448573346621
2015-02-13,-1,-0.002657675222319426,-0.0023616052702352727,-0.009967844358427711,0.006112119084101612,0.9904261564006077
2015-02-18,-1,-0.0022015299931642225,-0.001963298523114284,-0.009967844358427711,0.006112119084101612,0.9897635821813351
2015-02-20,-1,-0.0019342772804489168,-0.0017706845278516506,-0.009967844358427711,0.008494125351537483,0.9887811817629486
2015-02-24,-1,-0.0011757399000255043,-0.0011106135162535465,-0.011276838825429337,0.0052098687978460205,0.988815734950711
2015-02-26,-1,-0.0028022450579079233,-0.0025563216948894987,-0.009757624193578115,0.0052098687978460205,0.9905537222892623
2015-03-02,-1,-0.003144094922566648,-0.002871150971851258,-0.008951495574694698,0.008290842329941947,0.9902781067738179
2015-03-04,-1,-0.0027298393955574435,-0.002520953901434206,-0.009757624193578115,0.00999763964217355,0.9892495998179466
2015-03-06,-1,-0.0033472852648724744,-0.0030210009857899755,-0.008951495574694698,0.010767085881547268,0.9895779786682133
2015-03-10,-1,-0.00438189873386625,-0.0038399412070033757,-0.009177119649215552,0.010767085881547268,0.9895408607705065
2015-03-12,-1,-0.004238024007099243,-0.00369687332142147,-0.009177119649215552,0.010269741219870787,0.9896625548038843
2015-03-16,-1,-0.0032156350804336113,-0.002874915308225675,-0.009174820034656903,0.010269741219870787,0.989560066703
2015-03-18,-1,-0.0019133572682534898,-0.0017274065381118861,-0.009750725349902168,0.010269741219870787,0.9886604063828804
2015-03-20,-1,-0.0016505902249327221,-0.0015358566687592398,-0.009174820034656903,0.009977361062546125,0.9897612681090332
2015-03-24,-1,-0.0019107437301005429,-0.001792027826832755,-0.009174820034656903,0.009977361062546125,0.98902117989941
2015-03-26,-1,-0.002282999502336961,-0.002134903216940716,-0.00872407028795391,0.009977361062546125,0.9889600816246058
2015-03-30,-1,-0.001296407966328525,-0.001286834808625422,-0.009174820034656903,0.009839694320521244,0.9886727576260949
2015-04-01,-1,-0.0006964028878287352,-0.0005759187047166748,-0.00872407028795391,0.008574048651694262,0.9895520684380797
2015-04-06,1,1.5585369221265575e-05,0.00024498218844932096,-0.00872407028795391,0.007893686597754643,0.9903108868308885
2015-04-08,-1,-0.00033989387683217704,-0.0001452631787497461,-0.010075814688725393,0.007893686597754643,0.98932901980814
2015-04-10,-1,-0.0008668549056089275,-0.0008229531231771414,-0.010075814688725393,0.007893686597754643,0.988954452994601
2015-04-14,-1,-0.0006128884366083938,-0.000517885079934839,-0.012657342923342193,0.007097900708187753,0.9883266904949605
2015-04-16,-1,-0.00022504106621940056,-7.229862253603752e-05,-0.0108136495523055,0.007097900708187753,0.9894464586519663
2015-04-20,1,0.00030354909107904433,0.0005285298819687504,-0.0108136495523055,0.007097900708187753,0.9896153106422043
2015-04-22,0,-2.374481697553629e-05,0.00016132558452374834,-0.010139490108878683,0.0067573282347466335,0.9906232455308936
2015-04-24,1,0.00018940498348828268,0.0003762625261092444,-0.010139490108878683,0.006000179928672154,0.990891430022079
2015-04-28,1,0.00012032815208710019,0.0002880254411683588,-0.008732791100452025,0.004646768438022333,0.9914175703836873
2015-04-30,1,0.0002914857864673733,0.0004992227637231425,-0.008732791100452025,0.004935433346347033,0.9916887318206207
2015-05-04,1,0.0001518736076285838,0.0002923745487728849,-0.010139490108878683,0.002820051052212724,0.9904126979085536
2015-05-06,-1,-0.0015411206768729392,-0.0014216561628559196,-0.008732791100452025,0.002820051052212724,0.9916186854633323
2015-05-08,-1,-0.0014203946282026112,-0.0012665763747949955,-0.008732791100452025,0.0011450556882735624,0.992364080481811
2015-05-12,-1,-0.0028631901181470918,-0.002519473744659688,-0.007275720214552048,0.005321758497949178,0.9930448254296436
2015-05-14,-1,-0.0011281497538846031,-0.0010928803761782722,-0.007275720214552048,0.005163976516381069,0.9936828631597642
2015-05-18,-1,-0.0004237440958545915,-0.0003430098197078823,-0.007275720214552048,0.0020665492449912916,0.9937813064571565
2015-05-20,1,0.00023984654366471865,0.00045500762531311997,-0.007275720214552048,0.005163976516381069,0.9924913542667
2015-05-22,1,0.0006228201070583397,0.00093647405281564,-0.007429335318371643,0.005321758497949178,0.991856525189658
2015-05-27,-1,-0.00015587232637507252,-1.1395583024678105e-05,-0.007916874097170006,0.005321758497949178,0.9910690652263274
2015-05-29,-1,-0.0002251633368921141,-0.00012721820040020567,-0.007916874097170006,0.005321758497949178,0.9909153421582897
2015-06-02,-1,-0.001356532820481727,-0.0012979804263139566,-0.007916874097170006,0.005321758497949178,0.9917810533248479
2015-06-04,-1,-0.0019304935700309735,-0.0018153539726678122,-0.007341210677797267,0.006734763371030161,0.9917464381029313
2015-06-08,-1,-0.002021895758754662,-0.001894920526009285,-0.006968798506089607,0.009779282143483219,0.9908495282920984
2015-06-10,-1,-0.0014371834370006482,-0.0013853333604515652,-0.009542782248773163,0.009779282143483219,0.990037277312315
2015-06-12,-1,-0.0012765575919316597,-0.0012661163297204606,-0.007916874097170006,0.009779282143483219,0.9901411510433428
2015-06-16,-1,-0.001401047442782667,-0.0013812443280176085,-0.007916874097170006,0.009779282143483219,0.9900762056319525
2015-06-18,-1,-0.00017303171981602637,-1.7268861688231644e-05,-0.009578013318505676,0.005763877695888758,0.991194542757219
2015-06-22,0,-0.00013499238446229383,1.1053201795514995e-05,-0.012074868542276171,0.003144253545612565,0.9909773825312701
2015-06-24,-1,-0.0006010537506714283,-0.000478569841357524,-0.012074868542276171,0.003144253545612565,0.9915433436506752
2015-06-26,-1,-0.00031977324998005866,-0.0001755515765010476,-0.012074868542276171,0.003144253545612565,0.9908582851478986
2015-06-30,-1,-0.0004325656477964476,-0.00026222975678037675,-0.009518494078049295,0.009242800055059607,0.990582222505822
2015-07-02,-1,-0.00048134077939386295,-0.00039995291292748965,-0.009518494078049295,0.009242800055059607,0.9906838387574349
2015-07-07,-1,-0.00035158401968292635,-0.00028778404231599437,-0.012644974228905287,0.005763877695888758,0.9907947080149413
2015-07-09,-1,-0.0012881602039271002,-0.0012486612412026146,-0.006786931542621737,0.009114241027592215,0.9916025336790696
2015-07-13,-1,-0.0005770712705605462,-0.0005068538896887947,-0.006786931542621737,0.009672583383277289,0.9911740767541023
2015-07-15,-1,-0.0004667110852927183,-0.0003935713639668801,-0.008576134069513066,0.010156035596349896,0.9904863432118922
2015-07-17,-1,-0.0005673709938175794,-0.000469851915525882,-0.006786931542621737,0.010647500947934414,0.9902481234789369
2015-07-21,-1,-0.002223122776716747,-0.0020325954281671136,-0.0010580745726436547,0.010647500947934414,0.9904735318437018
2015-07-23,-1,-0.002969324927133226,-0.0026664794137343543,-0.0010582636852807963,0.010647500947934414,0.9907966888988262
2015-07-27,-1,-0.002210068103631284,-0.0020085821728517026,-0.004566272640546073,0.010156035596349896,0.9891835652619941
2015-07-29,-1,-0.0011814586955119272,-0.0010905543308205483,-0.006829740416822303,0.009770358513947723,0.9883194101700982
2015-07-31,-1,-0.0005864772035619698,-0.0005662701409010699,-0.006829740416822303,0.010128053584332487,0.9875394277363518
2015-08-04,-1,-0.0013586312432694726,-0.0012604296308612799,-0.00918515350040784,0.010128053584332487,0.9860187489062322
2015-08-06,-1,-0.0008305137104958938,-0.0007910181428275772,-0.00918515350040784,0.012013960766591626,0.9858523041225027
2015-08-10,1,0.0005784512931183176,0.0007813925157442443,-0.0125688599512431,0.012013960766591626,0.9850890732300548
2015-08-12,1,0.0006200666458959285,0.0008172194660435888,-0.01419263548275161,0.005903842607135184,0.9853274380088697
2015-08-14,1,0.0008985005022280261,0.0010990085144704908,-0.01419263548275161,0.00449584602165758,0.9855204710548354
2015-08-18,1,0.0006017637469272497,0.0007291478360843064,-0.01419263548275161,0.008191429500232925,0.9848830903993894
2015-08-20,1,0.0006556858107780497,0.0008107475317544054,-0.01419263548275161,0.008892221753567695,0.9841922821986884
2015-08-24,-1,-0.001362368595842156,-0.001276886637247178,-0.012634593281163797,0.0089210834671302,0.9861554999792881
2015-08-26,-1,-0.0014093545073548047,-0.001345094257677936,-0.011115732873745031,0.007727443157055849,0.988100365126888
2015-08-28,-1,-0.0005437630460648634,-0.0005315173884941841,-0.012634593281163797,0.007017030332533577,0.9885789944353778
2015-09-01,-1,-0.0021692285704484754,-0.001999422863987785,-0.008190412217630711,0.007727443157055849,0.9894800862193825
2015-09-03,-1,-0.0018822851023867705,-0.0017486970349293257,-0.012634593281163797,0.007727443157055849,0.9890031706499923
2015-09-08,-1,-0.0014779389644150437,-0.0014106338943517844,-0.006091649082262731,0.007727443157055849,0.9894016818737427
2015-09-10,-1,-0.0015325716096793545,-0.0014848547840602686,-0.0034078929020891525,0.00810586730519443,0.9891416412805053
2015-09-14,-1,-0.0014810581150365956,-0.0014212388316907573,-0.004686864486111374,0.00810586730519443,0.9892265851238395
2015-09-16,-1,-0.0005230742643939621,-0.00043848909560463496,-0.007324434600283104,0.007727443157055849,0.9896779680378707
2015-09-18,-1,-0.000581488901892266,-0.0005024252909055418,-0.006989501468546696,0.00810586730519443,0.9894448972206867
2015-09-22,-1,-0.0008574604516115371,-0.0008148604236801415,-0.006989501468546696,0.006752949247862215,0.9899081647974126
2015-09-24,-1,-0.0005975096124924818,-0.0005008055942236555,-0.006989501468546696,0.010919834488259953,0.9888806727595024
2015-09-28,-1,-0.001651764578271537,-0.0015592750788149617,-0.006989501468546696,0.010919834488259953,0.9881243693198551
2015-09-30,-1,-0.0002382939312931783,-0.0001124987892526289,-0.007324434600283104,0.009286576307664655,0.9892248700920883
2015-10-02,-1,-0.0006906934728799707,-0.0006865107927237881,-0.006989501468546696,0.008330513454978351,0.9904918326308383
2015-10-06,1,0.0003411708144988471,0.0005017593900690958,-0.006989501468546696,0.008330513454978351,0.9914724761500545
2015-10-08,1,0.0010491337368499446,0.00132848642938526,-0.007324434600283104,0.006478268863214115,0.9913605347289635
2015-10-12,1,0.0009185946822638366,0.0012018457659299648,-0.008343184175362043,0.006478268863214115,0.9891424028255884
2015-10-14,1,0.0004214208537546627,0.0006316019386744131,-0.0092229314843634,0.008462535153720353,0.9883492523575236
2015-10-16,1,0.0011245630943579241,0.0014101072863713679,-0.010133532872039627,0.006478268863214115,0.9880865277768822
2015-10-20,1,0.0011325020771425546,0.0014358538851607049,-0.009362036910818168,0.008462535153720353,0.9877265844542711
2015-10-22,1,0.0015783897646096954,0.0018780744718912392,-0.009362036910818168,0.0035356930817486984,0.9884425014448758
2015-10-26,1,0.0006026232001779021,0.0007300350286226082,-0.009147014809352422,0.002457448772036247,0.989980133118198
2015-10-28,1,9.775817145731922e-05,0.00014703156901543185,-0.006224846418940479,0.003099933977617868,0.990527395286169
2015-10-30,1,0.0003554323560563224,0.00046180158387807194,-0.006224846418940479,0.003099933977617868,0.9901657800956561
2015-11-03,1,0.0005923701472336474,0.0007180658267461075,-0.009147014809352422,0.0025090638356065065,0.9896279257426
2015-11-05,1,5.9220305321157915e-05,9.659638655807854e-05,-0.009098621101870473,0.003099933977617868,0.9896607835017402
2015-11-09,-1,-0.0011619471242276702,-0.0011100374426106937,-0.0068017490067885066,0.003099933977617868,0.9922356935445552
2015-11-11,-1,-0.001334910444778565,-0.001270889866557684,-0.0068017490067885066,0.003099933977617868,0.9928534304603823
2015-11-13,-1,-0.0026435563328035577,-0.0023825312334681812,-0.006789567277041203,0.003558881206839477,0.9922919256602317
2015-11-17,-1,-0.002062117713859608,-0.0018900413578086168,-0.005463924388523253,0.0038065245869418314,0.9901340343175293
2015-11-19,-1,-0.002264781128770184,-0.002042994442646641,-0.006789567277041203,0.0038065245869418314,0.9887963585304976
2015-11-23,-1,-0.0019796438134138004,-0.0018257538108509973,-0.006789567277041203,0.004647274368310488,0.9883558586010308
2015-11-25,-1,-0.001363527798404535,-0.001310052714208736,-0.006789567277041203,0.007712029912732754,0.9871514970164362
2015-11-30,-1,-0.0022824866917467677,-0.002064199364534538,-0.006789567277041203,0.014077630939639083,0.9861549149907951
2015-12-02,-1,-0.002656234160086556,-0.002419299507121543,-0.006709563937417282,0.014077630939639083,0.986707624959034
2015-12-04,-1,-0.002565087411725499,-0.002353336836671092,-0.0051907162522311315,0.014077630939639083,0.9866446741949069
2015-12-08,-1,-0.0030978772327001193,-0.0028035328743367476,-0.008747384452697257,0.014077630939639083,0.9854741352313514
2015-12-10,-1,-0.003845012137786612,-0.0034281561923214434,-0.008747384452697257,0.014077630939639083,0.9858746819080868
2015-12-14,-1,-0.0030685475065540297,-0.0027218521020511196,-0.011961548966384194,0.010387744071497902,0.9869680291217193
2015-12-16,-1,-0.00021172629455231944,-0.00018782469761950457,-0.012678415415106446,0.00662916115784741,0.9877245339956459
2015-12-18,-1,-8.928828007001026e-05,-7.752204631050416e-06,-0.012678415415106446,0.00662916115784741,0.9873041616214503
2015-12-22,1,0.00051381616655565,0.0007072405346414007,-0.012678415415106446,0.012520921876523478,0.9853048900813244
2015-12-24,1,0.0010624304717332905,0.00127984480408908,-0.014232458660193016,0.012520921876523478,0.9840118947169803
2015-12-29,1,0.0018877236037480997,0.0022373696479507637,-0.014232458660193016,0.011992354045456982,0.9839095039998067
2015-12-31,1,0.002160238254331266,0.0025933213020757607,-0.014232458660193016,0.01654565852105072,0.9817669237609432
2016-01-05,1,0.0022897380525452155,0.0027408111843008572,-0.014232458660193016,0.019130686038988393,0.9802835729128642
2016-01-07,1,0.0016521214219335073,0.0020525979384356423,-0.012167001099295418,0.019130686038988393,0.9813665391806633
2016-01-11,1,0.0013247783573197688,0.001686308929361332,-0.014232458660193016,0.019130686038988393,0.9808167699148239
2016-01-13,1,0.00044571824380789304,0.0006878992672105446,-0.012735406968369879,0.019130686038988393,0.979878096381156
2016-01-15,-1,-0.00016302925231056768,-0.00012393356359732471,-0.006643093342253084,0.018301254481841462,0.9810186872450689
2016-01-20,-1,-0.0011520888639584821,-0.0010491150364070293,-0.005256214150903068,0.018301254481841462,0.9818426585757338
2016-01-22,1,0.0011127913667886048,0.0013577975782657135,-0.005574163549090937,0.013912776094816665,0.983896227995798
2016-01-26,-1,-0.00044536132331663423,-0.0003947660110967914,-0.005256214150903068,0.013732902250685427,0.9853703168452949
2016-01-28,1,1.6194563890553996e-05,3.1134013514941435e-05,-0.005574163549090937,0.014902128841792504,0.983942215339788
2016-02-01,1,0.0019411028256300336,0.00221454922506618,-0.005574163549090937,0.012311614203549011,0.9868573083087061
2016-02-03,1,0.0023774817940976686,0.002679679380553698,-0.005256214150903068,0.011133343559660523,0.9885769468227789
2016-02-05,1,0.002077904821071861,0.00234601072292364,-0.0024219245333798353,0.012311614203549011,0.9871532952219221
2016-02-09,1,0.0018492538381835262,0.0021211432161160715,-0.0021330795979819864,0.012311614203549011,0.9880346345150938
2016-02-11,1,0.0002055068381754363,0.000250249062314506,0.0038800257696548902,0.01233746133720811,0.9888592579971321
2016-02-16,1,0.0008007609429089215,0.0008990042634481952,0.003473635680283825,0.01200421612147645,0.989930023550222
2016-02-18,1,0.0015721051111029297,0.0017704730513862519,0.003473635680283825,0.011141959270880221,0.9903519647886806
2016-02-22,1,0.0014057390739380731,0.0015484146408432254,0.003473635680283825,0.010967039169834268,0.9897567952179867
2016-02-24,1,0.0022203093472814494,0.0025249498647860903,0.0018489890652983697,0.010349458390761249,0.9909875358524705
2016-02-26,1,0.0015709557242001848,0.0017862629476267599,0.0018489890652983697,0.009040798917226743,0.9922839830647731
2016-03-01,1,0.0022587673172046237,0.0026152705616374426,0.0003582992830676394,0.010349458390761249,0.9908463814898971
2016-03-03,1,0.002671294796810282,0.003108545571921681,0.00238762412937053,0.010967039169834268,0.9909995987664197
2016-03-07,1,0.004027828923555166,0.004620997470661759,-0.003572906850477151,0.009128545389662053,0.9914637070158006
2016-03-09,1,0.004097697534057002,0.004665785171379264,-0.003572906850477151,0.010332321775121108,0.9911833599535763
2016-03-11,1,0.0049410293855711995,0.0056647310576038775,-0.0042933620357793415,0.009072027972290723,0.9909076704888732
2016-03-15,1,0.0051508597537346604,0.005886757629866568,-0.004616621225621828,0.010332321775121108,0.9899631287854199
2016-03-17,1,0.006439300432795067,0.007399210549840229,-0.01033017567322796,0.009072027972290723,0.9892316783736212
2016-03-21,1,0.005786363677203728,0.006617294493649709,-0.004616621225621828,0.004688745320536939,0.9901443249371629
2016-03-23,1,0.005426151731972716,0.006178377411450142,-0.01033017567322796,0.004688745320536939,0.9892819694246935
2016-03-28,1,0.005055460224997716,0.005755274641002508,-0.004946840495389967,0.010682511167600679,0.9897139716428948
2016-03-30,1,0.005201607999023207,0.005934789489415402,-0.0024989169765000105,0.010682511167600679,0.9910160965753961
2016-04-01,1,0.005377045027703074,0.006104155201430126,-0.0029332407788327662,0.009072027972290723,0.9909112464651751
2016-04-05,1,0.0030683125764192137,0.0033769954176005494,-0.0024989169765000105,0.010592900133220073,0.9924085049316623
2016-04-07,1,0.003106799234870857,0.0033926869483361533,-0.0024989169765000105,0.011309266982454134,0.9922529046131774
2016-04-11,1,0.002726819027470722,0.002911873004256072,-0.0017988635298043735,0.011309266982454134,0.9926187388647775
2016-04-13,1,0.0031455778887955125,0.0033902655306906836,-0.0019099281422946422,0.011309266982454134,0.9924430079021084
2016-04-15,1,0.0026524465675635644,0.0028259967309491743,-0.0019099281422946422,0.011309266982454134,0.9928584095002223
2016-04-19,1,0.0023418760831493608,0.002454307783257413,-0.003467927218272791,0.011309266982454134,0.9920409138045639
2016-04-21,1,0.001534959218632342,0.0015403886074807655,-0.003467927218272791,0.01174462227484364,0.9912926121164768
2016-04-25,1,0.0020109530607994603,0.00205312836472545,-0.004073788972398807,0.010980315103141111,0.9918039476427405
2016-04-27,1,0.00195476466024019,0.001967685908990881,-0.004073788972398807,0.008894480388837049,0.9923449386789015
2016-04-29,1,0.0015560529411674734,0.001635901782657644,-0.004073788972398807,0.010525626823115138,0.9920032002595185
2016-05-03,1,0.0009762341358319499,0.0011521029047612337,-0.0020559478735452286,0.00876666249475173,0.993023010429753
2016-05-05,1,0.0007226554334084794,0.0009590668591054207,-0.0017109577727684533,0.00876666249475173,0.9929639737146064
2016-05-09,1,0.0009784806893980852,0.0011478177459102671,-0.0006860883472042168,0.00876666249475173,0.9928154083917696
2016-05-11,1,0.0024152059809796054,0.0025328190980523553,0.0007770567168472009,0.007424859058904225,0.9939238883692555
2016-05-13,1,0.0020261575294166054,0.0020639883822913202,-0.0006874722954225785,0.007424859058904225,0.9931545253824948
2016-05-17,1,0.00194311274117102,0.001978662389540516,-0.0006874722954225785,0.007027589859981661,0.9937361059540111
2016-05-19,1,0.0020967657799876565,0.0022022556897733706,0.0007770567168472009,0.006613970800849155,0.995579422455848
2016-05-23,1,0.0023703846016596207,0.002541140313564662,0.0015225484802162095,0.006613970800849155,0.9956815199187726
2016-05-25,1,0.002276415839213731,0.0024175953041993496,0.0007770567168472009,0.007027589859981661,0.9946443023255233
2016-05-27,1,0.0026845079081460428,0.0028811487383096765,-0.005497555644404278,0.005814388381656861,0.9944203197444791
2016-06-01,1,0.0020463517072326367,0.002086338420600904,-0.005497555644404278,0.007927211195100283,0.9928365126233525
2016-06-03,1,0.0020105820052917153,0.0020128313392856713,-0.005497555644404278,0.006613970800849155,0.9933587728529228
2016-06-07,1,0.0013285210296020088,0.0014700399415392095,-0.005497555644404278,0.005814388381656861,0.993430502294496
2016-06-09,1,0.001804336790644156,0.0018914833939843497,-0.006610169014776439,0.0065853979227304404,0.991978416469165
2016-06-13,1,0.00027121110701615607,0.0005980824970570986,-0.004765268484028789,0.0065853979227304404,0.9925776922902657
2016-06-15,1,0.0010231744406937698,0.0011708631298612032,-0.005061309890368836,0.01028425799130401,0.9918809676789206
2016-06-17,1,0.00042457180512912634,0.0006946196116625991,-0.005061309890368836,0.01108263634159291,0.9911528838989114
2016-06-21,1,0.0009354979309113439,0.0011396697424232234,-0.005061309890368836,0.01028425799130401,0.9913423909844727
2016-06-23,1,0.002000349927618176,0.002015109027606023,-0.0045838506349963745,0.011616935437032117,0.9911707894925619
2016-06-27,1,0.0017351261836831841,0.0017521464076912978,-0.0045838506349963745,0.011616935437032117,0.9911304477380953
2016-06-29,1,0.002544610464961804,0.0026351678480775274,-0.005902074930950765,0.005821618911759048,0.9911480712062142
2016-07-01,1,0.0019945089732221967,0.0020158114043365184,-0.007405799806363263,0.006823153384980428,0.990620140757102
2016-07-06,1,0.0005505285451868793,0.0008613208090564808,-0.007926356365621938,0.006823153384980428,0.9907387014599054
2016-07-08,1,0.0005417084476463458,0.000810698139357555,-0.007926356365621938,0.005308924746028702,0.9904555097162439
2016-07-12,1,0.00047956202402615086,0.0007287546298294026,-0.007926356365621938,0.005308924746028702,0.9908262720736963
2016-07-14,1,0.000178281716631007,0.0004697962261287508,-0.007405799806363263,0.004435271516673263,0.9917743758844555
2016-07-18,1,0.0006497299545178434,0.0008661722678291082,-0.007405799806363263,0.0023877829560813354,0.9921286009410831
2016-07-20,1,0.00021111219147169728,0.0005462621689821002,-0.007926356365621938,0.0023877829560813354,0.991012175317601
2016-07-22,1,0.0010877767361822692,0.001317052598212349,-0.007926356365621938,0.0017646183566806767,0.9913505603281554
2016-07-26,1,0.00016961513043058487,0.0005037681256675154,-0.006407575920323063,0.0023877829560813354,0.9920030003688662
2016-07-28,1,0.00011025892571998853,0.00035470306705195106,-0.005419288488966067,0.0023877829560813354,0.9927833401751778
2016-08-01,1,4.951088786206144e-06,0.0002422750248162013,-0.005419288488966067,0.0023877829560813354,0.9919980025895974
2016-08-03,0,-0.00010772659109125498,0.0001123228338033909,-0.005419288488966067,0.0023877829560813354,0.9920419951373712
2016-08-05,-1,-0.0015778424205260837,-0.0012039136802843126,-0.004283239336425221,0.0025285112078900877,0.9938320004263108
2016-08-09,-1,-0.000931728821292385,-0.0006882811404525145,-0.004283239336425221,0.007750857188678848,0.9924067289015931
2016-08-11,-1,-0.0011765714125826193,-0.0008921857019125579,-0.005419288488966067,0.008895590305910198,0.9897233527636637
2016-08-15,-1,-0.0017696013986179802,-0.0014124065745520892,-0.00515961951137148,0.01139306764502394,0.9882906768507648
2016-08-17,-1,-0.0017458461771303316,-0.0013757298192113424,-0.0039271478741843896,0.009901565265512627,0.9893962254219284
2016-08-19,-1,-0.0013188886086235815,-0.0010025758907648264,-0.0039271478741843896,0.011891451224503378,0.9886047518390725
2016-08-23,-1,-0.0009848691647638256,-0.0007379559935876996,-0.0026323494775104934,0.015030282231865687,0.9874652366693618
2016-08-25,-1,-0.0022167330963669815,-0.0017533943374973115,-0.0006679970406540606,0.015030282231865687,0.9866782237394858
2016-08-29,-1,-0.0021424352416559945,-0.001705165749555742,-0.0006679970406540606,0.011891451224503378,0.9874019023074194
2016-08-31,-1,-0.0024766405291711978,-0.002009889355798688,-0.0006679970406540606,0.011891451224503378,0.9860752464884612
2016-09-02,-1,-0.0018332545573885104,-0.001473392422018461,-0.01436509994590194,0.011891451224503378,0.9856773844646309
2016-09-07,-1,-0.0009605863365684253,-0.0006787968340291373,-0.015048249625472602,0.010249238258734111,0.9863431434244959
2016-09-09,-1,-0.0023144395232996915,-0.0018716442330279737,-0.015048249625472602,0.009868776763646982,0.9881337949957371
2016-09-13,-1,-0.0033274610108882806,-0.0027167529713346124,-0.01496461069259704,0.009868776763646982,0.9883894144305041
2016-09-15,-1,-0.0024022970003136947,-0.001947537675567781,-0.01496461069259704,0.010881740615932178,0.9879103513685192
2016-09-19,-1,-0.0008651524700160991,-0.0006206979809862435,-0.01496461069259704,0.007984686113545544,0.9892883132755245
2016-09-21,1,0.0003476627572437385,0.0004526574776580261,-0.01496461069259704,0.004142892040117149,0.9904314827982161
2016-09-23,1,0.00048473259073087956,0.0005799835024645296,-0.01496461069259704,0.004007715394522242,0.9905911266350966
2016-09-27,1,1.903890782763238e-05,0.00015367716674141176,-0.01436509994590194,0.005323887995624182,0.9908498545855
2016-09-29,-1,-0.00063256612915989,-0.00042014218698684753,-0.009163239812398223,0.004005372556033989,0.992239435996642
2016-10-03,-1,-0.001580672751151211,-0.0012878244682891994,-0.0026708315132189507,0.005323887995624182,0.9927049078358219
2016-10-05,-1,-0.002672619717128097,-0.0022502122106326998,-0.0048494218571985565,0.005323887995624182,0.9922372850929327
2016-10-07,-1,-0.003687072748278423,-0.0031421122713644794,-0.0023221059001797602,0.011185593505611408,0.9905203768868279
2016-10-11,-1,-0.0037085883702906433,-0.003158064169365968,-0.0007738963087648927,0.011185593505611408,0.9898824876125799
2016-10-13,-1,-0.00256063665655219,-0.0021561232837050866,-0.003901113413393689,0.005323887995624182,0.9908835743813929
2016-10-17,-1,-0.002296177005935032,-0.0019330587902322632,-0.0048494218571985565,0.005323887995624182,0.9908693483990197
2016-10-19,-1,-0.0015278520147480807,-0.0012881058869791213,-0.0048494218571985565,0.006987148017722221,0.9908003531960038
2016-10-21,-1,-0.0012976401479826496,-0.001091138752830981,-0.0048494218571985565,0.006987148017722221,0.9907456889663361
2016-10-25,-1,-0.0010552212792160603,-0.0009043612486071413,-0.003901113413393689,0.008780060615134056,0.9906810201821563
2016-10-27,-1,-0.001005255180975203,-0.000877808609069624,-0.002580944702147202,0.012363418077357828,0.9900689565358383
2016-10-31,-1,-0.00026948277155102433,-0.0002522760668524221,-0.003451804717707627,0.01026478172418653,0.990263694578461
2016-11-02,-1,-0.0019278798654980304,-0.001682778557130896,-0.002713516076419137,0.01026478172418653,0.9908357848241823
2016-11-04,-1,-0.00041997185831932045,-0.00034989155374820936,-0.003451804717707627,0.008080515164076957,0.9921513264356095
2016-11-08,1,0.0009461862544452642,0.0010604968251623735,-0.004152994587567534,0.008080515164076957,0.9927090996348262
2016-11-10,1,0.0003855968727776898,0.0004631730311328811,-0.002713516076419137,0.010040603722764111,0.9931391404788528
2016-11-14,1,0.00014543398812773552,0.00019159653703942596,-0.0022402354260905406,0.010040603722764111,0.9933495972167231
2016-11-16,1,0.0002964047412118307,0.000331749234668518,-0.002713516076419137,0.008080515164076957,0.9930625004850614
2016-11-18,1,0.001208101030630672,0.0014453237142024514,-0.002713516076419137,0.008080515164076957,0.9931352712226367
2016-11-22,1,0.001710993401501403,0.0020199872346415015,-0.002713516076419137,0.008428928482911595,0.9932096783526668
2016-11-25,1,0.0022397602367051103,0.002618899497759379,-0.002713516076419137,0.007825110996260017,0.9935773674174826
2016-11-29,1,0.002322857643354909,0.002698737030731085,-0.003359190521414133,0.007176000091587801,0.9931657276372646
2016-12-01,1,0.0016938775202283637,0.0019670403409932143,-0.0030241962388674964,0.007825110996260017,0.9931922179076156
2016-12-05,1,0.001951004380068731,0.002254292672453368,-0.0022266819186482524,0.007825110996260017,0.9935339166959244
2016-12-07,1,0.0023669945270590916,0.0027533959185282375,-0.001752655974415482,0.007825110996260017,0.993537999678861
2016-12-09,1,0.0030715811569419467,0.0035680343709688766,-0.0022266819186482524,0.007176000091587801,0.9932605748568056
2016-12-13,1,0.00377847241445834,0.004423084567149554,-0.0029994998744202733,0.007825110996260017,0.992115772480841
2016-12-15,1,0.003054844187158871,0.0035686628274182713,-0.0022266819186482524,0.007825110996260017,0.9932334507639717
2016-12-19,1,0.002787073035313587,0.0032107322036893995,-0.0029994998744202733,0.007825110996260017,0.9928075559145101
2016-12-21,1,0.0029415622752222096,0.003373848904146227,-0.003565221632652319,0.007517426516464885,0.9925855764893725
2016-12-23,1,0.0029958834275078446,0.003415697698087433,-0.003565221632652319,0.007827117965666824,0.9923088176358745
2016-12-28,1,0.0015742356934261303,0.00172228931041357,-0.0024070237165765263,0.007827117965666824,0.9929779886273966
2016-12-30,1,0.0018059860977252056,0.0019836256896791286,-0.0024070237165765263,0.007827117965666824,0.9926454661451496
2017-01-04,1,0.0019509399455034234,0.0021439074371656566,-0.004217892437754661,0.008097194499289322,0.9922038019223138
2017-01-06,1,0.002449851222074094,0.0026779989871120336,-0.006683684533609948,0.007170093786648721,0.9928148070473098
2017-01-10,1,0.0018150615207545237,0.0019698209624378618,-0.004217892437754661,0.007978674174273292,0.9932781814276737
2017-01-12,1,0.0024715383118916546,0.0027318794202685,-0.000995806242102416,0.007170093786648721,0.9945241829754602
2017-01-17,1,0.0025736538418816273,0.002845024119950305,-0.006683684533609948,0.007170093786648721,0.9931152722978895
2017-01-19,1,0.0022374749287502275,0.002445250496071883,-0.000995806242102416,0.007694843450773517,0.9933453616316517
2017-01-23,1,0.0020559750286337198,0.00223059549231275,0.0007647263500372806,0.007694843450773517,0.9936882638774829
2017-01-25,1,0.002459400492171084,0.0026613194086722585,0.000190885079806181,0.007484502216663049,0.9939439796787727
2017-01-27,1,0.002568439225213194,0.0027946422685672847,-0.0031236105678841583,0.007484502216663049,0.9932740632076339
2017-01-31,1,0.0034216198430986385,0.003815505231810749,0.000190885079806181,0.009671443491663712,0.9932542664361167
2017-02-02,1,0.002718155435894365,0.0029422957442571743,0.0007647263500372806,0.007484502216663049,0.9939782906111299
2017-02-06,1,0.0022485507439217126,0.0023846354488043014,0.0012649289450630003,0.007484502216663049,0.994362148787629
2017-02-08,1,0.002737735792962754,0.002954914083822743,0.000190885079806181,0.0067285719000257285,0.9934262533490865
2017-02-10,1,0.0032167905982855936,0.0035611750238087637,-0.0017651738033135412,0.007636734925799243,0.99285297145795
2017-02-14,1,0.0030206763900591724,0.0034071805975521745,-0.0017651738033135412,0.010498271475936703,0.9931017838353323
2017-02-16,1,0.0033790358746251577,0.0038254568018414627,-0.0028154445623640644,0.0075702782591568,0.9925882668092941
2017-02-21,1,0.003350633843751867,0.003760103070693766,-0.003702584344741968,0.0075702782591568,0.992022316486924
2017-02-23,1,0.0033437460010353453,0.0037185037526658873,-0.004153767018539427,0.007749169706604078,0.991819191777944
2017-02-27,1,0.002494537761296679,0.0026852593770802144,-0.004153767018539427,0.0062712444879565715,0.992067973013169
2017-03-01,1,0.0030470483070288317,0.003246885896375461,-0.004153767018539427,0.0046949235316417065,0.9930796915486315
2017-03-03,1,0.0026184107274924715,0.002708855765984655,-0.005111750174662323,0.004427229105130711,0.9924676334671297
2017-03-07,1,0.002446549113565306,0.0024954330921117818,-0.005111750174662323,0.004996452959051996,0.9921443323318669
2017-03-09,1,0.0018092335191299234,0.0018150853411733714,-0.004153767018539427,0.004996452959051996,0.9934546762554044
2017-03-13,1,0.0019701876618554086,0.0019967558032441546,-0.004153767018539427,0.004427229105130711,0.9940968722615093
2017-03-15,1,0.0025553706659147755,0.0026694047168707466,-0.003576421069086019,0.004407732682894206,0.994974163424747
2017-03-17,1,0.0018559007657373795,0.0018779660784752413,-0.0033023051971110234,0.004677363452905387,0.9952863842857783
2017-03-21,1,0.0013997085589012442,0.001444467735642631,-0.0033023051971110234,0.004407732682894206,0.9952173686749303
2017-03-23,1,0.0012790467877047019,0.0013559429044076752,-0.0026805757372269623,0.004407732682894206,0.9954788154189409
2017-03-27,1,0.0011593443454327255,0.0012380623995124607,-0.00116974974845693,0.0049379636923424786,0.9956449706911654
2017-03-29,1,0.00036253886269312736,0.0005995294053159746,-0.002210718738019463,0.0052714839289574895,0.9952214216746154
2017-03-31,1,0.0005361350649642062,0.0006764845567925731,-0.0026805757372269623,0.0052714839289574895,0.9952805326848511
2017-04-04,1,0.0014864976257556737,0.0015006033606955725,-0.0033023051971110234,0.0038526490919952644,0.9952187670372827
2017-04-06,1,0.0008985328702531439,0.0010257722066069198,-0.003634944702299574,0.0038526490919952644,0.9950779811622154
2017-04-10,1,0.0005794244820871809,0.0007618377022661365,-0.004246683534639164,0.0030407988512011993,0.9941805178836292
2017-04-12,1,0.0006717123084157039,0.0008283212043203318,-0.004292201531913016,0.0026960055915890395,0.9941636083779066
2017-04-17,1,0.0008518520043700414,0.0009839987818996995,-0.0044532551765875195,0.0026960055915890395,0.9943553938921628
2017-04-19,1,0.0004870222799021359,0.0006465545171409825,-0.0044532551765875195,0.0026960055915890395,0.9946088506560118
2017-04-21,1,0.0008505251921735233,0.0009447035347421531,-0.0044532551765875195,0.0026960055915890395,0.994521152905919
2017-04-25,1,0.0012111748357918105,0.0012599906356078887,-0.0044532551765875195,0.0026960055915890395,0.9944204215356498
2017-04-27,1,0.0010314119706128168,0.0011338675983866965,-0.0044532551765875195,0.0036499251882415673,0.9944684490973853
2017-05-01,1,0.00047374706794894525,0.0006359814432220586,-0.004292201531913016,0.004903441698498202,0.9948646457591469
2017-05-03,1,1.846169224390911e-05,0.0002338544750551451,-0.004292201531913016,0.0075683726412015834,0.9942967037906933
2017-05-05,1,9.870644740089915e-05,0.00028169273022352775,-0.0044532551765875195,0.0075683726412015834,0.9939709133507665
2017-05-09,-1,-0.0009139185038712621,-0.0006219762235038879,-0.0024027973075791778,0.0075683726412015834,0.9944883888824119
2017-05-11,-1,-0.0014248677535067616,-0.0010467351881289727,-0.0022845157029373385,0.0075683726412015834,0.9945233431528466
2017-05-15,-1,-0.001443122353944758,-0.0010694967114929866,-0.0022845157029373385,0.0075683726412015834,0.9947223666256219
2017-05-17,-1,-0.001800053116110939,-0.0013975141085274616,-0.0017340836418015646,0.007947394130753184,0.9939860300222594
2017-05-19,-1,-0.0012329100924580606,-0.0009073149640776096,-0.0022845157029373385,0.007947394130753184,0.9940988659504602
2017-05-23,-1,-0.0013897250849953773,-0.0010046805437687125,-0.004924134666033473,0.007793913769732909,0.9935628439358307
2017-05-25,-1,-0.0006433207313350236,-0.00035828182046679184,-0.004924134666033473,0.005929495506722638,0.9941289513028163
2017-05-30,-1,-0.00031957446064330766,-8.177854931303062e-05,-0.0059937720996095225,0.007926846010568473,0.9935613995091234
2017-06-01,1,0.0009414971553202015,0.0009893194897350132,-0.007897705813422204,0.0017804581472768075,0.9927950611511211
2017-06-05,-1,-0.00030118064241928515,-7.065725354266951e-05,-0.006498644194564935,0.004774708573232197,0.9933812577960405
2017-06-07,-1,-0.0004299742290198589,-0.00021283177983879545,-0.00640660475696671,0.004774708573232197,0.9932612368930659
2017-06-09,-1,-0.000542529010881726,-0.0003215650369811214,-0.00640660475696671,0.004774708573232197,0.9933664408657829
2017-06-13,-1,-0.0009080761559094252,-0.000635854851181961,-0.00640660475696671,0.007593380527775354,0.9929411579414394
2017-06-15,-1,-0.00029806914902108354,-9.552923871959619e-05,-0.00640660475696671,0.004774708573232197,0.9929610735511651
2017-06-19,1,0.000207823346869154,0.00031313013526014933,-0.00640660475696671,0.004306259385195382,0.9932783633536644
2017-06-21,-1,-0.0009166078143409993,-0.0006853964266120365,-0.004885053308414132,0.00589928242382743,0.9937212268378095
2017-06-23,-1,-0.0007684668363367565,-0.0005632944504385835,-0.004885053308414132,0.00589928242382743,0.9936831162111658
2017-06-27,-1,-0.0006977794047861549,-0.00049575290358154,-0.004885053308414132,0.005505788313079456,0.9938892020796313
2017-06-29,-1,-0.0019868428190185318,-0.001624675135257413,-0.00411701262356411,0.005505788313079456,0.9947665342881441
2017-07-03,-1,-0.0015403631825275231,-0.001254486799470069,-0.00411701262356411,0.004031515372842502,0.9949828812788918
2017-07-06,-1,-0.0020072054965637916,-0.0016701687876319942,-0.0020805637880332347,0.005505788313079456,0.9945378577953797
2017-07-10,-1,-0.002639817132946398,-0.0021852423463476975,-0.0004413385485311362,0.006049907197734609,0.9938143177267469
2017-07-12,-1,-0.002015459486725521,-0.0016587900622481526,0.00035268586984798264,0.006049907197734609,0.994089907448351
2017-07-14,-1,-0.0015899944191638572,-0.001301182997918495,0.00035268586984798264,0.005505788313079456,0.9943400014762583
2017-07-18,-1,-0.0011495337462486522,-0.0009294373947865081,8.46868711021315e-05,0.004106470450131342,0.9948101741000548
2017-07-20,-1,-0.0007671059996064559,-0.0005899483730488686,8.46868711021315e-05,0.0036273491041996903,0.995533683210726
2017-07-24,1,0.00021073372169098676,0.000219885591506765,8.46868711021315e-05,0.006049907197734609,0.9952568821393868
2017-07-26,1,0.00022360240267396426,0.0002492470165187332,0.00035268586984798264,0.007555101339698092,0.9952608246323478
2017-07-28,1,0.00035439290963394887,0.00040452613658002436,8.46868711021315e-05,0.007555101339698092,0.9951236527078733
2017-08-01,1,4.734869988000856e-06,4.483332693115932e-05,-0.000854604386687046,0.007555101339698092,0.994738929216256
2017-08-03,1,0.00045743592327848113,0.0004894539792142849,-0.0013395077805390906,0.0071195202770902655,0.995075028977723
2017-08-07,1,0.0011640213120274166,0.00132605933810443,-0.0013395077805390906,0.006909197162510798,0.995518572173348
2017-08-09,1,0.001298175364528792,0.0014407919808579932,-0.0017682507720844826,0.006909197162510798,0.994849943211406
2017-08-11,1,0.000810247150246321,0.0008779115327631731,-0.0013395077805390906,0.007555101339698092,0.9947317873172229
2017-08-15,1,0.0009287698106165807,0.0010247518346627224,-0.0017682507720844826,0.007555101339698092,0.9939373943633882
2017-08-17,1,0.0007388811938650083,0.0008028061780950658,-0.0013395077805390906,0.007555101339698092,0.9939490559105458
2017-08-21,1,0.001494482490636314,0.0016697477114637799,-0.0017682507720844826,0.0066918006173147335,0.9941560463769721
2017-08-23,1,0.0018091541781485988,0.0019984268763577765,-0.006325423931729921,0.003355641985382151,0.9936793702153798
2017-08-25,1,0.001873619662839998,0.0020852644846342475,-0.007226771731137985,0.004904927521087454,0.992696356207134
2017-08-29,1,0.0020806504787883534,0.0023276170476850414,-0.008023389766911256,0.0023300077207678406,0.9918283748904415
2017-08-31,1,0.0017127355722820722,0.0019167673084850177,-0.007555295424683394,0.0028836667878987038,0.9926029488726512
2017-09-05,1,0.0016787501609417117,0.001878775168982671,-0.008671274990277896,0.0028836667878987038,0.9918843922817325
2017-09-07,1,0.002217880194857227,0.0025034821912939924,-0.008671274990277896,0.002889271561091626,0.9926323389308774
2017-09-11,1,0.002540625718754179,0.0028432612761599796,-0.008671274990277896,0.0024090104519495516,0.9922724549801025
2017-09-13,1,0.0019079704692374563,0.002136279210103712,-0.007442733472260199,0.00486609990844587,0.9928393866967061
2017-09-15,1,0.002493234109667177,0.0028182235772213687,-0.008671274990277896,0.003442130900598414,0.9916739176331416
2017-09-19,1,0.002264689625992935,0.002578083202983091,-0.007442733472260199,0.004185626362930463,0.9924748591062799
2017-09-21,1,0.0013249777557745616,0.0014839070721432142,-0.006199422491547575,0.005941516254875941,0.9931624163004952
2017-09-25,1,0.001341112062828464,0.001482087250486518,-0.005443942526163981,0.003991239138900365,0.9941480363128415
2017-09-27,1,0.00046529141876827256,0.00048334149051457035,-0.005443942526163981,0.003991239138900365,0.9944752204636879
2017-09-29,1,3.928378885326695e-05,0.00012026195552947312,-0.005443942526163981,0.005941516254875941,0.9940684960006709
2017-10-03,-1,-0.0007253993057623767,-0.0005505260283445233,-0.003320715947674832,0.005941516254875941,0.994060668545186
2017-10-05,-1,-0.0003791133226424616,-0.00024162939580593532,-0.003320715947674832,0.004732907032100515,0.9943195952506904
2017-10-09,-1,-0.0011665198941196767,-0.0009198626357911526,-0.0019345658871945566,0.004732907032100515,0.9942038747972343
2017-10-11,-1,-0.00010736182758191369,-4.6338861314196875e-06,-0.0019345658871945566,0.004393719075033022,0.9950523245582913
2017-10-13,1,0.00012877447597935265,0.00018643986029793296,-0.0031908679116904853,0.003906385275260489,0.9954622440705347
2017-10-17,1,0.0006465874803188339,0.0006836957775522689,-0.0031908679116904853,0.004732907032100515,0.9948830071487816
2017-10-19,1,0.0010130742090263135,0.0011136181037652247,-0.005557030965440642,0.004393719075033022,0.9935766759487993
2017-10-23,1,0.0012342368795181385,0.0014052030288601157,-0.005557030965440642,0.004393719075033022,0.9935716878205343
2017-10-25,1,0.000583873543843979,0.0006378789562381639,-0.0047668003075749974,0.004393719075033022,0.9939332933457777
2017-10-27,1,0.0008394008289116942,0.000907324716816518,-0.0047668003075749974,0.004393719075033022,0.993430034715814
2017-10-31,1,0.0005204716879017943,0.0005376389712445642,-0.004256076271902122,0.004393719075033022,0.9938876640983982
2017-11-02,1,0.0005865836936533395,0.0006003698267559638,-0.0047668003075749974,0.005165117196501387,0.9927460124053636
2017-11-06,1,0.0008764845692181115,0.0009643400296356383,-0.0070433662977123605,0.004973576359772147,0.992119738862948
2017-11-08,1,0.0011912152034584574,0.0013272434427903498,-0.0070433662977123605,0.0036287579455930767,0.9920672626539665
2017-11-10,-1,-0.00018051621823735622,-8.576940217056342e-05,-0.005317178190644579,0.0036287579455930767,0.9928741324166075
