JNU-Tangyin/eata/results/Batch4_SP500/Batch4_SP500-CDNS.csv
Date,Action,Predicted_Q25,Predicted_Q75,Actual_Q25,Actual_Q75,RL_Reward
2010-12-14,0,-8.883124444752965e-05,0.0,-0.002675431315331347,0.007754006634210923,0.9935638969342178
2010-12-16,0,0.0,0.0,-0.002675431315331347,0.007754006634210923,0.9927347024973847
2010-12-20,1,0.0018112888963077558,0.0019111308170642798,-0.002675431315331347,0.009952884089605367,0.9898669066719622
2010-12-22,0,0.0,0.0,-0.004174375116674792,0.008068345920485187,0.9884188382331187
2010-12-27,0,0.0,0.0,-0.003599368744716433,0.008068345920485187,0.9890046335176671
2010-12-29,0,0.0,0.0,-0.0035359498348509913,0.01177769238561955,0.9881566064077902
2010-12-31,0,0.0,0.0,-0.0035359498348509913,0.014954423738955532,0.9861334338735464
2011-01-04,0,0.0,0.0,-0.002656449113578021,0.014954423738955532,0.9860011326927741
2011-01-06,0,0.0,0.0,-0.002656449113578021,0.016792207663869865,0.9830919365993558
2011-01-10,0,0.0,0.0,-0.0026480660682649875,0.016792207663869865,0.9826868930898459
2011-01-12,0,0.0,0.0,-0.0026234677986679664,0.0190387385227693,0.9822064187101364
2011-01-14,1,8.207277877367444e-05,0.0003980040052080734,0.0006767360515610571,0.0162354590456419,0.9830832623366892
2011-01-19,1,0.0001250958676686628,0.0004394026385462224,0.0022812477645505775,0.012111826037460287,0.9857983777911095
2011-01-21,-1,-0.002308201298656095,-0.0016947729741020332,0.0022812477645505775,0.012111826037460287,0.985706524694753
2011-01-25,-1,-0.0017128147283144248,-0.0012307129686891008,0.0015559779598354733,0.012111826037460287,0.98441429844741
2011-01-27,0,-5.6506828898450425e-05,0.00018602645780819917,-0.001807867931086347,0.012111826037460287,0.9847162856818121
2011-01-31,-1,-0.0004810302323031575,-0.0001854694687972216,-0.001807867931086347,0.010496604921593872,0.9858943685844558
2011-02-02,0,0.0,0.0,-0.001807867931086347,0.011221504454947639,0.985890287686032
2011-02-04,1,0.0038290469689102415,0.004172842870271667,-0.008903037524853236,0.009510850581357361,0.9876164066912578
2011-02-08,0,0.0,0.0,-0.008903037524853236,0.009614896633808594,0.9854759604664521
2011-02-10,0,0.0,0.0,-0.011921492265797994,0.00908902370634125,0.9848965186912568
2011-02-14,0,0.0,0.0,-0.014733788572599662,0.009614896633808594,0.9841999253381687
2011-02-16,0,0.0,0.0,-0.014733788572599662,0.009574340965596326,0.9838331186169775
2011-02-18,0,0.0,0.0,-0.012508214600117598,0.012611937758107688,0.9827104247421617
2011-02-23,1,0.004710576754636748,0.005230024413923479,-0.012508214600117598,0.012611937758107688,0.9840595350905651
2011-02-25,1,0.00400321782491253,0.004379859155699625,-0.012508214600117598,0.012611937758107688,0.9847952580166963
2011-03-01,0,0.0,0.0,-0.011179634274970639,0.012611937758107688,0.9848239717308289
2011-03-03,0,0.0,0.0,-0.011179634274970639,0.011466889165198765,0.9854638753590278
2011-03-07,0,0.0,0.0,-0.005670834826726672,0.013731270107455791,0.9864820675228057
2011-03-09,0,0.0,0.0,-0.005670834826726672,0.011466889165198765,0.9882550224447603
2011-03-11,0,0.0,0.0,-0.004066089426911603,0.011466889165198765,0.9883355276376616
2011-03-15,0,0.0,0.0,-0.0055967040482635426,0.0086795329244562,0.988823709379406
2011-03-17,1,1.672446866123078e-05,0.0002434365569006791,-0.005350136904660882,0.009446444708331407,0.9886861000890362
2011-03-21,1,0.0024043009865050706,0.0025350225963732074,-0.009402228719026254,0.006136611107074088,0.9887893873813319
2011-03-23,1,0.0020324857754710187,0.0021861879968747213,-0.005350136904660882,0.008623299216876545,0.9889200042252072
2011-03-25,1,0.0031025380790419147,0.0033959114007085355,-0.005350136904660882,0.008677789671856931,0.9894282699499444
2011-03-29,1,0.002734019830554214,0.002975034727881173,-0.0067933799071470445,0.010934263285272158,0.987821387879764
2011-03-31,1,0.0027878635880186214,0.003079352566914003,-0.009402228719026254,0.013346727791567184,0.9866216866988261
2011-04-04,0,0.0,0.0,-0.010424086131124118,0.013346727791567184,0.9846334514198132
2011-04-06,1,0.003805667172696385,0.004118285425596593,-0.013813359996413074,0.013346727791567184,0.9838113981792378
2011-04-08,0,0.0,0.0,-0.011854284454247351,0.019654698635043797,0.9830402578422679
2011-04-12,0,0.0,0.0,-0.013698972139708814,0.019654698635043797,0.982852960558172
2011-04-14,0,0.0,0.0,-0.013698972139708814,0.019133884087376637,0.9826560587250751
2011-04-18,0,0.0,0.0,-0.013698972139708814,0.019133884087376637,0.9826348629261296
2011-04-20,0,0.0,0.0,-0.013698972139708814,0.023027929906742205,0.9817659268243285
2011-04-25,0,0.0,0.0,-0.014734006269242053,0.023027929906742205,0.9807168888945814
2011-04-27,0,0.0,0.0,-0.014734006269242053,0.023027929906742205,0.9806472317095787
2011-04-29,0,0.0,0.0,-0.014734006269242053,0.019501665762118158,0.9821684684017625
2011-05-03,1,0.0009136467224665947,0.0009911381742096397,-0.014093849639515203,0.014935271118990127,0.9838253341028294
2011-05-05,1,4.36829276178898e-05,0.00017534586951026038,-0.012163688757829721,0.014935271118990127,0.9853474302014225
2011-05-09,1,0.0015333006297395895,0.0015530947305046866,-0.012624086704566962,0.011964440951616556,0.9855932846185655
2011-05-11,0,0.0,0.0,-0.013068055292575154,0.0071511749783657545,0.9859090983491539
2011-05-13,0,0.0,0.0,-0.01692847943284317,0.0026658107102295672,0.9863685938059644
2011-05-17,0,0.0,0.0,-0.01692847943284317,0.004747478808161945,0.9852243076028334
2011-05-19,0,0.0,0.0,-0.01692847943284317,0.004747478808161945,0.9864580853993475
2011-05-23,-1,-0.0023320461997653925,-0.0018377923535235173,-0.012319436766521728,0.005403672728913681,0.9875245203121598
2011-05-25,-1,-0.0008501316605497916,-0.0005274449723283689,-0.012319436766521728,0.005403672728913681,0.9889032702270089
2011-05-27,-1,-0.0011393672923007802,-0.0007941989674921928,-0.013219667378564011,0.005403672728913681,0.9882163177942074
2011-06-01,-1,-0.0012108390610136147,-0.0008830472810045123,-0.013219667378564011,0.007649318586117856,0.9876801149455341
2011-06-03,-1,-0.0007546398253319561,-0.0003593280907301906,-0.013219667378564011,0.010179415944547864,0.9870503929113641
2011-06-07,-1,-0.00102170748796535,-0.0006151793091522535,-0.008816793771484704,0.007649318586117856,0.9883083881565019
2011-06-09,-1,-0.0012791313349804342,-0.0008840905162730492,-0.008816793771484704,0.00808526207648341,0.988489001077726
2011-06-13,-1,-0.001837587786709328,-0.0013888780373926231,-0.012861398583341063,0.00808526207648341,0.9872410496107809
2011-06-15,-1,-0.0029096874965630045,-0.0022508565736157893,-0.012861398583341063,0.00708284608902196,0.9888248734908431
2011-06-17,-1,-0.0034057682119535975,-0.0026801709693157548,-0.013418001988826225,0.00808526207648341,0.9882479637868922
2011-06-21,-1,-0.00241508337116827,-0.0018451899494463671,-0.013418001988826225,0.00808526207648341,0.9883147753281898
2011-06-23,-1,-0.0021440212839909205,-0.0015975278302555575,-0.013418001988826225,0.008195339224420312,0.9879041045008942
2011-06-27,-1,-0.002343515577921996,-0.001807280905492174,-0.011523165970882704,0.008195339224420312,0.988289728246049
2011-06-29,1,5.3411930911258134e-05,0.00019002547178460186,-0.014855523755235934,0.00648095669353739,0.987106927603058
2011-07-01,1,0.0005385598302275358,0.0005749732718337425,-0.021089544023455507,0.00648095669353739,0.9817424019054403
2011-07-06,1,0.0008802172897731246,0.0009319367702178953,-0.024014475287521944,0.008195339224420312,0.9790338421180718
2011-07-08,1,0.0010926483585061686,0.0012042453956508461,-0.025351183181874768,0.0071575063385701885,0.9758318041203119
2011-07-12,0,0.0,0.0,-0.025956681899556626,0.011479706978486706,0.9704157958158781
2011-07-14,0,0.0,0.0,-0.027450587994302847,0.015823395276296504,0.967797621877265
2011-07-18,0,0.0,0.0,-0.027450587994302847,0.020395453335862217,0.9673663746089891
2011-07-20,-1,-0.0012522016301015461,-0.0010483688029474603,-0.03266111068656842,0.01865685781314481,0.9666728784887084
2011-07-22,0,0.0,0.0,-0.03655044881521926,0.0064648335590206316,0.9628524566614587
2011-07-26,0,0.0,0.0,-0.03655044881521926,0.030767799530352975,0.9604336196831044
2011-07-28,-1,-0.006169580983436718,-0.005382417141700972,-0.034194828779554744,0.030767799530352975,0.9613959368058291
2011-08-01,-1,-0.005561049603067763,-0.0049332493620384745,-0.034194828779554744,0.0317440232847737,0.9630900370880375
2011-08-03,0,0.0,0.0,-0.03187590400801358,0.0317440232847737,0.9650253359530025
2011-08-05,0,0.0,0.0,-0.03187590400801358,0.0317440232847737,0.966945230750634
2011-08-09,-1,-0.00716239651626034,-0.006356726839956946,-0.029010055117921714,0.03146495375211133,0.9729020159427124
2011-08-11,-1,-0.006004063312265461,-0.005394324150883474,-0.021142580161417582,0.02575746475081915,0.9763326956424424
2011-08-15,-1,-0.005825033651431265,-0.005218378552617945,-0.021142580161417582,0.02575746475081915,0.9755371756335275
2011-08-17,-1,-0.005472393725730759,-0.00477198165201801,-0.012297498746158028,0.030953757830955313,0.9743225667518375
2011-08-19,-1,-0.00909415513455189,-0.008125992408798376,-0.00738233504008236,0.030953757830955313,0.9760573213364715
2011-08-23,0,0.0,0.0,-0.010101857875552546,0.02575746475081915,0.9802725579796577
2011-08-25,0,0.0,0.0,-0.010101857875552546,0.022207373401503958,0.9803400394252735
2011-08-29,0,0.0,0.0,-0.010101857875552546,0.0175548882858425,0.9816731840741416
2011-08-31,0,0.0,0.0,-0.012297498746158028,0.0175548882858425,0.9797737148153882
2011-09-02,-1,-0.0046409953052805215,-0.004104303471313655,-0.020204629976044143,0.0175548882858425,0.9791686462587008
2011-09-07,0,0.0,0.0,-0.020204629976044143,0.0175548882858425,0.9792742137254797
2011-09-09,0,0.0,0.0,-0.01368429598880155,0.019339987474438068,0.9793632030387583
2011-09-13,0,0.0,0.0,-0.01368429598880155,0.019339987474438068,0.9795592516140021
2011-09-15,1,0.0001891803234600682,0.00023652633320249278,-0.01368429598880155,0.014331728202345774,0.98181554338676
2011-09-19,0,0.0,0.0,-0.020197222889351076,0.014577763816866391,0.9810689332794725
2011-09-21,-1,-0.00014228973473680485,-7.148017333045279e-05,-0.012886291694367523,0.015391966944700243,0.9813577825988626
2011-09-23,-1,-0.0003854224206379613,-0.00034488467305317244,-0.006495949961770824,0.015391966944700243,0.9822978442965672
2011-09-27,0,0.0,0.0,-0.012886291694367523,0.015391966944700243,0.9818703184100498
2011-09-29,0,0.0,0.0,-0.006495949961770824,0.020760746670253585,0.9801347966329493
2011-10-03,-1,-0.001658207735352328,-0.0016275119296473818,-0.004022410320693895,0.020760746670253585,0.9825438295540895
2011-10-05,1,0.0003312878563016255,0.0006320272976755463,-0.0046182023588530385,0.015391966944700243,0.9830008049304653
2011-10-07,1,0.000442655607896092,0.0006962726664937106,-0.0046182023588530385,0.015152721882985068,0.9830449890991539
2011-10-11,1,0.002326034571378957,0.002874845986992113,-0.005793932825122397,0.015152721882985068,0.9834552815108891
2011-10-13,1,0.0019335893108267904,0.002358866636618454,-0.008817450080703775,0.015152721882985068,0.9825353907688642
2011-10-17,1,0.0022904716858935968,0.002824168736854215,-0.007250785474895065,0.018842812209135917,0.9827626220051666
2011-10-19,1,0.002358979426935654,0.002895081713767186,-0.007250785474895065,0.018842812209135917,0.9822033985950966
2011-10-21,1,0.0029543505053055835,0.0035583182856496914,-0.0098476382793796,0.015095830562583429,0.9821560949340575
2011-10-25,1,0.0034453973187745014,0.0041155382747877795,-0.012164416871874879,0.01226580889911028,0.9824426571397803
2011-10-27,1,0.003822276520261075,0.00452272698869945,-0.015925101199329873,0.011253363718305574,0.984204931017144
2011-10-31,1,0.003164791545515448,0.00374268427982285,-0.015925101199329873,0.01226580889911028,0.9831087369885791
2011-11-02,1,0.0025015949321785884,0.0029545692920676368,-0.015396521573373359,0.015095830562583429,0.9812324616430361
2011-11-04,1,0.003007391285979426,0.0035214129657375084,-0.015396521573373359,0.014444993531460372,0.9814198230383308
2011-11-08,1,0.003452243167858149,0.00401256873787802,-0.015396521573373359,0.01226580889911028,0.982377277196832
2011-11-10,1,0.0036476128618669534,0.0042676559933729295,-0.016981903063392905,0.014444993531460372,0.9816204844785164
2011-11-14,1,0.004130467158360247,0.004832685233226811,-0.022101462663687815,0.007687812280483149,0.9798627949385748
2011-11-16,1,0.003727005657506453,0.004357720491243366,-0.019420231672095545,0.002081498063591423,0.9805467371468958
2011-11-18,1,0.0035029965490509943,0.004150050271324757,-0.02227500110866765,0.008110031968664238,0.9801467115338958
2011-11-22,1,0.0026529993622822975,0.0032192754821091622,-0.019014394504879004,0.01669947053657029,0.9798713421809092
2011-11-25,1,0.0016292158717643836,0.0020545230287447687,-0.016849328250693255,0.01669947053657029,0.981581152950034
2011-11-29,1,0.0020256295352184105,0.002494140809795595,-0.019014394504879004,0.014797450323039977,0.9815070583101144
2011-12-01,1,0.0022054899192326255,0.00261231365092157,-0.019014394504879004,0.014797450323039977,0.9841427652926682
2011-12-05,1,0.002331132593808189,0.0027010676980288636,-0.02227500110866765,0.007975171204311328,0.9830353336234321
2011-12-07,1,0.001967562245601118,0.0022720036092856596,-0.02227500110866765,0.015785268263606628,0.9813589178890013
2011-12-09,1,0.0020455647106664026,0.0023789024891434194,-0.01931139474895181,0.011085822781711526,0.982210713868613
2011-12-13,1,0.000895381120608835,0.0011177638571462864,-0.016682144920495058,0.011085822781711526,0.9844775584382089
2011-12-15,1,0.00034003056685235494,0.000467731435030546,-0.017524975727712465,0.011085822781711526,0.983939099953179
2011-12-19,-1,-0.0005718243588479426,-0.0005028640530451894,-0.0146436234242198,0.01605216392069638,0.9821212838457141
2011-12-21,1,0.0011198679055482424,0.001250123988905978,-0.013193113143461421,0.011085822781711526,0.984043064182316
2011-12-23,1,0.0014548596147875054,0.0016150308109966758,-0.013193113143461421,0.012448399741560198,0.9835120770788428
2011-12-28,-1,-0.0011018237105182831,-0.000812153248764868,-0.009608739059589332,0.012448399741560198,0.9853578572095244
2011-12-30,-1,-0.0007280666283769096,-0.000431894719254051,-0.011687652012268873,0.00766000981401185,0.9861126544870656
2012-01-04,-1,-0.0016990593151927733,-0.0013288423179843515,-0.009167561714709619,0.020639080591024254,0.982669096701818
2012-01-06,-1,-0.000427683342404528,-0.0002594572764114539,-0.008700351849439202,0.012448399741560198,0.9841826063347029
2012-01-10,-1,-0.001599395786849509,-0.00121100204817598,-0.005787937513476227,0.01273101548909114,0.9846136611412467
2012-01-12,0,0.0,0.0,-0.008700351849439202,0.020059303904926728,0.9833506274794128
2012-01-17,0,0.0,0.0,-0.006579181610575829,0.020059303904926728,0.9839096584207889
2012-01-19,0,0.0,0.0,-0.006579181610575829,0.010523039739609741,0.9869168189975831
2012-01-23,0,0.0,0.0,-0.004978478148267974,0.010523039739609741,0.9874359630233136
2012-01-25,0,0.0,0.0,-0.006330861329983645,0.009555526871361344,0.9874895447722698
2012-01-27,0,0.0,0.0,-0.007501721739670061,0.009555526871361344,0.9872618812546171
2012-01-31,0,0.0,0.0,-0.006330861329983645,0.009555526871361344,0.9874846500371244
2012-02-02,0,0.0,0.0,-0.007501721739670061,0.00868048696981236,0.9905870736413002
2012-02-06,0,0.0,0.0,-0.008251751798909898,0.00868048696981236,0.9901106035834062
2012-02-08,0,0.0,0.0,-0.008251751798909898,0.00975155398266516,0.9879649112944827
2012-02-10,0,0.0,0.0,-0.007501721739670061,0.00868048696981236,0.9894506920391659
2012-02-14,0,0.0,0.0,-0.008251751798909898,0.00868048696981236,0.988416815802658
2012-02-16,0,0.0,0.0,-0.008251751798909898,0.009541953775396784,0.9879585763005634
2012-02-21,-1,-6.263090837907583e-05,-6.110137853871545e-05,-0.010385181786404636,0.009541953775396784,0.987228516572439
2012-02-23,1,0.001666105346854077,0.0016899478194280376,-0.008251751798909898,0.008660519913799703,0.9878604343580454
2012-02-27,1,7.908741812947184e-05,0.00033996189738733876,-0.008767616659768225,0.010049597092436096,0.9877669952926413
2012-02-29,0,0.0,0.0,-0.008767616659768225,0.010049597092436096,0.9877856173708951
2012-03-02,0,0.0,0.0,-0.008767616659768225,0.007762308219705896,0.9885827053345962
2012-03-06,0,0.0,0.0,-0.005158187948057541,0.007762308219705896,0.9896884106849099
2012-03-08,0,0.0,0.0,-0.006296547126981794,0.004191210712792473,0.9917700936838459
2012-03-12,0,0.0,0.0,-0.010673138305976668,0.00296899549596506,0.9899044866742434
2012-03-14,1,0.0013165115945536852,0.0013297509194943624,-0.008921475191787293,0.0049920623943079615,0.9899167615533192
2012-03-16,1,0.001804141262247695,0.0019101260988854465,-0.008921475191787293,0.00296899549596506,0.9904372338927512
2012-03-20,1,0.0015685988824189693,0.0016585239809025017,-0.007881669678682729,0.00296899549596506,0.9904293084623403
2012-03-22,1,0.002523562407586913,0.0028702283169228845,-0.008921475191787293,0.00296899549596506,0.9894052405426621
2012-03-26,1,0.0022153086645640423,0.0024933186853154906,-0.01188941281072684,0.0012560652902104943,0.9891243477774798
2012-03-28,0,0.0,0.0,-0.01188941281072684,0.006281128474084038,0.9877600976218434
2012-03-30,0,0.0,0.0,-0.01188941281072684,0.006281128474084038,0.9879086203519365
2012-04-03,0,0.0,0.0,-0.01188941281072684,0.005027134942136404,0.9877804376167729
2012-04-05,0,0.0,0.0,-0.015072763153247369,0.00375657493042833,0.9867023372364551
2012-04-10,0,0.0,0.0,-0.011265672800579047,0.007852133226584618,0.9881721977090056
2012-04-12,0,0.0,0.0,-0.01337913574461433,-0.0010484257405917843,0.9884961913593165
2012-04-16,0,0.0,0.0,-0.01337913574461433,0.0015626505610909708,0.988287813695948
2012-04-18,0,0.0,0.0,-0.015072763153247369,-0.0004802309176588366,0.9881059924264392
2012-04-20,0,0.0,0.0,-0.01696074474681985,-0.0004802309176588366,0.9864678125649858
2012-04-24,0,0.0,0.0,-0.01696074474681985,0.0015626505610909708,0.9855339590099276
2012-04-26,0,0.0,0.0,-0.01696074474681985,0.0015626505610909708,0.986948826703834
2012-04-30,0,0.0,0.0,-0.014635491993280214,0.004339302509248177,0.9862089132749032
2012-05-02,1,0.0002477288660427203,0.0003154381056463269,-0.020508688849533246,0.004339302509248177,0.9850227733404556
2012-05-04,-1,-0.0007834810101216949,-0.0006008195179503727,-0.02067685856545351,0.0065257770417439425,0.9848199263035865
2012-05-08,0,0.0,0.0,-0.02067685856545351,0.00974145266592481,0.9820733754923034
2012-05-10,0,0.0,0.0,-0.013591118891776404,0.00974145266592481,0.9826440407129505
2012-05-14,-1,-0.0037810589741199834,-0.003121899567132878,-0.014196076428975062,0.00974145266592481,0.9828127810370441
2012-05-16,0,0.0,0.0,-0.012828717891270401,0.015913630961892435,0.9824241288743016
2012-05-18,0,0.0,0.0,-0.008008772562158175,0.017687698469425053,0.9832993987742309
2012-05-22,-1,-0.005452246083667215,-0.0045877337395044985,-0.011131146479808635,0.015913630961892435,0.9839437284642504
2012-05-24,-1,-0.004127277482372462,-0.0034541747789299682,-0.011729019209615558,0.014076306075611203,0.983873071723411
2012-05-29,-1,-0.004386396370059431,-0.003636784374901047,-0.012828717891270401,0.013804529367644503,0.9835156292738451
2012-05-31,-1,-0.005048503018550067,-0.004246136979326451,-0.011332798992208187,0.013804529367644503,0.9841775463509429
2012-06-04,-1,-0.006010047103270062,-0.005102357914998332,-0.007730771238916558,0.017802200372446734,0.9824218119220745
2012-06-06,-1,-0.003405109034183105,-0.002808192878330622,-0.007730771238916558,0.01646595143989653,0.9841848994238049
2012-06-08,-1,-0.004298558272614485,-0.0035599995922936637,-0.012828717891270401,0.01646595143989653,0.9828825664659577
2012-06-12,-1,-0.0028777410032216687,-0.0024565653137629557,-0.014311677395872989,0.01646595143989653,0.9830204350713704
2012-06-14,-1,-0.0033775811747381998,-0.002851858319989002,-0.01480953594600274,0.016743625275866713,0.982883448377786
2012-06-18,-1,-0.0022018473063950415,-0.001841046288559652,-0.01480953594600274,0.015650621315996427,0.983618292704866
2012-06-20,-1,-0.0025962159275018876,-0.0021730006933799338,-0.01480953594600274,0.01768680247916383,0.9823622833416141
2012-06-22,-1,-0.0029499883157304225,-0.002469169480663245,-0.012544531113800887,0.01768680247916383,0.9833344529503849
2012-06-26,-1,-0.0008102263677189339,-0.0007767689544151569,-0.012544531113800887,0.01768680247916383,0.9836073967162179
2012-06-28,-1,-0.0010715042486356084,-0.0009820322182903824,-0.012544531113800887,0.022389206753047272,0.9797616621626392
2012-07-02,1,0.0011159673510263532,0.0013200675044776496,-0.012657751554750522,0.01768680247916383,0.9829217680110246
2012-07-05,0,0.0,0.0,-0.012657751554750522,0.017063122893425597,0.9845901389117411
2012-07-09,0,0.0,0.0,-0.009471150539655662,0.017063122893425597,0.9859025367168004
2012-07-11,1,0.000984264398917513,0.0012142205615661146,-0.00457426160763702,0.017063122893425597,0.9867141233440605
2012-07-13,1,0.0010216670744752922,0.001247587362595639,-0.002029964274608411,0.015871943629200035,0.9877367222096347
2012-07-17,1,0.0014183351473471676,0.001699772795450207,-0.00457426160763702,0.015871943629200035,0.9875934511493434
2012-07-19,1,0.0024125837840241987,0.0028050849947259746,-0.00457426160763702,0.01167155011227387,0.9885325176730777
2012-07-23,1,0.0018228682210943837,0.0021237088034956955,-0.0018226072376310472,0.01167155011227387,0.9891915291167043
2012-07-25,1,0.00153741899848762,0.0017786827156741009,-0.0016008258920097208,0.010521028716510783,0.990754741731633
2012-07-27,1,0.0036730804988841055,0.004142692750021743,-0.0018226072376310472,0.006895165406918385,0.9935696266512931
2012-07-31,1,0.0036777148289268667,0.004259139286120513,-0.001571126269053281,0.009148099154404444,0.9936811851314309
2012-08-02,0,0.0,0.0,-0.0025959466582525007,0.009148099154404444,0.992461359621339
2012-08-06,0,0.0,0.0,-0.0017894866865577508,0.010521028716510783,0.9912960016938893
2012-08-08,0,0.0,0.0,-0.0017894866865577508,0.010521028716510783,0.9911645427902472
2012-08-10,0,0.0,0.0,-0.0017708272472924096,0.009148099154404444,0.9911777421781996
2012-08-14,0,0.0,0.0,0.0012891168625952046,0.009240774649243798,0.9908704712990296
2012-08-16,0,0.0,0.0,-0.0021300539473293545,0.00831690605698901,0.991683730697562
2012-08-20,0,0.0,0.0,-0.0041549359933268325,0.006733202657698498,0.9917563726150854
2012-08-22,-1,-0.0026853507567413605,-0.002648453239157743,-0.005525346037614835,0.005384187176115123,0.9911973434301485
2012-08-24,1,0.002759815407483929,0.003172250509241566,-0.005525346037614835,0.005384187176115123,0.9917897279830259
2012-08-28,0,0.0,0.0,-0.006865226171591285,0.004456027160767063,0.9917967745888119
2012-08-30,0,0.0,0.0,-0.005525346037614835,0.005306288102101528,0.992166394392538
2012-09-04,0,0.0,0.0,-0.006865226171591285,0.004456027160767063,0.9930632314233013
2012-09-06,0,0.0,0.0,-0.006865226171591285,0.007226560157141649,0.9926268622592562
2012-09-10,0,0.0,0.0,-0.011868120795482516,0.0034369584111039017,0.9919881809448452
2012-09-12,0,0.0,0.0,-0.00866145360479134,0.0005597143190217181,0.9923011769947088
2012-09-14,0,0.0,0.0,-0.00866145360479134,0.0034369584111039017,0.9917694145303585
2012-09-18,0,0.0,0.0,-0.00866145360479134,0.007226560157141649,0.9904788475466093
2012-09-20,1,0.004356165104736964,0.005016668461573644,-0.011750815812337098,0.007226560157141649,0.9888462326454955
2012-09-24,1,0.003684858574389849,0.004243810069559156,-0.011750815812337098,0.007226560157141649,0.9885431486394054
2012-09-26,1,0.0020156158382103762,0.0022725190982675458,-0.009377183464755585,0.007992771442241187,0.9893561922825584
2012-09-28,1,0.0020584304454310262,0.002308464427280947,-0.009377183464755585,0.00740687641928121,0.9896529791648162
2012-10-02,1,0.0013494483345584814,0.001454086261704114,-0.009377183464755585,0.00740687641928121,0.9885108534815248
2012-10-04,1,0.0017315254999368428,0.0018623002351663826,-0.011603594302011551,0.004372331503901207,0.9878940506724145
2012-10-08,0,0.0,0.0,-0.009377183464755585,0.006325928282288593,0.9871964579692517
2012-10-10,0,0.0,0.0,-0.011603594302011551,0.006325928282288593,0.9872802231281547
2012-10-12,-1,-0.0011743714501317396,-0.0008115533406641711,-0.011603594302011551,0.004372331503901207,0.9878954342329118
2012-10-16,1,0.000232800362843807,0.0004072177849247805,-0.011725677079643277,0.002401052953285284,0.9882351731021333
2012-10-18,-1,-0.0004175081545817478,-0.00017259823607201322,-0.011725677079643277,0.007182874349490086,0.9877262004507258
2012-10-22,-1,-0.0021995650005997105,-0.0016933670685023816,-0.010692444060026498,0.014116870811885705,0.9879058358423046
2012-10-24,-1,-0.002645740150576598,-0.002001640867380314,-0.010692444060026498,0.008872695572252958,0.9888293687883759
2012-10-26,-1,-0.0011495211078014506,-0.0007878882658944129,-0.011725677079643277,0.012694538905539118,0.9879075793949821
2012-11-01,-1,-0.00036113704648712685,-9.370142432916964e-05,-0.011657489494972351,0.008872695572252958,0.989222112432964
2012-11-05,-1,-0.001295949483861214,-0.0009049876243702256,-0.01066971486513619,0.008872695572252958,0.9900828532553358
2012-11-07,-1,-0.0015967125296416187,-0.0011677049565200816,-0.007345705870580031,0.006625487406059675,0.9917283290953287
2012-11-09,-1,-0.0017125370569295432,-0.0013074940573596487,-0.0056338813917816265,0.008321694088352313,0.9913054432590906
2012-11-13,-1,-0.002127279568051166,-0.0016591765431480528,-0.004290467702956669,0.008321694088352313,0.9913166040141692
2012-11-15,-1,-0.0033931580142955112,-0.002755920366503052,-0.00386502228531183,0.01058187448222399,0.9910880764140517
2012-11-19,-1,-0.0025363405831779727,-0.001974189386009332,-0.00386502228531183,0.008321694088352313,0.9920707878604903
2012-11-21,-1,-0.0022539261322237812,-0.0017072452736528623,-0.00386502228531183,0.008321694088352313,0.9925496089194663
2012-11-26,-1,-0.0009920699344405394,-0.0006921925266585801,-0.0038342879874272737,0.008075615009771638,0.99274726418215
2012-11-28,-1,-0.00023612924366327544,-8.945235020744644e-05,-0.0038342879874272737,0.006543461046532784,0.9930131011262554
2012-11-30,-1,-0.0020387854678971303,-0.001600247117877477,-0.0025987955920572163,0.006543461046532784,0.9929915309518047
2012-12-04,-1,-0.002506513962657023,-0.001987438551726223,-0.0025987955920572163,0.008075615009771638,0.99009732664236
2012-12-06,-1,-0.0023416904465235555,-0.0018326417060802805,-0.0037477286445281636,0.008075615009771638,0.9902910151257448
2012-12-10,-1,-0.0015675973741942867,-0.0011743637087525045,-0.0037477286445281636,0.008187663731007724,0.9899018925097414
2012-12-12,-1,-0.0008869737277227343,-0.0006352146604989631,-0.0025987955920572163,0.008187663731007724,0.9896765933433646
2012-12-14,-1,-0.001254540862837916,-0.000916339851081972,-0.0025987955920572163,0.007338390233912704,0.9898259312316506
2012-12-18,-1,-0.0009776012772517977,-0.0006670825324986315,-0.0025987955920572163,0.007338390233912704,0.9896185503800344
2012-12-20,1,0.0009118434102183621,0.0009497178623183654,-0.0039847707724660125,0.0072465189589604115,0.9898700254208709
2012-12-24,1,0.0007689916715080126,0.0007765221328492123,-0.008737564481850217,0.006300725633392451,0.989822306255305
2012-12-27,1,0.00028733993110748084,0.00035024366907495795,-0.006365163320193636,0.0072465189589604115,0.9895179863034474
2012-12-31,1,0.0007006061040099618,0.0007052453664920643,-0.007481715914423085,0.0072465189589604115,0.9890923725235212
2013-01-03,1,0.0008758539660136285,0.0009080438630658204,-0.0060299213447189935,0.0072465189589604115,0.9913710643436453
2013-01-07,1,0.00040083244660968825,0.0004108969958711609,-0.0060299213447189935,0.0072465189589604115,0.9906255834178427
2013-01-09,1,0.0009911701694155627,0.0010286053434448033,-0.007481715914423085,0.006110556048577747,0.990641019312437
2013-01-11,1,0.0016451632031436296,0.001809518622158811,-0.007481715914423085,0.008252508606953531,0.9901550278615525
2013-01-15,1,0.0015931304292408728,0.001762532763495711,-0.007256936585498287,0.011332234498427058,0.9900402180654866
2013-01-17,1,0.00240353858411407,0.00269315555637509,-0.007256936585498287,0.006158528704778951,0.9904729348735881
2013-01-22,1,0.0016787744658073637,0.0018475321266400602,-0.007256936585498287,0.006158528704778951,0.9908102893891341
2013-01-24,1,0.0018052548331603702,0.002039311343106778,-0.0060299213447189935,0.009313039271614715,0.9907479032324171
2013-01-28,1,0.002030791569431739,0.002261302215022494,-0.007850368704502002,0.00759173453380182,0.9906664128085365
2013-01-30,1,0.002302836102891543,0.00265004196188665,-0.007850368704502002,0.009313039271614715,0.9907623249713499
2013-02-01,1,0.0028874690033309143,0.0033243581440512635,-0.008806892728452883,0.009313039271614715,0.9895552106780082
2013-02-05,1,0.0023235856093256502,0.0027097813515970888,-0.007850368704502002,0.010774361774616114,0.9900069450371372
2013-02-07,1,0.0024640592533962773,0.002861543266150437,-0.007850368704502002,0.009313039271614715,0.9903361176338886
2013-02-11,1,0.0029947990557389324,0.0034504917957573667,-0.008696725482194875,0.00759173453380182,0.9890173835968874
2013-02-13,1,0.002616937979385737,0.002996090269972173,-0.008696725482194875,0.006948853003755121,0.9897016502378354
2013-02-15,1,0.0025851767922437366,0.0029486030993761854,-0.012050070306352384,0.006948853003755121,0.9880856914023377
2013-02-20,1,0.001932353856505405,0.0021685041967718236,-0.012705202763668908,0.006948853003755121,0.9878898048919793
2013-02-22,1,0.0019953496397000048,0.0021326510961937597,-0.012705202763668908,0.0036936303113210044,0.9879627893150781
2013-02-26,1,0.0012267882032409852,0.001265745212121105,-0.010334320781426334,0.007012411974266566,0.988128141258698
2013-02-28,0,0.0,0.0,-0.010334320781426334,0.007012411974266566,0.9883567278069703
2013-03-04,1,0.0020468392602605145,0.0022145999678902656,-0.010334320781426334,0.005547522138478773,0.9889228404705477
2013-03-06,1,0.002299189914735227,0.0024464445742189453,-0.013802434232711453,0.005547522138478773,0.988139439538974
2013-03-08,1,0.0013801090104451793,0.0013846764541623517,-0.013802434232711453,0.005547522138478773,0.9885274271188829
2013-03-12,0,0.0,0.0,-0.011574483751710326,0.005653830201758335,0.9900423749473696
2013-03-14,0,0.0,0.0,-0.012905355674783391,0.005653830201758335,0.9894538649615774
2013-03-18,-1,-0.0009576745357007435,-0.0007286981897095671,-0.011713860681390853,0.005653830201758335,0.9899212414820514
2013-03-20,0,0.0,0.0,-0.011713860681390853,0.005653830201758335,0.9890334980237346
2013-03-22,0,0.0,0.0,-0.011713860681390853,0.007670838870234717,0.9881132423996626
2013-03-26,0,0.0,0.0,-0.011713860681390853,0.0059933329078878,0.9890246003252756
2013-03-28,0,0.0,0.0,-0.011713860681390853,0.005149242246661461,0.9856160015501236
2013-04-02,0,0.0,0.0,-0.011167555989234183,0.009794273318960845,0.9860946568913035
2013-04-04,0,0.0,0.0,-0.009900073478929603,0.007655924456467648,0.9872681800095178
2013-04-08,0,0.0,0.0,-0.009239942870400829,0.007655924456467648,0.9875375986661863
2013-04-10,0,0.0,0.0,-0.009239942870400829,0.005621024507435578,0.9880587902498966
2013-04-12,-1,-0.00044142677319130067,-0.00025719555305556174,-0.007685745012061865,0.007655924456467648,0.9880672944416476
2013-04-16,0,0.0,0.0,-0.0052758399479135454,0.007655924456467648,0.9888463579380152
2013-04-18,0,0.0,0.0,-0.0030675593831605624,0.009104671409084109,0.9895818642380636
2013-04-22,-1,-0.0034849801005964157,-0.0029281425909398343,-0.00018262500111673686,0.009104671409084109,0.9885282672415894
2013-04-24,-1,-0.0029438251120594413,-0.002457303274903442,-0.0030675593831605624,0.008700598313676627,0.9890470872830086
2013-04-26,-1,-0.0003509580892493826,-0.00013723239291249805,-0.0017422804722773788,0.007521233424665154,0.9937105376746834
2013-04-30,0,-8.016372578992996e-05,0.0001068428877706452,0.00020000504887611914,0.007521233424665154,0.9940189076283851
2013-05-02,1,6.242250735817524e-05,0.0002198239059478106,0.00020989282618105146,0.008700598313676627,0.993721579244223
2013-05-06,1,0.00042343150437700326,0.0005126895009707243,0.00020989282618105146,0.008700598313676627,0.9936975545649437
2013-05-08,0,0.0,0.0,-0.0013299870903697257,0.008700598313676627,0.9927201666550513
2013-05-10,0,0.0,0.0,-0.0013299870903697257,0.008887332008778066,0.9923927826057587
2013-05-14,0,0.0,0.0,-0.0028820873098895534,0.008887332008778066,0.9919054743229881
2013-05-16,0,0.0,0.0,-0.005390948519816735,0.008538874562076103,0.9921133601499137
2013-05-20,0,0.0,0.0,-0.005390948519816735,0.008538874562076103,0.9920039285181845
2013-05-22,1,0.0016824981832632506,0.0018152307098023156,-0.008573017917493883,0.007941329662612968,0.9904380048022738
2013-05-24,1,0.00181265964164465,0.001966892916678009,-0.010469051748462039,0.007941329662612968,0.9899030110989704
2013-05-29,1,0.0021050557506935097,0.002314241866714355,-0.010469051748462039,0.007941329662612968,0.9898399854423559
2013-05-31,1,0.002164113962727563,0.0023549337801865708,-0.010469051748462039,0.007941329662612968,0.9897552512257207
2013-06-04,1,0.0022024314808280947,0.0024573416991199963,-0.008774023236394413,0.00910792859507569,0.9898781653090005
2013-06-06,1,0.0022026517982089585,0.002475522227058855,-0.007987565179857447,0.00975321791129934,0.9891262021544026
2013-06-10,1,0.002271564505675343,0.002539560941817374,-0.0060870630253381285,0.00910792859507569,0.9897653479157146
2013-06-12,1,0.0019948804005880836,0.002273817053313482,-0.003825847048835275,0.00975321791129934,0.9902623556606152
2013-06-14,1,0.0017956378861980857,0.002020217807916969,-0.002880640286834178,0.009412689361239145,0.9902980390401376
2013-06-18,1,0.002070840161375727,0.002311358887486183,-0.002880640286834178,0.008994419078388959,0.9908909146296815
2013-06-20,1,0.0010223851674039772,0.0011586283404954223,-0.001949387424127612,0.008994419078388959,0.9928467855806552
2013-06-24,1,0.0004218352250196922,0.00045023151348906674,-0.0021130207730266615,0.008994419078388959,0.9926240345761614
2013-06-26,1,0.0012202573499629729,0.0013706617367936205,-0.00359996833435108,0.008486480164757339,0.9911112973827502
2013-06-28,1,0.0009707406797035057,0.0010449380991824609,-0.005256977520654187,0.007558738058965282,0.9902041093513946
2013-07-02,1,0.0012734091113340204,0.001409840966851788,-0.005256977520654187,0.007558738058965282,0.9901179217776546
2013-07-05,1,0.0030132795136423992,0.00341513424775182,-0.005256977520654187,0.007558738058965282,0.9903998891143608
2013-07-09,1,0.003034279287274801,0.0034518470541598603,-0.009928723524403035,0.00731076320028742,0.9891408774536473
2013-07-11,1,0.0036926962019413825,0.0041876021883345445,-0.009928723524403035,0.004131909352517032,0.9888866029955794
2013-07-15,1,0.0040085171097292505,0.004520282595002126,-0.010920444347545412,0.0015687581329329775,0.9881458550768356
2013-07-17,1,0.004054818792813124,0.004606588259209839,-0.010920444347545412,0.0023773841812400553,0.9878332688036042
2013-07-19,1,0.003662722682670841,0.004109346947400213,-0.010920444347545412,0.0015687581329329775,0.9876725618229211
2013-07-23,1,0.0032439815614036848,0.0036401007318128515,-0.010920444347545412,0.0015687581329329775,0.9882679104228081
2013-07-25,1,0.002066167094738772,0.0023567450501641423,-0.009928723524403035,0.0033245679705531713,0.9900296903868904
2013-07-29,1,0.0012553073667964866,0.0014878973140142497,-0.005377573285848647,0.0033245679705531713,0.991803698885283
2013-07-31,1,0.001621577812216948,0.0018794053714679172,-0.009799314786225501,0.00034723017870665074,0.9905597934381968
2013-08-02,1,0.001982831569289765,0.0022366816658472423,-0.011326166382190077,0.00034723017870665074,0.9905582766042872
2013-08-06,1,0.0008975371768551117,0.001005365291710347,-0.010415986395591466,0.0015687581329329775,0.9914433190206549
2013-08-08,0,0.0,0.0,-0.013411102843912549,0.002326358558427631,0.9913375240337022
2013-08-12,-1,-0.0018082371873028146,-0.0014603435851835152,-0.01065090802921604,0.007241101204585155,0.9915425419664617
2013-08-14,0,0.0,0.0,-0.01065090802921604,0.007241101204585155,0.9906831379313625
2013-08-16,0,0.0,0.0,-0.01065090802921604,0.007241101204585155,0.9901794964367405
2013-08-20,-1,-0.0009874849200664508,-0.0008219764352087073,-0.01065090802921604,0.007679830941057853,0.9892220072508281
2013-08-22,-1,-0.002314940889271432,-0.0019371011932754457,-0.013656876557964132,0.007679830941057853,0.9893009291121588
2013-08-26,-1,-0.0030086591218068818,-0.0025260988882019036,-0.013656876557964132,0.007679830941057853,0.9891001298828758
2013-08-28,-1,-0.004695864988350871,-0.00399829116630184,-0.008814714348887464,0.007679830941057853,0.9900986516547807
2013-08-30,0,0.0,0.0,-0.006676035421845518,0.005633921562861522,0.9910466095246107
2013-09-04,0,0.0,0.0,-0.006676035421845518,0.005415419459275699,0.991137105619617
2013-09-06,0,0.0,0.0,-0.006676035421845518,0.006880245335498508,0.991016401811576
2013-09-10,-1,-0.006423785999928598,-0.0053825190061658635,-0.009207728245181625,0.004017532744032715,0.9911219606619172
2013-09-12,-1,-0.0053534142522080105,-0.004436735060743529,-0.009207728245181625,0.005415419459275699,0.9901847720487897
2013-09-16,-1,-0.005652606935541291,-0.004729690918197815,-0.009207728245181625,0.012761002947957808,0.9875716635580891
2013-09-18,-1,-0.0025926926741389683,-0.0021803479541705304,-0.012421788444704698,0.01080888437915502,0.9886398763302098
2013-09-20,0,0.0,0.0,-0.00536473987387435,0.01147300192395083,0.9890558562184507
2013-09-24,0,0.0,0.0,-0.004272396859575962,0.01147300192395083,0.9891484330002906
2013-09-26,-1,-0.004128004342140192,-0.003563617523192517,-0.009207728245181625,0.01147300192395083,0.9837253351143312
2013-09-30,-1,-0.004174066828779038,-0.0036062820996324305,-0.012421788444704698,0.01147300192395083,0.9831043690994916
2013-10-02,-1,-0.004315094386009897,-0.003738467713193028,-0.012421788444704698,0.01147300192395083,0.9829734728220381
2013-10-04,-1,-0.00397847573726298,-0.003469714566207792,-0.012421788444704698,0.013217830939371436,0.9820076321354311
2013-10-08,-1,-0.004556253827387241,-0.0040252698741626985,-0.00102950355523512,0.013217830939371436,0.9820178860361728
2013-10-10,-1,-0.0020297722114816182,-0.001824736343176653,-0.006412506132649035,0.010119406049258919,0.9843735766342957
2013-10-14,0,-1.6423817278211688e-06,4.565410717306332e-05,-0.007946487369528514,0.005976435878423727,0.9865286881026127
2013-10-16,1,0.00010346142555845876,0.0001740925491620213,-0.008789163686822091,0.005408837282106929,0.9865998999538224
2013-10-18,1,0.0010843455331338236,0.0013290742133055988,-0.01294200069030009,0.004858997156369101,0.9868014214506774
2013-10-22,1,0.0017107415189741714,0.0020762678146843258,-0.016727537703949195,0.005408837282106929,0.9855688594601392
2013-10-24,-1,-0.0008873368183293226,-0.0008816427544964638,-0.01294200069030009,0.00830058864436314,0.9889342879151134
2013-10-28,-1,-0.0013600512048800822,-0.0013070186069039235,-0.012044561142484828,0.00830058864436314,0.9891337945975643
2013-10-30,-1,-0.0016902598874879676,-0.0016146076101374897,-0.007547601537939119,0.01018146258202258,0.9884195210598983
2013-11-01,-1,-0.0008550088310578506,-0.0008428962095075301,-0.007547601537939119,0.00830058864436314,0.9899052728457951
2013-11-05,-1,-0.0005270134198415452,-0.00048810792852671417,-0.007547601537939119,0.01018146258202258,0.9891499415679832
2013-11-07,-1,-0.00016781452975519155,-4.347796662509669e-05,-0.007547601537939119,0.008535600004019064,0.989685452577001
2013-11-11,-1,-0.0007654609602782946,-0.0007348752649580316,-0.005744669222824891,0.010927310192659231,0.9890865945162757
2013-11-13,-1,-0.0014986780635066208,-0.0013592668702300163,-0.008438038759089394,0.010927310192659231,0.9894199875815832
2013-11-15,-1,-0.0016504954313056274,-0.0015142212729387361,-0.004832730486189282,0.011054833688882666,0.9887079117166818
2013-11-19,-1,-0.001712072695394863,-0.0015774776318507528,-0.004832730486189282,0.010932393093876025,0.9892454134288156
2013-11-21,-1,-0.0003283511856293325,-0.0002833233609739915,-0.008211866707509634,0.008443691994905984,0.9906226713841115
2013-11-25,1,0.00012176166266343808,0.0003037158336516066,-0.004832730486189282,0.010032802660457613,0.9905493440222176
2013-11-27,1,0.0013724839135810403,0.001729388050905087,-0.004832730486189282,0.010032802660457613,0.9919571214430387
2013-12-02,1,0.0017935854813110252,0.0022509122846925793,-0.004185507645874479,0.010032802660457613,0.9923373442785748
2013-12-04,1,0.002974817126320262,0.003628872881162968,-0.004185507645874479,0.010032802660457613,0.9927697599767873
2013-12-06,1,0.0022071690742744756,0.0027465246844478562,-0.0012590745469471326,0.010032802660457613,0.9935047896598723
2013-12-10,1,0.0031408606693750637,0.0038169626229725365,-0.0039060465415496513,0.008443691994905984,0.9939248073028027
2013-12-12,1,0.0024705642027120084,0.0030391446763972287,-0.0012590745469471326,0.010032802660457613,0.9935966406046947
2013-12-16,1,0.001718678455842882,0.002069182412771811,-0.0012590745469471326,0.01147016496715695,0.9923898213310527
2013-12-18,1,0.0011535574636563155,0.0013595053740725585,-0.0012590745469471326,0.01147016496715695,0.9916172003239593
2013-12-20,1,0.0013304208269482635,0.001605146487406965,-0.0012590745469471326,0.01147016496715695,0.991206817958003
2013-12-24,1,0.002630634767584608,0.00312572315916485,-0.0039060465415496513,0.008147993155575855,0.9913282741111189
2013-12-27,1,0.0024731647023402115,0.0028912044751074656,-0.008025985476689023,0.005948393859471339,0.9912012966889121
2013-12-31,1,0.002649400952980563,0.00308172267802173,-0.008025985476689023,0.008147993155575855,0.9905816067485287
2014-01-03,1,0.0025927519335429243,0.0029982453535611956,-0.013111904609628097,0.005948393859471339,0.9890181232751751
2014-01-07,1,0.003156933255194389,0.003664274942447505,-0.013111904609628097,0.0055412047843326675,0.9888937890783981
2014-01-09,1,0.0030925655702508876,0.0035832214143358227,-0.013111904609628097,0.007114384479961315,0.9884717075068499
2014-01-13,1,0.002876579367029909,0.0033274972939521417,-0.011621426720643454,0.013323989969807016,0.9886822322414708
2014-01-15,1,0.0037014920987540377,0.004226040944459736,-0.011621426720643454,0.0069204284337177225,0.9896160059869523
2014-01-17,1,0.002701153510860993,0.003074569069957644,-0.006626484245475254,0.008436273816037418,0.9908223943874669
2014-01-22,1,0.0016633759803999385,0.0018204287688525908,-0.0018130734150165672,0.01119920669113238,0.9911634110393923
2014-01-24,1,0.0013104968471504023,0.0014090956731397514,-0.0006963697456389891,0.01197034583931353,0.9914038177199271
2014-01-28,1,0.0009123948064889563,0.0009507020872934567,-0.0006963697456389891,0.01197034583931353,0.9913565353780206
2014-01-30,1,0.0013927548721399962,0.001478854067735258,-0.0008716043773893927,0.01119920669113238,0.9919345614134414
2014-02-03,1,0.0005923848096380443,0.0006065364307816648,-0.0006963697456389891,0.01197034583931353,0.9929366419862741
2014-02-05,1,0.000866405718248017,0.0009600925525856741,-0.0006963697456389891,0.013360816358630699,0.9916276934737038
2014-02-07,1,0.0011529580673943392,0.001268066369677729,-0.00146645347745047,0.01197034583931353,0.992155225858708
2014-02-11,1,0.0024373742600299533,0.0027694430517462582,-0.002764715015752389,0.00972753433688728,0.9924147984697371
2014-02-13,1,0.0020899766841457595,0.002317305746827879,-0.0048241341278936825,0.00798022200310019,0.9919638158220335
2014-02-18,1,0.002146089822810963,0.0023729848040538624,-0.0048241341278936825,0.0098310512523207,0.991139326964277
2014-02-20,1,0.002479233945201011,0.002735950192231958,-0.0048241341278936825,0.008094501863980592,0.9911913287389071
2014-02-24,1,0.0028033613128814394,0.003092162619940061,-0.005895442595581924,0.008094501863980592,0.9899432316468113
2014-02-26,1,0.002575251453657947,0.0027973447408306084,-0.007619252553836334,0.0073389596893904605,0.9885686279301462
2014-02-28,1,0.00284272541681511,0.0031059733745263723,-0.009928047633932336,0.009371406793225309,0.9869610931295486
2014-03-04,1,0.0026655573818559633,0.002853275463033533,-0.009928047633932336,0.008049364135439035,0.9871848775446807
2014-03-06,1,0.004060937390971797,0.004519610692445381,-0.012896793587719797,0.006720912619024017,0.9873098920030684
2014-03-10,1,0.004179482051033641,0.004736333206956359,-0.013639204262261838,0.006720912619024017,0.9861971504760174
2014-03-12,1,0.00340051786298735,0.0038450167765045015,-0.013639204262261838,0.008049364135439035,0.9872405622970318
2014-03-14,1,0.0030643342007031327,0.003489242628521494,-0.013926409955786612,0.008049364135439035,0.9867101815836962
2014-03-18,1,0.0038329675649698396,0.004364891173793707,-0.013926409955786612,0.007068101777138946,0.9869286610558498
2014-03-20,1,0.0023262462051708887,0.002491669533552195,-0.013926409955786612,0.009195905689484139,0.9874506889362585
2014-03-24,1,0.0022920725905765794,0.0024120367843768155,-0.013917896522669648,0.0048289798592368646,0.988854319143891
2014-03-26,1,0.0009952059228076978,0.001090559905217663,-0.009796997764364995,0.009195905689484139,0.9903197773424912
2014-03-28,1,0.001621272175840373,0.0016545630927333296,-0.009796997764364995,0.006326783038006248,0.9912539769128283
2014-04-01,1,0.0019006596126036552,0.0019690328380840413,-0.009796997764364995,0.007228954454153678,0.9895378707675324
2014-04-03,1,0.0006775523773794342,0.000796155460542374,-0.0046000636950389775,0.007228954454153678,0.990422858085851
2014-04-07,-1,-0.0003947548055876469,-0.0001446979252282593,-0.0026940538395650044,0.007228954454153678,0.9918684132172954
2014-04-09,1,0.00013605077141117948,0.0003564304950243104,-0.0028249063387743704,0.005671132626229427,0.9922645642894964
2014-04-11,-1,-0.0013644459309464243,-0.0009372566204972755,-0.0026940538395650044,0.007228954454153678,0.9924010038562061
2014-04-15,-1,-0.0014090292278260566,-0.0009540558407694485,-0.0028249063387743704,0.005671132626229427,0.9924746517101424
2014-04-17,0,-0.0002018395584604982,5.958785079077469e-05,-0.0028249063387743704,0.005671132626229427,0.9926226138907811
2014-04-22,1,3.7504826364654384e-05,0.0003434483033005984,-0.0028235449868474864,0.009782476502346801,0.9910407557509534
2014-04-24,1,0.0020942268141741975,0.002098760457884125,-0.0028235449868474864,0.010968566410630763,0.9905263035114393
2014-04-28,1,0.0011905288538108742,0.0012949356710392273,-0.001361095825535837,0.011380167652958838,0.9908296607562962
2014-04-30,1,0.003346364999949568,0.0035497558440012863,-0.003019623173661456,0.010328273621491673,0.9924973926375052
2014-05-02,1,0.0027648976225884596,0.0028360862579831407,-0.003452058604533779,0.010328273621491673,0.9919431179370093
2014-05-06,1,0.0029298834047560814,0.003060827671679898,-0.004748989804678841,0.010328273621491673,0.9915393847258273
2014-05-08,1,0.0021330358603152823,0.0021581250006870354,-0.003452058604533779,0.011380167652958838,0.990621815201547
2014-05-12,1,0.002547532189319832,0.0026008421064662255,-0.003253646318169247,0.010328273621491673,0.9914325866969925
2014-05-14,1,0.0015782410368301838,0.001650300833798169,-0.003253646318169247,0.010328273621491673,0.9912691719442844
2014-05-16,1,0.0016541609111584044,0.0017353068595712543,-0.004147544258403042,0.010328273621491673,0.9911272004810923
2014-05-20,1,0.0033403757217316246,0.0035219142695778957,-0.004147544258403042,0.007595470320122606,0.9920635817822954
2014-05-22,1,0.004907074981465151,0.005310050743575155,-0.004147544258403042,0.0049664688409153356,0.9917786620087027
2014-05-27,1,0.004999045226093683,0.005419346095952949,-0.004748989804678841,0.0049664688409153356,0.9908686522813146
2014-05-29,1,0.004510255793975808,0.004871587571810553,-0.004747061704428903,0.007595470320122606,0.9910675814534875
2014-06-02,1,0.0040840704400743185,0.004405297339956645,-0.0020478251339262413,0.008729349444660892,0.9917631439795594
2014-06-04,1,0.0036603855131026055,0.003918852540851449,-0.0020478251339262413,0.008729349444660892,0.9918522152758288
2014-06-06,1,0.004477280679683657,0.00482686822568435,-0.003193104291912272,0.0077563918159465365,0.9923505614355267
2014-06-10,1,0.00500912413574387,0.005504297986700944,-0.00501381482676587,0.0077563918159465365,0.9912238454219886
2014-06-12,1,0.0036801440670027542,0.00393373997932538,-0.004249127281198748,0.0077563918159465365,0.9923337408560879
2014-06-16,1,0.0033842184464492327,0.003565705790435171,-0.003295330014791291,0.0077563918159465365,0.992516265632809
2014-06-18,1,0.003251667301308129,0.0033959643691828067,-0.00501381482676587,0.0077563918159465365,0.9921069436145769
2014-06-20,1,0.0032542807672518268,0.003371048205679364,-0.00501381482676587,0.0077563918159465365,0.9918803834223898
2014-06-24,1,0.0038379885667286407,0.004050984654388299,-0.00600097106533156,0.007048874661779727,0.9912668108853889
2014-06-26,1,0.004150678331527933,0.004335491369257145,-0.006641669842886662,0.007048874661779727,0.9910436349326749
2014-06-30,1,0.00388437832564263,0.004006033400209359,-0.0067238188228318455,0.00472979737518508,0.9911324977649043
2014-07-02,1,0.0035182146555781486,0.00361367432755954,-0.007447408589553921,0.007048874661779727,0.9905253712901816
2014-07-07,1,0.003908147125345247,0.004108779204839276,-0.007447408589553921,0.008690272644894755,0.9901703808850951
2014-07-09,1,0.0037502253884983783,0.003928276839758264,-0.006028354058646622,0.008690272644894755,0.990996442533885
2014-07-11,1,0.003656338077793371,0.003823839043585372,-0.007447408589553921,0.008690272644894755,0.9901305371719795
2014-07-15,1,0.00392477710460608,0.004150972941724983,-0.007447408589553921,0.007251612509078145,0.9903275743766824
2014-07-17,1,0.0037639009415278537,0.003986567666306742,-0.006059606858757434,0.006082800959064014,0.9908694064942121
2014-07-21,1,0.0038644546041508056,0.004089513769414319,-0.006059606858757434,0.006082800959064014,0.9910861404998977
2014-07-23,1,0.004155697499540578,0.004430744647677821,-0.006059606858757434,0.008377149629984317,0.9921819656895282
2014-07-25,1,0.003746435683374699,0.003974937335370342,-0.004020851754082239,0.009013797059092554,0.991739920816724
2014-07-29,1,0.003688709347655638,0.003951443910880951,-0.0036762167681030937,0.009013797059092554,0.9915757503765543
2014-07-31,1,0.003544741873009339,0.003762583966709654,-0.0030650658775847033,0.006190642430463281,0.9924162778205556
2014-08-04,1,0.003981722722766932,0.004204230213205422,-0.0030650658775847033,0.006190642430463281,0.9926101443842563
2014-08-06,1,0.0031407280176236033,0.0031986668447804745,-0.0030650658775847033,0.008456559625292837,0.9929472610656239
2014-08-08,1,0.0024406713708072674,0.0024449079598353584,-0.002874699083525282,0.008456559625292837,0.993701778427017
2014-08-12,1,0.0022380770474592334,0.002264854250319687,-0.0030532625774268483,0.008456559625292837,0.9934328185915122
2014-08-14,1,0.002045188584781782,0.00209326390518951,-0.003354498048945706,0.008456559625292837,0.993042124999773
2014-08-18,1,0.0017044876726499813,0.0018584175241256164,-0.0036762167681030937,0.0075438140538930665,0.992847216181116
2014-08-20,1,0.0012157264273522568,0.001428272833866752,-0.003354498048945706,0.006936162089208487,0.9934872219391498
2014-08-22,1,0.0021914263465888937,0.0022806905341998295,-0.004130348006178295,0.006791196867956211,0.99347836735618
2014-08-26,1,0.001205502667365745,0.0014543436108918305,-0.004794116974962224,0.006791196867956211,0.9933023926631163
2014-08-28,1,0.0003189226934678963,0.0007389196403788185,-0.007014982567579023,0.006936162089208487,0.9928585330875654
2014-09-02,1,0.0008994518548866174,0.0012214998052398572,-0.0072669588309737035,0.00675387672673191,0.9930878488601081
2014-09-04,1,0.000482240010227202,0.0008977218908073719,-0.008122887758070501,0.005189363840464304,0.9925174005399495
2014-09-08,1,0.00019590736240681739,0.000646187596026287,-0.008122887758070501,0.006791196867956211,0.9923285788346742
2014-09-10,1,0.00022316904279674472,0.0006572988950155243,-0.008122887758070501,0.006791196867956211,0.9910503840930903
2014-09-12,0,-6.216776160496954e-05,0.0002910977274851557,-0.013877850370212217,0.006791196867956211,0.9870111270751009
2014-09-16,1,1.1531131331797713e-05,0.00031982674425485105,-0.011193406175257612,0.005189363840464304,0.9871956481325158
2014-09-18,-1,-0.00042928540908710746,-2.429795133050954e-05,-0.011193406175257612,0.005829574116345385,0.9865069589636571
2014-09-22,0,-0.00021945235372996033,8.31582420454689e-05,-0.008095069001506625,0.009920794193523612,0.9864889977069202
2014-09-24,-1,-0.0008555258158091399,-0.00046759028028659486,-0.008095069001506625,0.009920794193523612,0.9866979928455951
2014-09-26,-1,-0.0010199188548508618,-0.0006148516595361954,-0.008095069001506625,0.011917002993902462,0.9848618173700092
2014-09-30,-1,-0.00151365446038383,-0.0010559761269464333,-0.007213508991233965,0.011917002993902462,0.9843453663891739
2014-10-02,-1,-0.0014603748244364555,-0.0010233523492421512,-0.005793931339045356,0.011813885752057003,0.9853504158115781
2014-10-06,-1,-0.0014692785801644816,-0.0010096256898277645,-0.005793931339045356,0.013889977602109829,0.9844236190652741
2014-10-08,-1,-0.0005060651021163755,-0.00017075039689224151,-0.005733675484715862,0.01225966798415864,0.9858541354813484
2014-10-10,-1,-0.002948532583437631,-0.0023832635617445632,-0.002454535941871208,0.014405227588929379,0.9880250325861742
2014-10-14,-1,-0.0027632035707033063,-0.0022841536894857217,-0.0013079467807105723,0.014405227588929379,0.987861720913809
2014-10-16,-1,-0.0017817337050231089,-0.0014269499275745678,-0.002454535941871208,0.012678574149914492,0.9892958364242559
2014-10-20,-1,-0.00141541774494014,-0.001087667853155325,-0.004640478080031769,0.012668256103354755,0.9892149088176794
2014-10-22,-1,-0.0025103891385192508,-0.002033492454142,-0.004640478080031769,0.01384092699384368,0.9884450884055033
2014-10-24,-1,-0.00036128898043965153,-0.0001164875823356932,-0.004640478080031769,0.009980476923706884,0.9908087446253742
2014-10-28,1,0.000642090633844474,0.0007072459341704596,-0.004640478080031769,0.011119864620287818,0.990773364107368
2014-10-30,1,0.0009248446295551025,0.0009543424054787592,-0.004640478080031769,0.011119864620287818,0.9910101256968934
2014-11-03,1,0.0018646940568009117,0.001923232223769186,-0.0055351898591563895,0.00904827440745034,0.9913860480158915
2014-11-05,1,0.001440968516714593,0.0014471658637440206,-0.0021456730279095886,0.00904827440745034,0.9917595660476306
2014-11-07,1,0.0023750110215839454,0.0025155017747841794,-0.006170174964212208,0.00868211639170803,0.9919310286230784
2014-11-11,1,0.0026430295667418348,0.00283409909462148,-0.009315877902536417,0.007115339284266515,0.991043982919873
2014-11-13,1,0.002202544252930723,0.0023410419579363477,-0.0105490668493399,0.007115339284266515,0.9909770932456086
2014-11-17,1,0.002009290777128716,0.002164169771296874,-0.010165245258098516,0.007115339284266515,0.9913640442162271
2014-11-19,1,0.002161720346931148,0.002340293217606066,-0.00966649373434335,0.00904827440745034,0.9898097352710097
2014-11-21,1,0.0026767025815592075,0.002906230709166241,-0.00966649373434335,0.010006322568786412,0.9894707591715531
2014-11-25,1,0.003259596304758163,0.003565258494064874,-0.00966649373434335,0.006610637807683407,0.9893516090339383
2014-11-28,1,0.0032268717596263697,0.0034881185174818648,-0.00966649373434335,0.006610637807683407,0.9893508970152484
2014-12-02,1,0.002510080846880181,0.0026717868158793604,-0.009470472530098646,0.006610637807683407,0.9897132546586005
2014-12-04,1,0.0027652256582481735,0.002990456907560257,-0.010629029140785201,0.0054397269708658415,0.9880819873848884
2014-12-08,1,0.0025338878126304775,0.0027179912795300457,-0.010629029140785201,0.005762185266984948,0.9867753958117244
2014-12-10,1,0.0018097869810877138,0.0019173029044808085,-0.008143283404110486,0.011424279927234585,0.9878849310535729
2014-12-12,-1,-0.000349614723761095,-0.00024298353199634905,-0.008095659917595388,0.011424279927234585,0.9881740474344654
2014-12-16,-1,-0.0011848453705472037,-0.0009812832012986762,-0.009478699854604752,0.011424279927234585,0.9870690161532459
2014-12-18,1,0.001212465709614854,0.001288466401176204,-0.010273273038528912,0.00543819058438208,0.9875989042255124
2014-12-22,1,0.0017314520371543448,0.0018624907181254249,-0.010273273038528912,0.00543819058438208,0.9877855209272743
2014-12-24,1,0.002640383387933439,0.0029411455649476464,-0.010273273038528912,0.005437982869790279,0.987839337207722
2014-12-29,1,0.00251314225269932,0.002782107419970102,-0.01091947531705497,0.005437982869790279,0.9865260102166727
2014-12-31,1,0.0012436307551325768,0.0012985677067117861,-0.010868882001656095,0.005437982869790279,0.9873398615771567
2015-01-05,0,-7.221241587449033e-05,2.4864255311551073e-05,-0.010273273038528912,0.00786324453341413,0.9879347268963072
2015-01-07,1,2.074635595039235e-05,9.476118916900664e-05,-0.010273273038528912,0.005437982869790279,0.987823343749996
2015-01-09,1,0.0013906028006167364,0.0014099092014379986,-0.010273273038528912,0.004084956795854059,0.9878519739590421
2015-01-13,1,0.0009036041954545075,0.0009579646155164905,-0.009509458902653558,0.005437982869790279,0.9874945424201309
2015-01-15,1,5.531358532065726e-05,0.00015871428363267113,-0.006471856492109327,0.008040868700205069,0.9883559561153419
2015-01-20,1,0.0005543041301419131,0.0006159387443465155,-0.005269759295307888,0.005946789975462475,0.9901636661086028
2015-01-22,1,0.0009263764920397807,0.0009536233750953506,-0.005269759295307888,0.008478956598441188,0.989422961650405
2015-01-26,1,0.0016464535067505562,0.0017460152291045624,-0.005269759295307888,0.011315747116450694,0.9893437702984419
2015-01-28,1,0.000893329693110228,0.0009247054240552897,-0.004737038975624122,0.011315747116450694,0.9898848726875248
2015-01-30,1,0.0007165340660159317,0.0007179478890439406,-0.004737038975624122,0.012589843911384088,0.9892624833531684
2015-02-03,1,0.0013277205654077051,0.001412469904156812,-0.005369066437243121,0.011253110971424497,0.9900520141548992
2015-02-05,-1,-0.00011545873076180863,-9.123045065352695e-07,-0.0051337738857572205,0.011253110971424497,0.9918084062555115
2015-02-09,-1,-0.00016802206514283778,-2.9672616171497245e-05,-0.006825020059330017,0.011253110971424497,0.9908603311329384
2015-02-11,1,0.0008995505396185946,0.0009021309257705348,-0.006825020059330017,0.007754810795147385,0.9917258620150646
2015-02-13,1,0.0014228948818651777,0.0014409755388324892,-0.006825020059330017,0.009392333119062197,0.9913224920351242
2015-02-18,1,0.0009116272957209078,0.0009808509749104624,-0.007147346387219632,0.011253110971424497,0.9907455904350644
2015-02-20,1,0.0017003855019835886,0.0017251241194916396,-0.007147346387219632,0.007276117821574772,0.9916718928677345
2015-02-24,1,0.001835772633305375,0.0018414299237686717,-0.007509709588947354,0.006243125207990967,0.9916324589262727
2015-02-26,1,0.0012498304883722252,0.001324118970602794,-0.007509709588947354,0.006243125207990967,0.9910801686265841
2015-03-02,1,0.0016235750012817292,0.00163005829923606,-0.0071402836789395095,0.006243125207990967,0.9909251673258603
2015-03-04,1,0.0016127006574810424,0.001657578264027374,-0.006697169617140654,0.006243125207990967,0.9912325126960763
2015-03-06,-1,-0.0011002516197978391,-0.0006610379004343358,-0.0022995484198218004,0.006243125207990967,0.9920878302877101
2015-03-10,-1,-0.0024040997268762504,-0.0017673793524743983,-0.001755483497195807,0.009258368563623354,0.9912115436795443
2015-03-12,-1,-0.0016912521340659607,-0.0011836504418370822,-0.0022771285574780917,0.009258368563623354,0.9917409053038875
2015-03-16,-1,-0.00040586191060808566,-7.348041730130821e-05,-0.002644299141876007,0.004828716424163283,0.9923618228395189
2015-03-18,-1,-0.0008289105480486067,-0.00040064166649966836,-0.002644299141876007,0.0043282652260995085,0.9928095520407123
2015-03-20,1,0.0010970019348167076,0.001199792770159351,-0.003768842083837295,0.004828716424163283,0.9918088534721
2015-03-24,1,0.0013220113212579756,0.0013849172082769758,-0.002644299141876007,0.010218009978608462,0.9907371219180062
2015-03-26,1,0.00029068271660818924,0.00046062228019417396,-0.0030699375294329237,0.010218009978608462,0.9912863519184166
2015-03-30,1,0.002319245614529617,0.0024614700926520157,-0.004843978485414666,0.010218009978608462,0.9898964800188493
2015-04-01,1,0.0018546152409191136,0.0018995657362315167,-0.009846511136265702,0.010218009978608462,0.9881026556031525
2015-04-06,1,0.002373071545082852,0.002547626542437373,-0.009846511136265702,0.010568019283694295,0.9874289150927686
2015-04-08,1,0.0032332569088022465,0.0035302598470588666,-0.012002911908549215,0.0057654456826606755,0.9876392403511597
2015-04-10,1,0.0028153290436047913,0.0030299065670445825,-0.012002911908549215,0.010751690106810975,0.9869884183586775
2015-04-14,1,0.0015203954393730765,0.0015266059229635748,-0.009846511136265702,0.010751690106810975,0.9876347041544723
2015-04-16,1,0.001318827004833963,0.0013306373772367206,-0.009846511136265702,0.012100320199415308,0.9874855731200747
2015-04-20,1,0.0017521209485699444,0.0018379609423411988,-0.008477539166074867,0.014309342610553338,0.9876156014590132
2015-04-22,1,0.0031597843218653405,0.0034666155700313686,-0.008477539166074867,0.011457594625523076,0.9882956062081597
2015-04-24,1,0.0024846551282987823,0.0027061437437521105,-0.005388680566269535,0.013523842640604458,0.988915013622814
2015-04-28,1,0.0026093406694234476,0.0028126849353528366,-0.004266765050900873,0.011618783627350209,0.9906526640444666
2015-04-30,1,0.0008725078023274677,0.0008857398609349793,-0.004266765050900873,0.011618783627350209,0.9917388840340515
2015-05-04,1,0.0012129842018225826,0.0012463986810999383,-0.0033631208638983516,0.010668310262227847,0.9925029242186302
2015-05-06,1,6.390017004280957e-05,0.00021509131334112192,-0.0033631208638983516,0.011618783627350209,0.9924059807565199
2015-05-08,1,0.0005928817725635012,0.000708567649034914,-0.004315872445650037,0.011524686629677011,0.9922138665799998
2015-05-12,-1,-0.00029154948702402245,-4.33042502376536e-05,-0.004315872445650037,0.011524686629677011,0.9916893470410784
2015-05-14,1,0.001153810246167842,0.001166091755168594,-0.004638016659103183,0.008950785308514515,0.9919373847042413
2015-05-18,1,0.0015967733949395827,0.0016824755878804406,-0.004638016659103183,0.007362256347968214,0.9926730202560589
2015-05-20,1,0.0019703437156239666,0.0021391384462544714,-0.004638016659103183,0.007314499311803994,0.992782209718261
2015-05-22,1,0.0020774782211662227,0.002252010881449377,-0.004638016659103183,0.007011533127401475,0.9930085080160331
2015-05-27,1,0.0020506316972199717,0.002189107234599509,-0.004948079070872765,0.006695012509403236,0.9930594762942379
2015-05-29,1,0.0007755894853379863,0.0008445814524362545,-0.004638016659103183,0.006695012509403236,0.9934974807366346
2015-06-02,1,0.0005444457599813666,0.0006677666258633804,-0.004948079070872765,0.006695012509403236,0.9920618951897467
2015-06-04,1,0.0007934255147113906,0.0008754699436077278,-0.005391386823558822,0.005767695869243531,0.9921381327622223
2015-06-08,1,9.554902400983872e-05,0.00028356940910294684,-0.005142847741254661,0.005170407194492771,0.9935047154858256
2015-06-10,-1,-0.0013183553118105396,-0.0008974671029234236,-0.004963390557284059,0.005170407194492771,0.9940666265929499
2015-06-12,-1,-0.0010892175709800056,-0.0007236383497522922,-0.004963390557284059,0.00676106499912538,0.9935537107424472
2015-06-16,-1,-0.0007992521185111228,-0.0004903828448623009,-0.004987144798260482,0.00676106499912538,0.9934490620751979
2015-06-18,0,-0.00019158233701849637,2.7521443108164604e-05,-0.005208779084656493,0.004362458170107263,0.9937805637571256
2015-06-22,-1,-0.0011516642392595995,-0.0007697674593675769,-0.0059075135049242635,0.0057897133658175795,0.9930955535754
2015-06-24,-1,-0.001551988144019222,-0.0011147547875371081,-0.006757815193768929,0.0057897133658175795,0.9922146904766749
2015-06-26,-1,-0.0012136395844960723,-0.0008389805900404232,-0.007602141737130391,0.0024456775117698607,0.9919078791253865
2015-06-30,-1,-0.001245101280064647,-0.0009008642060042209,-0.007079309703051074,0.007177303715657731,0.9884562983201309
2015-07-02,-1,-0.0017378327988741011,-0.0013500768149595807,-0.00670707472071215,0.007177303715657731,0.988937946300982
2015-07-07,-1,-0.0014589894054474486,-0.0011435387566584624,-0.00670707472071215,0.007177303715657731,0.9891122733794939
2015-07-09,-1,-0.0007467448333145592,-0.0005550276137719807,-0.007079309703051074,0.006923038717437214,0.9886544692372087
2015-07-13,-1,-0.00015843709188789577,-3.1314777936458204e-05,-0.007079309703051074,0.005516000922763386,0.9880610165509343
2015-07-15,1,3.9459793111193544e-05,0.0001036473188306012,-0.007079309703051074,0.005516000922763386,0.9879543229181745
2015-07-17,-1,-0.00013923099890143865,-6.107618704525943e-05,-0.007079309703051074,0.00789513621748718,0.9876393119016421
2015-07-21,1,0.00017714355668468245,0.00023437233814305975,-0.007504592886694352,0.00789513621748718,0.9880239347491021
2015-07-23,-1,-0.000593125684190138,-0.0004518622342209603,-0.005326357568039915,0.00789513621748718,0.9866172087084947
2015-07-27,-1,-0.0016131223304074035,-0.0013251996276283126,-0.005577095782056058,0.00789513621748718,0.9838724202665516
2015-07-29,1,0.002007477716766148,0.002113238390600959,-0.009482079330767612,0.005516000922763386,0.9860757007418716
2015-07-31,1,0.0016220712652547163,0.001640618835561892,-0.009482079330767612,0.009884525039522165,0.9849202567881721
2015-08-04,1,0.0015708687959248976,0.0015940804229664473,-0.013422936917387726,0.009884525039522165,0.983981771202178
2015-08-06,1,0.001439500992275944,0.0014948729493322987,-0.009482079330767612,0.010769782184604837,0.9832615604802419
2015-08-10,1,0.0022343056596337767,0.0024108870605488255,-0.011695889514088417,0.010769782184604837,0.9825648913957271
2015-08-12,1,0.0017329824073395146,0.001886068118475478,-0.011922558818280794,0.010769782184604837,0.9821417042393941
2015-08-14,1,0.0024424226652814914,0.0027151778217766663,-0.011922558818280794,0.010769782184604837,0.9821688342873424
2015-08-18,1,0.001972682837556179,0.002135679822102075,-0.011922558818280794,0.013496852135607132,0.9821187315355057
2015-08-20,1,0.0006077095931903525,0.0006390338246940362,-0.011922558818280794,0.013496852135607132,0.9838349169672622
2015-08-24,-1,-0.0009794625706950272,-0.000815350481734482,-0.007270817936724057,0.015240914074425758,0.9863449735601602
2015-08-26,1,0.0004645247035950523,0.0004827510906794384,-0.006003158390056674,0.011230491866699279,0.9887444323578939
2015-08-28,1,0.001747344143231385,0.0019758713950557005,-0.0074055757998350395,0.008484695049423308,0.9887716360661329
2015-09-01,1,0.0017337626883139631,0.0019509421410652944,-0.0058676821177677555,0.01092227128282757,0.9893078948394936
2015-09-03,1,0.0021036937162231344,0.0023194587465131477,-0.00653767129349015,0.008757828445157807,0.9899512819130826
2015-09-08,1,0.00239617399536179,0.0026401075343013593,-0.0058676821177677555,0.008757828445157807,0.9906995578842692
2015-09-10,1,0.002386042611742223,0.0026389931544216257,-0.004651057402358264,0.007560625217025279,0.9913985470873419
2015-09-14,1,0.0027100173384092363,0.003068085675470427,-0.004172338998913353,0.012049892053902774,0.990815158773737
2015-09-16,1,0.003007592238230122,0.00336288084589339,-0.004741135447491565,0.007560625217025279,0.9906844763399496
2015-09-18,1,0.002666058672543149,0.002990312565272959,-0.004172338998913353,0.007560625217025279,0.9917044882268434
2015-09-22,1,0.0023299294303745924,0.0025033602218126633,-0.004741135447491565,0.002695321951664953,0.9917216791466434
2015-09-24,1,0.0023212971461292267,0.0025117679462172437,-0.00484601580452291,0.004242837687662224,0.9917396104987333
2015-09-28,1,0.0011595638302534063,0.0011631510514699607,-0.0035097213528773523,0.007221162125843424,0.9927209466246787
2015-09-30,1,0.0017328926953981718,0.0018532721990696048,-0.0035097213528773523,0.013476264313393738,0.9910922388234664
2015-10-02,1,0.0016370070867086294,0.0017206267776292193,-0.0035097213528773523,0.009439551443498772,0.9909467653707796
2015-10-06,1,0.002474033821667758,0.0026862760532467226,-0.0035097213528773523,0.006327468286808074,0.9918378206642197
2015-10-08,1,0.0025921570461157023,0.00283640044348732,-0.0035097213528773523,0.008259050478319197,0.9916689307692118
2015-10-12,1,0.003375011834803803,0.003727110266659361,-0.003906315286072674,0.008259050478319197,0.9917218933058749
2015-10-14,1,0.0032004812017648303,0.0035374722166307037,-0.003906315286072674,0.008615992614658294,0.9919255401226071
2015-10-16,1,0.0031432288066840326,0.003486831471305479,-0.0058821840537791395,0.008615992614658294,0.9913259900564942
2015-10-20,1,0.002558073520872329,0.0027752249011397667,-0.005733828908066207,0.00888621774724918,0.9917007059254687
2015-10-22,1,0.0024465837506431206,0.002657602588571135,-0.003183388187001958,0.009984797681946675,0.9914294917809983
2015-10-26,1,0.0026565643711797377,0.0028987131405991723,-0.005733828908066207,0.009984797681946675,0.9881682100152784
2015-10-28,1,0.003507838689895888,0.0038419903658487393,-0.005733828908066207,0.009130127226291598,0.9895569920121445
2015-10-30,1,0.0030291364669390326,0.003273283078350733,-0.0037780252342560273,0.009984797681946675,0.9899226980705851
2015-11-03,1,0.002207168583304285,0.002390409593209993,-0.0037780252342560273,0.009984797681946675,0.9896272443783359
2015-11-05,1,0.0021847323777434502,0.0023749246490287375,-0.005733828908066207,0.011142769409285175,0.9868387953534312
2015-11-09,1,0.002410475709018362,0.002650279309647523,-0.004558381821787208,0.009996667260838121,0.9870994414787198
2015-11-11,1,0.002261340198344534,0.0024691696830835648,-0.004558381821787208,0.009996667260838121,0.9869531885781944
2015-11-13,1,0.0015731504378089423,0.0016763827020868296,-0.0028694955855852883,0.009996667260838121,0.9874445791551523
2015-11-17,1,0.0018816685933137024,0.0020238754510624045,-0.0028694955855852883,0.011667308479594178,0.9868031142325054
2015-11-19,1,0.0021108747189016175,0.0022412425200441324,-0.0071009202817105465,0.008347573813205063,0.9857235335108303
2015-11-23,1,0.00028821925619087747,0.00041456861072519907,-0.003896402882632575,0.008660056570377125,0.9893987002181127
2015-11-25,1,0.0005850855407132993,0.0006851231407633609,-0.003896402882632575,0.0068084784899448934,0.9897353038145669
2015-11-30,1,0.0008675112903554222,0.0009304337600232549,-0.003896402882632575,0.005208696439333255,0.9901393573378978
2015-12-02,1,0.0009602303650216268,0.000988179264427552,-0.0071009202817105465,0.005208696439333255,0.9892217895045832
2015-12-04,1,0.00020142247951380462,0.00032783456382230264,-0.006481541091793843,0.0033070898231754285,0.9919280212960098
2015-12-08,-1,-0.00031676018676909034,-0.0001126205653992268,-0.01608766456191447,0.0033070898231754285,0.9904941796437793
2015-12-10,-1,-0.0007856371376498462,-0.0005525815977540656,-0.01608766456191447,0.0033070898231754285,0.9901885996880312
2015-12-14,-1,-0.0013418149864049727,-0.0010045377667567026,-0.017245152493960643,0.002266517062099453,0.9892093514953013
2015-12-16,-1,-0.0011394006595461296,-0.0008056293127615467,-0.019392991429248645,0.0008850898166492243,0.9877190021790447
2015-12-18,-1,-0.00029113039134642175,-0.00021183458069391233,-0.017245152493960643,0.002266517062099453,0.9881702853044299
2015-12-22,1,1.5148412322957093e-05,6.649926202820659e-05,-0.017245152493960643,0.002266517062099453,0.9870618331494445
2015-12-24,1,9.843616435352729e-05,0.000144999742259656,-0.019392991429248645,0.002266517062099453,0.9846999352330107
2015-12-29,-1,-8.883969937843029e-05,-6.323496021349781e-07,-0.02027516667435603,0.003549728048023181,0.9835468579107203
2015-12-31,-1,-0.00023061020963495595,-0.00016637563327528794,-0.02027516667435603,0.008491223276559446,0.9831099821592347
2016-01-05,-1,-0.00086034144651705,-0.0007020513978586913,-0.02027516667435603,0.008491223276559446,0.9831756326318132
2016-01-07,-1,-0.0015251083963484036,-0.0012847786256199862,-0.019607806712795838,0.013256554657715207,0.9811609707979774
2016-01-11,-1,-0.0019576602924891297,-0.0016640302432483051,-0.019607806712795838,0.014115192772506512,0.9810280655693218
2016-01-13,-1,-0.0035538726585404596,-0.003020105208060664,-0.016800671719932332,0.024594501112272155,0.9801995450634851
2016-01-15,-1,-0.004148968675633252,-0.003523185245588335,-0.014607174027348156,0.017900990641213924,0.9815204928940269
2016-01-20,-1,-0.0035746178726170715,-0.00304912229742202,-0.014607174027348156,0.01806949169377073,0.98125304882243
2016-01-22,-1,-0.002471624188272245,-0.0021084286053871105,-0.014607174027348156,0.01632835205365446,0.9818368959992205
2016-01-26,-1,-0.0031623920537288625,-0.0027049948460049532,-0.009632899201034158,0.014807875356960888,0.9836036899282636
2016-01-28,-1,-0.002955558835676449,-0.0025562068187758888,-0.007322744638111463,0.014983587963078785,0.9841371191401811
2016-02-01,-1,-0.0019608402960111433,-0.0016993437619941115,-0.007322744638111463,0.014983587963078785,0.9849050564422953
2016-02-03,-1,-0.0023897739714095895,-0.002075464266371246,-0.004538623960701705,0.014983587963078785,0.9849344772068992
2016-02-05,-1,-0.0014487541926581414,-0.0012389775893591084,-0.0019335684447549016,0.014378342999275309,0.9887704262165188
2016-02-09,-1,-0.0012354558780485081,-0.0010871998876318643,-0.0019335684447549016,0.014378342999275309,0.98947132912635
2016-02-11,-1,-0.0010391027024567042,-0.0008947679869219533,-0.0006746119314763419,0.013696888204515976,0.9904994386925964
2016-02-16,-1,-0.00015415126069024196,-0.00013595081761820773,-0.0006746119314763419,0.011209646037910055,0.9916798749320528
2016-02-18,-1,-6.45385535226705e-05,-4.39686765619986e-05,0.0005813051836959706,0.011209646037910055,0.9918189336678613
2016-02-22,1,8.920155315392238e-05,0.00012426270808145728,-0.0006746119314763419,0.009721407592967453,0.99248332461534
2016-02-24,1,0.0002762258856009337,0.0002772486769857973,-0.0006746119314763419,0.009439961952999967,0.9931978754621296
2016-02-26,1,0.000673988332502798,0.0007363910222711355,-0.0013145924566282524,0.007162881640340207,0.9936851066113108
2016-03-01,1,0.0013261446471384444,0.0015070057977017862,-0.0013145924566282524,0.007162881640340207,0.9931683496731831
2016-03-03,1,0.001531381449473792,0.0017434185927369377,-0.0013145924566282524,0.0071335021680251085,0.9932669217810736
2016-03-07,1,0.0017906630057395196,0.0020540803674187758,-0.00213748228661671,0.0071335021680251085,0.9932486809620752
2016-03-09,1,0.0013088507641663934,0.0014867748541735498,-0.00213748228661671,0.0071335021680251085,0.9932947100069712
2016-03-11,1,0.0018281276333309907,0.002073567123504054,-0.00258722782168386,0.0055626081574888485,0.993512614034517
2016-03-15,1,0.0017784486947580117,0.002000704692251453,-0.004777593581897902,0.007041294372577442,0.992297834895073
2016-03-17,1,0.002196630515193173,0.0024701398468615033,-0.004777593581897902,0.005434445197039749,0.9927856281524732
2016-03-21,1,0.0020231334218789266,0.0022859995920061775,-0.00258722782168386,0.006314148414679376,0.9931853191509503
2016-03-23,1,0.0025827655638688846,0.0029921693860924794,-0.004019608852548345,0.006314148414679376,0.9931154990934389
2016-03-28,1,0.0025444497294946156,0.0029354427712572993,-0.004019608852548345,0.0069006487739522475,0.9932286954029537
2016-03-30,1,0.00292178233067138,0.003361144771277085,-0.004019608852548345,0.0069006487739522475,0.9939590935313181
2016-04-01,1,0.00328220549912715,0.0037792741525342396,-0.007061440028386361,0.006198904557173196,0.9926943942435406
2016-04-05,1,0.003145285768547921,0.0036309392877750383,-0.007657187504330797,0.0069006487739522475,0.9922691159246676
2016-04-07,1,0.0027678777583502,0.003201729159281292,-0.007657187504330797,0.0069006487739522475,0.9923383958069225
2016-04-11,1,0.002604384786323791,0.0029975392721127247,-0.007050824239227158,0.007559719915128409,0.9922836699369679
2016-04-13,1,0.002877426668451543,0.0033277831853765743,-0.0052058824026190555,0.0069006487739522475,0.9932065926225269
2016-04-15,1,0.0033328805235131806,0.003876937442967878,-0.0064799973893225615,0.007559719915128409,0.9926225466768515
2016-04-19,1,0.002836477399471314,0.0032334276877681225,-0.007050824239227158,0.008826824592194346,0.9917362778449779
2016-04-21,1,0.0029541804060928883,0.0033891081846892587,-0.007050824239227158,0.0101397901942465,0.9910602809506895
2016-04-25,1,0.0032403819724402295,0.0037405962669285987,-0.0071051281093539465,0.011201696498253836,0.98929073822138
2016-04-27,1,0.003529923247800679,0.004000001067179239,-0.0071051281093539465,0.011695516903108097,0.988004815315832
2016-04-29,1,0.0029207466567386193,0.003301772508665743,-0.006498098679364825,0.011695516903108097,0.9892612097237069
2016-05-03,1,0.0029496227565175073,0.0033139021648944268,-0.006498098679364825,0.011201696498253836,0.9894462385812635
2016-05-05,1,0.002249998459719707,0.0024902446441048775,-0.006292144265896219,0.011201696498253836,0.9900854995178402
2016-05-09,1,0.00270703897722206,0.003004070763861723,-0.006292144265896219,0.007917558853108738,0.990496614511281
2016-05-11,1,0.0029443426195719575,0.0033061377787017925,-0.006292144265896219,0.007917558853108738,0.9904683752558643
2016-05-13,1,0.00233521568020673,0.0025620035466653868,-0.00631217416631817,0.005431922201206527,0.9906144093378572
2016-05-17,1,0.001896350900982536,0.0020595123154216128,-0.00631217416631817,0.0018101687303633323,0.9914494786423935
2016-05-19,1,0.0020621503660965077,0.0022455597904218654,-0.005912268879587886,0.0011201492033125404,0.9920271767235025
2016-05-23,1,0.0028487516274056665,0.0031377661763062306,-0.004774519399764169,0.0011201492033125404,0.9929962643583682
2016-05-25,1,0.0030460612854674974,0.00333664558617518,-0.004774519399764169,0.0011201492033125404,0.9941149261014978
2016-05-27,1,0.0028360108579312112,0.003079443509125283,-0.006212106733994362,0.0008056051819734662,0.99103498669073
2016-06-01,1,0.0012814124510173535,0.001316947001672105,-0.005837625944796231,0.003361863620054151,0.9910583544347874
2016-06-03,1,0.0008136573532769588,0.0009172719785444237,-0.005837625944796231,0.0077326374773472855,0.9906350025559968
2016-06-07,1,0.00010631259526479048,0.00032331940400616866,-0.005837625944796231,0.004736232775847283,0.9910631396202672
2016-06-09,1,0.000213092043954674,0.0004200413663148757,-0.005837625944796231,0.010197756286895454,0.9899478355088583
2016-06-13,0,-0.00014967256240143456,8.680301021496395e-05,-0.0026644018304252176,0.013276696072701946,0.9894151224782184
2016-06-15,1,0.00022507172408444196,0.00037272436239549524,-0.0019095850769661929,0.013276696072701946,0.9894167385892513
2016-06-17,0,-0.00019097179773504985,1.3637532324449323e-05,-0.0019095850769661929,0.013276696072701946,0.9892325811501252
2016-06-21,-1,-0.0003736621750668925,-0.00012502641156213602,-6.8852732795283e-05,0.013276696072701946,0.9888222737165872
2016-06-23,1,7.278914514208506e-05,0.00024340279882885754,-6.8852732795283e-05,0.010308214905722467,0.9890149290321396
2016-06-27,-1,-0.0023549833829610385,-0.0018839556375029138,0.001434627194439332,0.010308214905722467,0.9873022572074774
2016-06-29,-1,-0.0017712621871197487,-0.0013147839593715706,-0.0028767772482991365,0.008693259255015809,0.9893255413365023
2016-07-01,-1,-0.00156849044377969,-0.0011193703427436748,-0.0028767772482991365,0.008237120390954467,0.9899920210916169
2016-07-06,-1,-0.0014423293392001706,-0.0010097705362262233,-0.003930643536394545,0.008693259255015809,0.9893295469007505
2016-07-08,-1,-0.0002733849623760016,-5.095379490595731e-06,-0.003930643536394545,0.008693259255015809,0.98986177444086
2016-07-12,1,0.0004280358978359521,0.0006060981526147353,-0.003930643536394545,0.008237120390954467,0.9908516111932691
2016-07-14,1,0.0008919538383966697,0.0009841255065213433,-0.003930643536394545,0.005673681598060572,0.9911591092767366
2016-07-18,1,0.0006267420696135599,0.0007385524594279875,-0.0033804641736232014,0.005673681598060572,0.9913009005390655
2016-07-20,1,0.001309250454079607,0.0013145050314056607,-0.004479430609661969,0.0042539467142185625,0.9912455835341959
2016-07-22,1,0.0013478835244541535,0.0013657922172113852,-0.0033804641736232014,0.004621843124461476,0.9911944644480314
2016-07-26,-1,-0.0008029944804721525,-0.0005772204180649875,-0.002647043433934994,0.0059689343467555275,0.9937676340981252
2016-07-28,-1,-0.0011804780555034673,-0.0009161778607648356,-0.0012916127123935215,0.008867347749610819,0.9935869984015129
2016-08-01,-1,-0.0013080887264213452,-0.0010060325259764833,-0.0012916127123935215,0.008867347749610819,0.993565260484055
2016-08-03,-1,-0.0008204285182411782,-0.0006117503428450499,-0.0016892971089675674,0.006310649590900934,0.994502766622869
2016-08-05,-1,-0.00016521945235876636,-3.8058468461953196e-05,-0.0016892971089675674,0.006310649590900934,0.9946710032421738
2016-08-09,1,0.00010494895327773827,0.00016967964538455873,-0.0016892971089675674,0.006310649590900934,0.9944390968258352
2016-08-11,0,-1.9729211434670025e-05,8.632506720289651e-05,-0.0028099341694855676,0.006310649590900934,0.9929753358218694
2016-08-15,0,-0.00012210627718565667,1.7794812199206666e-06,-0.0028099341694855676,0.008867347749610819,0.9914408067580361
2016-08-17,-1,-0.0006207599729730285,-0.00044310736881622256,-0.0028099341694855676,0.009462874435941331,0.9909318817753002
2016-08-19,1,0.0005599084750438492,0.0005688251864922364,-0.004686609128131446,0.0074437603962609475,0.9904513773930623
2016-08-23,1,0.001048335599156462,0.0011201019076463726,-0.004686609128131446,0.00665197927020602,0.9906665596119988
2016-08-25,1,0.0010399857022524923,0.0010960569481164573,-0.009604699577088689,0.00665197927020602,0.9897817634683242
2016-08-29,1,0.0009079883636659615,0.0009186478658827069,-0.009604699577088689,0.007758080571287173,0.9892376990768511
2016-08-31,1,0.0006947358656595949,0.0007123253512426796,-0.009604699577088689,0.007758080571287173,0.9890351441937739
2016-09-02,1,0.0012606836053513611,0.0013243496752309918,-0.009604699577088689,0.007758080571287173,0.9890605389487102
2016-09-07,1,0.0013599329996832128,0.0014449083823499115,-0.009604699577088689,0.007758080571287173,0.9891216313965051
2016-09-09,1,0.0002927292541123909,0.0003354641678833294,-0.004137192961332093,0.007758080571287173,0.9908314157315314
2016-09-13,-1,-0.0003292037677745042,-0.0002095781333930557,-0.004137192961332093,0.008335045939416679,0.9900584751970924
2016-09-15,1,0.00013257491089595978,0.00018710008725380536,-0.0027583061115726204,0.006823609614622214,0.9909720423218434
2016-09-19,-1,-0.0004961581361058034,-0.0003719349407812484,-0.0017445750217866198,0.006641320151843954,0.9921540977851491
2016-09-21,-1,-0.00047022394592694146,-0.0003033539510507576,-0.0027236881090125925,0.007863409516498403,0.9920161159544575
2016-09-23,-1,-0.00017138368274498142,-4.6043965143176485e-05,-0.003845608183276089,0.006641320151843954,0.9926189843329902
2016-09-27,0,-4.965992593171533e-05,8.657707930728953e-05,-0.0040271684059175455,0.005200750381131957,0.9929155233048874
2016-09-29,1,0.00017646457767244374,0.0002480530389793789,-0.00437031160621621,0.0038139792672028114,0.9930816171190305
2016-10-03,1,0.00034251439271358835,0.00039840005446658975,-0.003923314398237461,0.0038139792672028114,0.9935354548112126
2016-10-05,1,0.0003616021566327747,0.0004148683866314935,-0.0070331899173722906,0.0029023067486931503,0.9922569460761275
2016-10-07,1,0.0001652674744174332,0.00025433234861829045,-0.0070331899173722906,0.004042411279482969,0.9920360396709456
2016-10-11,1,0.0003250911962791591,0.00037989095773467685,-0.0047626118843211145,0.004042411279482969,0.9935169534283129
2016-10-13,1,0.0012235496651152279,0.001326247190781886,-0.008915177643964057,0.001583895914177176,0.9925896104295873
2016-10-17,1,0.002161842967387009,0.0024199612497766577,-0.008915177643964057,0.0060121128037046705,0.9912760869559213
2016-10-19,1,0.002928612055125818,0.003286148392024004,-0.008915177643964057,0.0060121128037046705,0.9908082413828678
2016-10-21,1,0.00186839260496694,0.0020357360198883746,-0.006896915627076725,0.007299720431882121,0.9908424951339744
2016-10-25,1,0.0016818605463795279,0.001817459125446511,-0.0040804313284268905,0.009939274691800745,0.9904432308639808
2016-10-27,1,0.0015667610710227186,0.0016865816187795295,-0.004707760570624145,0.01167349360374641,0.9898773785984556
2016-10-31,1,0.0017427972556001393,0.0018820116918436692,-0.008826327824158485,0.01167349360374641,0.9896478608857001
2016-11-02,1,0.00035760071906556406,0.00042080590753134733,-0.008826327824158485,0.01167349360374641,0.9885920886460496
2016-11-04,1,0.0003421898941956571,0.0004233004673864266,-0.008826327824158485,0.01167349360374641,0.9882588844078547
2016-11-08,1,0.0010795261367051656,0.0010839145524108545,-0.008826327824158485,0.01125908992060592,0.9885047177146572
2016-11-10,1,0.000595495493715848,0.0006468114178413143,-0.004709363413979968,0.01125908992060592,0.9888968961848812
2016-11-14,1,0.001540437112863098,0.0016124610694981248,-0.005086513032341703,0.008904103406892199,0.9898738279302469
2016-11-16,0,-0.00015670795528194812,0.00011591392440812517,-0.007132451701403322,0.008339064498615717,0.9903314478778202
2016-11-18,1,0.001404517125247104,0.0014080105073947628,-0.007132451701403322,0.006478313302678701,0.9911291084561186
2016-11-22,1,0.002101191177684752,0.0022271382900489116,-0.007132451701403322,0.006478313302678701,0.9914328022922304
2016-11-25,1,0.0020040973432085473,0.0021173610482073156,-0.007132451701403322,0.006478313302678701,0.9914936012321139
2016-11-29,1,0.0021323966244058096,0.0023174430641500036,-0.007132451701403322,0.006478313302678701,0.9909255170820681
2016-12-01,1,0.00043781831219670726,0.0004450625423777282,-0.0056962825932436265,0.006478313302678701,0.992855697791606
2016-12-05,1,0.0010863177816010801,0.0011918023090508477,-0.0056962825932436265,0.006523499667314173,0.9929076121306035
2016-12-07,1,0.001605877694544195,0.0017725973009369276,-0.0056962825932436265,0.005308407425368556,0.9934080907395398
2016-12-09,1,0.00186155751887278,0.0020954041302349985,-0.005149966475001228,0.004848663462963423,0.9942276629428917
2016-12-13,1,0.0016169881975705322,0.0018126575002613385,-0.005678637785346849,0.005308407425368556,0.9936360773665003
2016-12-15,-1,-0.0008330153600009752,-0.000609602211880678,-0.005678637785346849,0.005308407425368556,0.9929953157322697
2016-12-19,-1,-0.0009499671362812429,-0.0006865865106108328,-0.005678637785346849,0.005038691577050027,0.9929589916086243
2016-12-21,-1,-0.0007274781543979909,-0.0004993722504489336,-0.007404525116079477,0.0048215045802138725,0.9932308058885568
2016-12-23,-1,-0.0008166181667774876,-0.0005773100232664957,-0.00249407859118403,0.0048215045802138725,0.9929628665581612
2016-12-28,-1,-0.0010005098313672378,-0.0007800835017749108,-0.00249407859118403,0.005038691577050027,0.9929844884258939
2016-12-30,-1,-0.001422216740280054,-0.0011483203572943829,-0.0035376870538352733,0.0048215045802138725,0.9934402137309021
2017-01-04,-1,-0.0006957659175581144,-0.0005202828326800056,-0.0044880978597785165,0.004450575429517656,0.9890510219737463
2017-01-06,-1,-0.00048044116683352835,-0.00035040466263920166,-0.0044880978597785165,0.0073304538892781145,0.9884617878281433
2017-01-10,-1,-0.0007172445448119331,-0.0005267715570990419,-0.005201573821824045,0.0073304538892781145,0.9885104728451346
2017-01-12,1,0.00013654392279362093,0.0001786823753296756,-0.004051649757746512,0.0073304538892781145,0.9889077739368032
2017-01-17,1,0.00011533582909935953,0.00013753005658111107,-0.0035376870538352733,0.008891785341294617,0.9890170666474657
2017-01-19,1,0.0005293930191326051,0.0005761162182569145,-0.0035376870538352733,0.008891785341294617,0.9888713598300207
2017-01-23,1,0.00014324814525246946,0.00014847372440865477,-0.00185344921568616,0.00986922013882967,0.9883703825020634
2017-01-25,1,0.0009370615437952581,0.001031986219388331,-0.002805672842168575,0.008891785341294617,0.9893685499153919
2017-01-27,1,0.0012588855310972555,0.0014419960387267944,-0.00164012640993386,0.008891785341294617,0.9894260401359564
2017-01-31,1,0.0009988518182021838,0.0011535711427336024,-0.0008382570684163653,0.010015840016986102,0.988173882556767
2017-02-02,1,0.0038644256719647923,0.004305845790513044,-0.0008382570684163653,0.008891785341294617,0.9935405413263604
2017-02-06,1,0.004025939372390535,0.004440605594195944,-0.00164012640993386,0.00844745156457622,0.9933625337862299
2017-02-08,1,0.0037975836079375868,0.004195352784297682,-0.00164012640993386,0.00844745156457622,0.9935970323989155
2017-02-10,1,0.003604083775310891,0.003924673033871825,-0.00164012640993386,0.008142014841894599,0.9938171766524868
2017-02-14,1,0.0041141414421948675,0.00452016867703654,-0.002305800517998625,0.007560153804429518,0.9936120847344937
2017-02-16,1,0.0045344398388927655,0.005001017161706015,-0.002305800517998625,0.007560153804429518,0.9933666066610526
2017-02-21,1,0.005350186689675657,0.005949706986876304,-0.002667736413839164,0.007307954592338319,0.993132150482304
2017-02-23,1,0.005202349730610397,0.0057848788578778905,-0.002381186895421514,0.007560153804429518,0.9932650097360529
2017-02-27,1,0.006228767818543481,0.006956368515294941,-0.002968381934981776,0.005900520673947019,0.992781418278636
2017-03-01,1,0.005766096932541565,0.006427900986160534,-0.002968381934981776,0.004706982982493032,0.9937693969646375
2017-03-03,1,0.005263223015575672,0.005855535926224741,-0.002968381934981776,0.004706982982493032,0.9942085486858954
2017-03-07,1,0.005536021978388652,0.006171953419677377,-0.003339349890305882,0.0032760655651636154,0.9934640275059184
2017-03-09,1,0.00546205892431367,0.006106749589280033,-0.004184758031657879,0.004706982982493032,0.9932356839067248
2017-03-13,1,0.0058533429840151715,0.006538835054303688,-0.004184758031657879,0.0027762300062222555,0.9927886345576522
2017-03-15,1,0.005355461472847244,0.0059925376503866855,-0.00571277081161512,0.00422539819648962,0.9931518917703279
2017-03-17,1,0.005157221036603893,0.005715617168925541,-0.00571277081161512,0.00422539819648962,0.9928953367929478
2017-03-21,1,0.004248889037293604,0.004647125427431884,-0.005185891095261317,0.006231342215881218,0.9932517247022421
2017-03-23,1,0.004145680620910746,0.004505433988019258,-0.005185891095261317,0.006258870168631237,0.9934624009399489
2017-03-27,1,0.0038508792976130286,0.00418840292401428,-0.00571277081161512,0.00876348632866205,0.9908398113546002
2017-03-29,1,0.002639687549396103,0.002739597593783884,-0.005454387809740986,0.009046552860304367,0.9907426315705787
2017-03-31,1,0.0023731570914564785,0.0024422688819139716,-0.005246875547608864,0.00931574419722213,0.9903617269175159
2017-04-04,1,0.0022606919736303114,0.002349628930193851,-0.0019654242105659908,0.00931574419722213,0.9908798567372041
2017-04-06,1,0.0015552054588240094,0.0016125549492557493,-0.0002287480417538905,0.009046552860304367,0.9911368717788164
2017-04-10,1,0.0017350612134710672,0.00176902588441179,-0.0019654242105659908,0.009046552860304367,0.9908610218199024
2017-04-12,1,0.0017476443861028658,0.0018014197187493004,-0.0012165448436269651,0.009046552860304367,0.9912145479277525
2017-04-17,1,0.002043476293074475,0.0021790794624306593,-0.0012165448436269651,0.009046552860304367,0.9914679200617651
2017-04-19,1,0.0032654578548672614,0.003586425957924916,-0.0023487248569027796,0.008065674619702628,0.991583274238671
2017-04-21,1,0.003537611799707312,0.0038843887692569827,-0.002378686305001116,0.008065674619702628,0.9910541494542514
2017-04-25,1,0.0021919701144687354,0.002339171157998768,-0.0021311900228272863,0.008693787900809161,0.9927332988667693
2017-04-27,1,0.0009490895275045378,0.0010679488975954858,-0.0012165448436269651,0.009968477393692311,0.9922705574317012
2017-05-01,1,0.001776229256083397,0.0017819952164027017,-0.0012165448436269651,0.008065674619702628,0.9930556349914659
2017-05-03,1,0.0018962112781905792,0.0019321315689381261,-0.0021311900228272863,0.008065674619702628,0.9927336452272474
2017-05-05,1,0.0019136146281609743,0.0019447622270749644,-0.0021311900228272863,0.008001522070047605,0.9925857048226541
2017-05-09,1,0.0015194270749787912,0.00155450398853878,-0.0021311900228272863,0.008001522070047605,0.9926630184955516
2017-05-11,1,0.0012132736306562605,0.001333464471145595,-0.002378686305001116,0.008001522070047605,0.9917222364293943
2017-05-15,1,0.0012419176464479828,0.0013581709421405142,-0.002395079600758481,0.007584083262649198,0.9913252524870102
2017-05-17,1,0.00012376423350491772,0.0003760161240637835,-0.002395079600758481,0.007584083262649198,0.992198833235856
2017-05-19,1,0.00030599232945075936,0.0005440984110368988,-0.002082385415359427,0.007153287211886877,0.9928959579642217
2017-05-23,1,0.001113205884566299,0.0012921964039809444,-0.003460950854041463,0.0054631117454431895,0.9942180632338848
2017-05-25,1,0.0014525546500433646,0.001616640588798646,-0.003460950854041463,0.004909667622277042,0.9949595089681633
2017-05-30,1,0.0015668136804989534,0.001703584565774909,-0.004655409001981413,0.0031510954208008755,0.994180697008272
2017-06-01,1,0.0012891391687095844,0.0014593955266429426,-0.005104717807859324,0.0031510954208008755,0.9932678303212908
2017-06-05,1,0.0016119920610173728,0.0017461371822838367,-0.007284928570734534,0.0017066029681288954,0.9930318945985872
2017-06-07,1,0.00120035519161542,0.0013824925417611513,-0.007284928570734534,0.0023918623071291873,0.9933170217247076
2017-06-09,1,3.556889726583578e-05,0.000375755893746005,-0.005104717807859324,0.0050448837502244485,0.9937760250908557
2017-06-13,-1,-0.0004740994791204631,-7.540057015502214e-05,-0.0025486698357305654,0.006243627151911812,0.9934122919578295
2017-06-15,-1,-0.0013822234424268954,-0.0008464857739741186,-0.0016780833775886343,0.006966987911768521,0.9925825106421471
2017-06-19,-1,-0.001047083550311182,-0.0005864944730387756,-0.0016780833775886343,0.006966987911768521,0.9927449071434301
2017-06-21,-1,-0.0013987379122594342,-0.0008846177127622313,-0.002065552553534855,0.007562894632676194,0.9920679606771851
2017-06-23,-1,-0.0019078523101542482,-0.0013103157170765317,-0.003979079807757967,0.007562894632676194,0.9917614447201476
2017-06-27,-1,-0.0006680311618675764,-0.0004051000640311267,-0.0012156165494704827,0.011757300345170873,0.9899816665101956
2017-06-29,-1,-0.0003535959797187375,-0.00011548376055937665,-0.0012156165494704827,0.009025447313400584,0.9913122700490458
2017-07-03,-1,-0.0012133810641708493,-0.0008516218614578769,-0.003012765833215827,0.009025447313400584,0.991412891912959
2017-07-06,-1,-0.0009572352495920999,-0.0006426924211650957,-0.0035706244261558646,0.009025447313400584,0.9907713907939393
2017-07-10,0,-4.469173386959749e-05,0.00014721084506626278,-0.0035706244261558646,0.009065379595562535,0.9912198358586815
2017-07-12,1,0.0007054659516943906,0.0007971540687128369,-0.005003356792956328,0.005512637318679443,0.991812580067921
2017-07-14,1,0.0009084517637538043,0.0009397213293543121,-0.005003356792956328,0.004488945650226288,0.9918646973169525
2017-07-18,1,0.0009479747326131378,0.0009744071263092012,-0.005003356792956328,0.007225280841543079,0.9909381571169039
2017-07-20,1,0.0013705683487105294,0.0014375543210264883,-0.005003356792956328,0.006539384917850931,0.9906085954895276
2017-07-24,1,0.001164378343460044,0.0011826086339230316,-0.005003356792956328,0.006539384917850931,0.9907701037827954
2017-07-26,1,0.002869087487523171,0.00309857209880011,-0.005003356792956328,0.004899271067339624,0.9927518469654896
2017-07-28,1,0.0026182089825731946,0.002810211654907228,-0.0044332229714843675,0.00573496367364287,0.9927533990889579
2017-08-01,1,0.002188528175537396,0.002314072799488598,-0.003274185681184567,0.006721613791204863,0.992876770683092
2017-08-03,1,0.002019717993082076,0.0021376178803605597,-0.0009414068195764365,0.01038732415221282,0.9923790790536389
2017-08-07,1,0.002284346646739829,0.0024300900052404324,-0.004844129063180249,0.009324412934243551,0.991520713387866
2017-08-09,1,0.0021069836268002855,0.0022382712844548655,-0.003274185681184567,0.009324412934243551,0.9918591114516881
2017-08-11,1,0.0015068101900618416,0.0015414846369835187,-0.004449713346767882,0.009324412934243551,0.9911826679025997
2017-08-15,1,0.002297308360414853,0.002395291244615519,-0.004449713346767882,0.006721613791204863,0.9918104321888135
2017-08-17,1,0.001941863547106329,0.0019954460206640496,-0.003274185681184567,0.007404869671500274,0.9923391514162837
2017-08-21,1,0.0016460504475158185,0.0016573671952430182,-0.003274185681184567,0.01038732415221282,0.9918058875566266
2017-08-23,1,0.0015951571894345686,0.0016030681356026736,-0.004449713346767882,0.007404869671500274,0.9918876791066119
2017-08-25,1,0.0011632541330296531,0.0012487623170284417,-0.006615722241719217,0.01034716978242886,0.9912720774201395
2017-08-29,1,0.0014273146721355556,0.001485081018008868,-0.006615722241719217,0.011749776003038195,0.9909113007496457
2017-08-31,1,0.0022962655612519278,0.002347761445313485,-0.006615722241719217,0.007859020288442067,0.9918272679295673
2017-09-05,1,0.0013914802198574763,0.001465743014711329,-0.0024225948605645017,0.009728424364860313,0.9928768248027876
2017-09-07,1,0.0014655803340283971,0.0015335734685467555,-0.0024225948605645017,0.009728424364860313,0.9927895645843379
2017-09-11,1,0.0014633738228424333,0.0014704736147709342,0.0003747731465358775,0.009728424364860313,0.993343781155201
2017-09-13,1,0.0011351062109163333,0.0011673048593421266,0.0016264779392095691,0.009876949732893056,0.9930952097056043
2017-09-15,1,0.001256812197646368,0.0013141052150881006,0.0016264779392095691,0.00954679191769811,0.9935216082487125
2017-09-19,1,0.001757372757866631,0.001760312307994138,-0.0001785641624813988,0.009117533731406589,0.9939441700411036
2017-09-21,1,0.0015987484020116276,0.0016198773428026136,-0.00011959134840191927,0.009117533731406589,0.9944104974382297
2017-09-25,1,0.0014118328763997566,0.0014180332839501487,-0.00011959134840191927,0.009117533731406589,0.9948020269308833
2017-09-27,1,0.001847832056756701,0.0019098159964852962,-0.00011959134840191927,0.00835104049808605,0.9955512244362352
2017-09-29,1,0.0020384738349507455,0.002124283048201811,-0.00011959134840191927,0.008587241572794165,0.9953174091006475
2017-10-03,1,0.002462061786692205,0.0025881313759380433,-0.0005373382076871566,0.008190779263885548,0.9954521813092523
2017-10-05,1,0.002625978537421199,0.002773469087113949,-0.0010674825469258826,0.008636750028805078,0.9945696708776547
2017-10-09,1,0.0024991463561264793,0.0025691213702694502,-0.0010674825469258826,0.00897937427530656,0.9947042347547076
2017-10-11,1,0.002778552783626095,0.0029041254423092643,-0.0023640389176316787,0.008541188420760824,0.9946641287917743
2017-10-13,1,0.0037412894674049746,0.004064342527450441,-0.0031748751147402453,0.008541188420760824,0.9938380042143885
2017-10-17,1,0.0037886273050151582,0.004155905130239872,-0.0023640389176316787,0.009473176353880924,0.9938678754331813
2017-10-19,1,0.0036076056861804417,0.003956869037536308,-0.0031748751147402453,0.011243819027874288,0.9931777575240878
2017-10-23,1,0.00367533296919649,0.004026680885372899,-0.0036511766632514758,0.009475727968018429,0.9932715762395307
2017-10-25,1,0.003857565882858768,0.004258809821838809,-0.004431675751459432,0.010839680729514715,0.9927101802336941
2017-10-27,1,0.00428939442722397,0.004729435784115752,-0.005454300849864247,0.010839680729514715,0.9921286951744936
2017-10-31,1,0.0037854249896737665,0.00411464351097204,-0.00650120681132296,0.010839680729514715,0.9900847879737209
2017-11-02,1,0.0038602126887359407,0.004180216016632103,-0.00650120681132296,0.010839680729514715,0.9900618898930479
2017-11-06,1,0.003831839691277237,0.004119211439331608,-0.007972838022627972,0.010839680729514715,0.9886226963237855
2017-11-08,1,0.0034557870398382266,0.0036866621795729024,-0.007972838022627972,0.011484639468857062,0.9886155015458248
2017-11-10,1,0.0032233936144647544,0.00341041511063074,-0.00650120681132296,0.011072846328084977,0.9893386911134757
2017-11-14,1,0.0035054168708956515,0.003715913854570879,-0.00650120681132296,0.0072179431178780035,0.9890595784571409
2017-11-16,1,0.0029700434267645607,0.0030577636907813343,-0.005545149310597056,0.0072179431178780035,0.9897965260007253
2017-11-20,1,0.002571917041498774,0.0025721800220490903,-0.004948922526790954,0.007095689143736249,0.9900390311477053
2017-11-22,1,0.0020521801449658837,0.0021504218222745115,-0.0065066708593303855,0.005516073780684241,0.9893655465657729
2017-11-27,1,0.0019626858407982644,0.002077831714947199,-0.00570029916628753,0.0047910442166024456,0.9897461559225255
2017-11-29,1,0.00031188187097809495,0.0005908741294251395,-0.005212451041351239,0.005516073780684241,0.9921627732605184
2017-12-01,1,0.0010583744202468004,0.0012113818780403363,-0.00570029916628753,0.005417649588722458,0.9922605448691355
