JNU-Tangyin/eata/results/Batch4_SP500/Batch4_SP500-KMB.csv
Date,Action,Predicted_Q25,Predicted_Q75,Actual_Q25,Actual_Q75,RL_Reward
2010-12-14,0,-0.0010008355449217998,0.0,-0.0013090516616034039,0.003699474249642876,0.9971749232399999
2010-12-16,-1,-0.0013040287092418884,-0.0011691054386354471,-0.0015445256410098914,0.0034144668190348375,0.9964845856935088
2010-12-20,-1,-0.0010586112253900784,-0.0009184139719713367,-0.0015445256410098914,0.002830567554373611,0.9968874857290325
2010-12-22,-1,-0.0003895676414850209,-0.0003715131369165588,-0.0019415494043234485,0.0034144668190348375,0.9965059061998742
2010-12-27,-1,-0.0002902126968244797,-0.0002875837413879526,-0.00241762609046978,0.0036743793287687104,0.9950661153382132
2010-12-29,-1,-0.0005218455213208079,-0.00048695695645894794,-0.0025569800962505,0.003446749567318109,0.9950698978156326
2010-12-31,-1,-0.0003609446817262787,-0.00035766545889750557,-0.004078241579996257,0.003446749567318109,0.9948464681635847
2011-01-04,-1,-0.0007909844915902137,-0.000750753591935509,-0.004078241579996257,0.002830567554373611,0.9948732983498142
2011-01-06,-1,-0.0004896031241657681,-0.0004599395465775997,-0.004078241579996257,0.003141205163338758,0.9942620159704711
2011-01-10,0,0.0,0.0,-0.004078241579996257,0.003141205163338758,0.9941807525369298
2011-01-12,0,0.0,0.0,-0.004078241579996257,0.002728719419713827,0.9950657648427527
2011-01-14,-1,-0.000144541198238787,-0.000108994566152195,-0.004227062960619558,0.003141205163338758,0.9940639177347362
2011-01-19,-1,-0.00012310508293912191,-8.730357683412827e-05,-0.004227062960619558,0.002234196879988013,0.9942426118547814
2011-01-21,0,-1.1602235987175915e-05,4.0347460154602476e-05,-0.003638810854328079,0.0033074606732923038,0.9943718014687005
2011-01-25,1,6.353129988075852e-05,0.0001342575397831021,-0.003968549837205291,0.002461996435484967,0.9953141410300201
2011-01-27,1,4.59877334246661e-05,0.00012575379318128943,-0.003928318836523956,0.0032011675440290397,0.9951964971840459
2011-01-31,1,0.00012185754459875938,0.00021038533805418978,-0.003928318836523956,0.0041173702256429145,0.9945737270772704
2011-02-02,1,2.8736991436757497e-05,0.00011171478713729865,-0.0026479178425968673,0.004518405702983695,0.9937737249123353
2011-02-04,1,0.00021403831564778883,0.0003254527678759803,-0.006656787239542612,0.0041173702256429145,0.9938432033408873
2011-02-08,0,0.0,0.0,-0.006656787239542612,0.004518405702983695,0.9935966234408145
2011-02-10,0,0.0,0.0,-0.006656787239542612,0.004518405702983695,0.9933984182093178
2011-02-14,0,0.0,0.0,-0.006656787239542612,0.0041173702256429145,0.9939700108162934
2011-02-16,0,0.0,0.0,-0.007141703135584063,0.004518405702983695,0.9933134779348328
2011-02-18,0,0.0,0.0,-0.007141703135584063,0.005576007736879188,0.9926981450875755
2011-02-23,0,0.0,0.0,-0.006656787239542612,0.005576007736879188,0.9930123204024577
2011-02-25,1,0.0003586724797515447,0.00047865676178985824,-0.006656787239542612,0.006469947962729927,0.9931230192088606
2011-03-01,1,0.00048785554645452674,0.0006312810122090615,-0.0050112908724404,0.005119922807944715,0.9938938348896953
2011-03-03,1,0.00022942073440231601,0.00033039111781851707,-0.0050112908724404,0.005030822294042604,0.9945845812591355
2011-03-07,1,0.00035682878458079975,0.0004781234355065409,-0.002842357277320387,0.005746561492089124,0.9949442152743506
2011-03-09,0,0.0,0.0,-0.0037415012861711384,0.005746561492089124,0.9945289578142416
2011-03-11,0,0.0,0.0,-0.0033648142452702007,0.005746561492089124,0.9945776207059494
2011-03-15,0,0.0,0.0,-0.002497914267190955,0.005746561492089124,0.9950489708934712
2011-03-17,1,0.0005032239228797393,0.0006199651552848905,-0.002497914267190955,0.0054293644090014255,0.9955153095459068
2011-03-21,1,0.0004649601561366946,0.0005221364948879118,-0.002497914267190955,0.0035557308998970315,0.9962651117798577
2011-03-23,1,0.0002460258700187535,0.0002632919203835858,-0.0016810087039573973,0.004433249919565047,0.9961300577946575
2011-03-25,-1,-2.7045684766350044e-05,-7.410275715949168e-06,-0.0031119866838465403,0.0035557308998970315,0.9949322326667625
2011-03-29,1,0.00014374216152794877,0.00014413079856696393,-0.0031119866838465403,0.004433249919565047,0.9946004128763307
2011-03-31,1,0.00011678133050596338,0.00011806370986496264,-0.0019052127876836122,0.005724214619720565,0.9944596872385069
2011-04-04,-1,-3.03867746316134e-05,-3.403452516242042e-06,-0.0019052127876836122,0.005724214619720565,0.9942036960451206
2011-04-06,1,0.00031009875250270405,0.0003402458948236453,-0.0019052127876836122,0.00484540600264658,0.9944260847513144
2011-04-08,1,1.58338767290472e-05,3.592193835404573e-05,0.0005611776514840309,0.005297656628733957,0.9942883278738684
2011-04-12,0,0.0,0.0,-0.0001407297280213789,0.006876155852047792,0.9939872649145065
2011-04-14,0,0.0,0.0,0.00015914566087104026,0.007075346479517608,0.9936938265329891
2011-04-18,0,0.0,0.0,-0.001908003351344382,0.007075346479517608,0.9936473026010144
2011-04-20,1,0.00021395150781790625,0.00022774897508711986,-0.001908003351344382,0.007075346479517608,0.9939648764135602
2011-04-25,-1,-0.00024598129684550146,-0.00018417898598791912,-0.001908003351344382,0.007075346479517608,0.9950228320837496
2011-04-27,-1,-0.00031545248282449406,-0.0002379939000177517,-0.002837903852419211,0.0062745628422150816,0.9947983259999936
2011-04-29,1,7.682920049485313e-06,5.0183265085679255e-05,-0.002837903852419211,0.004332337605203376,0.9955409974578153
2011-05-03,1,0.00048455810779516684,0.0005104878863904671,-0.0030765574478757293,0.004332337605203376,0.9951542336503577
2011-05-05,1,0.00014910543427710545,0.00018420703134509062,-0.0035533771336459484,0.004060025781899301,0.9945601834160027
2011-05-09,1,0.0003179481950343169,0.00032637095398037894,-0.003684841052571158,0.002492137925853398,0.9944884001063378
2011-05-11,1,0.00035366877327536785,0.0003539421210049536,-0.00450365590062851,0.0019892952239258426,0.9945749412759717
2011-05-13,1,0.0006361844619720568,0.0006873726637815179,-0.0072298074387810345,0.0019892952239258426,0.9944349344803998
2011-05-17,1,0.0006117648806528877,0.0006618236757827466,-0.007252707988502222,0.0019892952239258426,0.993910758094927
2011-05-19,1,0.000579503756227464,0.0006196400185079106,-0.007252707988502222,0.004758488070723261,0.9933220525146663
2011-05-23,1,0.0003724424899616751,0.00038071363494552294,-0.007252707988502222,0.006428057837544486,0.9933096321426642
2011-05-25,1,0.0002507103740819102,0.0002612361424185642,-0.006684412233475184,0.005151808100314458,0.9935403023769384
2011-05-27,1,0.00022663752174747776,0.0002378792346892525,-0.007252707988502222,0.005151808100314458,0.9930622849348966
2011-06-01,1,6.173926588138643e-05,9.630436715166404e-05,-0.006684412233475184,0.00515111802729943,0.9935778369637819
2011-06-03,-1,-0.00034546032535381997,-0.00026107665138424706,-0.005372334528922582,0.006132222151608274,0.9940873211681097
2011-06-07,-1,-0.0002179372322205537,-0.0001730043757250979,-0.005905583579079177,0.006132222151608274,0.9940306127349997
2011-06-09,-1,-0.0005270790655430737,-0.0004327352771967945,-0.005146877536473186,0.006132222151608274,0.9940417290377893
2011-06-13,-1,-0.0005276534651522079,-0.0004422082963723668,-0.002482509643240926,0.006132222151608274,0.9947455930786672
2011-06-15,-1,-0.0004254718365821461,-0.0003530765563437735,-0.002482509643240926,0.005304629616644115,0.9953445271712242
2011-06-17,1,0.00015464179215972368,0.00016968723966370426,-0.005075360275002544,0.004716368988099127,0.9951537600297135
2011-06-21,1,0.0002495864776051317,0.0002658267256052614,-0.005075360275002544,0.004716368988099127,0.9951950797187659
2011-06-23,-1,-9.583612113166882e-05,-5.981419625852382e-05,-0.001425238654819132,0.005304629616644115,0.9950403230145504
2011-06-27,-1,-0.0006311763097437914,-0.0005200494170317354,-0.001425238654819132,0.006112652802291672,0.9941120763961053
2011-06-29,-1,-4.424194795616985e-05,-2.425891082765028e-05,-0.005465574802217853,0.005304629616644115,0.9939957403936877
2011-07-01,1,0.0002555503305645057,0.00027046524282754627,-0.0057706597885119676,0.0027005388619790235,0.9940400952428351
2011-07-06,-1,-6.591366252642015e-05,-3.916421680581852e-05,-0.006203441045667512,0.0027005388619790235,0.9939341571278345
2011-07-08,1,7.666446408216486e-05,8.662135750306583e-05,-0.007470351196700632,0.003263421918087939,0.992255495339838
2011-07-12,1,8.883464976894925e-05,9.499333164667901e-05,-0.010047908647825725,0.006771475972988593,0.9903428561295167
2011-07-14,1,8.135214828648887e-05,8.444453627327548e-05,-0.010774455036021417,0.007796013586658946,0.9877687213276254
2011-07-18,-1,-3.639640918724288e-05,-1.4756710807650341e-05,-0.010092069451201667,0.009405038368837212,0.9877015081978396
2011-07-20,1,0.00014447347676777822,0.00014777591313264315,-0.010092069451201667,0.009405038368837212,0.9880174374801131
2011-07-22,1,0.0005284781090306427,0.0005829197392743831,-0.010092069451201667,0.00716646705039822,0.9880840330365133
2011-07-26,1,0.00013417573613644636,0.00013769595408801157,-0.007470351196700632,0.009953702705424401,0.9881541572317828
2011-07-28,-1,-0.0005940843240145874,-0.0004852727237039706,-0.00733380258904084,0.011155328613889279,0.9881380408422652
2011-08-01,-1,-0.0007505673956340359,-0.0006330753444561433,-0.006638713944068383,0.011155328613889279,0.9876572807435755
2011-08-03,-1,-0.00098546748650189,-0.0008393576487036128,-0.0041843816574561165,0.011155328613889279,0.9875100035986056
2011-08-05,-1,-0.0013669251621389236,-0.001158513046685352,-0.005560934621509182,0.009495595446222114,0.9887752894491997
2011-08-09,-1,-0.0011685801161132282,-0.0009832459348602927,-0.004117959484548781,0.008969330369991778,0.9904387996740527
2011-08-11,-1,-0.000707572887931557,-0.0006054063469016984,-0.0054259707109415274,0.008480728427794992,0.9925623910308662
2011-08-15,-1,-0.0002575421224269113,-0.0001994206138174012,-0.0054259707109415274,0.006788974508398205,0.993565753857947
2011-08-17,-1,-0.00028824102508031397,-0.00023094678291216242,-0.0054259707109415274,0.008258952552702162,0.9926978181131454
2011-08-19,-1,-0.0004829633686758549,-0.0004092811985630623,-0.0011276098301357838,0.008969330369991778,0.9922121289924892
2011-08-23,1,0.0002977976237160937,0.00031376633148327783,-0.0054259707109415274,0.008258952552702162,0.9927571382429962
2011-08-25,1,0.00037805727406307123,0.00041738608503781116,-0.0023249350317158927,0.008258952552702162,0.9931310464331132
2011-08-29,1,0.0007791384408638144,0.000865884568620619,-0.0023249350317158927,0.008382634161619721,0.9932540727324696
2011-08-31,1,0.0008708696714948261,0.0009622085798582252,-0.0054259707109415274,0.008677156159839312,0.9917851714271911
2011-09-02,1,0.0005192506341769965,0.000570248370666713,-0.0035486341746523787,0.008677156159839312,0.9920327512523492
2011-09-07,1,0.0005348664049532618,0.0005794467484387482,-0.004204164582775091,0.008677156159839312,0.9919527984379553
2011-09-09,1,0.00016096526402492665,0.00016517798205480677,-0.0017463002663196709,0.009453554827482724,0.9923747836014158
2011-09-13,1,0.00034274878821242716,0.00037966009999070753,-0.0029700802709443142,0.010028168293531264,0.9919629069614484
2011-09-15,1,0.0003844596708512017,0.0003871559174636889,-0.003307094539510772,0.009290123195452207,0.9920490070691367
2011-09-19,1,0.0008525050447428534,0.0009251561410415176,-0.004204164582775091,0.008284070278697398,0.9919812737269184
2011-09-21,1,0.000745067178593859,0.0008261139682328367,-0.003307094539510772,0.008171846976112137,0.9926697627419626
2011-09-23,1,0.0012083216034890726,0.001370243992499614,-0.003307094539510772,0.008171846976112137,0.9924190281624045
2011-09-27,1,0.0012619215940971676,0.0014248196939321536,-0.004204164582775091,0.007634044826680474,0.9906725132270714
2011-09-29,1,0.00134718844483348,0.0015270800503072676,-0.003307094539510772,0.008171846976112137,0.9917042716258436
2011-10-03,1,0.0011349158528656767,0.0012895513347069654,-0.005020856844041675,0.008171846976112137,0.9911966969576413
2011-10-05,1,0.001134541048994948,0.0013028854959854278,-0.008434741881529434,0.008171846976112137,0.9905489386353459
2011-10-07,1,0.0012735894330479771,0.0014596612826580828,-0.008434741881529434,0.008031780258411707,0.9906134881508784
2011-10-11,1,0.001405192444086747,0.0016093619498906615,-0.008434741881529434,0.008031780258411707,0.9905773150821864
2011-10-13,1,0.0012026864219936016,0.0013687860247890535,-0.009208980024708482,0.008840304179286726,0.9900627698855105
2011-10-17,1,0.0010493989117587017,0.0011896093047850656,-0.004482254103014469,0.009356419969408534,0.9904498110309782
2011-10-19,1,0.001094546354401094,0.0012391753455190048,-0.009208980024708482,0.009356419969408534,0.9900991421470947
2011-10-21,1,0.001441361928672715,0.0016271092632099862,-0.009208980024708482,0.00871035709934158,0.9906941761252335
2011-10-25,1,0.00026465699080924844,0.00027393001338108815,-0.009182338955495724,0.00871035709934158,0.9924194426422618
2011-10-27,1,0.0006262695118508361,0.0006766149429244454,-0.009299067112238659,0.006088209441238934,0.9927050073336467
2011-10-31,1,0.00011093304482929364,0.00013410452459201267,-0.005198581975127379,0.0072988513116157925,0.9928513247469962
2011-11-02,-1,-0.00011440883270964243,-5.902457218374675e-05,-0.0027441567485499705,0.00871035709934158,0.9924732302881348
2011-11-04,1,8.012931200643908e-05,0.00011057956009544185,-0.005285734793271987,0.007470889908323062,0.9923228401284931
2011-11-08,1,0.0004957012697882261,0.0005311726865633983,-0.005285734793271987,0.0035266069450746087,0.9927625052167212
2011-11-10,1,0.00042086843608992917,0.00045429868052377167,-0.005285734793271987,0.003358874865466537,0.9932295711706673
2011-11-14,1,0.00046463881382490283,0.0004944017428306655,-0.005285734793271987,0.002964051381057265,0.9933739676535377
2011-11-16,1,1.8459114372336777e-05,5.704191001055869e-05,-0.003976187054472108,0.0033987613508951555,0.9935239770442496
2011-11-18,1,6.110760703321716e-05,8.574811564604636e-05,-0.003555104045967601,0.0033987613508951555,0.9936725414131847
2011-11-22,1,2.0876328705369653e-05,3.9760261230772174e-05,-0.0026208484229177887,0.005490214568431858,0.9928852592971017
2011-11-25,-1,-0.00028843673509944755,-0.00022289585260699835,-0.0023843485729693322,0.00742579126369238,0.9929641898607509
2011-11-29,1,1.9472750364628728e-05,4.482522816786628e-05,-0.0026208484229177887,0.005490214568431858,0.9934042781622785
2011-12-01,1,0.00035204423684522695,0.00036536603650502773,-0.003555104045967601,0.005490214568431858,0.9940545844803914
2011-12-05,1,4.0003806831417964e-05,7.016666709722779e-05,-0.0031756541293104347,0.005490214568431858,0.9942612585183289
2011-12-07,1,0.00013320576721637077,0.00015354363511878506,-0.0031756541293104347,0.004987018329607643,0.9943851841109012
2011-12-09,1,1.3116654845894606e-06,3.0212089509982327e-05,-0.0028403898829413034,0.0038025478763798262,0.9950080546503159
2011-12-13,1,0.0001403587017891183,0.00014170137527640394,-0.0028403898829413034,0.004755151334603962,0.9948679826172184
2011-12-15,1,0.00029815266950699714,0.0003032211533558986,-0.0028403898829413034,0.004755151334603962,0.9949107484507679
2011-12-19,0,-2.5764237548978785e-05,2.278906964881406e-05,-0.0028403898829413034,0.0048082627577951936,0.9946742214371144
2011-12-21,1,0.00032251130919377897,0.00033928818835711255,-0.004261585432984199,0.0029949779257978874,0.9954844794215236
2011-12-23,1,0.0003857195597715729,0.0004035145872556566,-0.0046672285181431706,0.002395726980135105,0.9949614601921497
2011-12-28,1,0.00011523570702352235,0.00017288223923725047,-0.0046672285181431706,0.002395726980135105,0.9947262352564445
2011-12-30,1,0.00039168403307704094,0.00039935017267422353,-0.0044929571150034665,0.002664534756116486,0.9951044404431535
2012-01-04,1,4.697671113674379e-05,0.00010147676534912856,-0.004261585432984199,0.003215024697888524,0.9950418055810001
2012-01-06,1,1.1979311435973461e-05,6.080109983466566e-05,-0.004261585432984199,0.003215024697888524,0.9952042976597577
2012-01-10,-1,-7.434245446701868e-05,-8.31038968047263e-06,-0.004538023182007226,0.003215024697888524,0.9950409031851365
2012-01-12,-1,-0.00020139438476326333,-0.00010823314350041728,-0.004450386838323809,0.002985182826316732,0.9951708162740291
2012-01-17,1,0.00037676452452452746,0.0003880964472660936,-0.004450386838323809,0.002664534756116486,0.995617351360713
2012-01-19,1,0.00033240559327161074,0.000337815720477859,-0.004722602676877019,0.002624580585011841,0.9954707163439062
2012-01-23,1,0.00028175931972970004,0.00028555076156930054,-0.004722602676877019,0.002624580585011841,0.9957220544410664
2012-01-25,1,3.5625448613097366e-05,5.283679464477561e-05,-0.0023767546714551276,0.002985182826316732,0.9962904277098749
2012-01-27,-1,-0.00043502520840669643,-0.00034975729202792085,-0.001743778934510381,0.002985182826316732,0.9968986158150571
2012-01-31,-1,-0.00024553354970183205,-0.0001868266423020403,-0.001743778934510381,0.0033249362686150656,0.996474874936619
2012-02-02,-1,-0.0002733156626922477,-0.0001966662272409623,-0.0023767546714551276,0.002511656091515072,0.9964188102844279
2012-02-06,-1,-0.00028650509927074657,-0.00021484883954779312,-0.0023767546714551276,0.002694097469511628,0.9962151535455092
2012-02-08,-1,-0.00023486856364394746,-0.00018304805011174608,-0.0023767546714551276,0.0034939552961477443,0.9954921570817425
2012-02-10,-1,-9.37718099107179e-05,-7.277516370023527e-05,-0.001743778934510381,0.0044383388784744494,0.9955160958647549
2012-02-14,-1,-0.0002262094345516717,-0.0001758666950906443,-0.0023767546714551276,0.004996621637225473,0.9949812442338767
2012-02-16,-1,-7.468013281845428e-05,-6.039761538898144e-05,-0.0015326271682964093,0.004996621637225473,0.9953513552666119
2012-02-21,-1,-5.9854042046406084e-05,-4.891836259018679e-05,-0.0009322456659432135,0.005225780356152548,0.9952424185440351
2012-02-23,1,0.0001738168595280859,0.0001963348524846443,-0.0008193425540131779,0.004975614230291676,0.9958247128037573
2012-02-27,-1,-4.6864236537563933e-05,-3.001449523421363e-05,-0.0008193425540131779,0.005225780356152548,0.9953213040931728
2012-02-29,1,0.0001926149925082227,0.0002035754527544486,-0.0008193425540131779,0.0044383388784744494,0.9958967282969001
2012-03-02,1,7.621631945979267e-05,7.91411421362893e-05,-0.0008132246350768899,0.0044383388784744494,0.9964138540382083
2012-03-06,1,0.00015329383065231802,0.0001703257841410729,-0.0008132246350768899,0.004975614230291676,0.9961398787084047
2012-03-08,1,4.412790410391956e-06,7.2559994846141615e-06,-0.0008132246350768899,0.0035406053789949652,0.9969065677190024
2012-03-12,1,9.588239570847316e-05,9.987876813576616e-05,-0.0020463558571961293,0.0022622153200170542,0.9966623659921743
2012-03-14,1,0.00017884675582726701,0.0001978118987582294,-0.0010487396499195363,0.0030170508020650206,0.9969984262642475
2012-03-16,1,0.0004626871692692051,0.000544799306655468,-0.0010487396499195363,0.0036106311599941867,0.996803612670732
2012-03-20,1,0.00016985758881857824,0.0001795031348750474,-0.0010487396499195363,0.0036106311599941867,0.9964128488502649
2012-03-22,1,0.00032193404275712684,0.00036154046625685884,-0.0020463558571961293,0.005227134620185151,0.9954754827241548
2012-03-26,1,0.00014314792664525097,0.00015127936609745136,-0.0010447586600205413,0.005227134620185151,0.9945361762335713
2012-03-28,1,0.00014146200610740348,0.00016157730357916727,-0.0010447586600205413,0.005227134620185151,0.9945048858691505
2012-03-30,1,0.000161179846191978,0.00017035843218316654,-0.0027406034813516433,0.005227134620185151,0.9942061770661437
2012-04-03,1,0.0004856916730882013,0.000536434663915792,-0.0027406034813516433,0.00423090979589615,0.9945740395189483
2012-04-05,1,0.00045273488200543916,0.00048687526880772294,-0.003140428533789145,0.00423090979589615,0.9943951313076889
2012-04-10,1,0.0002485226633373648,0.00026596912059417117,-0.0017445536223755825,0.005227134620185151,0.9943933258175154
2012-04-12,1,0.00028961468843392634,0.00029042220430682426,-0.0017445536223755825,0.005924929087692205,0.9942905014060962
2012-04-16,1,0.0003505967004325238,0.00035182399484067086,-0.0024832341452980097,0.005044978168108525,0.9943486727669951
2012-04-18,1,0.0004892215202953,0.0004925401564900506,-0.0024832341452980097,0.0034753987960805814,0.9948518536804618
2012-04-20,1,0.0005825015716405092,0.0005830717034293123,-0.0024832341452980097,0.0027402148521431494,0.995277139192037
2012-04-24,1,0.0015935638388461049,0.0017426297676636034,-0.0024832341452980097,0.0025224216736545514,0.9963985705065566
2012-04-26,1,0.001869984383248196,0.0020808755216043533,-0.0024832341452980097,0.0025224216736545514,0.9959394279108691
2012-04-30,1,0.0014258398523499447,0.0015545892197031926,-0.0024114017241755052,0.003197453965835309,0.9963380984887432
2012-05-02,1,0.0014906437815040388,0.001633936493979114,-0.0024114017241755052,0.002698921467241504,0.9962201196139373
2012-05-04,1,0.0010774353295864144,0.0011462218514808346,-0.0024114017241755052,0.003311004628938511,0.995597850594274
2012-05-08,1,0.0011846459142573235,0.0012630870318190571,-0.0024114017241755052,0.004068030375962877,0.9953822595598135
2012-05-10,1,0.0017000774286489151,0.0018727116831152493,-0.0024114017241755052,0.004695164499566208,0.9953700317066272
2012-05-14,1,0.0015079427509195947,0.0016429430889126797,-0.002311261458362546,0.004695164499566208,0.9953958763222026
2012-05-16,1,0.0018855043255966925,0.0021137564116438246,-0.002311261458362546,0.00556144324737231,0.9950276777572588
2012-05-18,1,0.001680355897573225,0.0018966306113922208,-0.0008266968318007329,0.00556144324737231,0.995535895925239
2012-05-22,1,0.0014289012234363686,0.0015957075802690546,-0.0008266968318007329,0.005657068685841536,0.9944966201715472
2012-05-24,1,0.0017173155768897912,0.0019257840836817705,-0.0008266968318007329,0.005657068685841536,0.9942205182621815
2012-05-29,1,0.001599205460276719,0.0017768312961833758,-0.0019849145297654415,0.007417972800680769,0.9937121865175115
2012-05-31,1,0.0012842711835503824,0.001409422277904259,-0.0008266968318007329,0.007651037449210296,0.9935932115251128
2012-06-04,1,0.001214073329381815,0.0013321813735488867,0.0009791120933673235,0.00827903651073164,0.993912598235345
2012-06-06,1,0.0017031840281552506,0.0018850189767153237,0.0007081427751371427,0.007651037449210296,0.9948050474452199
2012-06-08,1,0.002007011067935975,0.0022430307049225136,-0.0008266968318007329,0.0058726666020339074,0.9949114497778666
2012-06-12,1,0.002121501727683108,0.002381756420211707,-0.001382354556376267,0.006249396348127442,0.9946652400681107
2012-06-14,1,0.0022399853664929288,0.0024965468322308377,-0.001382354556376267,0.006249396348127442,0.9946023308251539
2012-06-18,1,0.0018640253905533879,0.002032310914331628,-0.0007426091354191965,0.007525631627844291,0.9944359558749347
2012-06-20,1,0.0010745100132797134,0.0011153239437393932,-0.0007296586051146744,0.007525631627844291,0.9952525506726435
2012-06-22,1,0.0010653792040333236,0.00111127775404232,-0.0017012203435430083,0.006000729857648313,0.995422309736858
2012-06-26,1,0.001267785067775354,0.0013528106459033526,-0.0017012203435430083,0.0048797340781769226,0.9952138017547139
2012-06-28,1,0.0014687466846363816,0.00157189141739418,-0.0017012203435430083,0.006000729857648313,0.9934422328571053
2012-07-02,1,0.001702532758266716,0.0018155629773013177,-0.002220366453006874,0.005927946561125331,0.9931311323360067
2012-07-05,1,0.001543350932124675,0.0016264190704540905,-0.0025261262998271528,0.005927946561125331,0.9928791449095649
2012-07-09,1,0.0016053807452110816,0.0016879420868260774,-0.006616002684110851,0.005927946561125331,0.9912372056417992
2012-07-11,1,0.0015194085799111435,0.0015657905722998916,-0.011656749381750497,0.006551812418420893,0.9908613724713454
2012-07-13,1,0.0017296250302693608,0.0017951354853609795,-0.011656749381750497,0.0038455024146423883,0.9909232461007421
2012-07-17,1,0.0018889995105086735,0.0019870620309038736,-0.011656749381750497,0.003607526071721555,0.9907864056861674
2012-07-19,1,0.0016883671896224584,0.001749937056566346,-0.011656749381750497,0.005157641575904369,0.9908900235363216
2012-07-23,1,0.00134255628942807,0.0013811352653601483,-0.006503624049872455,0.005589325138247492,0.9915592323550569
2012-07-25,1,0.00047488804752326904,0.0005628365526963689,-0.004189636461323815,0.005589325138247492,0.9921788889937122
2012-07-27,1,0.002066652279820964,0.0021769549904878853,-0.004885624574876328,0.0035083286406496403,0.9937691883655269
2012-07-31,1,0.001462216520640411,0.0014681752122069785,-0.004189636461323815,0.0029056342895036505,0.9946859560818503
2012-08-02,1,0.0013847454920572469,0.0013945240692942937,-0.004189636461323815,0.0018806573143000166,0.9947725792038591
2012-08-06,0,-4.3984783307438394e-05,0.00012392984054824412,-0.002563993364840345,0.0018855197074450904,0.9968146120374701
2012-08-08,-1,-0.00033273584941553456,-0.0001341943813891564,-0.002563993364840345,0.0018855197074450904,0.9964109285089573
2012-08-10,-1,-0.0005516605528272265,-0.00033561637716360553,-0.0038475307127796713,0.0018855197074450904,0.9958876866011765
2012-08-14,-1,-0.0006499005848269122,-0.00041550535154029496,-0.002563993364840345,0.0015501734739566133,0.9962948517096714
2012-08-16,-1,-0.00045225859901441953,-0.000244994420935768,-0.004133426077949238,0.0015501734739566133,0.9957837413923081
2012-08-20,-1,-0.0002950167634235071,-0.00010520680047199863,-0.004133426077949238,0.0018855197074450904,0.9956088847252036
2012-08-22,-1,-0.0005874064023904246,-0.0003552563317962221,-0.0028955751881274694,0.0049210802697428665,0.9949502808934663
2012-08-24,-1,-0.0006352449370318793,-0.00040652841509118134,-0.0008964576307153151,0.0049210802697428665,0.994914323597982
2012-08-28,-1,-0.0007896150342000323,-0.000538411905893632,-0.0017659451521069868,0.0049210802697428665,0.9948717430029069
2012-08-30,-1,-0.0012554643897922507,-0.0009216138224317431,-0.0012854776567792405,0.0049210802697428665,0.9945145517606723
2012-09-04,-1,-0.0011412209317455077,-0.0008304112554526254,-0.0012854776567792405,0.007377523301305559,0.994360495524501
2012-09-06,-1,-0.0011341024158914742,-0.0008337012405690683,-0.0008126828159360959,0.0049210802697428665,0.9952836630571639
2012-09-10,-1,-0.0015926267389823501,-0.001257539597620265,-0.00035562731281481004,0.0049210802697428665,0.9954142898726837
2012-09-12,-1,-0.0015357669748755122,-0.0012171768878683508,-0.0009891119428053392,0.0049210802697428665,0.9953031678212466
2012-09-14,-1,-0.0006661695259284385,-0.0005079411748756268,-0.0009891119428053392,0.003977791516197429,0.9963546985734467
2012-09-18,-1,-0.00022979705293699567,-0.00012408879325321117,-0.0009891119428053392,0.004079917988355182,0.996437002626115
2012-09-20,1,0.00015207247208328455,0.0002294635248305046,-0.0009891119428053392,0.0038827631244581517,0.9967431242429207
2012-09-24,1,0.00035541112957935737,0.0004106488561655846,-0.0019186433897153074,0.0038827631244581517,0.9963977630053814
2012-09-26,1,5.075137378595914e-06,0.00011058265289595553,-0.003923550586208514,0.0038827631244581517,0.9952270077383208
2012-09-28,1,0.00031489881499925827,0.00037673240430748193,-0.00463885463124666,0.003041842048078433,0.994513150094313
2012-10-02,1,0.0007367907631720023,0.0007431039713317139,-0.00463885463124666,0.003769333310434693,0.9942877941426822
2012-10-04,1,0.000769813177611376,0.0007700914720918113,-0.005434176445696065,0.0029872924554540576,0.9939973329561668
2012-10-08,1,0.0006474327163760358,0.000658764329120328,-0.005434176445696065,0.0036352655852601983,0.9938509965943941
2012-10-10,0,-6.800672575765239e-05,5.287851336903155e-05,-0.005235062581829356,0.003916269210482055,0.993869335376666
2012-10-12,-1,-0.0003939964078790353,-0.00022791528205155136,-0.005235062581829356,0.00620535203585611,0.9933435412584459
2012-10-16,1,0.00014472676857434623,0.0002393536135582534,-0.005992969630978644,0.004319834524081577,0.9935192707933175
2012-10-18,1,0.0006803860016298452,0.0007035986618405289,-0.005992969630978644,0.00620535203585611,0.9926958199651404
2012-10-22,0,-0.00012218758470345314,8.146143207055643e-06,-0.005235062581829356,0.00620535203585611,0.9933707593274774
2012-10-24,-1,-0.0015052471723497394,-0.0011994351904090687,-0.004310029039216366,0.006927144253663206,0.9933708522633723
2012-10-26,-1,-0.0018294794402856536,-0.0015200687432946605,-0.004310029039216366,0.006927144253663206,0.9933155653211589
2012-11-01,-1,-0.0010991780423981893,-0.0008957852809207225,-0.004392058941502493,0.00620535203585611,0.9939353834571266
2012-11-05,-1,-0.0013660549998951253,-0.0011376197914588395,-0.004102596080984433,0.00620535203585611,0.9939563006553997
2012-11-07,-1,-0.0010714823787789738,-0.0009028909624909653,-0.004612763707133557,0.00620535203585611,0.9937686276460924
2012-11-09,-1,-0.0010139511572779794,-0.0008563007305682024,-0.002792193814082901,0.006842985771345219,0.9937429759078295
2012-11-13,-1,-0.000764150542752866,-0.0006065656450671697,-0.003494271604190467,0.0032331693611721175,0.9944597188908645
2012-11-15,-1,-0.0011888737875488937,-0.0009727266253331787,-0.003494271604190467,0.003770698318410258,0.9940803997548332
2012-11-19,0,-6.473713152455317e-05,1.4956889077932963e-05,-0.003494271604190467,0.003770698318410258,0.9949276474002343
2012-11-21,1,0.00026532482493457285,0.00028817558796743765,-0.005266008861008555,0.003770698318410258,0.9943705175731009
2012-11-26,1,0.0006500206638147296,0.0007110158734831194,-0.005266008861008555,0.002144719312037191,0.9947864864866268
2012-11-28,1,0.0005091896563813782,0.0005570773730987602,-0.0037314781902481977,0.002144719312037191,0.9950854493992154
2012-11-30,1,0.0003960532261329242,0.0004331273186555728,-0.004812861067986193,0.003773654541591123,0.9940825438377154
2012-12-04,1,0.00041392564939926976,0.0004539131818148977,-0.005340139757241832,0.005334105006054328,0.9928174090851403
2012-12-06,1,0.00025304044640452376,0.0002963292525496749,-0.005340139757241832,0.005334105006054328,0.992194587005347
2012-12-10,1,0.0007013950873129881,0.0008196720176307621,-0.005945960465361112,0.005334105006054328,0.9922422891088238
2012-12-12,1,0.000612968063882863,0.0007207956535049301,-0.005945960465361112,0.005334105006054328,0.9922285421346936
2012-12-14,1,0.0001243993096446997,0.00013521661366287086,-0.004485407414288023,0.005760371707309686,0.9924242809963252
2012-12-18,1,0.0003050853932298099,0.00030693709771100695,-0.004485407414288023,0.005568323574251922,0.9924430390621642
2012-12-20,1,0.000749609928407162,0.0009203812605922898,-0.0037561884889926235,0.005872716126696435,0.9928665658381319
2012-12-24,1,0.00010728829164092976,0.00017680698047520333,-0.0037561884889926235,0.005872716126696435,0.9930253143901344
2012-12-27,1,0.00026408396873655134,0.00035687334050053284,-0.0038428803624979734,0.006310874371709686,0.9930156124294117
2012-12-31,-1,-0.00020292291851912536,-0.0001553883876411091,-0.002761787502226111,0.006310874371709686,0.9933519488457273
2013-01-03,1,0.00027957193248153247,0.00028147768974722725,-0.002332801516108725,0.006310874371709686,0.9937919056733747
2013-01-07,0,0.0,0.0,-0.002332801516108725,0.006572854427871115,0.9940748175967057
2013-01-09,0,0.0,0.0,-0.0004882890099678563,0.006675726833114916,0.9942625885587872
2013-01-11,0,0.0,0.0,-0.002332801516108725,0.006675726833114916,0.9942331187984876
2013-01-15,1,5.435817611999421e-05,6.323232582347755e-05,-0.002761787502226111,0.006523573792922132,0.9943129269660491
2013-01-17,1,0.00022922550107878301,0.00024320009589127062,-0.002644211712227092,0.006523573792922132,0.9942326034123162
2013-01-22,1,0.0003287551875751813,0.00034968457421182296,-0.003978917641871124,0.008116944017963017,0.9939106280810999
2013-01-24,1,0.000487407106771021,0.0005075972246367708,-0.0015835254535682148,0.010663367022950473,0.9928768022856788
2013-01-28,0,0.0,0.0,-0.001347356907241218,0.010663367022950473,0.9931021902445942
2013-01-30,0,0.0,0.0,-0.0033377713376518212,0.01035285199671325,0.9928900172302783
2013-02-01,0,-1.569133473752689e-05,3.6037291263682004e-05,-0.0033377713376518212,0.008459261650657277,0.9935565950840097
2013-02-05,1,0.0016077392560942376,0.0017222163052614224,-0.0033377713376518212,0.008068801063301793,0.9933389372581363
2013-02-07,1,0.001646678557591634,0.0017699734219280253,-0.005197924874782918,0.008068801063301793,0.9931874369041479
2013-02-11,1,0.0013605264618754978,0.0014523905637590271,-0.003742668015591245,0.008068801063301793,0.993418814003863
2013-02-13,1,0.0012759286343286902,0.0013800997437650746,-0.003742668015591245,0.008068801063301793,0.9932855030806219
2013-02-15,1,0.0020882875096441787,0.002334859263332003,-0.005209023941853828,0.005013229878342868,0.9931566454990068
2013-02-20,1,0.0023676169142539815,0.002664132184233917,-0.0042813288801777285,0.008068801063301793,0.9927266272773296
2013-02-22,1,0.0033438998618423085,0.003759129606431021,-0.0057548986914880565,0.00772925246481986,0.9931347934052639
2013-02-26,1,0.0032231855433356767,0.003629237987750643,-0.006558462840432593,0.008068801063301793,0.9916368647120195
2013-02-28,1,0.0031679868307005897,0.003578601185793394,-0.0057548986914880565,0.008068801063301793,0.9918757953299246
2013-03-04,0,0.0,0.0,-0.0057548986914880565,0.009240954984691841,0.9913120213645242
2013-03-06,0,0.0,0.0,-0.0057548986914880565,0.008458478171301798,0.9911448928754022
2013-03-08,1,0.0024859574859432384,0.002783291084854824,-0.004545975028053725,0.009088926890790057,0.9913605624171601
2013-03-12,1,0.0022883524584113094,0.002547597216569009,-0.004545975028053725,0.010167673742672391,0.9910993990898058
2013-03-14,1,0.002281994059686041,0.0025635074876632588,-0.003948342268511483,0.010167673742672391,0.9913176646993297
2013-03-18,1,0.0021839206207636837,0.0024752348832243606,-0.0021090806172631626,0.01083349265289851,0.9908456702829597
2013-03-20,1,0.00282876728696097,0.0031752219816177374,-0.004755938856489318,0.008890071544422357,0.991246921645141
2013-03-22,1,0.0017563527476248258,0.0019134775960621382,-0.00436144128340826,0.010236926613795418,0.9893106696509699
2013-03-26,1,0.002146890933048949,0.002326576833060431,-0.00436144128340826,0.008890071544422357,0.9900991519454156
2013-03-28,1,0.002280685313808349,0.0024847719238108926,-0.0036664661440592777,0.008264228840294912,0.9904757551114745
2013-04-02,1,0.002538730975588448,0.002757864505911695,-0.0036664661440592777,0.0072593992767511955,0.991156199410211
2013-04-04,1,0.0019970887556017116,0.0021374559616902434,-0.0018774222374801687,0.008264228840294912,0.9919657186871392
2013-04-08,1,0.0021391826486775603,0.002292174196061765,-0.0036664661440592777,0.007997977253593705,0.9914630041113506
2013-04-10,1,0.002444811653302672,0.0026599600647977655,-0.0036664661440592777,0.0072002332389804235,0.9915994078050754
2013-04-12,1,0.002451158624448465,0.0026481605653803225,-0.00576395126051036,0.005089035308684042,0.9911087061979594
2013-04-16,1,0.002783477473076187,0.0030646950595108564,-0.0036664661440592777,0.005089035308684042,0.9916584376308438
2013-04-18,1,0.0026155357217679024,0.0028749228494597875,-0.004342760123322895,0.0031471937735501557,0.9916096924607997
2013-04-22,1,0.0036924013854098547,0.00408912006190308,-0.005220024121849734,0.0031471937735501557,0.9926547294866068
2013-04-24,1,0.002856847104168633,0.0031282894065125756,-0.005220024121849734,0.0031471937735501557,0.9937287090757533
2013-04-26,1,0.002556642453924277,0.0027748382184251867,-0.005220024121849734,0.0047963091371160775,0.993892008711079
2013-04-30,1,0.0024202721038578626,0.0026155475858531067,-0.008395743256090877,0.006322054724276529,0.9912683008187108
2013-05-02,1,0.0025589217021602523,0.0027431756778523416,-0.008809585485926998,0.006322054724276529,0.9896943934356356
2013-05-06,1,0.0025289653544863376,0.0027144826581832313,-0.008569923353388246,0.006397860916111834,0.9899982847963311
2013-05-08,1,0.0022223837290054754,0.002356213404200176,-0.0101160072332692,0.007075615778378912,0.9890502874670946
2013-05-10,1,0.001716931661254173,0.0017660087980458576,-0.008569923353388246,0.008054308867728514,0.9893339742118187
2013-05-14,1,0.0022299724624366916,0.002363416507630057,-0.009908745621217399,0.0070130400732336985,0.9892710004211409
2013-05-16,1,0.0014173055014942437,0.0014258898013898803,-0.009908745621217399,0.007885761979662584,0.9894819036998864
2013-05-20,1,0.0005986209324322222,0.0007329279647020283,-0.0033399585341485896,0.008054308867728514,0.9894066910797045
2013-05-22,1,0.00016314208327585888,0.0003577725082434355,-0.013495780941051742,0.008054308867728514,0.9874908167355182
2013-05-24,1,0.0004958898585479539,0.0006347629822314167,-0.013495780941051742,0.008054308867728514,0.9871891575396108
2013-05-29,-1,-0.00062207374060388,-0.0003775210562029931,-0.008312651959310267,0.008054308867728514,0.9889494431840137
2013-05-31,-1,-0.0020152213820545358,-0.0015758086203761458,-0.0031882201796720176,0.007885761979662584,0.9904734874939923
2013-06-04,-1,-0.0018787054620479204,-0.001453187690504107,-0.0031882201796720176,0.00697771634559346,0.9909629121511838
2013-06-06,-1,-0.002323456912121941,-0.0018509868644961665,-0.0014658104985065304,0.00598512626726704,0.9916350498756269
2013-06-10,-1,-0.0019089840584810922,-0.0014913862839856821,-0.0014658104985065304,0.0057680876868519875,0.9918921220495864
2013-06-12,-1,-0.0021633721952163546,-0.0017238914364353425,-0.0010879443005945397,0.007199322510777187,0.9917401434963093
2013-06-14,-1,-0.0017223459805462726,-0.0013476067758573058,-0.0010879443005945397,0.0057680876868519875,0.9922995452113983
2013-06-18,-1,-0.0014793916302971999,-0.0011162416395952444,-0.0014658104985065304,0.004858709752691524,0.99307597011619
2013-06-20,-1,-0.003189001154753098,-0.0026261273601577897,-0.000411713684099931,0.005488504059859007,0.9936467580448165
2013-06-24,-1,-0.0026999397040370775,-0.002223446002929734,-0.000411713684099931,0.005333498618399557,0.9937108348286507
2013-06-26,-1,-0.0017315867675490144,-0.0013988173877895267,-0.0014658104985065304,0.004848757423597396,0.9949558177676758
2013-06-28,-1,-0.0017431437079120087,-0.001408737094141189,-0.001638629643375006,0.004848757423597396,0.9951255768853802
2013-07-02,-1,-0.00169058685486427,-0.001373107667829397,-0.002010854958187257,0.005458647072576625,0.9947411799254819
2013-07-05,-1,-0.0017919556277255428,-0.0014491064738162026,-0.002010854958187257,0.005982012669233613,0.9944900467188537
2013-07-09,-1,-0.0016139507378461096,-0.0012805469286374135,-0.002633520010928311,0.005458647072576625,0.9949340895788882
2013-07-11,-1,-0.0010610189431150933,-0.0008124899346497901,-0.003658356599258697,0.004502472997280281,0.9952215152382687
2013-07-15,-1,-0.0008873375036343431,-0.0006657636884109461,-0.003658356599258697,0.004502472997280281,0.9954346776288139
2013-07-17,-1,-0.0005414478210423544,-0.00040604419837617046,-0.003658356599258697,0.004502472997280281,0.9949446464791346
2013-07-19,-1,-0.0007065625281438301,-0.0005448673030380709,-0.004910800422092241,0.0009812653765835827,0.9947529912055689
2013-07-23,-1,-0.0011300203087185627,-0.0009194152841647674,-0.003671127772317707,0.0009547332020196158,0.9956622745278938
2013-07-25,-1,-0.0009371800179181158,-0.0007599336508170466,-0.004910800422092241,0.0009547332020196158,0.9948200895068344
2013-07-29,-1,-0.001183564798946086,-0.0009684253955313816,-0.008109559506099677,0.0032270791067076743,0.9941243781333344
2013-07-31,-1,-0.0011263661249280527,-0.0009077859121969757,-0.009716538522310561,0.0006562085036946083,0.9936727851719032
2013-08-02,-1,-0.0009510050160245057,-0.0007486189193158628,-0.009716538522310561,0.0032270791067076743,0.9935147998709083
2013-08-06,-1,-0.0010553621520176446,-0.0008322200087910899,-0.009716538522310561,0.00042777005673299553,0.9934664855014136
2013-08-08,-1,-0.0016938393435900977,-0.0013795358672556422,-0.009716538522310561,0.0032270791067076743,0.993640633676459
2013-08-12,-1,-0.0012851940752145667,-0.0010616478888488942,-0.009716538522310561,0.004226764125459233,0.9930309553907888
2013-08-14,-1,-0.0018017658076089408,-0.0015190102356308919,-0.009134395113044268,0.004829816418131881,0.9930951167968242
2013-08-16,-1,-0.00211941405840611,-0.0018265122886797437,-0.004932356320128275,0.006189776363132593,0.9927922269563704
2013-08-20,-1,-0.001934319682978324,-0.0016746764670653254,-0.004030438060178074,0.007204898514366339,0.992364237536185
2013-08-22,-1,-0.0013282093757326391,-0.0011693675853235415,-0.0061611193459729045,0.006189776363132593,0.9931451532930284
2013-08-26,-1,-0.0019327808236185803,-0.0016834062334611286,-0.004593349552887219,0.006189776363132593,0.9936573683077617
2013-08-28,-1,-0.002371178061519517,-0.0020880759868328012,-0.004292621084491273,0.007204898514366339,0.9936600815640229
2013-08-30,-1,-0.001801621294285272,-0.001600385679277749,-0.00541798170683837,0.007204898514366339,0.993984541573367
2013-09-04,-1,-0.0019004062424530146,-0.0017047802959292192,-0.004593349552887219,0.007204898514366339,0.994133326734385
2013-09-06,-1,-0.0015622769770324324,-0.001414737647612054,-0.004593349552887219,0.006189776363132593,0.9945236290536998
2013-09-10,-1,-0.0011919531748967836,-0.0010855821663342568,-0.00541798170683837,0.004057327099750203,0.9946686729786371
2013-09-12,0,-7.262013093560938e-05,5.3782061187994336e-05,-0.00541798170683837,0.007832968199832365,0.9935507166236164
2013-09-16,1,0.00020616544293813616,0.0003296809178305641,-0.00541798170683837,0.0034651493134447275,0.9937640091254538
2013-09-18,1,0.0006739193479460297,0.0008558848292744019,-0.00541798170683837,0.0034651493134447275,0.9934217979908039
2013-09-20,1,0.00021692270731745784,0.00034280353026998144,-0.004292621084491273,0.008751937666138975,0.9937712924347237
2013-09-24,1,0.00023377108273291679,0.00038957367055366836,-0.00423232159513078,0.010617359038708593,0.9920025073720873
2013-09-26,1,0.0003115388136464969,0.00046561705395867616,-0.00423232159513078,0.01089865001680497,0.9914503674129435
2013-09-30,0,-2.3062017732694074e-05,8.7738736962388e-05,-0.0023116772983464992,0.013110654068061119,0.9906118325937419
2013-10-02,0,-5.943534727481333e-05,3.5789211591609514e-05,-0.002754245922022464,0.013110654068061119,0.9902216794322833
2013-10-04,1,0.0002818175788062918,0.00045502175060053356,-0.002754245922022464,0.013110654068061119,0.9904948527410755
2013-10-08,-1,-0.00017067281523499184,-7.653975878658595e-05,-2.2467747297351306e-05,0.013110654068061119,0.9904521273954642
2013-10-10,1,0.0006619743096579052,0.0008538368954104656,-0.0008996332229084463,0.01109323282236097,0.9910191470574431
2013-10-14,1,0.0009251486102705319,0.001141120703472765,-0.0011099981633080195,0.011077891394380772,0.9914952677789665
2013-10-16,1,0.001496918615683394,0.001813342926991611,-0.0004376195126876369,0.008663701210571613,0.9922690935894017
2013-10-18,1,0.0012775807307270023,0.0014960034482017263,-0.0011099981633080195,0.007998563791490335,0.9920742656174022
2013-10-22,1,0.001981643178967049,0.002243872899693776,-0.001457387794728316,0.007831168766944717,0.9935041203193604
2013-10-24,1,0.0024144064471229108,0.0027452560092982455,-0.0007637809968939755,0.007596331820466845,0.9945246552448771
2013-10-28,1,0.0029923272159706037,0.003373062528769832,-0.001457387794728316,0.0062505275834948875,0.9947161027567522
2013-10-30,1,0.0032973427926530877,0.003737490544033869,-0.0013640220810971,0.00319225373269347,0.994697094855407
2013-11-01,1,0.00301812077480633,0.00340349266284284,-0.0026173499946202192,0.0062505275834948875,0.9937729286376455
2013-11-05,1,0.0033963608360738327,0.0038471785629523338,-0.0059669206268810485,0.00319225373269347,0.99229865603259
2013-11-07,1,0.003226190700296654,0.0036800343870855992,-0.004544148556167716,0.00319225373269347,0.9926020709781
2013-11-11,1,0.0023255199384600756,0.002569933726387103,-0.0059669206268810485,0.003231403894245098,0.9926677279673263
2013-11-13,1,0.0026364956088670535,0.0029226618340028993,-0.006862983597480453,0.0028959068337280165,0.9917486567174731
2013-11-15,1,0.00293816783267004,0.0032960976493730046,-0.006862983597480453,0.0013858750491656294,0.9919730914877051
2013-11-19,1,0.0024697431897228355,0.0027646569440243005,-0.006862983597480453,0.0028959068337280165,0.9913943055500086
2013-11-21,1,0.0022959227107175427,0.0025630784816960276,-0.007594631626558291,0.005276101330215135,0.9909770511526584
2013-11-25,1,0.0023720557538049712,0.0026515559514984034,-0.007594631626558291,0.0029135741093518925,0.9912888431876062
2013-11-27,1,0.002423149278073445,0.0027265706182592014,-0.007594631626558291,0.0029135741093518925,0.9914758211001191
2013-12-02,1,0.002259267712446791,0.0025578603558187606,-0.007594631626558291,0.0029135741093518925,0.9918175350769323
2013-12-04,1,0.001465058822977444,0.001664947762707987,-0.006370739519747861,0.004587852874195995,0.9930074902187974
2013-12-06,1,0.0017320514911373921,0.0019568517899278886,-0.006370739519747861,0.0029135741093518925,0.9935720271244463
2013-12-10,1,0.00147519952028221,0.0016609815757347075,-0.006246642993225943,0.004387837968322534,0.9936057386709798
2013-12-12,1,0.0009326948343199911,0.0010197287683362086,-0.0059726537676110135,0.0044956668616775745,0.9940083961724742
2013-12-16,1,0.0009788260273719707,0.0010748374600799602,-0.0059726537676110135,0.005354472219885462,0.993669025389587
2013-12-18,1,0.001217094579766965,0.00133576065580509,-0.0056563600969072115,0.005272976385003635,0.9948261900588877
2013-12-20,1,0.0012586059855437572,0.0013933657515030474,-0.0043505025107029825,0.005272976385003635,0.9949161306780744
2013-12-24,1,0.0011983922737791454,0.0013386014050688643,-0.0043505025107029825,0.00643938271211302,0.9941397245248271
2013-12-27,1,0.0012050042577022384,0.001347076810374945,-0.0043505025107029825,0.0069872002995217675,0.9936538455597054
2013-12-31,1,0.0007647258001756961,0.0008270724981783285,-0.0043505025107029825,0.007312348636020155,0.9933488445985612
2014-01-03,1,0.0006399017474326888,0.0006793789216419633,-0.0043505025107029825,0.009010688599588843,0.9916966609009329
2014-01-07,1,0.00021768201379751507,0.00025744438009073635,-0.0043505025107029825,0.009010688599588843,0.9918851164681802
2014-01-09,-1,-0.0002896602553169297,-0.0001602516679956379,-0.0019163697650763463,0.009010688599588843,0.991754931213904
2014-01-13,0,-8.111647191635284e-05,2.640090345540038e-05,-0.0013422142729080473,0.008987984559717926,0.9916185591973063
2014-01-15,1,0.0001244729473468995,0.00020010072198566652,-0.0043505025107029825,0.008987984559717926,0.9913862632245524
2014-01-17,-1,-0.0001569045285615136,-3.0618272893092994e-05,-0.004116207094769642,0.009129671774192364,0.9909929618578003
2014-01-22,-1,-0.0005006302781659325,-0.00030048911389633467,-0.004861031433171233,0.009565099204878583,0.9905878048187996
2014-01-24,0,-5.1060481885638884e-05,8.530323836460963e-05,-0.001974947440229748,0.008987984559717926,0.9917279612374916
2014-01-28,0,-3.5840767288673715e-05,0.00011567856524481929,-0.004920068130963464,0.007725228493161144,0.9916019503531729
2014-01-30,0,-0.00013968699519592684,2.2117401062024295e-05,-0.00231398163416724,0.007725228493161144,0.9921501001778877
2014-02-03,-1,-0.0008972852067533655,-0.0006586263367282945,-0.00231398163416724,0.007764889551362317,0.9927550149717005
2014-02-05,-1,-0.0007268159264543127,-0.0005302339764324246,-0.004920068130963464,0.007764889551362317,0.9915721630081908
2014-02-07,-1,-0.00023382676060879992,-0.00011283218812401663,-0.004920068130963464,0.007764889551362317,0.9919495694131498
2014-02-11,1,0.0002948732138091016,0.00033884172021052294,-0.004920068130963464,0.007007022695714265,0.9923324321013539
2014-02-13,0,-1.3199886125071845e-06,0.00010009624050773958,-0.004995859137274675,0.006540197260606119,0.9924457793955612
2014-02-18,0,-1.5345173288406624e-05,0.00010383368271908906,-0.00454292791532087,0.006540197260606119,0.9926224859736745
2014-02-20,0,-6.212035788039311e-05,6.531612140875837e-05,-0.00454292791532087,0.005592693523305625,0.9931333507081952
2014-02-24,-1,-0.00034911933235881707,-0.00016921338426758128,-0.00454292791532087,0.005592693523305625,0.9929553715844378
2014-02-26,-1,-0.0008576623048735216,-0.0006153932805985385,-0.002694000804211324,0.005592693523305625,0.9935510003934468
2014-02-28,-1,-0.0005484132908302429,-0.00033878803938004395,-0.00454292791532087,0.004733439313117714,0.9938927575555869
2014-03-04,-1,-0.000735098072206186,-0.000485349777668324,-0.004490643457600491,0.004071315059012344,0.9948406668569728
2014-03-06,-1,-0.0007378733804897253,-0.0005236159093131873,-0.002694000804211324,0.003643551141395984,0.9959979756618342
2014-03-10,-1,-0.0007289944467702582,-0.0005259953139588181,-0.0013872002039839067,0.003643551141395984,0.9960657873243784
2014-03-12,-1,-0.0005364281659392023,-0.0003647466198881499,-0.0012471243607710108,0.004042790883852789,0.99588941702722
2014-03-14,-1,-0.0004499697482695513,-0.0003029223823759537,-0.0016416581592931965,0.003643551141395984,0.9958371587532054
2014-03-18,1,0.00037602965126863825,0.0003941090262337249,-0.0010439326118527436,0.003643551141395984,0.9962434465402686
2014-03-20,1,0.00023954726805053273,0.00025491763043606594,-0.0009058663753620318,0.004042790883852789,0.9958462895701802
2014-03-24,1,0.0007492870047655552,0.0008456514984331057,-0.0025527660163557116,0.003301950203928039,0.9944504483450329
2014-03-26,1,0.0008280250440923625,0.0009420185186923938,-0.0025527660163557116,0.003301950203928039,0.9943542505282532
2014-03-28,1,0.0006462456103582969,0.0007370917698508539,-0.0010439326118527436,0.004042790883852789,0.9939028675272248
2014-04-01,1,0.000688518961790793,0.0007956493221331332,-0.0009540239899181258,0.004708087891575415,0.9938500537439676
2014-04-03,1,0.0005928520302118943,0.0006743194911362308,-0.0015283750323094806,0.004708087891575415,0.9933657760902169
2014-04-07,1,0.0006643363156035748,0.0007557057294779406,-0.004318753541221219,0.004708087891575415,0.9929400680361896
2014-04-09,1,0.0009788925884757702,0.0011228087105348975,-0.004318753541221219,0.0035972452611696304,0.992802263924102
2014-04-11,1,0.0006705782406238377,0.0007780814005954373,-0.0038936675935711267,0.0035972452611696304,0.993195145793067
2014-04-15,1,0.0006595437889308209,0.0007474059175649956,-0.0038936675935711267,0.004657794716731671,0.9928746059001409
2014-04-17,1,0.0010428082867546418,0.001180665667787672,-0.0038936675935711267,0.002903098701862201,0.9933873624536279
2014-04-22,1,0.00023454189351543173,0.0002705596030747411,-0.00273069473203791,0.002903098701862201,0.9946078955259113
2014-04-24,1,0.00034032886549962063,0.0003883297512283123,-0.00273069473203791,0.0032168388652987863,0.9946329375280223
2014-04-28,1,0.0006314415502432986,0.0007047895315955115,-0.00273069473203791,0.0032168388652987863,0.9951999585615287
2014-04-30,1,0.000472112708078248,0.00048776120674468644,-0.00273069473203791,0.0032168388652987863,0.9954384230562748
2014-05-02,1,0.0003517570963333215,0.00036647779010865627,-0.0024329483137896864,0.004510965046125133,0.9954325576433218
2014-05-06,0,-1.1547539270024594e-05,2.712188300303202e-05,-0.002353107465778268,0.004510965046125133,0.9954548371294442
2014-05-08,0,-1.4256403863083608e-05,3.784910980734229e-05,-0.002353107465778268,0.004409059552031586,0.9956952430665477
2014-05-12,-1,-0.00015048933113896162,-8.316644390785017e-05,-0.002353107465778268,0.004409059552031586,0.9956795730541058
2014-05-14,1,0.0001353731571907727,0.00015878707130704455,-0.002877825939671508,0.0032168388652987863,0.9956196519278125
2014-05-16,1,0.00010414546859752035,0.00013250880703533115,-0.002788714382725945,0.004352057931118251,0.9955412311487851
2014-05-20,-1,-0.0003291819928961014,-0.00024468276024361207,-0.0023519021575255762,0.004869482915864025,0.9956919878714108
2014-05-22,-1,-0.00020334489998407096,-0.0001341822411549704,-0.002788714382725945,0.005142393272697577,0.9953120873060914
2014-05-27,-1,-0.0002351056317500795,-0.00015381083237037582,-0.003953437511273345,0.004869482915864025,0.9952082561488422
2014-05-29,-1,-0.00014136791874588394,-6.801747016557083e-05,-0.003988414135345878,0.0033525107436301934,0.9952185692808061
2014-06-02,0,-6.729669157602586e-05,4.3589509070477794e-06,-0.003988414135345878,0.0033221554239014003,0.9955157005655066
2014-06-04,-1,-0.00033552139885986205,-0.00022754966327587255,-0.003953437511273345,0.0033221554239014003,0.9959394466847122
2014-06-06,-1,-0.0001729977095261939,-9.367228242901046e-05,-0.003953437511273345,0.0031364680467446883,0.9959518347788006
2014-06-10,-1,-0.00015988720229482073,-8.849076705270736e-05,-0.003130869709056462,0.004133997884565381,0.9958703448713102
2014-06-12,-1,-0.0005118568189703431,-0.0004002498442578532,-0.0018824903677035947,0.004133997884565381,0.9962849719485403
2014-06-16,-1,-0.0002779018281563258,-0.00019922279692361327,-0.0018824903677035947,0.004133997884565381,0.9961351498007083
2014-06-18,1,0.0001397628066409727,0.00015782645347468843,-0.002373270861389847,0.003949901107339102,0.9957276193363822
2014-06-20,1,0.0004241143396893559,0.00045729787817425414,-0.002373270861389847,0.003949901107339102,0.9957179457714562
2014-06-24,1,0.00012033071351215917,0.0001317937167517808,-0.0018824903677035947,0.004138769684356677,0.9943604330268395
2014-06-26,-1,-0.0005405366539915739,-0.0004172674669850934,-0.0018824903677035947,0.004138769684356677,0.9942082773672047
2014-06-30,-1,-0.00048380257635095175,-0.00036641747327383024,-0.0038210012717590502,0.003949901107339102,0.9939014518141827
2014-07-02,-1,-0.00027955508533846634,-0.00019917833579441435,-0.00888704346947155,0.003949901107339102,0.9926004626018914
2014-07-07,1,0.00014419703712173954,0.00015422025661719562,-0.00888704346947155,0.0042327855343162685,0.9922058970308324
2014-07-09,1,0.00035002815809789426,0.00036766184490452246,-0.00888704346947155,0.0043417155952733336,0.9912887813002751
2014-07-11,1,0.0003621981180294729,0.0003942039249499039,-0.00888704346947155,0.005643118506745624,0.9907588952709223
2014-07-15,1,0.0006493058693229714,0.0007216669506224164,-0.00888704346947155,0.005643118506745624,0.9906511786719383
2014-07-17,1,0.0003788365883384769,0.0004171839630167133,-0.008679751250006442,0.005643118506745624,0.9913898141915402
2014-07-21,1,2.995909318692392e-05,5.810511342795835e-05,-0.006539611014486028,0.006295246459039474,0.9915315271292227
2014-07-23,-1,-0.00043008955786436075,-0.00037128923955722856,-0.005174252484243828,0.004106705952871004,0.9932493758853216
2014-07-25,-1,-0.000672876703095395,-0.0005925105454914815,-0.0042955366358095794,0.005961124991940726,0.9932261843380311
2014-07-29,-1,-0.0014437238120525771,-0.0012515840137202316,-0.0042955366358095794,0.005961124991940726,0.9931185533418841
2014-07-31,-1,-0.002531661152511924,-0.002210013219873719,-0.0038344028491078576,0.0070683740183810784,0.9935456930772814
2014-08-04,-1,-0.0018877452704176188,-0.0016517718022897839,-0.0038344028491078576,0.005961124991940726,0.9943925098457103
2014-08-06,-1,-0.0013393077059029282,-0.0011675540548926676,-0.0038344028491078576,0.004438534767691009,0.9955526823059483
2014-08-08,-1,-0.0008960170759699389,-0.0007940534658514859,-0.0038344028491078576,0.0032413294683425226,0.9961096751449123
2014-08-12,-1,-0.0009587531156417164,-0.000835038739131779,-0.0034369898316008118,0.0017161277914754672,0.9965858946582143
2014-08-14,-1,-0.0006363505854554783,-0.0005638910160503344,-0.003858122364051901,0.0011582698469927786,0.9962995998087094
2014-08-18,-1,-0.00044766108359830815,-0.000397618764148505,-0.003858122364051901,0.0020652720904220092,0.9964470944722144
2014-08-20,-1,-0.0006085698797666764,-0.0005279405925548277,-0.003858122364051901,0.0020652720904220092,0.996520669911397
2014-08-22,-1,-0.000587180918479656,-0.0005058055510238528,-0.0020126046417675925,0.002348296686632126,0.9964917797208703
2014-08-26,-1,-0.0007618676870547253,-0.0006624780652203968,-0.0020126046417675925,0.002348296686632126,0.9954928836747626
2014-08-28,-1,-0.0006773534039265042,-0.0005936286090067961,-0.0020126046417675925,0.002348296686632126,0.9951611723031807
2014-09-02,-1,-0.0004856161489711665,-0.0004418270267552639,-0.003404740616796244,0.002348296686632126,0.9950557618925503
2014-09-04,-1,-0.0008772067331315323,-0.000766492681271438,-0.0035723619649418023,0.002348296686632126,0.9948148442370321
2014-09-08,-1,-0.0008763685060332947,-0.0007785445607353036,-0.004268805065125234,0.0036983936493549772,0.994216559795595
2014-09-10,-1,-0.0005072236251949826,-0.00048451476453708806,-0.004268805065125234,0.004758614663289592,0.9931749316263414
2014-09-12,-1,-0.0016243146008493973,-0.0014080908542208202,-0.004102838416817129,0.004758614663289592,0.9931504272883056
2014-09-16,-1,-0.0011842698010295348,-0.0010304131823010146,-0.007125045084105346,0.0029916571455005955,0.9929693227473341
2014-09-18,-1,-0.0007671760439928973,-0.0006995060697633779,-0.0077367001859921375,0.0029916571455005955,0.9924584811057591
2014-09-22,-1,-0.0001879135933349184,-0.00016841628389349043,-0.0077367001859921375,0.006630696795458985,0.9914745173829587
2014-09-24,1,2.95763677027937e-05,5.815847866858321e-05,-0.007125045084105346,0.009153078956945879,0.9910344019942133
2014-09-26,-1,-0.0005255115494723473,-0.00046705488666184616,-0.006000771422246679,0.01020213746759726,0.9913087039148778
2014-09-30,-1,-0.0004197305082236984,-0.0003892340951560567,-0.006000771422246679,0.01020213746759726,0.9911719783253281
2014-10-02,-1,-0.0007719101142750691,-0.0006927913256190839,-0.004052896844791936,0.01020213746759726,0.9913305780004635
2014-10-06,-1,-0.0005485027052851859,-0.0005109489487942376,-0.002789955762349891,0.011902537030757325,0.9910143355585738
2014-10-08,1,0.0003253282151809442,0.0004014819228530407,-0.004052896844791936,0.011902537030757325,0.9911263434533201
2014-10-10,-1,-0.00021715772152820355,-0.00019470773955562547,-0.002789955762349891,0.011902537030757325,0.9909330577142743
2014-10-14,-1,-0.0008433032581108364,-0.0007592413090010608,-0.002789955762349891,0.011902537030757325,0.9910892326206493
2014-10-16,-1,-0.0012330866488923526,-0.0011131653121413897,0.001212080855287979,0.011902537030757325,0.9910465573550116
2014-10-20,1,0.00011359921918557026,0.0001720889601507121,-0.0005713595386348391,0.009090618583870672,0.9921353252308519
2014-10-22,1,0.0018541098464247502,0.0021597801397883368,-0.0009674588039529892,0.006278786686437223,0.9946612395795664
2014-10-24,1,0.0018074813557756092,0.0020903824779550796,-0.0009674588039529892,0.006278786686437223,0.9945433364067627
2014-10-28,1,0.0020272538872586577,0.002343972414998471,-0.0031194121265650326,0.006957257753540147,0.9940456661196616
2014-10-30,1,0.001949619140762727,0.002252696582727488,-0.001536957872729788,0.007393072451375291,0.9933139535027279
2014-11-03,1,0.002394413482733324,0.002726311189007029,-0.004919241928629089,0.006957257753540147,0.9938028269277518
2014-11-05,1,0.0027056371172708344,0.00309116641101742,-0.004919241928629089,0.006278786686437223,0.9939890248028125
2014-11-07,1,0.003105299595611517,0.0035612563430583964,-0.004963215465934085,0.006025148814421889,0.993596695544615
2014-11-11,1,0.0031225245484383874,0.0035894813571752584,-0.004963215465934085,0.0036297081587313724,0.9933623897059761
2014-11-13,1,0.0030630119765857593,0.003499759251224521,-0.005353015165421147,0.003922108024794016,0.9927160846703628
2014-11-17,1,0.0027415661292628257,0.003119670276919219,-0.004963215465934085,0.002708607555820303,0.9934847466301078
2014-11-19,1,0.0028200411056994385,0.0032127458445597038,-0.004963215465934085,0.007363406437098629,0.9926803000338021
2014-11-21,1,0.0027106883972298863,0.003090319485747288,-0.004717669437054687,0.005763254697511526,0.9934424761597945
2014-11-25,1,0.0028442754224976,0.003252012224265342,-0.003925635159045007,0.005871310584442496,0.9932901776950045
2014-11-28,1,0.003733111730244214,0.0042723871250448615,-0.004717669437054687,0.004564342040643697,0.9933702805166261
2014-12-02,1,0.0034951460311056105,0.003991922902310879,-0.004717669437054687,0.004564342040643697,0.9928113601954934
2014-12-04,1,0.003167135108146153,0.0036397162179357266,-0.004717669437054687,0.004564342040643697,0.993330868511538
2014-12-08,1,0.002817869028233238,0.003222271321081304,-0.004923995410546693,0.0056852250315001275,0.9931079426425039
2014-12-10,1,0.002395497287995675,0.0027350913910438282,-0.00605932382471624,0.007129317439064434,0.9923513781401505
2014-12-12,1,0.0018094302327714364,0.002015796995471269,-0.0036244589570697257,0.0056852250315001275,0.9931010196299495
2014-12-16,1,0.001466601577928998,0.0016055987903250512,-0.00276297582377454,0.0056852250315001275,0.993289763975791
2014-12-18,1,0.0020569013877026086,0.0022405296206916385,-0.00276297582377454,0.004564342040643697,0.9936969068503355
2014-12-22,1,0.0016454513159005323,0.0017040528365716936,-0.00276297582377454,0.004983677658851009,0.9934468255209826
2014-12-24,1,0.001615390875296337,0.0017237870912905056,-0.00757009288043901,0.003155876224003138,0.9902142469048193
2014-12-29,1,0.0016224033673172822,0.0017493219517942078,-0.009146670493591486,0.0038090609664268235,0.9899143828955241
2014-12-31,1,0.0011406718172359835,0.0012096754683121051,-0.009146670493591486,0.005772139145023106,0.9897223976712255
2015-01-05,1,0.0009714165264910342,0.0010163092577276421,-0.009146670493591486,0.007164639714085085,0.9891711623386265
2015-01-07,1,0.0008736404773040042,0.0009092265692019667,-0.004354130068649895,0.0059935469729861255,0.9897802541070133
2015-01-09,1,0.001191525888309817,0.0012735975414495304,-0.007912533285622428,0.0034186967193938367,0.9903184284497886
2015-01-13,1,0.001114867366376579,0.0011823278026965001,-0.007912533285622428,0.0059935469729861255,0.9901221800395629
2015-01-15,1,0.0010853310372533967,0.00114822534906508,-0.007912533285622428,0.007884449843237334,0.989540845714467
2015-01-20,1,0.0012038203579904068,0.001268537835783342,-0.007912533285622428,0.007538988983508258,0.9899914604374662
2015-01-22,1,0.001445020215230772,0.0015369308399223523,-0.008940039038065749,0.005896922234830831,0.9899667674027443
2015-01-26,-1,-0.001021763806502129,-0.0008103238271983222,-0.005957210110824885,0.005896922234830831,0.9931689848687872
2015-01-28,-1,-0.0012340053447833475,-0.0009891820349357903,-0.0034618279847249906,0.004243801220780807,0.9938959744228087
2015-01-30,-1,-0.0018775849812355794,-0.001547620959788391,-0.002409393931131758,0.0046081878240091054,0.9946487099551641
2015-02-03,-1,-0.0013267431507497395,-0.0010571691605202735,-0.0034618279847249906,0.002999343088494563,0.9950601162645176
2015-02-05,-1,-0.001579539680666115,-0.0012675032360431162,-0.005957210110824885,0.002999343088494563,0.9944962120125845
2015-02-09,-1,-0.0020272882129580092,-0.0016721181650059054,-0.00305741086252094,0.002999343088494563,0.9939682013371598
2015-02-11,-1,-0.0018007186295379961,-0.0014684907851865276,-0.005533828615172438,0.002999343088494563,0.9936359360346984
2015-02-13,-1,-0.001225955498482637,-0.0009721081196427234,-0.005533828615172438,0.0025020429500295176,0.9940438466659803
2015-02-18,-1,-0.0008840586535787974,-0.0006867466587514374,-0.006765907014106924,0.00208195130216723,0.9930292717777617
2015-02-20,-1,-0.001324287605895754,-0.0010600183467154552,-0.005533828615172438,0.0029166388254400063,0.992759361210328
2015-02-24,-1,-0.0016154956499629962,-0.0013101638532809726,-0.004851273875715357,0.005038386318890706,0.9926249511955115
2015-02-26,-1,-0.0019872739365688523,-0.0016236391459569493,-0.00984109466041511,0.005038386318890706,0.9918753449749647
2015-03-02,-1,-0.001912639962278069,-0.0015559057438850417,-0.00984109466041511,0.005038386318890706,0.9914910843989656
2015-03-04,-1,-0.002109288987742354,-0.0017625826841002963,-0.006834574066574417,0.005038386318890706,0.9920275537945201
2015-03-06,-1,-0.002723326058511844,-0.002293021351153681,-0.005864958322835109,0.005038386318890706,0.9923115433565131
2015-03-10,-1,-0.0036532365930331684,-0.003087258670413773,-0.004951516868772694,0.005038386318890706,0.9929452386178782
2015-03-12,-1,-0.0036453154993658183,-0.0030607544277619384,-0.004535077879655211,0.0042588721565317116,0.9937505612274725
2015-03-16,-1,-0.002893396615337256,-0.0024393652191508058,-0.004535077879655211,0.0042588721565317116,0.9938713969371582
2015-03-18,-1,-0.0019300532115600092,-0.0016494779643507825,-0.003920904072088409,0.0024302765263052566,0.995079340539215
2015-03-20,-1,-0.0014728376367733735,-0.00125127617591599,-0.004535077879655211,0.0024302765263052566,0.995392990899732
2015-03-24,-1,-0.0011934676207846725,-0.0010176300817273279,-0.004951516868772694,0.0024302765263052566,0.9926432486965701
2015-03-26,-1,-0.0017149343093380606,-0.0014770288309130751,-0.002752890793656561,0.0024302765263052566,0.9933360876915278
2015-03-30,-1,-0.0010215584597213626,-0.0008917316913163674,-0.002752890793656561,0.0023215514126033662,0.9940305232098432
2015-04-01,-1,-0.0010286510127793334,-0.0009088701750457133,-0.003960176158793858,0.0023215514126033662,0.9934386000255695
2015-04-06,-1,-0.0007495294253868076,-0.0006732262109354251,-0.00484053171157873,0.0023215514126033662,0.9929467942904464
2015-04-08,-1,-0.0007600715483555016,-0.0006851224176051076,-0.00614211137403968,0.003808563845782871,0.9925951645788739
2015-04-10,-1,-0.0006973190718523302,-0.0006379394131359709,-0.00614211137403968,0.004511495078543494,0.9922790375111729
2015-04-14,-1,-0.0005191681516557477,-0.0004771507994223898,-0.007441354370700712,0.003808563845782871,0.9923165752702173
2015-04-16,-1,-0.00045250029630750495,-0.0004212013423033413,-0.007441354370700712,0.0055544507876500344,0.9914779361493571
2015-04-20,-1,-0.0005203114524797597,-0.0004804032775026464,-0.005836525425887253,0.004634199868017495,0.9919393623249205
2015-04-22,1,0.00044353935148880845,0.0005286704030162811,-0.0038188622977062972,0.003808563845782871,0.9947543929173024
2015-04-24,1,0.0006922409734618171,0.0008421021521082632,-0.005240706105126937,0.003808563845782871,0.9944903898894788
2015-04-28,1,0.0007406639258959769,0.0008942701479211798,-0.005836525425887253,0.003917154860213758,0.9939380199144302
2015-04-30,1,0.00017161632221764883,0.00023288910292774924,-0.005412137530717433,0.003917154860213758,0.9942846253501294
2015-05-04,1,0.000290218826430859,0.0003624322158099801,-0.005862604737038824,0.0036329482189332326,0.9946686779488558
2015-05-06,1,0.0001000896526063271,0.00013714336994960483,-0.005862604737038824,0.002890527128687831,0.9946277596321192
2015-05-08,1,0.00024003657476907736,0.0002908128279527579,-0.007138355791012795,0.0022759986317905986,0.9944972548554688
2015-05-12,1,2.717876258764588e-05,4.688032635821159e-05,-0.0058651921055033335,0.003523337463568106,0.9942257607389522
2015-05-14,1,0.0007239544791964145,0.0008715264199155143,-0.00639549352949563,0.0026748617265299236,0.9945367141784569
2015-05-18,1,0.000925369347193561,0.0011119658376372611,-0.007341732594286712,0.0029075610190373554,0.9935598248353643
2015-05-20,1,0.0010873168710715847,0.0013112569781069216,-0.007341732594286712,0.0035861185760187745,0.9929302953529474
2015-05-22,1,0.0009233980307789888,0.001122889798974419,-0.007341732594286712,0.0035861185760187745,0.993169576815697
2015-05-27,1,0.0005865701148071628,0.0007209513377164325,-0.00639549352949563,0.0029075610190373554,0.9935761498016065
2015-05-29,1,0.00026563048939725004,0.0003513503277009502,-0.006386754625552458,0.0035376866317412305,0.9937816007448913
2015-06-02,1,0.00016516113211704895,0.00023483354197375265,-0.006386754625552458,0.0035376866317412305,0.9933634090768713
2015-06-04,1,4.536607388341417e-05,0.00011625489240894043,-0.005734728735836402,0.00449803982545305,0.9930871661069199
2015-06-08,-1,-0.00015434841520014248,-0.00010570684672884324,-0.004078036439465788,0.008146410053984718,0.9926780314400526
2015-06-10,1,0.00024126369400332863,0.00034604416269086463,-0.005734728735836402,0.00449803982545305,0.9929688668336165
2015-06-12,1,0.00034640985779524916,0.00048084863430671894,-0.004078036439465788,0.009635267710494933,0.9924756046324384
2015-06-16,1,0.0006240147618036489,0.0008212835597232585,-0.0031628858178294446,0.007678017029097489,0.9934336042014746
2015-06-18,1,0.00021602644937973887,0.00025453426369396114,-0.0031628858178294446,0.004586684196416216,0.9938538387410494
2015-06-22,1,0.00014004204786593018,0.0001656104064340384,-0.0032661442847920783,0.0054692202690405835,0.9936540295356551
2015-06-24,-1,-0.00024342267219875247,-0.00020183351102656655,-0.0032661442847920783,0.0054692202690405835,0.9935599437424834
2015-06-26,0,-1.288354798370143e-05,1.7480988381460933e-07,-0.0028428757548244372,0.0054692202690405835,0.9937735312022702
2015-06-30,-1,-0.0004647793684540614,-0.00042264698310810045,-0.0026289110320304645,0.007667276476910917,0.9939955868807747
2015-07-02,-1,-0.0003234872061530431,-0.00027753215482979453,-0.000295860677590896,0.007667276476910917,0.994397811279353
2015-07-07,1,0.00033396251943415534,0.0003832040990928141,-3.565249909975182e-05,0.006562896721640298,0.9953037555126502
2015-07-09,1,0.0003039425997770921,0.0003716203849875421,0.0015931817986437427,0.007667276476910917,0.9947268478642113
2015-07-13,1,0.0008594897979577795,0.0010101134950517448,0.0007159904481094361,0.0051688373602074575,0.9959403842887471
2015-07-15,1,0.0008331291101433826,0.0009702167366629737,-0.002312609850793684,0.0051688373602074575,0.9953774358184397
2015-07-17,1,0.0009991416313057792,0.0011502388690073431,-0.002312609850793684,0.00468822286453157,0.9957507452844916
2015-07-21,1,0.000941538814100491,0.0010780734227302852,-0.0017820684544360204,0.0037808809201235923,0.9960125796275455
2015-07-23,1,0.0008063193475355351,0.0009307550613919874,-0.0017820684544360204,0.0037808809201235923,0.9955046948077793
2015-07-27,1,0.0008856636024561416,0.0009917194734778189,-0.006349771049518156,0.00333442886315642,0.9922754871160884
2015-07-29,1,0.0006672198641739105,0.0007277383251487377,-0.008180047840012129,0.00333442886315642,0.9899368732863663
2015-07-31,1,0.0006708531999847456,0.0007055160124408467,-0.008180047840012129,0.002830197405505019,0.989537971918499
2015-08-04,1,0.0009046586155089173,0.000978192725320118,-0.009226088621167219,0.0012500400584897502,0.9882985584305997
2015-08-06,1,0.001025982097880951,0.0011224747635681814,-0.009226088621167219,0.0020415229959053704,0.9886845150743774
2015-08-10,1,0.0009915162908862088,0.0010911151209973115,-0.01359813027872577,0.004287998079964869,0.9866163070177297
2015-08-12,1,0.0009425380527200971,0.0010480851954846578,-0.0199491120289235,0.004287998079964869,0.9860867443939557
2015-08-14,1,0.0009832058319784237,0.0010928894176906235,-0.0199491120289235,0.004648121741045715,0.9858765263815678
2015-08-18,1,0.0006624704671014836,0.0007037504999908566,-0.0199491120289235,0.009733055139417255,0.9845561348961133
2015-08-20,1,0.0004217413889448949,0.00044484590725976886,-0.0199491120289235,0.009733055139417255,0.9852152577979676
2015-08-24,-1,-0.0012563590096913125,-0.0010715903077843274,-0.006894559801771014,0.010047232394829896,0.9877090213543348
2015-08-26,-1,-0.001186581415143253,-0.0010166840432177908,-0.005205864849757941,0.008216172136906254,0.9901794090464692
2015-08-28,-1,-0.0010070945597247475,-0.0008549836441426996,-0.006894559801771014,0.007507065757203446,0.9900547884236646
2015-09-01,-1,-0.0017725825456178965,-0.0015270028701182146,-0.0021650486444367593,0.008574525283713953,0.9900644549232592
2015-09-03,-1,-0.001266175406177147,-0.0010890325748324197,-0.0026340384346436067,0.008574525283713953,0.9907827642786962
2015-09-08,-1,-0.0011843358839104044,-0.0010169781458492621,-0.0026340384346436067,0.008574525283713953,0.9914164234437264
2015-09-10,-1,-0.0016620788764277591,-0.0014372369770552637,-0.000579174483087656,0.009546818114409652,0.9910424389724203
2015-09-14,-1,-0.0012239647892709827,-0.0011001629871099723,0.00016231211978602606,0.009546818114409652,0.9906838099230754
2015-09-16,-1,-0.00032022526093131604,-0.00030077644307527113,-0.0028023017372542595,0.008261763184433734,0.9925426852374055
2015-09-18,-1,-0.00011667248715954455,-0.0001069685435559038,-0.0028023017372542595,0.009005966875656593,0.9917906894110727
2015-09-22,-1,-0.00040666250001405627,-0.0003559756879872225,-0.0021565108191515863,0.009005966875656593,0.9923752788382985
2015-09-24,-1,-0.0002004500941222875,-0.0001829886118009725,-0.0021565108191515863,0.010443559867682037,0.9910923566858366
2015-09-28,-1,-0.0006189524703273171,-0.0005463392040006378,0.00012903734361119302,0.010443559867682037,0.991786757506303
2015-09-30,1,6.0532295368190006e-05,7.99506381582785e-05,-0.0020867713388615116,0.008604852993586256,0.9929031838159114
2015-10-02,-1,-3.085895212210088e-05,-2.6132931027073396e-05,-0.0020867713388615116,0.008604852993586256,0.9919798127171224
2015-10-06,1,0.0006988041179346279,0.0008144323507285329,-0.0020867713388615116,0.008604852993586256,0.9928296017196445
2015-10-08,1,0.001242060610339251,0.0014347391679118229,-0.0025930832963840357,0.007690063585554,0.9932908049884276
2015-10-12,1,0.0015755084142230484,0.0018119608751248962,-0.003559005217201725,0.007448759927979257,0.9928805443358494
2015-10-14,1,0.0013109986973644956,0.0015007206125654596,-0.0029442597026515583,0.007553464792700436,0.9929750414575965
2015-10-16,1,0.0016991543530631068,0.0019262276256361887,-0.0044506311263024624,0.00463046519199405,0.9928442908160827
2015-10-20,1,0.0014865971217622967,0.0016631701086360013,-0.0044506311263024624,0.007448759927979257,0.9920036279573219
2015-10-22,1,0.002127998667612212,0.00237948072459927,-0.0044506311263024624,0.006347366449938111,0.9923822036445576
2015-10-26,1,0.0019858705119849803,0.002192144730960607,-0.005958697809641953,0.007553464792700436,0.9913960954714177
2015-10-28,1,0.0015859481962737351,0.0017163069518694547,-0.006380087731791176,0.007553464792700436,0.9911854008414671
2015-10-30,1,0.0014471269011057542,0.0015787281675132137,-0.006380087731791176,0.006371491278057219,0.9915682381660791
2015-11-03,1,0.0015556345952319325,0.0016934685973048025,-0.00996129214842486,0.006371491278057219,0.9911547349703296
2015-11-05,1,0.0012415027575002307,0.0013365672238458011,-0.010940007679837617,0.008547277950234392,0.9899054537575045
2015-11-09,1,0.001063134833546276,0.001163734848248071,-0.006770238312728858,0.008547277950234392,0.990250075764219
2015-11-11,1,0.0012384142848417246,0.0013563897866692106,-0.01070423027591476,0.007836127294266481,0.9900616116470102
2015-11-13,1,0.0006545177914621554,0.0006844091587742603,-0.009675604140950589,0.012175594562160741,0.989169007498016
2015-11-17,1,0.0009349917782413087,0.000992232036859993,-0.009675604140950589,0.012568530881719943,0.9890177521518867
2015-11-19,1,0.0011197658072309182,0.001169616418867668,-0.01070423027591476,0.011457007311345326,0.9888774531947624
2015-11-23,1,0.001195950896153616,0.001275700726863021,-0.009675604140950589,0.011678911010839005,0.9890105695320351
2015-11-25,1,0.0011466814278977473,0.0012473702550818986,-0.009675604140950589,0.011678911010839005,0.9892578953930752
2015-11-30,1,0.0006894145617793214,0.0007106752141946098,-0.005725841010389151,0.011678911010839005,0.9891075561128772
2015-12-02,1,0.0010109795074535483,0.0011017821345716606,-0.005725841010389151,0.011279702982796411,0.9895907757617292
2015-12-04,1,0.0013270455398531843,0.0014614871866615291,-0.004988489007261572,0.011279702982796411,0.9901760068460627
2015-12-08,1,0.0014440325574095487,0.001607830910663223,-0.007178826277804603,0.011279702982796411,0.9897455459790142
2015-12-10,1,0.0011309646056816627,0.0012527561270469897,-0.007178826277804603,0.011279702982796411,0.9895525676265794
2015-12-14,1,0.0014504239500832698,0.0016005977130757224,-0.005594342545132311,0.010772584434455489,0.9910225737407801
2015-12-16,1,0.0020629071378867677,0.0023010005680156567,-0.008043302705802209,0.010321990291070672,0.9907541622480638
2015-12-18,1,0.001613493152997152,0.0018045025832780042,-0.008043302705802209,0.010321990291070672,0.9908160223135132
2015-12-22,1,0.0022128055266670077,0.002498829416812116,-0.008043302705802209,0.010194034301262138,0.9907878308301397
2015-12-24,1,0.002149555552136637,0.0024367362418867547,-0.013272308489037219,0.010321990291070672,0.9886893330829712
2015-12-29,1,0.0026068797270059384,0.002959457706052956,-0.013272308489037219,0.011127201702922924,0.9883839252595028
2015-12-31,1,0.002213574261658647,0.002514165113426335,-0.008043302705802209,0.014002926951644666,0.9886495619216566
2016-01-05,1,0.002326906050026967,0.0026257905064785755,-0.009025700076567762,0.014002926951644666,0.9886993078579265
2016-01-07,1,0.001915512751221977,0.0021629599146505405,-0.008920036746064543,0.014002926951644666,0.9889077418684714
2016-01-11,1,0.0016521693210893615,0.0018612038465333912,-0.006081495449354153,0.014002926951644666,0.9891958804956555
2016-01-13,1,0.0013812823415552116,0.001528798302255379,-0.008920036746064543,0.014002926951644666,0.9877223026391766
2016-01-15,1,0.00046099388979463493,0.000535463012626239,-0.006697295794459349,0.01479094175915317,0.9880531392112041
2016-01-20,0,-8.033962890912499e-05,5.65651439322394e-05,-0.0058968319727645095,0.01479094175915317,0.9880252473051933
2016-01-22,1,0.0005829039672926107,0.0006361209919065848,-0.0058968319727645095,0.014597051475029765,0.9887496956606053
2016-01-26,-1,-0.0003942944868091002,-0.00018439690580752868,-0.005580442699625115,0.011357506807935213,0.990593789675548
2016-01-28,0,-9.129366540133667e-06,0.0001435265084690236,-0.0058968319727645095,0.009143680497205074,0.9905628485385642
2016-02-01,1,0.00048141608487902056,0.0005855562269064603,-0.00666349794878199,0.009087759533317025,0.9908588857724898
2016-02-03,1,0.00020482644036380675,0.00036491986012454023,-0.0058968319727645095,0.007577471398331402,0.9920504562069659
2016-02-05,-1,-0.00021885272463490965,-5.077343431926051e-06,-0.0058968319727645095,0.007577471398331402,0.9920300458924137
2016-02-09,1,0.00046801481362786023,0.0005650124738532795,-0.0058968319727645095,0.006986659467706493,0.9923061075622203
2016-02-11,-1,-0.0005095668419374744,-0.00030089079814972757,-0.0012292619838329523,0.007577471398331402,0.9932860834195866
2016-02-16,0,-0.00017651173307822406,9.7608274283339e-07,-0.0012292619838329523,0.007577471398331402,0.9936571451762285
2016-02-18,0,-7.064442461697854e-05,9.506719167496133e-05,-0.0006715051554859441,0.006986659467706493,0.994133668245573
2016-02-22,0,-0.00010138891385421051,8.833667070978497e-05,-0.0022671543640860664,0.006404088500957862,0.9944910568408496
2016-02-24,1,0.00025742376161270704,0.0003846268565991279,-0.003017318101149722,0.006059999241433239,0.9941107396308556
2016-02-26,0,-0.00011758459525686366,5.618022590411629e-05,-0.0029557536767647287,0.005769853847876931,0.9949654524312684
2016-03-01,1,0.00015238102192242507,0.00027164291125033945,-0.0022671543640860664,0.005632241599440979,0.9953029978208995
2016-03-03,1,0.0003382520294833143,0.0004117959602335028,-0.0029557536767647287,0.005769853847876931,0.9942852126792853
2016-03-07,1,0.00044109715668306756,0.0004902720181748536,-0.0022671543640860664,0.005632241599440979,0.9949504531538946
2016-03-09,1,0.0002935435965520463,0.00037221099159485277,-0.002351696365081889,0.005632241599440979,0.994788661624788
2016-03-11,1,0.0007724842395902944,0.0007766428981419729,-0.002351696365081889,0.005632241599440979,0.9948806180324636
2016-03-15,1,0.0009317675298553958,0.0009517647401655471,-0.00327094410413719,0.005632241599440979,0.9943035410602513
2016-03-17,1,0.0014412825386416225,0.001570762706593564,-0.00327094410413719,0.005397054966308103,0.994571289649463
2016-03-21,1,0.0012842031920425043,0.0013957856186217442,-0.002111560955150126,0.005397054966308103,0.994865847909998
2016-03-23,1,0.0009375032837253446,0.000993740811500666,-0.003536215128210459,0.005397054966308103,0.9934406039443328
2016-03-28,1,0.0008477253914006457,0.0008683263760691511,-0.006171042821006726,0.005397054966308103,0.9916590027386869
2016-03-30,1,0.001221549438279238,0.0013036351190809376,-0.009293963863312028,0.0040615291574088485,0.9904191690069998
2016-04-01,1,0.0010751715371638874,0.0011191470630890973,-0.008900199137347584,0.0035987226226968736,0.9908473793882472
2016-04-05,1,0.0007175239328879724,0.000746478255691131,-0.008900199137347584,0.004758756643204534,0.9905846326522505
2016-04-07,1,0.0008733916359088092,0.0008735873719781305,-0.008900199137347584,0.004758756643204534,0.990240021729727
2016-04-11,1,0.0005512662391465084,0.0006178452602273923,-0.008900199137347584,0.004321204014924046,0.9904221972455921
2016-04-13,1,0.00034074448129776003,0.00041189575880222105,-0.006039787912351911,0.004321204014924046,0.9910231110666704
2016-04-15,1,0.000743656682529325,0.0007474367157883004,-0.007096250800388695,0.005114518790050087,0.9904474773752683
2016-04-19,1,0.0007526733464169553,0.0007533536887844286,-0.008900199137347584,0.005114518790050087,0.9892590273223846
2016-04-21,-1,-0.0006684778966296302,-0.00048485323114703276,-0.00563272005459364,0.005860564056269092,0.9908967402527433
2016-04-25,-1,-0.002191051824706519,-0.0018115754769117323,-0.004800670760896511,0.005860564056269092,0.9924874923693039
2016-04-27,-1,-0.0023095953371123443,-0.0019196107860884846,-0.003435296853673671,0.005651560768976254,0.9934497496883735
2016-04-29,-1,-0.0022468409386178926,-0.0018819337859994443,-0.0025535568965404966,0.005793777501809489,0.9933783154841859
2016-05-03,-1,-0.00203664200442429,-0.0016972253807465136,-0.003435296853673671,0.005793777501809489,0.9931054779645198
2016-05-05,-1,-0.001994933018636973,-0.0016426381201778526,-0.0025535568965404966,0.005793777501809489,0.993048051636278
2016-05-09,-1,-0.0015338065599119883,-0.0012611816721081238,-0.0025535568965404966,0.005793777501809489,0.9934319205022143
2016-05-11,-1,-0.0009011238213598599,-0.0007414646586873909,-0.0025862026645340082,0.005793777501809489,0.9936813362885846
2016-05-13,-1,-0.0012114792382370795,-0.0009853910183006882,-0.0025862026645340082,0.005439098333454928,0.9940178870980267
2016-05-17,-1,-0.0015180293339930196,-0.0012887567392637841,-0.0024783618398386683,0.005793777501809489,0.9942954078774418
2016-05-19,-1,-0.0013561786792986425,-0.0011516025724305852,-0.0029022699897361766,0.006576347236016611,0.9941079818106685
2016-05-23,-1,-0.0011497232158595653,-0.0010018300819953129,-0.0005814211535322939,0.006576347236016611,0.9940470097495875
2016-05-25,-1,-0.0011242213347344818,-0.000954119907052512,-0.0005814211535322939,0.0062588483091999625,0.994225530101344
2016-05-27,-1,-0.0005681862008854518,-0.00048378086268265053,-0.0029022699897361766,0.0062588483091999625,0.9938505112665557
2016-06-01,-1,-0.0010319518137790868,-0.0008662794450178691,-0.002586777643973609,0.007171238779585915,0.9930891802396077
2016-06-03,-1,-0.0007030824801180621,-0.0005610801590408409,-0.0029022699897361766,0.007171238779585915,0.9928906042037632
2016-06-07,-1,-0.0007501480998092564,-0.0005985116566550963,-0.00329219083909423,0.007171238779585915,0.9922355219465808
2016-06-09,-1,-0.0007103972679651819,-0.0005580390808253004,-0.003839902007249505,0.007946346717157977,0.9911999264236294
2016-06-13,-1,-0.0011650575126024867,-0.000934710087723307,-0.003839902007249505,0.007946346717157977,0.9909948513524776
2016-06-15,-1,-0.0002666554939005986,-0.0001771658756095713,-0.003839902007249505,0.007058316657198925,0.9916224324831835
2016-06-17,-1,-0.0005755295928142647,-0.0004185578922493183,-0.004564631808351465,0.006778034197714738,0.9917053073109258
2016-06-21,-1,-0.0002201571750618474,-0.00012289710998843217,-0.007995016202832345,0.006778034197714738,0.9914734904333686
2016-06-23,1,0.00045832582841430546,0.00047957247962804425,-0.007995016202832345,0.007355391812851349,0.9912602285537557
2016-06-27,-1,-0.00023759620975229194,-0.00019380039079655722,-0.007995016202832345,0.007355391812851349,0.9915347930697846
2016-06-29,1,0.0006322765243105656,0.0006762782848599689,-0.008912559738790625,0.0032329279382030235,0.9921460670674059
2016-07-01,1,0.0013807132678633192,0.0015481573760195819,-0.008912559738790625,0.0032329279382030235,0.9924850122998748
2016-07-06,1,0.0006580976519896045,0.0006619297254926351,-0.010064542974412744,0.0015080189300391304,0.9925820081831389
2016-07-08,1,0.0007364655756854258,0.0007798291597217032,-0.008280619146318172,0.0015080189300391304,0.9933719986828684
2016-07-12,1,0.0005413445451146243,0.0005742953925292247,-0.006153486626547424,0.002375107571214503,0.9938050392340331
2016-07-14,1,0.0010116599768450123,0.0011315939996528071,-0.008352667711479755,0.002015203918461457,0.9934378952242092
2016-07-18,1,0.0009100561777552368,0.0010310486377417352,-0.006721784999352317,0.0014274061804951303,0.9938509167890018
2016-07-20,1,0.0003694516005349487,0.00040152666904549964,-0.006721784999352317,0.0014274061804951303,0.9939610655523698
2016-07-22,1,0.0006546993736603448,0.0007287350881858717,-0.006721784999352317,0.001182402113359605,0.9941094012218414
2016-07-26,1,6.396422303249225e-07,1.2305990700556773e-05,-0.005345176719559389,0.002329830361156622,0.9944782754267534
2016-07-28,-1,-0.0006554689360669369,-0.0005668536653929682,-0.004771733704609378,0.002329830361156622,0.9951682171638774
2016-08-01,-1,-0.0003626550229837088,-0.0003142857988894484,-0.0027135230828919726,0.002329830361156622,0.995637519242638
2016-08-03,-1,-0.0007317954628063953,-0.0006580493762134445,-0.0025063540498099566,0.002329830361156622,0.9961580408856442
2016-08-05,-1,-0.0002678311054991128,-0.00026417907284222636,-0.0014009403341790792,0.002329830361156622,0.9965565241570387
2016-08-09,1,0.0001340521535020641,0.00021465919181055902,-0.0025063540498099566,0.0023539633863727248,0.9958144294805021
2016-08-11,-1,-0.00021699980304128066,-0.00019342843728369503,-0.004635442174887044,0.0017271557628280665,0.9948139724871663
2016-08-15,-1,-0.0003680937752604023,-0.00035482655196158265,-0.006244408036979999,0.003497376358237844,0.9941622807314187
2016-08-17,-1,-0.0007197032990533073,-0.0006709086202501222,-0.004635442174887044,0.003976489411604867,0.9943320302844604
2016-08-19,-1,-0.0006304153218529739,-0.000615231389443149,-0.00460755913242862,0.003976489411604867,0.9941442572676568
2016-08-23,1,4.3898346101812254e-05,0.0001244084296909037,-0.00460755913242862,0.003976489411604867,0.9937743248300256
2016-08-25,1,4.023569957216128e-05,0.00012416102058579839,-0.00460755913242862,0.004870062169099007,0.9927826635098971
2016-08-29,1,0.0002510462045404264,0.0003723597248545268,-0.006160758909604727,0.004870062169099007,0.9925029057730494
2016-08-31,1,0.00022071473111945307,0.00035026090476769964,-0.009311781979614905,0.005452614555753051,0.9919873542156213
2016-09-02,1,0.0002770927322814044,0.0003904701086968042,-0.009710597696754529,0.005658011791367217,0.9913440842057161
2016-09-07,0,-2.6136797922330133e-05,6.197585808257378e-05,-0.009710597696754529,0.005658011791367217,0.9914842330046563
2016-09-09,-1,-0.0010240756191328844,-0.0009980089294020253,-0.006265756563698916,0.005658011791367217,0.9927318124886845
2016-09-13,-1,-0.0016888298919285252,-0.0015099802529952985,-0.006454931466764702,0.005240940625204117,0.9930795164965419
2016-09-15,-1,-0.0028717144876991654,-0.0024811347946421514,-0.006454931466764702,0.005240940625204117,0.9932849763673681
2016-09-19,-1,-0.0030182821213881597,-0.0026043793047965764,-0.007505108276279482,0.005240940625204117,0.9931472073587313
2016-09-21,-1,-0.0022180198671775684,-0.001890563044376151,-0.007505108276279482,0.002191727496198323,0.9944202227678166
2016-09-23,-1,-0.0015014675746560769,-0.0012711100454133417,-0.008811262815247441,0.0020427113062868344,0.994763877424689
2016-09-27,-1,-0.0014828034117050032,-0.0012754666542246138,-0.008811262815247441,0.0020427113062868344,0.9930081802836268
2016-09-29,-1,-0.00147525516734089,-0.0012796349361612297,-0.007345379638288887,0.0014499501215516158,0.9936337835231196
2016-10-03,-1,-0.0014570922912786612,-0.0012739329677109996,-0.006454931466764702,0.0014499501215516158,0.9941399836163763
2016-10-05,-1,-0.0019716626010311046,-0.001734928422753882,-0.004536317161359918,0.0014499501215516158,0.9946560818041683
2016-10-07,-1,-0.0022319835524740486,-0.0019299144411432222,-0.006454931466764702,0.0010124099469690357,0.9944145516322047
2016-10-11,-1,-0.0025460540082751096,-0.002214334101413055,-0.0036745614572073052,0.0020427113062868344,0.9932024590508366
2016-10-13,-1,-0.002479416560823222,-0.0021470994273212027,-0.0051233897827497495,0.0014499501215516158,0.9922286263670757
2016-10-17,-1,-0.002487845140647118,-0.002172007198647347,-0.0036745614572073052,0.0020557173542683728,0.9921024847311276
2016-10-19,-1,-0.002373591954625865,-0.002088409077091998,-0.004124127903289079,0.004183786758982794,0.9916225439192344
2016-10-21,-1,-0.002541724576715533,-0.00223322685659232,-0.004124127903289079,0.006478992122570202,0.991428624021483
2016-10-25,-1,-0.003743866880034523,-0.00332459980704188,-0.0036745614572073052,0.0065457062592294765,0.9923996066108747
2016-10-27,-1,-0.0035550142607991097,-0.0031633764714749284,-0.0036745614572073052,0.006700394294497649,0.9919516411950927
2016-10-31,-1,-0.0032095410789766557,-0.0028685760330365425,-0.004124127903289079,0.006806797651096255,0.9917762479524351
2016-11-02,-1,-0.003409968645101062,-0.003044681450605528,-0.0061984987183594745,0.006806797651096255,0.9910467056570776
2016-11-04,-1,-0.003251735394270782,-0.002930535306950295,-0.004920407922391151,0.006806797651096255,0.9914215731615137
2016-11-08,-1,-0.002120566095872069,-0.0019401722273527985,-0.004920407922391151,0.006678328325516419,0.9927223512676094
2016-11-10,-1,-0.0028287153023390356,-0.0025777977449493736,-0.004920407922391151,0.006710459479504018,0.9929542261794985
2016-11-14,-1,-0.0022871573764836786,-0.002117115140019724,-0.004920407922391151,0.006678328325516419,0.9931633254100376
2016-11-16,-1,-0.0026237413012190646,-0.0023827202321643234,-0.005870898054162719,0.006678328325516419,0.9930297038663283
2016-11-18,-1,-0.0018860642070036102,-0.0017855131558375463,-0.005870898054162719,0.00671771467556511,0.9929719388333659
2016-11-22,-1,-0.0009569200092843676,-0.0009087296818822146,-0.005870898054162719,0.00671771467556511,0.9936543228030609
2016-11-25,-1,-0.00047463961286203874,-0.00035945803340216813,-0.005870898054162719,0.00533125653595147,0.9941291754204657
2016-11-29,-1,-0.0002541152793198373,-0.00011468337401657203,-0.006656677746881298,0.003902705363757811,0.9944548883558906
2016-12-01,-1,-0.0008934699860886881,-0.0008500264013447582,-0.004737141900367258,0.00533125653595147,0.9945215709055722
2016-12-05,-1,-0.0007062450942056027,-0.0006170928714812027,-0.004520403031946609,0.0057311248253109105,0.994311337100156
2016-12-07,-1,-0.00045084712609682476,-0.00033291096418692936,-0.004520403031946609,0.005760445990353232,0.994178837187962
2016-12-09,-1,-0.0003912905884797156,-0.00028120693778899245,-0.004520403031946609,0.0050121669742141765,0.9942808380324113
2016-12-13,1,4.838410396703252e-05,0.00023846342050839878,-0.004520403031946609,0.004244667605471138,0.9946870687285899
2016-12-15,0,-9.193972343113875e-05,5.510449843518803e-05,-0.0028111912978737484,0.004244667605471138,0.9945998098399181
2016-12-19,-1,-0.0003815933042528169,-0.0002994739307486191,-0.0028111912978737484,0.003679157540742172,0.9950507678586016
2016-12-21,-1,-0.0002465454990483702,-0.00013508722552126615,-0.00191470562033386,0.004244667605471138,0.99490194065636
2016-12-23,-1,-0.0003118077467611386,-0.00023309180347975942,-0.0002828659260471214,0.005693861519629697,0.9929711554123289
2016-12-28,-1,-0.0003127223505424262,-0.0002228398564765242,-0.0002828659260471214,0.005693861519629697,0.99298064528303
2016-12-30,-1,-0.00013698610386203732,-1.1340489974481327e-05,-0.0002828659260471214,0.0047115020487043064,0.99352354298416
2017-01-04,1,0.00011902554715380591,0.00026676092001033316,-0.001353577627904095,0.003834769021819895,0.9938973242148034
2017-01-06,1,0.0005328145794981435,0.0007391820027563299,-0.002448900446516359,0.0032180217578852994,0.9943721543577421
2017-01-10,0,-7.231270086344562e-05,3.7743321714643716e-05,8.008081018422044e-05,0.004059493878793296,0.9943445325703593
2017-01-12,0,-4.946723916823397e-05,5.661899237553822e-05,-0.00042971860768346436,0.004680386839467643,0.994127779066398
2017-01-17,1,0.0006726868726752712,0.0009036907003731278,-0.0013600602378223334,0.004059493878793296,0.9947604649088079
2017-01-19,1,0.0006955195882627079,0.0009292205549007189,-0.0009761243980570707,0.005600515891919704,0.9937173411944502
2017-01-23,1,0.0011038921768495914,0.0014011474091674102,-0.0009761243980570707,0.010597953959921849,0.9912481518678864
2017-01-25,1,0.002388070147402152,0.0028507365486531563,-0.0013600602378223334,0.006460730114329934,0.9929532456964882
2017-01-27,1,0.0022831160048546544,0.0027451423649537763,-0.002657194023001613,0.006460730114329934,0.9927454934930952
2017-01-31,1,0.0021687800022751145,0.002593720329313501,-0.0013600602378223334,0.006460730114329934,0.9928328305953171
2017-02-02,1,0.0016923923981227486,0.0019927789655291204,-0.0027598228895246695,0.009587482806571153,0.9922564803461498
2017-02-06,1,0.0015819350375563955,0.0018595436028625146,-0.0027042523671869964,0.009587482806571153,0.9922261918156976
2017-02-08,1,0.0019827566916479885,0.0023134399834843613,-0.0038396829615674416,0.006329825324040701,0.9921649388572195
2017-02-10,1,0.0020843020919273205,0.002423939056257902,-0.0038396829615674416,0.009032778835044877,0.9919279994686692
2017-02-14,1,0.002258358487020428,0.0026606576302234722,-0.0027042523671869964,0.009825709660314255,0.991822552615816
2017-02-16,1,0.0033404588120728093,0.003910452438640834,-0.003991117335035135,0.006127078933712292,0.9917977799211656
2017-02-21,1,0.00499739020021712,0.005770564226963392,-0.003991117335035135,0.0029405646192180897,0.993215340823133
2017-02-23,1,0.004867527075162412,0.005615659681165947,-0.005367205721022947,0.0029405646192180897,0.99317729752046
2017-02-27,1,0.004440009132609562,0.005124210191100834,-0.003701101047679133,0.0029405646192180897,0.9938592697196486
2017-03-01,1,0.004193931717753134,0.004810954114065692,-0.003701101047679133,0.0027388910899783033,0.9938711653968476
2017-03-03,1,0.004224905711392896,0.004847919398708941,-0.003701101047679133,0.001752749107006346,0.9937958736834837
2017-03-07,1,0.00385961828425983,0.004407145509438013,-0.003701101047679133,0.0027388910899783033,0.9943394827486042
2017-03-09,1,0.0036915160943389123,0.004217403509817313,-0.004039636768142591,0.0017715752649891544,0.9942889739600868
2017-03-13,1,0.0036953116909093325,0.004203924859181725,-0.004039636768142591,0.00195733460941827,0.994643633629032
2017-03-15,1,0.003811078206254613,0.0043238067363152305,-0.004039636768142591,0.0029824526864033374,0.9950871829109841
2017-03-17,1,0.0032507763306406,0.0036756767935096704,-0.0034062527030824684,0.003558292460596341,0.9960739167118449
2017-03-21,1,0.0024958827202929204,0.002724301968963215,-0.004039636768142591,0.0036700142338069452,0.9960722552662183
2017-03-23,1,0.002257427933842684,0.002447566903537301,-0.004389912166933767,0.0036700142338069452,0.9951622230296077
2017-03-27,1,0.0021231412328976164,0.0022954977769192924,-0.004069616315540383,0.004159831045849908,0.9948041734475932
2017-03-29,1,0.0018694167213809305,0.0019880249919629446,-0.0045130955044038355,0.004159831045849908,0.993773859624443
2017-03-31,1,0.0013255995121372966,0.0013441163850888825,-0.004069616315540383,0.004159831045849908,0.9939762127642563
2017-04-04,1,0.0019218914829020257,0.0020608359747910374,-0.004704076742893564,0.0036700142338069452,0.9929890480904077
2017-04-06,1,0.0009068936010171411,0.0009646958728441504,-0.0037672234680444765,0.004159831045849908,0.9930857213761962
2017-04-10,1,0.0011491620382610482,0.0011686082830131626,-0.0037672234680444765,0.0036700142338069452,0.9929953000768845
2017-04-12,1,0.0013460155962475662,0.0013488947893629624,-0.006045715995798483,0.0035514064370089347,0.9924987551428865
2017-04-17,1,0.0011705598415414288,0.001198289287730785,-0.006045715995798483,0.003186629979427748,0.9928177842128978
2017-04-19,1,0.001208326593936219,0.0012143569710308549,-0.005411598316489837,0.003186629979427748,0.9928300698387654
2017-04-21,1,0.00033579805385700664,0.0004274223743448768,-0.0027075245763226825,0.0034861300024847733,0.9937743181651864
2017-04-25,1,0.0011621090617610955,0.0011761496482000213,-0.0027853112088474918,0.0009576017111883752,0.9942005861092106
2017-04-27,-1,-0.00031068026064901206,-0.00010666335072215651,-0.0021255402109003015,0.003900373894615878,0.9949100639121818
2017-05-01,-1,-0.0006845047148512085,-0.00042598651206911416,-0.002694872765640831,0.003900373894615878,0.9948380918395299
2017-05-03,-1,-0.001526609111003991,-0.0011765350534262387,-0.0021255402109003015,0.00465167051581215,0.9952906821419266
2017-05-05,-1,-0.0010553383053890503,-0.0007609680778611304,-0.0021255402109003015,0.00442855472366008,0.9958433226983897
2017-05-09,-1,-0.0011619984942539867,-0.0008634191624828025,-0.002694872765640831,0.00442855472366008,0.9955169857532559
2017-05-11,-1,-0.0013161468982644262,-0.0009969847881049721,-0.002694872765640831,0.00442855472366008,0.9951345629034104
2017-05-15,-1,-0.001569633797127695,-0.0012099743093990068,-0.002694872765640831,0.004452155642098947,0.9947868869735206
2017-05-17,-1,-0.0017645709471205784,-0.0013743994388018689,-0.001258350107474368,0.005155956357790989,0.994436265533478
2017-05-19,-1,-0.002065865712202474,-0.00164107314375035,-0.001258350107474368,0.005690309905655803,0.9937697788599456
2017-05-23,-1,-0.0024545785730279122,-0.0019691620263265364,-0.0007511429699200943,0.005690309905655803,0.9931849956366599
2017-05-25,-1,-0.001835646684976222,-0.0014160463543831498,-0.0014975196527763576,0.004452155642098947,0.9942798290823559
2017-05-30,-1,-0.001901939369573457,-0.0014874847039655498,-0.001620867016263492,0.005155956357790989,0.9932744821908362
2017-06-01,-1,-0.0014849277742932949,-0.0011358128332028378,-0.00494801823697032,0.004452155642098947,0.9930210151737432
2017-06-05,-1,-0.001811304958669664,-0.0013863964312040822,-0.005401009373206828,0.00419830425441181,0.9931185798395842
2017-06-07,-1,-0.0021358375975800556,-0.0016694954993059289,-0.006093505561844779,0.00419830425441181,0.9924330194625739
2017-06-09,-1,-0.0023944556885005268,-0.001918097349830613,-0.0048138970316487,0.003632505140434796,0.9929783288875711
2017-06-13,-1,-0.002417177219049979,-0.0019283665883858877,-0.008635726581959383,0.0033554694807566886,0.9927650755431442
2017-06-15,-1,-0.0018694581684180838,-0.001461648588297154,-0.008635726581959383,0.00217404751000493,0.9929875275429938
2017-06-19,-1,-0.0004442011530504644,-0.0002730913883317741,-0.008635726581959383,0.0016898442393535713,0.9940565835147613
2017-06-21,-1,-0.001042375264408917,-0.0007818294808184849,-0.00701722857453618,0.0016898442393535713,0.9943158458038761
2017-06-23,-1,-0.0009980660504030291,-0.0007398765088485436,-0.008979152531840848,0.0016898442393535713,0.9933690646782202
2017-06-27,-1,-0.0013333937239537875,-0.0010351162606584336,-0.008979152531840848,0.0016898442393535713,0.9933043779403572
2017-06-29,-1,-0.0022536496604024696,-0.0018411952442195603,-0.008979152531840848,0.00217404751000493,0.9928096356893303
2017-07-03,-1,-0.0021783557215941402,-0.001799517243614013,-0.010019514711328077,0.003723349984094311,0.9922260783337729
2017-07-06,-1,-0.0027835570335055675,-0.0023419121505775836,-0.008979152531840848,0.003723349984094311,0.9928994704371212
2017-07-10,-1,-0.002749749698077426,-0.002300042707798381,-0.008979152531840848,0.0032084179794805304,0.9932176805615466
2017-07-12,-1,-0.0027259303377790804,-0.0023401452870623783,-0.005336697618592196,0.0032084179794805304,0.993500826585103
2017-07-14,-1,-0.0012751737547833934,-0.0011852403348176178,-0.004574609699475209,0.001743447229854736,0.9938293472061693
2017-07-18,-1,-0.0012006349591140997,-0.0011175243829049859,-0.004574609699475209,0.004777719424874655,0.9932010915445562
2017-07-20,-1,-0.0017271370167296052,-0.0015596772675961464,-0.0037738580953517007,0.004777719424874655,0.9932379750888705
2017-07-24,-1,-0.0014884394254855936,-0.0013607858459841692,-0.0037738580953517007,0.004777719424874655,0.9935829994407118
2017-07-26,-1,-0.0018395121432960208,-0.001680302475036732,-0.0031068553817140553,0.003086963590124253,0.9948108146265173
2017-07-28,-1,-0.0017116145242411737,-0.0015665522097744748,-0.0031068553817140553,0.0030727147736112894,0.9955920925551851
2017-08-01,-1,-0.002016740080890138,-0.0018293641405789356,-0.0027735139875906135,0.0030727147736112894,0.9958897694480062
