JNU-Tangyin/eata/results/Batch4_SP500/Batch4_SP500-ATVI.csv
Date,Action,Predicted_Q25,Predicted_Q75,Actual_Q25,Actual_Q75,RL_Reward
2010-12-14,0,0.0,0.0,-0.006575133282652371,0.005307577396531512,0.9931221289729377
2010-12-16,1,0.004454915703058646,0.005159619292720335,-0.007968307682846922,0.005307577396531512,0.9908075795191811
2010-12-20,1,0.004057395892030918,0.004671987145045358,-0.010442522955381856,0.0028601578794636285,0.9899810351068776
2010-12-22,1,0.005491186327526711,0.006330639172936842,-0.011320497647290501,0.0019079116902998012,0.9887222785883186
2010-12-27,1,0.005173392375120047,0.005938054989393387,-0.011320497647290501,0.0032740749087404987,0.9894072102400986
2010-12-29,1,0.003441353167529953,0.0037881771324886704,-0.011320497647290501,0.0019079116902998012,0.9896588795866736
2010-12-31,1,0.0030259277815822615,0.0033273272771153417,-0.011320497647290501,0.0032740749087404987,0.9902216344010721
2011-01-04,1,0.002666206032419242,0.0028573860413264878,-0.011320497647290501,0.003894375378043019,0.9892075748597507
2011-01-06,1,0.0016588380797240869,0.0017218697589855487,-0.010615523300969995,0.0056300505627674465,0.9900789191641773
2011-01-10,1,0.0007019755014622474,0.0007375213999546025,-0.006851815413242229,0.006711631218149996,0.9908877110312019
2011-01-12,1,0.0006769766637032654,0.0007069739548767502,-0.011568270776012251,0.006711631218149996,0.9863081505971316
2011-01-14,0,0.0,0.0,-0.00789252888834927,0.006868860444038661,0.9868468118847142
2011-01-19,0,0.0,0.0,-0.004957600703172116,0.006868860444038661,0.9877987174876127
2011-01-21,-1,-0.002706587748443137,-0.002461169039110208,-0.0024049485738142063,0.007178841146332433,0.9877153491461952
2011-01-25,-1,-0.001551013857108495,-0.0012627182040258083,-0.007733522509317029,0.006868860444038661,0.9881116603137239
2011-01-27,-1,-0.0018363505984546479,-0.0015597778688585028,-0.0024049485738142063,0.007178841146332433,0.9871053333628214
2011-01-31,-1,-0.001815501597910067,-0.001522512896857526,-0.005692004964887242,0.0069112231395397255,0.9867743240060812
2011-02-02,0,0.0,0.0,-0.005692004964887242,0.0069112231395397255,0.987687752846048
2011-02-04,0,0.0,0.0,-0.01127449567146489,0.005709214641611402,0.9864977013340454
2011-02-08,-1,-0.000843699367466137,-0.000429427515727168,-0.01127449567146489,0.005840783339376702,0.9862641310658606
2011-02-10,-1,-0.003711225121403248,-0.003164281814645689,-0.002270254653531189,0.005840783339376702,0.9892485770371345
2011-02-14,-1,-0.0032466162439921736,-0.0027625305025872748,-0.007209635915471522,0.004762771001654247,0.9900398682904926
2011-02-16,-1,-0.0038164881725966447,-0.003230403484010918,-0.011072457458411063,0.004762771001654247,0.9888099103071071
2011-02-18,-1,-0.002460380637803945,-0.002106444142324657,-0.011072457458411063,0.007313083968324791,0.9880280370530579
2011-02-23,-1,-0.004158275764490292,-0.0035402402243486127,-0.0050186898955315975,0.010282049948389573,0.9879470761319533
2011-02-25,0,0.0,0.0,-0.0050186898955315975,0.009750792008232551,0.9896352951445961
2011-03-01,0,0.0,0.0,-0.0032947739481920518,0.009750792008232551,0.9903392636203437
2011-03-03,1,0.00010472150207039698,0.00012083290259477697,-0.0032947739481920518,0.006342056701578655,0.9914530560429865
2011-03-07,-1,-0.0006242346538323331,-0.0005258997632599796,-0.0014133329033637065,0.005062484080576697,0.9930480662468782
2011-03-09,-1,-0.0024293732954620466,-0.0021033385534915817,-0.00305519187714825,0.005062484080576697,0.9916508150610086
2011-03-11,-1,-0.0032500062510031538,-0.0027819418252591505,-0.00305519187714825,0.006389155943189138,0.9903010744012936
2011-03-15,-1,-0.003039860023909136,-0.0025942086871959128,-0.0014133329033637065,0.006389155943189138,0.9905830015281896
2011-03-17,-1,-0.004190568620358083,-0.00363428072955483,-0.0009109100976845531,0.009478721913862608,0.9901296590591859
2011-03-21,0,0.0,0.0,-0.0009162618651768267,0.005858343733772871,0.9933518814943948
2011-03-23,0,0.0,0.0,-0.0009109100976845531,0.006248645194696608,0.9932396199976106
2011-03-25,0,0.0,0.0,-0.0015919627311801773,0.005621108230850269,0.9934396268148208
2011-03-29,0,0.0,0.0,-0.0015815292682486283,0.006505507422436504,0.9920512139433071
2011-03-31,0,0.0,0.0,-0.0042707226828035275,0.006505507422436504,0.9912038346356733
2011-04-04,0,0.0,0.0,-0.0042707226828035275,0.006505507422436504,0.9910382136773437
2011-04-06,0,0.0,0.00025746132975277896,-0.006418731367488438,0.006248645194696608,0.9922450790981975
2011-04-08,-1,-0.0009628974802076626,-0.0008522236321488168,-0.005521159438848738,0.00735761700643388,0.9921944452351789
2011-04-12,0,0.0,0.0,-0.00548254448909723,0.00735761700643388,0.9922142838390052
2011-04-14,0,0.0,0.0,-0.006067873941500048,0.007170597913051884,0.9915779987603817
2011-04-18,0,0.0,0.0,-0.006067873941500048,0.007170597913051884,0.990772106298486
2011-04-20,0,0.0,0.0,-0.006067873941500048,0.013954155800394415,0.989929014186876
2011-04-25,0,0.0,0.0,-0.009211946347169592,0.013954155800394415,0.9893945903382423
2011-04-27,0,0.0,0.0,-0.011459288237646562,0.008789251302370706,0.989358460968612
2011-04-29,1,0.0012618638399871558,0.001431050668463491,-0.009211946347169592,0.009479363320626547,0.9899070525896281
2011-05-03,1,0.0013809657795994692,0.0015644906828184623,-0.009211946347169592,0.012132875507954822,0.9875768458204757
2011-05-05,1,0.001207315438784307,0.0014041733316985019,-0.00871146791934663,0.012132875507954822,0.9880338162847041
2011-05-09,1,0.001624789603088486,0.0018317318527994162,-0.011135067317335153,0.009479363320626547,0.9877793554200869
2011-05-11,1,0.002060376179366912,0.0023736997068472656,-0.011361267828781545,0.009479363320626547,0.987130180201857
2011-05-13,1,0.0017721454092916604,0.002040807305713107,-0.011135067317335153,0.00945896516566508,0.9881087749178726
2011-05-17,1,0.0022466295524314365,0.0026460192752152225,-0.011135067317335153,0.00945896516566508,0.9877176907748733
2011-05-19,1,0.0032202844746152424,0.0037452983905260913,-0.011361267828781545,0.001073566319620887,0.9868109592478952
2011-05-23,1,0.0026384277925222757,0.0030730939409752663,-0.011289429097338738,0.009120362823181544,0.9872865201386162
2011-05-25,1,0.0022952037787473613,0.002675391473313571,-0.009681524521494806,0.009120362823181544,0.9883381922843872
2011-05-27,1,0.00247861688389882,0.0028957087830197552,-0.009681524521494806,0.008508643341040347,0.988077575709972
2011-06-01,1,0.003714127245374938,0.004251996684090698,-0.009681524521494806,0.009000949593691224,0.9893833846821523
2011-06-03,1,0.003006853663643975,0.0033997832843389274,-0.008709248964523915,0.010270656801343283,0.989440145339303
2011-06-07,1,0.0022376309799104566,0.0025309090637447187,-0.003982594013932807,0.010911445269910211,0.9899983299521946
2011-06-09,1,0.0012699196671989593,0.0013996404733080596,-0.001486121295336393,0.010911445269910211,0.9907430925001668
2011-06-13,1,0.0012165750971685932,0.001294660962172839,-0.0038778554109514087,0.010270656801343283,0.9901659803375129
2011-06-15,-1,-0.0001971434661408335,-6.510841986850924e-05,-0.003794274357114694,0.010270656801343283,0.9907879679084148
2011-06-17,-1,-0.000777193760400344,-0.0006090480710487724,-0.0021104454946864358,0.010270656801343283,0.9907484511356585
2011-06-21,1,0.0002436180293737095,0.0003263666176246754,-0.0021104454946864358,0.009152042656732919,0.9915940975254083
2011-06-23,1,0.000812632704567867,0.0008185423550130636,-0.0021104454946864358,0.008135771959503558,0.9921749284357163
2011-06-27,1,0.0014941724819296123,0.0016594256883967738,-0.0018821157423921362,0.009860885880003039,0.9923281095361138
2011-06-29,1,0.002314162988342752,0.002587266452641993,-0.0035824430464457225,0.006110089706097327,0.99223405329969
2011-07-01,1,0.002806150125518144,0.0031658636408878954,-0.0035824430464457225,0.0059133857344172034,0.9925021121283443
2011-07-06,1,0.0009530080625628477,0.0010431323083442484,-0.004406478157551132,0.0059133857344172034,0.9923732597393629
2011-07-08,1,0.0013080911553219148,0.0014692680157961332,-0.01180980739206189,0.0058823772641682075,0.9909084191367733
2011-07-12,1,0.0006745599321840883,0.0007192471537075037,-0.01180980739206189,0.0058823772641682075,0.9895321509123602
2011-07-14,1,0.0008085464370707494,0.0009055103775161789,-0.014534693964771328,0.0058823772641682075,0.9866987766544663
2011-07-18,-1,-8.752981585475334e-05,-1.571537649375129e-05,-0.01180980739206189,0.007184499711385274,0.9862392327861679
2011-07-20,1,0.0011257230397253193,0.0012761688482189892,-0.013535714893486116,0.007184499711385274,0.9856105228124481
2011-07-22,1,0.0007914192153504734,0.0008529991321725318,-0.014757729848268343,0.007005538339459943,0.9842177604898475
2011-07-26,1,0.0014033555718330746,0.0016011956339855747,-0.014757729848268343,0.012487919924499508,0.9824419401495461
2011-07-28,1,0.00011290510963973936,0.00013442275450320103,-0.013535714893486116,0.012487919924499508,0.9829858432994985
2011-08-01,1,0.0005038557945855087,0.0005662379597280632,-0.013535714893486116,0.01771558467579786,0.9810328045281161
2011-08-03,0,0.0,0.0,-0.011843345413332325,0.01883912796528015,0.9811935636146192
2011-08-05,-1,-0.0003833709492489768,-0.0003744272812828334,-0.015413067319712728,0.01883912796528015,0.9806261450077723
2011-08-09,-1,-0.00228156086486789,-0.0019399070642043411,-0.011423322474225475,0.020221272838692295,0.9810630370052595
2011-08-11,0,0.0,0.0,-0.013894202586303845,0.01888382975231393,0.983208285629682
2011-08-15,0,0.0,0.0,-0.013894202586303845,0.01888382975231393,0.9833152474353394
2011-08-17,0,0.0,0.0,-0.011681196103231897,0.01900132702684298,0.9835503775659379
2011-08-19,1,0.0008471093362424527,0.0009732565012341317,-0.008849361021293092,0.01900132702684298,0.9847794679456482
2011-08-23,-1,-0.0009357121986236928,-0.0007937792679541015,-0.01153245375658201,0.01819961100999586,0.9861616629354019
2011-08-25,-1,-0.000697153832332165,-0.0005860160268687836,-0.014221596433373448,0.01819961100999586,0.9845908591450382
2011-08-29,-1,-0.0002703826994934628,-0.00021211337315653046,-0.014221596433373448,0.01819961100999586,0.9849524677890265
2011-08-31,0,0.0,0.0,-0.014221596433373448,0.01567268248250933,0.9851971815502685
2011-09-02,0,0.0,0.0,-0.009256777011265531,0.01567268248250933,0.9868252834253726
2011-09-07,1,0.00016078484631815707,0.0001766056934979002,-0.009256777011265531,0.009555910190638676,0.9879273274459766
2011-09-09,0,0.0,0.0,-0.004786666496420235,0.013721486858089221,0.9874678811012799
2011-09-13,0,0.0,0.0,-0.004786666496420235,0.013721486858089221,0.9870522830773384
2011-09-15,0,0.0,0.0,-0.007067658530335516,0.013347281683817927,0.9869601875839982
2011-09-19,1,0.0010125148678595609,0.0011328961889825117,-0.004786666496420235,0.013347281683817927,0.9876683711059947
2011-09-21,1,0.001313199951624531,0.0014718325371731959,-0.004786666496420235,0.013347281683817927,0.9877087641788308
2011-09-23,1,0.00019419499363700928,0.0001970289991296232,-0.004022321088045624,0.014186505773298358,0.9875935293867765
2011-09-27,1,0.0009789962806792168,0.001056068562116896,-0.004769204136478139,0.013347281683817927,0.9887233232167145
2011-09-29,1,0.0012617199945590433,0.001408659363243328,-0.004464728175697227,0.013347281683817927,0.9891665512838641
2011-10-03,1,0.0010480950419988508,0.0011862253301499384,-0.004283391023593905,0.013347281683817927,0.9892940385344099
2011-10-05,0,0.0,0.0,-0.005381908818212734,0.010560917296672611,0.9893803531451819
2011-10-07,0,0.0,0.0,-0.005381908818212734,0.010560917296672611,0.9902778447416118
2011-10-11,1,0.002742080626815686,0.0031107301933830656,-0.005381908818212734,0.013289050865319112,0.9913389886609792
2011-10-13,1,0.0018428564488259603,0.0020610871406472504,-0.005381908818212734,0.010546154479388302,0.9889594852532302
2011-10-17,1,0.003926428140720605,0.004361021210010081,-0.006096425399432948,0.010546154479388302,0.9879255577690061
2011-10-19,1,0.003823321890918993,0.004253343191767733,-0.006096425399432948,0.010546154479388302,0.9863134223568277
2011-10-21,1,0.0066220631938720825,0.007526607606840718,-0.007569852887066236,0.006849278031744843,0.9858064537482706
2011-10-25,1,0.006389134553070239,0.007235474851023223,-0.010895430147995266,0.0053754599994431645,0.9854076748627271
2011-10-27,1,0.005300878812274273,0.005934663526159408,-0.012312467277143763,0.0053754599994431645,0.9857712964171339
2011-10-31,1,0.004489637618042837,0.004951978254496642,-0.012312467277143763,0.006849278031744843,0.9847533742482196
2011-11-02,1,0.004216384212277308,0.004664256231312738,-0.012312467277143763,0.008629359914316135,0.9842685964358452
2011-11-04,1,0.004250581338328634,0.004624586020394195,-0.012312467277143763,0.008629359914316135,0.9835561552236113
2011-11-08,1,0.004510677372902174,0.0048379299785349245,-0.012312467277143763,0.002490079898605198,0.9831827738125272
2011-11-10,1,0.001972779419345377,0.002031546280468471,-0.012312467277143763,0.005452717500998188,0.9852832319900455
2011-11-14,1,0.0015870710065876647,0.0016321895491276355,-0.011717125892320919,0.002490079898605198,0.9855832861094612
2011-11-16,-1,-0.0005008993801783545,-0.0002924254443868662,-0.011717125892320919,0.003388433077521493,0.987540123161967
2011-11-18,-1,-0.0007397645122065994,-0.000563576139745976,-0.011814640254805255,0.0033906225997238464,0.987431574350066
2011-11-22,-1,-0.0010277147600789953,-0.0008463511278674467,-0.011348677719259749,0.009841229079222791,0.986992266118036
2011-11-25,-1,-0.0013661279103871554,-0.0011685440428847102,-0.010173228245447072,0.015112179954471491,0.9862646679031715
2011-11-29,1,0.00027863821875427695,0.0002955769119602732,-0.010173228245447072,0.009841229079222791,0.9877374658444722
2011-12-01,1,0.0008912254204281171,0.0009337046837631759,-0.010173228245447072,0.009841229079222791,0.9883258566113634
2011-12-05,0,0.0,0.0,-0.009756166119925188,0.005916934608548167,0.988785207910222
2011-12-07,0,0.0,0.0,-0.009756166119925188,0.009061249294777272,0.9889305853215122
2011-12-09,0,0.0,0.0,-0.00796785902527322,0.009061249294777272,0.9903965506100012
2011-12-13,0,0.0,0.0,-0.003456337360247819,0.01126405306422772,0.990619195690717
2011-12-15,0,0.0,0.0,-0.004818050448049981,0.01126405306422772,0.9896860804639959
2011-12-19,0,0.0,0.0,-0.003456337360247819,0.01314225652224324,0.9892969409497699
2011-12-21,0,0.0,0.0,-0.007963912318016823,0.01126405306422772,0.989391858814229
2011-12-23,0,0.0,0.0,-0.009728410570728568,0.01126405306422772,0.9885826488300826
2011-12-28,0,0.0,0.0,-0.009728410570728568,0.01314225652224324,0.9880458859846787
2011-12-30,0,0.0,0.0,-0.009728410570728568,0.013130740637324986,0.9880471507565974
2012-01-04,0,0.0,0.0,-0.010362099307727041,0.013130740637324986,0.9880903903664704
2012-01-06,-1,-0.0011403086875458146,-0.0008842261842338963,-0.010362099307727041,0.013130740637324986,0.9879833087299832
2012-01-10,-1,-0.002002253932429946,-0.0015092573932557042,-0.010362099307727041,0.011198113380680197,0.9880236322137304
2012-01-12,-1,-0.0027727342423648368,-0.0021056111972096083,-0.012852937839566918,0.009966943015989941,0.9870266126480881
2012-01-17,-1,-0.003635487029629375,-0.002989171054573302,-0.007297291403889297,0.011477460454686457,0.9874213179366678
2012-01-19,-1,-0.0027565356379052938,-0.0021770489860151185,-0.007297291403889297,0.00969317817262449,0.9886143004939408
2012-01-23,-1,-0.002685779992820124,-0.0022143246773842565,-0.008512859047219434,0.00969317817262449,0.9876735731404808
2012-01-25,-1,-0.002623263787202553,-0.002205143533368057,-0.006429746378405099,0.009051241652018411,0.9889628398840553
2012-01-27,-1,-0.003163246485185904,-0.0025762438329195586,-0.008512859047219434,0.008784307835030548,0.9892255434007547
2012-01-31,-1,-0.0013986958952515467,-0.001104110922957052,-0.010487517348264832,0.008784307835030548,0.9892262056401478
2012-02-02,-1,-0.002997281482813928,-0.0024431850241188927,-0.011133537997709997,0.008784307835030548,0.9889454515986233
2012-02-06,-1,-0.0016723884248738491,-0.0013406000263103883,-0.011133537997709997,0.008784307835030548,0.9892606074332426
2012-02-08,-1,-0.00011465745402356944,-2.136542373523372e-05,-0.011133537997709997,0.00718290376926803,0.988949671416359
2012-02-10,-1,-0.0011077689245525058,-0.0008905772024753892,-0.008525097619347706,0.006139636824211018,0.9901727960797356
2012-02-14,-1,-0.0008769159259711961,-0.0006597938404808895,-0.008525097619347706,0.006666735887433669,0.989757346533476
2012-02-16,-1,-0.0012842750059234571,-0.0009798391972654858,-0.008525097619347706,0.007661030779620565,0.98914085670671
2012-02-21,-1,-0.002179781060978756,-0.0018603478612586675,-0.0051629658798727045,0.007661030779620565,0.9901495051632649
2012-02-23,-1,-0.0020728487394406454,-0.0017266848969199875,-0.0051629658798727045,0.011056176250053739,0.9899965409916139
2012-02-27,-1,-0.0032306487845544614,-0.0027424311371176385,-0.001034901220256809,0.011056176250053739,0.9898923399194933
2012-02-29,0,0.0,0.0,-0.001034901220256809,0.007921628779687606,0.9913222731860559
2012-03-02,0,0.0,0.0,0.0005989980935655017,0.007921628779687606,0.9919728020136009
2012-03-06,0,0.0,0.0,0.0,0.007921628779687606,0.9921871381166241
2012-03-08,0,0.0,0.0,-0.0015618691101775537,0.006787107222124876,0.992819435985305
2012-03-12,0,0.0,0.0,-0.0015618691101775537,0.006787107222124876,0.9918822115180814
2012-03-14,0,0.0,0.0,-0.0015618691101775537,0.006490110704232254,0.9930443975321179
2012-03-16,1,0.0011757773975638714,0.0014173870595053616,-0.005947673944692418,0.004116706514554614,0.9933301822396904
2012-03-20,0,0.0,0.0,-0.0024244342453252276,0.004116706514554614,0.9938306248288279
2012-03-22,0,0.0,0.0,-0.004263148590180031,0.0027519320100298063,0.9944571563734197
2012-03-26,0,0.0,0.0,-0.004263148590180031,0.004512586638599035,0.9938001672699053
2012-03-28,0,0.0,0.0,-0.0022429338783993415,0.006346305877814663,0.9935385824295007
2012-03-30,1,0.0016860011027335705,0.0020020781433851644,-0.0022429338783993415,0.005732523530576587,0.99353097931984
2012-04-03,0,0.0,0.0,-0.004225840575118867,0.005732523530576587,0.9933115054661655
2012-04-05,1,0.0015212846037896926,0.001792512793647351,-0.004695725645774196,0.005732523530576587,0.9920342280104626
2012-04-10,1,0.0010671769644941685,0.0012695683431418066,-0.004695725645774196,0.007077477972049747,0.9928125524171656
2012-04-12,0,0.0,0.0,-0.004695725645774196,0.007091948998389386,0.9918312639295047
2012-04-16,0,0.0,0.0,-0.004225840575118867,0.007091948998389386,0.9923152612595227
2012-04-18,-1,-0.00023135642251999078,-0.00012494382387402236,-0.004909664694891466,0.00932529626390274,0.990371049794628
2012-04-20,-1,-0.0013998584710201785,-0.001126651725996962,-0.007779669413815258,0.00932529626390274,0.9888852193485215
2012-04-24,1,0.0003465625840906123,0.0003495263460790791,-0.010948840338669462,0.00932529626390274,0.9881047534342445
2012-04-26,1,0.001776814017414178,0.002001083173648005,-0.014612393203640458,0.006351986612444421,0.9868377044423738
2012-04-30,1,0.0021644246268985572,0.0024435585815944846,-0.016958483727918434,0.009481728877730205,0.9852897030425066
2012-05-02,1,0.0016351910359081096,0.0018048872698332408,-0.016958483727918434,0.009481728877730205,0.9847244387428427
2012-05-04,1,0.00012960617009867103,0.00014951705952201378,-0.014803651425412349,0.009481728877730205,0.9867342572353648
2012-05-08,-1,-0.0003807585848812904,-0.0002498970104347343,-0.014803651425412349,0.01119947486591644,0.985397278516038
2012-05-10,1,0.0004066351770063377,0.0004712528104040437,-0.016958483727918434,0.0059523490403383655,0.9849704452242012
2012-05-14,-1,-0.0006436206027691841,-0.0004090985513382716,-0.018850754330815254,0.008587888726238982,0.9843920691688423
2012-05-16,-1,-0.0014012151447725728,-0.0011313720110603634,-0.016958483727918434,0.00512301168943731,0.9860599947887919
2012-05-18,-1,-0.0024091455046967884,-0.0020758514263532553,-0.014803651425412349,0.008711462813213276,0.9865569784302171
2012-05-22,-1,-0.002452103655535369,-0.0021015120663356638,-0.011930360106354612,0.00512301168943731,0.9879731238314544
2012-05-24,-1,-0.0015619963758607977,-0.001351680290311377,-0.011930360106354612,0.00512301168943731,0.9877472713294402
2012-05-29,-1,-0.0025897743355685933,-0.0022196553836450836,-0.011930360106354612,0.00512301168943731,0.987095176237837
2012-05-31,-1,-0.0031489807053979107,-0.0027395856330176866,-0.012006870217519538,0.0064693850765333155,0.986798957086997
2012-06-04,-1,-0.0030058843210479915,-0.0026635444953906342,-0.012006870217519538,0.010189559735075073,0.9848604891983348
2012-06-06,-1,-0.0007537428230017377,-0.0006984417055300971,-0.014807464942186814,0.010189559735075073,0.9833965064974691
2012-06-08,-1,-0.002971450415582449,-0.0025548062100167164,-0.012006870217519538,0.010189559735075073,0.9847250561160269
2012-06-12,-1,-0.002692633645355362,-0.0023768684438672046,-0.011254497554044627,0.00890039343627046,0.9853468458332322
2012-06-14,-1,-0.003681764864857582,-0.003201628866763212,-0.008746872195107048,0.016975736708870197,0.9847803654635656
2012-06-18,-1,-0.0032849892512911687,-0.002836372306220204,-0.008457293948962809,0.008731444067798357,0.9857851516507294
2012-06-20,-1,-0.0028427873971368775,-0.0024853724618140033,-0.011677699327777685,0.0172184480631884,0.983842352937426
2012-06-22,-1,-0.0015169423295877827,-0.001351351959103558,-0.011677699327777685,0.008731444067798357,0.9845188793187813
2012-06-26,-1,-0.0026287336619681585,-0.0023056695076449224,-0.011677699327777685,0.0075469753586581215,0.9853139039327252
2012-06-28,-1,-0.0026420576089876352,-0.0023458333417838814,-0.008457293948962809,0.01243577599257919,0.9850722864889804
2012-07-02,-1,-9.828013309034879e-05,-4.6612585639859355e-05,-0.008457293948962809,0.00812795588995376,0.9870177532348664
2012-07-05,1,0.0001047829758193337,0.00013880478909153584,-0.008457293948962809,0.004833805010150574,0.9893219290925996
2012-07-09,1,0.0005551022387291838,0.000657117832576351,-0.011677699327777685,0.00812795588995376,0.985824423392149
2012-07-11,1,0.00014164745026222213,0.00019861384615971523,-0.00737138998703906,0.011480714818726048,0.9855297227359939
2012-07-13,-1,-0.0003646077615983987,-0.0002651714407504918,-0.00737138998703906,0.009388612808964246,0.9865395182627066
2012-07-17,-1,-8.595334239110223e-05,-4.942241364602424e-05,-0.01073194353166701,0.009388612808964246,0.9861486784298729
2012-07-19,1,0.00035508999844776343,0.000391458677564992,-0.006948714670120819,0.009388612808964246,0.9869625805217658
2012-07-23,-1,-0.0011691189958178672,-0.0009609321274880295,-0.005651896608877218,0.011480714818726048,0.9869419950155012
2012-07-25,-1,-0.0023708858063220825,-0.0019739672925146393,-0.007109171042823385,0.009388612808964246,0.9880590544488941
2012-07-27,0,0.0,0.0,-0.007109171042823385,0.008043453402063628,0.9890474922321092
2012-07-31,0,0.0,0.0,-0.007109171042823385,0.008043453402063628,0.988918067177878
2012-08-02,-1,-0.0010437583289773854,-0.0009072475582046955,-0.007109171042823385,0.008043453402063628,0.9892750598980452
2012-08-06,-1,-0.0012134803185155152,-0.0010707268159279306,-0.0067090212775629725,0.0077355058683915515,0.9925687013170883
2012-08-08,-1,-0.0006077602971422268,-0.0005767808441056019,-0.0067090212775629725,0.0077355058683915515,0.9912854534960882
2012-08-10,-1,-0.000886309192479534,-0.0008430300677373134,-0.007202864233716083,0.0077355058683915515,0.9903860134762005
2012-08-14,-1,-0.0007679250398001248,-0.0007532376240787226,-0.0067090212775629725,0.0077355058683915515,0.9905512839099554
2012-08-16,1,0.0007053948675314796,0.0009269341491268515,-0.0067090212775629725,0.007595539800403858,0.9913189267743898
2012-08-20,1,0.000998482957924865,0.001245016450604364,-0.007202864233716083,0.004451082436268334,0.9915659501526752
2012-08-22,1,0.0006590243007249701,0.000890692830953074,-0.006704844082076686,0.004451082436268334,0.9923532077853351
2012-08-24,0,0.0,0.0,-0.006704844082076686,0.007595539800403858,0.9917081983822764
2012-08-28,1,0.00029031960011426106,0.00039299316956881484,-0.007606207181566225,0.007595539800403858,0.9903333015923741
2012-08-30,1,0.00010214801905207474,0.00015973623868318417,-0.008440856916883902,0.007595539800403858,0.9892545904161497
2012-09-04,0,-6.174525470636628e-05,1.7918798292730707e-05,-0.010196248881806095,0.0038205467328737927,0.9892387495671241
2012-09-06,1,0.001579929463766855,0.0018312025120462664,-0.010196248881806095,0.0038205467328737927,0.9899781874831922
2012-09-10,1,0.0006792157517607285,0.0008094613089651946,-0.01013948169552003,0.0038205467328737927,0.990609403623749
2012-09-12,1,0.0003432131806038394,0.0004187036120576034,-0.010564638005672523,0.0038205467328737927,0.9900345611447438
2012-09-14,1,0.0015357316755042422,0.001821194891783428,-0.010564638005672523,0.0019085760451725544,0.9898484999459323
2012-09-18,1,0.0012780660699521283,0.0015988652137403788,-0.008563653291506044,0.004411078418163735,0.9901621665663135
2012-09-20,1,0.0017231743373588412,0.0021308473065905723,-0.008563653291506044,0.00715056555032398,0.989726705374407
2012-09-24,1,0.002300025003326053,0.0027783956118824678,-0.010535767794486367,0.003488328697374371,0.9894219711887907
2012-09-26,1,0.00014593275877442338,0.00024309449398439062,-0.008563653291506044,0.001556953957383654,0.9917019623735396
2012-09-28,-1,-0.001249379720891757,-0.0011829451806352903,-0.007268920350828977,0.001556953957383654,0.9923754578897709
2012-10-02,0,0.0,0.0,-0.005586842981844098,0.009430610663108234,0.9909157714789625
2012-10-04,1,8.442193426662191e-05,0.0002477938743214588,-0.006200271828475381,0.006686994350162616,0.9915808736292774
2012-10-08,-1,-0.0007112378806029087,-0.0007013728643239221,-0.006200271828475381,0.008016142650537695,0.9909322936612422
2012-10-10,-1,-0.0024629586759305233,-0.0021927275921761013,-0.007329822227425578,0.008016142650537695,0.9900154542335596
2012-10-12,-1,-0.001969096453439274,-0.0017661499849570468,-0.007329822227425578,0.008016142650537695,0.9899086526446965
2012-10-16,-1,-0.0012570683597108961,-0.001160926084019869,-0.01088463251926972,0.006670865262992976,0.9901405570469987
2012-10-18,0,0.0,0.0,-0.01088463251926972,0.008365366429013367,0.9870103357974954
2012-10-22,0,0.0,0.0,-0.007594996026909209,0.009397539827273373,0.9872252274486621
2012-10-24,0,0.0,0.0,-0.010188801033690974,0.009397539827273373,0.9865822805531292
2012-10-26,0,0.0,0.0,-0.0070978783988993295,0.009919650213837125,0.986913359216992
2012-11-01,-1,-8.929568675199893e-05,-7.826600983764764e-05,-0.007622222669260711,0.00911925629692332,0.9885559507501315
2012-11-05,-1,-0.00023008972367571652,-0.00021198983651568194,-0.010188801033690974,0.00911925629692332,0.9885105526627327
2012-11-07,-1,-0.0006826913677119024,-0.0005915919887012257,-0.007622222669260711,0.009919650213837125,0.9891022153221185
2012-11-09,-1,-0.001281310815077788,-0.0011327483175577293,-0.004485116607244143,0.009919650213837125,0.990648737183849
2012-11-13,0,0.0,0.0,-0.005051594926671475,0.010233935030577629,0.9903559755414655
2012-11-15,0,0.0,0.0,-0.005051594926671475,0.010233935030577629,0.9907056203936438
2012-11-19,-1,-0.0011531744877671998,-0.0010021350195821418,-0.00691444284902517,0.008176598782273878,0.9927884068790235
2012-11-21,0,0.0,0.0,-0.006939944230800846,0.001984130321359608,0.9915500233708543
2012-11-26,0,0.0,0.0,-0.006939944230800846,0.0007042414957768794,0.9917325418695444
2012-11-28,0,0.0,0.0,-0.007096339683446074,-0.000652188840119735,0.9922729297937336
2012-11-30,0,0.0,0.0,-0.007096339683446074,5.205265565714438e-05,0.9921950437173384
2012-12-04,0,0.0,0.0,-0.0069219846560387675,0.005530059699151697,0.9911717111778275
2012-12-06,0,0.0,0.0,-0.0069219846560387675,0.005530059699151697,0.9912002652056267
2012-12-10,0,0.0,0.0,-0.007096339683446074,0.0034825971051806173,0.9906186237350485
2012-12-12,-1,-0.0010578259695750544,-0.0007660954328382206,-0.007096339683446074,0.0034825971051806173,0.9893153802250833
2012-12-14,0,0.0,0.0,-0.006713166778948662,0.005530059699151697,0.9889114624521804
2012-12-18,-1,-0.000318373255835441,-0.00029964217281178493,-0.006713166778948662,0.005530059699151697,0.989605582988728
2012-12-20,-1,-0.0008131287946934879,-0.0007554414016700192,-0.004725700281250606,0.005530059699151697,0.9906286997956055
2012-12-24,-1,-0.0009132957016465212,-0.0008591961635458219,-0.004725700281250606,0.005530059699151697,0.9907959110997693
2012-12-27,0,0.0,0.0,-0.0032620289470780242,0.005530059699151697,0.9909658884357048
2012-12-31,-1,-0.0027185143473390733,-0.0024007912586857466,-0.004725700281250606,0.004022389883697132,0.9902181796583074
2013-01-03,-1,-0.0006305334656350267,-0.0005987666044269471,-0.004725700281250606,0.0041742497620258605,0.9910472063839084
2013-01-07,0,0.0,0.0,-0.004725700281250606,0.0041742497620258605,0.9906408308469149
2013-01-09,-1,-0.0006742285029701212,-0.0006016581363253593,-0.002375058120346317,0.007685523785740276,0.9906784474527776
2013-01-11,1,0.00043527681931663126,0.0005256943212235375,-0.002375058120346317,0.008480696891666159,0.9882232844363041
2013-01-15,1,0.0006116216115564575,0.0007344146989383021,-0.004324204808848321,0.01052058723248872,0.9876661023106311
2013-01-17,0,0.0,0.0,-0.00041452043769740234,0.017129387405236313,0.9857994689433996
2013-01-22,0,0.0,0.0,-0.00041452043769740234,0.018486199728678352,0.984054500852451
2013-01-24,1,0.0006080655514936904,0.0007381393942873776,0.0015352944999903891,0.018486199728678352,0.9841256521006359
2013-01-28,1,0.0006309231420226083,0.0007488560807643817,-0.004324204808848321,0.018486199728678352,0.9831164286849678
2013-01-30,1,0.00044048369864208383,0.0005420132772992045,0.0010308397397428603,0.018486199728678352,0.9832175355144238
2013-02-01,1,0.002310057048066002,0.0027463841044001107,-2.767481564611477e-05,0.016736453574431716,0.9854535141879971
2013-02-05,1,0.002647664567825045,0.003087038652976359,0.0024522081831033836,0.016150903904375263,0.9861577550922463
2013-02-07,1,0.002712788957127839,0.003143194918308625,-6.009947876675116e-05,0.016736453574431716,0.9852926910036156
2013-02-11,1,0.005862250165394602,0.006739723744064433,-0.00211617449527466,0.016150903904375263,0.9900310354467949
2013-02-13,0,0.0,0.0,0.0007083352888784389,0.014465022890915134,0.9895422554165704
2013-02-15,0,0.0,0.0,-0.009129912676573693,0.006250148231878789,0.9896254046951869
2013-02-20,1,0.0036530175664699297,0.004178877033430642,-0.009129912676573693,0.006250148231878789,0.9905730109161217
2013-02-22,1,0.0031138683718752048,0.003537931472759148,-0.01066357980774982,0.006250148231878789,0.9898169705350485
2013-02-26,0,0.0,0.0,-0.0031818153522022046,0.007767951474939805,0.9899667503686097
2013-02-28,0,0.0,0.0,-0.0031818153522022046,0.007767951474939805,0.990008316239696
2013-03-04,0,0.0,0.0,-0.008743644524001662,0.009535989784639437,0.9888279331243797
2013-03-06,0,0.0,0.0,-0.009504775350033728,0.007767951474939805,0.9890794186648124
2013-03-08,1,0.004826104216801458,0.005426092171899724,-0.009504775350033728,0.007767951474939805,0.9890605884879937
2013-03-12,1,0.004867319409413778,0.005479613679198097,-0.009504775350033728,0.009635254692634296,0.9888414506703451
2013-03-14,1,0.005191804310722478,0.005853833388653186,-0.011463009011458476,0.009327843561144912,0.9877490196936484
2013-03-18,1,0.003301026090300235,0.0037181811026482095,-0.009504775350033728,0.01145691419839661,0.9889672844264215
2013-03-20,1,0.002546008367798943,0.002835249907654436,-0.009504775350033728,0.00837517131019391,0.9896981835251929
2013-03-22,1,0.0026899944613511663,0.002981015041602447,-0.006879380920186849,0.010062339406342989,0.9902271812370302
2013-03-26,1,0.0021168718948775312,0.0022449146952962015,-0.006879380920186849,0.010062339406342989,0.9900901830535507
2013-03-28,1,0.002932980168209971,0.003246142399348527,-0.006879380920186849,0.010062339406342989,0.989999348825372
2013-04-02,1,0.003097670858627982,0.003427036151929451,-0.004723095260994531,0.008651593291422533,0.9911481670307883
2013-04-04,1,0.002357811969231421,0.002554637169786874,-0.004723095260994531,0.008651593291422533,0.9910136732009088
2013-04-08,1,0.0015398293352731664,0.0015512540238957412,-0.006197704558195525,0.008651593291422533,0.9898988534424339
2013-04-10,1,0.002244552797238864,0.0023271281796451854,-0.006197704558195525,0.008651593291422533,0.9896256491661267
2013-04-12,1,0.001335560096769556,0.0013533973837597784,-0.006849980947026391,0.010062339406342989,0.9856108166306083
2013-04-16,1,0.001488783841870902,0.001591423602699292,-0.006849980947026391,0.01129320931610443,0.9850775904155682
2013-04-18,1,0.0010530002220688326,0.0011043938601211683,-0.005689895991430178,0.01129320931610443,0.9850659643503666
2013-04-22,1,0.0015362088737944652,0.001646944276369882,-0.005689895991430178,0.010188910149810361,0.9854319526204823
2013-04-24,1,0.0020237983469992096,0.0022130923138922206,-0.014992448891060859,0.017402992839463133,0.9840297585095021
2013-04-26,1,0.0020504304050856913,0.0022246920629640917,-0.014992448891060859,0.01761768031458871,0.9835479784599855
2013-04-30,1,0.0019245543416044433,0.0020548663957120363,-0.0163848924076593,0.01761768031458871,0.9818853579550783
2013-05-02,1,0.00137716176499668,0.0014038282984457817,-0.01828988965271458,0.01761768031458871,0.9799424329990736
2013-05-06,0,0.0,0.0,-0.018002505248927554,0.016135868484568616,0.9803584887482815
2013-05-08,0,0.0,0.0,-0.018002505248927554,0.016135868484568616,0.980205664607519
2013-05-10,0,0.0,0.0,-0.016799295263575847,0.014411076759930308,0.9838792642809241
2013-05-14,1,0.00017901107289893117,0.0002839676629085985,-0.016799295263575847,0.010191474129609794,0.9850695586039223
2013-05-16,-1,-0.0004035850099525937,-8.504836115925062e-05,-0.016799295263575847,0.014411076759930308,0.9847794383741739
2013-05-20,0,-0.00027061789653511016,5.3976386404540376e-05,-0.016799295263575847,0.01222182277200578,0.9848208343616314
2013-05-22,-1,-0.0005242288555346931,-0.0001440225034193088,-0.020248043750170558,0.009645414937293817,0.9846083910396496
2013-05-24,0,-0.0002510360148965374,0.0001072121122157499,-0.023845160014310758,0.007885095302339759,0.9842151663850914
2013-05-29,-1,-0.0005629087465586656,-0.00019952331449037304,-0.020178094181479235,0.008561878183138421,0.9850059916958392
2013-05-31,-1,-0.0021446148685026222,-0.001610130037366332,-0.013266094768291851,0.014312383944524294,0.9860505146214671
2013-06-04,-1,-0.0028535109926557316,-0.002196415075313505,-0.010183257622078733,0.01267420636757636,0.9871325323551386
2013-06-06,-1,-0.00163533314599458,-0.0012025092461528085,-0.010183257622078733,0.01267420636757636,0.9872225629438566
2013-06-10,-1,-0.0019260897851614367,-0.001454949154464584,-0.010538916700267461,0.016974995719515967,0.9860381241491979
2013-06-12,-1,-0.003027761930656759,-0.0024034617861020085,-0.005697149295221306,0.021042884768889374,0.9853609183700268
2013-06-14,-1,-0.0025616971099455183,-0.0019814988446448887,-0.010538916700267461,0.016974995719515967,0.9856670686671238
2013-06-18,-1,-0.0028069739681759152,-0.0021848747311343794,-0.00673169437300448,0.016974995719515967,0.9859640361089271
2013-06-20,-1,-0.0043108476281559375,-0.0035104027092005474,-0.0029793798999638516,0.020448751186276995,0.9862268195495623
2013-06-24,-1,-0.005374181161731368,-0.0044344197028690704,-0.002212787177567329,0.020448751186276995,0.9851141229397847
2013-06-26,-1,-0.004502661650814142,-0.003701375977514628,-0.0022894121698282394,0.016827453220156375,0.9857729641565339
2013-06-28,-1,-0.002709772332298894,-0.0021859240773494885,-0.0022894121698282394,0.020448751186276995,0.9813315994060453
2013-07-02,-1,-0.0025438140954852657,-0.0020520132412451967,-0.006444872924891352,0.020448751186276995,0.9813095777243782
2013-07-05,-1,-0.000778744136914725,-0.0005915658008242474,-0.007695374794354207,0.014252216505889625,0.9818176414075478
2013-07-09,-1,-0.00023712371962285967,-0.0001260938244060331,-0.011662163004862825,0.011502683630113274,0.9822428104039276
2013-07-11,1,0.0010334301448554264,0.001140352031915225,-0.011662163004862825,0.011191709689273958,0.9833028519535906
2013-07-15,1,0.0006159462027296641,0.0006544338699872041,-0.011662163004862825,0.011191709689273958,0.983697835568612
2013-07-17,1,0.001002348292840744,0.0011164011997302785,-0.011662163004862825,0.011436110405529654,0.9834494322057423
2013-07-19,1,0.001042777751202159,0.0011282768417499697,-0.012442312265521189,0.006257758379401193,0.9837887030873075
2013-07-23,1,0.0006525140970474763,0.0006950691088563042,-0.012442312265521189,0.005839377477919436,0.9836469439237118
2013-07-25,1,0.0005993126619296184,0.0006395856875234533,-0.011261191644761318,0.006105969269036341,0.98372922858114
2013-07-29,1,0.004086124733455486,0.004610052471367368,-0.011261191644761318,0.00043125469653586496,0.9882172487573915
2013-07-31,1,0.0037387661017385344,0.0042303349513428705,-0.012888155075688645,0.0035944394365298137,0.9880228262204659
2013-08-02,1,0.0038092105196138887,0.004307030637276129,-0.015519541626505182,0.0035944394365298137,0.9865778545198319
2013-08-06,1,0.0029349834565004134,0.0033290737830835174,-0.010622278941009188,0.00823246800297989,0.9870374038372365
2013-08-08,1,0.0023132346187172215,0.0025618796167417544,-0.011746536247791763,0.00823246800297989,0.9865298791105627
2013-08-12,1,0.0017019798980167063,0.0018508337006495667,-0.010524010721799882,0.00823246800297989,0.9873361190240983
2013-08-14,1,0.0020100818652260396,0.0022067381913710793,-0.011746536247791763,0.006608288805643895,0.9872951902453915
2013-08-16,1,0.0018312748097965889,0.0020110677814089914,-0.010524010721799882,0.00823246800297989,0.9872719076799511
2013-08-20,1,0.0011332099364787245,0.00122750712418446,-0.009714341514563105,0.00823246800297989,0.9884436331060986
2013-08-22,1,0.001267746394875913,0.0013915510393082266,-0.007216930380023636,0.006608288805643895,0.9890316528113773
2013-08-26,1,0.0007047781860062698,0.0007316580393989055,-0.005521246134412453,0.006608288805643895,0.9895100411599395
2013-08-28,1,0.0005325293662019564,0.0005475573925459587,-0.0034909056427251907,0.004720326052393322,0.9909661870281886
2013-08-30,1,0.0005643461099488355,0.0006015432372069608,-0.005521246134412453,0.004129264157203966,0.9923083456603387
2013-09-04,1,0.0013625820005831724,0.0014823026303768326,-0.006451787850979893,0.004101417215099195,0.9935555934605727
2013-09-06,1,0.0009114169259895511,0.0009468538826758268,-0.006451787850979893,0.004129264157203966,0.9933296888201101
2013-09-10,1,0.0007797498519628059,0.0007947758538732569,-0.00788792247792346,0.002196931245605345,0.9922007356068412
2013-09-12,1,0.0006577969484708364,0.0006593560407197231,-0.006817291151987053,0.0036903419737902184,0.9905248371478235
2013-09-16,1,0.0012121839431734156,0.0013003798163619316,-0.006817291151987053,0.002204626192665221,0.9891531437216758
2013-09-18,1,0.00115201579299105,0.0012363232164540633,-0.00788792247792346,0.002204626192665221,0.9880566630884736
2013-09-20,1,0.0009871077266341878,0.0010589919795360196,-0.00788792247792346,0.005952195264805761,0.9879023722233717
2013-09-24,1,0.0007252368246724659,0.0007491398379725842,-0.00788792247792346,0.009311153491272081,0.9874276081825046
2013-09-26,1,0.0007912546872865927,0.0008252349329025318,-0.00836245931405014,0.009311153491272081,0.9866912003176678
2013-09-30,1,0.0006176765922223564,0.000660976429893204,-0.007478659405011435,0.009311153491272081,0.987561235912627
2013-10-02,1,0.0005023456573614633,0.0005107235930404963,-0.007926993433558968,0.0033242789348206605,0.9864716160280406
2013-10-04,1,0.0007644878894342213,0.0008095005663542294,-0.0076628856541440015,0.002373255904682801,0.9872688218907986
2013-10-08,-1,-0.000510190755685156,-0.000373142670364975,-0.00615554138138831,0.005165333219903539,0.9875250924263279
2013-10-10,1,0.0009519962227788315,0.0010241615473658287,-0.00615554138138831,0.005165333219903539,0.989198260477993
2013-10-14,1,0.0021479585490095624,0.0023877720318006912,-0.00615554138138831,0.005165333219903539,0.9901198764211959
2013-10-16,1,0.001608985426393211,0.0018069789407849863,-0.004950897036560677,0.008109600883225355,0.9911284725117431
2013-10-18,1,0.001661135036941914,0.0018304886323534623,-0.004950897036560677,0.008109600883225355,0.990850453970573
2013-10-22,1,0.0007426136405356967,0.0007781432284675708,-0.007006756675666243,0.007393069935507992,0.9891250834048373
2013-10-24,1,9.604149327577726e-05,0.00021324772303962227,-0.0029017884563735936,0.009609048327609775,0.9886177590667059
2013-10-28,1,0.00020416613257530993,0.000290645846654886,-0.005532244909956529,0.011784264159635655,0.9878663364773491
2013-10-30,-1,-0.0010470714039441157,-0.0008075598813410062,-0.005532244909956529,0.011784264159635655,0.9887166397664843
2013-11-01,-1,-0.0014321494502753424,-0.0011098815253454996,-0.005532244909956529,0.011784264159635655,0.9881988622819152
2013-11-05,-1,-0.0013584554453668794,-0.0010784291588377664,-0.005532244909956529,0.011784264159635655,0.9885470092753379
2013-11-07,-1,-0.0009085188532240848,-0.0006803897705673739,-0.008873583524445514,0.011784264159635655,0.9871402285253204
2013-11-11,-1,-0.001572815816368676,-0.0012007949762155308,-0.008873583524445514,0.00944597961126147,0.9874400124718445
2013-11-13,-1,-0.0016630184428236502,-0.0012404084543930006,-0.013539703672767005,0.007875283330099988,0.9868130090729841
2013-11-15,-1,-0.0009309316187157462,-0.0006140916538281175,-0.013539703672767005,0.007164542781999667,0.9876888082433448
2013-11-19,-1,-0.0017558013191506358,-0.0013853521910645573,-0.009081344674311962,0.007875283330099988,0.9883459681239023
2013-11-21,-1,-0.0011258044669272076,-0.0008269440147805128,-0.009081344674311962,0.008600355274108615,0.9878638333309461
2013-11-25,-1,-0.0007770790146565844,-0.0005467738681078982,-0.004371127788640792,0.008667890411528042,0.987993460141162
2013-11-27,-1,-0.0011157242910857124,-0.0008645607719917423,-0.00674433651966849,0.008667890411528042,0.9878768898740949
2013-12-02,-1,-0.0003987933478079176,-0.00026367035449647024,-0.00674433651966849,0.008667890411528042,0.988597729476643
2013-12-04,-1,-0.0007754711259156408,-0.0005806900134761467,-0.002580019238702235,0.012496319212918133,0.9881987737372664
2013-12-06,-1,-0.0007731791455924074,-0.0005868067119007816,-0.002580019238702235,0.012449788352932879,0.989539816474853
2013-12-10,-1,-0.0003848521645530254,-0.0002641544683425829,-0.0028741132299408578,0.012449788352932879,0.9898294244932863
2013-12-12,-1,-0.0017756076983458176,-0.0014655237166982023,-0.0028741132299408578,0.012449788352932879,0.9903409015616385
2013-12-16,-1,-0.001875317080651265,-0.0015405302517949328,-0.005927510818591885,0.012449788352932879,0.9895918540284016
2013-12-18,1,0.001336867498601499,0.0016285968921780508,-0.007788423624980707,0.011962237805717469,0.9896329213083551
2013-12-20,1,0.00233023225593357,0.0027242300025052037,-0.010388042520985583,0.0012478231907805972,0.9900556812574979
2013-12-24,1,0.0029571744505912734,0.0034450796805931007,-0.010388042520985583,0.0002729320155136577,0.9898528726023246
2013-12-27,1,0.0017488461287553116,0.002009074919982233,-0.007423858587608344,0.001118742922247862,0.9917092455465807
2013-12-31,1,0.0017949590427263162,0.0020658187189223874,-0.007423858587608344,0.0039435764381143415,0.9903980503873359
2014-01-03,1,0.002167353992794694,0.0024499797013344546,-0.00815481489775642,0.0002729320155136577,0.9904166151923435
2014-01-07,1,0.002441948906200901,0.0027872811664954146,-0.007993609249315768,0.0,0.9906650745074005
2014-01-09,1,0.002394993099353446,0.0027168760384668044,-0.007993609249315768,0.00029994687570688894,0.9856137924794419
2014-01-13,1,0.0007235731401408363,0.0007712601134033855,-0.007993609249315768,0.000687352424515052,0.9870182730433479
2014-01-15,0,-9.108200491581394e-06,3.1585613454691806e-05,-0.005019168929260496,0.008644381531133744,0.9876450095882515
2014-01-17,-1,-0.0009945649088104252,-0.0008185559666641126,-0.004110181083296438,0.008644381531133744,0.9882929422211121
2014-01-22,-1,-0.0015675758953839374,-0.0013100741036652837,-0.004110181083296438,0.008644381531133744,0.9880492464618064
2014-01-24,-1,-0.0017825047657258415,-0.001493618064951289,-0.0029271265176964555,0.008644381531133744,0.9878898627654793
2014-01-28,-1,-0.0009716059121136237,-0.0008419545397336757,-0.004947767229922102,0.008644381531133744,0.9876720927190213
2014-01-30,-1,-0.00010240674882658759,-6.364119282075633e-05,-0.007993609249315768,0.006011470217456824,0.9885429963256791
2014-02-03,-1,-0.0002802257308746227,-0.00023488541533419472,-0.004250195110946532,0.0075453888342576405,0.9881760211694345
2014-02-05,-1,-0.000842487536206316,-0.0007104766490071821,-0.0017761043737170481,0.00902253410807468,0.9873656505645576
2014-02-07,1,0.0026620548116304873,0.003007946622628135,-0.0026492034970044,0.0075453888342576405,0.993040535613584
2014-02-11,1,0.0021264664071444835,0.002388944846211121,-0.0026492034970044,0.008826846530171139,0.9920602716221673
2014-02-13,1,0.0025988792323038386,0.0029025355990798707,-0.0026492034970044,0.008826846530171139,0.9921901866684498
2014-02-18,1,0.002676043661328689,0.0029791652536899586,-0.003761859043056362,0.009146473242381853,0.9916306444450742
2014-02-20,1,0.0021969405952968735,0.002440536739340265,-0.0036568817487046637,0.009146473242381853,0.9918959567154403
2014-02-24,1,0.001865493313309386,0.002027234632086564,-0.006265561005470394,0.009146473242381853,0.9909123227077474
2014-02-26,1,0.0015043308366975107,0.0016254089794703517,-0.005808438986924099,0.009146473242381853,0.9914289434238908
2014-02-28,1,0.0013617109691340184,0.0014683040357737513,-0.005808438986924099,0.00976929720354409,0.990890999814366
2014-03-04,1,0.0012963491955931164,0.0013368516441816226,-0.005808438986924099,0.010145525452951906,0.9910031736912485
2014-03-06,1,0.0024898294986834663,0.0027538393146642067,-0.006265561005470394,0.009182234469833463,0.9905111269280578
2014-03-10,1,0.003103215062723659,0.003523968849014681,-0.007729808400951702,0.007864814854060842,0.988806551391279
2014-03-12,1,0.00295159771862661,0.003301021819147998,-0.006265561005470394,0.007864814854060842,0.9899136693039504
2014-03-14,1,0.003576708292992226,0.004029645404609026,-0.014595047096353207,0.004926804990536597,0.9880910167251807
2014-03-18,1,0.0035797695260410206,0.004028849125796525,-0.014595047096353207,0.004926804990536597,0.9879783657157687
2014-03-20,1,0.002986263038420491,0.003324145715220813,-0.014595047096353207,0.01003347093193984,0.9875888551717352
2014-03-24,1,0.002295713003917718,0.0025362234685753584,-0.010755041583140109,0.010544422191282267,0.9883357259072258
2014-03-26,1,0.0017004467005500609,0.0017904607787235707,-0.01430411624790092,0.010544422191282267,0.9875144991538393
2014-03-28,1,0.001452368717139585,0.0015129991097430925,-0.010018787794505732,0.010544422191282267,0.9880669122511283
2014-04-01,1,0.0015634608399615773,0.00160735085258737,-0.010018787794505732,0.011083779008159812,0.987113460956826
2014-04-03,1,0.0010369845443066678,0.0010412359189299453,-0.007219186110014753,0.011083779008159812,0.9883542134051804
2014-04-07,-1,-0.00019734054819861552,-6.530502088606576e-05,-0.007219186110014753,0.011083779008159812,0.9890498533871713
2014-04-09,1,0.0006286734601356084,0.0006299065849854315,-0.009125644044676636,0.011083779008159812,0.9850352373764141
2014-04-11,-1,-0.000183917581102885,-0.00011922326874433075,-0.0059991162082260645,0.011083779008159812,0.9869553301458821
2014-04-15,-1,-0.0009633828744338982,-0.0007441518186903314,-0.007066366279272561,0.011083779008159812,0.987233778861323
2014-04-17,1,0.0002764049682626173,0.00031778314352092277,-0.008633855243771433,0.0026663163887353162,0.9872202145779384
2014-04-22,1,0.000543484599505485,0.0005530893255228115,-0.008633855243771433,0.005166151727694661,0.9865127603854631
2014-04-24,-1,-0.0003192322592722018,-0.00018160523717829138,-0.008633855243771433,0.005166151727694661,0.9867821642520681
2014-04-28,-1,-0.0005206647713337192,-0.0003749167589380001,-0.008633855243771433,0.008841331057283333,0.986811493505039
2014-04-30,1,0.0002865297211126027,0.00034663446981252316,-0.009895299533914282,0.0036311827509467754,0.9866888706547567
2014-05-02,1,3.2519844457560524e-05,0.00012770271474652942,-0.009895299533914282,0.0036311827509467754,0.9865098115847836
2014-05-06,-1,-0.0008188229003704521,-0.0006305499880920116,-0.008633855243771433,0.00655497881337973,0.9878144546141159
2014-05-08,1,0.0005619207446093931,0.0006419038696669453,-0.007830898643359667,0.00655497881337973,0.991910814801948
2014-05-12,1,0.00030245949310288376,0.000411545298989299,-0.007830898643359667,0.008171462747065228,0.9910885798119138
2014-05-14,1,6.49980301144497e-05,0.00017074754367503805,-0.005488901894373503,0.008171462747065228,0.9915700286553158
2014-05-16,1,0.0006657290007124662,0.0006821865904748107,-0.0019325076582952588,0.0073585860335308164,0.9925943096963389
2014-05-20,1,0.0013551957509645974,0.0014830813492297272,-0.0019325076582952588,0.0073585860335308164,0.9929921602206176
2014-05-22,1,0.0006861607246541766,0.000694992197013509,-0.0009641099716279076,0.008042504312586306,0.9932150309292266
2014-05-27,1,0.0006622114440198589,0.0006653355193264065,-0.0009641099716279076,0.008042504312586306,0.9931577307406934
2014-05-29,1,0.0011005010040633979,0.0011954942644605386,-0.0009641099716279076,0.006673379522297334,0.9940458712196779
2014-06-02,1,0.0008973097516837815,0.0009652529433740375,-0.0009218746296212612,0.008042504312586306,0.993423218860479
2014-06-04,1,0.0009451100035227447,0.0010145991669464952,-0.0009221071186625724,0.009753202007273382,0.9930661624915263
2014-06-06,1,0.0007739899121187299,0.0007853813694047581,-0.0015631276171221837,0.009081653985693432,0.9929169010471894
2014-06-10,1,0.0008844372387027289,0.000898436956237255,-0.003533584218707843,0.00902880910379357,0.9930309784769688
2014-06-12,1,0.00018890961496944122,0.00031666989034594763,-0.003533584218707843,0.00902880910379357,0.9931775801257969
2014-06-16,0,-4.87957242348827e-05,0.00012651735596905088,-0.003533584218707843,0.00902880910379357,0.9927338277471388
2014-06-18,1,0.00015580932478622789,0.000318372501362705,-0.0035488500349256866,0.00902880910379357,0.9920951291884296
2014-06-20,1,0.00018917377432425348,0.000350019761611401,-0.004190673780498876,0.00902880910379357,0.9915306527692219
2014-06-24,1,0.00037886634195971234,0.0004844175178015874,-0.0035488500349256866,0.00902880910379357,0.9914956687744484
2014-06-26,0,-8.483827596285809e-05,9.528546127921097e-05,-0.0035488500349256866,0.00902880910379357,0.9917215083189702
2014-06-30,1,0.0001532655790406288,0.00032257380799863034,-0.004190673780498876,0.00902880910379357,0.9911931976732625
2014-07-02,1,0.0020453265930313177,0.002245505679333789,-0.006735243865548422,0.008110124713145431,0.9906676676665596
2014-07-07,1,0.001884040121416754,0.00203449264764175,-0.006735243865548422,0.007643462935074756,0.9909401928914306
2014-07-09,1,0.001926668209147885,0.0021133679486534645,-0.006735243865548422,0.007643462935074756,0.9901975776731302
2014-07-11,1,0.001631227096522537,0.0017950656922559693,-0.009232593355229803,0.007643462935074756,0.9890155237593328
2014-07-15,1,0.0016419131222897155,0.0017818015715300316,-0.009232593355229803,0.008768670482512946,0.9889687782681357
2014-07-17,1,0.0013868978979294762,0.001493365046460523,-0.006735243865548422,0.009459831836729993,0.9895346849265534
2014-07-21,1,0.0013455697864278148,0.0014239902017917604,-0.005045669561258245,0.008076956472268563,0.9902967441512454
2014-07-23,1,0.0014746034890844063,0.001560429411278052,-0.009232593355229803,0.007873850053147105,0.9901894146518583
2014-07-25,1,0.0014252352998009189,0.0015264044348892063,-0.0056538231435900145,0.007873850053147105,0.990531082945859
2014-07-29,1,0.001556844781841917,0.0017029611581646233,-0.0038623033329569303,0.0065814837049113645,0.9918284870592214
2014-07-31,1,0.00098373841584849,0.001058712726235169,-0.00193977135228026,0.0076374953399557756,0.9925132131969446
2014-08-04,1,0.0011152209526106571,0.0012308693538810045,-0.00193977135228026,0.00822683272372526,0.9922493744679478
2014-08-06,1,0.0016048160811793408,0.0018044777052844477,-0.00193977135228026,0.00822683272372526,0.9934762911556967
2014-08-08,1,0.0012662509947615097,0.0014251034559443897,-0.00193977135228026,0.008564125287517209,0.9940707172707541
2014-08-12,1,0.0013470571215323812,0.001504537398555998,-0.0038623033329569303,0.00822683272372526,0.9941983680514312
2014-08-14,1,0.0014529326765073314,0.0015984999930978142,-0.004280354623287331,0.007130313932542905,0.9940229887832507
2014-08-18,1,0.0015621639538839155,0.0017192419678857354,-0.005751647749904823,0.007130313932542905,0.9916782305085794
2014-08-20,1,0.00124766920978817,0.0013502284656385197,-0.005751647749904823,0.007901291156987997,0.9898906728982083
2014-08-22,1,0.0013357055296475213,0.001462070770396715,-0.006133626165799007,0.007901291156987997,0.9897318423598183
2014-08-26,1,0.0009021414476973131,0.000939631890330675,-0.006665976434862993,0.007901291156987997,0.9888542074795024
2014-08-28,1,0.0005969055579256603,0.000648933043179182,-0.007367798683154037,0.00822683272372526,0.9885009128878587
2014-09-02,1,0.0011081467172020364,0.001140284538286977,-0.011072097418339278,0.002732819715544918,0.9879716175740183
2014-09-04,1,0.0004491961212868829,0.0005466928311000869,-0.011215036215499347,0.002352529486700246,0.9879950563833673
2014-09-08,1,0.00037401555307128425,0.00048533218656399493,-0.011215036215499347,0.002352529486700246,0.9879422866764727
2014-09-10,1,0.0006234042352848512,0.0006751453920953395,-0.016725683547245785,0.002352529486700246,0.985823561398277
2014-09-12,1,0.0002230730880257655,0.0003236324437596228,-0.02035436302174853,-0.0018929857667577472,0.9824370300975004
2014-09-16,-1,-0.0016159021928610117,-0.001261543169964626,-0.016725683547245785,-0.0018929857667577472,0.9845107464194601
2014-09-18,-1,-0.0025408741463298617,-0.0020542459361684072,-0.015624762178733653,0.004578307858947426,0.9851474579715745
2014-09-22,-1,-0.002205412975226418,-0.0017997726257854697,-0.015624762178733653,0.003651554371371656,0.9849895493323378
2014-09-24,-1,-0.0030303262077445506,-0.0025200139784383457,-0.012425449075396671,0.012173116094017368,0.9847044568899977
2014-09-26,-1,-0.003639502874282803,-0.003008732310405663,-0.012425449075396671,0.007934236130854052,0.9852944623905097
2014-09-30,-1,-0.003453000162903624,-0.0029394414246343738,-0.010646389594303071,0.013084439536784271,0.984895847165241
2014-10-02,-1,-0.004247476907436078,-0.003630393878204314,-0.010646389594303071,0.014491986391045542,0.9836213919254931
2014-10-06,-1,-0.004432234878604916,-0.003754383074705873,-0.010646389594303071,0.01788205597952744,0.9824232610145828
2014-10-08,-1,-0.004070968815903624,-0.0034509901368095543,-0.010646389594303071,0.01788205597952744,0.9818808860475583
2014-10-10,-1,-0.00606292261950637,-0.0052632738391295685,-0.010008980787248696,0.01788205597952744,0.9850943177690646
2014-10-14,-1,-0.007099611628993328,-0.006160226153076136,-0.009512346441938336,0.01788205597952744,0.9842603505190004
2014-10-16,-1,-0.0057359457341989014,-0.004960405662319425,-0.009748128935621037,0.014192257829729193,0.9868528447916869
2014-10-20,-1,-0.005760065644762345,-0.0049957716469025025,-0.01006145265290817,0.014192257829729193,0.9867286029382624
2014-10-22,-1,-0.00550196417367111,-0.004760652789539247,-0.010412564565468949,0.01274743479594834,0.9868619967164302
2014-10-24,-1,-0.005329335932658932,-0.004614666168017197,-0.010412564565468949,0.014192257829729193,0.9832392266260199
2014-10-28,-1,-0.0049777774917108865,-0.0043207536869643995,-0.010412564565468949,0.01788205597952744,0.9825744540395663
2014-10-30,-1,-0.0038031000122510875,-0.003325647979827538,-0.010412564565468949,0.014192257829729193,0.983968311532233
2014-11-03,-1,-0.0026600324421425076,-0.002307972055442811,-0.011850029103942205,0.005680933118164971,0.984488057473161
2014-11-05,-1,-0.001613493038317133,-0.0013931157250772694,-0.010412564565468949,0.007874314912323318,0.985815314055795
2014-11-07,-1,-0.0014970599227878223,-0.0013207721958571584,-0.010412564565468949,0.007874314912323318,0.9845674724967906
2014-11-11,-1,-0.0013685956777059038,-0.0012230427190265186,-0.010412564565468949,0.005680933118164971,0.9846896032416151
2014-11-13,-1,-0.0018828388213204107,-0.0016712970229673682,-0.01425761846988626,0.005680933118164971,0.9839099735356255
2014-11-17,-1,-0.0025500071224143907,-0.002255484680570428,-0.021721466345055795,0.006057826173700025,0.9828687599643858
2014-11-19,-1,-0.0025740315172149003,-0.0023165574861350275,-0.011251335219267706,0.013866712550997775,0.9822977656374733
2014-11-21,1,0.0003058105775281061,0.00041099731500595385,-0.011251335219267706,0.011234490316511601,0.9863647152356831
2014-11-25,1,0.0012178341645181087,0.0014550192240541677,-0.011251335219267706,0.007142393719531416,0.9873762432511737
2014-11-28,1,0.0010809668131491453,0.0012955784277182796,-0.010898538714574583,0.007142393719531416,0.9876211610166081
2014-12-02,1,0.00035672897743758,0.0004707198244616757,-0.006250619422585054,0.007142393719531416,0.9884613729839582
2014-12-04,1,0.001501468280504983,0.0017932649797130417,-0.008967851165575228,0.00406279780855752,0.9889923667636403
2014-12-08,1,0.0002451000891015644,0.0003594046503040874,-0.015092105816543572,0.00406279780855752,0.9891094757849384
2014-12-10,-1,-0.00015103968233522915,-6.719396281247266e-05,-0.014977605213847296,0.005956417833463612,0.9890344986376913
2014-12-12,-1,-0.0006992963088017089,-0.0006570544347350644,-0.014408830956823642,0.005956417833463612,0.9896602325181852
2014-12-16,-1,-0.001527231527785615,-0.0014636923885367127,-0.014408830956823642,0.0069410067631968005,0.9896841088249065
2014-12-18,-1,-0.0002700709730430533,-0.00018705652036376478,-0.014408830956823642,0.00406279780855752,0.9866169633672196
2014-12-22,-1,-0.00020065261014201583,-0.0001478567749566164,-0.014408830956823642,0.00406279780855752,0.9857576835423704
2014-12-24,1,8.896641913612815e-05,0.00020041333915263933,-0.014408830956823642,0.004880089923059546,0.9855441278646524
2014-12-29,1,0.0004226810146643683,0.00061474793859849,-0.01636864541734037,0.009343354241462475,0.9844468803590184
2014-12-31,0,-7.266276056236925e-05,2.609613979966493e-05,-0.01636864541734037,0.009343354241462475,0.9845239126941068
2015-01-05,-1,-0.00022423327009257797,-0.00011935581951538489,-0.01636864541734037,0.01022760231744346,0.9834824546968787
2015-01-07,-1,-0.0009238642065221923,-0.0008668956197953442,-0.006066873884785536,0.011738693414711657,0.9842588524693122
2015-01-09,-1,-0.001026738297698236,-0.000980012985823143,-0.003858147132386516,0.01345307212234331,0.9847996390662048
2015-01-13,-1,-0.00153873359236849,-0.0015133809795213173,-0.001902630130077385,0.014719267798494848,0.9839044337919921
2015-01-15,-1,-0.0013125044442186698,-0.001299988140024299,0.0018151286378721857,0.01345307212234331,0.9848431878841003
2015-01-20,1,0.0013745061936078714,0.0017376871984687882,0.0013940138976965965,0.01345307212234331,0.989945485304308
2015-01-22,1,0.00225173164077031,0.002761255376698935,-0.0011131133028966429,0.012590104702538697,0.9915242400937211
2015-01-26,1,0.002963739287912376,0.0036007650264610414,-0.0011131133028966429,0.012590104702538697,0.9919497754596842
2015-01-28,1,0.00287162894369648,0.0035044961702380105,-0.0032241178481615214,0.012590104702538697,0.992579393377859
2015-01-30,1,0.0033581942645930004,0.004065471284198296,-0.0032241178481615214,0.012590104702538697,0.9923385763936027
2015-02-03,1,0.0044951176130347825,0.005353663507764514,-0.003515405364262062,0.011256112481295207,0.992526202011796
2015-02-05,1,0.004489820351289685,0.005317786353569146,-0.003515405364262062,0.011256112481295207,0.9922815203616995
2015-02-09,1,0.0038960546218648967,0.004550904086246395,-0.0040555823149464095,0.010849758678690063,0.9913824176266316
2015-02-11,1,0.004334565232894626,0.005011072095087737,-0.0040555823149464095,0.0073083746034440745,0.9918259797828174
2015-02-13,1,0.004791420953725183,0.005519569811344695,-0.0040555823149464095,0.007521836234948707,0.9917926447029748
2015-02-18,1,0.004727387332706317,0.005404255686450401,-0.0040555823149464095,0.007521836234948707,0.9916330928340963
2015-02-20,1,0.004559481366423653,0.005213790754465716,-0.005129481838036205,0.008392296662249993,0.9909385507519288
2015-02-24,1,0.004380689517242669,0.0049683429638288385,-0.006678525007080572,0.008392296662249993,0.990217569771272
2015-02-26,1,0.003768768842622592,0.004237640230504733,-0.00950754554189581,0.008392296662249993,0.9893362871862208
2015-03-02,1,0.0036822341852613535,0.004154787007908773,-0.00950754554189581,0.01098332834630975,0.9892084974858844
2015-03-04,1,0.0030974108340046623,0.003489053675019779,-0.010835176483940934,0.01098332834630975,0.9887047233470294
2015-03-06,1,0.001575847189826578,0.001605898315708767,-0.010835176483940934,0.009730961146948585,0.98955096847892
2015-03-10,1,0.0004610226964770984,0.0006079832897062686,-0.009830672997645964,0.008922401223134901,0.9908143607901124
2015-03-12,1,0.0010414800604586557,0.0010623876444486305,-0.009830672997645964,0.008922401223134901,0.9907599081143004
2015-03-16,1,0.0012259611437727038,0.0012392642053733994,-0.009830672997645964,0.008598794171044526,0.9909095650816067
2015-03-18,1,0.0016315841305354355,0.0016788623593778835,-0.009830672997645964,0.008598794171044526,0.9913768440446629
2015-03-20,1,0.0013830826493331709,0.001401945421297337,-0.009830672997645964,0.008598794171044526,0.9914704593590921
2015-03-24,1,0.0009731978383088519,0.0010064467580093285,-0.007002054773744149,0.00987770504128334,0.9913119380530714
2015-03-26,1,0.00023382988617291642,0.0003291354521058732,-0.0014153314868685448,0.011157302249193953,0.9918099195448882
2015-03-30,1,0.001286847574775935,0.0013687357891194862,-0.006876556810746051,0.008598794171044526,0.992163872662684
2015-04-01,1,0.0010520883121505897,0.0011313532287151567,-0.006876556810746051,0.008598794171044526,0.992013289391778
2015-04-06,1,0.0011376392266356254,0.0012092158455417829,-0.006876556810746051,0.008777903722742807,0.9917567053073437
2015-04-08,1,0.0013584062730339311,0.0014537294676615952,-0.009527175992806346,0.01032628110300483,0.9902280600579796
2015-04-10,1,0.0010718605062055206,0.0010951927388573976,-0.009527175992806346,0.012043649397255803,0.9866705113464912
2015-04-14,1,0.0004921980853777188,0.0005793137700716223,-0.010887239957572958,0.012043649397255803,0.9862634784799977
2015-04-16,1,0.0003905850563467351,0.00052191713640813,-0.010887239957572958,0.01223558032654685,0.9858731886958431
2015-04-20,1,0.0015469196619795084,0.0016982624047871702,-0.009527175992806346,0.011659292083363863,0.9869233426823577
2015-04-22,1,0.0023577815618698794,0.002659879471943981,-0.009527175992806346,0.010714560764064868,0.9873047338324262
2015-04-24,1,0.0027704214975513442,0.0031170378914650403,-0.009527175992806346,0.010208284805752919,0.9871825912640061
2015-04-28,1,0.0017062042921444354,0.0018671580783632513,-0.005054933907381767,0.010899009722227508,0.9876715775045074
2015-04-30,1,0.0012794323537322534,0.00143277932782576,-0.003615989811243432,0.010899009722227508,0.9881750200370792
2015-05-04,1,0.0010413325927040764,0.0010954144792345865,-0.003615989811243432,0.010899009722227508,0.9883922041566606
2015-05-06,1,0.000630501003251114,0.0006630077555661161,-0.003615989811243432,0.010899009722227508,0.9890861482883347
2015-05-08,1,0.002286470107230681,0.0024077946962512585,-0.005054933907381767,0.006639866248160325,0.9919942291499447
2015-05-12,1,0.0011331967402964163,0.0012088072311268586,-0.003615989811243432,0.006639866248160325,0.992875449834964
2015-05-14,1,0.0021276562378657123,0.0022261701694463202,-0.005054933907381767,0.005224198085803701,0.9933467505360397
2015-05-18,1,0.0023692280909795626,0.002515404787934383,-0.005766443545772127,0.005224198085803701,0.9917826070291889
2015-05-20,1,0.0025516732246768908,0.0027183958219966758,-0.005766443545772127,0.0053266024858976725,0.9916469553528479
2015-05-22,1,0.0020816462607136004,0.0021785004042199686,-0.005839048473796571,0.0061942295143851585,0.9916307175671979
2015-05-27,1,0.001961100614060875,0.002016311398882238,-0.005839048473796571,0.006039436112487452,0.9919988260118237
2015-05-29,1,0.0009344732255883433,0.0010347390674467416,-0.005839048473796571,0.006039436112487452,0.9920088853953843
2015-06-02,1,0.00024965635564736736,0.000497632095720532,-0.010658737195579242,0.0058237033497747686,0.9907942907062518
2015-06-04,0,-9.281885548555907e-06,0.00029147581627933863,-0.008740691930820974,0.0058237033497747686,0.9909060468150616
2015-06-08,-1,-0.000969018509332672,-0.0005190483638502904,-0.005839048473796571,0.00782312182127771,0.9908525971388163
2015-06-10,-1,-0.0012725170922785536,-0.0007611799816699995,-0.008377385436601756,0.008311547701806365,0.9899109013198304
2015-06-12,1,8.940219864465935e-05,0.00035062038155460687,-0.006373266736302126,0.009181024616992904,0.9890282404496865
2015-06-16,-1,-0.0007379251629223351,-0.00040864962535787244,-0.006373266736302126,0.009181024616992904,0.9900969909698395
2015-06-18,0,-7.985320297157798e-05,0.00015702334255959707,-0.006373266736302126,0.00888545677162144,0.9907331525287754
2015-06-22,-1,-0.00038358880036247804,-8.093378510424154e-05,-0.007066434267804159,0.009181024616992904,0.9902900985546227
2015-06-24,0,-5.680903379444262e-05,0.00019413157822766557,-0.007066434267804159,0.009181024616992904,0.9904055588693814
2015-06-26,0,-6.900532484526746e-05,0.00012100459243642909,-0.007066434267804159,0.009255758962023741,0.9896333792492173
2015-06-30,-1,-0.0014462776312127354,-0.0010956199716491755,-0.004374269666353933,0.009575468660681156,0.9902946829195867
2015-07-02,-1,-0.0006002962600050235,-0.0003724701890323661,-0.005548320972938631,0.009255758962023741,0.991060860145059
2015-07-07,1,0.000564110491556758,0.0006075497437387583,-0.007066434267804159,0.009177376918539079,0.9911700710074763
2015-07-09,1,0.0008248691186264162,0.0008620774995303797,-0.005548320972938631,0.009177376918539079,0.9874380607836932
2015-07-13,1,0.0018022464013540814,0.0019883557323976484,-0.005548320972938631,0.006049857143514166,0.9888313943940228
2015-07-15,1,0.0015126504440759378,0.0016487543419162825,-0.005548320972938631,0.0061651544001411745,0.9887332339264052
2015-07-17,1,0.0016274077720881655,0.001791882567137608,-0.0059432207407678385,0.006728959013999588,0.9883632765369694
2015-07-21,1,0.001747823116905405,0.001908535421355234,-0.005497650459072553,0.006728959013999588,0.9883024763115229
2015-07-23,1,0.0014145948580528876,0.0015187617973056134,-0.008750321203603733,0.006728959013999588,0.9864713621058686
2015-07-27,1,0.0007726098622718886,0.0007937355683083862,-0.010387785856889535,0.0060656627646898656,0.9846240123595558
2015-07-29,1,0.001014316490326363,0.0010539309923311283,-0.010387785856889535,0.0060656627646898656,0.9832151587206485
2015-07-31,1,0.0004941868458393996,0.0005505197360934886,-0.008777456410139337,0.01067502911257626,0.9805907623065043
2015-08-04,1,0.0002465902890680868,0.00032605956709182046,-0.014159343558421772,0.01067502911257626,0.9790769760853704
2015-08-06,1,0.002836874627056803,0.003118890985475282,-0.014159343558421772,0.010656809953593801,0.9825487569929808
2015-08-10,1,0.0028749254349978793,0.003184658223868124,-0.018159801749905925,0.019133820624272328,0.9805190779782413
2015-08-12,1,0.002557311262338219,0.0028087268213302305,-0.018159801749905925,0.019133820624272328,0.9805253525750849
2015-08-14,1,0.002296836023943697,0.0024923755060699258,-0.018159801749905925,0.019133820624272328,0.9810774188249954
2015-08-18,1,0.0021556165869856037,0.002282494183977761,-0.018159801749905925,0.021011873669638793,0.9803116422085995
2015-08-20,1,0.0012827524354767695,0.001321768680929695,-0.009046771499983668,0.021011873669638793,0.9815872740333702
2015-08-24,-1,-0.001022265608625802,-0.0007501788888474161,-0.0002990591345336498,0.021011873669638793,0.9831641340067119
2015-08-26,1,0.00017923900353063215,0.0003013134632854781,-0.0036452391764360483,0.018779008950251447,0.9852021959853479
2015-08-28,1,0.0019716389161744657,0.002082754334902741,-0.004642230776611913,0.01558355298536699,0.9870678565596328
2015-09-01,1,0.000613822669659223,0.0006833614120234974,-0.0036452391764360483,0.01558355298536699,0.9876235600653394
2015-09-03,1,0.0011444838042818676,0.0011582236860361225,-0.0036452391764360483,0.01558355298536699,0.9881041720928648
2015-09-08,1,0.0014198517255014935,0.0014488379272329668,-0.002280023855256383,0.01511106147607865,0.989504327632776
2015-09-10,1,0.0013488453859675726,0.0013551340073008576,-0.002280023855256383,0.01511106147607865,0.9899982646758086
2015-09-14,1,0.0015436919209820127,0.0015954374484906894,-0.002280023855256383,0.015979852037075862,0.9890126231849979
2015-09-16,1,0.00271761396405124,0.0029461164375161417,-0.002280023855256383,0.013814717119961456,0.9908613003181402
2015-09-18,1,0.002743952849797393,0.002936881263282298,-0.002280023855256383,0.014104313973627193,0.9900788318877729
2015-09-22,1,0.002365463003377869,0.0024589386754253284,-0.002435396002694076,0.012185730550767859,0.9900427883321543
2015-09-24,1,0.002396946579649317,0.0025100325224367698,-0.0013562550936649861,0.015979852037075862,0.9891215904573962
2015-09-28,1,0.002070062878599499,0.002127869129024431,-0.0007254990435801985,0.012185730550767859,0.9908523973916143
2015-09-30,1,0.0023987639683775933,0.002620407383823595,-0.00014326974849013414,0.012576562847601377,0.9918018374399873
2015-10-02,1,0.002432650552647872,0.002628390508140119,-0.0013562550936649861,0.01107699164045671,0.9916905692045962
2015-10-06,1,0.002864956193143659,0.0031425572041898463,-0.002253572816966808,0.01107699164045671,0.990576833514021
2015-10-08,1,0.0031166849319925914,0.003420604727405215,-0.0007254990435801985,0.012576562847601377,0.9894101528995747
2015-10-12,1,0.004086269906588344,0.004525253999712254,-0.005742860838792199,0.01107699164045671,0.9857295190085791
2015-10-14,1,0.004176272617054158,0.004598678759557728,-0.005828342442381663,0.013843034755052708,0.9846573467948635
2015-10-16,1,0.005032988039789455,0.005574730709923465,-0.006985019901869568,0.011782807717164867,0.9844873166004932
2015-10-20,1,0.004222822429112851,0.004617210740673285,-0.005828342442381663,0.014787986094676624,0.9839176080386098
2015-10-22,1,0.005019529017552774,0.005524432025613901,-0.005828342442381663,0.014736849346429302,0.9845171628689471
2015-10-26,1,0.004988425107549768,0.005489079434058221,-0.005828342442381663,0.015323427162913428,0.9839859717543944
2015-10-28,1,0.0048744564363442265,0.005332250385316955,-0.006985019901869568,0.015323427162913428,0.9833461850099885
2015-10-30,1,0.004187354607303833,0.004547594616229129,-0.005494507558412834,0.015323427162913428,0.9839002773637087
2015-11-03,1,0.004768146561771429,0.005185340830793887,-0.005089551896651129,0.015323427162913428,0.9845952034184049
2015-11-05,1,0.005338487917933562,0.005766552612395026,-0.007184122042032102,0.015323427162913428,0.9835933611636042
2015-11-09,1,0.0026213457667908506,0.0027029886212633575,-0.004980237082869077,0.018178921125641623,0.9868560416368493
2015-11-11,1,0.0028771410275957397,0.002986215963343814,-0.005217497570362251,0.014461694133010348,0.986713396780522
2015-11-13,1,0.0027250897839371656,0.0028189425209632123,-0.005217497570362251,0.01795832255689154,0.9854561573387698
2015-11-17,1,0.003492892336629062,0.003646563779413845,-0.005217497570362251,0.017927301096096977,0.9861086302426526
2015-11-19,1,0.003360321747889284,0.00341424070606293,-0.00907610957742722,0.014461694133010348,0.9856540324079607
2015-11-23,1,0.003527812698256687,0.0036215072821052952,-0.00907610957742722,0.014016716524557148,0.9859370065038999
2015-11-25,1,0.003318135489741443,0.0034024387174558506,-0.00886253138296351,0.014016716524557148,0.9864250292897238
2015-11-30,1,0.003362033775033652,0.0034412103977958675,-0.00886253138296351,0.01489814923299907,0.9864059541232577
2015-12-02,1,0.004065508940384566,0.004278213967665827,-0.009649919447307222,0.013210370236977324,0.9863319974468534
2015-12-04,1,0.004055481143759662,0.004243396491835244,-0.010907780235042505,0.012328211574168219,0.9865307339509322
2015-12-08,1,0.0041178225060361645,0.004296627536143202,-0.013102941063368977,0.00829687462571181,0.986040545158919
2015-12-10,1,0.003096203772475341,0.0031506171265842558,-0.013102941063368977,0.012328211574168219,0.9864987432995169
2015-12-14,1,0.002274904919635203,0.002347727558581916,-0.013102941063368977,0.012328211574168219,0.9849513009103964
2015-12-16,1,0.0028081094899786796,0.002865994301307555,-0.013914962972774676,0.00829687462571181,0.9847243051518175
2015-12-18,1,0.0019034491602843194,0.0020479653209252873,-0.013914962972774676,0.00829687462571181,0.9851868846176909
2015-12-22,1,0.0019590032054294135,0.0021204329865681607,-0.013914962972774676,0.008656571948710253,0.9837984758589035
2015-12-24,1,0.0011031031233902726,0.001377605210636965,-0.014460664542782201,0.014024211156802614,0.982172245850992
2015-12-29,1,0.0035073231785734036,0.0036600483023494597,-0.016144905977754625,0.008656571948710253,0.979705258481608
2015-12-31,1,0.002516271824604629,0.002528931966329195,-0.014460664542782201,0.014373900309092788,0.9796843605490846
2016-01-05,1,0.000481426754076787,0.0007224817534794588,-0.014460664542782201,0.014373900309092788,0.98014517941638
2016-01-07,-1,-0.0007122948340573464,-0.00031876000891936,-0.03355789965751239,0.014373900309092788,0.9778425710905653
2016-01-11,-1,-0.0006323950489411463,-0.00026802358701821793,-0.03504012833935057,0.009028791697205968,0.9762364715730403
2016-01-13,-1,-0.003223023883577758,-0.002478720757767793,-0.03355789965751239,0.013076640981052741,0.9781445743195648
2016-01-15,-1,-0.004736058186494934,-0.0037092971012524455,-0.03504012833935057,0.013307079859591607,0.9739910982968634
2016-01-20,-1,-0.004428879988637332,-0.0034957214657203796,-0.03504012833935057,0.013307079859591607,0.9738502761619516
2016-01-22,-1,-0.0020092095712285684,-0.0014569167520814927,-0.03504012833935057,0.019929824873536204,0.9709286226049322
2016-01-26,-1,-0.004052390259239318,-0.0031609608588468044,-0.03504012833935057,0.03083442725870297,0.9709224344065013
2016-01-28,-1,-0.005533437695102298,-0.0045000598528603265,-0.02770460336840016,0.03083442725870297,0.9710812768168554
2016-02-01,-1,-0.004586430541231501,-0.0036688700478373425,-0.02770460336840016,0.022400301750020245,0.971607193157491
2016-02-03,-1,-0.006439940974184259,-0.005314740454177715,-0.020782039573206026,0.022400301750020245,0.9728217581931957
2016-02-05,-1,-0.009667753020067497,-0.008172142370505946,-0.013805261361358198,0.022400301750020245,0.9752512618340778
2016-02-09,-1,-0.01087648593787528,-0.009325362662491352,-0.011178271684372024,0.022400301750020245,0.9770448006227969
2016-02-11,-1,-0.008057840543899323,-0.0068718762016795245,-0.011178271684372024,0.017597317449104463,0.9797297593058032
2016-02-16,-1,-0.009063010025558517,-0.007781037496953482,-0.007791404841811516,0.017597317449104463,0.983081756548576
2016-02-18,-1,-0.009698579787421802,-0.008348918535654807,-0.006774392410949222,0.017597317449104463,0.982672714768492
2016-02-22,-1,-0.006137729038703042,-0.005195347615717345,-0.007791404841811516,0.010317707718688722,0.9888451945071806
2016-02-24,-1,-0.006261021362845328,-0.005275826910358772,-0.006774392410949222,0.010317707718688722,0.9902489085301922
2016-02-26,-1,-0.005603500140379516,-0.004730526255464286,-0.006774392410949222,0.008866105334081241,0.9914098231171967
2016-03-01,-1,-0.004956888431757657,-0.004183223054830992,-0.00652504553335755,0.010317707718688722,0.9892020336480988
2016-03-03,-1,-0.005982372130626477,-0.005077813849154346,-0.00652504553335755,0.013379647198204045,0.9884192888514244
2016-03-07,-1,-0.00604675329685928,-0.005186170037616199,-0.0059598281350859515,0.013379647198204045,0.9881459657890743
2016-03-09,-1,-0.005803588191680299,-0.004999540344579862,-0.006033591312547732,0.013379647198204045,0.9874176736533072
2016-03-11,-1,-0.0040488362672036855,-0.0035182022476714773,-0.007902281387755755,0.015818445382684,0.9874870546327876
2016-03-15,-1,-0.0030562096708908327,-0.0026221671247741757,-0.007902281387755755,0.015818445382684,0.9864643993248919
2016-03-17,-1,-0.002206948364238833,-0.001925982605685966,-0.01014368663690493,0.015818445382684,0.9865791836252715
2016-03-21,-1,-0.0027596276939685113,-0.0024231495865499318,-0.007767598057867328,0.01662783290327732,0.9856647009876878
2016-03-23,-1,-0.0017490924369399196,-0.0015544180888961987,-0.007767598057867328,0.01662783290327732,0.9864745878964721
2016-03-28,-1,-0.0025708600529790373,-0.002253900165574069,-0.007767598057867328,0.01662783290327732,0.9858396914756201
2016-03-30,1,0.00043515561701183307,0.0005390309927504676,-0.011102342136562509,0.008379246297413209,0.9870686709622769
2016-04-01,1,0.0016105662745938415,0.0019599429112144105,-0.014053822503784716,0.008379246297413209,0.9866769017119431
2016-04-05,-1,-0.0008408200554945882,-0.000699827425325174,-0.01361243986934316,0.008379246297413209,0.9870056239251608
2016-04-07,-1,-0.0008438823003573,-0.0007291414345541106,-0.010702427105702132,0.01034286819369194,0.9870269755134875
2016-04-11,-1,-0.0007802640590242849,-0.0006752330207128452,-0.010702427105702132,0.010432079709999535,0.983588158970936
2016-04-13,1,0.0017049775529888091,0.0019987216206514852,-0.01361243986934316,0.010432079709999535,0.9843200976875078
2016-04-15,1,0.0016154788497152357,0.0019453471877161914,-0.01361243986934316,0.017205135855605395,0.9839767176446204
2016-04-19,1,0.002384968527540775,0.0028354067259968446,-0.014092277644750925,0.017205135855605395,0.9827004518466759
2016-04-21,1,0.0023529255594660855,0.0027949571613209595,-0.015862944929560776,0.017205135855605395,0.981678669094242
2016-04-25,1,0.002348114650590955,0.002813125748813757,-0.014610035819452784,0.017205135855605395,0.9822053334606997
2016-04-27,1,0.0022625883531519593,0.002757047451853233,-0.01361243986934316,0.01858994825215234,0.9820216687454183
2016-04-29,1,0.0026425932668749557,0.0032143803947161176,-0.008755078564769921,0.01858994825215234,0.9833983843614346
2016-05-03,1,0.002603610417105733,0.003196115306020638,-0.00924149248174094,0.01858994825215234,0.983096304391017
2016-05-05,1,0.0029967406331988557,0.0035969788676033483,-0.016007076164994073,0.01232420362446872,0.9826318108884122
2016-05-09,1,0.004872400429816117,0.005701372200626375,-0.00924149248174094,0.009855043653560233,0.9870912341789676
2016-05-11,1,0.005407374265915617,0.00636964201076402,-0.00331091747787269,0.009855043653560233,0.9883984897948045
2016-05-13,1,0.006073346800019886,0.007087561703894121,-0.00924149248174094,0.006899011013950341,0.987237860122509
2016-05-17,1,0.0062987260034550446,0.0073797389001264944,-0.004565689310208884,0.006899011013950341,0.9890001502137926
2016-05-19,1,0.005921583355496423,0.006938814469392762,-0.004565689310208884,0.007053313434719988,0.9883932101405914
2016-05-23,1,0.00612755512634849,0.0072035022058497345,-0.0024887117984725726,0.010103574177884947,0.9882701440856394
2016-05-25,1,0.006700138015010324,0.007807208367037552,-0.004978627896829622,0.010103574177884947,0.9886170891924027
2016-05-27,1,0.006104745127929676,0.007049459706970177,-0.016647834738734456,0.010103574177884947,0.9848053415658345
2016-06-01,1,0.005151896574401734,0.005924617782485705,-0.011590781244900965,0.015747890921555208,0.9846310377935475
2016-06-03,1,0.004366957116563931,0.005029497519060789,-0.004978627896829622,0.016579711262427656,0.9841809859950054
2016-06-07,1,0.003829608436290411,0.004351616867321963,-0.004978627896829622,0.016579711262427656,0.9840119416488753
2016-06-09,1,0.004177926329334457,0.004745300831884841,-0.004978627896829622,0.018878810188842327,0.9833594036806425
2016-06-13,1,0.0033282567870858513,0.0037690638895475307,-0.0023026058041162962,0.02105588968299877,0.9835249304590342
2016-06-15,1,0.004397819841724046,0.005041408157502007,-0.006829422959103005,0.01920659046028474,0.9835849493282187
2016-06-17,1,0.0038225559352744742,0.004354193115390513,-0.003765242985575575,0.01752392460810808,0.9850570928597621
2016-06-21,1,0.0034440129969480356,0.0038393127402493008,-0.006829422959103005,0.017252992884627852,0.9845311392549959
2016-06-23,1,0.003934449113048459,0.004438698524163582,-0.004072479688815522,0.01573451553659713,0.98543505129116
2016-06-27,1,0.0008758864805687059,0.000886504709141787,-0.0030646175382081533,0.02210011821515369,0.9867022873756425
2016-06-29,1,0.000793229833206016,0.0009224934722359319,-0.007853922432399574,0.011583575001968561,0.9875578099120402
2016-07-01,1,0.0007349901291268118,0.0009671944202892782,-0.007853922432399574,0.009449834965064758,0.9893746121732937
2016-07-06,1,0.002335221487366107,0.002368434593006982,-0.009212668085677875,0.008997555691043945,0.9886913101376494
2016-07-08,1,0.0022641035444610183,0.0023499027219315485,-0.009212668085677875,0.008997555691043945,0.9890952216383293
2016-07-12,1,0.0026378632359329275,0.002726261953433412,-0.009212668085677875,0.005180192111415186,0.9896217362481123
2016-07-14,1,0.003272601052622615,0.0034339526311671364,-0.006956100949502132,0.005922984062034914,0.9902303757892668
2016-07-18,1,0.003169533958585309,0.003328893534219578,-0.006956100949502132,0.005898286495535009,0.990132851764233
2016-07-20,1,0.0022911276063716877,0.002348554283191724,-0.006956100949502132,0.008984387320393231,0.9882023657589805
2016-07-22,1,0.0022637803816463915,0.002323859404608204,-0.006956100949502132,0.008984387320393231,0.9883194829643253
2016-07-26,1,0.0016888027421782933,0.0017499070218277043,-0.004739654572331015,0.008984387320393231,0.989898555462924
2016-07-28,0,-8.215023548356734e-05,0.00022184566592094157,-0.0029577829685096244,0.008984387320393231,0.9911920107388854
2016-08-01,-1,-0.000647596556646204,-0.00026074408621154857,-0.0016587424932324234,0.008984387320393231,0.9909021815724649
2016-08-03,0,-0.00022759204828982297,8.22591541460464e-05,-0.0016587424932324234,0.007967337288522808,0.9915964784386975
2016-08-05,1,0.0002775803990843691,0.0004869727503178541,0.0003037384340613919,0.009438632082383864,0.9909479016423408
2016-08-09,1,0.0006871813602151081,0.0008522099293734131,-0.0014965813069307322,0.009438632082383864,0.9909261392670339
2016-08-11,1,8.997608609590544e-05,0.0003617355069219663,-0.002130096458176078,0.009438632082383864,0.9899411436992154
2016-08-15,1,0.0002983657040421759,0.0005286048220552505,-0.001323901750028928,0.013345876034788826,0.9891720264489552
2016-08-17,-1,-0.0015765106835289636,-0.0010971064899848245,-0.001037258754440626,0.01357611135504287,0.9904729368817996
2016-08-19,-1,-0.0004810243266394141,-0.00022383449304732195,-0.002130096458176078,0.01357611135504287,0.990610539993306
2016-08-23,1,0.00010448817811815208,0.0002816469450767775,-0.002130096458176078,0.013032645876600859,0.9909298638573529
2016-08-25,0,-0.00023715781211640916,2.045387382081901e-05,-0.0034229381793273745,0.013032645876600859,0.9909920805324333
2016-08-29,-1,-0.00039629579009439666,-9.67280725546766e-05,-0.003639503859703719,0.013032645876600859,0.990707353882081
2016-08-31,-1,-0.0005723445073869662,-0.000247471715076372,-0.0034229381793273745,0.013032645876600859,0.9912021439442175
2016-09-02,1,0.0014166726444023643,0.0014284938778269833,-0.003639503859703719,0.00536199004403998,0.9921167353027968
2016-09-07,1,0.001283356658755201,0.0013452530169768254,-0.003639503859703719,0.00536199004403998,0.9927235362349318
2016-09-09,1,0.0005568751114855062,0.0006788851216854145,-0.003639503859703719,0.00536199004403998,0.9934708800052774
2016-09-13,1,0.0012109621303097004,0.0012648409570838147,-0.003988091363883975,0.0028342163824204908,0.9934558291606191
2016-09-15,1,0.0017168089635548613,0.0017322464962190318,-0.004071240748171627,0.0013581073315833767,0.9937232018173505
2016-09-19,1,0.0007607555446960353,0.000919928640191206,-0.0037274774922367387,0.0028342163824204908,0.9940178480584371
2016-09-21,1,0.0009246704787859508,0.0010621008004787493,-0.004071240748171627,0.0028342163824204908,0.9933821095249802
2016-09-23,1,0.00020625675525374478,0.0004533695967951079,-0.004071240748171627,0.006188248771584177,0.9931733981228088
2016-09-27,1,0.00025863983503723973,0.0004584612285068628,-0.004071240748171627,0.009303886664524579,0.9923554195945816
2016-09-29,1,0.0014734672256438075,0.0014879606179618852,-0.008874865078866022,0.009303886664524579,0.9906734828976023
2016-10-03,1,0.001160475493187616,0.0011930814070181665,-0.009049989352940548,0.009303886664524579,0.9903284663008476
2016-10-05,1,0.0018771338670422774,0.0019914323719056495,-0.009893521962029826,0.006228774065679387,0.989714155053717
2016-10-07,1,0.0011654517834902359,0.0011818653438336602,-0.01016277588657089,0.01054328553130921,0.9879890668927058
2016-10-11,1,5.5324738521669425e-05,0.0001727863849670017,-0.01016277588657089,0.01054328553130921,0.9886745055182451
2016-10-13,1,6.35399844738721e-05,0.00018422208741362354,-0.013976697235167732,0.006748742816536065,0.9865529056881404
2016-10-17,1,0.00079387000972243,0.0007978395621648071,-0.015021624371393545,0.006748742816536065,0.9841050580381088
2016-10-19,1,0.0010091241014619648,0.0010533015781424978,-0.015021624371393545,0.011590600476718923,0.9837558540848457
2016-10-21,1,0.0011163746603016337,0.0011394834603164318,-0.01739377614992669,0.013083584721735831,0.9813574250097655
2016-10-25,1,0.0009405406874189939,0.000978748089895886,-0.02392454843611715,0.003636405578908559,0.9812393640667042
2016-10-27,0,-1.7997075345930298e-05,0.000131419925315523,-0.02392454843611715,0.004670917974766347,0.9829222208467016
2016-10-31,-1,-0.00037015213982506657,-0.00019221032043589028,-0.02392454843611715,0.012444932632651654,0.9826249021023519
2016-11-02,-1,-0.0014457458398498028,-0.001096006556548011,-0.033417610737138156,0.012444932632651654,0.9803954412519158
2016-11-04,-1,-0.001897306018536435,-0.001521326505456757,-0.029297501917213233,0.012444932632651654,0.9817517410815878
2016-11-08,-1,-0.0026658573331530327,-0.0021878040359304316,-0.029297501917213233,0.016226947608521537,0.9807709288594314
2016-11-10,-1,-0.004392564486791314,-0.003734849757027198,-0.019068862070849103,0.016226947608521537,0.982019529501887
2016-11-14,-1,-0.005244974567791426,-0.004493818449104507,-0.005213387329593356,0.012444932632651654,0.9834452814444944
2016-11-16,-1,-0.005937463356452486,-0.004970104410096385,-0.015667666499569813,0.007685633973581148,0.9842623773455363
2016-11-18,-1,-0.005411141535803769,-0.004593272743159784,-0.014428701836572215,0.006224194559731146,0.9865707854617612
2016-11-22,-1,-0.005586678942211018,-0.004824106633864412,-0.004716095917030703,0.006224194559731146,0.9872146010524804
2016-11-25,-1,-0.004960874434272896,-0.004313209432447884,-0.01286411833836741,0.006224194559731146,0.9873071510200229
2016-11-29,-1,-0.0037439308181920414,-0.003274399277806102,-0.01286411833836741,0.005602703419875597,0.9887184001491265
2016-12-01,-1,-0.005153534480024566,-0.004580886272866596,-0.004588704452854498,0.005602703419875597,0.9902702449021066
2016-12-05,-1,-0.004452676955468262,-0.003934122933082248,-0.004588704452854498,0.006224194559731146,0.9901329395815669
2016-12-07,-1,-0.003228129661793148,-0.0028685670017503085,-0.004588704452854498,0.005796162687288307,0.9912089849124555
2016-12-09,-1,-0.004150912078874249,-0.0036559515250972206,-0.0034379286203473415,0.007685633973581148,0.9903935171794996
2016-12-13,-1,-0.0034973656429761945,-0.003084469887130098,-0.0034379286203473415,0.008772764430287102,0.9904063694912724
2016-12-15,-1,-0.0036093894008289275,-0.003193180274787621,-0.003203090472277034,0.007764354755606132,0.9912245412978866
2016-12-19,-1,-0.004490689607324276,-0.003921210292105043,-0.003203090472277034,0.007764354755606132,0.9913543134547967
2016-12-21,-1,-0.004238121598725948,-0.003692246251087968,-0.004834896933206734,0.006172564919442057,0.9915463855327212
2016-12-23,-1,-0.004323534372222893,-0.0037842279674322344,-0.003203090472277034,0.014706420431548984,0.9904743236753385
2016-12-28,-1,-0.004078249555728433,-0.0035791392513953714,-0.0028562864884405844,0.014706420431548984,0.990412866692481
2016-12-30,-1,-0.003906822803073018,-0.0034591338893202664,-0.001908037113449471,0.014882157670680705,0.9898998285159545
2017-01-04,-1,-0.0025991398201027954,-0.002309988142205806,-0.001908037113449471,0.012522000321900383,0.9919390243110452
2017-01-06,-1,-0.0019683451386213855,-0.0017628030387438617,-0.0028562864884405844,0.0077907749932572415,0.9923681133573081
2017-01-10,-1,-0.002418458782795562,-0.002095017328260545,-0.0037625935921326748,0.004990688946716032,0.9924214510449745
2017-01-12,-1,-0.001711563276860391,-0.0014731963224412633,-0.0037625935921326748,0.0077907749932572415,0.9879687663155181
2017-01-17,-1,-0.0011508807362380583,-0.001011931903586118,-0.00704483141423066,0.0077907749932572415,0.986059339255244
2017-01-19,-1,-0.0010325235185640615,-0.0009213735127419332,-0.005435278585504261,0.011278233890966556,0.9858653581219137
2017-01-23,-1,-0.0011163473636809445,-0.0010078205408020396,-0.002577131424106,0.011278233890966556,0.9864591786944061
2017-01-25,-1,-0.000195882848904511,-0.00019210820542915833,-0.003358108902893649,0.004990688946716032,0.9876286435063111
2017-01-27,1,0.00039431943854093004,0.0005355583620901007,-0.003358108902893649,0.007456042753181387,0.9872528404967218
2017-01-31,1,0.001067683388765259,0.0013222967925403885,-0.005454207789441234,0.007456042753181387,0.9851412986026371
2017-02-02,1,0.0009317054348144073,0.001128905048585491,-0.010160239793495462,0.008872519872846266,0.9845802681623671
2017-02-06,1,0.0011787863873222834,0.0014547867579483794,-0.005052115862482833,0.010598401569456248,0.9844487467929529
2017-02-08,1,0.0009564879044039255,0.0012504251577444498,-0.0026486785355291694,0.010893876264114737,0.9849387454052028
2017-02-10,1,0.003980801200199399,0.004659523161481119,-0.0026486785355291694,0.00939936032132785,0.9903358999317021
2017-02-14,1,0.0028735871423020225,0.003428209236238891,-0.0020907032117363443,0.00939936032132785,0.9924282993300239
2017-02-16,1,0.003054358955793911,0.003622398145466078,-0.0024291177105834946,0.008530356137042542,0.9926584576693839
2017-02-21,1,0.002998895149233734,0.0035548784586871105,-0.003352311249097162,0.008530356137042542,0.9917981878594656
2017-02-23,1,0.00290452162282784,0.0034510270161111287,-0.002693628774260138,0.009177795162222979,0.9920328274495992
2017-02-27,1,0.0032632480492931397,0.003853772166966387,-0.002693628774260138,0.008530356137042542,0.9922413078198619
2017-03-01,1,0.0043361824588952465,0.005086461288229352,-0.0001512341554932101,0.008530356137042542,0.9946655912595864
2017-03-03,1,0.004083421465802199,0.004776678151726889,-0.0001512341554932101,0.007991807399995545,0.9948141064412404
2017-03-07,1,0.004276656767182226,0.004954689921278838,-0.0042389298345725255,0.007136724170274232,0.9940662548887801
2017-03-09,1,0.004877358930345669,0.005643411075758707,-0.0042389298345725255,0.004278368955149897,0.9941173857879412
2017-03-13,1,0.005253997244364505,0.006083126316274506,-0.00658587383338792,0.004014583494687321,0.9931360071798456
2017-03-15,1,0.005170119094132711,0.005997491292740513,-0.00658587383338792,0.004014583494687321,0.9930614596904291
2017-03-17,1,0.005319219742923993,0.006193365190241243,-0.00658587383338792,0.00554114057011827,0.9930726024531609
2017-03-21,1,0.0049539405720404935,0.005799003984325601,-0.005036032502042538,0.007123041113413644,0.9945429986743504
2017-03-23,1,0.004769875845570654,0.005537760278880101,-0.005036032502042538,0.007123041113413644,0.9942871041146017
2017-03-27,1,0.004809204408389854,0.005558596381711231,-0.005036032502042538,0.007689513016550215,0.993503496531273
2017-03-29,1,0.004986684335271997,0.0057340034170378865,-0.005036032502042538,0.007648463845968451,0.9932029677837602
2017-03-31,1,0.005211030379517801,0.005959336379398272,-0.0023319915434768914,0.008039127987081996,0.9937908217487785
2017-04-04,1,0.004207103415323175,0.004785226028241631,-0.0004004095587223949,0.008039127987081996,0.994650873615779
2017-04-06,1,0.0032677630157983053,0.003607545237908914,-0.0004004095587223949,0.008817829362119198,0.9939237910021036
2017-04-10,1,0.002468198310986165,0.00265392585776496,0.0006117595041889327,0.009752641741741746,0.9939318614541166
2017-04-12,1,0.0025704776604523827,0.0028220110527588478,0.002229237998833835,0.010948724901035614,0.9932209777317842
2017-04-17,1,0.002262951302419338,0.0024447117860994577,0.003488660661176057,0.010948724901035614,0.9932746480840486
2017-04-19,1,0.0018186797327063718,0.0018860776014070278,0.002229237998833835,0.010948724901035614,0.9907828013975385
2017-04-21,1,0.002011163304008555,0.0020923258528766585,0.004240814600207434,0.01206073692270958,0.9902760452618153
2017-04-25,1,0.003116498248630113,0.0033629762286450223,0.004240814600207434,0.012237730280892853,0.9908015430205215
2017-04-27,1,0.002026872873587712,0.002038211271387793,0.004856273992446031,0.012521945688418204,0.9895523923731194
2017-05-01,1,0.002583833952657459,0.00268014301632728,0.004240814600207434,0.012521945688418204,0.9894475201388432
2017-05-03,1,0.002791074963163224,0.002952903378587536,0.004240814600207434,0.013364391426274288,0.9892731323056482
2017-05-05,1,0.002806219125283854,0.0029281258483665825,0.002263743797517436,0.012521945688418204,0.989819287704462
2017-05-09,1,0.0031650254640140816,0.0033497591968558544,0.0013005407521088778,0.012521945688418204,0.9898720935485921
2017-05-11,1,0.00333574661305534,0.0035149362097183674,0.0005842892894862215,0.012171976134906812,0.9890046650321056
2017-05-15,1,0.0033227770360212574,0.0034602715373749354,0.0002478166797498624,0.012521945688418204,0.9871759733407925
2017-05-17,1,0.001903950037030355,0.0019440585999199278,0.0005842892894862215,0.012521945688418204,0.9887759537700489
2017-05-19,1,0.0023446604121671283,0.002362839876608425,0.0002478166797498624,0.012171976134906812,0.9887834969275958
2017-05-23,1,0.005074199670969644,0.005376687027381591,-0.00046681637513361314,0.011681726195974454,0.9898058857882166
2017-05-25,1,0.00322333528535599,0.0032689945680328524,-0.002105017136862133,0.00898324416835185,0.9895963980013925
2017-05-30,1,0.0030665734929566334,0.0031413464881952452,-0.003023686707301387,0.00898324416835185,0.9886028114878944
2017-06-01,1,0.003466139490227806,0.003605739433564654,-0.005673053081291193,0.008838693512383658,0.9879104002956021
2017-06-05,1,0.003374725430956972,0.0035160125839754958,-0.014058015721174164,0.008838693512383658,0.9866152831943528
2017-06-07,1,0.0036895082792258453,0.003895920648231875,-0.014058015721174164,0.008838693512383658,0.985870514478295
2017-06-09,1,0.0020911613927239747,0.0021167391996284647,-0.010028491481829296,0.00906547104705286,0.9869140057696408
2017-06-13,1,0.0016399282470061206,0.0017306866138489412,-0.009155490497462756,0.00906547104705286,0.9859976338424292
2017-06-15,1,0.0017387790642676398,0.0018513787917885831,-0.009155490497462756,0.008838693512383658,0.986062918149532
2017-06-19,1,0.0026584836075243725,0.0026908172988618305,-0.009155490497462756,0.008838693512383658,0.9864173467451564
2017-06-21,1,0.0025426861217267335,0.0025472545215511804,-0.009155490497462756,0.008162986440333997,0.9865356743112963
2017-06-23,1,0.0023188401193145088,0.002326718488151696,-0.008655917685883759,0.00850790512212867,0.9870117719597834
2017-06-27,1,0.0008915938792611726,0.001067010552621497,-0.008111870261750233,0.010120449925770887,0.9874536278058569
2017-06-29,1,1.3790149141594218e-05,0.00032284412508573634,-0.008111870261750233,0.009707434656814888,0.9876879637324101
2017-07-03,-1,-0.0016436618588367708,-0.0010885086485130935,-0.005080226209474075,0.01095650079665995,0.987921384191009
2017-07-06,1,0.0007614633890941464,0.0008895724951817994,-0.005080226209474075,0.01095650079665995,0.9865593923962888
2017-07-10,1,0.0005972907583353639,0.0008290076951131556,-0.008111870261750233,0.008786588745758358,0.9862647236735635
2017-07-12,1,0.002183944493817179,0.002225449576980201,-0.008111870261750233,0.008139970212930973,0.9880681508379606
2017-07-14,1,0.0015993350514875277,0.0017208932577790002,-0.00978751207633006,0.008478316952829235,0.9874199980180576
2017-07-18,1,0.0014636576594469907,0.0016236710662275694,-0.00978751207633006,0.008478316952829235,0.9874603370076406
2017-07-20,1,0.001227034258063899,0.001399736425509661,-0.016137509133190637,0.009110839506816052,0.9859172046061446
2017-07-24,1,0.0018455950588012265,0.0018989298792975653,-0.016137509133190637,0.010133875760859393,0.985695239653435
2017-07-26,1,0.002206816709731794,0.0022270318709015097,-0.016137509133190637,0.010133875760859393,0.9852738097968885
2017-07-28,1,0.0016123310754447928,0.0016708288478221186,-0.013856523930936164,0.010133875760859393,0.9854047285790553
2017-08-01,1,0.0022757479391344445,0.0023300548797744207,-0.013856523930936164,0.010729768500075378,0.985389657283369
2017-08-03,1,0.003158755925604781,0.003332712303002621,-0.010145978122970887,0.010729768500075378,0.9862642020719485
2017-08-07,1,0.0020072797488622915,0.0020088451204559998,-0.0072987760115823235,0.010729768500075378,0.9876616392951647
2017-08-09,1,0.0009537520085185508,0.0010905616305449605,-0.0072987760115823235,0.012436559963874952,0.9866967480636233
2017-08-11,0,-0.00016643959232615362,0.00013973291295897605,-0.0072987760115823235,0.015867677379685714,0.9865522826058849
2017-08-15,1,0.0005745670162497809,0.0007812757799635453,-0.009405892069129364,0.012436559963874952,0.9867899029732417
2017-08-17,1,0.000150482290249176,0.0003971275228141474,-0.0072987760115823235,0.010729768500075378,0.9884594133948066
2017-08-21,1,0.000516875256117748,0.0006974509579245583,-0.009405892069129364,0.004945734843988693,0.9883364881851362
2017-08-23,1,0.001480046060709179,0.0015669994349904,-0.010907107876697629,0.004719699738925299,0.9889824031680767
2017-08-25,0,-8.27730934958845e-05,0.00022767360047324064,-0.010907107876697629,0.004719699738925299,0.989104203527752
2017-08-29,1,0.00030300252128321475,0.0005646190371373392,-0.010907107876697629,0.003967383525373978,0.9882734905778149
2017-08-31,1,0.001067530419566954,0.0012620493582068545,-0.010907107876697629,0.008031839375025955,0.9887677837114153
2017-09-05,1,0.00021495656675008673,0.0005356616221703495,-0.0126487047200017,0.008031839375025955,0.9885890532684937
2017-09-07,1,0.0004025592429896213,0.00070612987306685,-0.012461693667017087,0.007185686828213986,0.9897425316637808
2017-09-11,1,0.0004898202991264102,0.0007713814547917747,-0.012461693667017087,0.003685212802847146,0.9895870152127573
2017-09-13,0,-6.979569200186867e-05,0.0002602744855660058,-0.012461693667017087,0.005093080716277634,0.9900056844205365
2017-09-15,1,4.298497483182218e-05,0.00031842191251550656,-0.013115742246544049,0.007185686828213986,0.9889726451738888
2017-09-19,-1,-0.00040499050263819857,-8.634727337880957e-05,-0.013115742246544049,0.007185686828213986,0.9891915131420052
2017-09-21,-1,-0.00044851181564703284,-0.00014466559825415074,-0.007817319926679292,0.007185686828213986,0.9898574975340573
2017-09-25,-1,-0.001800385579555479,-0.001335099763979053,-0.007817319926679292,0.007500407916423532,0.9897213094484617
2017-09-27,-1,-0.0009941705540690267,-0.0006520808944761866,-0.0133591676536723,0.007500407916423532,0.9894522559509258
2017-09-29,0,-3.3103276227511714e-05,0.00017387166330807668,-0.0133591676536723,0.007500407916423532,0.9888185912152824
2017-10-03,-1,-0.00037093679870306407,-0.0001534141173583968,-0.0051770437137005545,0.008556689155353053,0.988596233744495
2017-10-05,-1,-0.0004745990620415796,-0.0002617904297817703,-0.002481013604641524,0.008556689155353053,0.9893448026952963
2017-10-09,-1,-0.002711077955365248,-0.0021558585118530496,-0.005612654472742007,0.008556689155353053,0.9872566982901818
2017-10-11,-1,-0.002049931332263408,-0.0016236671429730562,-0.005612654472742007,0.010554448872605357,0.9846086459420168
2017-10-13,-1,-0.0014185096329250326,-0.0011367977547765728,-0.007338921794813489,0.008556689155353053,0.9849696522391764
2017-10-17,-1,-0.0006342240878890067,-0.00048367362519049313,-0.007338921794813489,0.00996199859544304,0.9847145731582702
2017-10-19,-1,-0.0007369222797496549,-0.0005544815233753951,-0.015450536225553426,0.012264550633397105,0.9834080665356749
2017-10-23,-1,-0.0007589899651523407,-0.0006001925813543263,-0.007338921794813489,0.011902313508247296,0.9846885472861269
