JNU-Tangyin/eata/results/Batch4_SP500/Batch4_SP500-VZ.csv
Date,Action,Predicted_Q25,Predicted_Q75,Actual_Q25,Actual_Q75,RL_Reward
2010-12-14,0,0.0,0.0,-0.0011305753656991257,0.006357231718438322,0.9922335086512408
2010-12-16,0,0.0,0.0,-0.001705215800736515,0.006999353601650641,0.9913004856295451
2010-12-20,0,0.0,0.0,-0.002912264858687514,0.007086231631694241,0.9897470266333327
2010-12-22,1,0.001864558250069131,0.001944330262761895,-0.002912264858687514,0.00786878144152045,0.9901055449063361
2010-12-27,1,0.00207917220747333,0.0021685225459505664,-0.002912264858687514,0.009433624122826674,0.9894262528589552
2010-12-29,1,0.0021505506266755307,0.0022337929346999746,-0.0024916971950215572,0.010798913388509211,0.988908542756753
2010-12-31,1,0.00213004642416196,0.002251446908165286,-0.008584610013726277,0.010798913388509211,0.98787968116127
2011-01-04,1,0.002620923984337078,0.0027501810105948683,-0.008584610013726277,0.009433624122826674,0.9884752612137361
2011-01-06,0,0.0,0.0,-0.004344722112806063,0.0085490906342093,0.9905531726921122
2011-01-10,0,0.0,0.0,-0.0042713210589491015,0.008988853738341688,0.990145557466367
2011-01-12,0,0.0,0.0,-0.00404671712973144,0.009316706876789385,0.9902561838371974
2011-01-14,0,0.0,0.0,-0.00404671712973144,0.009001979983597044,0.9904774544936156
2011-01-19,-1,-0.0006672622962633952,-0.0003341426087803013,-0.00404671712973144,0.009473002858592745,0.9912814732100818
2011-01-21,0,0.0,0.0,-0.00404671712973144,0.009001979983597044,0.9910744092853638
2011-01-25,0,0.0,0.0,-0.007304779126518843,0.007376334159020999,0.9911577331385037
2011-01-27,0,0.0,0.0,-0.007304779126518843,0.007376334159020999,0.9912624892223802
2011-01-31,1,0.00021013017432553114,0.00027981687895063136,-0.007304779126518843,0.009001979983597044,0.9899523186444942
2011-02-02,1,0.0004955743214626297,0.0005171791002389183,-0.007304779126518843,0.008883944773944242,0.9905327184870797
2011-02-04,0,0.0,0.0,-0.007764039135436573,0.008883944773944242,0.9904414718665986
2011-02-08,0,0.0,0.0,-0.007241476366129535,0.009001979983597044,0.9904002061307179
2011-02-10,0,0.0,0.0,-0.007764039135436573,0.007376334159020999,0.9901311821336137
2011-02-14,1,0.0003634475581280691,0.0004126802154468718,-0.008168426527503462,0.007376334159020999,0.9894711051762087
2011-02-16,0,0.0,0.0,-0.010386391224146297,0.007376334159020999,0.9883679735459648
2011-02-18,0,0.0,0.0,-0.010386391224146297,0.011483888466818071,0.9874246753787203
2011-02-23,0,0.0,0.0,-0.007978518246335534,0.013148831395456662,0.9878127366551936
2011-02-25,0,0.0,0.0,-0.007978518246335534,0.013148831395456662,0.9882528615746249
2011-03-01,0,0.0,0.0,-0.007041145681583429,0.013148831395456662,0.9894334405942492
2011-03-03,0,0.0,0.0,-0.007041145681583429,0.013148831395456662,0.9895761194181377
2011-03-07,1,0.00031774628989996774,0.0003316637478603715,-0.0030675356271207543,0.013148831395456662,0.9899143833990477
2011-03-09,0,0.0,0.0,-0.007318927552871699,0.01261164949630612,0.9896804837060316
2011-03-11,0,0.0,0.0,-0.003272606947184592,0.01261164949630612,0.9905870366531737
2011-03-15,0,0.0,0.0,-0.0019566679130129045,0.01261164949630612,0.991495843217424
2011-03-17,0,-0.0005054337397472604,0.0,-0.0012485056758710033,0.007140192642010775,0.9938875867826086
2011-03-21,1,0.00043380297347186253,0.0005104170831065882,-0.0019566679130129045,0.0038943336445350523,0.9945447375330099
2011-03-23,1,0.0007509306796828768,0.0007995141801744991,-0.0020015760846855686,0.0038943336445350523,0.9944041840399879
2011-03-25,1,0.0008272200197935069,0.0008625978945051001,-0.0031704066155014937,0.003657519295445174,0.9934769498888586
2011-03-29,1,0.001855393105905033,0.0019802589091904386,-0.0031704066155014937,0.003657519295445174,0.9931124935116348
2011-03-31,1,0.0021419987038230875,0.002324613606384532,-0.005650393011696821,0.0034945767848137653,0.992366278911183
2011-04-04,1,0.0018144365996516872,0.0019253685781621594,-0.005856587300935443,0.003512912685247893,0.9921202707098328
2011-04-06,0,0.0,0.0,-0.005616924109759929,0.003512912685247893,0.9924707916640915
2011-04-08,0,0.0,0.0,-0.005616924109759929,0.003861980457798122,0.992374952317943
2011-04-12,1,3.2439822547157765e-05,0.0001225789587179003,-0.006430164030877292,0.004830185442976654,0.9920292202453916
2011-04-14,0,0.0,0.0,-0.006430164030877292,0.005019370055837739,0.9916190207088215
2011-04-18,0,0.0,0.0,-0.006313105800682752,0.005019370055837739,0.9919342411056724
2011-04-20,0,-2.1652911984637563e-05,3.0032430245426214e-05,-0.006313105800682752,0.004972220246876982,0.9924485732937959
2011-04-25,0,0.0,0.0,-0.006313105800682752,0.004972220246876982,0.9930536761851306
2011-04-27,0,0.0,0.0,-0.007856163988390735,0.003917713389014159,0.9939850396032656
2011-04-29,0,0.0,0.0,-0.006313105800682752,0.004373402378570179,0.9942775092453837
2011-05-03,-1,-0.0011137102302406702,-0.0008577302805797967,-0.007856163988390735,0.004373402378570179,0.9938339942211825
2011-05-05,-1,-0.0012564519995760023,-0.0010371780395088987,-0.007856163988390735,0.004373402378570179,0.9938239065958314
2011-05-09,-1,-0.0007504871882886063,-0.0006183439143635373,-0.008119414183896034,0.004628997812892924,0.9932326790227383
2011-05-11,-1,-0.0007020098549802378,-0.0005786653497927921,-0.007856163988390735,0.004628997812892924,0.9930312598834216
2011-05-13,0,0.0,0.0,-0.009003557595628374,0.005063474051842682,0.9920839147019371
2011-05-17,0,0.0,0.0,-0.012073079029413096,0.005063474051842682,0.9919480072933117
2011-05-19,1,2.799683529909822e-05,8.126498959972663e-05,-0.012073079029413096,0.005063474051842682,0.9917565326079198
2011-05-23,-1,-0.00040840090786122186,-0.0003031781373057639,-0.012073079029413096,0.006099484814399138,0.9917117764378002
2011-05-25,0,0.0,0.0,-0.007752052497628664,0.006099484814399138,0.9922073147340669
2011-05-27,0,0.0,0.0,-0.007752052497628664,0.007233155445618358,0.9919568260669995
2011-06-01,1,6.808931654356491e-05,8.300769144253103e-05,-0.0036695665692107063,0.005536585805337663,0.9927690999326318
2011-06-03,-1,-0.0014166292397404534,-0.001224638779617063,-0.0013928422365176395,0.009930666453443565,0.9918821685202508
2011-06-07,-1,-0.0019350279770311497,-0.0016588786903423123,-0.0013928422365176395,0.009930666453443565,0.9920560746211623
2011-06-09,-1,-0.0016282728553991014,-0.0013860892468738626,-0.0013928422365176395,0.00813053198523254,0.9930191721556585
2011-06-13,-1,-0.0021313388925884597,-0.0017842769905661601,-0.0013928422365176395,0.005418122475518632,0.9936340001938313
2011-06-15,0,0.0,0.0,-0.0014480670259713118,0.005418122475518632,0.9946145563032749
2011-06-17,0,0.0,0.0,-0.001967082275803532,0.00424389315470381,0.9949343937021101
2011-06-21,0,0.0,0.0,-0.001967082275803532,0.0052733586747532625,0.9947690877200226
2011-06-23,0,0.0,0.0,-0.003039808390851067,0.006592465235487152,0.9935795155546518
2011-06-27,0,0.0,0.0,-0.0034085620157164407,0.005109981357763825,0.9934160668265406
2011-06-29,0,0.0,0.0,-0.004884057919936166,0.0028496288937262747,0.9930043877513968
2011-07-01,0,0.0,0.0,-0.007953878283466123,0.0016167120277615998,0.9931221435614208
2011-07-06,0,0.0,0.0,-0.00979778966657869,0.0028496288937262747,0.9923245745151758
2011-07-08,0,0.0,0.0,-0.010430239630146654,0.004399391286581729,0.9909423092833857
2011-07-12,0,0.0,0.0,-0.011483681789945115,0.006592465235487152,0.9870310679671171
2011-07-14,1,0.00018796176530917844,0.00023339512363398522,-0.014412430623189816,0.007746358212162355,0.9850295525912873
2011-07-18,-1,-0.0004186386651185689,-0.00026211639997530083,-0.014412430623189816,0.01068446173291883,0.9838230713192446
2011-07-20,1,0.00027500477178935587,0.0003441888822860609,-0.014412430623189816,0.014252490833648612,0.9833149580073052
2011-07-22,-1,-0.001017986982067448,-0.0007797803529639704,-0.014406218515989711,0.014252490833648612,0.9837498974786604
2011-07-26,-1,-0.001754985009974867,-0.0014361591613477939,-0.011736377333494613,0.017558616936765276,0.9828029842087644
2011-07-28,-1,-0.0010875453279639868,-0.0009045626182707597,-0.011736377333494613,0.017558616936765276,0.9817972892606744
2011-08-01,-1,-0.0006514640678388897,-0.000539815736911096,-0.011736377333494613,0.015869084841975543,0.9824971261300895
2011-08-03,0,0.0,0.0,-0.011489977344919886,0.015869084841975543,0.9832229616999137
2011-08-05,0,0.0,0.0,-0.009498702967507024,0.015869084841975543,0.9839958717928642
2011-08-09,0,0.0,0.0,-0.009322729804414934,0.012063459699766622,0.9873707091970917
2011-08-11,-1,-0.0006625514308862088,-0.000553216212889651,-0.008999757504070244,0.010809100943182449,0.9892809559578664
2011-08-15,1,0.00010052972275249151,0.00010448371330679923,-0.00824286306604219,0.007975756080684628,0.9902927162772296
2011-08-17,1,0.0003442600668646392,0.00039596260139120114,-0.00824286306604219,0.007975756080684628,0.9906320973268762
2011-08-19,-1,-2.6311041627112584e-05,-8.136703788914223e-06,-0.007057699610112874,0.010809100943182449,0.9905629561978061
2011-08-23,1,0.0007244314950422694,0.0008469188821068816,-0.00824286306604219,0.007975756080684628,0.9913872837111474
2011-08-25,1,0.0007490128265560361,0.0008938743011830555,-0.00723598841755977,0.007356244428471416,0.9922930271256054
2011-08-29,1,0.0009665683188234589,0.0011157019121135116,-0.00723598841755977,0.008950565986542815,0.9915381238059092
2011-08-31,1,0.0009189875974016867,0.0010609663256400236,-0.00723598841755977,0.009150382359944954,0.9914749252407975
2011-09-02,1,0.000259783160023601,0.0003037146677072741,-0.007586916390289526,0.009150382359944954,0.9911788426339346
2011-09-07,1,0.000259474993369438,0.0003091753664871503,-0.007586916390289526,0.008214987427005526,0.9912783175825876
2011-09-09,-1,-0.00010642782275627872,-0.00010295386700332713,-0.007586916390289526,0.008214987427005526,0.99118682196381
2011-09-13,1,0.0001495149755757639,0.0001894560285006649,-0.00977603209954212,0.00965558116654861,0.9900949285303838
2011-09-15,1,0.0003678426061942173,0.0004135956667823974,-0.00977603209954212,0.008697265287551013,0.9903955481171
2011-09-19,1,0.00039190551648109163,0.00045515369472091895,-0.009677856447765755,0.008384117673314102,0.9907936690215627
2011-09-21,1,0.00017595507877555083,0.00021757353590061426,-0.007586916390289526,0.008384117673314102,0.9910337067457198
2011-09-23,1,0.0002807303536689443,0.0003338690585665695,-0.006181911199939362,0.008467435114358537,0.9913428939619146
2011-09-27,1,0.001042418069287615,0.0011844724449361903,-0.010545622349227849,0.008184492738718494,0.9911550391005141
2011-09-29,1,0.0011898139462848656,0.001359953748642501,-0.010545622349227849,0.008436748987264972,0.9898138515302805
2011-10-03,1,0.0006970877476652095,0.000794772462090883,-0.010545622349227849,0.008436748987264972,0.9898629996614942
2011-10-05,1,0.00018250731293557697,0.0002147514900945711,-0.010545622349227849,0.008731116378886603,0.9895333316431192
2011-10-07,1,0.0004012997898663614,0.00045398017945447275,-0.010545622349227849,0.00917252119742999,0.9888493531271823
2011-10-11,1,0.0008862859470327228,0.0010202004447749965,-0.008219390144787458,0.008731116378886603,0.9901061082158668
2011-10-13,1,0.00099239608612023,0.0011094155625563467,-0.011109221365595029,0.008731116378886603,0.989304800187757
2011-10-17,1,0.0008903668382323165,0.0009783378842630438,-0.013268707349898299,0.008731116378886603,0.9892723332257443
2011-10-19,1,0.0008326488354108224,0.0009257637276635466,-0.013808216738321836,0.008731116378886603,0.988824166532955
2011-10-21,1,0.0009319402685047818,0.0010370182778759018,-0.013808216738321836,0.00712701847456872,0.9888460868354173
2011-10-25,1,0.00012756775013477535,0.00015627040872143324,-0.011470276369036386,0.00712701847456872,0.9897556023717018
2011-10-27,1,0.0007217058029018717,0.000771557279070634,-0.013808216738321836,0.0048878577111763355,0.9905132216112273
2011-10-31,1,0.0003661008094141984,0.0003779644198780385,-0.011470276369036386,0.00712701847456872,0.9897274313292896
2011-11-02,1,0.00037167773321805664,0.0003765485058621118,-0.008281687819310362,0.007485595909324853,0.9893566828348288
2011-11-04,1,0.0002724574754154345,0.00030109057515773985,-0.007578825700606053,0.005584660129104768,0.9902475788558114
2011-11-08,1,0.0005557847394358031,0.0005735362955014934,-0.007578825700606053,0.006638883534210013,0.9903692096548871
2011-11-10,1,0.0007856716992570219,0.0008498508431926746,-0.007578825700606053,0.006638883534210013,0.9904060356122256
2011-11-14,1,0.0006016840989066867,0.0006421863212425019,-0.003394996140533183,0.006638883534210013,0.9910080280323328
2011-11-16,1,0.00030640818436776355,0.000324743723739529,-0.002148018424484247,0.005737011812860811,0.9918584717194453
2011-11-18,1,0.00022175512025739263,0.00024155498181741854,-0.002148018424484247,0.007664487954652603,0.9915886520011621
2011-11-22,1,0.00043700075124050497,0.0005305776841114111,-0.0007161260585112998,0.00964829906811636,0.991623574840326
2011-11-25,1,1.4660970578286278e-06,3.476103550631955e-05,-6.522913369538447e-05,0.011615637533004389,0.991706092075628
2011-11-29,1,0.0007314597052937331,0.0008598888786413093,-0.0007161260585112998,0.007664487954652603,0.9933784529720064
2011-12-01,1,0.000905544128472211,0.0010405934649815513,-0.0007161260585112998,0.007145400416533917,0.9944884790755686
2011-12-05,1,0.0010037207522222793,0.001118799847480542,-0.0027270859274311087,0.007145400416533917,0.993516055627713
2011-12-07,1,0.0010094061795140766,0.001142168014284855,-0.006035143748097369,0.0049598785428586365,0.9926662963178459
2011-12-09,1,0.0015316976535458865,0.0017345949338116412,-0.0043388161030108036,0.004439538453932964,0.9938227816014599
2011-12-13,1,0.0011459508529401434,0.001294315558241761,-0.0043388161030108036,0.00573276564292422,0.9938370503193213
2011-12-15,1,0.0015320978125239085,0.0017226523724751866,-0.0043388161030108036,0.00573276564292422,0.9938855337708091
2011-12-19,1,0.0012641651557461376,0.0013846697459193608,-0.0016301305721663636,0.0032301803901015743,0.9943881090663741
2011-12-21,1,0.0008268042137597573,0.0008703569601143121,-0.006035143748097369,0.001953213733824057,0.9942965052306308
2011-12-23,1,0.0011238863347290107,0.0012153831554950851,-0.007594713362217715,0.0012195719003880727,0.9940309650935819
2011-12-28,1,0.000640262950296481,0.0006425194054465973,-0.009394887648561666,0.0012195719003880727,0.9938585418712288
2011-12-30,1,0.00045784566006722794,0.00048356194850027477,-0.009394887648561666,0.0011149733278259277,0.9937828621694778
2012-01-04,1,0.00019168122687554786,0.00020872112545896929,-0.006483365048798163,0.0016394180161376222,0.9945088789713665
2012-01-06,-1,-0.000323782264182012,-0.00029201835698198825,-0.0028550848383000547,0.00409119833384635,0.9948689730497304
2012-01-10,1,0.00011784125217379337,0.00014574488379162577,-0.0040532259201006655,0.002856437983384175,0.9949066019750467
2012-01-12,0,0.0,0.0,-0.00584253809391744,0.0016394180161376222,0.9950674660599941
2012-01-17,0,0.0,0.0,-0.00584253809391744,0.0019264239973858805,0.9945001725744563
2012-01-19,0,0.0,0.0,-0.00584253809391744,0.004241947320429349,0.9939652333654352
2012-01-23,0,0.0,0.0,-0.005582424007857604,0.006225242703119274,0.9941549807864071
2012-01-25,0,0.0,0.0,-0.005582424007857604,0.006225242703119274,0.994608015303968
2012-01-27,-1,-0.0010520837679155108,-0.0009079233138948362,-0.003150382722702826,0.006225242703119274,0.9950171675395968
2012-01-31,-1,-0.0007864358813278599,-0.0006917784928577267,-0.003150382722702826,0.004241947320429349,0.99566139152465
2012-02-02,-1,-0.0010767575718565589,-0.0009301145441384128,-0.0021603181948375307,0.006547475599410954,0.995304184270062
2012-02-06,-1,-0.00046407038218880385,-0.0004003776722612825,-0.003150382722702826,0.005922832465761106,0.9954254925289621
2012-02-08,-1,-0.00031009119670786107,-0.0003092790078120122,-0.0021603181948375307,0.006782983551185722,0.99499694578228
2012-02-10,-1,-0.0005164993656707019,-0.0004803188338477714,-0.0021603181948375307,0.006782983551185722,0.9948279521873549
2012-02-14,-1,-0.0003444815304603694,-0.000276730519007972,-0.0013097977824594901,0.005922832465761106,0.9953714250736253
2012-02-16,-1,-0.0004314944781966516,-0.00037167277745706013,-0.0004587401274224765,0.0057812387693243475,0.9957255482882169
2012-02-21,1,3.53188878356693e-06,4.980646302773465e-05,-0.0006404480455928756,0.004895937230047531,0.9963265549776192
2012-02-23,-1,-0.00013478984943221666,-8.915416952679056e-05,-0.0003227172266966927,0.004895937230047531,0.9964138092287133
2012-02-27,1,1.4379628667013093e-05,4.2188168634728885e-05,-0.0013571406181015493,0.004895937230047531,0.9960574430215846
2012-02-29,-1,-0.000749889126644076,-0.0006673033641010938,-0.003027356713402458,0.004895937230047531,0.9946630593723973
2012-03-02,1,0.000521584225447836,0.0006146899770264765,-0.0035362965987592258,0.0041025741996391875,0.9950786747974345
2012-03-06,0,0.0,0.0,-0.003027356713402458,0.0041025741996391875,0.9953936090905516
2012-03-08,0,0.0,0.0,-0.0035362965987592258,0.002462573319080355,0.9950381044301873
2012-03-12,0,0.0,0.0,-0.005495890942097288,0.0018355632864012165,0.9943334974251473
2012-03-14,0,0.0,0.0,-0.005495890942097288,0.002462573319080355,0.9935438412957555
2012-03-16,0,0.0,0.0,-0.006469374793401017,0.0038894102163064617,0.9930626779959849
2012-03-20,0,0.0,0.0,-0.006469374793401017,0.0042890446415557,0.9926744858553364
2012-03-22,0,0.0,0.0,-0.006469374793401017,0.00531836268014026,0.9916205958315343
2012-03-26,0,0.0,0.0,-0.0059137861744751235,0.007759808124311043,0.9906427394092336
2012-03-28,0,0.0,0.0,-0.004339867005584109,0.009464421703338909,0.9911414483718889
2012-03-30,1,0.9246391089683716,0.9659477338760689,-0.002622651581994774,0.009464421703338909,0.5148016039805479
2012-04-03,0,0.0,0.0,-0.002622651581994774,0.009464421703338909,0.9914803604131751
2012-04-05,0,0.0,0.0,-0.002622651581994774,0.009464421703338909,0.991996709746223
2012-04-10,0,0.0,0.0,0.0002435195312762781,0.009464421703338909,0.9927712551392035
2012-04-12,0,0.0,0.0,-0.0009097093394042726,0.0076605887101487465,0.9930402527046392
2012-04-16,0,0.0,0.0,-0.0009097093394042726,0.009464421703338909,0.9925810620601133
2012-04-18,0,0.0,0.0,-0.001412545672415263,0.008842847155045231,0.9926967301043719
2012-04-20,0,0.0,0.0,-0.001412545672415263,0.006893164295162905,0.9933061351250376
2012-04-24,-1,-0.021165014009964032,-0.017389011092040885,-0.0014150671721329484,0.005019849805987539,0.9788184192563493
2012-04-26,1,5.355540664250576e-05,7.589646391295389e-05,-0.003028557815069994,0.004049115042091227,0.9950395214781274
2012-04-30,1,0.00034149220099035147,0.00041327673305329365,-0.003028557815069994,0.005019849805987539,0.9950505083752317
2012-05-02,1,0.0005250830028678654,0.0006362459459692624,-0.004249678206617071,0.005660210088732323,0.9947044415402246
2012-05-04,1,0.0004086225820348937,0.0005042169185414306,-0.004249678206617071,0.006839219288198341,0.9940791184505653
2012-05-08,0,0.0,0.0,-0.004249678206617071,0.007291562173157162,0.9934038608449606
2012-05-10,1,0.000797697297923166,0.0009387364712855395,-0.003575213479729577,0.0073170831068770075,0.9932768285241887
2012-05-14,1,0.0012209507498441828,0.001415064207773973,-0.0031808642541809456,0.0073170831068770075,0.9939976313777781
2012-05-16,1,0.0014998371550668786,0.0017540423532573617,-0.0027713229398495815,0.00789873734822801,0.9936573149169842
2012-05-18,0,0.0,0.0,-0.0031808642541809456,0.0073170831068770075,0.9932394629969659
2012-05-22,1,0.001801836482702773,0.002110434235019592,-0.0031808642541809456,0.0073170831068770075,0.9933565867077006
2012-05-24,1,0.00199738104832947,0.002346917276614782,-0.0031808642541809456,0.00789873734822801,0.9929688176542869
2012-05-29,1,0.0016660281138089078,0.0019267675032706817,-0.003682763337266116,0.00789873734822801,0.9926570754033934
2012-05-31,0,0.0,0.0,-0.0031808642541809456,0.00789873734822801,0.9927086979702857
2012-06-04,0,0.0,0.0,-0.0023184719069292265,0.010773320368111633,0.9927328270034004
2012-06-06,0,0.0,0.0,-0.0015399483899683328,0.009368641683938844,0.9934943041035684
2012-06-08,0,0.0,0.0,-0.0015399483899683328,0.00763515776441549,0.9937238654273528
2012-06-12,0,0.0,0.0,-0.0015399483899683328,0.006450846119992651,0.9940393555014602
2012-06-14,0,0.0,0.0,-0.002683256639686178,0.006450846119992651,0.994119979149312
2012-06-18,0,0.0,0.0,-0.0015399483899683328,0.007556771921946459,0.9941609494302196
2012-06-20,0,0.0,0.0,-0.0013432963584509158,0.007556771921946459,0.9930469170882792
2012-06-22,0,0.0,0.0,-0.0018131949595716758,0.0055789266489667646,0.9935763755728196
2012-06-26,0,0.0,0.0,-0.0018131949595716758,0.0055789266489667646,0.9934262772555823
2012-06-28,1,0.004132450466419654,0.004273002469005991,-0.0017878468590314888,0.008935370259318686,0.9922183085734687
2012-07-02,1,0.0023943897900066003,0.002634430694030472,-0.0017878468590314888,0.0055789266489667646,0.9931007422222479
2012-07-05,1,0.002184733510342511,0.002381044292636322,-0.003640777101648597,0.0055789266489667646,0.9926016745392604
2012-07-09,1,0.002155653560481673,0.0023446673956627976,-0.003256592999515928,0.005071211076545914,0.9930438715742713
2012-07-11,1,0.0021108273143439164,0.002290701774190551,-0.004972699977181987,0.005071211076545914,0.9925280639609488
2012-07-13,1,0.00236088099787709,0.0025896736641924673,-0.003920060367765458,0.005071211076545914,0.9931006669982502
2012-07-17,1,0.0022787714757661385,0.002474139334189503,-0.005322375393920102,0.004429471557549924,0.9929254350654224
2012-07-19,1,0.0014246349228858842,0.0015017274405287316,-0.003920060367765458,0.0037728805936496903,0.9944538770175353
2012-07-23,0,0.0,0.0,-0.005322375393920102,0.0037728805936496903,0.9943471640475594
2012-07-25,0,0.0,0.0,-0.0063517060194396855,0.0037728805936496903,0.9938228906180512
2012-07-27,1,0.003282113875444785,0.0033808448944269774,-0.006740717746170707,0.0020684294227002837,0.9924356489555157
2012-07-31,1,0.001678453174970184,0.0018211960354977573,-0.0075919666740216635,0.001404194057063016,0.992633180777093
2012-08-02,1,0.0012097808097713601,0.001291802808523833,-0.0074058716624776245,0.0019218991605185998,0.9927452550372596
2012-08-06,1,0.001207626745265811,0.0012934274157268388,-0.0074058716624776245,0.0037098350001499927,0.9922372186015475
2012-08-08,1,0.0008691395892822958,0.0009051541520002984,-0.0074058716624776245,0.004446964853070235,0.9925546897330259
2012-08-10,0,0.0,0.0,-0.00761240491386601,0.004925220471215948,0.9922281153569394
2012-08-14,0,0.0,0.0,-0.00761240491386601,0.007830303354307176,0.9917349470002615
2012-08-16,1,0.3830663264923677,0.39656147909584927,-0.008298353812602143,0.00845394696329109,0.7197965730101477
2012-08-20,-1,-0.0001872562504907615,-0.00016116389782080303,-0.007740068777970027,0.00845394696329109,0.9901101980724181
2012-08-22,0,0.0,0.0,-0.003435158324282867,0.008472791243305525,0.9907177823233142
2012-08-24,0,0.0,0.0,0.00013113957935553702,0.00799720140189859,0.9920093123349718
2012-08-28,0,0.0,0.0,0.000492938303002826,0.00799720140189859,0.9924834243610385
2012-08-30,0,0.0,0.0,0.000492938303002826,0.007830303354307176,0.9929460306316469
2012-09-04,-1,-0.0011916182915865246,-0.0008696031252565556,0.000492938303002826,0.007495974478229775,0.9932632581336605
2012-09-06,-1,-0.0012025374615028358,-0.0008690901767407612,0.000492938303002826,0.007836584780978656,0.9922756999640882
2012-09-10,-1,-0.001367474104635725,-0.0010159734689784638,-0.0008215634698476488,0.007555794778541232,0.9924602819442147
2012-09-12,-1,-0.0003149281344865441,-0.00011959696911350453,-0.004224922234244958,0.005800589187283673,0.99299436639798
2012-09-14,-1,-0.00040724062952634556,-0.0002285512700965659,-0.005121823248202857,0.004961482977776282,0.9936370782709267
2012-09-18,1,7.727531763261538e-05,0.00018006919675504925,-0.007727169206113756,0.00401157515892982,0.993438929549246
2012-09-20,1,0.0004338852131144476,0.0004949275896134638,-0.007727169206113756,0.004113300715047065,0.9921353020139231
2012-09-24,1,0.00048570841839012285,0.0005397780303982614,-0.009548016828179831,0.004113300715047065,0.9911386352081183
2012-09-26,1,7.711083416412864e-05,0.00019929230875588474,-0.009958663833473436,0.004113300715047065,0.990448785905227
2012-09-28,1,0.00013701158117511545,0.00024287626870829574,-0.009958663833473436,0.00623956169575801,0.9902831609109495
2012-10-02,1,0.00019637736851931713,0.0003029703294111416,-0.009958663833473436,0.009580562704030213,0.9899155709980819
2012-10-04,1,0.0013884060877095252,0.0014375785494680623,-0.010818738697733522,0.0012467901645621924,0.9897438737067142
2012-10-08,1,0.0005654131472559675,0.0006252302736315739,-0.012709908355064931,0.0026044527243181594,0.9895888571687301
2012-10-10,1,0.00020858705670347865,0.0002873236901793092,-0.012981171274769642,0.0026044527243181594,0.9898844212627412
2012-10-12,-1,-0.0008570109794312933,-0.0006448951845413377,-0.010435868074280368,0.0026044527243181594,0.9912583164208411
2012-10-16,-1,-0.0013377009241781266,-0.0010678161336412292,-0.012945331305993533,0.0026044527243181594,0.9909536519101737
2012-10-18,1,0.00025848217061711655,0.0003306548209883046,-0.012945331305993533,0.001093625785501939,0.9904499458850126
2012-10-22,-1,-0.0007872896138256877,-0.0005878343991827778,-0.008591697651464168,0.0026044527243181594,0.9913395544856157
2012-10-24,-1,-0.0013780116484796135,-0.001096705071220598,-0.008023635252538516,0.003681861276520027,0.9911289987714812
2012-10-26,-1,-0.0008052233795226253,-0.0006062999304542362,-0.008170685604869811,0.003681861276520027,0.9906841041592792
2012-11-01,-1,-0.00028558168809112556,-0.00017425440064891985,-0.008170685604869811,0.0038596390515464856,0.9905652856217095
2012-11-05,-1,-0.0008223579599628453,-0.0006638033635090788,-0.007980363522638326,0.0038596390515464856,0.9911107305138445
2012-11-07,-1,-0.0012345049477406696,-0.0010615697340377417,-0.007243242960891916,0.008416809854273812,0.9914313084463021
2012-11-09,-1,-0.0015609238351571313,-0.001346555060118359,-0.007243242960891916,0.008416809854273812,0.9917101554576759
2012-11-13,-1,-0.001974856367948735,-0.0016930321677972966,-0.007243242960891916,0.009445518224971706,0.9907062014572351
2012-11-15,-1,-0.0023388722537166177,-0.0020411763923176016,-0.007020951593109095,0.009445518224971706,0.9909447875856547
2012-11-19,-1,-0.0011956305194853606,-0.001026114563695946,-0.006261904381867372,0.008283121263167076,0.9929672577803439
2012-11-21,-1,-0.001015898682214572,-0.0008745733158921456,-0.007069968377219528,0.009445518224971706,0.9924451984680346
2012-11-26,-1,-0.00045765773984567245,-0.0004196272833425342,-0.006261904381867372,0.008280377492285907,0.9933372275127229
2012-11-28,-1,-0.00014623890532764985,-0.0001397380705201907,-0.005756808792382195,0.007891019522216203,0.9941581778647485
2012-11-30,1,0.00011182278268090559,0.00013426134898122783,-0.006261904381867372,0.007891019522216203,0.9936496791687536
2012-12-04,-1,-0.00022540094768844438,-0.000209362123529398,-0.005756808792382195,0.008108590938857794,0.9928557284063652
2012-12-06,1,0.000544864650358709,0.0006445968232787545,-0.005756808792382195,0.008063050349314444,0.9929114158389715
2012-12-10,1,0.0003501208187490976,0.00044079556000309154,-0.005756808792382195,0.008063050349314444,0.9915460645559194
2012-12-12,1,0.0005250906418489451,0.0005916047060652046,-0.0061843367876331596,0.0062414725394875255,0.9912888571147883
2012-12-14,1,6.16929720067501e-05,6.950399423923615e-05,-0.007782021168078235,0.0062414725394875255,0.990524496625143
2012-12-18,-1,-0.000462998794627868,-0.00037471061155391634,-0.011012537725860642,0.008669412093133818,0.9897741002050657
2012-12-20,0,0.0,0.0,-0.007729761874208915,0.008953413808394541,0.989743706954911
2012-12-24,0,0.0,0.0,-0.007729761874208915,0.008953413808394541,0.9896457357656405
2012-12-27,0,0.0,0.0,-0.007729761874208915,0.008953413808394541,0.9895740264347735
2012-12-31,0,0.0,0.0,-0.0052209292357720495,0.009485090350301956,0.9896899510725875
2013-01-03,0,0.0,0.0,-0.005168735990159571,0.009485090350301956,0.9899873284830005
2013-01-07,0,0.0,0.0,-0.005168735990159571,0.009485090350301956,0.9905980214943283
2013-01-09,0,0.0,0.0,-0.005125622081277349,0.009485090350301956,0.9919321171333554
2013-01-11,-1,-0.0010469389078348404,-0.0010022882389548642,-0.003788396644408688,0.005548627379634152,0.9926534441603473
2013-01-15,-1,-0.0025688091697844617,-0.0023271216602920365,-0.0012918018979107358,0.005548627379634152,0.9931151875046202
2013-01-17,-1,-0.002835679686342011,-0.002487020612057218,-0.0012918018979107358,0.003096638577938037,0.9940139945894956
2013-01-22,-1,-0.002405820234390596,-0.002118191366441287,-0.0012918018979107358,0.0025734515339425343,0.9945940299975963
2013-01-24,-1,-0.0024817076235564557,-0.002171793897547258,-0.00016910248212507068,0.0043110063844385834,0.993939257674917
2013-01-28,-1,-0.002126434220170275,-0.0018611765699710352,-0.00016910248212507068,0.006416411345320259,0.9935956159942304
2013-01-30,-1,-0.000748997083735979,-0.000694699557731927,-0.00016910248212507068,0.0052916683364501674,0.99493629688391
2013-02-01,0,-3.6445649272121196e-05,2.1453322825086947e-05,0.0005047673816897242,0.0052916683364501674,0.9957624923921208
2013-02-05,-1,-9.255059863466227e-05,-5.9716456556117926e-05,0.0010151918772175039,0.006416411345320259,0.9947720926454471
2013-02-07,1,0.0004394904882531516,0.0006045613901765194,0.0017449307438100754,0.007373235757609582,0.9949840640218786
2013-02-11,1,0.0004338533540828357,0.0005681782472560951,0.0021392186752776424,0.008447906116057785,0.9944338387316831
2013-02-13,1,0.0005852997405672471,0.0007670004021529015,0.0020839281426043173,0.008921182343574136,0.9937500571287546
2013-02-15,0,0.0,0.0,0.003475680845281213,0.009605998388442978,0.9923604843652492
2013-02-20,0,0.0,0.0,0.0021307367245206187,0.009089019632122452,0.9923820317699583
2013-02-22,0,0.0,0.0,0.0021307367245206187,0.009089019632122452,0.9924822300210774
2013-02-26,0,0.0,0.0,0.0013600838371221563,0.008788069656712943,0.992799113496736
2013-02-28,0,0.0,0.0,-0.004133218972229164,0.008788069656712943,0.9924870530618842
2013-03-04,0,0.0,0.0,-0.004133218972229164,0.007409390823552497,0.9927490469634436
2013-03-06,0,0.0,0.0,-0.004133218972229164,0.006373166718021933,0.9929599004222552
2013-03-08,1,0.0035124405654893454,0.0041183327635092234,-0.004133218972229164,0.00584848259132403,0.9943890371233098
2013-03-12,1,0.003227249594449211,0.003728184882893783,-0.0037548784242299044,0.00584848259132403,0.9944541304733606
2013-03-14,1,0.0030367382328605284,0.0035018773019479736,-0.0017178795472874936,0.006373166718021933,0.9947303712565922
2013-03-18,1,0.0038512449678995216,0.004506794327560206,-0.0028559555678476962,0.00584848259132403,0.9954206135482794
2013-03-20,1,0.003000779220350915,0.003471568530331882,-0.0028559555678476962,0.006373166718021933,0.9935334103863849
2013-03-22,1,0.0028921092491801634,0.0033099576706575183,-0.0028559555678476962,0.006614354877774878,0.9922603945166586
2013-03-26,1,0.0032341228441294155,0.0037150822780194917,-0.003747287237851371,0.006478170582422789,0.9917619525812419
2013-03-28,1,0.00306832967436285,0.003535340729652457,-0.0028559555678476962,0.008310315640649388,0.9911201084079959
2013-04-02,1,0.002874116644113231,0.0032730486231754693,-0.003266055511597148,0.008845557004207161,0.9907253962324947
2013-04-04,1,0.002290172881168068,0.002573925314503778,-0.003266055511597148,0.008845557004207161,0.9899790224406005
2013-04-08,1,0.001991248337170062,0.0022001377943457728,-0.003747287237851371,0.008845557004207161,0.9895690163102033
2013-04-10,1,0.0020968510207525224,0.002311073648423704,-0.003747287237851371,0.009572256160085536,0.9893660179929461
2013-04-12,1,0.0021289392361301955,0.0023003971826972246,-0.005127109466227792,0.007882281469325233,0.9895743023881215
2013-04-16,0,0.0,0.0,-0.006704221242603269,0.009262708922407874,0.9887640100034983
2013-04-18,0,0.0,0.0,-0.006686990521875593,0.0081698356637974,0.9902491780718867
2013-04-22,0,0.0,0.0,-0.007479874798502391,0.00779971907963003,0.9908975755678137
2013-04-24,1,0.4054348946014485,0.4057291737960388,-0.008507142011052895,0.00779971907963003,0.7113244059047474
2013-04-26,1,0.0030813880697995984,0.0034631348157482767,-0.010085292853574186,0.004714596776297887,0.9911853085379791
2013-04-30,1,0.00291085685076683,0.003252155356419654,-0.011456130531197874,0.0034587810421121946,0.9897256641170173
2013-05-02,1,0.0021344750291358416,0.0023926743373012442,-0.011456130531197874,0.0034587810421121946,0.9900812647348802
2013-05-06,1,0.0015896561548099262,0.0017565466167455092,-0.011177201489809444,0.003702576767710393,0.990681579337391
2013-05-08,1,0.0022961216970301176,0.0025814535025271168,-0.011177201489809444,0.003702576767710393,0.98918263165306
2013-05-10,1,0.0020854424759012384,0.0023064944241942523,-0.011177201489809444,0.005495497004051519,0.9894055044360672
2013-05-14,1,0.001939619131135113,0.002125212766611296,-0.011177201489809444,0.004135470956285775,0.9894815932779342
2013-05-16,0,0.0,0.0,-0.011177201489809444,0.005495497004051519,0.9894073446779856
2013-05-20,0,0.0,0.0,-0.011065308891980222,0.006369190693157677,0.9889493910239964
2013-05-22,-1,-0.00020552597757641388,-8.063919066132681e-05,-0.011065308891980222,0.006369190693157677,0.9877253604775131
2013-05-24,1,0.0006988945228892173,0.000715132837817113,-0.011065308891980222,0.006452005657071807,0.9875033581287197
2013-05-29,0,0.0,0.0,-0.008529423389170987,0.009227972198828668,0.9877812830660964
2013-05-31,0,0.0,0.0,-0.007306263957292689,0.009227972198828668,0.9879011817346904
2013-06-04,0,0.0,0.0,-0.007306263957292689,0.009227972198828668,0.9879818654363672
2013-06-06,0,0.0,0.0,-0.006957201235465874,0.007751862203185373,0.9895677317573985
2013-06-10,0,0.0,0.0,-0.006957201235465874,0.007751862203185373,0.9897899429313998
2013-06-12,0,0.0,0.0,-0.007306263957292689,0.009227972198828668,0.9893496691475427
2013-06-14,0,-5.4871861766794653e-05,6.3008929334628e-05,-0.008412995693896908,0.006909903610106344,0.9893503070506996
2013-06-18,-1,-0.0008999125408429255,-0.0005628513648052531,-0.008412995693896908,0.006909903610106344,0.9897845486640612
2013-06-20,-1,-0.0026733943773590723,-0.002138533233694711,-0.00811861198856165,0.006909903610106344,0.9912467692569311
2013-06-24,0,0.0,0.0,-0.005138392682083151,0.0064826532562438826,0.9919725542884547
2013-06-26,0,0.0,0.0,-0.005138392682083151,0.0064423448562289844,0.9931689408578823
2013-06-28,0,0.0,0.0,-0.002926587795117489,0.0064423448562289844,0.993382404267151
2013-07-02,-1,-0.0019325795424290169,-0.0014489455478714013,-0.008412995693896908,0.0064423448562289844,0.9916712329819246
2013-07-05,0,0.0,0.0,-0.008412995693896908,0.0064423448562289844,0.9916100395304145
2013-07-09,0,0.0,0.0,-0.008412995693896908,0.0064423448562289844,0.9917797896470606
2013-07-11,0,0.0,0.0,-0.006888243576499547,0.0064054386309216,0.9923750220109554
2013-07-15,0,0.0,0.0,-0.003907168962156251,0.0064423448562289844,0.9929569800141588
2013-07-17,0,0.0,0.0,-0.006086630385248837,0.006186514941585566,0.9929665182020818
2013-07-19,-1,-0.0021271850453930524,-0.0017518151131694414,-0.00644626399783615,0.006186514941585566,0.992811780852778
2013-07-23,-1,-0.0016733761998386175,-0.0013684357931228249,-0.00644626399783615,0.006222459598885155,0.9926852331022095
2013-07-25,-1,-0.0011635093530557679,-0.0009413099001312785,-0.007886796099996415,0.005127610400691971,0.9922185329675215
2013-07-29,-1,-0.0007128192689110983,-0.0005447838125190558,-0.01089246175836174,0.0006027398889532784,0.9915438426533523
2013-07-31,-1,-0.0019393254441364548,-0.0016493537478069007,-0.007445846846364551,0.00135958105650899,0.9934363679950566
2013-08-02,-1,-0.0012966364794355502,-0.001151715062728929,-0.008530307697351825,-0.0005437577307619021,0.9922918119076897
2013-08-06,-1,-0.0016673757540481425,-0.0015101999942499916,-0.00941848008537078,0.0018325712611751892,0.9902758439240613
2013-08-08,-1,-0.0018390839751963024,-0.0016447129530583887,-0.00941848008537078,0.0018325712611751892,0.9903509566492708
2013-08-12,-1,-0.0018302069524149343,-0.0016278837654370914,-0.00947705850023942,0.002317706511343301,0.9899209374562487
2013-08-14,-1,-0.0029116620170533854,-0.002651452187820185,-0.009220668537222006,0.009523133855002565,0.9896553051422476
2013-08-16,-1,-0.0032677177112321364,-0.0029436231020426988,-0.008530307697351825,0.011529366226262128,0.9893463243090523
2013-08-20,-1,-0.0032016264760546267,-0.002877051643576956,-0.008530307697351825,0.011529366226262128,0.9892636814109008
2013-08-22,-1,-0.003751507247253482,-0.0033773922088522626,-0.008530307697351825,0.011529366226262128,0.989150586223356
2013-08-26,-1,-0.0033592543401727497,-0.003015886443433464,-0.008530307697351825,0.009320828035715174,0.9895829279758552
2013-08-28,-1,-0.003259314196315401,-0.0029252733568903475,-0.007377496701785183,0.011529366226262128,0.9889322175670591
2013-08-30,-1,-0.003092396221045439,-0.002812098818402833,-0.007585798403788951,0.009320828035715174,0.9899672954621944
2013-09-04,-1,-0.0028379789041763346,-0.0026173892258238747,-0.006832539990640832,0.007307276415652027,0.9916317017290756
2013-09-06,-1,-0.00319909926443992,-0.0029253441502160816,-0.006832539990640832,0.007307276415652027,0.9911896024378202
2013-09-10,-1,-0.0027516556277889506,-0.0025470536383999437,-0.006832539990640832,0.0059067358991787625,0.9908053390647839
2013-09-12,-1,-0.001203541219920097,-0.0011768366866892772,-0.006832539990640832,0.0059067358991787625,0.9910711346970323
2013-09-16,-1,-0.0011338293207062504,-0.0011169150439881309,-0.006832539990640832,0.004753409747923581,0.991637592845317
2013-09-18,-1,-0.0003872761678724045,-0.0002430777370818307,-0.00788295774081086,0.004753409747923581,0.9907398833155092
2013-09-20,-1,-0.00022275696507189139,-8.453372824911197e-06,-0.006832539990640832,0.008713974109672546,0.9888747041202496
2013-09-24,-1,-0.0009459303468870215,-0.000863899650997878,-0.006151929795230351,0.012119770947890778,0.9883941895254628
2013-09-26,-1,-0.000979218401429214,-0.0009114242511942419,-0.006448324077922768,0.011153088594772275,0.9888596322323189
2013-09-30,-1,-0.0014647318828403585,-0.0014121305390929592,-0.004678689307814386,0.011153088594772275,0.989228085702635
2013-10-02,-1,-0.001208396848210496,-0.0011339441172117787,-0.00602385782432433,0.011153088594772275,0.9888212641923045
2013-10-04,-1,-0.0007826889726821336,-0.0006239581869472418,-0.00602385782432433,0.011153088594772275,0.989360424166213
2013-10-08,-1,-0.0014632277497676467,-0.001380304763527109,-0.00602385782432433,0.011469714487980098,0.9890838482288069
2013-10-10,-1,-0.0007993479950177049,-0.0006565568771740571,-0.006660731947898195,0.011153088594772275,0.9893253885953872
2013-10-14,-1,-0.0013392710467174706,-0.0013162555342019614,-0.006660731947898195,0.011153088594772275,0.9894167023790502
2013-10-16,-1,-0.000850814520548087,-0.0008118483937207184,-0.0051500141224959115,0.010479969378164733,0.9906566294256038
2013-10-18,1,4.339924246409078e-05,0.00012471654970651601,-0.0051500141224959115,0.006858699071371802,0.9932852643885849
2013-10-22,1,0.0003168159751333657,0.00037752213376049046,-0.0051500141224959115,0.0056387477642397404,0.9939227235159128
2013-10-24,-1,-0.00016326833698042403,-0.000147046460941227,-0.0037370661224697295,0.0056387477642397404,0.9942083024014267
2013-10-28,1,0.0005151924871526783,0.000683980193387928,-0.0043314714018939954,0.0044026873340704395,0.9942571135422529
2013-10-30,1,0.0006118562171879446,0.0008070363841690479,-0.0035872533041153235,0.0016006982508971592,0.99512957893745
2013-11-01,1,0.0003751694383607733,0.0005065173500606614,-0.005137862301571629,0.0016006982508971592,0.9945400600508874
2013-11-05,1,0.00027782443529892806,0.00045509202073229656,-0.004673043230045079,0.0016006982508971592,0.9955347864738818
2013-11-07,1,0.00042443654382566434,0.0006248229329239645,-0.004673043230045079,0.0016006982508971592,0.9954110726592545
2013-11-11,-1,-0.00034128130237256603,-0.000327858083568677,-0.005029995674659496,0.002364994352622309,0.995072533907441
2013-11-13,-1,-0.00021718800652180533,-0.00019196386056233387,-0.00729741951207525,0.0010546237329661608,0.9945191103404543
2013-11-15,1,0.0006834954694380521,0.0009569763813681547,-0.00729741951207525,0.0010546237329661608,0.9938698887425413
2013-11-19,1,0.000619498665454348,0.0008099814676559315,-0.007438969435415836,0.0010546237329661608,0.99265205802053
2013-11-21,1,0.0006276141498452476,0.0008810160147415929,-0.00729741951207525,0.0010546237329661608,0.9926485528905589
2013-11-25,1,0.0006831132993739682,0.0009709480057520093,-0.00729741951207525,0.0072350648006197305,0.9922576195916173
2013-11-27,1,0.0006751796533189556,0.0009597043751396076,-0.00729741951207525,0.0072350648006197305,0.9922143734812102
2013-12-02,1,0.00012580781288371512,0.00031547508741389303,-0.007276226307178649,0.0072350648006197305,0.9929179119704998
2013-12-04,-1,-0.0007266025594430632,-0.0007213744626295069,-0.00789751285272368,0.005120934605940668,0.9927947688615947
2013-12-06,-1,-0.0005234025133328431,-0.0004779683056744546,-0.007276226307178649,0.006240611798023807,0.9929073434262752
2013-12-10,-1,-0.0004507006150651478,-0.00035669831921209195,-0.008422385608908678,0.006240611798023807,0.991773168260399
2013-12-12,-1,-0.000646551369445685,-0.0005831356497026575,-0.008379363445829112,0.006240611798023807,0.9916235298034787
2013-12-16,-1,-0.000677215676940422,-0.000585082027855888,-0.008379363445829112,0.006240611798023807,0.991006417859264
2013-12-18,1,0.00013369159304823098,0.0003464612811117653,-0.004588512726234606,0.005433804601720283,0.9922969273914429
2013-12-20,-1,-0.0011909901003175575,-0.0011602965022857292,-0.008776786191163817,0.005433804601720283,0.9914287003789416
2013-12-24,-1,-0.0003515321074821472,-0.00024743658631844407,-0.008776786191163817,0.005293951801348584,0.9917878109940098
2013-12-27,-1,-0.00019734747931153264,-7.515408196534312e-05,-0.008776786191163817,0.005293951801348584,0.991590024198768
2013-12-31,-1,-0.0002858736047679973,-0.00018498943876581766,-0.008776786191163817,0.005433804601720283,0.9912031004336352
2014-01-03,-1,-0.0007647251317898144,-0.000719694441049017,-0.009178491478034359,0.005924129240312784,0.9898256973963766
2014-01-07,-1,-0.0005372344007286431,-0.00048296222525921946,-0.009178491478034359,0.005781715998703357,0.9901984051363143
2014-01-09,-1,-0.0026910950716488597,-0.002438849327719512,-0.005334167279435089,0.005781715998703357,0.9915481467546403
2014-01-13,-1,-0.00292005477663358,-0.0026535713661670498,-0.003983207653702963,0.006538372349550391,0.9918006945745854
2014-01-15,-1,-0.002800040170311717,-0.0025121832295868594,-0.003983207653702963,0.005638552304799486,0.9930526373808034
2014-01-17,-1,-0.002767955900427122,-0.0024830339320925546,-0.007128933925551022,0.00414063414625009,0.9923798829258323
2014-01-22,-1,-0.0036733639218774873,-0.0032575097100209357,-0.0032838789279657637,0.007272923507220379,0.9902607497181422
2014-01-24,-1,-0.00239607286572881,-0.00207838884755977,-0.00803857945139893,0.006538372349550391,0.9898576825835644
2014-01-28,-1,-0.0022230595043158936,-0.0019598661169880184,-0.004931303774790214,0.006538372349550391,0.9899341673860843
2014-01-30,-1,-0.0021024395345710023,-0.0018337906313465242,-0.004931303774790214,0.006843432425508768,0.9889673585645763
2014-02-03,-1,-0.0030624693875135594,-0.0026878087880207475,-0.0035011261782946774,0.007004981415027912,0.989784680957576
2014-02-05,-1,-0.0024679082017626053,-0.002193700217919219,-0.006969986740247441,0.00414063414625009,0.9899358176507862
2014-02-07,-1,-0.001845820693873869,-0.0016863646835040614,-0.007612813489850582,0.00414063414625009,0.9901447301568046
2014-02-11,-1,-0.0012659475452418756,-0.0011922836339736363,-0.008174377576932268,0.0021136030116058126,0.9901633561568532
2014-02-13,-1,-0.0015073198927098058,-0.0013688062898194533,-0.008174377576932268,0.0016852953675131977,0.9900430149853283
2014-02-18,-1,-0.002871299232524664,-0.0025575378054773514,-0.007042128032438914,0.005848855435108288,0.9904340680312371
2014-02-20,-1,-0.0012686236086556358,-0.0011552575603803361,-0.007158812830892098,0.0025141530121597015,0.991627766373235
2014-02-24,-1,-0.0032178968124401287,-0.002837489169040885,-0.00665301266137206,0.002846609162039161,0.9929476405873119
2014-02-26,-1,-0.0029629021724259987,-0.00261817106117275,-0.00665301266137206,0.00459822469028407,0.9929455467566839
2014-02-28,-1,-0.0018187210073565495,-0.0016205001058092377,-0.00665301266137206,0.00459822469028407,0.9933781768622099
2014-03-04,-1,-0.002467696920021875,-0.0021630738642610995,-0.00665301266137206,0.003954727011194447,0.9938175026049951
2014-03-06,-1,-0.0023361365938377046,-0.0020795195497187342,-0.006398868629374079,0.00459822469028407,0.9938104371593416
2014-03-10,-1,-0.0027934949029361136,-0.002481394180582695,-0.005834822987130068,0.00459822469028407,0.9937107177470166
2014-03-12,-1,-0.0030387426388228883,-0.0027236810226705112,-0.0045281933007266535,0.00459822469028407,0.9937219425703568
2014-03-14,-1,-0.0023060133443613415,-0.002148792473250849,-0.004993482285039998,0.00459822469028407,0.9936011998024482
2014-03-18,-1,-0.0012645483540221227,-0.001259839982990995,-0.005834822987130068,0.003900179665641025,0.9939872444386966
2014-03-20,-1,-0.0009770947334943828,-0.000957637623342723,-0.004993482285039998,0.003939494617284212,0.9944797991073661
2014-03-24,-1,-0.0008323293682809985,-0.0007828701897211068,-0.0045281933007266535,0.004303554446385102,0.9944894298724365
2014-03-26,-1,-0.0006541321613107557,-0.0005889351636549124,-0.006097260941219714,0.003939494617284212,0.9933341203513005
2014-03-28,-1,-0.00031189130463664047,-0.00019010783169961967,-0.0073610225347964285,0.003939494617284212,0.9933215002408433
2014-04-01,0,-0.00012351212010880235,1.0285419037631973e-05,-0.0073610225347964285,0.003939494617284212,0.9934737231228332
2014-04-03,1,0.0002506737678066404,0.0004376754424595139,-0.0073610225347964285,0.003939494617284212,0.9932264391361056
2014-04-07,1,0.0003062350209025659,0.0004976323031479246,-0.0073610225347964285,0.0046192705202546865,0.99306190807753
2014-04-09,1,0.00033836880624116446,0.000538772129920278,-0.0073610225347964285,0.008014455725398748,0.9923825211347514
2014-04-11,0,-9.599163268100917e-05,6.196448224156349e-05,-0.0032385098089532474,0.008014455725398748,0.992919311519022
2014-04-15,1,8.064239342018957e-05,0.00028489587262790664,-0.0031975727535865682,0.008014455725398748,0.993055120310785
2014-04-17,1,0.0005196222773602422,0.0007714912789606886,-0.0031975727535865682,0.008014455725398748,0.9925831463981779
2014-04-22,1,0.0006285341246444411,0.0008891811362975776,-0.006477842667352073,0.00632458932982731,0.9924611350769957
2014-04-24,-1,-0.000656936619093367,-0.0005641875000733012,-0.0013105241658758191,0.008702582571351725,0.9931009205459206
2014-04-28,-1,-0.0005835290322148273,-0.0005040073762444517,-0.0013105241658758191,0.006425439767972911,0.9937774591124205
2014-04-30,-1,-0.0003163777956276775,-0.00019188285835047662,-0.0013105241658758191,0.006425439767972911,0.9939676798211828
2014-05-02,1,7.574489977729075e-05,0.00025457548231872364,-0.0005619335073555019,0.005763677591238908,0.994392632223417
2014-05-06,1,0.0002828724881931619,0.00047230524913124906,-0.0025195303517079365,0.005737068621458879,0.9938697448574996
2014-05-08,1,0.0006111725476232355,0.0008037314872023208,-0.0025195303517079365,0.0037145817519026536,0.9946895918169532
2014-05-12,1,0.00048076065625666674,0.0006560677656364515,-0.0013842254754929191,0.0037145817519026536,0.9948571582622403
2014-05-14,1,0.0004452373933805209,0.0006273737707082782,-0.0025195303517079365,0.003483176627374568,0.9948073212099916
2014-05-16,1,0.0010007813991110904,0.0012426135160274923,-0.0025195303517079365,0.0028999097755237914,0.9959292286851853
2014-05-20,1,0.001043888415494799,0.0013300078879572652,-0.0021241745207472617,0.0033432812531177182,0.9962376187357265
2014-05-22,1,0.0017069592243003028,0.002091378885985732,-0.0021241745207472617,0.002844372556612502,0.9968309459336202
2014-05-27,1,0.0018799573720707204,0.0022885861830457595,-0.0022311044998665043,0.002844372556612502,0.9964448721644978
2014-05-29,1,0.001712551440786237,0.002064697764642932,-0.0028875177031294674,0.002844372556612502,0.9962432264410896
2014-06-02,1,0.0023757861571467925,0.0028470862270867456,-0.0032837772250152225,0.0026939055172022007,0.9957806810417085
2014-06-04,1,0.0008642172461047705,0.0010585400737282984,-0.0022783019139303072,0.0028999097755237914,0.9962399740342948
2014-06-06,1,0.0008816401031320222,0.0010527526173823634,-0.0022783019139303072,0.0028999097755237914,0.996398402610615
2014-06-10,1,0.0014100467280293357,0.0016820381818894346,-0.0032837772250152225,0.002858917854565506,0.9954727306529164
2014-06-12,1,0.0011025634497486034,0.0013394779283409076,-0.001719892149213054,0.0046690629035943615,0.9947820293922768
2014-06-16,1,0.0008948852122473048,0.0010327171274544795,-0.001719892149213054,0.0046690629035943615,0.9945800724158934
2014-06-18,1,0.001110177183472933,0.0012910672976874295,-0.0022248287727042572,0.005166003437140991,0.9940870607179974
2014-06-20,1,0.0009491405885291509,0.0010943979390815259,-0.001750849747214914,0.006126520368838696,0.9937065934020209
2014-06-24,1,0.000979134243044024,0.0011398061745582161,-0.0010821753590481626,0.005610501521632214,0.9941704324526262
2014-06-26,1,0.0003908938285117858,0.00039775991357955806,0.0003572124654942151,0.005610501521632214,0.9938712129416922
2014-06-30,1,0.0002785779355731685,0.00027944614830842027,0.0009562947726113939,0.006295787942322186,0.9936780421039781
2014-07-02,1,0.0007592503628857987,0.0008385517900100891,-0.0010821753590481626,0.00560456712932237,0.9931192572455617
2014-07-07,1,0.0008953179405551783,0.000996179219340322,-0.0020400232474720665,0.006277984765392652,0.9922339800432561
2014-07-09,1,0.00032587995848323104,0.00035439032654254284,-0.00569877357954009,0.006277984765392652,0.9920446069705696
2014-07-11,1,0.0006746025937324521,0.0006815255401294675,-0.009995628563930953,0.0050781602011778304,0.9929219383527346
2014-07-15,1,0.0018297948852738011,0.0020519000843429135,-0.009995628563930953,0.0050781602011778304,0.9930543895120012
2014-07-17,1,0.0008114444205121656,0.0008171051333527,-0.005473133450391442,0.004759698053400601,0.9938150388490278
2014-07-21,1,0.0010080949626632915,0.001040630308331378,-0.005503733276136185,0.0037460587436096843,0.9939974930152302
2014-07-23,1,0.001484789088061638,0.0016368196538764747,-0.005503733276136185,0.0029356922680613684,0.9941441097771746
2014-07-25,1,0.0018253433400904607,0.002031536438579399,-0.005972263027407319,0.0018444816976378648,0.9938477257077529
2014-07-29,1,0.002047852497675993,0.0022598574912424843,-0.005972263027407319,0.0017371099851759483,0.9937587986570015
2014-07-31,1,0.0008346554134203003,0.0008638067830178595,-0.00423782480701119,0.002141928599880153,0.9955334142203731
2014-08-04,1,0.00030683271093074986,0.0003722020651420584,-0.0022503938879069024,0.002141928599880153,0.9960494053287812
2014-08-06,-1,-0.0007224116121127425,-0.0005240078714750601,-0.0011626922183208739,0.0022736451919991587,0.9968015122357087
2014-08-08,-1,-0.0008324419042802753,-0.0006428892924330135,-0.0011626922183208739,0.002721270886154506,0.9966608978930251
2014-08-12,-1,-0.0005518281790120455,-0.0004149214094957457,-0.003102560665332736,0.0022736451919991587,0.9962024432736112
2014-08-14,-1,-0.000614545547474905,-0.0004622077410301441,-0.003426183567229752,0.0027617399358214126,0.9955357079017507
2014-08-18,-1,-0.0008488494967393441,-0.0006697697049655657,-0.003102560665332736,0.0038473030187113665,0.9950597399165079
2014-08-20,-1,-0.0006539742689859729,-0.0005083864742268755,-0.003102560665332736,0.005162981660169052,0.9944847388721757
2014-08-22,-1,-0.0007024541564933163,-0.0005662382170370851,-0.003102560665332736,0.006059270408228729,0.993924443341151
2014-08-26,-1,-0.00011715160372297847,-6.24707284213191e-05,-0.0032498538058411157,0.005162981660169052,0.9942216699813274
2014-08-28,-1,-5.182660589675813e-05,-4.718168447486365e-06,-0.003877406588942453,0.005162981660169052,0.9938111937808314
2014-09-02,1,0.00010235229750666375,0.00013723123421620158,-0.003877406588942453,0.004894668067233442,0.9940208285795664
2014-09-04,-1,-0.00040198101413433713,-0.0002755159449169432,-0.006087941365134049,0.004894668067233442,0.9936312580749991
2014-09-08,-1,-0.0006753286962679835,-0.0005099363972103371,-0.003877406588942453,0.005860780621793721,0.9934063863046527
2014-09-10,-1,-0.0009906300896311972,-0.0008183488930482134,-0.003877406588942453,0.005860780621793721,0.9934506911179527
2014-09-12,-1,-0.0011430436834212437,-0.0009640406189857354,-0.003877406588942453,0.005690463378717581,0.9933468964640109
2014-09-16,-1,-0.001447992473704477,-0.0011722338224101924,-0.006032291773022693,0.004894668067233442,0.9934285592410578
2014-09-18,-1,-0.000893680791115385,-0.0006915102246633012,-0.0066629736498469375,0.0033749770733916954,0.9937671957772221
2014-09-22,-1,-0.0005693574407173575,-0.00041023859033665266,-0.0066629736498469375,0.00407437532351293,0.9936546899589375
2014-09-24,-1,-0.000540665282667076,-0.00039682769958549716,-0.00785012849298344,0.0044547868286935735,0.9934715439650867
2014-09-26,-1,-0.000661305572820695,-0.0005160999458512065,-0.006617266272815501,0.005478922200140684,0.9934299769476508
2014-09-30,-1,-5.344479134316104e-05,-4.621998814250094e-06,-0.006617266272815501,0.008423530670596997,0.9924023501240984
2014-10-02,-1,-0.0007474154658009877,-0.0006057013717395977,-0.005468158432927861,0.008423530670596997,0.9928771585297527
2014-10-06,-1,-0.0002808442609939142,-0.0001875653862618896,-0.005468158432927861,0.007358261431772345,0.9931998233569275
2014-10-08,1,0.00012412117212102407,0.0001482238929894633,-0.003630043497495395,0.007358261431772345,0.9937151261385875
2014-10-10,-1,-0.0007885932176058133,-0.0006424910727443071,-0.0027267821705454585,0.008425596725979059,0.9940062133750436
2014-10-14,-1,-0.0009510952751565443,-0.0008174257210226685,-0.00227709295757584,0.008425596725979059,0.9944688122569332
2014-10-16,-1,-0.0012614469216901075,-0.0010987206538466288,-0.0013596846512223897,0.008425596725979059,0.9941937763958568
2014-10-20,-1,-0.0005277107973900065,-0.0004538712340093732,-0.0018826580623467414,0.007129845991236227,0.9948689897898351
2014-10-22,-1,-0.0005074280400905602,-0.0004482234758406931,-0.0019984838824833088,0.007129845991236227,0.9946344816466012
2014-10-24,-1,-0.0005244770736960813,-0.00043456960043320044,-0.00227709295757584,0.006148019324370018,0.9949929961346187
2014-10-28,1,0.0005664097493294962,0.000614279262077734,-0.0028725617711405286,0.003126882992448516,0.9952412818210229
2014-10-30,1,0.0005675029919905981,0.0006152676393878648,-0.0028725617711405286,0.006148019324370018,0.9942531937342425
2014-11-03,1,0.0007034842480717292,0.0007484221954408502,-0.0041119212421882965,0.004576859592983962,0.9931085143573637
2014-11-05,1,0.0006925919880378451,0.0007489091218497477,-0.006085367727063539,0.004576859592983962,0.9928330907860443
2014-11-07,1,0.0010540704468952659,0.0011608825352702112,-0.006085367727063539,0.004576859592983962,0.9928641008634573
2014-11-11,1,0.0009201983602824054,0.0009866054182532018,-0.011837204175632597,0.004576859592983962,0.990382920611095
2014-11-13,1,0.0011562444675233443,0.0012498772185098716,-0.014168502583128881,0.001273320622805578,0.9897287656764889
2014-11-17,1,0.0012036479342753528,0.0012941685612787614,-0.014168502583128881,0.0009043346978490014,0.9897966436968471
2014-11-19,1,0.0006420956815900393,0.0006534968227865563,-0.011837204175632597,0.004414815727507956,0.9894357081722247
2014-11-21,1,0.0005155343487806788,0.0005414833018800577,-0.011837204175632597,0.007079665023313499,0.9892600335911551
2014-11-25,0,-6.763662133460151e-06,3.058512202246927e-05,-0.007654335775262662,0.007079665023313499,0.9900544622518576
2014-11-28,1,0.000594020206974708,0.0006030805753528758,-0.007654335775262662,0.003919795033471798,0.9906452624946998
2014-12-02,1,0.0002216492977438642,0.00024181061113023086,-0.006486934946057447,0.003919795033471798,0.9913715503144943
2014-12-04,1,0.0001677918887841433,0.00019601689932554237,-0.006934172273559117,0.003919795033471798,0.9911367989914616
2014-12-08,1,0.00014094623793169895,0.00015322426404731573,-0.009133845826136168,0.003919795033471798,0.9902138642965397
2014-12-10,-1,-0.0011485989538458398,-0.0010222788690401256,-0.006934172273559117,0.005512430073082324,0.9914067891573022
2014-12-12,-1,-0.001388612484257432,-0.0012426675117292096,-0.005089304149583421,0.00765573853337927,0.9918160600902166
2014-12-16,-1,-0.0011868587508040514,-0.0010791638577413855,-0.005089304149583421,0.00765573853337927,0.9917886617713157
2014-12-18,1,0.0005358925771458597,0.0006654098436133928,-0.005089304149583421,0.004700222784530349,0.9926406974333074
2014-12-22,1,0.0004199054565657437,0.0004870239469702917,-0.006934172273559117,0.003965793710239352,0.9926079209436256
2014-12-24,1,0.000505817205103521,0.000576483771176301,-0.00845422543904923,0.003965793710239352,0.9918634757872161
2014-12-29,1,6.027999695373346e-05,8.345673222205914e-05,-0.009008199524091688,0.0038756359721256145,0.9913892538029612
2014-12-31,-1,-0.0007253629767841341,-0.0005941972482236184,-0.008731735389290542,0.0038756359721256145,0.9917605305032695
2015-01-05,-1,-0.0008402756928860156,-0.0007012274191431493,-0.008731735389290542,0.00765573853337927,0.9900325698792602
2015-01-07,-1,-0.0011961611540991126,-0.0010291684490316196,-0.007023091948155046,0.004680229863671668,0.9912525861243899
2015-01-09,-1,-0.0009175324366203621,-0.0007791235313288496,-0.00526703949465137,0.004680229863671668,0.991032734610787
2015-01-13,-1,-0.0006175372711817115,-0.0005167231221785101,-0.00526703949465137,0.006683502007804529,0.990787693536124
2015-01-15,-1,-0.0007433592404974324,-0.000621436420284278,-0.005984725634024524,0.006683502007804529,0.9907091591189496
2015-01-20,1,0.0002714181694092487,0.0002904332550060335,-0.005984725634024524,0.002604519950359433,0.9913596769244585
2015-01-22,1,9.543813450045387e-05,9.660571174716822e-05,-0.005115585547076447,0.0024920820264836014,0.9918266669084327
2015-01-26,-1,-0.0003395086062533819,-0.00030202401390709956,-0.004868937237215041,0.006683502007804529,0.9921081559242502
2015-01-28,-1,-0.0009800333404125575,-0.0008674348693415954,-0.0041232845396671925,0.006683502007804529,0.9927679562344656
2015-01-30,-1,-0.0012704548832139441,-0.0011192012499166033,-0.0029983399004715103,0.006683502007804529,0.9929747557766289
2015-02-03,1,0.0001380620096920746,0.00014900209982106355,-0.0041232845396671925,0.0020791526063590575,0.9949316533697833
2015-02-05,0,-1.6379853623540438e-05,2.4790276716551513e-05,-0.0043968260822190245,0.0020791526063590575,0.994251718148058
2015-02-09,1,0.0009642228471481508,0.0010665120795054954,-0.004400535880587535,0.001617939768414561,0.9949780680070415
2015-02-11,1,0.0015724456320672386,0.0017831848704940039,-0.004400535880587535,0.001617939768414561,0.9942036177538642
2015-02-13,1,0.0014298891115354724,0.0016390310030576902,-0.0033137036542254454,0.002556823487794892,0.9945603637264884
2015-02-18,1,0.0011417311802313522,0.0013080672479690969,-0.0033137036542254454,0.003485994447762101,0.9941785271658872
2015-02-20,1,0.0010321498899049986,0.0011732312312085374,-0.004274262424477824,0.004002146228261807,0.9937571169446205
2015-02-24,1,0.0012280227262680043,0.0014019669563064838,-0.004686164230499219,0.003485994447762101,0.9941231182905182
2015-02-26,1,0.001069725299527298,0.0011985474383595805,-0.006394913906433286,0.0025875706528503254,0.9931841893626533
2015-03-02,1,0.0013757775437504053,0.00157337079640529,-0.006394913906433286,0.004002146228261807,0.9926812851546291
2015-03-04,1,0.0010389372436201611,0.0011816333175168386,-0.006394913906433286,0.0054462421462242085,0.9924245298665074
2015-03-06,1,0.00026401510725105855,0.00026793311939602994,-0.00522385599720981,0.006673569255391211,0.9924766951250034
2015-03-10,-1,-0.0005585799047544749,-0.00044103271797759996,-0.00522385599720981,0.006673569255391211,0.9926816679535453
2015-03-12,1,9.967716466866962e-05,0.0001609291207768713,-0.00522385599720981,0.0054462421462242085,0.9936968406318678
2015-03-16,1,0.0007440496381160355,0.0007891915786622202,-0.00522385599720981,0.004532143618575954,0.9939005909061045
2015-03-18,1,0.0007651882164263405,0.0008038102716335453,-0.004686164230499219,0.004273732150888284,0.9944827525192218
2015-03-20,1,0.0008582159391480155,0.0009250812821983,-0.005065416391789982,0.004273732150888284,0.994141182579015
2015-03-24,1,0.0011035802465234699,0.0012540138399075597,-0.004779997510116355,0.004704508680538141,0.9938812894594369
2015-03-26,1,0.0005110640464101725,0.0005812950341502469,-0.003045368979902605,0.006506271256021605,0.9943893704733002
2015-03-30,1,0.0010945066480676727,0.0012586628357968885,-0.003045368979902605,0.006506271256021605,0.9946832208130466
2015-04-01,1,0.0009456519492544847,0.001087956053467717,-0.002542284826013968,0.005247442604448978,0.9952516182059808
2015-04-06,1,0.0015347549474118163,0.0017734242461072205,-0.002542284826013968,0.004273732150888284,0.995650287900515
2015-04-08,1,0.0011690777013190848,0.001350542904010567,-0.0027461805291210733,0.004273732150888284,0.9953331115419758
2015-04-10,1,0.001399244033268081,0.0016336561084437451,-0.0027364790461117307,0.00523627562532333,0.9952977099701971
2015-04-14,1,0.0014453930414798687,0.0016956307398780378,-0.003774046140993767,0.00523627562532333,0.9949487944584543
2015-04-16,1,0.0012220921519606942,0.001410794910442689,-0.003774046140993767,0.005653339149900638,0.9950846105985772
2015-04-20,1,0.0012171164180477937,0.0013957250292839067,-0.003664867080700384,0.0028691689260209987,0.9954388757002781
2015-04-22,1,0.0010922198156501225,0.001226251635824134,-0.003605241490652967,0.002368999441370925,0.9958697402965816
2015-04-24,1,0.0017246424449446772,0.0019912646070288577,-0.003664867080700384,0.002368999441370925,0.9957884151157568
2015-04-28,1,0.0015191621071131084,0.0017059990021879791,-0.003819537752548884,0.002368999441370925,0.9958838984672811
2015-04-30,1,0.0013011743516502176,0.0014460101816999508,-0.003819537752548884,0.002368999441370925,0.9958881006949567
2015-05-04,1,0.0013620595555380016,0.0015144128175379312,-0.003984888091695725,0.002368999441370925,0.9955689653145093
2015-05-06,-1,-0.00011191557886007641,-4.4301036291854946e-05,-0.003819537752548884,0.002368999441370925,0.9957966501257067
2015-05-08,-1,-0.0001143359703567654,-9.266654932219259e-06,-0.003984888091695725,0.002368999441370925,0.9951936741983767
2015-05-12,-1,-0.0005943871311435132,-0.00042875513636644793,-0.003819537752548884,0.0027659401364547006,0.9956283587495834
2015-05-14,1,0.00029127163022522656,0.0003126510303625752,-0.003984888091695725,0.0027659401364547006,0.9948049371415509
2015-05-18,1,0.00016209369854398568,0.00018252500712028958,-0.004660090705589661,0.0028778722904718025,0.9945367987002314
2015-05-20,1,0.00024470177893241195,0.00025227293249835544,-0.004660090705589661,0.003332994783670417,0.9940184081079334
2015-05-22,1,9.565283355304771e-05,0.00012554375469824437,-0.004660090705589661,0.002818395841577317,0.9941723074182004
2015-05-27,-1,-0.00031031856055175987,-0.00020875213175415905,-0.005590618267607003,0.003171162776630251,0.9939092174940243
2015-05-29,-1,-0.000525388843712014,-0.00038864243267985177,-0.005590618267607003,0.003957281524915503,0.9936853515026386
2015-06-02,-1,-0.000886993798916916,-0.0006903310332821668,-0.007379127321529146,0.003957281524915503,0.9929991931142634
2015-06-04,-1,-0.0013648870057333547,-0.0011299512866959553,-0.005590618267607003,0.004597099834768412,0.9932404623518035
2015-06-08,-1,-0.0016191788235527735,-0.0013683662163073884,-0.0038884961246452134,0.004610569098723151,0.9939489115016243
2015-06-10,-1,-0.0015030858153208967,-0.001257568539236455,-0.006584586977826075,0.004610569098723151,0.9932954464967952
2015-06-12,-1,-0.0012051261156188877,-0.0010298989669441832,-0.005590618267607003,0.004610569098723151,0.9929769707274975
2015-06-16,-1,-0.0012157991576973658,-0.0010294379350050597,-0.0041881091012469255,0.004452916346433024,0.9933812217724012
2015-06-18,-1,-0.0012593781510635259,-0.0010448511799481587,-0.005385718929484532,0.004452916346433024,0.9933019531093655
2015-06-22,-1,-0.001674096472664386,-0.001385811899893643,-0.005480848709898468,0.004610569098723151,0.9920095562654035
2015-06-24,-1,-0.0018908775557819925,-0.0015573464071433354,-0.005480848709898468,0.004452916346433024,0.9922719694443857
2015-06-26,-1,-0.0008491566154207933,-0.0006984561919617723,-0.0067336359697202025,0.004452916346433024,0.9921209818770839
2015-06-30,-1,-0.001337446344096287,-0.0011295935304868631,-0.005435401926782575,0.005440022110842824,0.9922652589500544
2015-07-02,-1,-0.00045561472110972425,-0.0003758408206514844,-0.005435401926782575,0.004452916346433024,0.9925775042317422
2015-07-07,-1,-0.0001702810172753679,-0.0001435433180534426,-0.006462387577059339,0.004303784804690736,0.9924327839278884
2015-07-09,-1,-0.0008235838925864591,-0.000707734389917665,-0.00467537487575213,0.004303784804690736,0.993405539765848
2015-07-13,-1,-0.0002953609503213975,-0.00023147199930394793,-0.0052109229958777585,0.003997519990806341,0.993256269732209
2015-07-15,-1,-0.0002737058205059344,-0.0002139190199589687,-0.0052109229958777585,0.005897571074494099,0.992887104681809
2015-07-17,-1,-3.4092380769998185e-05,-7.125623298135094e-06,-0.004868491698121225,0.004198261974558214,0.9932718437590993
2015-07-21,-1,-0.00022124463127849435,-0.0001755599913084957,-0.004118342773818902,0.0028902234714424154,0.9948957299887123
2015-07-23,-1,-0.0005143372162342079,-0.00043692204771066264,-0.004118342773818902,0.0028902234714424154,0.9949577081775537
2015-07-27,-1,-0.0014956561755548124,-0.0013280669792052429,-0.004425603362106841,0.0028902234714424154,0.9930902156883606
2015-07-29,-1,-0.0007340871874195398,-0.0006136133154543849,-0.005939485190708203,0.0028902234714424154,0.9908408517715798
2015-07-31,-1,-0.0008462732434439478,-0.0006963332899171137,-0.005939485190708203,0.004198261974558214,0.9899187832276302
2015-08-04,-1,-0.0005044209402145174,-0.0004287296369668116,-0.007293788438325038,0.001786789911628476,0.9891635269880706
2015-08-06,-1,-0.0002464475902704688,-0.00021138622230953836,-0.007293788438325038,0.007915192453531589,0.9881881654670056
2015-08-10,1,0.00017964143711951558,0.00019914783145003474,-0.013012820075640098,0.007915192453531589,0.9871829254196475
2015-08-12,1,0.00048731051803606556,0.0005464699227609248,-0.013012820075640098,0.0031963439048680133,0.9871288240632509
2015-08-14,1,0.00027321112095966946,0.00029978555064825177,-0.013012820075640098,0.006494179605670017,0.987202211358609
2015-08-18,1,2.892573608539069e-05,5.4942828382997225e-05,-0.013012820075640098,0.008624670350477783,0.9863848855783388
2015-08-20,-1,-4.149762048667941e-05,-2.383895859611008e-05,-0.017399978211875385,0.008624670350477783,0.9852703572187714
2015-08-24,-1,-0.0007005920369287864,-0.000601435607807849,-0.011658073824963772,0.008624670350477783,0.9869597561748673
2015-08-26,-1,-0.0008703572861737685,-0.0007720232099050678,-0.010266249399910655,0.006494179605670017,0.9895762097186382
2015-08-28,-1,-0.0002625897238316856,-0.00022498585596914463,-0.010723754949931096,0.005355133048475617,0.9900570002481588
2015-09-01,-1,-0.0006633175563250399,-0.0005815633842798341,-0.010266249399910655,0.005355133048475617,0.9910905824352639
2015-09-03,-1,-0.00023706285543010562,-0.00020577876579579258,-0.010723754949931096,0.0026129977427628705,0.9912180814535297
2015-09-08,1,0.00011103289386634569,0.00012438267609722308,-0.010266249399910655,0.0026129977427628705,0.9918536824213289
2015-09-10,-1,-5.1240173396317545e-05,-4.9208505267806395e-05,-0.008726255851902011,0.0035015068567252356,0.9918215822205796
2015-09-14,1,0.00011596300558728061,0.0001455696987491954,-0.008726255851902011,0.0030039729746259144,0.9919440907706506
2015-09-16,1,0.0004898266783731537,0.0005814978362605297,-0.0087876947622551,0.0026129977427628705,0.992385407309089
2015-09-18,1,4.614865710297013e-05,9.442834601857444e-05,-0.005665598836061624,0.0030039729746259144,0.9934191078728156
2015-09-22,1,7.88329906508306e-06,4.937441736112112e-05,-0.004775011015103346,0.0030039729746259144,0.993481645587649
2015-09-24,-1,-8.867016400067884e-05,-5.5754120067898246e-05,-0.004775011015103346,0.004544189823337623,0.9925464181213273
2015-09-28,-1,-0.00038010051917667623,-0.00035727047969645554,-0.0032865268451777265,0.006579216414076107,0.992652051741896
2015-09-30,-1,-0.00027095746116904463,-0.000265923582679257,-0.003119556780344906,0.007202242789604709,0.9923629078630196
2015-10-02,-1,-0.0006645513769776647,-0.0006129016521392691,-0.0016172539361661753,0.009085652714632459,0.9923765662891758
2015-10-06,1,0.00041129723563116386,0.0005069601396280471,-0.002624469248195335,0.007202242789604709,0.9936496891580285
2015-10-08,1,0.0004547763640945041,0.0005471442812874092,-0.002624469248195335,0.0060913202908207936,0.9939216403181431
2015-10-12,1,0.0005045674187750056,0.000608235802702475,-0.006768967844914769,0.0060913202908207936,0.9931469458301745
2015-10-14,1,0.000363202681776122,0.00044683702423731865,-0.004979739039631311,0.0060913202908207936,0.993156378673829
2015-10-16,1,0.0007379788221037105,0.0008711635155125404,-0.00739060827357359,0.005129468217165711,0.992623091325741
2015-10-20,1,0.00102477112549949,0.0011954414403881652,-0.00739060827357359,0.005129468217165711,0.9923183302265034
2015-10-22,1,0.0013323464993995895,0.0015358494013170303,-0.006768967844914769,0.006076438287472187,0.9932037764629148
2015-10-26,1,0.0013784258122924195,0.0015690940855080122,-0.00826734683353466,0.005322261672326637,0.9925577778645133
2015-10-28,1,0.0012849045669609432,0.0014453314573044942,-0.00826734683353466,0.0045535422434291204,0.9926067605240112
2015-10-30,1,0.0014758561887286141,0.0016610208638792963,-0.00826734683353466,0.004867560506396193,0.9927134856791026
2015-11-03,1,0.0011813502796059572,0.0013195943248661254,-0.008882085566025374,0.004867560506396193,0.9925077008452993
2015-11-05,1,0.0010577627156290268,0.001184524201529172,-0.008882085566025374,0.005322261672326637,0.9912430671518931
2015-11-09,1,0.0007387017841907344,0.0008348613527846271,-0.008032042730177253,0.006716411106409621,0.9915292549995448
2015-11-11,1,0.0006807032755773953,0.0007607692745025765,-0.008032042730177253,0.006716411106409621,0.9914918273821699
2015-11-13,1,9.710145136385423e-05,9.738485105799444e-05,-0.007865473135270825,0.007090145866753607,0.9914162182352857
2015-11-17,1,0.0006279467208731239,0.0007089795668233404,-0.007865473135270825,0.007090145866753607,0.991313492564051
2015-11-19,1,0.0007444114433685175,0.0008135355333120286,-0.00826734683353466,0.005373338620060289,0.9908950678275911
2015-11-23,1,0.0004954018578732611,0.0005495004569112973,-0.007865473135270825,0.0075112717852112735,0.9910077828090512
2015-11-25,1,0.0004307387332682641,0.0004783576927521216,-0.007865473135270825,0.008139270151773369,0.9906122233593565
2015-11-30,1,0.00041773954924473344,0.0004369003154600028,-0.007865473135270825,0.00964940795751949,0.9906474686022141
2015-12-02,1,0.0004432686296187057,0.0005013136198535845,-0.008214458800829503,0.00964940795751949,0.9904422755936387
2015-12-04,1,0.0010277005058198015,0.0011667041551401455,-0.008065755392718931,0.00964940795751949,0.9910739803198096
2015-12-08,1,0.0010986929084773952,0.001253875633498001,-0.008941486780186055,0.00964940795751949,0.9904121280551037
2015-12-10,1,0.0007573866886863104,0.0008579477021211903,-0.00941988044538241,0.00964940795751949,0.9901809496336582
2015-12-14,1,0.0006645995948968596,0.000732333724882069,-0.00941988044538241,0.007993523870290948,0.9903001156373
2015-12-16,1,0.0011346437438764993,0.0012461813342668222,-0.009741091972748587,0.007993523870290948,0.9899810806331916
2015-12-18,1,0.0007773503994549744,0.0008654898376251204,-0.009741091972748587,0.00964940795751949,0.990188589885888
2015-12-22,1,0.001293191797293206,0.0014508366283733387,-0.009741091972748587,0.01071828735527158,0.988106572884027
2015-12-24,1,0.0013971538967593004,0.001567420735831297,-0.009741091972748587,0.010861013321033727,0.9877068370941581
2015-12-29,1,0.0016484113836684041,0.0018472086610360418,-0.009741091972748587,0.014342312385364061,0.987299009793995
2015-12-31,1,0.0012752580838767083,0.0014447900699002271,-0.008109254219128084,0.016201328720037263,0.9869311387691891
2016-01-05,1,0.0016616081966453048,0.0019014715294455673,-0.009741091972748587,0.016201328720037263,0.9864967321936693
2016-01-07,1,0.0009238442029105127,0.001051821642500154,-0.005244930205479953,0.016201328720037263,0.987124364394194
2016-01-11,1,0.0008112201697996627,0.0009230986036526859,-0.0058358559541255095,0.016201328720037263,0.9869902575783678
2016-01-13,1,0.00018391364672258178,0.00019206992936271863,-0.0058358559541255095,0.016201328720037263,0.9872154524517602
2016-01-15,-1,-0.00016777364537378045,-0.00010409538167578829,-0.003943184865938927,0.015898514917566515,0.9876662979609945
2016-01-20,-1,-0.0003788841636833601,-0.0002581871077050545,-0.0034807599899799877,0.015898514917566515,0.9879247328884331
2016-01-22,1,0.0020947853413512737,0.002307932988285795,-0.0034807599899799877,0.014313659508892951,0.9907734888093582
2016-01-26,1,0.002242075838184404,0.0024650546826187813,-0.003943184865938927,0.012797239589488148,0.9914556400405947
2016-01-28,1,0.0029948862486229386,0.0033421890472182655,-0.003943184865938927,0.011111228415679925,0.9919094961542816
2016-02-01,1,0.003975737396149722,0.004477637211214074,-0.004805352756234038,0.006956807146714959,0.992127417149903
2016-02-03,1,0.003598476998360854,0.004027804018588686,-0.004437775777916401,0.006956807146714959,0.9929196382031251
2016-02-05,1,0.00374674942765937,0.004197365759342294,-0.004437775777916401,0.0062099428582333615,0.9931381301779778
2016-02-09,1,0.0033448562998086547,0.0037588228862683575,-0.002563045082031421,0.0062099428582333615,0.9940416155077643
2016-02-11,1,0.002172520735923556,0.0023824142922994657,-0.001618054830278815,0.0062099428582333615,0.9947902864155176
2016-02-16,1,0.0024856021944229694,0.002728149197698576,-0.001618054830278815,0.005017874315635501,0.9953055671256126
2016-02-18,1,0.0026399843763066514,0.002881409897925424,-0.001618054830278815,0.0062099428582333615,0.9951971273933267
2016-02-22,1,0.002459193368359316,0.0026562890704559996,-0.0018925423050892827,0.0062099428582333615,0.9949101978843126
2016-02-24,1,0.0020628525801409075,0.002192301924153281,-0.0027915485322088643,0.0062099428582333615,0.9947501559337817
2016-02-26,1,0.001809417205593731,0.0018671823971294298,-0.003316446714558723,0.007763677310452339,0.9943268395694377
2016-03-01,1,0.002510212298809018,0.0027040087639316358,-0.002462402850317723,0.007763677310452339,0.9947651456466485
2016-03-03,1,0.0026297615624133477,0.0028396964352284783,-0.0017281226965894993,0.0055213843271784075,0.9953127382408656
2016-03-07,1,0.0026560291289757574,0.0028635748181185068,-0.002462402850317723,0.005489062160960017,0.9950890323440954
2016-03-09,1,0.002385864669573131,0.0025459956745356917,-0.004637418750555203,0.004908104051514917,0.9933008474537911
2016-03-11,1,0.0026901966155175173,0.0028929141340539085,-0.005744495499066717,0.004715183480978048,0.9927321144309519
2016-03-15,1,0.0027656581797286185,0.002996976891781908,-0.00636594254891046,0.006838701141771958,0.9919277334809071
2016-03-17,1,0.00328258309730256,0.003609136692466145,-0.00636594254891046,0.0035352873890545865,0.992102220129763
2016-03-21,1,0.0031967629709261994,0.003524313228493548,-0.005744495499066717,0.0066323911272818965,0.9923362782575957
2016-03-23,1,0.0028373271492633544,0.0031172456905345937,-0.007386826990114722,0.0066323911272818965,0.9909719069158288
2016-03-28,1,0.0030702645351738337,0.00337350840480024,-0.007386826990114722,0.0066323911272818965,0.991270704101208
2016-03-30,1,0.0031170237490795935,0.003403474853276813,-0.007386826990114722,0.0066323911272818965,0.9903355449911199
2016-04-01,1,0.002813281837963963,0.003043582833949863,-0.01063441983581269,0.0066323911272818965,0.9896878889069345
2016-04-05,1,0.0023826893428903232,0.002517503950325764,-0.011310479692231638,0.0066323911272818965,0.9894270718714545
2016-04-07,1,0.001298371746538234,0.001311783427165793,-0.00748326026249148,0.0066323911272818965,0.9914690533681461
2016-04-11,1,0.00044832362584824577,0.0006023449916934323,-0.006312238151370812,0.0066323911272818965,0.9919399179000032
2016-04-13,1,0.00045325477516916995,0.0005820142066621647,-0.006312238151370812,0.006924512068159352,0.9920606670090134
2016-04-15,1,0.000588090066906799,0.0006808680455167666,-0.006644061930167213,0.006924512068159352,0.9913047679026902
2016-04-19,1,0.0005579110941369678,0.00068473634125774,-0.006722856204756482,0.0058337685199034315,0.9913604924774184
2016-04-21,-1,-0.0006394738236953058,-0.0003650583783321172,-0.008180116751288638,0.0058337685199034315,0.992210392508732
2016-04-25,0,-8.172444871484418e-05,0.00011645324413266599,-0.010089093699182114,0.005553835364329155,0.9923343045970369
2016-04-27,1,0.00015098506889787088,0.00034383688940299475,-0.010089093699182114,0.005553835364329155,0.9931359324486231
2016-04-29,0,-0.00016711420206870292,4.07484865516893e-05,-0.008180116751288638,0.00622803861228892,0.9931099663498627
2016-05-03,-1,-0.0004315136785192998,-0.00018777324757934528,-0.0079836486062582,0.005824413614334292,0.9933339968152552
2016-05-05,-1,-0.0006888839625720998,-0.0003973030143932854,-0.0079836486062582,0.00622803861228892,0.9929892715770099
2016-05-09,-1,-0.0006607442758632677,-0.00037186186057840034,-0.0079836486062582,0.00637758290290623,0.9920896895010229
2016-05-11,-1,-0.0003149660919564192,-9.816768738357738e-05,-0.007139578487368783,0.00637758290290623,0.9923009622429082
2016-05-13,-1,-0.0010075953066731851,-0.0006745911083784821,-0.004943701573692222,0.007143086003779523,0.9922729781552218
2016-05-17,-1,-0.0008954939193105666,-0.0005965348215674952,-0.004204182721728532,0.008078608772568309,0.992339474685546
2016-05-19,-1,-0.0015772125036454655,-0.001207831049951611,-0.002131626701373089,0.008498224042880573,0.9923134611602784
2016-05-23,-1,-0.001804344264510263,-0.0014200175449692067,-0.0007535667614330574,0.008498224042880573,0.9923090085234729
2016-05-25,-1,-0.0017945308875689035,-0.001375702888296236,-0.001445067212090715,0.00855236827672109,0.9925252606278521
2016-05-27,-1,-0.0013459763255582093,-0.0009820190273606517,-0.002131626701373089,0.008078608772568309,0.993104583413445
2016-06-01,-1,-0.002183448952831084,-0.0016757386210846561,-0.001445067212090715,0.008078608772568309,0.9930593215377893
2016-06-03,-1,-0.002122004418397852,-0.0016086056183189517,-0.001445067212090715,0.00919308809405299,0.992534745697786
2016-06-07,-1,-0.002143262248995632,-0.001589951580151122,-0.001445067212090715,0.008078608772568309,0.9932630261411791
2016-06-09,-1,-0.0022449637070816866,-0.0016749574662785216,-0.001445067212090715,0.008339458848833126,0.992609933724752
2016-06-13,-1,-0.002077942266978779,-0.0015156075597214515,-0.0016781088062394467,0.0072355186327606085,0.9930708060248442
2016-06-15,-1,-0.0005218027397114511,-0.00022696804825553458,-0.0016847059683743996,0.007585592165239444,0.9935128480155888
2016-06-17,1,0.0005623001859251136,0.0006807736996624508,-0.0016847059683743996,0.006489363282816163,0.994466424558541
2016-06-21,1,0.001077835660462572,0.0011055148632748719,-0.003170923850303478,0.006017617762771289,0.9944150701216644
2016-06-23,1,0.0021975263237197697,0.0023804443705416666,-0.0041816905763498915,0.006017617762771289,0.9941188862334888
2016-06-27,1,0.0020747613622739895,0.0022253531994918378,-0.004207902786727736,0.00574747001906947,0.993272787988285
2016-06-29,1,0.00236095206203476,0.0025597186089885066,-0.004565147904405088,0.007564382433004955,0.9924790342254426
2016-07-01,1,0.0027403428264446525,0.0029517588386923,-0.005638312412656165,0.0063276227138450445,0.9918225149499236
2016-07-06,1,0.0023584999244266134,0.002480801200735079,-0.008247222552346776,0.00353502306372525,0.9916628541748312
2016-07-08,1,0.0023127774663057915,0.0024619416710806442,-0.006089155959600822,0.0008203603504694241,0.9924402494895462
2016-07-12,1,0.0021222523785025924,0.0022695219783339165,-0.004715429086719973,0.0013825937554277927,0.9929500631443011
2016-07-14,1,0.0022497798132638082,0.0024129658943757063,-0.004715429086719973,0.0013825937554277927,0.9933952713863812
2016-07-18,1,0.0020345474873360104,0.002153222599186343,-0.004715429086719973,0.0010234378729366807,0.9932124283540882
2016-07-20,1,0.0017719158784572136,0.001860090758833917,-0.0061118285036743485,0.0016785077985983488,0.9926595950325324
2016-07-22,1,0.0021640520243236035,0.0023178018028863216,-0.008036794405377667,0.0010234378729366807,0.9924478416151974
2016-07-26,1,0.0014630326966154077,0.0015395322936846514,-0.006217693781030758,0.0016184330360246614,0.9941317464536694
2016-07-28,1,0.0014300289468222043,0.0015109546750016647,-0.005443584789072115,0.0016184330360246614,0.9947175386121471
2016-08-01,1,0.0012331912780614027,0.0012918367939434073,-0.005443584789072115,0.0016184330360246614,0.9950502109418848
2016-08-03,1,0.0008563912891574313,0.000869489863268872,-0.0046300472320774284,0.0016184330360246614,0.995499081469445
2016-08-05,1,0.0006493756998094539,0.0006608773418665934,-0.004019471184064644,0.0031435816478348594,0.9953681275477226
2016-08-09,1,0.0009575682570115412,0.0010309508684737834,-0.004019471184064644,0.004239873628099295,0.9948615375877135
2016-08-11,1,0.0009399108515031507,0.0010005031895376705,-0.004696274077772864,0.004239873628099295,0.9931075241473917
2016-08-15,1,0.0004958453159362606,0.0005023939934211614,-0.006217693781030758,0.004818450152813059,0.9915956773491572
2016-08-17,1,0.000374328964725691,0.0003809996205293515,-0.004696274077772864,0.004818450152813059,0.9922767622806736
2016-08-19,1,9.758382334998275e-05,0.00011417648894371639,-0.002631271275119885,0.004818450152813059,0.9921570678905222
2016-08-23,1,0.00019010111761050735,0.00019794185718398306,-0.002631271275119885,0.006630735568298488,0.9916957661250891
2016-08-25,1,0.000302110363972921,0.0003163885535093999,-0.002631271275119885,0.00850706382888249,0.9913988373361508
2016-08-29,-1,-0.0005523132445348893,-0.00041701886147113435,-0.002631271275119885,0.007203217021760794,0.9915573297110004
2016-08-31,-1,-0.000862031297728665,-0.0006778212840018358,-0.0034861867899771,0.007203217021760794,0.9913087120518177
2016-09-02,-1,-0.0006118767430014432,-0.0004450910730303693,-0.003964724423133309,0.007203217021760794,0.9917712700318961
2016-09-07,0,-5.810040771263265e-05,4.431574338369012e-05,-0.009131708611197775,0.00463855200586501,0.9910236671426681
2016-09-09,-1,-0.0008480791341284045,-0.0006772300029233965,-0.007898464823409735,0.00463855200586501,0.9924699184057791
2016-09-13,-1,-0.002211069094059797,-0.001854567745607824,-0.007023771067292179,0.0043608034152410775,0.9937500653376818
2016-09-15,-1,-0.0015653510925209856,-0.0013098525612481214,-0.007023771067292179,0.0043608034152410775,0.9938488127996088
2016-09-19,-1,-0.0017335557470848297,-0.0014888971024946797,-0.006024695917535461,0.0043608034152410775,0.9941246900279125
2016-09-21,-1,-0.001561030331354551,-0.0013083607022591913,-0.006024695917535461,0.0032403721859830203,0.9946905698928312
2016-09-23,-1,-0.0011064967032102173,-0.0008919239971873794,-0.007898464823409735,0.001411401032923476,0.9934057150207759
2016-09-27,-1,-0.0010010561862219764,-0.000798527892070151,-0.007804061231285521,0.00044369289029260535,0.9937074755185549
2016-09-29,-1,-0.0012028894284685583,-0.0009835866376724269,-0.006992303203250774,0.0007026245223118531,0.9930370020355308
2016-10-03,-1,-0.0013467008552952606,-0.001106475728049922,-0.007017599277451018,0.0007026245223118531,0.9928405247930115
2016-10-05,-1,-0.002530190006317129,-0.0021454519817837364,-0.007017599277451018,0.0007026245223118531,0.9933664967849783
2016-10-07,-1,-0.0028516024161555032,-0.002429238288645264,-0.007017599277451018,0.0023869779407725694,0.9932997626368714
2016-10-11,-1,-0.0034120407992752682,-0.0028843098333310247,-0.007017599277451018,0.0032383486767554185,0.9929300446734294
2016-10-13,-1,-0.003424121232069754,-0.0028837753940946544,-0.00804294592044305,0.0032383486767554185,0.992222775895889
2016-10-17,-1,-0.003087149756848768,-0.0026044980581939096,-0.00959145422672291,0.0026420026413813687,0.9921121267014267
2016-10-19,-1,-0.0027788941474168978,-0.0023617572207982798,-0.00959145422672291,0.004425471974303185,0.9902404098059246
2016-10-21,-1,-0.00434496463538305,-0.003738045743878096,-0.007017599277451018,0.00456232558741034,0.9913777258024098
2016-10-25,-1,-0.004362289745710975,-0.0037712896715858257,-0.0049918482872170055,0.005762392733253369,0.9898856106710674
2016-10-27,-1,-0.0033332194107828167,-0.002889965716596399,-0.003410911321505203,0.008243401447727478,0.9898598966841847
2016-10-31,-1,-0.0035525381256715834,-0.0030903181261702816,-0.0021907780386251326,0.008790011083694458,0.9893525624200437
2016-11-02,-1,-0.0040562955972454975,-0.003560004798849743,-0.0015878796256211512,0.008790011083694458,0.9888706664092428
2016-11-04,-1,-0.003706568551728355,-0.0032641773713149567,-0.0013728890836196587,0.008790011083694458,0.9893415610398447
2016-11-08,-1,-0.00274472173504338,-0.0024507426254622975,-0.0013728890836196587,0.011931722764193903,0.9888781927930584
2016-11-10,-1,-0.003254790927869081,-0.002920246197946051,-0.0013728890836196587,0.011931722764193903,0.9894148340641464
2016-11-14,-1,-0.0032766519423485874,-0.002960483689219021,-0.0012034606354971056,0.011931722764193903,0.9887700196292838
2016-11-16,-1,-0.0017213439555909186,-0.0015968890591206751,-0.0013728890836196587,0.009558759412382973,0.9908881327139405
2016-11-18,-1,-0.0013524480156180479,-0.00128612023772162,-0.0012034606354971056,0.011755031951148985,0.9901908555362792
2016-11-22,1,0.00017947724629230962,0.0003552888739420595,-0.0016093917360575213,0.009558759412382973,0.9919017232272429
2016-11-25,1,0.0011449865125471663,0.001454666563126713,-0.0016093917360575213,0.009558759412382973,0.9926113313316988
2016-11-29,1,0.00130305511740171,0.0016239675141697413,-0.0016093917360575213,0.009556934595105145,0.9928620653955001
2016-12-01,1,0.0005652995945740769,0.0007769321623200856,-0.0016093917360575213,0.009556934595105145,0.9933186257146667
2016-12-05,1,0.000621393809575518,0.000859423201557956,-0.001530434711298571,0.011755031951148985,0.9923647960265471
2016-12-07,1,0.0017808263201803244,0.0021785461844084425,-0.003049957872679438,0.007500310230982145,0.9927487802106877
2016-12-09,1,0.0019248286104057652,0.002320110470145788,-0.003049957872679438,0.006430016519113728,0.9926794049082074
2016-12-13,1,0.002656171479552786,0.0031669254525770506,-0.004217959174284858,0.004548728459700035,0.9927144934977882
2016-12-15,1,0.00202569905289246,0.002409670173707721,-0.003049957872679438,0.004548728459700035,0.9933475351755039
2016-12-19,1,0.0027390952217456717,0.0032186603365682307,-0.004217959174284858,0.0037039846925256206,0.9933148266810403
2016-12-21,1,0.002615978966040551,0.003066522800393135,-0.005734620507102621,0.003760161701050813,0.9930623766413803
2016-12-23,1,0.003140248262456183,0.0036166876309681544,-0.006770001390218585,0.002554668326627561,0.9906151573710832
2016-12-28,1,0.0027986537824126693,0.003219509485610411,-0.0075601305349096305,0.003760161701050813,0.9901929229486127
2016-12-30,1,0.0026967900743482703,0.003104419886815983,-0.007791640723374352,0.002554668326627561,0.9899452791878286
2017-01-04,1,0.0033948010328007476,0.003901048590213895,-0.009690653470375078,0.002129208013514775,0.9896181694948333
2017-01-06,1,0.0026708220506709173,0.0030708581095916444,-0.009690653470375078,0.002482868803876299,0.9906520402482722
2017-01-10,1,0.0022607731210201546,0.0025921462701495816,-0.007791640723374352,0.003760161701050813,0.9912303664635478
2017-01-12,1,0.0019734726148448547,0.0022390497120701176,-0.007791640723374352,0.004265192141671788,0.9914115980191084
2017-01-17,1,0.001981038127639901,0.002252621193945733,-0.00890704795424755,0.004165595546819445,0.9907779081039809
2017-01-19,1,0.0017702140184846925,0.0020163063978557217,-0.007663692589350039,0.006377670900481813,0.9908209565424223
2017-01-23,1,0.001798255759284731,0.0020344163750805762,-0.007663692589350039,0.006377670900481813,0.9906509496021787
2017-01-25,1,0.0005527897790339819,0.000617838625546715,-0.006148391448424661,0.007127784823489223,0.9925634549784194
2017-01-27,1,0.0006555545876967318,0.000756053604300257,-0.006148391448424661,0.006377670900481813,0.9927801224055984
2017-01-31,1,0.0005822683017333739,0.0007044186625004407,-0.0058772689593182565,0.006377670900481813,0.9929573903622916
2017-02-02,-1,-0.00018307334463893977,-0.00014591739321830142,-0.004393929124513192,0.006377670900481813,0.9932210233530929
2017-02-06,-1,-0.0004487721932849012,-0.0003730895901398475,-0.004393929124513192,0.00604046139138526,0.9934080676893324
2017-02-08,1,3.534503092300414e-06,9.183182846259004e-06,-0.005689360716789941,0.0051003569839682674,0.9934473576628147
2017-02-10,1,0.0001561815408048645,0.000167836317811628,-0.005689360716789941,0.0048612494940416225,0.9939119601851781
2017-02-14,-1,-7.690474159168575e-05,-6.08036045864926e-05,-0.0026517275335360183,0.0051003569839682674,0.9936895335725997
2017-02-16,1,0.0003491529773003243,0.00041341854355114765,-0.0020516844519092377,0.0051003569839682674,0.9939864920290341
2017-02-21,1,0.0010093559499804129,0.001158176215741648,-0.0024118705227741386,0.0039339604460221595,0.9947868796139228
2017-02-23,1,0.001440572950038535,0.0016323310144460397,-0.003648403262864236,0.0026839735300631593,0.9948994794647188
2017-02-27,1,0.0011338370602546875,0.0012747433690549102,-0.003648403262864236,0.0024339968120995806,0.9952320627190011
2017-03-01,1,0.0005442226476833419,0.0005543391237494336,-0.003094611484598401,0.0024339968120995806,0.9954261613856098
2017-03-03,1,0.0005396650199132032,0.0005458723827794091,-0.00400203055262912,0.0016732529591103728,0.9952114955635432
2017-03-07,1,1.0103508518682317e-05,8.220902271207305e-05,-0.003094611484598401,0.002491583587403882,0.9954781535437434
2017-03-09,1,3.317378378529573e-05,9.269724359823011e-05,-0.0040564736835445895,0.0024845931688843043,0.9949768709447078
2017-03-13,1,0.00017659434967258618,0.00021907914662145812,-0.0040564736835445895,0.0027965295411381073,0.9947545274970319
2017-03-15,1,0.0005812638455073792,0.0005818960727897557,-0.0040564736835445895,0.0032660619707882495,0.9951837909668585
2017-03-17,0,-0.000134060838308527,1.0045165455841224e-05,-0.005943995257056111,0.0032660619707882495,0.9953310144052074
2017-03-21,-1,-0.0005922163812032853,-0.0003776359299359144,-0.005943995257056111,0.003449162269217894,0.9949340157525083
2017-03-23,-1,-0.0007114121187488055,-0.0004983731187489969,-0.006179039628595034,0.003449162269217894,0.993738266594419
2017-03-27,-1,-0.0013838184898529223,-0.0010713085348201775,-0.006179039628595034,0.003449162269217894,0.9939675265413247
2017-03-29,-1,-0.0019765649769049433,-0.001550728703071188,-0.006598831467725272,0.004060280477495543,0.9930174364183271
2017-03-31,-1,-0.0023470385639300278,-0.0018787907228039614,-0.008286537514475133,0.004060280477495543,0.9925445119513192
2017-04-04,-1,-0.001789233189127464,-0.0014002162017100136,-0.008286537514475133,0.004060280477495543,0.9927277991430613
2017-04-06,-1,-0.002908657444342915,-0.0023502634616893005,-0.006459049966816936,0.004575328588116176,0.9923662859294885
2017-04-10,-1,-0.003193210297608588,-0.002580221241984256,-0.006459049966816936,0.004060280477495543,0.9926104188412006
2017-04-12,-1,-0.00210280502318145,-0.0016866291617851428,-0.007519641698257625,0.0014673665855915775,0.9927378910275974
2017-04-17,-1,-0.0022489159687238526,-0.001816734730210331,-0.008330205511473536,-0.0003266060988854309,0.9927608692186423
2017-04-19,-1,-0.0015919095224407758,-0.001287527904890947,-0.010233553658922976,-0.00080958279722168,0.9924299871748392
2017-04-21,-1,-0.0021196810216651193,-0.001810114674543784,-0.007519641698257625,0.0017973037564568237,0.9928514338722477
2017-04-25,-1,-0.0023605343989091887,-0.002037412378408992,-0.006328367786137007,0.0022976896468313154,0.9929283974026867
2017-04-27,-1,-0.0027808123828579794,-0.002375625373832837,-0.006328367786137007,0.0022976896468313154,0.9935373284719315
2017-05-01,-1,-0.003371655299382022,-0.002893316397137487,-0.004840324740526402,0.005419412235492296,0.9929453300337876
2017-05-03,-1,-0.002423419803104977,-0.0021103893494048495,-0.004840324740526402,0.006605232029972814,0.9930379662017316
2017-05-05,-1,-0.0018247881895029484,-0.0015848969058244395,-0.004059412256468123,0.0024894460499456142,0.9942469836781184
2017-05-09,-1,-0.0015586626495735318,-0.0013871847470027516,-0.0030683348494672897,0.002630862992812657,0.9941510077830477
2017-05-11,-1,-0.001986273793873368,-0.00174697603304058,-0.0030683348494672897,0.006605232029972814,0.9934711146478938
2017-05-15,-1,-0.0018763841863076998,-0.0016934529013652513,-0.0018537247332731444,0.008708607749444654,0.992723005997142
2017-05-17,-1,-0.002368186357987669,-0.0021355367555625717,-0.0015056133142213324,0.008708607749444654,0.9929125603603935
2017-05-19,-1,-0.0010641025690737234,-0.0010108563895914534,-0.0015056133142213324,0.00521153433186031,0.9945731389572869
2017-05-23,-1,-0.0010027896815351686,-0.0009516075493361919,-0.0037571715277039688,0.00521153433186031,0.9936050282403722
2017-05-25,-1,-0.0009971468429688358,-0.0009512968337615236,-0.0018273185535368146,0.002369813955154363,0.9943015345916735
2017-05-30,1,0.00037199971309556586,0.0005495425699523704,-0.0037571715277039688,0.002369813955154363,0.9938525770073707
2017-06-01,1,0.0005221322280123601,0.0006845015653830837,-0.0073974368672532625,0.0013464119990575717,0.9938720633604476
2017-06-05,1,0.0002957897225901578,0.0004105255707231758,-0.0073974368672532625,0.005120204664520981,0.9935218982476776
2017-06-07,1,0.00043038645871005854,0.0005598581060065745,-0.010076434373897469,0.005120204664520981,0.9919033944470588
2017-06-09,1,0.0007215183464879353,0.0008851782627949856,-0.010076434373897469,0.0014027554608572604,0.992240829339374
2017-06-13,1,0.000594976788332218,0.0007288147672123435,-0.008230722619416287,0.0014027554608572604,0.9928239336024132
2017-06-15,1,0.0008302449093255758,0.0009941866444837322,-0.008230722619416287,0.0026145094474213527,0.9927194058464531
2017-06-19,1,0.00021134146278084515,0.00023817847308014412,-0.008230722619416287,0.0031290774529689805,0.9925760800546249
2017-06-21,-1,-0.000562338866324533,-0.0004942201603316084,-0.006947434852461544,0.005783801640480431,0.992850638134034
2017-06-23,-1,-0.0008901051272941733,-0.000762739448771988,-0.007326404158592786,0.005783801640480431,0.9923047795112119
2017-06-27,-1,-0.0014389909355829622,-0.0012148608097138315,-0.006947434852461544,0.006194594648421845,0.9927206941443482
2017-06-29,-1,-0.002684114084534061,-0.0024067868296181265,-0.006547600954082075,0.006588608681931529,0.9886951776728589
2017-07-03,-1,-0.001975110488220701,-0.001795840411307515,-0.006547600954082075,0.008158068133898435,0.9885943032163781
2017-07-06,-1,-0.0029728852142820684,-0.0027037859709016033,-0.0022992826065064958,0.008610259355040785,0.9885024272479838
2017-07-10,-1,-0.0034604378777025376,-0.0031140548108020616,-8.598951854712941e-05,0.008610259355040785,0.9879905139984818
2017-07-12,-1,-0.0032258415150584942,-0.002918838504743737,-0.002097045149902009,0.008610259355040785,0.9885053755775769
2017-07-14,-1,-0.0023069840760710078,-0.0021429893302318975,-0.004441096691621944,0.008610259355040785,0.9892302557424042
2017-07-18,-1,-0.0019302128241876135,-0.0018453378304349095,-0.004441096691621944,0.009561227483794853,0.9887428591219303
2017-07-20,-1,-0.0012342320759524958,-0.001221220077193496,-0.005528538923438246,0.008610259355040785,0.9895835385431837
2017-07-24,-1,-0.0015445795691033095,-0.0014954200623664496,-0.0044625323692392875,0.009464427679810799,0.9894556968799966
2017-07-26,-1,-0.0007768268313243265,-0.0007146225975543754,-0.0044625323692392875,0.008581788393572928,0.9901556282208803
2017-07-28,1,0.0009689070510571963,0.001237195316074963,-0.0044625323692392875,0.007818402008578862,0.9936875316452191
2017-08-01,1,0.0015145685262801527,0.0018507598109655508,-0.0044625323692392875,0.004814581763520309,0.9940548141050846
2017-08-03,1,0.0014243447535953946,0.0017577473778957857,-0.0044625323692392875,0.0017153184175635163,0.9944630588973217
2017-08-07,1,0.0018695379815642061,0.0022891908639152804,-0.005528538923438246,0.0006743231192296564,0.9937524303080607
2017-08-09,1,0.0016060908944591102,0.0020036667564827457,-0.006622426301664418,0.0006743231192296564,0.9933402173630124
2017-08-11,1,0.0015081209570784997,0.0018910885336786507,-0.006622426301664418,0.0014962096362348192,0.9934514130334119
2017-08-15,1,0.0016377689170928105,0.002018758496016345,-0.005142081687022427,0.004180977968579005,0.9936208113719835
2017-08-17,1,0.001138162127794937,0.0014331194738285793,-0.0033819329138433853,0.0051864051656740654,0.9937521376444602
2017-08-21,1,0.0013646285331592246,0.0016925607093694914,-0.0023222175753337135,0.0055189670806212,0.9930071770053832
2017-08-23,1,0.0014346163797726544,0.0017600536143681667,-0.004347761406285673,0.0055189670806212,0.9926010305765076
2017-08-25,1,0.001942769723213233,0.00235855773474766,-0.004347761406285673,0.006062040398970792,0.9919177923786747
2017-08-29,1,0.0015330935373234972,0.001865475774076566,-0.007871663220244116,0.006062040398970792,0.9917526316098452
2017-08-31,1,0.001260891677695874,0.0015640003249141592,-0.003468746232126514,0.006062040398970792,0.9923081682029741
2017-09-05,1,0.0010293493575726546,0.0013200728139195945,-0.002171526118640221,0.009855111321275561,0.9924510191308988
2017-09-07,1,0.000216776737852345,0.00040005821937654494,-0.0019659822214568965,0.009855111321275561,0.9934613994009478
2017-09-11,1,0.0005088061226399168,0.0007226674241353783,-0.00216613035898056,0.009855111321275561,0.992613147781263
2017-09-13,1,0.0004989033672597886,0.0006497304930696648,-0.0026106275059515687,0.004833500536440712,0.9931557923501618
2017-09-15,1,0.0007333045330275445,0.0008939904877479655,-0.006227409505302669,0.003329499918436224,0.9928492042106625
2017-09-19,1,0.0016138509786819688,0.001890065334803044,-0.006227409505302669,0.003329499918436224,0.9936799116521553
2017-09-21,1,0.0010141075112171467,0.001177317834512286,-0.0033946063205591596,0.004979058244713814,0.993741611276975
2017-09-25,1,0.0016122509295156957,0.0018688750779430863,-0.006227409505302669,0.004979058244713814,0.9938191695923961
2017-09-27,1,0.0015214713746730998,0.0017861757518802938,-0.005805970603014934,0.004979058244713814,0.9938731830021388
2017-09-29,1,0.001409116827510931,0.0016465715893911178,-0.005805970603014934,0.0051461742953950425,0.9937848313179739
2017-10-03,1,0.0014685847203779983,0.001698154952334845,-0.007131052856902583,0.004972686645393743,0.9932259979714663
2017-10-05,1,0.0011522563300012814,0.0013095647969887346,-0.008335439015082246,0.004972686645393743,0.9929158634879617
2017-10-09,1,0.00021560235819214444,0.00022559401479056552,-0.008335439015082246,0.0048892058866677884,0.9921467999837954
2017-10-11,1,0.000550532495535104,0.0005936381271591419,-0.008335439015082246,0.0048892058866677884,0.9923027995116689
2017-10-13,-1,-8.035364980795898e-05,-4.561998881502015e-05,-0.006531401682451336,0.0048892058866677884,0.992806884746435
2017-10-17,1,0.0001563806444401531,0.00017108269569414322,-0.007946580198020034,0.0008468163627829737,0.9925471789468192
2017-10-19,1,0.0008299926871129038,0.0009343032019589693,-0.007946580198020034,-9.775959348066668e-05,0.9921555012605766
2017-10-23,1,0.0007996247311641996,0.0009067135594868188,-0.006531401682451336,0.0008468163627829737,0.9915645877142331
2017-10-25,1,0.000529625053327888,0.0005947717243286316,-0.00509567252032239,0.001943871988533344,0.991079789835632
2017-10-27,1,0.0006779848665711722,0.000766346854084202,-0.00509567252032239,0.004115640890598744,0.990543471062812
2017-10-31,1,0.00011770117965425808,0.000139164814103286,-0.003226386210918723,0.01462959716990882,0.9895067515570671
2017-11-02,-1,-0.00023595393322877422,-0.00019938986470658282,-0.0025898411725364346,0.015515219718120924,0.9886429067016862
