JNU-Tangyin/eata/results/Batch4_SP500/Batch4_SP500-FDX.csv
Date,Action,Predicted_Q25,Predicted_Q75,Actual_Q25,Actual_Q75,RL_Reward
2010-12-14,1,0.0,0.0005927272278121898,-0.003525545581920688,0.0027676671288366797,0.994520835452027
2010-12-16,1,0.001630132410906896,0.001763276028483193,-0.0026276394553938955,0.002884789250484407,0.9952607602342178
2010-12-20,1,0.0012775553829775118,0.001356076624148969,-0.0026276394553938955,0.0019743197206719978,0.9952667497264799
2010-12-22,1,0.0015412423271896722,0.0016966300376048827,-0.0027376691179472183,0.0019743197206719978,0.9947933762182996
2010-12-27,1,0.0016005424390906865,0.0017850670426519306,-0.0027804492319172007,0.0032264688907344113,0.9943909131993911
2010-12-29,1,0.0013717062666857727,0.001511560101754446,-0.0023702257667604426,0.004211348266234388,0.9945448635270918
2010-12-31,1,0.0017126107747553272,0.001926727712484548,-0.005013474783519423,0.004211348266234388,0.9923050922453396
2011-01-04,1,0.0007407411085155539,0.0007448214392245443,-0.008030945288480943,0.006987193395429645,0.9902533976413632
2011-01-06,1,0.00040356895529756564,0.00046229376959599936,-0.005013474783519423,0.006790832159507562,0.9906556097296236
2011-01-10,1,0.0010779738393391475,0.001150457190952324,-0.005013474783519423,0.0064961007157885485,0.9906022577597761
2011-01-12,1,0.0007574516200148216,0.0007737100684529713,-0.004242240529599472,0.0064961007157885485,0.9901267342962632
2011-01-14,0,0.0,0.0,-0.0058659987033878366,0.006655382839317642,0.9893264855033795
2011-01-19,0,0.0,0.0,-0.004242240529599472,0.009314323300395479,0.9886135052574916
2011-01-21,0,0.0,0.0,-0.003295756658726409,0.009314323300395479,0.9883882617025125
2011-01-25,0,0.0,0.0,-0.007413117658416025,0.008780493818449189,0.9845249104632687
2011-01-27,1,0.00030566005136446365,0.00034775234517451473,-0.007413117658416025,0.008780493818449189,0.984457699171155
2011-01-31,-1,-0.00049740523802192,-0.00033420266875887605,-0.007413117658416025,0.008780493818449189,0.985179943743985
2011-02-02,-1,-0.00017115639979448132,-6.30182292945216e-05,-0.005259597360755928,0.008780493818449189,0.9858227105638891
2011-02-04,-1,-0.00031031823452270325,-0.00017932496235208048,-0.007841921317932952,0.008780493818449189,0.985520223381895
2011-02-08,-1,-0.0009432669151700097,-0.0006833247223766323,-0.007841921317932952,0.009514755249161424,0.9845317991482779
2011-02-10,0,-0.00011422721778410184,2.3789563568523146e-05,-0.009919950077025497,0.009026937247614084,0.9855089122131088
2011-02-14,0,-8.929380276445853e-05,3.054997724864355e-05,-0.010170869451364124,0.008780493818449189,0.9851657913944836
2011-02-16,1,0.0006246536839745667,0.0006579330673411341,-0.014920652138818356,0.008517025890793985,0.9837167934525659
2011-02-18,1,0.0009583345116975243,0.0009727886977657082,-0.014920652138818356,0.008643714133574714,0.9833464313415181
2011-02-23,-1,-0.0014909600156822673,-0.0012292896889529972,-0.010170869451364124,0.008643714133574714,0.9867246664076522
2011-02-25,0,0.0,0.0,-0.010170869451364124,0.010874331082349533,0.9857937287019151
2011-03-01,0,0.0,0.0,-0.009226643120544912,0.016648390719445075,0.9855394315068357
2011-03-03,0,0.0,0.0,-0.009226643120544912,0.010874331082349533,0.9867499104602863
2011-03-07,0,0.0,0.0,-0.006498787491771331,0.015578578912008973,0.9867662809104971
2011-03-09,0,0.0,0.0,-0.009226643120544912,0.010211796743461194,0.987465483562439
2011-03-11,0,0.0,0.0,-0.00955245351099163,0.009598262270488584,0.9865458560560882
2011-03-15,0,0.0,0.0,-0.006010247522451462,0.015578578912008973,0.9865764165923844
2011-03-17,-1,-0.0021718230675346803,-0.0018840519390548377,-0.005940294081977738,0.015146275244805392,0.9886167785371096
2011-03-21,-1,-0.0014567437435025696,-0.0012627762817855666,-0.0067499626583815454,0.009480454140115066,0.9895454976125005
2011-03-23,-1,-0.0019109071484186592,-0.001651768542678284,-0.005887271738130142,0.015025529182566682,0.9899534004867848
2011-03-25,-1,-0.0017985403917231688,-0.0015196447824672111,-0.0056076440118110315,0.009479474829493335,0.990766253893716
2011-03-29,-1,-0.0008912756511174866,-0.0007289466984485938,-0.0056076440118110315,0.007619452339217091,0.9918316223190522
2011-03-31,-1,-0.00025807296357662304,-0.00020909107582832014,-0.0056076440118110315,0.007018430764332566,0.9917796118832425
2011-04-04,-1,-0.0001379150272477977,-7.886402492330728e-05,-0.0067499626583815454,0.0055022809948794445,0.991896378533708
2011-04-06,-1,-0.0002903380401844511,-0.0002079816463889766,-0.0067499626583815454,0.007018430764332566,0.9903822503002571
2011-04-08,-1,-0.0015216265564611045,-0.0012612403642600265,-0.0056076440118110315,0.007018430764332566,0.9916086254631779
2011-04-12,-1,-0.0008882750201625332,-0.0006864215339824546,-0.0062177452201740285,0.0055022809948794445,0.9925574646656946
2011-04-14,-1,-0.0010325980328544583,-0.0008307254814916686,-0.0062177452201740285,0.0055022809948794445,0.9923510269065499
2011-04-18,-1,-0.0015042048227552746,-0.0012320184347609066,-0.006126478496747726,0.0055022809948794445,0.9923710111820838
2011-04-20,-1,-0.0008557952503893246,-0.0006763548338070718,-0.006126478496747726,0.007018430764332566,0.9919930804238414
2011-04-25,1,2.5274214143129623e-06,3.198602615457666e-05,-0.007811274735170926,0.0055022809948794445,0.9910075137267341
2011-04-27,1,0.0010151656877942547,0.0011953721413464342,-0.007811274735170926,0.004335705956282105,0.9908704418899743
2011-04-29,0,0.0,0.0,-0.007811274735170926,0.0044290803954946155,0.9909008476147062
2011-05-03,0,0.0,0.0,-0.007811274735170926,0.006619286128381295,0.98955960552336
2011-05-05,0,0.0,0.0,-0.007811274735170926,0.0044290803954946155,0.9910021982248215
2011-05-09,0,0.0,0.0,-0.012094621684631634,0.0044290803954946155,0.9897080350006295
2011-05-11,1,0.0007764225107436523,0.0007899017006278789,-0.013747259240218185,0.0044290803954946155,0.9891942394169341
2011-05-13,1,0.0005029368570838776,0.0005769036324424898,-0.011832906122740034,0.006014189026551396,0.989382121409797
2011-05-17,1,0.00015725152909781218,0.0001817123434996699,-0.011832906122740034,0.0065544751676426495,0.9885805072743238
2011-05-19,0,0.0,0.0,-0.011832906122740034,0.005900613411272595,0.9893360525921697
2011-05-23,0,0.0,0.0,-0.010884121381462277,0.006014189026551396,0.9894592348079186
2011-05-25,0,0.0,0.0,-0.010884121381462277,0.009588623217331036,0.987869858059598
2011-05-27,0,0.0,0.0,-0.011392878713876885,0.01215612152429061,0.9873209581576218
2011-06-01,0,0.0,0.0,-0.010884121381462277,0.011150637727492516,0.9885793545055216
2011-06-03,0,0.0,0.0,-0.009908627608668293,0.013928240120850194,0.9878623940591857
2011-06-07,0,0.0,0.0,-0.005517954133047086,0.014208067679028071,0.9885427273662714
2011-06-09,0,0.0,0.0,-0.005496828444992433,0.016860792017595192,0.9882210327216472
2011-06-13,-1,-0.0027002295287782145,-0.002667767820644291,-0.009786743690320029,0.016860792017595192,0.9864883380899339
2011-06-15,0,0.0,0.0,-0.009786743690320029,0.014208067679028071,0.9879236414465506
2011-06-17,0,0.0,0.0,-0.010530024975896913,0.014208067679028071,0.9868463187443272
2011-06-21,-1,-0.0018423255031789123,-0.0017320532529868497,-0.010530024975896913,0.013672724424131491,0.9869928024488688
2011-06-23,0,0.0,0.0,-0.010530024975896913,0.012708218635914233,0.9885634822555858
2011-06-27,0,0.0,0.0,-0.009984712683288318,0.012708218635914233,0.9887104750426919
2011-06-29,0,0.0,0.0,-0.01108229782373972,0.0104979827489061,0.9878290245716037
2011-07-01,0,0.0,0.0,-0.011522115354424399,0.0024993955658320034,0.988285606621833
2011-07-06,0,0.0,0.0,-0.013059370699195818,0.0024993955658320034,0.987818758110439
2011-07-08,0,0.0,0.0,-0.015304442374838533,0.00214693890586754,0.9869264588400634
2011-07-12,0,0.0,0.0,-0.015304442374838533,0.0035193524098154766,0.9844447034786739
2011-07-14,0,0.0,0.0,-0.018322628573632566,0.005846033944573597,0.9795432665060871
2011-07-18,1,0.26818698363806276,0.26944963022085855,-0.015304442374838533,0.01086085444673868,0.7852756927726567
2011-07-20,0,0.0,0.0,-0.01871452165813724,0.008046999827675143,0.97902286714738
2011-07-22,1,0.00036185643536597886,0.0003940150979847071,-0.020674819014970612,0.004253007704182659,0.9758488460999767
2011-07-26,-1,-0.0008120599071788792,-0.0006882496167083783,-0.020674819014970612,0.009482380794688708,0.9759013791232549
2011-07-28,-1,-0.0020669656410405145,-0.0017595615920812217,-0.0220406410644759,0.015802319718388348,0.9755039036668559
2011-08-01,-1,-0.002268374093061738,-0.001977851341703695,-0.0220406410644759,0.018817366947296618,0.9736387472041694
2011-08-03,-1,-0.0023189073401359553,-0.002022928570212617,-0.0220406410644759,0.018817366947296618,0.9750408109768538
2011-08-05,-1,-0.004065357680481601,-0.0035193231737147075,-0.0220406410644759,0.018817366947296618,0.9750667249614717
2011-08-09,-1,-0.0055038917584409545,-0.004745064308043435,-0.018439376514997267,0.018817366947296618,0.9766353540800886
2011-08-11,0,0.0,0.0,-0.018394927563309595,0.013886509520194448,0.9801427498929939
2011-08-15,-1,-0.003954865628990013,-0.003411075490476022,-0.018394927563309595,0.014180598706343025,0.9809162528138751
2011-08-17,-1,-0.0051272017447963805,-0.004467644067289215,-0.017382131055118953,0.01510760757798773,0.9803052701939727
2011-08-19,-1,-0.00764118168237433,-0.0067611512800169445,-0.010812122151643271,0.01510760757798773,0.9828049267870065
2011-08-23,-1,-0.0062049877920238965,-0.005511190895282587,-0.016925979935342818,0.013923443331318848,0.9831073473012419
2011-08-25,0,0.0,0.0,-0.016925979935342818,0.013098866044454769,0.9804883008946652
2011-08-29,0,0.0,0.0,-0.016925979935342818,0.011855140533085628,0.9807416848890422
2011-08-31,1,0.9911697060054272,0.9921097194817341,-0.01773169930945431,0.011855140533085628,0.5006655814396715
2011-09-02,0,0.0,0.0,-0.01944363232631566,0.011855140533085628,0.9787661536701544
2011-09-07,0,0.0,0.0,-0.01944363232631566,0.013923443331318848,0.9775443341019235
2011-09-09,-1,-0.005371224886948233,-0.004809532670085647,-0.016556411964508397,0.01510760757798773,0.977183540772957
2011-09-13,0,0.0,0.0,-0.016556411964508397,0.016913425164704576,0.9765657910715166
2011-09-15,0,0.0,0.0,-0.017782923407705507,0.024229772931311327,0.9759316374529117
2011-09-19,0,0.0,0.0,-0.01998528213386256,0.02534161343825129,0.9744345504866395
2011-09-21,0,0.0,0.0,-0.017782923407705507,0.02534161343825129,0.9752178625252975
2011-09-23,-1,-0.005510491527668962,-0.0049918260001010715,-0.01619830304571109,0.02804318950123173,0.9759742028052892
2011-09-27,-1,-0.00328151956100439,-0.0030749425045049506,-0.01619830304571109,0.025935993336608683,0.977314436825855
2011-09-29,-1,-0.0034053522809036996,-0.0031705371662548807,-0.01130748167910556,0.02958388391101096,0.9758781139031971
2011-10-03,-1,-0.004736378519765076,-0.0043594685436617354,-0.006702191555915842,0.02958388391101096,0.9770888017185153
2011-10-05,-1,-0.0014615047274783317,-0.001417112835963743,-0.01130748167910556,0.02534161343825129,0.9797437905337935
2011-10-07,-1,-0.0013387143918828475,-0.0012997546647161157,-0.006702191555915842,0.024202834566278777,0.9804843975644654
2011-10-11,1,0.0005496784563985004,0.0008101798255363941,-0.006702191555915842,0.022687825767371606,0.9819650091953164
2011-10-13,1,0.00035167874923521523,0.0005533509581204405,-0.006702191555915842,0.022052914944686385,0.9813094705651131
2011-10-17,1,0.0003245366438649047,0.0005215520314015233,-0.006702191555915842,0.022052914944686385,0.9819005618877481
2011-10-19,1,0.00123747837405329,0.0015640035384550325,-0.009853121593242739,0.018543359386670812,0.9819527792603698
2011-10-21,1,0.0027052184189191946,0.0032138663100769096,-0.010957968628542102,0.013663669151542917,0.9832030305070429
2011-10-25,1,0.002571908184053875,0.003033330769435844,-0.014766514055153605,0.012721164704676378,0.9829008150358993
2011-10-27,1,0.003264128900603889,0.0037519764117194114,-0.016410594155141935,0.011923674426641193,0.9832102745862374
2011-10-31,1,0.0019203155716430065,0.0022157301999497204,-0.014766514055153605,0.012721164704676378,0.9833834739748902
2011-11-02,1,0.0018032193135270737,0.002065921608412498,-0.014121650004932998,0.013663669151542917,0.9819583856337717
2011-11-04,1,0.002544074265664911,0.00291491759727413,-0.014121650004932998,0.012974077026710001,0.9825529809879469
2011-11-08,1,0.003122071079413426,0.0035811883113719546,-0.014121650004932998,0.013455739257322142,0.9819646470299895
2011-11-10,1,0.0032280803211429563,0.003791994410816349,-0.014121650004932998,0.013455739257322142,0.9831450439408015
2011-11-14,1,0.003995142604873799,0.004701507390544247,-0.015971745235266958,0.012007978533985735,0.9818551656733223
2011-11-16,1,0.002730989121080859,0.0033073304594014178,-0.019613751296870208,0.012007978533985735,0.9787150210745292
2011-11-18,1,0.002853552615758259,0.003462895412946871,-0.020596761828509905,0.013931594789045343,0.977152630674364
2011-11-22,1,0.0023830047140535084,0.0029813104793792195,-0.019613751296870208,0.0173556603469658,0.977917403992612
2011-11-25,0,0.0,0.0,-0.014314260562829768,0.0173556603469658,0.9786713923725099
2011-11-29,0,0.0,0.0,-0.01961249782063508,0.013931594789045343,0.9795763496015946
2011-12-01,0,0.0,0.0,-0.01961249782063508,0.013716168155871716,0.981704771808227
2011-12-05,0,0.0,0.0,-0.01961249782063508,0.01636579807075126,0.981314720777844
2011-12-07,0,0.0,0.0,-0.01961249782063508,0.016274990454889154,0.9812120583772976
2011-12-09,0,0.0,0.0,-0.012515526697227579,0.01673965512268583,0.9809507983470522
2011-12-13,0,0.0,0.0,-0.004315200340467033,0.01673965512268583,0.9820102464881223
2011-12-15,0,0.0,0.0,-0.0054847410470017285,0.016274990454889154,0.9862620824045474
2011-12-19,0,0.0,0.0,-0.003021912147365062,0.016274990454889154,0.9874782232558713
2011-12-21,0,0.0,0.0,-0.006425202376979465,0.015986124536722927,0.9881613307573682
2011-12-23,0,0.0,0.0,-0.006425202376979465,0.016274990454889154,0.9874425265954881
2011-12-28,0,0.0,0.0,-0.004629071682254885,0.016274990454889154,0.9883760962909848
2011-12-30,1,0.0023400383488870226,0.0026811194908353646,-0.005994656735401192,0.01611074355403445,0.9891666450776917
2012-01-04,0,0.0,0.0,-0.005994656735401192,0.014574867136968851,0.9892569104982005
2012-01-06,0,0.0,0.0,-0.004629071682254885,0.014574867136968851,0.9892823145697093
2012-01-10,-1,-0.0010771811477379742,-0.0009315674762901027,-0.005565601987679219,0.013449783984674966,0.9905859670996328
2012-01-12,0,0.0,0.0,-0.005565601987679219,0.008855456462765515,0.9916763986601443
2012-01-17,0,0.0,0.0,-0.005565601987679219,0.01297515172012148,0.9907240548596956
2012-01-19,0,0.0,0.0,-0.005994656735401192,0.007889561730279878,0.9912179446141353
2012-01-23,1,0.00038191824778640443,0.0005325898467310995,-0.007577301219347437,0.007889561730279878,0.9903052149305466
2012-01-25,1,0.004167885711543336,0.004682050963495624,-0.007577301219347437,0.007889561730279878,0.9902496071610623
2012-01-27,0,0.0,0.0,-0.010037348410370281,0.009873942228042755,0.9891624677372555
2012-01-31,0,0.0,0.0,-0.011824186835758156,0.009873942228042755,0.9891980959294311
2012-02-02,1,0.0033058915837231913,0.0034497407922730655,-0.011824186835758156,0.009873942228042755,0.9888373660216188
2012-02-06,1,0.0036897472375064023,0.003968097389932219,-0.014675350351950153,0.005975336164360625,0.9882424358430192
2012-02-08,1,0.00370675365383455,0.004007097968782013,-0.014675350351950153,0.01163807388224665,0.9881834571238762
2012-02-10,1,0.0035660094203893503,0.003813880559416347,-0.014675350351950153,0.01163807388224665,0.9875932582972196
2012-02-14,1,0.0032241020901207004,0.0032838840417806466,-0.011824186835758156,0.01163807388224665,0.9879954981593982
2012-02-16,1,0.0018725358430777728,0.0020705070046776533,-0.008211351798130562,0.012447785018441033,0.9880547409091188
2012-02-21,1,0.0010425105597095421,0.001265629628171742,-0.004372361859666162,0.012447785018441033,0.9900056409976083
2012-02-23,1,0.0011866933156739236,0.0014117870363188321,-0.005588891414175673,0.012425609744679017,0.9884845961914124
2012-02-27,1,0.0005941032903850033,0.0010206388594583345,-0.004372361859666162,0.011652305378968995,0.989892935490695
2012-02-29,1,0.0007015255702508388,0.0009714007503975706,-0.004598915405316566,0.011652305378968995,0.9898689666027132
2012-03-02,1,0.00035086328765449113,0.0006314516169748281,-0.004598915405316566,0.009439232972726867,0.9905048927261412
2012-03-06,1,0.00016643055016446874,0.0004264493111230727,-0.004598915405316566,0.009439232972726867,0.991127702073199
2012-03-08,1,0.0004369398126958093,0.0006461889883351917,-0.005588891414175673,0.004623767207997689,0.9916599021999195
2012-03-12,1,0.00032261541940080006,0.0005491054193301304,-0.00801745200873547,0.0031048259857574386,0.9902464363214798
2012-03-14,1,0.00045706358555180015,0.0006418637969470783,-0.00801745200873547,0.004623767207997689,0.9896508175520603
2012-03-16,1,0.0013154384407739346,0.001315770944460458,-0.009312457145437757,0.0031048259857574386,0.9898314153843359
2012-03-20,1,0.0013150931049124273,0.0013360193637774742,-0.009312457145437757,0.0031048259857574386,0.9889518451724683
2012-03-22,1,0.0012792159738984092,0.0013569361171218788,-0.009312457145437757,0.0028324863020032787,0.9905941260295468
2012-03-26,1,0.0010198924222582302,0.001054013259149107,-0.009799277242680076,0.0028324863020032787,0.9895555410952724
2012-03-28,0,0.0,0.0,-0.009733754991020128,0.0028324863020032787,0.9895490652273085
2012-03-30,0,0.0,0.0,-0.009733754991020128,0.00431953364415163,0.9894144172196265
2012-04-03,-1,-0.0006089268807676373,-0.000444947427964427,-0.009733754991020128,0.008177417888712239,0.9893788102870772
2012-04-05,-1,-0.0007356486007285797,-0.0005328566106673814,-0.008837311704349706,0.008177417888712239,0.9894146293086121
2012-04-10,-1,-0.0015815618213429609,-0.0012945714387308284,-0.006011677970676778,0.008177417888712239,0.9909584384524827
2012-04-12,-1,-0.0007641492165584458,-0.0005720849845950317,-0.007719811328818659,0.0038490745710112392,0.9917939955419458
2012-04-16,-1,-0.0013592341544659673,-0.0010886580814117928,-0.006030377717796457,0.005684015336457284,0.992097609569555
2012-04-18,-1,-0.0013853619140023333,-0.001066205597718201,-0.006030377717796457,0.0038490745710112392,0.9932955724756243
2012-04-20,-1,-0.002121294690125297,-0.0016785062749906936,-0.007719811328818659,0.0038490745710112392,0.9925242658691549
2012-04-24,-1,-0.0020756875959238178,-0.0016630681873159737,-0.006030377717796457,0.0038490745710112392,0.9926131290136785
2012-04-26,0,0.0,0.0,-0.004811789474145162,0.008177417888712239,0.9917446941770689
2012-04-30,0,0.0,0.0,-0.005490260917058846,0.010117613558639885,0.9907925178407159
2012-05-02,-1,-0.0011601994368618728,-0.0009288654153825435,-0.006186813509033622,0.00703167763810618,0.9901190182385833
2012-05-04,-1,-0.0014378887766010506,-0.0011566675567949152,-0.009351087299737198,0.005088998262176023,0.9884980511778761
2012-05-08,-1,-0.0024341179312158245,-0.0019690785012538583,-0.010756236446225632,0.013559887073392611,0.9867420764204601
2012-05-10,-1,-0.0024545762853653464,-0.0020535185669131022,-0.008828929314993121,0.015086406598053296,0.9864998913160108
2012-05-14,0,0.0,0.0,-0.010756236446225632,0.016524934707544892,0.9860368826269162
2012-05-16,0,0.0,0.0,-0.013240195498906983,0.016524934707544892,0.9849009159216902
2012-05-18,0,0.0,0.0,-0.008828929314993121,0.016524934707544892,0.985541345313127
2012-05-22,0,0.0,0.0,-0.008828929314993121,0.016524934707544892,0.9850083689763207
2012-05-24,0,0.0,0.0,-0.008828929314993121,0.011617255398749951,0.9863403515631267
2012-05-29,0,0.0,0.0,-0.014323418216147823,0.009333470625566175,0.9860469490560836
2012-05-31,0,0.0,0.0,-0.011117310685305911,0.010062993035799352,0.9865708543493551
2012-06-04,0,0.0,0.0,-0.008828929314993121,0.01167939745053544,0.9871406410557935
2012-06-06,0,0.0,0.0,-0.007931676901131524,0.010488753948396462,0.9882501328366107
2012-06-08,0,0.0,0.0,-0.008082605391790355,0.010062993035799352,0.9889746533809389
2012-06-12,-1,-0.0006571624450662145,-0.0006107855546422761,-0.007292737025679954,0.009333470625566175,0.9901003280118148
2012-06-14,-1,-0.0006177743912826082,-0.0005539067229562207,-0.007292737025679954,0.010062993035799352,0.9891570707290019
2012-06-18,0,0.0,0.0,-0.007409981734722812,0.005529557289209924,0.9894762431592766
2012-06-20,0,0.0,0.0,-0.007409981734722812,0.005529557289209924,0.990211416666609
2012-06-22,1,0.0005393223372946574,0.0006411200795400138,-0.009033992718570572,0.005529557289209924,0.9887000622210566
2012-06-26,0,0.0,0.0,-0.007719441594010653,0.005529557289209924,0.9892769151568376
2012-06-28,0,0.0,0.0,-0.007719441594010653,0.012467809021663969,0.9879362320215707
2012-07-02,0,0.0,0.0,-0.00794014179311549,0.003972466032864417,0.9891010673700522
2012-07-05,0,0.0,0.0,-0.00944403271441616,0.0011843485008382856,0.9886290789781387
2012-07-09,0,0.0,0.0,-0.00944403271441616,0.006288136634371538,0.9879309200136649
2012-07-11,0,0.0,0.0,-0.00944403271441616,0.006288136634371538,0.9879095643074447
2012-07-13,0,0.0,0.0,-0.009252257955349504,0.0016601725377297788,0.9892345494613075
2012-07-17,0,0.0,0.0,-0.009252257955349504,0.0016601725377297788,0.989696592765874
2012-07-19,0,0.0,0.0,-0.009252257955349504,0.00242625811447234,0.9893171414179057
2012-07-23,1,0.0005450353212696423,0.0005720616216883837,-0.007354262694368032,0.0030079738027872266,0.9909459202643774
2012-07-25,0,-7.486334321772734e-05,8.499718463732871e-06,-0.007354262694368032,0.003421889782193853,0.9916108948076601
2012-07-27,1,0.0012270771542585309,0.0013041913790643653,-0.0075859891910385275,0.0024967639624236355,0.9928913509915763
2012-07-31,1,0.0013205192828964177,0.0014618479365127654,-0.00782731857985743,0.0024967639624236355,0.9923098232520873
2012-08-02,1,0.0006893541639677561,0.0007545921413526071,-0.006421768589218375,0.0024967639624236355,0.9935088671138017
2012-08-06,1,0.001392483600631832,0.0015631166654750035,-0.006421768589218375,0.002182060713242804,0.994194040828059
2012-08-08,1,0.0014619346087938897,0.0016944493877760337,-0.0073570578178038665,0.0024967639624236355,0.9928180802974477
2012-08-10,1,0.0009291621346692639,0.0010964769138691408,-0.005299882844173988,0.003089816237206327,0.9934193966409165
2012-08-14,0,0.0,0.0,-0.005299882844173988,0.0044747168467145874,0.9929307082140418
2012-08-16,0,0.0,0.0,-0.005299882844173988,0.0044747168467145874,0.9933213949712628
2012-08-20,0,0.0,0.0,-0.00782731857985743,0.0044747168467145874,0.991494011128966
2012-08-22,0,0.0,0.0,-0.008108434087555183,0.0044747168467145874,0.9909163919797076
2012-08-24,0,0.0,0.0,-0.009281258274558432,0.005444216900387321,0.9905078450054456
2012-08-28,0,0.0,0.0,-0.007749868994907302,0.005444216900387321,0.9909541853981302
2012-08-30,0,0.0,0.0,-0.009281258274558432,0.007081494457217005,0.9898361894872015
2012-09-04,0,0.0,0.0,-0.009281258274558432,0.007081494457217005,0.9896025820013458
2012-09-06,0,0.0,0.0,-0.007749868994907302,0.008590756702152624,0.990400067673652
2012-09-10,0,0.0,0.0,-0.007749868994907302,0.008590756702152624,0.9907246358958186
2012-09-12,-1,-0.0009111357409133931,-0.0008072603574045263,-0.009149563608470121,0.00950034368662676,0.9885800837623012
2012-09-14,-1,-4.996833767640274e-06,-8.321468411193571e-07,-0.009149563608470121,0.005826295586368936,0.9889711109895389
2012-09-18,0,0.0,0.0,-0.0064072378510208906,0.00950034368662676,0.9901169632483228
2012-09-20,0,0.0,0.0,-0.0028597867145176183,0.01077257912247303,0.9904571030695737
2012-09-24,0,0.0,0.0,-0.0062970311270965544,0.01077257912247303,0.9902943794795763
2012-09-26,-1,-0.001485309786108854,-0.0013162750286363242,-0.0062970311270965544,0.01077257912247303,0.9897648668901219
2012-09-28,-1,-0.001207359478067528,-0.0010470222476722125,-0.00506833343218705,0.007014266606422741,0.9909398898422895
2012-10-02,-1,-0.001965587285417438,-0.001664434850805229,-0.0020471033438227183,0.011117502079204603,0.989824049475123
2012-10-04,-1,-0.0006871019490558574,-0.0005153482465740284,-0.004163335986531097,0.007129240925333264,0.9912540750225413
2012-10-08,-1,-0.0008068369305087024,-0.0006216761676052714,-0.005249195850768215,0.007215204905473961,0.9899760266906219
2012-10-10,-1,-0.00016335278360001432,-5.820826462790051e-05,-0.005249195850768215,0.0058382397408081885,0.9921517795319804
2012-10-12,1,0.0005753078517016346,0.0006043394481696593,-0.005249195850768215,0.0058382397408081885,0.9920764748554014
2012-10-16,1,0.0016763799418910465,0.0019103194306130434,-0.007744375174256888,0.004616227689710071,0.9907498243549381
2012-10-18,1,0.0025963037447365106,0.002928266144946283,-0.007744375174256888,0.003980040605462728,0.9905700708088025
2012-10-22,1,0.0013554733545362422,0.00147545998374263,-0.0052176780486966855,0.004071838698355092,0.9916309936283249
2012-10-24,0,0.0,0.0,-0.004723725209795459,0.004644882349756969,0.9916571676441444
2012-10-26,0,0.0,0.0,-0.004168006189582284,0.006523386746046878,0.9914748984584164
2012-11-01,1,0.001141482552866801,0.0012647829747977372,-0.0052176780486966855,0.004644882349756969,0.9915886460899676
2012-11-05,1,0.0010407301141438523,0.001154569692442604,-0.008489836234557464,0.004644882349756969,0.9909617282355785
2012-11-07,1,0.00030898694281423025,0.0003125601658038545,-0.0052176780486966855,0.005244065374854962,0.9913772879117821
2012-11-09,0,0.0,0.0,-0.002610114668970747,0.00846731106191216,0.9915745175087358
2012-11-13,0,0.0,0.0,-0.005049149275644851,0.00846731106191216,0.9915274599713901
2012-11-15,0,0.0,0.0,-0.0021989016991897717,0.00846731106191216,0.9934652475610971
2012-11-19,0,0.0,0.0,-0.0004752269047444972,0.009260581120241992,0.992961834604855
2012-11-21,0,0.0,0.0,-0.0004752269047444972,0.00940185844000087,0.9928441030922872
2012-11-26,0,0.0,0.0,-0.0037402665743938137,0.00940185844000087,0.9927002838146807
2012-11-28,0,0.0,0.0,-0.005757658270008007,0.00940185844000087,0.9929303841841506
2012-11-30,1,0.0005295915277361745,0.0006307373982780602,-0.005757658270008007,0.00940185844000087,0.9930706447658098
2012-12-04,1,0.0001822251760024156,0.00022629493660592561,-0.0037402665743938137,0.010683772427833114,0.9924346188714509
2012-12-06,1,0.0009575825043158793,0.0011655735659600484,-0.0037402665743938137,0.00940185844000087,0.9929870645724861
2012-12-10,1,0.0011753128738322656,0.0013754639366939732,-0.0037402665743938137,0.00940185844000087,0.9926204013111852
2012-12-12,0,0.0,0.0,-0.0022690860353198313,0.009788568486309804,0.9922651464584284
2012-12-14,0,0.0,0.0,-0.0022690860353198313,0.010360321755388285,0.9918332698697442
2012-12-18,0,0.0,0.0,-0.0022690860353198313,0.009223709892074211,0.9924391168468978
2012-12-20,0,0.0,0.0,-0.0022690860353198313,0.009015578249470909,0.9924849699981368
2012-12-24,0,0.0,0.0,-0.0013260630277793573,0.009825876111608312,0.9915812346552613
2012-12-27,0,0.0,0.0,0.0016299064638028093,0.009825876111608312,0.9913061903017701
2012-12-31,0,0.0,0.0,-0.0013260630277793573,0.009015578249470909,0.9918405608505632
2013-01-03,1,0.002358689849798131,0.002639774845697016,-0.0013260630277793573,0.009015578249470909,0.9936570098655093
2013-01-07,1,0.001939300961409653,0.0021193859879997403,0.00031665401523013777,0.009825876111608312,0.9928203495949286
2013-01-09,1,0.002673045230680784,0.0029391428324241644,0.00031665401523013777,0.009825114081311993,0.9933189162956766
2013-01-11,0,0.0,0.0,-0.0017653473360476212,0.009230272392399756,0.9922125895727076
2013-01-15,0,0.0,0.0,-0.0017653473360476212,0.008397160680634464,0.9927838114622953
2013-01-17,0,0.0,0.0,-0.0019251209402980744,0.007924818587316416,0.9931611350342884
2013-01-22,0,0.0,0.0,-0.0040570436267890995,0.00833060095964559,0.9924260355992283
2013-01-24,0,0.0,0.0,-0.0040570436267890995,0.00833060095964559,0.9931106091968959
2013-01-28,0,0.0,0.0,-0.0050452711241871714,0.00785975680262807,0.9924429809464019
2013-01-30,1,0.002989065198450669,0.003297032363568851,-0.0031385370646770236,0.008653955967905136,0.9919672156219536
2013-02-01,1,0.003449155415834718,0.003807176098762837,-0.0031385370646770236,0.00785975680262807,0.9923223278795344
2013-02-05,1,0.004170800793606081,0.0046262722822105655,-0.0031385370646770236,0.00785975680262807,0.9919046282361417
2013-02-07,0,0.0,0.0,-0.004151318482128452,0.004952583428215721,0.9923817593713173
2013-02-11,0,0.0,0.0,-0.004629346672991109,0.004952583428215721,0.9922018356274854
2013-02-13,0,0.0,0.0,-0.004629346672991109,0.008653955967905136,0.991163933205017
2013-02-15,0,0.0,0.0,-0.00802896593738897,0.008653955967905136,0.9905085440823447
2013-02-20,0,0.0,0.0,-0.008083031786746497,0.008130742090906758,0.9879272652373059
2013-02-22,0,0.0,0.0,-0.009342040113375152,0.008138141703102937,0.9864448822005997
2013-02-26,1,0.0011315407710151813,0.0011999807969760908,-0.009342040113375152,0.008138141703102937,0.9866772299664622
2013-02-28,1,0.0016790818983766734,0.001694410763803917,-0.009342040113375152,0.007374651060260531,0.9876550343029269
2013-03-04,1,0.0020910378817060177,0.002174154980470012,-0.009342040113375152,0.007374651060260531,0.9871126790946068
2013-03-06,1,0.0025342085002823286,0.0026597902264776318,-0.009342040113375152,0.006027998790558175,0.9870789385127338
2013-03-08,1,0.0030453610143510307,0.003317234713836813,-0.008767838042098738,0.0029929968208104642,0.9870901364495799
2013-03-12,1,0.002449212489967024,0.0026336139938358204,-0.007964328253807693,0.006027998790558175,0.9869574813805072
2013-03-14,1,0.003075060420303248,0.0033932480592572672,-0.009779330020012428,0.0012369387299978022,0.9863720560631886
2013-03-18,1,0.003037561141995127,0.003364396037732539,-0.009779330020012428,0.0018436772163118768,0.986376235876945
2013-03-20,1,0.0008540283560385322,0.0008692473892395346,-0.011333234732082793,0.0018436772163118768,0.9894379558612671
2013-03-22,1,0.0005420223713545671,0.0006112347273422639,-0.009167102746516723,0.0020280033779604915,0.9916042909086288
2013-03-26,1,1.0957833401689155e-05,0.00014922641680908163,-0.0072246382060970425,0.004813212279752689,0.9918415754152371
2013-03-28,1,0.0007386044723440156,0.0007394555595315558,-0.0072246382060970425,0.0020280033779604915,0.9917372785669526
2013-04-02,1,5.0726026456169736e-05,0.00014310276981128897,-0.005913091140407129,0.0032150617243397956,0.9921633134251712
2013-04-04,-1,-0.0008698001161040382,-0.0006393977354121071,-0.006431059377763918,0.0034991825328166692,0.9917006940014409
2013-04-08,-1,-0.0017425663902813139,-0.0013691700817700038,-0.0061045481890980744,0.006055907316681585,0.989813529529296
2013-04-10,-1,-0.00028101712797142073,-9.241028811031123e-05,-0.0061045481890980744,0.008893834729113667,0.9884052934108971
2013-04-12,-1,-0.0023218530852176485,-0.0018091299165791247,-0.0061045481890980744,0.008893834729113667,0.988182946287485
2013-04-16,-1,-0.0028151444278517587,-0.0022491293271420863,-0.0061045481890980744,0.014907121654029163,0.9875415798913438
2013-04-18,-1,-0.003961449128589065,-0.003267226754102941,-0.004121181248991042,0.014907121654029163,0.9880518537641557
2013-04-22,-1,-0.0035217338078060356,-0.002901783140313991,-0.004121181248991042,0.014907121654029163,0.987412894771053
2013-04-24,-1,-0.0027383576419008466,-0.0022260651977658837,-0.006720340218310739,0.012993613995060898,0.9872143609416636
2013-04-26,-1,-0.0030593292642859433,-0.0024960073976529338,-0.012983219466554827,0.012993613995060898,0.9866922439718548
2013-04-30,-1,-0.003489509467389694,-0.002843593907314275,-0.013185005837047152,0.012993613995060898,0.9864287747519291
2013-05-02,-1,-0.004155458606963695,-0.0034508918833986617,-0.012983219466554827,0.012993613995060898,0.9873143820159929
2013-05-06,-1,-0.002088884043105123,-0.0016541784531016646,-0.012983219466554827,0.01123777609423715,0.9884813793919812
2013-05-08,0,-4.369091873558954e-05,0.00018250144009238686,-0.013130367065807724,0.0076661942324921135,0.9904164158166257
2013-05-10,-1,-0.0010944155984831797,-0.0007523175030785021,-0.012965283296678152,0.0101431225552486,0.9894704819292164
2013-05-14,-1,-0.0002313656276397147,-4.258027080300119e-05,-0.011647542671025692,0.0076661942324921135,0.9902992153989245
2013-05-16,-1,-0.0010588605372002249,-0.0007868633128654403,-0.007519338380808659,0.0101431225552486,0.9900026255697004
2013-05-20,-1,-0.000561336576621686,-0.00030887854438328753,-0.008178430335040312,0.0076661942324921135,0.9902030346621188
2013-05-22,0,0.0,0.0,-0.008178430335040312,0.007883909723489537,0.9887755296498834
2013-05-24,0,0.0,0.0,-0.006503933316135921,0.008540974688130507,0.9890099305024467
2013-05-29,-1,-0.0015573829177510114,-0.001322934588162075,-0.005925176487920503,0.011189948855534124,0.9885646608193774
2013-05-31,-1,-0.0023728081594537424,-0.0019972656046971875,-0.006503933316135921,0.011189948855534124,0.9878285274109863
2013-06-04,0,0.0,0.0,-0.006503933316135921,0.010709756232446353,0.9882048159415742
2013-06-06,0,0.0,0.0,-0.0062732742164883625,0.011189948855534124,0.9881280598192985
2013-06-10,-1,-0.0007540309708390211,-0.0006358752472761632,-0.0059215225607303894,0.011189948855534124,0.9880208004730736
2013-06-12,0,0.0,0.0,-0.005267389722248194,0.01214873924519183,0.9878062826579542
2013-06-14,0,0.0,0.0,-0.0059215225607303894,0.01214873924519183,0.9874191789904502
2013-06-18,0,0.0,0.0,-0.005267389722248194,0.01214873924519183,0.9878560764082313
2013-06-20,0,0.0,0.0,-0.005265503839355569,0.012491466417800419,0.9883782339306668
2013-06-24,0,0.0,0.0,-0.005265503839355569,0.012491466417800419,0.9884827868514923
2013-06-26,0,0.0,0.0,-0.006689738850091794,0.010667137509839324,0.9888509093601351
2013-06-28,0,0.0,0.0,-0.006832573055506755,0.008477119476411445,0.9890451235305365
2013-07-02,0,0.0,0.0,-0.006478817678261022,0.012526648042738097,0.9882733687024527
2013-07-05,0,0.0,0.0,-0.007925801980267799,0.013640260802293505,0.9868979831059623
2013-07-09,0,0.0,0.0,-0.007925801980267799,0.008832319403521097,0.9886841061845701
2013-07-11,0,0.0,0.0,-0.007925801980267799,0.007981021755533148,0.9885666459941875
2013-07-15,1,0.0027898769203282235,0.0031501930116227253,-0.007766475943887463,0.007328546131607924,0.9888694543983578
2013-07-17,1,0.002941098492099309,0.0033356128066242153,-0.007766475943887463,0.003749510667328247,0.988753287996208
2013-07-19,1,0.004681166219810955,0.0053843491501293535,-0.007766475943887463,0.0033361535461298403,0.9897386482693381
2013-07-23,0,0.0,0.0,-0.007379042652548994,0.0052078174879040704,0.991830172794209
2013-07-25,0,0.0,0.0,-0.006271062995025537,0.006337083372819141,0.9910496387737282
2013-07-29,0,0.0,0.0,-0.005558541972167017,0.008229630360339584,0.9911097872070169
2013-07-31,0,0.0,0.0,-0.006271062995025537,0.006337083372819141,0.9907514884716702
2013-08-02,0,0.0,0.0,-0.006271062995025537,0.0052078174879040704,0.9923978798768166
2013-08-06,0,0.0,0.0,-0.0058891778354418015,0.0052078174879040704,0.9926976441095092
2013-08-08,0,0.0,0.0,-0.006044466991382062,0.0052078174879040704,0.9924960111021651
2013-08-12,0,0.0,0.0,-0.004315444031412614,0.0066154897242765975,0.9921569416401967
2013-08-14,0,0.0,0.0,-0.006113782196890594,0.0066154897242765975,0.9913790333684281
2013-08-16,0,0.0,0.0,-0.008730690778512731,0.009567137515087707,0.990349022009142
2013-08-20,1,0.002805665283406616,0.003076566644746287,-0.008730690778512731,0.012492576873105872,0.9876142390635767
2013-08-22,1,0.003457549609569328,0.003793132302578733,-0.004346136517219291,0.01064693923949303,0.9889263739675044
2013-08-26,1,0.0034768812606608534,0.0037041382451389942,-0.008773503271241611,0.009050714050379296,0.9881997522410434
2013-08-28,1,0.0018992070200714456,0.0020184411280224053,-0.008627146134651474,0.009050714050379296,0.9896536827643961
2013-08-30,1,0.0018296533191508335,0.0020148788907354493,-0.004346136517219291,0.009050714050379296,0.9903434482899144
2013-09-04,1,0.0017062659026095025,0.0018166144208200978,-0.004346136517219291,0.0100911351201561,0.9899324443651609
2013-09-06,1,0.0015567935081088158,0.0016174357373750312,-0.004811894621225706,0.0100911351201561,0.9897179291888921
2013-09-10,1,0.001641028369408239,0.0016419217141754798,-0.010170777583260855,0.006261449355946906,0.9893226782263684
2013-09-12,1,0.0007909209017728822,0.0009763069736450895,-0.009304681454587134,0.0100911351201561,0.9894187823754504
2013-09-16,1,0.0013985394159637336,0.001486729710746177,-0.0055025776421480455,0.007799389977137053,0.9903966753972859
2013-09-18,1,0.002741304418039406,0.0027947546112890922,-0.0055025776421480455,0.007799389977137053,0.9899525023351683
2013-09-20,1,0.0028497886539381573,0.0028810611239006943,-0.0055025776421480455,0.010156481239124483,0.9892011494859888
2013-09-24,1,0.0016034566042003348,0.001765720113496751,-0.0011448478500072252,0.011708415435695094,0.9892087424493107
2013-09-26,1,0.001979086600797805,0.002029314433485723,0.0007951938616882874,0.014024642196176568,0.9893153003448132
2013-09-30,1,0.002825562748966424,0.0029938337336500895,0.0007951938616882874,0.014024642196176568,0.9896146534715387
2013-10-02,1,0.002786048762981907,0.002902087648904067,0.00013216902841549035,0.014024642196176568,0.9897045790332895
2013-10-04,1,0.0027446530389222496,0.0028554899090463834,0.00013216902841549035,0.016217214393060342,0.988897617971841
2013-10-08,1,0.0016605883659795268,0.0017210610745683585,0.003541883293555031,0.016217214393060342,0.9893299154583809
2013-10-10,1,0.0026245229134460968,0.002731095466853846,0.00013216902841549035,0.014024642196176568,0.988647131175863
2013-10-14,1,0.00237457878925214,0.0024169703624491237,0.0006575254008390234,0.015519263659656635,0.9882895747793796
2013-10-16,1,0.0035487841887920204,0.003709882849826282,0.0006575254008390234,0.013978409752460137,0.9910902367613369
2013-10-18,1,0.004363677334965529,0.004568616773733431,0.0006575254008390234,0.013978409752460137,0.9912531213248986
2013-10-22,1,0.004634205658951068,0.004881796612464276,-0.004581629024002535,0.009745295747116257,0.9899473732556581
2013-10-24,1,0.005229106111012086,0.005582398003617305,-0.004581629024002535,0.010243502901609613,0.9892547215510302
2013-10-28,1,0.005018348069468992,0.005298991397899359,-0.009822674200261068,0.010243502901609613,0.9885276994950479
2013-10-30,1,0.00505643036952534,0.005353825402535718,-0.009822674200261068,0.015024939583655264,0.9884177014011541
2013-11-01,1,0.004861558800453202,0.0051266292450151294,-0.008587192821558298,0.011884051454580049,0.9895340542536158
2013-11-05,1,0.005044733419418964,0.005380085319136683,-0.009822674200261068,0.011884051454580049,0.9887189194993506
2013-11-07,1,0.003773833974953792,0.003915627794835265,-0.004722950626809655,0.011884051454580049,0.9905909446463264
2013-11-11,1,0.0035613384255844525,0.0036023688517419494,-0.00858085786863388,0.009096964273632333,0.9906008310894148
2013-11-13,1,0.004010717090522208,0.004106168501906961,-0.00944766310169636,0.008473646443523566,0.9901382924885194
2013-11-15,1,0.005030455384690226,0.00529068095107372,-0.00944766310169636,0.00907028392032315,0.9898549106487187
2013-11-19,1,0.001525203623949868,0.0015947200033029373,-0.006149356299731281,0.00907028392032315,0.9915067483141632
2013-11-21,1,0.002610002787105109,0.0026468112538583018,-0.006149356299731281,0.00907028392032315,0.9918643985457354
2013-11-25,1,0.0021649413540533787,0.002195996287360419,-0.004091453020639527,0.00907028392032315,0.9920283149276916
2013-11-27,1,0.005028727243480258,0.005333161653240391,-0.004091453020639527,0.008637302511494626,0.9918628863241208
2013-12-02,1,0.0034720633348887696,0.003602147672651844,-0.0035603877244035345,0.0058910984473867205,0.992781306108727
2013-12-04,1,0.004708928203129434,0.004960277562350068,-0.0035603877244035345,0.0058910984473867205,0.9917942187833796
2013-12-06,1,0.0028119900094698896,0.002895991921929855,-0.004091453020639527,0.006063647966460842,0.9917677583095659
2013-12-10,1,0.004574921525607152,0.004875539122288049,-0.0028979235549028643,0.008379779813041926,0.9915989762455484
2013-12-12,1,0.0035969815918923433,0.0037407188838604983,-0.0028979235549028643,0.008379779813041926,0.9917561726353609
2013-12-16,1,0.0031426504650542064,0.0032367525147188525,-0.0028979235549028643,0.00796637882759776,0.9918955140988025
2013-12-18,1,0.0024309585129748267,0.00245677493134143,-0.004030636979223899,0.00796637882759776,0.9915511607248122
2013-12-20,1,0.0035335551123660963,0.003685142335821254,-0.004030636979223899,0.00796637882759776,0.9918181357844856
2013-12-24,1,0.004103479260500862,0.0043148234425507866,-0.009249568221280778,0.00796637882759776,0.9892239187682667
2013-12-27,1,0.004512646161980935,0.00475599908725758,-0.010741576096065162,0.00796637882759776,0.9876776732059593
2013-12-31,1,0.002293050802870182,0.0024102364848478408,-0.014608293374369762,0.009008982857483468,0.9870475596123603
2014-01-03,1,0.002594733979088142,0.0026073246480873545,-0.014608293374369762,0.009008982857483468,0.986602220637705
2014-01-07,1,0.002370677956644642,0.0023930245192683042,-0.014608293374369762,0.00796637882759776,0.9872706359112314
2014-01-09,1,0.002383425518523238,0.002416490680749904,-0.014608293374369762,0.007656958848405128,0.987325576941657
2014-01-13,1,0.001847953011567625,0.0019388716520207954,-0.014320326609809211,0.00859622250036696,0.9866477723373261
2014-01-15,1,0.002216175084122813,0.0022435765966352748,-0.014320326609809211,0.007166366845562191,0.9871210925735852
2014-01-17,1,0.0016829912266898286,0.0017547635732892968,-0.014320326609809211,0.007166366845562191,0.9874378527634533
2014-01-22,1,0.0021550229322962753,0.0023700188940842058,-0.014320326609809211,0.007166366845562191,0.9867830355046131
2014-01-24,-1,-0.0007876717597229289,-0.00033005594270636273,-0.009039455974729934,0.008799711672456965,0.9892318329387972
2014-01-28,-1,-0.0014248925586267107,-0.0009331147902676329,-0.009039455974729934,0.007166366845562191,0.9902326759639448
2014-01-30,-1,-0.001817842410261889,-0.0012920449360424838,-0.0047630526507734,0.007166366845562191,0.9913192406946314
2014-02-03,-1,-0.001947610747108775,-0.0014005122436024015,-0.003472300825793023,0.007906898403443578,0.9911545098439216
2014-02-05,-1,-0.0022723012696294663,-0.001640017843326171,-0.002120024207873754,0.007502222997344207,0.9913286193277695
2014-02-07,-1,-0.001921374048858179,-0.0013475985774100226,-0.002120024207873754,0.007019276506213763,0.9919349161476029
2014-02-11,-1,-0.0014355864562415953,-0.0010059653574367058,-0.002120024207873754,0.004328331118539704,0.993621370869241
2014-02-13,-1,-0.001750184554442326,-0.0012712840782506687,-0.003687245778394363,0.004328331118539704,0.9932349767314945
2014-02-18,-1,-0.002243516654951541,-0.0016921215018145161,-0.002120024207873754,0.00629593256772841,0.992946995644833
2014-02-20,-1,-0.0024510646517538533,-0.0018553250848315126,-0.002120024207873754,0.004230434279256472,0.9934210415770834
2014-02-24,-1,-0.0020843365563743242,-0.0015369241167416518,-0.003687245778394363,0.003257174136937158,0.9937047411491273
2014-02-26,-1,-0.0027800906282684588,-0.0021721423938153833,-0.004564504430065229,0.003257174136937158,0.9933464875050672
2014-02-28,-1,-0.0027694751580580276,-0.0021480156626162944,-0.004564504430065229,0.002863833465126692,0.9937590266083204
2014-03-04,-1,-0.002673804339108681,-0.002019383100374838,-0.004564504430065229,0.003257174136937158,0.9944270481273177
2014-03-06,-1,-0.002075230826016655,-0.0015165972053982144,-0.004564504430065229,0.004046984091793191,0.9942375684274959
2014-03-10,-1,-0.0022043394557665313,-0.001664832541786673,-0.007279993805923083,0.004046984091793191,0.9939446240542652
2014-03-12,-1,-0.0013416241065454674,-0.001003245858260145,-0.007279993805923083,0.004336461255139244,0.9938643984888581
2014-03-14,-1,-0.0014477360684657927,-0.001159419735758416,-0.007815389044362991,0.004336461255139244,0.9933483679763986
2014-03-18,-1,-0.0005930906664870863,-0.0004132115243709112,-0.007815389044362991,0.004046984091793191,0.9936421646708575
2014-03-20,-1,-0.0009719321579095308,-0.0007903423554457961,-0.006469129740133686,0.005101939913958556,0.9929358971811121
2014-03-24,-1,-0.0002397817862065121,-0.00015458286663768014,-0.005961736777069858,0.005649740254440953,0.9932189313326355
2014-03-26,-1,-0.0010196229731368478,-0.0008353137894619477,-0.0026524262830291395,0.005649740254440953,0.9937530039398271
2014-03-28,-1,-0.0019665877206207216,-0.00175114061639091,-0.00540252013876674,0.005649740254440953,0.9927434238212388
2014-04-01,-1,-0.0008959495827476056,-0.0007915068049771125,-0.00540252013876674,0.005785190837190515,0.9931550869693865
2014-04-03,-1,-0.0013723288896753212,-0.0011221490996589163,-0.00540252013876674,0.005785190837190515,0.9932878129865719
2014-04-07,-1,-0.0016840958659428806,-0.0014283421008640554,-0.0032645765294967194,0.005785190837190515,0.99352150954917
2014-04-09,-1,-0.0009687411480892631,-0.0008607072691402409,-0.00540252013876674,0.005785190837190515,0.9923484043184821
2014-04-11,-1,-0.0010071375383925289,-0.00090022962428152,-0.0020378357246574235,0.006245769814069833,0.9919311749570028
2014-04-15,-1,-0.001269519583640879,-0.0010719254092144933,-0.0032645765294967194,0.006245769814069833,0.9920787585417471
2014-04-17,1,0.00022322451253651638,0.00026367802134529325,-0.004776023820322087,0.005622272693757445,0.9931763484442155
2014-04-22,1,0.00028706604754289664,0.00032171882484611787,-0.005276240392294228,0.0056172737055868085,0.9928527777798126
2014-04-24,1,0.00037174928664643943,0.0004607681469229266,-0.004943916008004448,0.0058179401211055585,0.9926145745745893
2014-04-28,1,0.000336507954898808,0.00041029189669835675,-0.003599956105583394,0.006245769814069833,0.99241266043699
2014-04-30,1,0.000693490960188545,0.0007885543821381938,-0.003599956105583394,0.007703046873911076,0.9922977584602146
2014-05-02,1,0.0008231301829936105,0.0009473124492566576,-0.003599956105583394,0.007703046873911076,0.9924052673830074
2014-05-06,1,0.00039003664264516513,0.00045241786580279674,-0.003599956105583394,0.007703046873911076,0.9924523698525229
2014-05-08,1,0.0004339649283308706,0.00047572811921471907,-0.0027312059001062218,0.006346014765022089,0.994062541227204
2014-05-12,1,0.0016539960368891363,0.0018980765760465415,-0.0027312059001062218,0.005842168339435986,0.9948344780433185
2014-05-14,1,0.0014517791928026348,0.0016680700012851745,-0.003599956105583394,0.005842168339435986,0.9935694553521233
2014-05-16,1,0.0013530553293623912,0.001626417060771933,-0.0033814714634372097,0.006840048132773965,0.9934891585089741
2014-05-20,1,0.0015138363807475847,0.0017454671118624678,-0.0024756934416793634,0.007444809724727656,0.9911000843403511
2014-05-22,1,0.0024132165088611426,0.002716251217615132,-0.0033814714634372097,0.006840048132773965,0.9909323659630294
2014-05-27,1,0.0025529926177294787,0.002903718593350971,-0.0033814714634372097,0.0062896425693546995,0.9914466612803579
2014-05-29,1,0.002543391910542256,0.0028600646268742026,-0.0033814714634372097,0.005571802094376949,0.9914041029083164
2014-06-02,1,0.002754795189597036,0.0031144477144951837,-0.003297176526838805,0.005571802094376949,0.9914358653843311
2014-06-04,1,0.0025297228424856965,0.0028447017601480797,-0.0011533114029242167,0.006276790177127659,0.9917970657217406
2014-06-06,1,0.0024371424059602565,0.0027495907057031917,-0.0020028928002831267,0.0066187446352225935,0.9911145568001476
2014-06-10,1,0.0029368916138591524,0.0033349427980718894,-0.003983209469000047,0.006276790177127659,0.9910114290496608
2014-06-12,1,0.0016581676713302645,0.0018744412484304987,-0.0013819890503112976,0.006276790177127659,0.9923339970416297
2014-06-16,1,0.001961003079737507,0.002241144466648633,-0.0006259972987191949,0.005662311850642748,0.9928244686829827
2014-06-18,1,0.0023194224245090063,0.002520407338406388,-0.0013819890503112976,0.005403542881756189,0.9943224373099846
2014-06-20,1,0.0019362880565131821,0.0020743854291349483,-0.0013819890503112976,0.005716986581345464,0.9944280921283978
2014-06-24,1,0.002251665759693176,0.002414005150841533,-0.0033721071107548047,0.006223886280506974,0.9942267719814393
2014-06-26,1,0.002048547977627924,0.0021399723088053203,-0.003545980873069646,0.005663019204409158,0.9939641144330966
2014-06-30,1,0.0019153363899123202,0.0020207867637110806,-0.007457863377420904,0.005663019204409158,0.9928114680348286
2014-07-02,1,0.0020005052347176096,0.0021342742150202484,-0.009300623346019462,0.005663019204409158,0.9916067026672876
2014-07-07,1,0.0019685026292972797,0.0021103591735259462,-0.007457863377420904,0.005663019204409158,0.9919263309518828
2014-07-09,1,0.001793689263111227,0.001970067238192681,-0.00968591097392309,0.005663019204409158,0.9909752145853135
2014-07-11,1,0.0014105915660481748,0.0014565097155089806,-0.00968591097392309,0.006223886280506974,0.9908071810623099
2014-07-15,1,0.0018066232689381572,0.0019102209103739154,-0.00968591097392309,0.006223886280506974,0.9909276318394279
2014-07-17,1,0.0015687228395375784,0.0016555816084210394,-0.008944562217877022,0.006177013847778503,0.9923199398539166
2014-07-21,1,0.001320525711202899,0.001331272674374772,-0.008944562217877022,0.006177013847778503,0.991925611867667
2014-07-23,1,0.0015251479407764475,0.0015649268661193094,-0.008944562217877022,0.004699599084163003,0.992074273090186
2014-07-25,1,0.001135412203912813,0.0012153205143053411,-0.0076341045696245655,0.004699599084163003,0.9923361082169483
2014-07-29,1,0.00014970446015303624,0.00019531401354776586,-0.004090566748886077,0.004699599084163003,0.9932972572833827
2014-07-31,1,0.00018499667930922594,0.0002197501873738655,-0.004090566748886077,0.003885660061832411,0.994372971410595
2014-08-04,1,0.001055600452460441,0.001108557372668473,-0.004090566748886077,0.003885660061832411,0.9942805693600757
2014-08-06,1,0.00010598463976772246,0.00018095550610135763,-0.001602346483621772,0.004699599084163003,0.9949105144364057
2014-08-08,1,0.0006414525923027082,0.0006610299488831383,-0.0029453098521894385,0.004699599084163003,0.9950258534500265
2014-08-12,1,0.0007029741079477461,0.000730715038293094,-0.004021272888059199,0.004699599084163003,0.9945554436459811
2014-08-14,1,0.0003231563413516824,0.00040040943338891965,-0.004021272888059199,0.008169027626797717,0.9940362165511685
2014-08-18,1,0.00010706459994988836,0.00023986225319108792,-0.0029453098521894385,0.005182420505139455,0.9946845670755792
2014-08-20,1,0.0006035122855757803,0.0007570964496211964,-0.00377453253357479,0.008169027626797717,0.9931866415540337
2014-08-22,1,0.0005932866574456293,0.0007160497025272031,-0.0034973449982236794,0.008169027626797717,0.9932213201692881
2014-08-26,1,0.0005908839193405685,0.0006970523782695883,-0.0031701658000069955,0.008288299007842568,0.9930998335691211
2014-08-28,1,0.00024749101719417996,0.0004280058981016538,-0.0031701658000069955,0.00839589083102976,0.9921179896426355
2014-09-02,1,0.0009621716959442424,0.0010502573639773558,-0.003956678498547151,0.00839589083102976,0.9920678058424578
2014-09-04,0,-0.0001327667111912813,7.007814709006203e-05,-0.004596843966286386,0.008288299007842568,0.9911878658828241
2014-09-08,1,0.0005792365324032969,0.0007452923851402303,-0.004596843966286386,0.00915347871459144,0.9897323611291449
2014-09-10,1,0.0005952105006250802,0.0007128236903466009,-0.004596843966286386,0.012560561447916695,0.9880067646123409
2014-09-12,1,0.0011352659797646257,0.0011722456418733103,-0.011807855378844307,0.009973496669846493,0.9870965220257029
2014-09-16,1,0.0012132264705962586,0.001259765078114758,-0.015114223066015571,0.01533131961564102,0.9853657510549676
2014-09-18,1,0.0007385189325639952,0.0008325801005822949,-0.015114223066015571,0.009973496669846493,0.9866495511212572
2014-09-22,1,0.0008579243691307195,0.0009309240787469997,-0.015114223066015571,0.01533131961564102,0.9856133627189643
2014-09-24,1,0.0018153242318286085,0.0018209705369297735,-0.015114223066015571,0.01636529368379752,0.9840849020176806
2014-09-26,1,0.0012958704998262565,0.0013525923756682126,-0.014207864077991038,0.018029817902339505,0.9841527786055995
2014-09-30,1,0.0014109555966731007,0.0014533589963398985,-0.014207864077991038,0.019359642004974736,0.9839500167293529
2014-10-02,1,0.0013505449724346126,0.001350750256587493,-0.012827148468013822,0.019359642004974736,0.9842231814419331
2014-10-06,1,0.0011019496093031464,0.0011491027477647708,-0.011505735716169464,0.01670670722239692,0.9857665492570294
2014-10-08,1,0.0015172728814496612,0.001548351996261276,-0.009425666013297671,0.015116370331607003,0.9872100902550479
2014-10-10,1,3.725903943803898e-05,0.00024122937250635923,-0.0028205727337260716,0.015116370331607003,0.9882918575119154
2014-10-14,1,6.579664753070692e-05,0.00024394618992484407,-0.0018998864792759132,0.013776758127717725,0.9898718312495255
2014-10-16,0,-5.165118368334132e-05,0.00011116430749681623,-0.0018998864792759132,0.013776758127717725,0.9902542268079988
2014-10-20,1,0.0009028901874249137,0.0009214157158080657,-0.0017753984487889562,0.012938503095190127,0.9915385889309072
2014-10-22,1,0.0010727108025934344,0.001081674187870603,-0.0015416381631725693,0.009560614996947178,0.992947250467926
2014-10-24,1,0.0018867436852078156,0.001953234097294261,-0.0015416381631725693,0.00897310849990656,0.9938546462615453
2014-10-28,1,0.0025342993662819794,0.0026831580648307807,-0.0020942679845626076,0.005115569522117307,0.9944425534350452
2014-10-30,1,0.0021866092349228147,0.0022785562943234035,-0.0014079900192237084,0.007440463441243141,0.9947160026738768
2014-11-03,1,0.0018788603121100776,0.0018925381326438627,-0.0015416381631725693,0.007440463441243141,0.9944837572976337
2014-11-05,1,0.0021178037532127054,0.002137064731618798,-0.0018804493820868686,0.005115569522117307,0.9950185271804162
2014-11-07,1,0.002655720304479845,0.0027765670347881925,-0.0018804493820868686,0.005115569522117307,0.9951730051664833
2014-11-11,1,0.0027828925372119684,0.0029155415309000576,-0.002707110878291087,0.005115569522117307,0.9935293956889426
2014-11-13,1,0.002683454585267202,0.0028300298860190714,-0.002707110878291087,0.005115569522117307,0.9935974110091559
2014-11-17,1,0.0027988570232984574,0.002985240581658589,-0.003014350230349693,0.005115569522117307,0.9932201474537078
2014-11-19,1,0.0025077691509758143,0.002701012225723251,-0.00440335953920558,0.0071667601407123995,0.9898258225369277
2014-11-21,1,0.0028183537041203783,0.003062877953167282,-0.00440335953920558,0.0071667601407123995,0.9894621590503924
2014-11-25,1,0.002914533301685379,0.0032338552067457628,-0.003744763915125424,0.004614831150924947,0.9894890314864777
2014-11-28,1,0.0035610831219571914,0.003935978555395422,-0.0037512607412678385,0.002467747593081219,0.9893472997781048
2014-12-02,1,0.0038425482072391446,0.0042037468115401905,-0.006536107003179485,0.0011782342970383338,0.9891165387393892
2014-12-04,1,0.0034519859575042645,0.0038054611164303294,-0.008593595570905846,0.0008918923300724837,0.988349555109588
2014-12-08,1,0.002800895320411305,0.0030541171738440787,-0.008593595570905846,0.0008918923300724837,0.9890764734442418
2014-12-10,1,0.001834587876791905,0.001972995002912364,-0.007140037803114896,0.002467747593081219,0.9893964828513675
2014-12-12,1,0.001799500759494227,0.0019281199790687374,-0.007140037803114896,0.0009795075817425041,0.9893086212171188
2014-12-16,1,0.0012733432833197489,0.0013172030272403787,-0.006392237581070837,0.0065978713425743655,0.9897064239602894
2014-12-18,1,0.0008104002357014269,0.0008514274807167649,-0.003772093366682328,0.007306981239875426,0.9922478481928569
2014-12-22,1,0.0011219382637348886,0.0011335840811780577,-0.003772093366682328,0.007306981239875426,0.9920727973165505
2014-12-24,1,0.0010192274630787803,0.0010334392423136049,-0.006392237581070837,0.007306981239875426,0.9906884736756246
2014-12-29,1,0.00030815142785301446,0.00041639531370303513,-0.009142049793781911,0.007306981239875426,0.9896591359347041
2014-12-31,1,0.0006855560959058525,0.0007741451421275472,-0.013691425166914663,0.007621267940127561,0.9886892786902648
2015-01-05,0,-0.00014359437336992605,4.8851080197286675e-05,-0.008049526819945401,0.010696472459328124,0.9887892762844963
2015-01-07,-1,-0.00043537501250322697,-0.0002654828762687957,-0.008049526819945401,0.010696472459328124,0.9884948591985872
2015-01-09,1,0.00030919029689304307,0.0004239326767826134,-0.0069735516782366775,0.00881017407752467,0.9898224150087891
2015-01-13,1,3.852660609213876e-05,0.00018922236078012036,-0.006182281232678239,0.00976452066507243,0.9895404822614571
2015-01-15,1,0.0002805322848900093,0.0004235340155531484,-0.006182281232678239,0.010696472459328124,0.989534724504643
2015-01-20,1,0.0012123761838511802,0.0012634964258577768,-0.006182281232678239,0.00976452066507243,0.9901959658571986
2015-01-22,1,0.0011816059650206208,0.0012537509526183777,-0.007037348610934077,0.008717080049671684,0.99060048186122
2015-01-26,1,0.0007343649491558762,0.0008340923181898009,-0.00543041983102892,0.008717080049671684,0.9919684949089808
2015-01-28,0,-0.00014708337912670312,3.926809387810339e-05,-0.005339339092455744,0.008717080049671684,0.9925865277604581
2015-01-30,-1,-0.0005584886373246616,-0.0003209965925668589,-0.0033895461661305783,0.00976452066507243,0.9933828743424773
2015-02-03,0,-2.0855634443386027e-05,0.00017003046711901127,-0.005339339092455744,0.004557305668902034,0.993850184471354
2015-02-05,0,-6.139030127460838e-05,8.964515328838856e-05,-0.00601224499356523,0.0018969807976102501,0.9939495456829689
2015-02-09,-1,-0.0004976061073265663,-0.00038008236186387037,-0.00601224499356523,0.0018969807976102501,0.9936044811887634
2015-02-11,0,-2.961605151746298e-05,1.4197199034371802e-05,-0.00601224499356523,0.0032966991442249923,0.9931026598907445
2015-02-13,-1,-0.00025337940069479286,-0.00011441904243112712,-0.00601224499356523,0.0032966991442249923,0.9927099467775069
2015-02-18,1,0.0004050894420661249,0.0004479766213683193,-0.008784237681008137,-0.0003433437913828981,0.9921966226296628
2015-02-20,1,0.0002924807591041732,0.000340653886725799,-0.009140700717473705,0.0016524867859959934,0.9919682912773129
2015-02-24,0,-6.460906244732279e-05,2.8143391327879936e-05,-0.009140700717473705,0.0016524867859959934,0.9914856993430904
2015-02-26,-1,-0.0006267465231609825,-0.00045194254044529436,-0.009140700717473705,0.0016524867859959934,0.9914660987492525
2015-03-02,-1,-0.0003274886919540074,-0.00019166400350085398,-0.009140700717473705,0.0016524867859959934,0.9911729618387927
2015-03-04,-1,-0.0006190877622386999,-0.0004576932978138161,-0.009140700717473705,0.0035740056476872995,0.9912081950910082
2015-03-06,-1,-0.0013993194593744382,-0.0011053486212189768,-0.008774812167639864,0.0035740056476872995,0.9916832654239244
2015-03-10,-1,-0.0019835169702208857,-0.0016152314340954525,-0.00827150673309966,0.005875295196799659,0.9907737144453336
2015-03-12,-1,-0.0017898698758094993,-0.00142362293686698,-0.00827150673309966,0.005152412887702981,0.9911188985491314
2015-03-16,-1,-0.0005795802320637105,-0.0003962407121517761,-0.008774812167639864,0.0041733630359556545,0.9915960692673575
2015-03-18,-1,-0.0011338626806768894,-0.0008909156736747984,-0.00827150673309966,0.0041733630359556545,0.9920990666626063
2015-03-20,-1,-0.0011924383158816122,-0.000986457778586287,-0.007881492000068034,0.005152412887702981,0.99207738963106
2015-03-24,-1,-0.0011254784156896987,-0.0009657574216962975,-0.007165170735214362,0.005342109464699905,0.9923952863196478
2015-03-26,-1,-0.0016067049057109516,-0.001364720463413134,-0.005856652461595029,0.005342109464699905,0.9933188263811188
2015-03-30,-1,-0.0013280844566207536,-0.0011304533926872404,-0.0058378244480286326,0.005342109464699905,0.9933774292712377
2015-04-01,-1,-0.0011083375573918593,-0.0009563250610839364,-0.0058378244480286326,0.005342109464699905,0.9935532730397839
2015-04-06,-1,-0.0009843644060143248,-0.0008541045051713149,-0.0058378244480286326,0.006291072562312446,0.99290342402101
2015-04-08,-1,-0.00012708130676681483,-0.00010101864698621313,-0.007165170735214362,0.005342109464699905,0.9937714999922395
2015-04-10,0,-1.2551399637566836e-06,1.615251726183489e-05,-0.007165170735214362,0.005348255036377007,0.9933929541633528
2015-04-14,-1,-0.0006611784636956653,-0.0005616147765736552,-0.004711540306643566,0.005348255036377007,0.9937282690075913
2015-04-16,-1,-0.0008271719488956737,-0.0007160547165263444,-0.004711540306643566,0.006942340090987991,0.9934314082279947
2015-04-20,-1,-0.0006641158548533156,-0.0005835573928795961,-0.002223576523386391,0.00946684353917382,0.9929992033397942
2015-04-22,-1,-0.000421212487626199,-0.0003710760108130086,-0.003057785338612567,0.00946684353917382,0.9930194195911745
2015-04-24,-1,-0.00020049819667181064,-0.00019913250861539424,-0.005426054593556514,0.00946684353917382,0.9924714472455243
2015-04-28,1,0.000357604516546547,0.00044710739331657416,-0.0056251243864479375,0.00946684353917382,0.9924252348601142
2015-04-30,0,-1.1155876279395465e-05,3.0991732257175755e-05,-0.00652094362903263,0.00946684353917382,0.9919176096513537
2015-05-04,1,0.000356954158573745,0.00045454664473185846,-0.00652094362903263,0.00946684353917382,0.9920360762894024
2015-05-06,-1,-0.00026039252780955287,-0.00024221432263172893,-0.0056251243864479375,0.01021953869675907,0.9915069660700335
2015-05-08,1,0.00015553109008575034,0.00018894194249150742,-0.00652094362903263,0.01021953869675907,0.9912844143680799
2015-05-12,1,8.641507801197652e-05,9.586881329228181e-05,-0.00652094362903263,0.011020330425058754,0.991079603911294
2015-05-14,1,0.0004349002035405063,0.0005225342615994596,-0.006405477857413467,0.011838821313863239,0.990938912726816
2015-05-18,1,0.0010972846700596957,0.0012805965948838524,-0.006405477857413467,0.011211365435153253,0.9914728495344264
2015-05-20,1,0.0009373711306886641,0.0010874452472568541,-0.007413502726463536,0.011211365435153253,0.9899056627048434
2015-05-22,1,0.0005367498437636011,0.0006258406873574862,-0.007681154692041047,0.011211365435153253,0.989854532078962
2015-05-27,1,0.0006007214243985106,0.000682444027006119,-0.009261675442499132,0.009747454700568797,0.990006420985652
2015-05-29,-1,-0.00023347181900387732,-0.0001781522457630194,-0.006121626809464769,0.009747454700568797,0.9905962676544475
2015-06-02,1,0.00023705023882685054,0.0002473498212984581,-0.00811232223090911,0.006080861500128927,0.9903085036548208
2015-06-04,1,0.0008876120782471497,0.0009967317865428689,-0.00811232223090911,0.005676000731230796,0.9909206636833923
2015-06-08,1,0.0007754126385164017,0.0008586561896247555,-0.00811232223090911,0.005676000731230796,0.9911335053702366
2015-06-10,1,0.0011559235305997825,0.0013077608946454307,-0.011349867703507823,0.0044779457706282545,0.9904459302301141
2015-06-12,1,0.0015636923562607303,0.0018071800121587233,-0.011349867703507823,0.004598217625116259,0.9906505774860438
2015-06-16,1,0.0015897007319867758,0.0018548622338781912,-0.012674902093068716,0.004598217625116259,0.9905285531372188
2015-06-18,1,0.0008503229980110635,0.0009829139729824429,-0.010996856188956954,0.004392487418391438,0.9922482634392337
2015-06-22,1,0.00020600239986175053,0.00021171673270857323,-0.006935912085529506,0.004392487418391438,0.9928470970152491
2015-06-24,-1,-0.00043508226219797155,-0.00034774642808786687,-0.010319162302908861,0.004392487418391438,0.9925896814648595
2015-06-26,-1,-6.715739489337548e-05,-5.013046648496434e-05,-0.012138857911166229,0.0043252273303936994,0.9920013156760373
2015-06-30,-1,-0.0005457583787125541,-0.0004758392561091799,-0.010319162302908861,0.005297363060262532,0.9906991254065945
2015-07-02,-1,-0.000587241369037082,-0.0004994324876050168,-0.010319162302908861,0.004392487418391438,0.9910294702690856
2015-07-07,-1,-0.00048361516119756415,-0.0004258458835401845,-0.005594646332645873,0.0043252273303936994,0.9918521940088312
2015-07-09,-1,-0.0006383449542053033,-0.0005831848337320795,-0.005594646332645873,0.004392487418391438,0.9921674121655868
2015-07-13,1,0.00018293352423940311,0.0002585102998301287,-0.00976625908680021,0.0039706841008181875,0.9917736581930537
2015-07-15,-1,-0.00013928745783944532,-0.00011674262937615449,-0.00976625908680021,0.0039706841008181875,0.9912490625796827
2015-07-17,-1,-5.2176904654132025e-05,-3.0509597803744145e-05,-0.009985713184498994,0.004642956390143828,0.9906925749026946
2015-07-21,-1,-0.00020602251903937432,-0.00019144249589328683,-0.009985713184498994,0.004900712737217259,0.9905544667250412
2015-07-23,-1,-0.0006260835679410199,-0.0005764198155731494,-0.009985713184498994,0.004900712737217259,0.99013344225543
2015-07-27,-1,-0.0011551913985837308,-0.0010316786952155928,-0.011605401195951253,0.004900712737217259,0.9875706053732444
2015-07-29,1,0.0001665963457472057,0.00018516843644684404,-0.016172862423014016,0.0017737761889331418,0.9871293966012014
2015-07-31,-1,-4.9754781990712376e-05,-1.5435298351707262e-05,-0.016172862423014016,0.004900712737217259,0.9857329563977222
2015-08-04,-1,-0.00029051406365405335,-0.00026499892768909987,-0.017478758471156094,0.004900712737217259,0.9847446225189784
2015-08-06,1,3.747612697712591e-05,9.416252061492136e-05,-0.017478758471156094,0.004985953942369569,0.9844482901519434
2015-08-10,-1,-0.00014936076022433015,-0.00014737918568460213,-0.017526999121124133,0.004985953942369569,0.9835496824657012
2015-08-12,-1,-0.0010856174298501922,-0.0009496687792744565,-0.017146428935858937,0.004985953942369569,0.9837753796899158
2015-08-14,-1,-0.0013995828529432268,-0.0012052136419654445,-0.017146428935858937,0.005660837610895463,0.9839567714383044
2015-08-18,-1,-0.001471175578063428,-0.0012541614576119726,-0.018473271292835873,0.012283574836765888,0.9817717762924572
2015-08-20,-1,-0.0022446600105896744,-0.001946530008622438,-0.018473271292835873,0.012283574836765888,0.9820424203321925
2015-08-24,-1,-0.0030961778415080415,-0.0026977263982449957,-0.014761287420611833,0.012283574836765888,0.9847663916213156
2015-08-26,-1,-0.005128500951368725,-0.00449775319801283,-0.013340437028166173,0.006188679746546448,0.9868602170480236
2015-08-28,-1,-0.004235019259654955,-0.0037556340893001557,-0.014761287420611833,0.006188679746546448,0.9865721329252574
2015-09-01,-1,-0.004695013389985035,-0.004180851067843645,-0.013340437028166173,0.01109946911815989,0.9860915791181605
2015-09-03,-1,-0.0043353217352393985,-0.0038380466196883305,-0.013340437028166173,0.008865304740399012,0.9866409059334976
2015-09-08,-1,-0.0036871462656725518,-0.0032541872550546297,-0.01174684040313776,0.010223085653495124,0.9867055575433008
2015-09-10,-1,-0.004584515124988697,-0.004050708511710455,-0.006325446951007786,0.011482015517160212,0.9856163411826859
2015-09-14,-1,-0.004104755252726439,-0.0036416783288078704,-0.006499686701247105,0.011482015517160212,0.9863069040441711
2015-09-16,-1,-0.003813837581459246,-0.00338569668521872,-0.006499686701247105,0.009878687236284187,0.9882014196855083
2015-09-18,-1,-0.0045537172083531955,-0.00406478980894702,-0.00517799118578793,0.009878687236284187,0.9883406794447861
2015-09-22,-1,-0.004721362365542677,-0.004196280725588554,-0.0029048393035629827,0.010612045054722899,0.9882718434961255
2015-09-24,-1,-0.00463222542449379,-0.004141936279649453,-0.000845408779429938,0.01317062781320614,0.9863450376212402
2015-09-28,-1,-0.0051892215387345526,-0.004620511217496254,-0.001292715175307612,0.011187741824526448,0.9875300872540708
2015-09-30,-1,-0.00388952921767055,-0.003503778746180975,-0.004603804429672493,0.010612045054722899,0.9892849872431559
2015-10-02,-1,-0.0029641726232835577,-0.0026953781296392277,-0.004603804429672493,0.010612045054722899,0.9898494876886541
2015-10-06,-1,-0.0019993417054148628,-0.0018502566130816915,-0.004603804429672493,0.009885100238511642,0.991173079015116
2015-10-08,-1,-0.0005790330268549682,-0.0005176984777795124,-0.004603804429672493,0.00827945523140432,0.9923028231978461
2015-10-12,-1,-0.0010011550254029637,-0.000999454891210335,-0.004603804429672493,0.009524428137003844,0.9913160646137464
2015-10-14,-1,-0.0016869212767756723,-0.0015968893620760434,-0.002358077550197135,0.009524428137003844,0.9917738244079085
2015-10-16,-1,-0.0008833737361956062,-0.0008461880760403707,-0.004333760440107015,0.008648407206204793,0.9918666788782458
2015-10-20,-1,-0.0007606543366873797,-0.000747724216317576,-0.004333760440107015,0.009204864969325982,0.991330292752357
2015-10-22,1,0.0007115092694731222,0.0009614597077561016,-0.004333760440107015,0.007406769417111786,0.9926755505639984
2015-10-26,1,0.0003107681970233477,0.0005335660782050461,-0.0042690600613943305,0.007406769417111786,0.9928248614408715
2015-10-28,1,0.00019181564867962132,0.0004030663233652059,-0.0032488265950206233,0.007406769417111786,0.9933072400427927
2015-10-30,1,0.0007694128224446678,0.0010972595984128368,-0.0042690600613943305,0.008158967742059993,0.9917089017786022
2015-11-03,1,0.0013374200340090477,0.001747532776829061,-0.004422013495578785,0.008158967742059993,0.9911812395414107
2015-11-05,1,0.0016971802797034396,0.0021568334852281055,-0.006448244333995085,0.009106749494940343,0.9896928451644732
2015-11-09,1,0.0015456896189158186,0.0019579481340015704,-0.014452811102314098,0.006606237033226946,0.988450814456643
2015-11-11,1,0.0015933775320519771,0.001989461628474111,-0.014452811102314098,0.00895329564226557,0.9879470520843504
2015-11-13,1,0.0009133003518510598,0.0012031488950957833,-0.016723109749632228,0.00895329564226557,0.9873429645382283
2015-11-17,1,0.0018375321628257095,0.00225263785599295,-0.016723109749632228,0.00895329564226557,0.986616520386541
2015-11-19,1,0.0016007028902904614,0.0019556252237787264,-0.020704177710635898,0.00994605780725889,0.9845337562391676
2015-11-23,1,0.0017112247068697232,0.0020948408223176234,-0.020704177710635898,0.01079901533013656,0.9836199094182779
2015-11-25,1,0.0016646351825510897,0.0020478111593876993,-0.020704177710635898,0.01199446652694052,0.9830263441371495
2015-11-30,1,0.0007633584246485786,0.0009914420909127842,-0.016723109749632228,0.01199446652694052,0.9845115408195644
2015-12-02,1,0.0011116356901779458,0.0014280222157682762,-0.01179881436822176,0.01033865377211224,0.9856734749793439
2015-12-04,1,0.0008322923423021794,0.0010882582594532227,-0.01179881436822176,0.008827576229192984,0.9853645213812677
2015-12-08,-1,-0.000252210211702048,-0.00011960958561503245,-0.01384136916712442,0.008827576229192984,0.9843297941843259
2015-12-10,1,7.998531730964121e-05,0.0002621400211314451,-0.016393330939356895,0.007346044898937344,0.9845278469633179
2015-12-14,-1,-0.0007154898199469982,-0.0006672639562325556,-0.016393330939356895,0.009650850143138344,0.9838835121710217
2015-12-16,1,0.00024456821811691686,0.0004201353538494239,-0.027839420468325916,0.009084935515255532,0.9832831472311279
2015-12-18,1,0.0003605668388591193,0.0006211587041776673,-0.028018409098682934,0.0063209455197106934,0.984131196212841
2015-12-22,1,0.0010079217157559185,0.0013656611452283237,-0.028018409098682934,0.0063209455197106934,0.983757994060791
2015-12-24,1,0.0008165845189695957,0.0011155776102013087,-0.028018409098682934,0.0063209455197106934,0.9838160355833091
2015-12-29,1,0.0008545305217668117,0.0011581058838451975,-0.028018409098682934,0.007842227142600453,0.9841020834024239
2015-12-31,1,0.0009572278579633341,0.001285047949769854,-0.028018409098682934,0.00883895764050422,0.982322076199244
2016-01-05,1,0.00030533094562384174,0.0005175771562193249,-0.01894981751035018,0.0081752844623754,0.9834039308858427
2016-01-07,-1,-0.001571172435906882,-0.0015425427020594766,-0.01376883806029781,0.01008410747458037,0.9844312037538138
2016-01-11,-1,-0.0014209715076046528,-0.001420494971494576,-0.013064739090449513,0.01008410747458037,0.9844619895399814
2016-01-13,-1,-0.002444454749841432,-0.0022864094880600577,-0.016347416477023924,0.0081752844623754,0.9848864853956788
2016-01-15,-1,-0.004233325978120791,-0.0037994594340592146,-0.013064739090449513,0.013543681738901525,0.9839683496017563
2016-01-20,-1,-0.004904676551544156,-0.0043224301265944315,-0.012289431216239356,0.013543681738901525,0.984537394024656
2016-01-22,-1,-0.003980260042801536,-0.003525406394886398,-0.012289431216239356,0.013543681738901525,0.9840448459614819
2016-01-26,-1,-0.004548149412630055,-0.003990656275498699,-0.012289431216239356,0.011880836601447866,0.9846948565421332
2016-01-28,-1,-0.004007034270440246,-0.0035457089354786146,-0.012289431216239356,0.020154841067108405,0.9836084112991329
2016-02-01,-1,-0.002411082722449111,-0.0021738406371942832,-0.012289431216239356,0.020154841067108405,0.9836827584401376
2016-02-03,-1,-0.003030630457392082,-0.0026754298543397613,-0.011960474616189038,0.020154841067108405,0.9837288514732057
2016-02-05,-1,-0.0030601915939428787,-0.002714893484482262,-0.01174117141636691,0.013045182432626345,0.9850498069671004
2016-02-09,-1,-0.003155111301916291,-0.002810831549681791,-0.01174117141636691,0.013045182432626345,0.9847804824756111
2016-02-11,-1,-0.005015174247352223,-0.004400984363112318,-0.003694369419721076,0.018950560049161954,0.9845620390203764
2016-02-16,-1,-0.0029705235300825014,-0.002591839246541586,-0.004350331226612548,0.010515751273791878,0.9885322611438817
2016-02-18,-1,-0.003517308583815765,-0.003060450753811142,-0.003898162882039959,0.013045182432626345,0.9838733385508766
2016-02-22,-1,-0.0019544989620915243,-0.0016610409870085482,-0.003694369419721076,0.012054315328143547,0.9856518645076167
2016-02-24,-1,-0.00244030687391919,-0.002127533626241791,-0.003898162882039959,0.012054315328143547,0.985686404119068
2016-02-26,-1,-0.001410114334472556,-0.001251783406590496,-0.003898162882039959,0.009084587398092486,0.9871927434026128
2016-03-01,1,0.00038234860362609086,0.0004858022720139569,-0.004220589888702436,0.008194421493034156,0.9884140580173965
2016-03-03,1,0.001030112129809506,0.001270856390391304,-0.004220589888702436,0.007370732004165371,0.9886345605947053
2016-03-07,1,0.0010739216413729157,0.0012918414333486113,-0.004963869932845655,0.006158078187321971,0.9883650800221606
2016-03-09,1,0.00019696074520319146,0.00026534137337310456,-0.004963869932845655,0.006158078187321971,0.9887958959917077
2016-03-11,1,0.0007833958715405237,0.0009514575062314779,-0.004963869932845655,0.006158078187321971,0.989177431709327
2016-03-15,1,0.0007446064167749646,0.0009329616956622467,-0.003329611793705521,0.009449147168488882,0.9885701523536132
2016-03-17,1,0.004303750425598808,0.0050245638296030045,-0.005327302965722178,0.006158078187321971,0.9932364331870037
2016-03-21,1,0.0036126199680838566,0.004197079787109158,-0.005327302965722178,0.006895180218880151,0.9935138141243928
2016-03-23,1,0.0030738125819786124,0.003572387978180703,-0.006055787558687885,0.006895180218880151,0.9933069330704642
2016-03-28,1,0.003230634601801007,0.003756859023981197,-0.006055787558687885,0.006895180218880151,0.9933363142054602
2016-03-30,1,0.0031012446140595926,0.0036327817310888655,-0.004719753215662953,0.007191757756041928,0.9936833277645655
2016-04-01,1,0.003829095150173759,0.004471794214119802,-0.006150204526450943,0.006969318092806773,0.9928247466574905
2016-04-05,1,0.0032772156922184614,0.003846207906122819,-0.006150204526450943,0.00790117436964127,0.9922211989779675
2016-04-07,1,0.0032822065453115288,0.003861765534268244,-0.006150204526450943,0.00790117436964127,0.9912525297211779
2016-04-11,1,0.0032475476225815514,0.0037889626375298613,-0.006150204526450943,0.007516777257808135,0.9917750358949008
2016-04-13,1,0.004516872092385598,0.005277694912650791,-0.009550340413099736,0.006141792183981358,0.9914665705375894
2016-04-15,1,0.004275709915697193,0.005005138532349823,-0.011033661247686231,0.006141792183981358,0.9908601249329031
2016-04-19,1,0.004627824666166098,0.0053994048348789585,-0.011033661247686231,0.004712646437033998,0.9906557218952482
2016-04-21,1,0.004021880127648319,0.004704480479418146,-0.010411507771024776,0.005096262941147964,0.9918471694143652
2016-04-25,1,0.003788878579271602,0.004401848803030701,-0.010411507771024776,0.005424720571579918,0.9916950768830068
2016-04-27,1,0.003996328142137406,0.004631707650498177,-0.010411507771024776,0.005424720571579918,0.9912113413660564
2016-04-29,1,0.0035121833013169994,0.004073541182342198,-0.006270580138015401,0.006073631938284947,0.9918478479099526
2016-05-03,1,0.0026946969750414594,0.0030655595280762948,-0.0030353053477048743,0.005424720571579918,0.9931723451385924
2016-05-05,1,0.0019407287321835279,0.0022210595144169297,-0.0030353053477048743,0.005424720571579918,0.9942177048482322
2016-05-09,1,0.0019270021064618174,0.002166334549180836,-0.0037663579861037543,0.005424720571579918,0.9939448604231154
2016-05-11,1,0.001962261127045112,0.002256262261067084,-0.0034891889390968192,0.005096262941147964,0.9944234777395997
2016-05-13,1,0.001343937405137489,0.0015169718807931374,-0.002890697727721607,0.005096262941147964,0.9944739670414745
2016-05-17,1,0.0016821792274931745,0.0019263755657956444,-0.0034891889390968192,0.0035403747052383007,0.9942423721263274
2016-05-19,1,0.001768735325797826,0.0020239945580911665,-0.0034891889390968192,0.003917149226642102,0.9939812243292461
2016-05-23,1,0.0021724076706345664,0.0024764208972543333,-0.0034891889390968192,0.003917149226642102,0.9937503039659116
2016-05-25,1,0.0025880736702682144,0.0029381083907859453,-0.003973143352253939,0.003917149226642102,0.9916864332504233
2016-05-27,1,0.0021020235830915795,0.0023421144065599994,-0.004665566435760741,0.0025207118399335105,0.9884689199849803
2016-06-01,1,0.001085961028335069,0.001087776109142598,-0.004665566435760741,0.00900169712997461,0.9877737718137085
2016-06-03,1,0.0005978562862907655,0.0006746309448930731,-0.003973143352253939,0.010957159770397016,0.9871732393398107
2016-06-07,1,0.0002683906451571071,0.00040606209469251685,-0.006262524382437409,0.010957159770397016,0.9870679939364068
2016-06-09,-1,-0.00047047601099866644,-0.00021044051053129692,-0.006262524382437409,0.013503931041822886,0.9858880392660455
2016-06-13,-1,-0.0017779054769067437,-0.0013270164177829748,-0.004361812038827108,0.013599843794959862,0.9855041727565008
2016-06-15,-1,-0.0016999535438116694,-0.001285987265357254,-0.0035541621610203104,0.013599843794959862,0.9850535749101744
2016-06-17,-1,-0.0014261811604284076,-0.001031147697822292,-0.004957343138625823,0.013503931041822886,0.9857425845655299
2016-06-21,-1,-0.0013296108115192734,-0.0009411018684367879,-0.005905548372758206,0.010957159770397016,0.9861402172679615
2016-06-23,-1,-0.0017655648734789062,-0.0013762911428733034,-0.005905548372758206,0.013503931041822886,0.9874217721755346
2016-06-27,-1,-0.0040018348210101445,-0.003348010237756059,-0.0037020560779712193,0.013503931041822886,0.9896395741305206
2016-06-29,-1,-0.003421315955843181,-0.0028191120982877602,-0.003922810653487374,0.008473556844863388,0.9912569072082416
2016-07-01,-1,-0.003082465752814608,-0.0025083984917843353,-0.003922810653487374,0.006947585775139178,0.992440491497397
2016-07-06,-1,-0.0042897428416147155,-0.0035117170246600883,-0.0034324735228778076,0.007676527555401283,0.9912105017589645
2016-07-08,-1,-0.0022161634138671994,-0.0017757167835195289,-0.003969597437550333,0.007030787622739678,0.9925312126019044
2016-07-12,-1,-0.0019188614718909992,-0.0014905947099755688,-0.003969597437550333,0.0053200312641041225,0.9933547833600601
2016-07-14,-1,-0.0012271599095680218,-0.0009506915859309584,-0.003969597437550333,0.005367890046372643,0.993473167030218
2016-07-18,-1,-0.0014551283693086114,-0.001116723653086351,-0.0034324735228778076,0.005809465754504412,0.9934407936233729
2016-07-20,-1,-0.0017865447276448354,-0.0014110284749777504,-0.0021515924441999406,0.005809465754504412,0.9936392303812198
2016-07-22,-1,-0.0013376014262696952,-0.00104730833136584,-0.0016968060157748438,0.005809465754504412,0.994184395607005
2016-07-26,-1,-0.0010515735606729042,-0.0008132371328228154,-0.0016968060157748438,0.004996453877876539,0.9943717288505523
2016-07-28,-1,-0.001017259020059526,-0.0007906901205009443,-0.0018457106870449253,0.004996453877876539,0.99391756254424
2016-08-01,-1,-0.0013883931042138007,-0.0010908188908296296,-0.0024774981423762808,0.004996453877876539,0.9938586348799271
2016-08-03,-1,-0.0013973124775291117,-0.0011153567881226861,-0.0018457106870449253,0.00454667494136556,0.9949783631501895
2016-08-05,-1,-0.0012563006439262345,-0.0009770851674387045,-0.0016968060157748438,0.004340126277475471,0.9959199397206848
2016-08-09,1,0.0005116836036037512,0.0005740727910750741,-0.0018457106870449253,0.004203258226176489,0.9961846434204124
2016-08-11,1,0.0009789769133937362,0.0011329901297184649,-0.0024774981423762808,0.0027258751318185322,0.9951431191520024
2016-08-15,1,0.0009185525012153147,0.0010462286284894347,-0.0036249753418302355,0.0027258751318185322,0.9938698663596148
2016-08-17,1,0.0008642467448588124,0.0009795263669582963,-0.004088218337019857,0.003958668171929644,0.9935811810297869
2016-08-19,1,0.0011031919411649944,0.0012430436753370468,-0.004694448417804698,0.0026556383668698436,0.9929958288135033
2016-08-23,1,0.0012992345576674507,0.0014843628933446733,-0.004394328548475567,0.003992547931330422,0.9896941212534648
2016-08-25,1,0.0005742922447555996,0.0006459942001728611,-0.0036249753418302355,0.004228918054021619,0.9904329334951263
2016-08-29,1,0.00046118124887833533,0.0005112199554975573,-0.00208685583125579,0.006240561188821479,0.9898912945088348
2016-08-31,1,0.0005564611240250824,0.0006347013903744681,-0.004394328548475567,0.006240561188821479,0.9893844891380392
2016-09-02,1,0.0009547300804253866,0.001122610124247904,-0.004394328548475567,0.006240561188821479,0.9893983485814025
2016-09-07,1,0.0008071242336838272,0.0009437692060412813,-0.004415229771589367,0.006240561188821479,0.9893046891832366
2016-09-09,1,0.00036809354048219096,0.00046758526058446613,-0.004415229771589367,0.006240561188821479,0.9902993914434912
2016-09-13,1,0.0001137065910704536,0.00015689746235060412,-0.002888444288611054,0.005819678448540125,0.9915318454417569
2016-09-15,1,9.520989575393154e-05,0.0001369866042954204,-0.003330565003794881,0.005819678448540125,0.9911020540207625
2016-09-19,1,0.00044966795873187975,0.0005562535153998808,-0.002659950397188721,0.00451457932441912,0.9920700510907647
2016-09-21,1,0.002078061811556065,0.0023784726850090933,-0.002659950397188721,0.001082056174609479,0.9949028401726838
2016-09-23,1,0.002149847894227545,0.0024564057069225084,-0.003330565003794881,0.0008682060814595506,0.9947667025439373
2016-09-27,1,0.0020602062753943768,0.002313952551986091,-0.003330565003794881,-0.0003027777244178569,0.9948054867040272
2016-09-29,1,0.0018801075599577778,0.002124198247375645,-0.002659950397188721,0.003160226103707536,0.995234704805488
2016-10-03,1,0.0016381702630775075,0.0018392166487705296,-0.002005452636453347,0.003160226103707536,0.9955297957045074
2016-10-05,1,0.001267689605538747,0.001386181464586435,-0.002005452636453347,0.0033763203679644557,0.9950058597271214
2016-10-07,1,0.0011037216440015047,0.0012061349546649476,-0.0010637838722307414,0.005372220132081804,0.9949647407691818
2016-10-11,1,0.0012191412299816422,0.0013375355253193813,-0.0010637838722307414,0.006758385382134564,0.9936259337929298
2016-10-13,1,0.0009642358086980941,0.0010729883329843714,-0.0008291184451399229,0.0072162197645245785,0.9939456616676283
2016-10-17,1,0.0010701209832453041,0.0012104308647657223,-0.0007941303136293327,0.007939313532856996,0.9934740703345799
2016-10-19,1,0.0009989782313507333,0.0011306894680896816,-0.0008629777773674069,0.007939313532856996,0.9929502482200141
2016-10-21,1,0.0009572944169551909,0.0010843495017430825,-0.0007941303136293327,0.010002799755959826,0.9924808963670412
2016-10-25,1,0.0011075368433426309,0.0012454261904592833,-0.0004720397736450678,0.007939313532856996,0.9928595786672232
2016-10-27,1,0.001487294989309156,0.001682286879514955,-0.0004720397736450678,0.008273894175750255,0.9927742548118127
2016-10-31,1,0.0013662950340576597,0.0015371850794588685,-0.0004720397736450678,0.008273894175750255,0.9924362241844079
2016-11-02,1,0.0007680165295262129,0.0008259690422770128,0.0003972558642693883,0.008273894175750255,0.9928153316742905
2016-11-04,1,0.0009694100904404688,0.001044494773693708,0.0003972558642693883,0.009324661692628777,0.9930041136074627
2016-11-08,1,0.0019146611226845247,0.002135035326964474,-0.0004720397736450678,0.009324661692628777,0.9939502423906962
2016-11-10,1,0.0022874713368320103,0.002568247037915765,-0.0008752374339196414,0.0077666439008267875,0.994496782571755
2016-11-14,1,0.002101782078968143,0.002299597195128738,-0.0008752374339196414,0.0077666439008267875,0.994148344400389
2016-11-16,1,0.0006321602901914044,0.000749648878592471,-9.300035570054798e-05,0.0077666439008267875,0.9934371714608845
2016-11-18,1,0.0014738127281848407,0.0014869945508169228,-0.0008752374339196414,0.007174048121921403,0.9938399995381425
2016-11-22,1,0.0017391200537673155,0.00181936777440768,-0.0032925627880443687,0.007174048121921403,0.9922600855778573
2016-11-25,1,0.0017651885616230632,0.001821433120675002,-0.00611211769248164,0.005701149979342648,0.992408974272824
2016-11-29,1,0.0018136958709235455,0.0019219304529739288,-0.006508640537555347,0.005701149979342648,0.9918748537843057
2016-12-01,1,0.002217960527812274,0.0024103943974044355,-0.006939831779962779,0.005384294659298169,0.9914003067944515
2016-12-05,1,0.002516293719309075,0.00275662390634116,-0.006939831779962779,0.005452608147700464,0.9913221297681897
2016-12-07,1,0.0025595164529820975,0.002803461940191824,-0.006939831779962779,0.005452608147700464,0.9918682158105937
2016-12-09,1,0.002064138326463977,0.0022293140455022452,-0.006939831779962779,0.005452608147700464,0.9914477235254778
2016-12-13,1,0.002794590246293228,0.0030703205156034905,-0.007446677286365083,0.005156344985166752,0.9914563316656452
2016-12-15,1,0.0019271993688048691,0.0020791774451054466,-0.006939831779962779,0.005156344985166752,0.9920810952406985
2016-12-19,1,0.0019304102164694947,0.0020828883942969026,-0.006728338101038631,0.005156344985166752,0.9921331636725652
2016-12-21,1,0.0009188220116644872,0.0009219803310568285,-0.0064754590400031425,0.004534380635057763,0.9940268943399745
2016-12-23,1,0.0008306214622502084,0.0008446783533027054,-0.0059198938727997585,0.005621319747230621,0.9927328805439741
2016-12-28,1,0.0005411808405512304,0.0005711339864794807,-0.0042921683843519624,0.0065050944117537104,0.992809606899083
2016-12-30,1,0.0001301943268396173,0.0002105094759118828,-0.005265395578525433,0.0065050944117537104,0.9917743804905439
2017-01-04,1,0.0006118794770454953,0.0006263144310461722,-0.0072493209932197765,0.00484959930289096,0.991015216009647
2017-01-06,1,0.0008253794354411803,0.0008328247192793114,-0.0072493209932197765,0.00484959930289096,0.9905273491744084
2017-01-10,1,0.00018645796638347612,0.0002571161845034834,-0.006474058262533108,0.00484959930289096,0.9912038489408883
2017-01-12,1,0.00037867257728529453,0.00040507266279743816,-0.005265395578525433,0.0065050944117537104,0.9910978805408246
2017-01-17,1,4.291786190089146e-05,0.00012269670370443415,-0.003187951547837248,0.007484885079931445,0.9911052783088509
2017-01-19,-1,-0.0004506023224665908,-0.00028792884563450644,-0.00346774958582694,0.009590326582306668,0.9908952236537847
2017-01-23,-1,-0.0005883199064597592,-0.00040495710357985396,-0.00313334374574614,0.009590326582306668,0.9904825677844634
2017-01-25,1,0.0004986355963776021,0.0005541695284133884,-0.008101720334665228,0.008667349898914163,0.9912923660600698
2017-01-27,1,0.000897466935288559,0.0009155963361597306,-0.008101720334665228,0.008667349898914163,0.9914182260488695
2017-01-31,-1,-0.00017860188908930177,-3.7880262078775684e-05,-0.006873325435381401,0.009243421430451508,0.9918052814911422
2017-02-02,-1,-0.0016214281176433077,-0.0012733192485209549,-0.003081846204952107,0.009243421430451508,0.9919182225147044
2017-02-06,-1,-0.0012430053406386511,-0.0009402676539578556,-0.0057167954452870574,0.008667349898914163,0.9928646901664604
2017-02-08,-1,-0.0012953744538249123,-0.0009843691225600788,-0.006873325435381401,0.008667349898914163,0.9924998799339729
2017-02-10,-1,-0.0007513094435477734,-0.000509924591162536,-0.006873325435381401,0.007036055762263358,0.992807482853905
2017-02-14,1,0.00039964633380806135,0.00041656430315736284,-0.007321402063139274,0.007036055762263358,0.99220484230206
2017-02-16,1,0.0003718213670665442,0.0004014963547516622,-0.007321402063139274,0.006809563501918438,0.9926972839997624
2017-02-21,1,0.0008827888850550859,0.0009454554964211882,-0.007960124643988393,0.00541729702998468,0.9922934536990238
2017-02-23,-1,-0.00015245561116514135,-6.120413963918507e-05,-0.0074498376483806365,0.006809563501918438,0.9909085383215742
2017-02-27,1,0.0003590020702105044,0.0004038169663960684,-0.0074498376483806365,0.004555106704714726,0.9909825417473928
2017-03-01,1,0.0006379064996312233,0.0006587355983692842,-0.006392127541163937,0.005142156126382787,0.9913982147388817
2017-03-03,-1,-0.00018191810407152884,-5.616065291189965e-05,-0.005677053079460236,0.005984140791112758,0.991320404726897
2017-03-07,-1,-0.00039031363568381043,-0.00024295225264531472,-0.005677053079460236,0.005984140791112758,0.9913491488915986
2017-03-09,-1,-0.0009398765994255335,-0.0006989106373449604,-0.0030912918419587565,0.005984140791112758,0.9915587206934052
2017-03-13,-1,-0.0008159992059255893,-0.0005800845355300263,-0.0030912918419587565,0.005984140791112758,0.9920141530414779
2017-03-15,-1,-0.0009274040590609723,-0.0006731535406193035,-0.005677053079460236,0.005141372909502553,0.990619145846935
2017-03-17,-1,-0.0008450606236180728,-0.000587422703056877,-0.007286385484816046,0.005141372909502553,0.9898764249520466
2017-03-21,-1,-0.0015184118260865244,-0.0011836601375755024,-0.006906277325194899,0.005141372909502553,0.9899794998093996
2017-03-23,-1,-0.0017682347978558509,-0.001416772408601311,-0.005914517245578646,0.005141372909502553,0.9915976256282748
2017-03-27,-1,-0.0022464300410547063,-0.0018371500826545174,-0.0032136725039123275,0.006530989742006782,0.990694069834987
2017-03-29,-1,-0.001861666726393475,-0.0014760121854525284,-0.0032136725039123275,0.006248176108734381,0.9911440059735186
2017-03-31,-1,-0.0009357111381866466,-0.0006776887883060958,-0.008412320671721924,0.0035855430884123387,0.9917034215005757
2017-04-04,0,-8.644381722665257e-05,1.7057392628036267e-05,-0.008412320671721924,0.004364662925422619,0.9915188177339367
2017-04-06,1,3.409414587583542e-05,0.00010574492254854215,-0.008412320671721924,0.006496788498382061,0.9910044927556253
2017-04-10,1,0.00021637523214562297,0.00024492269816955235,-0.008412320671721924,0.006496788498382061,0.9906720970737773
2017-04-12,-1,-0.0018624858866553942,-0.0015679974331084252,-0.006528245535728265,0.006496788498382061,0.992328097654633
2017-04-17,-1,-0.0016061995436584488,-0.0013740455933326538,-0.005696985889934311,0.006496788498382061,0.9923592510997189
2017-04-19,-1,-0.0018934472695432978,-0.0016353720383071838,-0.005696985889934311,0.006496788498382061,0.9911123308811722
2017-04-21,-1,-0.0011537179973133743,-0.0010141204938823433,-0.0037502812885210905,0.006478434775016278,0.9916989650695334
2017-04-25,-1,-0.0005517307783469381,-0.00047159418849556197,-0.0037502812885210905,0.00663198750674179,0.9918634375544376
2017-04-27,1,0.0001699220975433494,0.00019405458467384974,-0.0037502812885210905,0.00663198750674179,0.9923079663114783
2017-05-01,-1,-0.00020392525040901675,-0.00020301524255663975,-0.0021728857707323016,0.00663198750674179,0.9928458487154795
2017-05-03,1,0.00028883000795034927,0.000374132216274718,-0.0021728857707323016,0.0068545817163614,0.9922958049830473
2017-05-05,1,0.0007494646542090103,0.0008979462473631588,-0.0029133046040215062,0.007509908770100324,0.991604408023698
2017-05-09,1,0.0008955780753744904,0.0011093735574019058,-0.0021728857707323016,0.008986048359321942,0.9913161062641417
2017-05-11,1,0.0006717147053236273,0.0008265489726598728,-0.0016168326742339511,0.008986048359321942,0.9915562507061776
2017-05-15,1,0.0013356181348239517,0.0015761309945411116,-0.0016168326742339511,0.008986048359321942,0.9920633373804952
2017-05-17,-1,-0.00041770552564087554,-0.00037772836697234176,-0.0005307048386382387,0.008986048359321942,0.9927456396158145
2017-05-19,-1,-4.7437314515826665e-05,-4.615434851553067e-05,-0.0005307048386382387,0.008986048359321942,0.9932640691972244
2017-05-23,1,0.0002816303772151153,0.0002878387824181867,-0.0016168326742339511,0.009270644651113071,0.9930630217176274
2017-05-25,1,0.0003127780567076586,0.0003272409859883972,-0.0020878331329920808,0.013550600386749156,0.9924672951013335
2017-05-30,1,0.00037187537320287954,0.0003895282338096389,-0.0017485779107544082,0.013550600386749156,0.9924770328730449
2017-06-01,1,0.001277545285338715,0.001430893915287785,-0.0026512773258791276,0.01316250799131094,0.992717761795924
2017-06-05,1,0.0017034644249772695,0.0018898471063482688,-0.0017485779107544082,0.01060708543914761,0.9936636567051111
2017-06-07,1,0.002180055532166081,0.0024141943313001706,-0.0026512773258791276,0.008004132861929927,0.9934368481159702
2017-06-09,1,0.0019508769847145088,0.002136340565881767,-0.0026512773258791276,0.01060708543914761,0.9929476041116806
2017-06-13,1,0.0023329862515133774,0.002565610295633662,-0.003562598024009715,0.008004132861929927,0.9930001058646789
2017-06-15,1,0.0022968932438181136,0.002511620916095138,-0.003562598024009715,0.006189761676059887,0.993162750178287
2017-06-19,1,0.00286993452577056,0.003239761601027691,-0.0067679578194881195,0.006189761676059887,0.9911763241040066
2017-06-21,1,0.0032877123561849816,0.003740005486097566,-0.005106181580323136,0.005930198888167022,0.9917169548421426
2017-06-23,1,0.0030568281644656903,0.0034038182849408394,-0.005106181580323136,0.0044588093435125944,0.992604293973456
2017-06-27,1,0.0023220329507533887,0.0025179617159787767,-0.005042280285336869,0.0057370590097954605,0.9926363843196271
2017-06-29,1,0.002651641985636279,0.00292443805724994,-0.005042280285336869,0.0044588093435125944,0.9921589110760776
2017-07-03,1,0.002808435892007124,0.0030933921475690875,-0.006143806402726396,0.0037587562650063687,0.9919811719548045
2017-07-06,1,0.0025775171150579255,0.002857109111068389,-0.005042280285336869,0.0039393769302062,0.9923085992801643
2017-07-10,1,0.0031813836340014844,0.0035522535611906807,-0.005042280285336869,0.0031264021215249484,0.992241583487034
2017-07-12,1,0.0030591521426575783,0.0034183083002139025,-0.00510941167218191,0.0025502136896871875,0.9919178315299475
2017-07-14,1,0.0032497657321641535,0.003649794149199762,-0.006402605309535345,0.0025502136896871875,0.9911856591115263
2017-07-18,1,0.0015340629436624597,0.0016592979106328425,-0.0045782933574952675,0.005987157098067299,0.9931223087345886
2017-07-20,1,0.0018472842800747078,0.002043774944461504,-0.004990222987855137,0.0036853136166978334,0.9926166401289032
2017-07-24,1,0.0022105116965804514,0.0024826025628230954,-0.004990222987855137,0.0037560579332415835,0.9926092283289379
2017-07-26,1,0.0019643307479012503,0.0021682338983564234,-0.006402605309535345,0.0037560579332415835,0.9919687573740313
2017-07-28,1,0.0008682033303435829,0.0009091940733067042,-0.004990222987855137,0.005410882633920157,0.9932180982205989
2017-08-01,1,0.0003857233470046991,0.00042362113666515565,-0.004105681978791332,0.005987157098067299,0.992822186077426
2017-08-03,1,0.0009455141935332471,0.00099056223008466,-0.004105681978791332,0.005987157098067299,0.9929574907248432
2017-08-07,1,0.0007061448386808313,0.0007175383992867024,-0.004614745916867285,0.005987157098067299,0.9926289496134555
2017-08-09,1,0.00037769136134995754,0.000395853827639172,-0.00303138311218254,0.006928196223294631,0.9923739332688352
2017-08-11,-1,-0.00025761039971635357,-0.00013838326379554623,-0.00303138311218254,0.008474166597611216,0.9919531378624569
2017-08-15,1,0.0001315967335702331,0.00023495961005111582,-0.0034615428426552175,0.008474166597611216,0.9922359482373068
2017-08-17,-1,-0.0009451473403320407,-0.0006910931972249597,-0.0023007297921080966,0.008474166597611216,0.9929629442258455
2017-08-21,-1,-0.0003990267688794552,-0.0002443506395946072,-0.0023007297921080966,0.008474166597611216,0.9930248220171667
2017-08-23,1,0.00015264211038334985,0.00020587655327178927,-0.0023007297921080966,0.008474166597611216,0.9929501014405475
2017-08-25,1,0.0003354122122753184,0.00035888473421499004,-0.0027880726511685266,0.008474166597611216,0.9928981007613535
2017-08-29,1,0.0008412118528729039,0.0008752887443867661,-0.0027880726511685266,0.006074511433787348,0.9937120241485318
2017-08-31,1,0.0012352821438552427,0.0013141878787320581,-0.0027880726511685266,0.006479099136723444,0.993279992704539
2017-09-05,0,-0.00016167913288105303,2.3830230469773657e-05,-0.0027880726511685266,0.006479099136723444,0.99265619145561
2017-09-07,-1,-0.00036362806547815443,-0.00013807731948758787,-0.0027880726511685266,0.005481470250117519,0.992904397160244
2017-09-11,-1,-0.0010306973966891608,-0.0006993014406472642,-0.0027880726511685266,0.00454475411903153,0.9938124191029976
2017-09-13,-1,-0.0005149661662662118,-0.00025477455311501737,-0.0025834980777152735,0.00454475411903153,0.9942470719159636
2017-09-15,-1,-0.00025717498309865293,-5.738643309890449e-05,-0.003641047803573775,0.005481470250117519,0.993316637484702
2017-09-19,1,0.00014215418921806311,0.00027260998607808425,-0.004348054108855455,0.005481470250117519,0.9931530322587788
2017-09-21,1,5.211168602915761e-05,0.00023256186673623015,-0.0037200483067460982,0.006292634047358138,0.9937213885774047
2017-09-25,1,0.00013712610006463057,0.0002975858369493566,-0.0037200483067460982,0.006292634047358138,0.9938853542371062
2017-09-27,1,0.0004131881461980273,0.0005216421033542183,-0.0037200483067460982,0.006292634047358138,0.9938876926264069
2017-09-29,1,0.0010243251182517953,0.0010837236553552343,-0.0037200483067460982,0.006560704896077294,0.9941020064407058
2017-10-03,1,0.0003458665873321032,0.0004900740897950755,-0.004348054108855455,0.006560704896077294,0.9939074016701768
2017-10-05,1,0.00038888534675050467,0.0004931257715966081,-0.0037200483067460982,0.006560704896077294,0.994171367030587
2017-10-09,-1,-0.0008493945936694674,-0.0005242968113556722,-0.0049404115622068675,0.006560704896077294,0.9935455199546194
2017-10-11,-1,-0.00045079452819423186,-0.00018625838438726889,-0.0049404115622068675,0.00524442090044394,0.9938060581503839
2017-10-13,-1,-0.0002763776337819235,-6.236701595327518e-05,-0.0049404115622068675,0.0036767717548730327,0.9940697932431922
2017-10-17,-1,-0.0006175490218860747,-0.0003759750449152501,-0.005210856561675585,0.00524442090044394,0.993465972395562
2017-10-19,-1,-0.00020837515509990515,-1.3805904510386926e-06,-0.007143586086359503,0.0036767717548730327,0.9922946353412512
2017-10-23,1,0.00037681839565198585,0.0004739632491359238,-0.008481907877701887,0.00389568119326313,0.9917274127704645
2017-10-25,1,0.0007105369131988371,0.0007369004348782521,-0.008481907877701887,0.00389568119326313,0.9917171481933725
2017-10-27,1,0.0017014269925327875,0.00183795107131655,-0.008481907877701887,0.0025763655997383655,0.9919975969313914
2017-10-31,1,0.000928125722867423,0.0009604795594068733,-0.005210856561675585,0.003451220456109286,0.991649501653291
2017-11-02,1,0.001064077173752916,0.0011393089000100273,-0.005210856561675585,0.004453654825575503,0.9905266484822567
2017-11-06,1,0.00037552361591051525,0.00037975368463643146,-0.004539975616326556,0.008099157987571937,0.989001353965706
2017-11-08,1,0.00029241351797884704,0.00030434416216150814,-0.004539975616326556,0.01299151590596229,0.9884089490470146
2017-11-10,0,-1.168467489160627e-05,2.5678664188409465e-05,-0.004539975616326556,0.01299151590596229,0.9884507564574468
2017-11-14,1,0.0005143148378577763,0.0005696210249751338,-0.0029615997886201224,0.010968999112413797,0.9890147676120278
2017-11-16,1,0.00012206384144092899,0.0001277952021641324,-0.0029615997886201224,0.007504708059986586,0.9898310476709905
2017-11-20,1,9.70021234195416e-05,9.839180261075309e-05,-0.0004279909702267073,0.008441775774584282,0.9900337707200363
2017-11-22,1,0.0003345464513548501,0.0003839699085121334,-0.0029051935033611756,0.010968999112413797,0.9883819073546096
2017-11-27,1,0.00015887542230306047,0.00016423703642157061,-0.0018095967673982484,0.010968999112413797,0.9885484805778043
2017-11-29,1,0.0016156092420472076,0.001847289512990321,-0.0029051935033611756,0.008441775774584282,0.9903338914895138
2017-12-01,1,0.002195419818400771,0.00249180479423571,-0.0020360969414924103,0.008441775774584282,0.9901591099145092
2017-12-05,1,0.0026500898250833398,0.003016443195351463,-0.0008296503914863078,0.010968999112413797,0.9916635077806399
2017-12-07,1,0.002677451363865039,0.002965680239863561,-0.0008296503914863078,0.010358344780266652,0.99173477908068
2017-12-11,1,0.0024335274747809854,0.0026939044180519676,-0.0008296503914863078,0.010358344780266652,0.9920222936046219
