JNU-Tangyin/eata/results/Batch4_SP500/Batch4_SP500-FN.csv
Date,Action,Predicted_Q25,Predicted_Q75,Actual_Q25,Actual_Q75,RL_Reward
2010-12-14,1,0.0,0.006307662150844471,-0.0015029993104844382,0.01625255289237358,0.9890415574615967
2010-12-16,1,0.0073759204395571504,0.007591385918061041,-0.0015029993104844382,0.018026235701387783,0.984763841442962
2010-12-20,1,0.007416461758206747,0.007603122541565399,-0.0037129424187913526,0.018026235701387783,0.9810372328578968
2010-12-22,0,0.0,0.0,-0.005495575248499,0.018026235701387783,0.9793570778950541
2010-12-27,0,0.0,0.0,-0.011283076479259755,0.018882654030993585,0.9769412095692958
2010-12-29,-1,-0.01575867040215568,-0.014460183753233073,-0.011185477860107203,0.018026235701387783,0.9741503620878655
2010-12-31,0,0.0,0.0,-0.011185477860107203,0.018026235701387783,0.976122828734823
2011-01-04,1,0.006631045144495911,0.007045541473803591,-0.009291356582755983,0.023664372088699415,0.973572935413166
2011-01-06,0,0.0,0.0,-0.009291356582755983,0.03609475723484899,0.9689679471811702
2011-01-10,0,0.0,0.0,-0.017354292885266,0.023664372088699415,0.9699989025769881
2011-01-12,1,0.010383577406150571,0.01135157234308343,-0.017354292885266,0.029903551773224794,0.9683419303641838
2011-01-14,1,0.009271925876079477,0.009797432589037175,-0.017354292885266,0.029903551773224794,0.966245937711427
2011-01-19,1,0.002309581832808387,0.002896900629058976,-0.00880704812650395,0.029903551773224794,0.9707611872493487
2011-01-21,1,0.0021607937887860255,0.0025647029036130857,-0.0068171793541182465,0.029903551773224794,0.9718202951855328
2011-01-25,1,0.002080982084367991,0.0025209411250612154,-0.0068171793541182465,0.027874354538974237,0.9690971142022696
2011-01-27,0,0.0,0.0,-0.006483944175190915,0.03339403762388457,0.9675497378623106
2011-01-31,0,0.0,0.0,-0.00662097526490144,0.027874354538974237,0.9711542105236641
2011-02-02,0,0.0,0.0,-0.0072282726232498215,0.027874354538974237,0.9729932741008257
2011-02-04,0,0.0,0.0,-0.014431259420344594,0.02214875383237497,0.9732231451453162
2011-02-08,1,0.006591856294459651,0.006934475103446901,-0.010090071095520244,0.02214875383237497,0.9700798307813768
2011-02-10,1,0.0078499093025031,0.008366109235773994,-0.018534517131636695,0.02169866530961513,0.9678885064746418
2011-02-14,1,0.009739745768942046,0.010479922937134983,-0.018534517131636695,0.0170223409297205,0.9701683794008613
2011-02-16,1,0.008206876813093678,0.008544605570404125,-0.025620603537212676,0.0170223409297205,0.9678587133398732
2011-02-18,1,0.008951726572749525,0.00948699030378225,-0.03982306649702796,0.018411555837347347,0.9650159312518987
2011-02-23,1,0.008529331123111352,0.008935489892982474,-0.025620603537212676,0.018411555837347347,0.9696871132595566
2011-02-25,1,0.010557108932875578,0.011336723587080134,-0.025620603537212676,0.010190691169868461,0.970493208686384
2011-03-01,1,0.008027519525566292,0.008256787022904435,-0.03703115145193853,0.0067594478172335465,0.9699090147441564
2011-03-03,1,0.007373273076347767,0.007433779486407682,-0.03703115145193853,0.01764221204245341,0.9692452498434443
2011-03-07,1,0.004708890711351098,0.004851096362419011,-0.025181134589183314,0.025307104002669605,0.9728448500710697
2011-03-09,1,0.0026970354153257907,0.0028506944444139353,-0.011967784250270144,0.025307104002669605,0.9769791649514394
2011-03-11,1,0.002279361551304331,0.002424826896075316,-0.011627815369380325,0.0255036394196488,0.9773985155140194
2011-03-15,1,0.002285970073217364,0.0025607233266924977,-0.025181134589183314,0.023371876637871842,0.9747759121031209
2011-03-17,-1,-0.0024475107407488607,-0.0014770573159044787,-0.011627815369380325,0.023371876637871842,0.9770322434896244
2011-03-21,-1,-0.005143923083139201,-0.0037616641559580326,-0.009143174848857908,0.02021564169851872,0.9796723780381025
2011-03-23,0,0.0,0.0,-0.009143174848857908,0.023371876637871842,0.9776563490928718
2011-03-25,-1,-0.006394937323317234,-0.006338480676540595,-0.009143174848857908,0.024546658874782773,0.9747910829431189
2011-03-29,-1,-0.00978370850342137,-0.008162728040323192,-0.008229928649283307,0.025536966469924236,0.9729223963961151
2011-03-31,-1,-0.007875370638369636,-0.005904015517522848,-0.008229928649283307,0.024546658874782773,0.9775080088229292
2011-04-04,0,0.0,0.0,-0.008229928649283307,0.016803565914056746,0.9811622454943845
2011-04-06,0,0.0,0.0,-0.008229928649283307,0.017149937793986096,0.980575749718989
2011-04-08,0,0.0,0.0,-0.007206067052781292,0.017149937793986096,0.9801694284367302
2011-04-12,-1,-0.007039690918639981,-0.005658747585936787,-0.0030459398470836126,0.020019701564941067,0.9787893379331689
2011-04-14,-1,-0.007930913336026957,-0.006430600548998537,-0.007206067052781292,0.02164635141727708,0.9766250049039175
2011-04-18,-1,-0.011593653066137296,-0.010224529454330403,-0.007206067052781292,0.02164635141727708,0.9726651563251963
2011-04-20,0,0.0,0.0,-0.0030459398470836126,0.02164635141727708,0.9776209655308665
2011-04-25,-1,-0.0051785592518713034,-0.0037294049102749114,-0.00484611053836085,0.020019701564941067,0.9780240993492276
2011-04-27,-1,-0.004848270951491604,-0.0033006575997880493,-0.020035912311207067,0.0162478169485362,0.9786954359419007
2011-04-29,-1,-0.002963126578022882,-0.0017459478125401934,-0.020035912311207067,0.020019701564941067,0.9774512541890283
2011-05-03,-1,-0.002862939987557959,-0.0017406096593094566,-0.024636181616750623,0.020019701564941067,0.9752487781382294
2011-05-05,0,0.0,0.0,-0.024636181616750623,0.013988570213353445,0.9753945131557228
2011-05-09,0,0.0,0.0,-0.03121048377006467,0.005018257858862648,0.9760265744500339
2011-05-11,0,0.0,0.0,-0.03121048377006467,0.00255605792850507,0.9773283250265482
2011-05-13,0,0.0,0.0,-0.025483872041717103,0.00255605792850507,0.9801321017135187
2011-05-17,0,0.0,0.0,-0.025198865283087027,0.0031336951362254564,0.9782784552858493
2011-05-19,0,0.0,0.0,-0.03616183755558377,0.001262261716662473,0.9766488544181235
2011-05-23,0,0.0,0.0,-0.03616183755558377,0.0031336951362254564,0.9732847523245811
2011-05-25,-1,-0.002834603313094301,-0.001978602604161592,-0.025198865283087027,0.009781614604342913,0.9751646642112624
2011-05-27,-1,-0.0006945286837425652,-9.643215340345273e-05,-0.025198865283087027,0.028041184792710887,0.9715820066915979
2011-06-01,-1,-0.0032877939668011624,-0.0023775684057129893,-0.016505264965686158,0.03518847783005298,0.9711005567515237
2011-06-03,-1,-0.0028543777308191894,-0.0021488258309367153,-0.017277396967956243,0.03518847783005298,0.9711996005983935
2011-06-07,-1,-0.005154582831994356,-0.004242599847844313,-0.014184331511037146,0.03518847783005298,0.9725482147792542
2011-06-09,-1,-0.005408058753415041,-0.00459890789004185,-0.009135913597576909,0.03518847783005298,0.9741488183702316
2011-06-13,-1,-0.007861402437824247,-0.006503311848763695,-0.017277396967956243,0.03518847783005298,0.9678375654718371
2011-06-15,-1,-0.007871567289654928,-0.00641108717828845,-0.02536590420050257,0.027947841723494377,0.9689730979411224
2011-06-17,-1,-0.01098875925531,-0.009183142401865917,-0.016855537267144654,0.027947841723494377,0.9701953187935
2011-06-21,-1,-0.008023175305653085,-0.006514629927913715,-0.02294436899469575,0.008427956975959598,0.9741264785314483
2011-06-23,-1,-0.004733272313213229,-0.003813581959758322,-0.02294436899469575,0.008427956975959598,0.9742488158074923
2011-06-27,1,0.0035117206175404704,0.0037754708093085034,-0.027508367160359672,0.0008249107595967651,0.9749318061548278
2011-06-29,1,0.00716001866471749,0.008098506861158209,-0.0366963209597134,-0.001453282290305575,0.9697616299045321
2011-07-01,1,0.004905686737426604,0.0053924950389239315,-0.038604608715110206,-0.001453282290305575,0.9698577224759047
2011-07-06,1,0.0046719489567957255,0.005195223007416339,-0.038604608715110206,-0.0011085982349218263,0.9673940771399108
2011-07-08,1,0.006362533710987609,0.007373731257605489,-0.03920590051101209,-0.0014098160028422867,0.9639222277572073
2011-07-12,1,0.0019794243666753633,0.002386618831246538,-0.038604608715110206,-0.0003628080357448532,0.9648769424826844
2011-07-14,1,0.000239942597588777,0.0004361863918437457,-0.038604608715110206,-0.0003628080357448532,0.9673339655049433
2011-07-18,-1,-0.0026620720266027206,-0.002282225928960671,-0.038604608715110206,0.004231324237055686,0.9667146190727823
2011-07-20,-1,-0.0024624156131600483,-0.0022035543239698895,-0.03920590051101209,0.019505862951947818,0.9590181926442359
2011-07-22,-1,-0.0006928722784999735,-0.000688904736424001,-0.04437368808151231,0.003327670933294305,0.954657286133764
2011-07-26,-1,-0.003151260486160885,-0.0028852629016260746,-0.04437368808151231,0.03494360726156287,0.9525998070454299
2011-07-28,-1,-0.008883566055117899,-0.007762751714545183,-0.044936862375551646,0.0358633552440965,0.9529987168482198
2011-08-01,-1,-0.012132198005429286,-0.01036142700414128,-0.044936862375551646,0.04064557635797274,0.9512021158094632
2011-08-03,-1,-0.012459221305001017,-0.010602161704720135,-0.044936862375551646,0.0358633552440965,0.9538376793648513
2011-08-05,-1,-0.012777901078692495,-0.0109802774172377,-0.04437368808151231,0.0358633552440965,0.9553247450697491
2011-08-09,-1,-0.0114478086181896,-0.009676532393082755,-0.03140734614377056,0.0342260148669285,0.9612851354277526
2011-08-11,-1,-0.013902659557231738,-0.011849424480444008,-0.031113130665946877,0.0342260148669285,0.9608922525692888
2011-08-15,-1,-0.011803516031720286,-0.009965227556538694,-0.031113130665946877,0.0358633552440965,0.9612933392056275
2011-08-17,-1,-0.011085786131018212,-0.009329467128513574,-0.02334907724637799,0.0358633552440965,0.9637407755115226
2011-08-19,-1,-0.015277185726937016,-0.012949400818154579,-0.02032637301459265,0.0358633552440965,0.9667793852281317
2011-08-23,-1,-0.00657894705644773,-0.005490289395943237,-0.02032637301459265,0.03327788555604999,0.9723576535142561
2011-08-25,-1,-0.0051411672733171565,-0.004346858881918529,-0.019787114293721146,0.029781331928869528,0.9741536678263192
2011-08-29,-1,-0.000476167539219679,-0.0002612815193266515,-0.019787114293721146,0.029781331928869528,0.9742240792279836
2011-08-31,-1,-0.0022065531135744415,-0.0018441332058814148,-0.013886899017166908,0.029781331928869528,0.9739310681928672
2011-09-02,-1,-0.006014527505240069,-0.0050241430184604155,-0.019882360744370536,0.029781331928869528,0.9694686906617229
2011-09-07,-1,-0.002792143234580286,-0.002221345943752745,-0.019882360744370536,0.031035610379400058,0.9675635072960019
2011-09-09,-1,-0.006226330135111408,-0.005223132878513945,-0.005739602256905127,0.031035610379400058,0.9675243931945513
2011-09-13,-1,-0.0030198445849640224,-0.00247767521447662,-0.013886899017166908,0.029113312435086885,0.9693574384330554
2011-09-15,1,0.0029431830792937255,0.0031976757908150685,-0.028958049341728003,0.027700138763653154,0.9720189309426147
2011-09-19,1,0.0034052914929330958,0.0038391878838458515,-0.039718394263154114,0.027700138763653154,0.9699668718865992
2011-09-21,1,0.005482170852813198,0.006253416226478095,-0.04112649694531299,0.021190570268999738,0.9670325033653944
2011-09-23,1,0.005819353108036378,0.006621042170166697,-0.04112649694531299,0.021190570268999738,0.9679191371839898
2011-09-27,1,0.009793374599998352,0.01119748281351441,-0.04547059295316355,0.00906030546930734,0.9632807522221359
2011-09-29,1,0.009853339656137227,0.011445775615832255,-0.043691138738318334,0.01270390928601509,0.9606349105494051
2011-10-03,1,0.004538647231943539,0.005358233348818485,-0.03499810301310296,0.01270390928601509,0.9650309985008416
2011-10-05,1,0.010176094869693165,0.011751157243295089,-0.03499810301310296,0.00906030546930734,0.9613915228946429
2011-10-07,1,0.009064198290578744,0.010431637081504973,-0.03499810301310296,0.00906030546930734,0.9596874936501798
2011-10-11,1,0.00917603686004247,0.010650406731581843,-0.03499810301310296,0.015114181047561879,0.9581511837764125
2011-10-13,1,0.006129331365127803,0.0071920038631883565,-0.02857725308112966,0.032504263369132896,0.9580563911539297
2011-10-17,1,0.0029539878690328022,0.003444117246287662,-0.025100174415269128,0.032504263369132896,0.9602055222666516
2011-10-19,1,0.0010867229451219634,0.0014904822359303588,-0.024267568575141667,0.032504263369132896,0.9635881218149029
2011-10-21,1,0.0017384426299795776,0.002091367395909732,-0.024267568575141667,0.030604270242746173,0.9639074965533679
2011-10-25,-1,-0.0024308757375994276,-0.0022225584834402855,-0.024267568575141667,0.030604270242746173,0.9681653817197837
2011-10-27,1,0.000685917707977236,0.0007511717547676707,-0.024438832583243517,0.0226311991696641,0.9710942733711496
2011-10-31,-1,-0.002040024281802324,-0.0016982517236309243,-0.02261997588402853,0.028267780512667942,0.9717880702258637
2011-11-02,1,0.0017964465015991124,0.0019406591350459885,-0.015544993020171344,0.028267780512667942,0.9753182048944014
2011-11-04,1,0.003709786462745439,0.004154064187870696,-0.015544993020171344,0.0226311991696641,0.9773681364060893
2011-11-08,1,0.002663137568345728,0.002849461039483782,-0.011463149453003144,0.014380504804369377,0.9797720104680675
2011-11-10,1,0.00424334809182186,0.0048051511719905005,-0.011463149453003144,0.010465190872249336,0.9841699464661934
2011-11-14,1,0.003885260739435588,0.004461747763365282,-0.011463149453003144,0.010465190872249336,0.9848958674357323
2011-11-16,1,0.007872589010672172,0.00927677699955099,-0.011463149453003144,0.0073274363817479905,0.9839945725172419
2011-11-18,1,0.008304272657978201,0.009903274392317314,-0.011701869029974317,0.0073274363817479905,0.9824011632403195
2011-11-22,1,0.00797933178150639,0.00946341987336622,-0.010574754254394704,0.012475385743697318,0.982987568074124
2011-11-25,1,0.006845525731846172,0.008152173522934764,-0.008415908927631667,0.02589711900699367,0.983745043348026
2011-11-29,1,0.007777066345095152,0.009206120198714016,-0.008415908927631667,0.016678704345984702,0.9820786919185992
2011-12-01,1,0.006590383033434362,0.0076712821816898,-0.01331931947520128,0.012475385743697318,0.9819314934204288
2011-12-05,1,0.005011401859254936,0.00569300032742152,-0.015166766500947879,0.016678704345984702,0.9768906931807464
2011-12-07,1,0.004964458750236232,0.005624136168999622,-0.015166766500947879,0.02589711900699367,0.9756896607960708
2011-12-09,1,0.004170136887511957,0.004679636317939785,-0.01331931947520128,0.027914536255799767,0.9747295566575984
2011-12-13,1,0.004179498815448562,0.004761041145109293,-0.00862305502571629,0.027914536255799767,0.9749955656328901
2011-12-15,1,0.0033066933263761434,0.0035999644142253647,-0.00862305502571629,0.027914536255799767,0.975029438871324
2011-12-19,0,-0.000139109384629196,0.00014674090667186478,0.0008265866346622262,0.027914536255799767,0.9750287946642473
2011-12-21,1,0.0004442802627028272,0.0007711343792231489,-0.00291785816900659,0.023992810073850544,0.9776371828478605
2011-12-23,1,0.0038386993534608987,0.003962663256848511,-0.00291785816900659,0.021974639100153216,0.9791943461196427
2011-12-28,0,-0.00010770783070064571,0.00033944321477029967,-0.005134101288662383,0.021974639100153216,0.980078772005465
2011-12-30,-1,-0.00043874463386666426,-3.9321112136716943e-05,-0.00291785816900659,0.021974639100153216,0.9794864132122486
2012-01-04,-1,-0.001349806598287703,-0.0008146206461052308,-0.0024644857837784074,0.02245024932756691,0.9821461558696167
2012-01-06,1,0.0009478968607077863,0.0011289336261686618,-0.002688743897195621,0.02245024932756691,0.9826498784834379
2012-01-10,1,0.002291217809030789,0.002296336380001678,-0.002688743897195621,0.02346710883985806,0.978763055734543
2012-01-12,1,0.0013412241463547849,0.0016663304255618333,-0.012003999600176968,0.02346710883985806,0.9756507457599024
2012-01-17,1,0.003710010565288034,0.00391495268865342,-0.012003999600176968,0.02346710883985806,0.9757329669042415
2012-01-19,1,0.0034598185535397474,0.0035914388432297622,-0.01943428704961785,0.02346710883985806,0.9733393453874792
2012-01-23,1,0.004826283474043782,0.005400450324930381,-0.01943428704961785,0.02346710883985806,0.9741321110005899
2012-01-25,1,0.004965093190012966,0.0054432975647382914,-0.01943428704961785,0.023182696816338312,0.9743693907858023
2012-01-27,1,0.002992580870783552,0.0031301539270649752,-0.01911999832625798,0.023182696816338312,0.9750680788863125
2012-01-31,1,0.0031908792038198137,0.003485194439179669,-0.018683842205104707,0.023182696816338312,0.975093232532475
2012-02-02,1,0.0038063220671185685,0.00403210506107019,-0.01911999832625798,0.014601264098306409,0.9740070207745919
2012-02-06,1,0.004590344270019983,0.0050455106046690835,-0.030927643494845607,0.010554351679623828,0.9705255759489488
2012-02-08,1,0.01161192437298279,0.01325715551716963,-0.030927643494845607,0.010554351679623828,0.9729927146055584
2012-02-10,0,0.0,0.0,-0.019081365011279335,0.01628084678180818,0.9762580724141707
2012-02-14,0,0.0,0.0,-0.019081365011279335,0.024313345425918464,0.9740321361437344
2012-02-16,1,0.003360858714803026,0.004498938839054216,-0.017221792092242134,0.028697852425071294,0.9743826147667766
2012-02-21,1,0.008169165178048676,0.00949004508728567,-0.021631698773586523,0.028697852425071294,0.9722939682946439
2012-02-23,1,0.008391145153948888,0.009667117005881012,-0.021631698773586523,0.02652115811561437,0.972000368717045
2012-02-27,1,0.005924052621436291,0.006628255454866169,-0.021631698773586523,0.03607001614588928,0.9698375597740065
2012-02-29,1,0.006201552783176788,0.007142014900175115,-0.032622164639106714,0.03607001614588928,0.9675788259394486
2012-03-02,1,0.006436008305279012,0.007448643111604867,-0.030681689191238412,0.03237290086706427,0.9704482363663984
2012-03-06,0,0.0,0.0,-0.015568976293622146,0.03237290086706427,0.97414181312689
2012-03-08,0,0.0,0.0,-0.02776195968183287,0.03237290086706427,0.9732117113304853
2012-03-12,1,0.004316460398918282,0.0047640796474754605,-0.02941549182996528,0.009716740902112143,0.9744136474565882
2012-03-14,1,0.003435197011357328,0.0036029349614053545,-0.02941549182996528,0.010941306882855047,0.9768666412728517
2012-03-16,1,0.003929882886669848,0.00421937706567823,-0.029338824049631278,0.006587998495437704,0.9774075996005998
2012-03-20,1,0.0003575299728533262,0.0007059225638116401,-0.027547883290910697,0.010941306882855047,0.9767923549681952
2012-03-22,1,0.0010824581995249583,0.0012552590249361177,-0.027547883290910697,0.011179494687824545,0.9760057099765291
2012-03-26,1,0.002495015559397972,0.002610997726633292,-0.029338824049631278,0.007891960411170441,0.9757810111788099
2012-03-28,1,0.0007848651076868955,0.0009633590506866225,-0.025129325548947555,0.020617020350801346,0.9773350846425395
2012-03-30,1,0.0009315682651587689,0.0010643689611089494,-0.025129325548947555,0.020617020350801346,0.9780157003241897
2012-04-03,1,0.001364718545778181,0.001411515947674777,-0.027547883290910697,0.011468980935747528,0.9768999496737755
2012-04-05,-1,-0.0010185230804939688,-0.0006664615302585316,-0.02803153805056215,0.011468980935747528,0.9773892854154355
2012-04-10,-1,-0.0030846638955986778,-0.0024159634947422616,-0.02803153805056215,0.011468980935747528,0.9750956486771206
2012-04-12,0,0.0,0.0,-0.029268283564532923,0.003372565835799324,0.9727529577461478
2012-04-16,0,0.0,0.0,-0.03013808225039399,0.00824101835874097,0.9730291671133184
2012-04-18,0,0.0,0.0,-0.035326947266063724,0.00824101835874097,0.9694952768372745
2012-04-20,0,0.0,0.0,-0.04408501276589251,0.003483435978400354,0.9659686136745232
2012-04-24,0,0.0,0.0,-0.035326947266063724,0.009878494050047298,0.9644069362913347
2012-04-26,0,0.0,0.0,-0.035326947266063724,3.2260044268686474e-07,0.9660527201464169
2012-04-30,0,0.0,0.0,-0.035326947266063724,0.005435718580752322,0.9655106456511882
2012-05-02,-1,-0.005675679934215394,-0.004758267932476216,-0.03509584925363648,0.008834081170029569,0.9650148652953576
2012-05-04,-1,-0.008081166000561127,-0.006872060375128256,-0.042740760268473114,0.008834081170029569,0.9651627006830958
2012-05-08,-1,-0.012062646032433127,-0.010355561069277949,-0.03509584925363648,0.021935543061761254,0.9624545140699856
2012-05-10,-1,-0.014388112383433606,-0.012395005285418845,-0.02744022600927362,0.029244944575613722,0.9620401278399536
2012-05-14,-1,-0.016302623772674184,-0.013997283128143578,-0.02930583063807004,0.029244944575613722,0.9621153517992613
2012-05-16,-1,-0.01715247476224835,-0.014863565208451415,-0.028098456339925408,0.017185326818018303,0.9664014788831857
2012-05-18,-1,-0.01944885186338554,-0.017017208048154573,-0.02044004133042875,0.030677268738208915,0.9652920640311373
2012-05-22,-1,-0.016484134714934158,-0.014282956247625163,-0.02044004133042875,0.017185326818018303,0.9716064244635921
2012-05-24,-1,-0.018286792312629738,-0.015833469014248813,-0.02302827786626935,0.027474885774040853,0.9685460390790461
2012-05-29,0,0.0,0.0,-0.03546539928144479,0.027474885774040853,0.96846735131677
2012-05-31,0,0.0,0.0,-0.02289568897760188,0.017185326818018303,0.9724810590744922
2012-06-04,0,0.0,0.0,-0.02063618993898358,0.027474885774040853,0.9695859130483631
2012-06-06,0,0.0,0.0,-0.02063618993898358,0.01754592475201287,0.9725058291090694
2012-06-08,0,0.0,0.0,-0.025084874494681764,0.01493448483911496,0.9720613681751867
2012-06-12,0,0.0,0.0,-0.023666458258996496,0.01493448483911496,0.9746344317212261
2012-06-14,-1,-0.00029368298378086924,-4.642941118682478e-05,-0.023666458258996496,0.01493448483911496,0.9741415483799392
2012-06-18,-1,-0.006222888405202223,-0.00563590758824502,-0.023666458258996496,0.005640743779709972,0.9783418594774063
2012-06-20,-1,-0.006711967948159677,-0.006021132925190086,-0.023666458258996496,0.012993762480828076,0.9771226904303172
2012-06-22,-1,-0.006857463168981014,-0.006113688311472199,-0.025084874494681764,0.004993836326947677,0.9785816548526476
2012-06-26,0,0.0,0.0,-0.023666458258996496,0.014133002858380643,0.9769076676356006
2012-06-28,-1,-0.006797196456382319,-0.006248401380175661,-0.023666458258996496,0.03391732389221475,0.9716679946613435
2012-07-02,-1,-0.0007690975436474227,-0.00024398980635667003,-0.020080744700799315,0.02515827195772611,0.9760073455755405
2012-07-05,0,0.0,0.0,-0.023666458258996496,0.015861742183288216,0.9754022517486945
2012-07-09,0,0.0,0.0,-0.018614013574470362,0.015861742183288216,0.9771955575096267
2012-07-11,0,0.0,0.0,-0.027246735828847433,0.015861742183288216,0.9745589998843577
2012-07-13,0,0.0,0.0,-0.020505408228831228,0.015861742183288216,0.9769785295996661
2012-07-17,0,0.0,0.0,-0.027246735828847433,0.015861742183288216,0.9758600136269119
2012-07-19,0,0.0,0.0,-0.027246735828847433,0.02515827195772611,0.9731327497139785
2012-07-23,0,0.0,0.0,-0.006086998815026237,0.0331140233467671,0.9735064246898492
2012-07-25,0,0.0,0.0,-0.01483634380473713,0.025115121256763233,0.9732289045050911
2012-07-27,0,0.0,0.0,-0.030403184849219913,0.013646990298503903,0.9767490871482001
2012-07-31,0,0.0,0.0,-0.030403184849219913,0.008961113136435904,0.9776759679573382
2012-08-02,0,0.0,0.0,-0.016745916736289015,0.008961113136435904,0.9793047763792115
2012-08-06,0,0.0,0.0,-0.016745916736289015,0.012912099858370933,0.9789098837150821
2012-08-08,1,0.0034826965416755113,0.004827987412198733,-0.010614262756418507,0.01685020689459025,0.9798536785109232
2012-08-10,1,0.0022701302328784504,0.0031789856052852256,-0.013811538599059547,0.01685020689459025,0.9783392405218931
2012-08-14,1,0.0007390386460611059,0.0014291688020144485,-0.012445941937977042,0.01685020689459025,0.9805712834731761
2012-08-16,1,0.006971508502485805,0.008648119141048294,-0.012445941937977042,0.008400167175033595,0.9806128888587756
2012-08-20,1,0.006872127421460656,0.00833750895862665,-0.012445941937977042,0.003415386779123587,0.9811967960922263
2012-08-22,1,0.0050688941694845635,0.006298595624779093,-0.013811538599059547,0.003415386779123587,0.9831315756033033
2012-08-24,1,0.003947238293501456,0.005057960602222571,-0.017603825194262467,0.003415386779123587,0.9830544508259335
2012-08-28,1,0.003094150833149329,0.003972573946530184,-0.017603825194262467,0.003834289522465972,0.981754675837449
2012-08-30,1,0.0020413840337058496,0.0027340966275552175,-0.018383583348268097,0.008400167175033595,0.9814418225482802
2012-09-04,1,0.0033748451799041545,0.004321190420656848,-0.018383583348268097,0.00952156837582078,0.9801385055531469
2012-09-06,0,0.0,0.0,-0.02036580435326446,0.0047350973398184795,0.9811658685056952
2012-09-10,1,0.00416880759254603,0.005240033792162015,-0.021710682874066932,0.0067647369418106255,0.9793673214967061
2012-09-12,0,0.0,0.0,-0.025902133068980607,0.0067647369418106255,0.9757265931496306
2012-09-14,0,0.0,0.0,-0.025902133068980607,0.005671383533070069,0.9770861325518514
2012-09-18,1,0.007029710838683042,0.00855453458461038,-0.025902133068980607,0.01090414343239603,0.9752980299195566
2012-09-20,1,0.005911790144595886,0.007297147685716502,-0.029302115074931762,0.01090414343239603,0.9754108384159282
2012-09-24,1,0.002839966722023646,0.0037089538321778146,-0.02728962219407484,0.015182525197474837,0.9764757575867344
2012-09-26,0,0.0,0.0,-0.02728962219407484,0.01090414343239603,0.9776464094375653
2012-09-28,0,0.0,0.0,-0.01639929596176369,0.009498674084698504,0.9796901701743767
2012-10-02,0,0.0,0.0,-0.01639929596176369,0.009803501580096359,0.9791345615485928
2012-10-04,-1,-0.0007180545134616273,-0.0006428944907325091,-0.01639929596176369,0.01159386160798892,0.9774333386116895
2012-10-08,-1,-0.00472725547959834,-0.004036509061991656,-0.013327276972027171,0.015182525197474837,0.9746572650508238
2012-10-10,-1,-0.009844979443143734,-0.008406538793332172,-0.013327276972027171,0.015182525197474837,0.9764093136730765
2012-10-12,0,0.0,0.0,-0.017169100396773395,0.01159386160798892,0.977880209442021
2012-10-16,0,0.0,0.0,-0.019974948467689102,0.009728580143229467,0.9776475742861871
2012-10-18,0,0.0,0.0,-0.019974948467689102,0.011880599640575818,0.9771111747380818
2012-10-22,0,0.0,0.0,-0.016768581055580302,0.013040789328405532,0.9764717613845769
2012-10-24,0,0.0,0.0,-0.016768581055580302,0.021044763767049574,0.9760620003561583
2012-10-26,0,0.0,0.0,-0.019974948467689102,0.021044763767049574,0.9743462677951332
2012-11-01,-1,-0.0025070503655294164,-0.0023431683315093326,-0.019974948467689102,0.015080090384213216,0.9755440477288259
2012-11-05,-1,-0.005171421744999517,-0.004573343702591612,-0.016768581055580302,0.012471752454722502,0.9783688707509671
2012-11-07,-1,-0.004380745260724959,-0.00386254439493131,-0.016561210272120302,0.011194798581667238,0.9832881547812641
2012-11-09,-1,-0.005065862981691628,-0.004530733699313068,-0.013620151066515374,0.011194798581667238,0.9846731349726673
2012-11-13,-1,-0.005524934510294398,-0.00493327283485056,-0.010489371379326358,0.011194798581667238,0.9851803262149625
2012-11-15,-1,-0.006048249682919111,-0.005432186744435128,-0.009315189516686572,0.012471752454722502,0.9846542650134066
2012-11-19,-1,-0.00753295488457763,-0.006631304129595077,-0.008542242594747588,0.013267734962876645,0.9842176302628562
2012-11-21,-1,-0.004121295043862298,-0.003645291712109192,-0.007060854853407924,0.013267734962876645,0.9862185664121249
2012-11-26,0,0.0,0.0,-0.007060854853407924,0.012471752454722502,0.9883501519430306
2012-11-28,0,0.0,0.0,-0.005102718097491646,0.012471752454722502,0.9898569525455736
2012-11-30,0,0.0,0.0,-0.006702068914345499,0.009897961116622743,0.9901234725596721
2012-12-04,-1,-0.0028494759513733527,-0.002727308971240211,-0.005102718097491646,0.01318890109457834,0.9881818462618606
2012-12-06,-1,-0.005106384805965777,-0.004598348894537276,-0.006702068914345499,0.01318890109457834,0.9873786340025233
2012-12-10,-1,-0.006057914002531579,-0.005409137918920122,-0.005165789298993463,0.01318890109457834,0.986390079376966
2012-12-12,-1,-0.0045713552075734255,-0.004196953405993737,-0.005165789298993463,0.01318890109457834,0.9870026283106069
2012-12-14,-1,-0.005458895373165825,-0.004861208453030215,-0.0028744252322639996,0.009897961116622743,0.9870987066854616
2012-12-18,-1,-0.0018529677871621734,-0.0017953051077370646,-0.0028744252322639996,0.007746220129999097,0.9896789894619852
2012-12-20,1,0.0026290804016394467,0.003457145221958354,-0.0028744252322639996,0.004735459356872433,0.9918920223538275
2012-12-24,1,0.0027821570008446242,0.0036532517159850284,-0.0028744252322639996,0.008815958426358766,0.990781737786532
2012-12-27,1,0.001656179998183461,0.0022325214103330526,-0.0017294622330122369,0.012871693206113814,0.9900856275368476
2012-12-31,1,0.0022347918105655546,0.0028937593129604615,-0.0037429091774771567,0.011825178733849442,0.9875183936262274
2013-01-03,1,0.002173252585145706,0.0026907063316575844,-0.009577387441116764,0.011825178733849442,0.9834914708000243
2013-01-07,1,0.0014028817487608198,0.001854248472125047,-0.0017294622330122369,0.01456432256857182,0.9805036393933781
2013-01-09,1,0.00026740267801916005,0.0004833815632401641,-0.0017294622330122369,0.01456432256857182,0.9807997866264649
2013-01-11,1,0.0027200096096793264,0.003471393294743686,-0.0009180412298933936,0.01456432256857182,0.9815402175116332
2013-01-15,1,0.00347260489037267,0.004456686365334568,-0.001727102890022164,0.01456432256857182,0.981467195446211
2013-01-17,1,0.003381123681757673,0.004222254452052673,-0.001727102890022164,0.014557673369770811,0.981304260244854
2013-01-22,1,0.0031699202120696493,0.0038918818351554173,-0.002657718780095304,0.011825178733849442,0.9810388834229821
2013-01-24,1,0.004151103156055561,0.005005299422601217,-0.004053039397296796,0.00807310168020657,0.9815468683333778
2013-01-28,1,0.0044560486160357595,0.005307093288585445,-0.006982626377117698,0.006885549657749696,0.9814125721130476
2013-01-30,1,0.0023276727267717776,0.0029279672893911535,-0.004053039397296796,0.007236373055238757,0.9832856310466783
2013-02-01,1,0.005866886380332763,0.007049009774356631,-0.004053039397296796,0.006885549657749696,0.9870316986027801
2013-02-05,1,0.008807159608820714,0.010276206896018394,-0.004053039397296796,0.003769743926340283,0.9883418493118173
2013-02-07,1,0.008438866313980801,0.009841429143764664,-0.00357987590445351,0.005960307899886202,0.9879769785956033
2013-02-11,1,0.00984402200843977,0.011573402610743189,-0.00861422606885154,0.004840813429363208,0.983742355583077
2013-02-13,1,0.009502417184081888,0.011174507240715243,-0.01590116956255301,0.004840813429363208,0.9804616512897206
2013-02-15,1,0.009896405262320758,0.011547153930948312,-0.018372227406273298,0.0029136551792452777,0.9766461771431361
2013-02-20,1,0.0077824551663409494,0.009023876991413946,-0.01590116956255301,0.0029136551792452777,0.9783874400818824
2013-02-22,1,0.008024174826570564,0.009330942875209212,-0.01590116956255301,0.002869237915318559,0.9784272630211777
2013-02-26,1,0.008090075497639865,0.009394590186033551,-0.01590116956255301,0.002869237915318559,0.978173224191695
2013-02-28,1,0.009132232184920196,0.010637589698087898,-0.01590116956255301,0.004718857904934936,0.9786552575771921
2013-03-04,1,0.007903249279857113,0.009183935574179975,-0.019136931333908994,0.004718857904934936,0.9773136471607021
2013-03-06,1,0.0069905623409619085,0.008019652069795583,-0.025573214059956204,0.0076003874646379775,0.976434511371374
2013-03-08,1,0.006121046610663487,0.006801214530412539,-0.032613661328323454,0.0076003874646379775,0.9754470841309976
2013-03-12,1,0.003971603273284479,0.004369515555214686,-0.02148374709003141,0.01221928670509832,0.9760142152867739
2013-03-14,1,0.0014019467309709668,0.001473987296939799,-0.020838788828440206,0.01221928670509832,0.9779536546230846
2013-03-18,-1,-0.0003982954966510355,-0.0001641030262693699,-0.020838788828440206,0.0076003874646379775,0.9810972255130086
2013-03-20,-1,-0.0020110684847476088,-0.0015341830294206395,-0.022544785877952948,0.0076003874646379775,0.9803362411488298
2013-03-22,-1,-0.0021755399755053802,-0.001668093224003726,-0.022544785877952948,0.0076003874646379775,0.9802181558923738
2013-03-26,-1,-0.0020806368106304485,-0.0015909237184481833,-0.022544785877952948,0.0076003874646379775,0.9790000741261393
2013-03-28,1,0.0004308160224588321,0.0005243560799527619,-0.022544785877952948,0.006473138632401423,0.9790801864178627
2013-04-02,-1,-0.002780774188019028,-0.0022535950628264616,-0.02048336541922833,0.010522466234116554,0.9798950051439597
2013-04-04,-1,-0.0029571186556684955,-0.002477779066439741,-0.02048336541922833,0.015301859838426992,0.9780655005118064
2013-04-08,-1,-0.0037712819759856673,-0.003048197792159465,-0.019150198801585035,0.0143656849186978,0.9793448006158862
2013-04-10,-1,-0.001309359386810306,-0.0008414242477200492,-0.019150198801585035,0.0143656849186978,0.9815144352592243
2013-04-12,-1,-0.003913794126745767,-0.0030925895333080615,-0.014657209014071665,0.0143656849186978,0.9829049739842972
2013-04-16,-1,-0.005119043387946982,-0.004128542798306923,-0.014657209014071665,0.0143656849186978,0.98280497485852
2013-04-18,-1,-0.006783892424860686,-0.005804921405648256,-0.010184488599951426,0.02085109491460043,0.9809323225044354
2013-04-22,-1,-0.0047940495245871635,-0.0039994997128559,-0.010184488599951426,0.02085109491460043,0.9811983883289148
2013-04-24,-1,-0.003616265828563191,-0.0029189972578003254,-0.010184488599951426,0.01731986570094369,0.9836323427209607
2013-04-26,-1,-0.003949145386494136,-0.003333265863053407,-0.010184488599951426,0.01935009461494617,0.9817430447510367
2013-04-30,-1,-0.003398373820864077,-0.0028168390984154206,-0.008497828534682426,0.016865136242758427,0.982850082696345
2013-05-02,-1,-0.004400920311157605,-0.0036658394645272827,-0.008497828534682426,0.016865136242758427,0.9845554047717648
2013-05-06,-1,-0.003978014669499242,-0.0032592566890379273,-0.008497828534682426,0.012971620692859929,0.9860297414371699
2013-05-08,-1,-0.004008549344511015,-0.0032782121479582806,-0.005656377541257144,0.010556368083299053,0.9871454112490341
2013-05-10,-1,-0.0045659739457269855,-0.0037798739608688875,-0.005652124526516997,0.010556368083299053,0.9868737269839941
2013-05-14,-1,-0.003790648795625056,-0.003177611157013602,-0.003792012091991272,0.008486801653767685,0.9883167938616665
2013-05-16,-1,-0.001442111209392939,-0.0011726223081248632,-0.003792012091991272,0.0078001003273987235,0.9899762692780794
2013-05-20,-1,-0.0011637130156886529,-0.0009309801765271337,-0.005652124526516997,0.0078001003273987235,0.9887053243024353
2013-05-22,-1,-0.001660120790338562,-0.0013609500989425402,-0.005632581629068727,0.0078001003273987235,0.9886855979576914
2013-05-24,-1,-0.002326029870105387,-0.0019612796634879393,-0.006149059791246551,0.005561894241669233,0.9903207945406592
2013-05-29,-1,-0.0011258141580408295,-0.0009577521530702347,-0.008166174892581618,0.004818476447471602,0.9903322152269525
2013-05-31,-1,-0.0012700090632421536,-0.0010214176163769364,-0.008166174892581618,0.004818476447471602,0.9915603717292841
2013-06-04,-1,-0.0015669479316707518,-0.0012604317492701798,-0.008166174892581618,0.005036139800637704,0.9914883078005203
2013-06-06,-1,-0.0016466456303248758,-0.0013202785185571896,-0.008166174892581618,0.006761365726264571,0.9906879345443856
2013-06-10,-1,-0.0019392431344286126,-0.001587381626730477,-0.008190415829293488,0.006761365726264571,0.9905319080367462
2013-06-12,-1,-0.0015691165687562424,-0.001306505251519275,-0.008190415829293488,0.009771492317972866,0.9896912194536202
2013-06-14,-1,-0.000438115664120721,-0.000333128799157139,-0.008190415829293488,0.008180963617218285,0.9907460627128784
2013-06-18,1,7.932066699349588e-05,8.138135372296823e-05,-0.006149059791246551,0.00618040455821727,0.9923702295862784
2013-06-20,1,0.00013949289727866902,0.00018776522921278507,-0.004971607963254898,0.00618040455821727,0.9924620020148983
2013-06-24,-1,-0.00302568590797015,-0.0025610110176095754,-0.0037864858840704874,0.008180963617218285,0.9922146036170234
2013-06-26,-1,-0.001587129031307487,-0.0014666545492344543,-0.0034447266527340846,0.009771492317972866,0.992244691855647
2013-06-28,1,0.0005499052439058478,0.0009448932500684636,-0.0034447266527340846,0.008180963617218285,0.992641221875996
2013-07-02,1,0.0007066848841792008,0.0010577322512489117,-0.0034447266527340846,0.009857686506696847,0.9922440505823631
2013-07-05,1,0.001482289160479533,0.0019494619725291382,-0.0037864858840704874,0.0085007977783144,0.9920176595404169
2013-07-09,1,0.001432911029403194,0.0019010627022071484,-0.0037864858840704874,0.009857686506696847,0.9914712310972905
2013-07-11,1,0.0026016603988693833,0.0032754493694792264,-0.0037864858840704874,0.00866316936873204,0.9915050892647705
2013-07-15,1,0.0022363306103601204,0.0028240138958014133,-0.004275412373313178,0.010488990126596641,0.9908349640344107
2013-07-17,1,0.0018315610925128353,0.002288210156249544,-0.004275412373313178,0.011250316122842647,0.9896341169228993
2013-07-19,1,0.0019951871155842547,0.0024832520989341586,-0.007418163396536337,0.011559152433136882,0.9878511745272006
2013-07-23,1,0.0026217590899780758,0.003229675199905277,-0.004231578190903888,0.011024502109302002,0.9893756851678208
2013-07-25,1,0.0032985276898356624,0.003979287300371172,-0.004231578190903888,0.010677401256050616,0.9896088409483894
2013-07-29,1,0.002688805045829159,0.0033021015046471383,-0.003322670677709974,0.010677401256050616,0.9904068417585173
2013-07-31,1,0.003877259961031865,0.004710967150292438,-0.007418163396536337,0.00996367978097038,0.9887202432658748
2013-08-02,1,0.0026353879641053167,0.0031867978934659053,-0.007418163396536337,0.00996367978097038,0.987100833394787
2013-08-06,1,0.0014514542777378176,0.001701501041766312,-0.00544992419101491,0.00996367978097038,0.987391221365395
2013-08-08,1,0.0011777802049419317,0.0013452499613542399,-0.00544992419101491,0.00996367978097038,0.9874470166981725
2013-08-12,1,0.0013248910125413826,0.0014644914126247725,-0.003806294291756613,0.01078034669281536,0.9864800032100294
2013-08-14,1,0.003012402534144981,0.0034051383318056535,-0.003806294291756613,0.008512576136845548,0.9878534031015118
2013-08-16,1,0.002407887558491973,0.0027350671715366793,-0.003806294291756613,0.006872575583538262,0.9890194514040689
2013-08-20,1,0.002164026126166888,0.002517535467864612,-0.00615307892550299,0.006872575583538262,0.9886386276069289
2013-08-22,1,0.001140461196444688,0.0012788484402194375,-0.011085857532531412,0.005780133381824883,0.9878356921309777
2013-08-26,1,0.0007811934304510907,0.0007895462230205945,-0.011984169102001126,0.006095306901774402,0.9852683973001879
2013-08-28,-1,-0.0006628155665737514,-0.0004905080539902625,-0.009210538075039432,0.009103301176157388,0.9823374535757848
2013-08-30,-1,-0.0004887200694483832,-0.0004884361037333839,-0.009210538075039432,0.013811952785936889,0.9814772489543503
2013-09-04,-1,-0.0013060446151084578,-0.001117082378840516,-0.009210538075039432,0.010327892734771717,0.9816681634656503
2013-09-06,-1,-0.0015072160501638076,-0.0012642256908662833,-0.009210538075039432,0.012584956533637717,0.9814910452009016
2013-09-10,-1,-0.001257036701697621,-0.0009911009110062183,-0.01116904399961873,0.006670220297599144,0.9823235657115948
2013-09-12,-1,-0.001161708348393055,-0.0009197304989775088,-0.01116904399961873,0.008985742962455764,0.9819145235671726
2013-09-16,-1,-0.001328859646599561,-0.001103697169608718,-0.01116904399961873,0.011082577741158218,0.9813703375433452
2013-09-18,-1,-0.0015729986976756726,-0.0013072765753068278,-0.012767999082975694,0.01218449512460133,0.980224771537144
2013-09-20,-1,-0.001041781848813488,-0.0009355564667917254,-0.012767999082975694,0.017534478170923823,0.9777013783094326
2013-09-24,1,3.915281106479595e-05,8.781634504078422e-05,-0.012767999082975694,0.016374155232412264,0.979026207712404
2013-09-26,1,0.0018805938234011338,0.0020804925653705774,-0.01459436836951573,0.01218449512460133,0.9831758917186288
2013-09-30,1,0.003083837640242325,0.003461198492543333,-0.012767999082975694,0.011082577741158218,0.9860076405414407
2013-10-02,1,0.0019341738240346352,0.0021231064206696753,-0.014844191485842775,0.011082577741158218,0.9848104254273031
2013-10-04,1,0.0021533709724575827,0.002366947528702372,-0.014844191485842775,0.011944151594356012,0.9847581783388542
2013-10-08,1,0.001929978247537296,0.0021616777832774636,-0.013158671795618283,0.01851908138471127,0.9808296682025878
2013-10-10,1,0.0012978701672741303,0.0014247525746153202,-0.013750121832953231,0.01851908138471127,0.9805827943682032
2013-10-14,1,0.0016451527633990293,0.001798556227909902,-0.01309277253539326,0.01851908138471127,0.9814891486123412
2013-10-16,1,0.001856878811863647,0.002067073568328916,-0.004119983499784253,0.012811801742427388,0.9829689014581701
2013-10-18,1,0.0018724329189529283,0.0020792469273041977,-0.004119983499784253,0.012811801742427388,0.9840831000088142
2013-10-22,1,0.002450220941000892,0.002740028648832959,-0.01309277253539326,0.012811801742427388,0.9824833706520165
2013-10-24,1,0.0020525814050376436,0.0022989612585222205,-0.004119983499784253,0.012811801742427388,0.9833457132059206
2013-10-28,1,0.0018469329474636769,0.0020595839584184126,-0.006291387451685589,0.012811801742427388,0.9830322144417178
2013-10-30,1,0.0005093646832002595,0.0005288463074301985,-0.0014062936183943302,0.01711261572535278,0.9838850212069538
2013-11-01,1,0.0010850470595968292,0.0011811718358035812,-0.00202234712105959,0.01521999564392213,0.9841460575698568
2013-11-05,1,0.0037453894472301817,0.004223234503996167,-0.0025531411883576135,0.007919659888739536,0.9887793195547501
2013-11-07,1,0.003075158187338162,0.003468533313854734,-0.002293999246860385,0.007919659888739536,0.9895499618618399
2013-11-11,1,0.0032913955738034287,0.003673328677125452,-0.004860531176915463,0.006789438162777669,0.988884027943005
2013-11-13,1,0.0030432738115517706,0.003345057207615393,-0.004860531176915463,0.003451494778115263,0.98876995042276
2013-11-15,1,0.002718080100166899,0.0029698768505911966,-0.0037314605755906487,0.003451494778115263,0.9911386593259898
2013-11-19,1,0.0022270788417320967,0.002411456015757303,-0.00319304487488166,0.004871973022307176,0.9936352975168063
2013-11-21,1,0.0024619096022810735,0.0026892929097177163,-0.0037314605755906487,0.006084065967979148,0.9913336426265477
2013-11-25,1,0.0025272044763884546,0.0027475450586949036,-0.00319304487488166,0.00823138413972819,0.9903736223146995
2013-11-27,1,0.00272459680290316,0.0029606666597149205,-0.004502015991241419,0.006084065967979148,0.9901243262655491
2013-12-02,1,0.003068926584254448,0.0033753420130136907,-0.005847125828554876,0.006084065967979148,0.9898616553381249
2013-12-04,1,0.0021624757688174846,0.002332008419537354,-0.006747358277434965,0.006084065967979148,0.9886365197650927
2013-12-06,1,0.0020757245268061717,0.0022260443379360853,-0.007411666423223591,0.006084065967979148,0.9871243127879702
2013-12-10,1,0.001572920166698479,0.0016513837690187213,-0.010227237072760704,0.006084065967979148,0.9868781345099353
2013-12-12,1,0.0019672472111062394,0.0021046213965380083,-0.015377297798021366,0.006084065967979148,0.9849360659122716
2013-12-16,1,0.002102375847407857,0.002301218165708665,-0.015377297798021366,0.00823138413972819,0.984367634976864
2013-12-18,1,0.002206177517920618,0.002364690561656998,-0.015377297798021366,0.006803470148911521,0.984141988106544
2013-12-20,1,0.0033878164377190278,0.003723774557620317,-0.014216214414816339,0.010587279632373894,0.9842433674901468
2013-12-24,1,0.0033529017285818235,0.0036589249974287546,-0.01747997592251266,0.0062585020012863625,0.982769732478781
2013-12-27,1,0.0025240132458538276,0.0027154233199505,-0.016876647579992462,0.010587279632373894,0.9822281005770312
2013-12-31,1,0.0037772916467554395,0.004141946416763478,-0.016876647579992462,0.010587279632373894,0.9814745936402354
2014-01-03,1,0.0020783378365578295,0.002260981093108388,-0.014323213763735802,0.010587279632373894,0.9839297628432645
2014-01-07,1,0.0020011739309739956,0.002127784738615919,-0.014323213763735802,0.010587279632373894,0.9816194089281968
2014-01-09,1,0.0010810866367250557,0.0011016558017566853,-0.014323213763735802,0.013273966004139274,0.9817775176338596
2014-01-13,-1,-0.0017279115550770875,-0.001331598285257246,-0.008952390554562435,0.01684430839318435,0.9815611186565988
2014-01-15,-1,-0.001123439289363706,-0.0008002213020915276,-0.008952390554562435,0.016210872463915657,0.9815620871907281
2014-01-17,-1,-0.001009076515783173,-0.0006995583958786518,-0.008952390554562435,0.017792132314013193,0.9810344442403148
2014-01-22,-1,-0.0005508109578882036,-0.00022984731447018918,-0.008952390554562435,0.016210872463915657,0.9831521836027695
2014-01-24,-1,-0.0031507346325579558,-0.002451400010462463,-0.005901088570656346,0.016210872463915657,0.9844817285155517
2014-01-28,-1,-0.0026301182464070084,-0.0019958759513134606,-0.004960391374627403,0.013624276370372394,0.985731691630348
2014-01-30,-1,-0.002601237076858075,-0.0019800651866084765,-0.0032425751051614903,0.013624276370372394,0.9858485192311364
2014-02-03,-1,-0.0022553892361589127,-0.0017319363722174167,-0.002657071966099057,0.017573692987119856,0.9831503284167535
2014-02-05,-1,-0.004815645567525418,-0.003986441265204452,-0.002657071966099057,0.017573692987119856,0.985157279533508
2014-02-07,-1,-0.004433380036093696,-0.0036199472729187923,-0.003708112371786065,0.013624276370372394,0.9865832061746719
2014-02-11,-1,-0.003963029527718203,-0.0031887593390719526,-0.003708112371786065,0.013624276370372394,0.9867173555875309
2014-02-13,-1,-0.00408687406874295,-0.003246150107097381,-0.007335734587031099,0.015010516024366037,0.9856642795052188
2014-02-18,-1,-0.0028371961292567955,-0.002191466439372319,-0.007335734587031099,0.010780353174475666,0.9869815899911322
2014-02-20,-1,-0.0013833228082994566,-0.0010187346835838847,-0.007335734587031099,0.015632572147893146,0.9852379774950825
2014-02-24,-1,-0.0007473492726162352,-0.0005083505118301476,-0.008140154086729554,0.015632572147893146,0.9851287815566354
2014-02-26,-1,-0.0005487848743953256,-0.0003347273856956778,-0.009230345694549901,0.015632572147893146,0.9847202887779648
2014-02-28,1,0.00018297339823008488,0.000303596010883451,-0.009230345694549901,0.015632572147893146,0.9833773254471092
2014-03-04,1,0.0011501238417870522,0.0012171876129781845,-0.011159537550256258,0.014995935823182274,0.9842170640627557
2014-03-06,1,0.0005661193379576983,0.0006985931516792443,-0.011159537550256258,0.019773108996793173,0.9834605667852501
2014-03-10,1,5.15430014506749e-06,0.00021497015693648083,-0.015518261602112723,0.019773108996793173,0.9825118716349764
2014-03-12,-1,-0.00031627725663731677,-8.019122702316607e-05,-0.013988605465181794,0.020329498439788436,0.9832236032880598
2014-03-14,-1,-0.0004604695634755285,-0.00021367756018869654,-0.014456602122878841,0.014995935823182274,0.9837848699517994
2014-03-18,1,0.00023237705994238957,0.000350408895043791,-0.014456602122878841,0.014995935823182274,0.9838372959989101
2014-03-20,1,0.0010594228181460775,0.0011134402527098026,-0.014456602122878841,0.014979541803970793,0.9840069562682044
2014-03-24,0,-5.2876855870982796e-05,0.0001375578314067262,-0.013637013834112253,0.018900960949925473,0.9836724383976138
2014-03-26,-1,-0.0017447511128969404,-0.0012922083336928435,-0.0077605283431532515,0.018900960949925473,0.9834580633996269
2014-03-28,-1,-0.0003321881342289235,-6.510999119869044e-05,-0.014456602122878841,0.01872110551286843,0.9832832077532906
2014-04-01,1,0.0022227225452885846,0.0024775931627027113,-0.014456602122878841,0.01872110551286843,0.9833497931323358
2014-04-03,1,0.002716896592681817,0.003001079689593245,-0.016271987668152726,0.01872110551286843,0.9826337342381506
2014-04-07,1,0.0016844304413065618,0.0018638118566638516,-0.015555613164941497,0.01872110551286843,0.9790497380426092
2014-04-09,1,0.002532934309650576,0.0028522753961956393,-0.015555613164941497,0.014945757960746982,0.9798798348204808
2014-04-11,1,0.0016023425235179706,0.0018220732982478648,-0.007020125206246645,0.01872110551286843,0.9796872782767814
2014-04-15,1,0.0017765644704003875,0.002015371416439967,-0.012210377886159165,0.01872110551286843,0.977732476925382
2014-04-17,1,0.0026668855817763917,0.003025063007677729,-0.012210377886159165,0.020657361710625495,0.9777802224709934
2014-04-22,1,0.0035209782413838588,0.003978178203674824,-0.018390257963214987,0.017506042253049522,0.9781174214515995
2014-04-24,1,0.004221456559616626,0.0047975784500396395,-0.018390257963214987,0.01764691803298351,0.9779601654827811
2014-04-28,1,0.0027153699661682847,0.0031103350557494264,-0.009125237322399083,0.01764691803298351,0.9805879513033164
2014-04-30,1,0.003174060854727985,0.0035897850963945406,-0.016908317515037755,0.015397737921902504,0.9788422688253579
2014-05-02,1,0.0031057519234249905,0.0035117678081041616,-0.011379250354294953,0.015397737921902504,0.9800661938948946
2014-05-06,1,0.0005047050958867073,0.0005391760812791,-0.009125237322399083,0.015397737921902504,0.9850844248195769
2014-05-08,0,-1.5392587913732838e-05,2.1375929663933297e-05,-0.005579069713465832,0.01764691803298351,0.9841703071912947
2014-05-12,1,0.0014145263134235006,0.0015663528447244662,-0.005579069713465832,0.01967163059640502,0.9844859404540628
2014-05-14,1,0.00044747003661249884,0.0004991066318085142,-0.00421053622039127,0.01967163059640502,0.9856886194013043
2014-05-16,1,0.0013770425974872107,0.0015652497688563183,-0.005704139285871958,0.01593237350736819,0.9866017812655754
2014-05-20,1,0.001541923281456996,0.0018069909398407244,-0.00421053622039127,0.01593237350736819,0.9877374103705625
2014-05-22,1,0.0017807270738201997,0.0020539533776438705,-0.005704139285871958,0.015975237418716273,0.9872083224105999
2014-05-27,1,0.002344535034811886,0.0027074294172600806,-0.005704139285871958,0.012227551541991372,0.9875974556933196
2014-05-29,-1,-6.961210622674232e-05,-3.85616963080246e-05,-0.003616241458930437,0.015486102678490443,0.9896798353543655
2014-06-02,-1,-0.0002287560781871777,-0.00013044926906961786,-0.0036206829484774737,0.010915492289897216,0.9903009297812829
2014-06-04,-1,-0.0007963640748458294,-0.000598365680924301,-0.005092413818503194,0.01228136643938527,0.9892158446319909
2014-06-06,-1,-0.000635814237937222,-0.0003975351061304064,-0.005092413818503194,0.008754871702392843,0.9908138746276174
2014-06-10,1,0.0010474824535738627,0.0010625716235109165,-0.00760995853075525,0.0034139640755057672,0.9930940229646681
2014-06-12,1,0.0008969654203822379,0.0009241394773004876,-0.00760995853075525,0.0030557861971329506,0.9920198104895804
2014-06-16,1,0.0011515571212614827,0.0012238843085846376,-0.00760995853075525,0.0034139640755057672,0.9918721955284634
2014-06-18,1,0.0003566773360900076,0.00045534519597385445,-0.010582128411994574,0.0030557861971329506,0.9910993742251365
2014-06-20,1,0.0007363859861910581,0.0007685109523088505,-0.010582128411994574,0.0030557861971329506,0.9900510420326281
2014-06-24,1,0.0006159534847444633,0.0006648720635644846,-0.012007654817336002,0.004073372758028465,0.9883749633863289
2014-06-26,1,0.0007534868044603961,0.0008018067635563683,-0.012007654817336002,0.0023091008413442045,0.9883051126016934
2014-06-30,-1,-0.001076009649824293,-0.000688835784957828,-0.012143632002041415,0.0012310297151113783,0.9884460229449512
2014-07-02,-1,-0.0008160712726436994,-0.0004948614351877012,-0.012617264451579244,0.0012310297151113783,0.988367560451393
2014-07-07,-1,-0.00047136033331619646,-0.00022417343710192728,-0.012617264451579244,0.0017279711419691019,0.9881201518607361
2014-07-09,-1,-0.0005310502545273412,-0.00030312932525369634,-0.012617264451579244,0.005324997994620554,0.9867679379522152
2014-07-11,-1,-0.0012816978237983816,-0.0009960934722170267,-0.012617264451579244,0.005555875809446201,0.9871312705493605
2014-07-15,-1,-0.00157634320364189,-0.0012537981082472642,-0.012390371965704656,0.005324997994620554,0.9872845042823858
2014-07-17,-1,-0.0023017458559605204,-0.0018874422203755882,-0.01336205743912547,0.005324997994620554,0.9829748363959244
2014-07-21,-1,-0.0011845484223375908,-0.0009326116893987013,-0.01656575954662805,0.005324997994620554,0.9784575841000811
2014-07-23,-1,-0.0008869798522654372,-0.0007132484115721098,-0.01336205743912547,0.005720312272542247,0.9790248292891857
2014-07-25,-1,-0.0005157549054794017,-0.00043675632116856684,-0.01336205743912547,0.009815947413705525,0.9769492517172171
2014-07-29,-1,-0.001230317807646196,-0.0010507375876223001,-0.01330430893954392,0.0190731226838897,0.9754027676954956
2014-07-31,-1,-0.0016047386275463084,-0.0013732183489407125,-0.01330430893954392,0.0190731226838897,0.9752163438766711
2014-08-04,-1,-0.0015488262228404589,-0.0013155670785185915,-0.01330430893954392,0.0190731226838897,0.9746164522569477
2014-08-06,-1,-0.000984182764342385,-0.0008151628783961083,-0.01330430893954392,0.01629029222552495,0.9760722213500163
2014-08-08,-1,-0.0008698229853987369,-0.0007197511055643363,-0.012183724386436176,0.011332110204162813,0.9773441307360814
2014-08-12,-1,-0.0005704983814816275,-0.0004910822928754493,-0.013232026025383412,0.011332110204162813,0.9768717284008321
2014-08-14,-1,-0.0029345227249080097,-0.00255643893514349,-0.011832068502441942,0.011332110204162813,0.9813482632614922
2014-08-18,-1,-0.004309408377262167,-0.003751878110371954,-0.007354357552833942,0.0075594355126451,0.9877099633036555
2014-08-20,-1,-0.003373857966023715,-0.0029621997600880797,-0.007354357552833942,0.00939868875501838,0.9879684075334422
2014-08-22,-1,-0.0022161210186543287,-0.0019472852183502218,-0.012805406771230196,0.005219385270744607,0.9887561694896811
2014-08-26,-1,-0.0008593902857004929,-0.0007745956097897898,-0.012805406771230196,0.0014776958089493335,0.9903678908844312
2014-08-28,-1,-0.0017458780845936864,-0.0015276049771608948,-0.01240010956616357,0.002454954198394271,0.9893091258177427
2014-09-02,-1,-0.0012649112233681066,-0.001140513914106396,-0.013136487466955308,0.0014776958089493335,0.9892350006840755
2014-09-04,-1,-0.001704390315260222,-0.0014934615590267266,-0.013136487466955308,0.002454954198394271,0.9886564227441302
2014-09-08,-1,-0.001776313710744585,-0.0015657324988187717,-0.013136487466955308,0.009395057952890248,0.9875733072837635
2014-09-10,-1,-0.0017184163425628825,-0.0015461706415757573,-0.013136487466955308,0.009395057952890248,0.9871063942521523
2014-09-12,-1,-0.001421857808575515,-0.00132047787990093,-0.013136487466955308,0.009395057952890248,0.9863284000937022
2014-09-16,-1,-0.0011667666781317518,-0.001116611317876963,-0.013136487466955308,0.011979475118889575,0.9850428344374148
2014-09-18,-1,-0.001288881242882968,-0.0011729938703243501,-0.013136487466955308,0.012988218808414272,0.9851456129158703
2014-09-22,-1,-0.0010804775722892917,-0.0009923893802556484,-0.009729193568657762,0.014353500379845535,0.9828541030630322
2014-09-24,-1,-0.00110150450939,-0.001018409493449118,-0.010806476518382605,0.016521513092709682,0.9810079578084394
2014-09-26,-1,-0.0018164432266300672,-0.0016052366215997581,-0.009729193568657762,0.016521513092709682,0.9822648416012063
2014-09-30,-1,-0.002229302623899125,-0.0019606649749950786,-0.006683885725202287,0.01757008280866629,0.9812398007284994
2014-10-02,-1,-0.0014598822224754894,-0.001321107145410939,-0.008228859906918282,0.019689739584630446,0.9805539195591654
2014-10-06,-1,-0.0014011987826810267,-0.001238961645520131,-0.008228859906918282,0.02697966182218274,0.9796408596273821
2014-10-08,-1,-0.0015603606579261294,-0.0014040162745161133,-0.008228859906918282,0.02697966182218274,0.9793428721707651
2014-10-10,-1,-0.0020347153851453283,-0.0018176778678468796,-0.005294034464422588,0.02697966182218274,0.9801905006634967
2014-10-14,-1,-0.0013803029609063878,-0.0012546701073153622,-0.005294034464422588,0.02697966182218274,0.9808869174430419
2014-10-16,-1,-0.0008651428964195822,-0.0008140652148034909,-0.006754536368312698,0.02697966182218274,0.9798981835467243
2014-10-20,-1,-0.00024109433313518358,-0.00021995477931737676,-0.008228859906918282,0.020372182506714714,0.9807034791903626
2014-10-22,1,0.0001895563870888023,0.0002396943335242363,-0.008228859906918282,0.01788074736577909,0.9825924153812411
2014-10-24,1,0.0005803946444408574,0.0006800217160676202,-0.008228859906918282,0.01788074736577909,0.9826874777420365
2014-10-28,1,0.0012432938380964802,0.0014640835422510775,-0.006754536368312698,0.016730557712059398,0.9836060898368875
2014-10-30,1,0.001987405504563025,0.002355235396025957,-0.009820361031039917,0.01557801450745292,0.9840727222532535
2014-11-03,1,0.002684501361803715,0.0031422548811005186,-0.011864428144063317,0.01557801450745292,0.9835542689317126
2014-11-05,1,0.001979860256268306,0.0023375982839693357,-0.009820361031039917,0.016730557712059398,0.9840305634540075
2014-11-07,1,0.0020433570992343204,0.002416884495138395,-0.011864428144063317,0.01788074736577909,0.9815157956702729
2014-11-11,1,0.0023684634955948936,0.002791949259568909,-0.016259141135832923,0.016730557712059398,0.980065949549032
2014-11-13,1,0.0022955698173663204,0.0027135414891473475,-0.016503647851927462,0.015905913669002316,0.9799761086231394
2014-11-17,1,0.0018007014267404993,0.0021692500256300135,-0.013610887076129246,0.013819439782509258,0.9824418605320658
2014-11-19,1,0.0016407330668941678,0.0019890275346196584,-0.013610887076129246,0.023899408091283443,0.9803817874040103
2014-11-21,1,0.0021074235130549347,0.0025192497992584913,-0.013610887076129246,0.02270461659606233,0.9802996107230245
2014-11-25,1,0.002368422802994281,0.0028204376244342993,-0.013610887076129246,0.02270461659606233,0.9804332082560455
2014-11-28,1,0.0018948379372914514,0.0022754300118961583,-0.013942681630835396,0.02270461659606233,0.9808175478032559
2014-12-02,1,0.001556427133198998,0.001851651957572353,-0.012397998102697289,0.015575312640427086,0.9821859671569872
2014-12-04,1,0.002090448098207765,0.002450033657344016,-0.013942681630835396,0.012841275395009734,0.9825853416221786
2014-12-08,1,0.0020629743084368633,0.0023964888277959407,-0.013942681630835396,0.010426709773046106,0.9837702655362811
2014-12-10,1,0.001477448723106381,0.0017654189789855813,-0.013942681630835396,0.012841275395009734,0.9839400175394172
2014-12-12,1,0.0006833600817912336,0.0008584088413607773,-0.01018959145839126,0.012841275395009734,0.9850870254399849
2014-12-16,1,0.0006228331938814407,0.0007766966484143565,-0.01076267786017837,0.010426709773046106,0.9843971873752044
2014-12-18,1,0.001771877059716915,0.002055770581633444,-0.01076267786017837,0.008453435768741366,0.984113132824386
2014-12-22,1,0.0022298594038056814,0.002557173420460998,-0.01076267786017837,0.007221947789622055,0.984367058671825
2014-12-24,1,0.002234448426263461,0.002568393012731896,-0.014272401236572259,0.0055971190518295435,0.983964392003715
2014-12-29,1,0.002274313581622814,0.002647053781459791,-0.01528309164492371,0.0076454145693970466,0.9835562237446026
2014-12-31,1,0.002690124444718012,0.0031192008140326945,-0.01528309164492371,0.003118263293535397,0.9829470771613773
2015-01-05,1,0.0022089981801977393,0.002566835155736285,-0.011346268571748919,0.00845658149465304,0.9836994091511341
2015-01-07,1,0.0002198014824439312,0.0002544428658137834,-0.011346268571748919,0.00845658149465304,0.9838748533849495
2015-01-09,-1,-0.000415598740821449,-0.00018552662546280653,-0.009642889991688636,0.00845658149465304,0.9845662260215654
2015-01-13,-1,-0.0004955581222678761,-0.00029058574053211154,-0.009642889991688636,0.00921857813170673,0.9844057871844617
2015-01-15,-1,-0.0007798943235815311,-0.0006192911660540424,-0.008923119609088051,0.00921857813170673,0.985973045963603
2015-01-20,1,0.001366491362714262,0.001547382898563628,-0.006368796963721926,0.008214755852316067,0.9890012098246221
2015-01-22,1,0.0005272603073483466,0.0005495631786039097,-0.0031018375874837904,0.008214755852316067,0.9895419467298049
2015-01-26,-1,-0.00014177916519499698,-7.937275285803579e-05,-0.0025909533579856195,0.00921857813170673,0.9890049569249949
2015-01-28,-1,-0.0004846609357321215,-0.0003748417496800465,-0.0023865035022981426,0.011017135415137913,0.9889327447036339
2015-01-30,-1,-0.0005649880324617863,-0.00042961779824322936,-0.0005896080533301905,0.009122891556688672,0.9900380817303509
2015-02-03,-1,-0.008564032453329344,-0.008487591660194936,-0.0023865035022981426,0.009122891556688672,0.9850950526249128
2015-02-05,-1,-0.007054311036443847,-0.007042335762141421,-0.0005896080533301905,0.009122891556688672,0.9863450809825309
2015-02-09,-1,-0.0076448941540589125,-0.007497669904082327,-0.002506739491053477,0.009122891556688672,0.9858366321595925
2015-02-11,-1,-0.0059884815961004385,-0.005850893770349948,-0.002506739491053477,0.00982758871349848,0.9867960992196712
2015-02-13,-1,-0.006907837301448148,-0.00686467338215437,-0.0007379153310629055,0.011417146469015406,0.9848894041391395
2015-02-18,-1,-0.00796723382757281,-0.007762425347645702,0.0014011883548396657,0.011417146469015406,0.9832037328238773
2015-02-20,-1,-0.001202545882423642,-0.0008934648658215476,0.0004432725548202093,0.014632609435157417,0.9872133658705127
2015-02-24,-1,-0.000781568927862919,-0.0004832972965932459,-0.00013130551997086085,0.011417146469015406,0.9877209633028919
2015-02-26,1,6.911741100388029e-05,0.00025481201677558264,-0.005023383972815494,0.009442057942636747,0.9875571838926421
2015-03-02,1,0.0003930502091214662,0.000509379025937779,-0.005023383972815494,0.011417146469015406,0.9866226462505812
2015-03-04,-1,-0.0003551475841618134,-9.081717417741401e-05,-0.0016048981659062497,0.010951295665316052,0.9865327470836501
2015-03-06,-1,-0.001769359067328392,-0.0012853293330635255,-0.0016048981659062497,0.01216822801382944,0.986540217013183
2015-03-10,-1,-0.000997439898572286,-0.0006366993881852545,-0.0006543391766954617,0.010410938289296316,0.9891412274772582
2015-03-12,0,-0.00020622470695057997,3.44878512850992e-05,-0.001992249456342305,0.009286774341403629,0.9898806576761064
2015-03-16,1,0.0022385899924576473,0.002359265742979003,-0.006370183979606865,0.008033993188164296,0.9903264992316843
2015-03-18,1,0.002930803358168485,0.0031768848612211014,-0.008316386023419095,0.005495493450406756,0.9901251358485861
2015-03-20,1,0.004109213177867293,0.004561400292697235,-0.011600667233899154,0.005495493450406756,0.9884865690362484
2015-03-24,1,0.003812063525927652,0.004269488904810351,-0.008316386023419095,0.003993455937147995,0.9896076555599707
2015-03-26,1,0.0026805941275011604,0.003030457692756515,-0.004268687714903267,0.006072758241869101,0.9915418880103825
2015-03-30,1,0.004476754496743641,0.005166560134216153,-0.005844853097668149,0.006072758241869101,0.9905378368493017
2015-04-01,1,0.004153503695858601,0.004693755340844949,-0.011600667233899154,0.0032854769674309607,0.9877492814996592
2015-04-06,1,0.003869514468449721,0.004362126482455529,-0.008316386023419095,0.005425818956432921,0.9880470425970368
2015-04-08,1,0.004213283676808157,0.004783255429506603,-0.008316386023419095,0.006257742466482573,0.9877295923246979
2015-04-10,1,0.003573294384872215,0.004031249559531772,-0.008113839182740367,0.006257742466482573,0.9880936761443502
2015-04-14,1,0.0022561609216905872,0.0024464792380221854,-0.007465931166462319,0.009141031722200703,0.9883466115126466
2015-04-16,1,0.0015678588779141074,0.0016304128385533437,-0.007814362742245224,0.009141031722200703,0.9880537971746359
2015-04-20,1,0.001833533436972332,0.001982532204919055,-0.007814362742245224,0.009141031722200703,0.9890221785637708
2015-04-22,1,0.0018965217874013813,0.0020722342518074578,-0.008996721805661025,0.009141031722200703,0.988129858190706
2015-04-24,1,0.0016667415249106774,0.001755294763249821,-0.011035970066728965,0.009141031722200703,0.9861731681248277
2015-04-28,1,0.0021979858519875044,0.002346907813061394,-0.01393447394130902,0.007876127392241018,0.9863369919080313
2015-04-30,1,0.0005768647725288166,0.0005773908770084811,-0.008996721805661025,0.007876127392241018,0.9889849464755468
2015-05-04,1,0.001870825516483726,0.002059708111802186,-0.008996721805661025,0.005422568411590142,0.9897086906049402
2015-05-06,1,0.0007390159723118832,0.0008024535851227604,-0.008996721805661025,0.007264134003617499,0.9893496655437338
2015-05-08,-1,-0.0007402957335429731,-0.0004149991074488342,-0.007814362742245224,0.007847017931168519,0.9900550770468622
2015-05-12,-1,-0.0008821839430185742,-0.0005374385997126314,-0.006252308118815764,0.007847017931168519,0.9899117411131719
2015-05-14,1,0.0005563250569515627,0.0006022642061948066,-0.002906102348005259,0.010208858440509986,0.9895292312536347
2015-05-18,1,0.0012339426949063061,0.0013389198375587494,-0.0023116254955216605,0.007506622287377182,0.9905117007767233
2015-05-20,1,0.0003815118348762122,0.000394039861724921,-0.0023116254955216605,0.00890353963905895,0.9904672171931056
2015-05-22,1,0.0010752870043166402,0.001127760191751892,-0.0017421210415410027,0.011196029010344132,0.9904116310850802
2015-05-27,1,0.0006852898200027265,0.0007353771587186382,-0.0017421210415410027,0.011196029010344132,0.9889661752055326
2015-05-29,-1,-0.00018765591617574487,-8.412796322079444e-05,-0.0017421210415410027,0.011196029010344132,0.9885614626758534
2015-06-02,-1,-0.0008659823376498978,-0.0006177186676788596,-0.0036919171420542567,0.011196029010344132,0.9861533745708256
2015-06-04,1,0.0002258204619399765,0.00032159015532095116,-0.007464481560115089,0.009796924405610186,0.9867195451663664
2015-06-08,1,0.00015473587229166466,0.00029111032649077004,-0.007464481560115089,0.010526134578782365,0.9864482446328797
2015-06-10,0,-0.0001851857687193766,6.436913571582225e-05,-0.01509504181815016,0.009796924405610186,0.9853096906755867
2015-06-12,1,0.0012474611799979012,0.0012675388047577382,-0.01509504181815016,0.010526134578782365,0.9836127148042098
2015-06-16,1,0.0008694979202742183,0.0009280083649869367,-0.01509504181815016,0.010526134578782365,0.9836618605629919
2015-06-18,1,8.468157134678073e-06,0.00020855543598956078,-0.015504119638812194,0.010432348775499456,0.9837448568246419
2015-06-22,1,0.0016607123011246404,0.0016945662587152977,-0.015504119638812194,0.007956114431600941,0.9848498771624633
2015-06-24,1,0.00028678082246632263,0.0004825656829758613,-0.015193440128249488,0.00644998068243326,0.9874227526118705
2015-06-26,1,0.000849306880632121,0.0009382062602852266,-0.015193440128249488,0.002320191664429643,0.9873363439678322
2015-06-30,-1,-0.002609748156616873,-0.002035748979161373,-0.00952143630413894,0.006838001227057973,0.9893708302852463
2015-07-02,-1,-0.0024226804105936684,-0.0019336734188286349,-0.00804998885230426,0.006838001227057973,0.9897278753957703
2015-07-07,-1,-0.0018484587697117994,-0.00144889366077038,-0.011566961822743641,0.0043586793605511,0.9893161319275482
2015-07-09,-1,-0.0036570935736476304,-0.0030429687522224207,-0.00804998885230426,0.006838001227057973,0.9899542328657341
2015-07-13,-1,-0.002030912941027728,-0.0015879617669080203,-0.00804998885230426,0.006838001227057973,0.9904221880940351
2015-07-15,-1,-0.002306635826216352,-0.001839026403516913,-0.0112364036334122,0.006838001227057973,0.9894172554283124
2015-07-17,-1,-0.0018907983508973743,-0.0015317405770944705,-0.008786578448386173,0.008220470141953866,0.9895517944998421
2015-07-21,-1,-0.0021143793542255295,-0.0017786267787353364,-0.005228924756173758,0.015133465196918335,0.986655633365455
2015-07-23,-1,-0.00149031942656272,-0.0012495759470113428,-0.0112364036334122,0.015133465196918335,0.9854324429956716
2015-07-27,-1,-0.001669441899427789,-0.0014158281028251608,-0.014094466992013426,0.015133465196918335,0.9839082123309943
2015-07-29,-1,-0.0010640982791680596,-0.0008640464391674978,-0.014094466992013426,0.015133465196918335,0.9829762503294703
2015-07-31,-1,-0.000810406324166301,-0.0006595927804242159,-0.014094466992013426,0.015133465196918335,0.9821604701989477
2015-08-04,-1,-0.0011510787823472148,-0.0009853528915920596,-0.01173041474564377,0.015133465196918335,0.9826867200846365
2015-08-06,-1,-0.00034179573407276795,-0.00029729963729622073,-0.014341009167012225,0.013941645163189591,0.9822982973584501
2015-08-10,1,0.0008304418312725,0.0009524073068567006,-0.016462297868094816,0.011763519372900695,0.9827212539559134
2015-08-12,1,0.00039081286047099154,0.00048718099372451786,-0.016462297868094816,0.011763519372900695,0.9827590543852842
2015-08-14,1,0.0006131044068042777,0.000719464541082539,-0.017798861004557937,0.009517974182398881,0.9817754997539571
2015-08-18,1,0.001602017548403301,0.0017882314214735823,-0.017798861004557937,0.011763519372900695,0.9835205123234271
2015-08-20,1,0.0010423726180234158,0.001182017178852795,-0.01632089529265846,0.012852349026426648,0.9843860159981931
2015-08-24,1,0.0006362401618513923,0.0007412822335834564,-0.01632089529265846,0.013577349870551437,0.9837356644309218
2015-08-26,1,0.0012367102511752536,0.001417836774953993,-0.01632089529265846,0.012852349026426648,0.9859913120461449
2015-08-28,1,0.0017069963043201933,0.001951979853653048,-0.01632089529265846,0.011536092399527447,0.9859377392725486
2015-09-01,1,0.0012511093951488646,0.0014217497455237882,-0.017649414351868436,0.012798473024912427,0.9844049796713062
2015-09-03,1,0.0010082811906978798,0.0011306696647956046,-0.017649414351868436,0.012798473024912427,0.9852782634401963
2015-09-08,1,0.0007980274154800271,0.0008816071431197526,-0.01606526938297661,0.012798473024912427,0.9836394448351513
2015-09-10,1,0.00033219583383264597,0.00035062377004998525,-0.010192643841402897,0.012798473024912427,0.9844448735670603
2015-09-14,-1,-0.0006732142777006032,-0.0005701580318384943,-0.00039433078237994986,0.013924412040525923,0.984726136002318
2015-09-16,1,0.0004956860110737471,0.0005486112951357942,-0.0023918944263712273,0.011811506681645961,0.986791782695059
2015-09-18,1,0.0008120141697844932,0.0009322784798201678,-0.00039433078237994986,0.010924873175459796,0.9872455840529116
2015-09-22,-1,-0.0002974681009600615,-0.00020250687802322843,-0.00039433078237994986,0.010924873175459796,0.9882444288304532
2015-09-24,1,0.00020592639993527632,0.00020899184806334335,-0.0012089020792313777,0.011985057653504987,0.9863390969134401
2015-09-28,-1,-0.0002442887586133735,-0.0001915424657362588,-0.0007997274096952527,0.012967187435069489,0.9852547252513556
2015-09-30,-1,-0.0009603508926963463,-0.0008160573665623489,-0.0007997274096952527,0.013015792725098268,0.9842201016131016
2015-10-02,-1,-0.0006750984288857982,-0.0005653856919391844,-0.00493623731330793,0.013015792725098268,0.9836939388870504
2015-10-06,1,0.0009212921280807771,0.001006492997874554,-0.006081706964415304,0.013015792725098268,0.9814369602990294
2015-10-08,1,0.0014872954984474884,0.0016432734255759733,-0.010022553464933037,0.013015792725098268,0.9807140029638379
2015-10-12,1,0.0017302037141263154,0.0018835801786480275,-0.01471311365494151,0.011258161391604694,0.9807474186103164
2015-10-14,1,0.0019015405187426844,0.0021130510182772243,-0.01471311365494151,0.013015792725098268,0.9798390791386107
2015-10-16,1,0.0019049035374330953,0.0020811587047325137,-0.01471311365494151,0.013015792725098268,0.9799770959709629
2015-10-20,1,0.001822528634372139,0.001973003066576091,-0.01750767071388054,0.011258161391604694,0.9795837307841122
2015-10-22,1,0.002769752337136548,0.003047614204098913,-0.01750767071388054,0.010800210085338895,0.9811715831310165
2015-10-26,1,0.0026916799004059904,0.0029861754990010395,-0.01471311365494151,0.010800210085338895,0.9816868745799707
2015-10-28,1,0.002925131349827105,0.0032611584042919195,-0.010228439461190285,0.008858768080248049,0.9841329316041028
2015-10-30,1,0.0038207202099902905,0.004183543882345236,-0.004542750346484211,0.008931387843423847,0.9841831268535433
2015-11-03,1,0.005955240177670396,0.006594665607605977,-0.007549784843213088,0.007616936530366313,0.9880523123525802
2015-11-05,1,0.00477924006358498,0.005305026347413911,-0.007549784843213088,0.008931387843423847,0.9888149781534108
2015-11-09,1,0.004162211496182791,0.004599698307652772,-0.009015647261766936,0.008931387843423847,0.9876554179463454
2015-11-11,1,0.0049760436231652185,0.005646420346649918,-0.012207283294045516,0.007616936530366313,0.986670843958115
2015-11-13,1,0.0048206506680598124,0.005395277716467319,-0.0163205625967613,0.004109743759815368,0.9857044040270615
2015-11-17,1,0.004374125087016354,0.0048522410795705665,-0.012207283294045516,0.010733224558390419,0.9849344859161808
2015-11-19,1,0.004023618542446769,0.004350180230796506,-0.012207283294045516,0.010482247322238148,0.9849791189959833
2015-11-23,1,0.004492915849337758,0.004819524103987978,-0.012207283294045516,0.010482247322238148,0.9841287753593615
2015-11-25,1,0.0031622315919351725,0.003464924687586848,-0.013636108126441993,0.012878590100051168,0.9837506966211259
2015-11-30,1,0.002921094982781828,0.0031105779675090254,-0.013636108126441993,0.011755465623235966,0.9835182031931269
2015-12-02,1,0.0028483185438031708,0.0031000024328382294,-0.012918033464361092,0.011755465623235966,0.9838943393989815
2015-12-04,1,0.0030001003302557124,0.0032524048740830342,-0.012918033464361092,0.010936044410945499,0.9846398205464773
2015-12-08,1,0.0015530877975424074,0.0015956236227041218,-0.011631162280615368,0.01198893984897268,0.9852277542359218
2015-12-10,1,2.2695063746991178e-05,0.0002021516185871107,-0.00983307195369365,0.01198893984897268,0.986297624054567
2015-12-14,-1,-0.000651720427276647,-0.00039430386694961803,-0.00983307195369365,0.01198893984897268,0.985370805900582
2015-12-16,1,0.0009809595203685692,0.0010729476860124182,-0.00983307195369365,0.010780015446951853,0.9874921099156438
2015-12-18,1,0.0015946797919543256,0.001611773997151733,-0.012128923025227976,0.01198893984897268,0.9865107709903298
2015-12-22,1,0.0030454375702858,0.003135294765087447,-0.012128923025227976,0.01198893984897268,0.9859372832502353
2015-12-24,1,0.0026084001869815902,0.002631499032584206,-0.012128923025227976,0.01198893984897268,0.9855160021265598
2015-12-29,1,0.0030101475782970057,0.0030371730223823215,-0.013013909086437743,0.010430139985492732,0.9846187892857358
2015-12-31,1,0.002932976640428131,0.0030352680193120817,-0.013013909086437743,0.01198893984897268,0.9809849954279232
2016-01-05,1,0.001273666805353573,0.0013063911532694408,-0.013013909086437743,0.0173017716004202,0.9757350310490396
2016-01-07,1,0.0008818023834013348,0.0009426558614197367,-0.013013909086437743,0.0173017716004202,0.9764085114309439
2016-01-11,1,0.00155843191809073,0.0016655768173780647,-0.01324747245120874,0.0173017716004202,0.9759163204770196
2016-01-13,-1,-0.00039540993325342137,-0.00020139970702200572,-0.01324747245120874,0.0173017716004202,0.9764082342040272
2016-01-15,-1,-0.001535692556576453,-0.001153997204295588,-0.01324747245120874,0.03148223851077631,0.9743148952055825
2016-01-20,-1,-0.00111289395614848,-0.0008226655725288559,-0.014387812819718593,0.03148223851077631,0.9735093158212617
2016-01-22,1,0.0008266829193417496,0.0008590077946674589,-0.014387812819718593,0.02391697912048224,0.975525638220947
2016-01-26,1,0.0009921343063012946,0.0010342145490587651,-0.014387812819718593,0.016289580797576118,0.976948665864776
2016-01-28,-1,-0.0004933182947876567,-0.0002645134636596133,-0.009692483963133297,0.016289580797576118,0.9778152909352371
2016-02-01,1,0.0026465578227780956,0.002780592739707984,-0.009692483963133297,0.011650077563395209,0.9821542630748943
2016-02-03,1,0.006167687491222819,0.006721308563413556,-0.015045812055671922,0.008886016406957319,0.985072460611643
2016-02-05,1,0.004974238851330203,0.005281480104343906,-0.009692483963133297,0.0076445385504593285,0.9866582163040353
2016-02-09,1,0.004757099476803198,0.005100108397990753,-0.009692483963133297,0.008886016406957319,0.9838840393472537
2016-02-11,1,0.0035447733401644623,0.003723757206374144,-0.008266259182900804,0.010717329983953753,0.9821878401787428
2016-02-16,1,0.004731804988533785,0.005027013332384348,-0.01597876471796124,0.005985200726076608,0.9824364229415025
2016-02-18,1,0.004351094879698702,0.004585306161868727,-0.008702730109257846,0.005985200726076608,0.9836069130307321
2016-02-22,1,0.0035587417916684736,0.003639656444131428,-0.008702730109257846,0.008886016406957319,0.9838942440758152
2016-02-24,1,0.0027847610809181443,0.0028554329938172596,-0.008702730109257846,0.009753342927271418,0.9837945267104713
2016-02-26,1,0.002035707215622822,0.0022006027754359328,-0.005077058775778004,0.011667037677703624,0.9823149325133802
2016-03-01,1,0.003364720915523435,0.0034625830417653663,-0.008188099246470714,0.016998008669903343,0.9785557736227917
2016-03-03,1,0.0018045134016955037,0.0018803406047232206,-0.006923108201895223,0.016998008669903343,0.9798546497164417
2016-03-07,1,0.0023470203723193034,0.0023685061533472353,-0.008629264666640478,0.022866032393808106,0.9773660529256266
2016-03-09,1,0.0012511633589669816,0.0013762689921200224,-0.013815443697523879,0.016698025446336993,0.9795855632472338
2016-03-11,1,0.002402398538375818,0.0024341584041919547,-0.008629264666640478,0.016698025446336993,0.9809614378533517
2016-03-15,1,0.0011809352959210077,0.001295708667074392,-0.006011825961723984,0.01994990163037874,0.9812714725333577
2016-03-17,1,0.00255593638134097,0.0026748463272436027,-0.008629264666640478,0.015825976266382654,0.9807685060717009
2016-03-21,1,0.002715503864644786,0.002828039398584159,-0.008629264666640478,0.015825976266382654,0.9806120714407385
2016-03-23,1,0.0033530350313868557,0.003553137708605995,-0.012547540750784684,0.01389581410166012,0.9802004702608541
2016-03-28,1,0.004593279778999845,0.004934739389500013,-0.012547540750784684,0.01389581410166012,0.9804902492835517
2016-03-30,1,0.00779002550862496,0.008686792072606999,-0.008752567617058211,0.011181284409753507,0.9836741203606472
2016-04-01,1,0.006421171621334095,0.007061343201888803,-0.013916263221417419,0.011181284409753507,0.9833688473321603
2016-04-05,1,0.00538694360761868,0.0058404712020083864,-0.009405036010413585,0.011181284409753507,0.9816961908721856
2016-04-07,1,0.00379609784601797,0.004087866236839845,-0.009405036010413585,0.011181284409753507,0.9818517660978896
2016-04-11,1,0.00471537487374739,0.005132223135683794,-0.010622812734845716,0.010351495350469852,0.982741663705959
2016-04-13,1,0.004420604188534552,0.004741156959195494,-0.010622812734845716,0.010053222110715482,0.9837778899290205
2016-04-15,1,0.004080706164716947,0.004377770886349759,-0.00970975608452135,0.0060131801961490795,0.9843930550806426
2016-04-19,1,0.0038540219597708748,0.004152516777371386,-0.010622812734845716,0.006936225013111796,0.9838712280484768
2016-04-21,1,0.0033628199916845847,0.003570156952048027,-0.01162162635422525,0.006936225013111796,0.9821634562687808
2016-04-25,1,0.004883779783238831,0.0053156017404067425,-0.01162162635422525,0.006129313691679416,0.9831157482686893
2016-04-27,1,0.004195688926310534,0.004480703868253049,-0.01162162635422525,0.010312536748019154,0.9823566525254259
2016-04-29,1,0.0033650087527718193,0.0035556283274990243,-0.010516692995864082,0.011880231905969423,0.9814761342964441
2016-05-03,1,0.005695727993548538,0.006098042191363605,-0.010516692995864082,0.013981132076552737,0.9844131267543506
2016-05-05,1,0.0035243415450997113,0.003561296709657773,-0.009401395385144829,0.015470089760520599,0.9851938496072824
2016-05-09,1,0.002178666349111566,0.0023501613338839933,-0.006260050296598034,0.01927938580031638,0.984932302917575
2016-05-11,1,0.0031527793042652177,0.003193440256718579,-0.009401395385144829,0.02100837009231552,0.9832689284953096
2016-05-13,1,0.002470048396291804,0.002510346778424687,-0.014475731793363431,0.02100837009231552,0.9810150067557107
2016-05-17,1,0.0019484326749855138,0.002011492536193882,-0.010109547166758466,0.02100837009231552,0.9816534111616962
2016-05-19,1,0.0005741078072587725,0.00079735361359559,0.00011420681912523633,0.02100837009231552,0.983697125042061
2016-05-23,1,0.0009874554205443278,0.0011634451781771826,-0.010109547166758466,0.02234059982877174,0.9823929025421001
2016-05-25,1,0.0016237650336144442,0.0017612082164754767,-0.013594704269898297,0.02100837009231552,0.9827210638037642
2016-05-27,1,0.0022135629361230615,0.0022848190978478405,-0.020992047680672102,0.01927938580031638,0.9817126456292767
2016-06-01,1,0.0030848742734855593,0.003092281488990525,-0.020992047680672102,0.019028023192820716,0.9813173294346341
2016-06-03,1,0.0026492256439844594,0.002746175264179943,-0.022741318255647774,0.020254282269828536,0.9803687732338521
2016-06-07,1,0.0023176015526498598,0.002529569570642469,-0.022741318255647774,0.013947463509811986,0.9804949804098967
2016-06-09,1,0.0014960823971918982,0.0018426876652838072,-0.022741318255647774,0.013947463509811986,0.9813198392150969
2016-06-13,-1,-0.001063179174360817,-0.00040288713202997375,-0.015184421541885514,0.020648030037037385,0.9824034162784464
2016-06-15,0,-1.966732540279034e-05,0.0004590053511937058,-0.015184421541885514,0.020648030037037385,0.982857322101508
2016-06-17,1,0.00019711364332488323,0.0006373363540975161,-0.015184421541885514,0.020648030037037385,0.9826359087959543
2016-06-21,0,-0.0005971572086820162,9.331138298254585e-06,-0.012873679932018513,0.013244124878602798,0.9846180044533016
2016-06-23,1,0.0005683076869159259,0.0008711772788998049,-0.012873679932018513,0.019014227628179545,0.9843236762371854
2016-06-27,1,0.0006803054703049744,0.0007914409586165698,-0.005445030849690172,0.020648030037037385,0.9835912481052032
2016-06-29,1,0.0024991635673764652,0.0025944458613587768,-0.012850854778467265,0.01301682141769866,0.9820398272408944
2016-07-01,1,0.0019589451307343913,0.0019628773087898297,-0.005445030849690172,0.012973439663641763,0.9832738519076973
2016-07-06,1,0.00044019048855170346,0.0006819209517893546,-0.005445030849690172,0.018656778905104712,0.97870623606187
2016-07-08,1,0.0021484303707421932,0.0022001727747939766,-0.005445030849690172,0.018656778905104712,0.9788889820204555
2016-07-12,1,0.003009465951728224,0.0031648275417275667,-0.006929002213303498,0.018656778905104712,0.9788605427293005
2016-07-14,1,0.003016665873836401,0.0031493201946506447,-0.008740542307213278,0.018656778905104712,0.9782194511046184
2016-07-18,1,0.002381552740734649,0.0024188951806570448,-0.005744502309858323,0.023255941926628367,0.974141861945436
2016-07-20,1,0.0019659321628280753,0.0020405510240409028,-0.009297355068131738,0.023255941926628367,0.971343820998351
2016-07-22,1,0.0019441705592868606,0.002015438658214183,-0.008693204414675254,0.023255941926628367,0.9718695405710728
2016-07-26,1,0.002695855607127186,0.002779597072030508,-0.005744502309858323,0.019491016063205538,0.9757727420128617
2016-07-28,-1,-0.0005496605367012273,-9.173477646963013e-05,-0.005744502309858323,0.019491016063205538,0.9788348154968987
2016-08-01,0,-0.000438701647840177,6.515036849954504e-05,-0.006278314927303846,0.018047545712142878,0.9795438134210392
2016-08-03,-1,-0.0019424623527135236,-0.0013102557116909405,-0.006278314927303846,0.012035363145875768,0.9843778858750496
2016-08-05,-1,-0.00215853924590355,-0.0014349154723068075,-0.006278314927303846,0.01209336427059763,0.983308258268644
2016-08-09,-1,-0.0010300134238553755,-0.00047900696723215757,-0.006278314927303846,0.01209336427059763,0.9826191162109664
2016-08-11,-1,-0.000647041857561374,-0.00016244016639440522,-0.009469399837254968,0.010503561230642444,0.9808700382105638
2016-08-15,1,0.003934051077938449,0.004019744568645611,-0.009469399837254968,0.007710283788452366,0.9834707510083971
2016-08-17,1,0.002540587396638776,0.00254473911303784,-0.006569873325983048,0.011723936561133689,0.9851812531205579
2016-08-19,1,0.003467581519873475,0.0037369005191863498,-0.0034817082422130105,0.013671142505915864,0.9853543547063022
2016-08-23,1,0.0029572222326294403,0.0031215608588470163,-0.006452581602650415,0.018129398123375343,0.9834490157840807
2016-08-25,1,0.0017620936809849125,0.0017926396539585103,-0.006452581602650415,0.018129398123375343,0.9834358323783057
2016-08-29,1,0.0005822493815653214,0.0008325071380357041,-0.008370400828487013,0.018129398123375343,0.9829409009511814
2016-08-31,1,0.0005388692383220482,0.0007384338426143102,-0.008370400828487013,0.018129398123375343,0.9818661670545521
2016-09-02,1,0.0022891877874209182,0.002315300182262025,-0.008370400828487013,0.015975542730113538,0.9829753373405986
2016-09-07,1,0.0035508871589495154,0.0037091187569755005,-0.008370400828487013,0.015975542730113538,0.9844435179443052
2016-09-09,1,0.0005160908336399162,0.0007593379761969367,-0.00473707145416653,0.015975542730113538,0.9857838561358201
2016-09-13,1,0.0010806183700125824,0.0012723153100249974,-0.00926453574626633,0.014859719721397081,0.9830738449234465
2016-09-15,1,0.003443676023006868,0.0036282948235327435,-0.012563461776815376,0.012066391891504248,0.9839356943847098
2016-09-19,1,0.0039960563006690465,0.0042406099747248,-0.012563461776815376,0.009386530838104323,0.9846011717740795
2016-09-21,1,0.004216873533952167,0.004419899533200651,-0.012563461776815376,0.009386530838104323,0.9862170355785951
2016-09-23,1,0.00588547823040283,0.006526828822713384,-0.0013364255158913418,0.009386530838104323,0.987680731271279
2016-09-27,1,0.004704673394779422,0.005085704019647964,-0.0016885879805980564,0.010146538262232382,0.9867949705030092
2016-09-29,1,0.00381357576635547,0.0040284498409799245,-0.0016885879805980564,0.007636601328741123,0.9843507393099106
2016-10-03,1,0.004437217950931276,0.0047314236532632606,-0.01643981849735569,0.007275585619566463,0.9820768154590321
2016-10-05,1,0.004779264982535784,0.005068038962428483,-0.01643981849735569,0.007275585619566463,0.9817280472031963
2016-10-07,1,0.0033219089360566187,0.003357129652774324,-0.016768504635320258,0.007636601328741123,0.9808236594003018
2016-10-11,-1,-0.0013014033734296752,-0.0007001722721613527,-0.011989685152813295,0.012335014528124202,0.9804412258522809
2016-10-13,-1,-0.0017655749196605266,-0.001163268255060866,-0.013564938902554727,0.012335014528124202,0.9803590944850601
2016-10-17,-1,-0.0007275205156439632,-0.00031070736655871753,-0.013564938902554727,0.014446849464782432,0.9781258483015535
2016-10-19,1,0.0005166613629767822,0.0007429754957025787,-0.013564938902554727,0.01698659971987946,0.9774174329246696
2016-10-21,1,0.0019157818923749613,0.0019482374116964827,-0.013564938902554727,0.01939127370097889,0.9769068383658488
2016-10-25,1,0.0022489553759725625,0.002338156813246143,-0.013431928883349965,0.015066551801273056,0.9781211665381344
2016-10-27,-1,-0.00021557243152596977,-5.5998825040657946e-05,-0.011589314801237602,0.015066551801273056,0.9805495958674184
2016-10-31,-1,-0.002710046941022542,-0.0022612925812721665,-0.007907726577018888,0.015066551801273056,0.982952858759218
2016-11-02,-1,-0.004215370941031114,-0.0034679332735249235,-0.013431928883349965,0.015066551801273056,0.9794726365456596
2016-11-04,-1,-0.004541471351857031,-0.0037887086949334545,-0.008432811160266031,0.019658833246884,0.9790470672316374
2016-11-08,-1,-0.0011631423714135497,-0.0008244836911350899,-0.013431928883349965,0.014046752534339402,0.9825221315594453
2016-11-10,-1,-0.0023825389181058284,-0.0019235316047265154,-0.008700171492636962,0.015066551801273056,0.9815852643981088
2016-11-14,-1,-0.00032263377283116474,-6.801491306794919e-05,-0.011484288652623471,0.011405983136813933,0.9840454115754029
2016-11-16,-1,-0.0006756637130892903,-0.00021992520406219655,-0.011484288652623471,0.012038794561419677,0.9842072031228943
2016-11-18,1,0.0017691416412725907,0.001824763419819323,-0.011484288652623471,0.00989398345001203,0.9839145280457459
2016-11-22,1,0.001002025264285587,0.0011523420831023791,-0.011677579149307326,0.010003165800913377,0.9838324198523555
2016-11-25,1,0.0003138474946013936,0.0005858801305700608,-0.011677579149307326,0.010003165800913377,0.9841536900399417
2016-11-29,1,0.0006193583335648887,0.0008151940887529782,-0.015564671860730647,0.014982710045445444,0.9817306462396695
2016-12-01,-1,-0.0029513335263134533,-0.0024049872085505786,-0.011677579149307326,0.014982710045445444,0.985476788489341
2016-12-05,-1,-0.00117237922080349,-0.0008511792902358673,-0.015564671860730647,0.014982710045445444,0.9839506797789207
2016-12-07,-1,-0.00238548621055921,-0.0018866183044758682,-0.015882766326186935,0.014982710045445444,0.9820759318894476
2016-12-09,-1,-0.002251688708636651,-0.0017674881942390068,-0.013569073431845328,0.009398655980729786,0.9838853807211946
2016-12-13,-1,-0.0031842506040505696,-0.0025954749456188636,-0.015882766326186935,0.014982710045445444,0.9804774932582269
2016-12-15,0,-4.284929107044159e-05,6.510274496286016e-05,-0.015882766326186935,0.010336619777469504,0.9795372063453623
2016-12-19,-1,-0.0016668541575358717,-0.0011937448007808727,-0.015882766326186935,0.010336619777469504,0.9794535548135543
2016-12-21,-1,-0.001477812318232642,-0.0010814529439371699,-0.014444667890834083,0.010336619777469504,0.9802278869378082
2016-12-23,-1,-0.0029985777856267365,-0.002306833350834815,-0.014444667890834083,0.015193879182361007,0.9778475175341664
2016-12-28,-1,-0.0036914847108837144,-0.0029590648466369545,-0.009489598314729472,0.020671178896752608,0.9781253283928631
2016-12-30,-1,-0.0038843858194547312,-0.0031741377589670277,-0.009489598314729472,0.030281303996914352,0.9769742697666878
2017-01-04,-1,-0.005647132091513156,-0.004749107651509663,-0.006604698707169324,0.030281303996914352,0.9797764394028695
2017-01-06,-1,-0.005394384546658958,-0.004777398440778513,-0.0032913690587345855,0.030281303996914352,0.9815687717895782
2017-01-10,-1,-0.006762295794394885,-0.00587837257695125,-0.0032913690587345855,0.030281303996914352,0.9785178914106288
2017-01-12,-1,-0.007301978404777493,-0.006355666830664242,-0.0022134406647429513,0.030281303996914352,0.9778075256532784
2017-01-17,-1,-0.005019002324667951,-0.004341034113737359,-0.0022134406647429513,0.030281303996914352,0.9784126588115521
2017-01-19,-1,-0.00420811672655814,-0.0035896812081426394,-0.0009900529805305694,0.025548671271234596,0.980146377145272
2017-01-23,-1,-0.00447975464722972,-0.0038313054991205003,-0.00028227091146645455,0.025548671271234596,0.9786491784187046
2017-01-25,-1,-0.0022352146139325655,-0.0018202851230363674,-0.0033737107280893313,0.022806704242774214,0.9802923535515284
2017-01-27,1,0.0003002236194675926,0.0003329128016843126,-0.016254034499060432,0.022393806206382812,0.9793399185962277
2017-01-31,1,0.0019511651903141528,0.0022449170336515667,-0.020459011351651617,0.017823652669542816,0.9793908561197564
2017-02-02,1,0.0004282034602238344,0.000478780884201151,-0.020459011351651617,0.022393806206382812,0.9782463383617905
2017-02-06,1,0.000964725997869209,0.0010325415749814766,-0.020459011351651617,0.022393806206382812,0.9781997986902567
2017-02-08,1,0.0013296805994228449,0.0015459208429803393,-0.015444940123151429,0.022806704242774214,0.9787506937431887
2017-02-10,1,0.004735815636315326,0.00545531480683742,-0.020459011351651617,0.010330587250557747,0.9780948501374888
2017-02-14,1,0.0076865305419905085,0.008858014678987721,-0.02239820653686199,0.002708876877329119,0.9764810155021031
2017-02-16,1,0.007275816584998095,0.008352164444750992,-0.02239820653686199,0.017224246586494282,0.9756760735185096
2017-02-21,1,0.007982263891390607,0.009141630163968326,-0.02835369019591511,0.005513696212813895,0.9729597742623437
2017-02-23,1,0.005462433513682306,0.006270196933465465,-0.0214497967418955,0.021724396683986538,0.9765208001143529
2017-02-27,1,0.0033313720646429446,0.003902995019247466,-0.009169093782465729,0.027181996297742615,0.9786873237731051
2017-03-01,1,0.0023653774457494383,0.002872955896303455,-0.009169093782465729,0.027181996297742615,0.9787667605179116
2017-03-03,1,0.0030094522563835196,0.003567163917545614,-0.015821234499269473,0.021724396683986538,0.9789993252142677
2017-03-07,1,0.0010339201842283602,0.0011619622673604947,-0.022362608365441218,0.021724396683986538,0.9776280822078768
2017-03-09,1,0.0013753117611389385,0.0015143246498869178,-0.024722348193168403,0.01969987133353971,0.9769255287797046
2017-03-13,-1,-0.0009586441780116052,-0.0008288014443187465,-0.022362608365441218,0.01969987133353971,0.9792149614677861
2017-03-15,-1,-2.997134391692543e-05,-5.2677254979168175e-06,-0.017703843369958512,0.014574303960799135,0.9806361510719119
2017-03-17,1,0.0022472960869369795,0.0025986373598374775,-0.017703843369958512,0.01157514543853027,0.9822845990981032
2017-03-21,1,0.0008815374410616622,0.0010761795389938988,-0.017703843369958512,0.01157514543853027,0.9827701239212452
2017-03-23,1,0.0005795220027005092,0.000583918934563126,-0.017703843369958512,0.01157514543853027,0.983176374783947
2017-03-27,1,0.001120904723910748,0.001184670531065559,-0.017703843369958512,0.011140889623402851,0.9845286651614943
2017-03-29,0,-0.00014608431910535986,7.015122100955166e-05,-0.017703843369958512,0.007458784888023732,0.98208794408398
2017-03-31,-1,-0.001540772164036166,-0.001124060873648632,-0.018418399477598102,0.011717488761873972,0.980693909634142
2017-04-04,-1,-0.0015616929809198546,-0.00128609403704832,-0.021935954457108185,0.011717488761873972,0.9790556612699498
2017-04-06,-1,-0.0032953958361662036,-0.0027509365441702365,-0.021935954457108185,0.011717488761873972,0.9799944923569138
2017-04-10,-1,-0.0023433293081506525,-0.0020334694630579626,-0.021935954457108185,0.01613089581841655,0.9743885215904489
2017-04-12,-1,-0.002257364627683455,-0.002039066934615916,-0.021935954457108185,0.01613089581841655,0.9750610207655944
2017-04-17,-1,-0.0007556758017898031,-0.0007418380440143073,-0.021935954457108185,0.014002556761099301,0.9750712985744648
2017-04-19,-1,-0.0021185555425066046,-0.001954735970643631,-0.021935954457108185,0.01646064557142045,0.9723669907615119
2017-04-21,-1,-0.00120792064352039,-0.0011574887747486903,-0.021935954457108185,0.014418578925627985,0.9726961591110043
2017-04-25,-1,-0.00020100531577074335,-0.00012170324711371442,-0.021935954457108185,0.02005955444962839,0.9705186238617453
2017-04-27,-1,-0.005556434321002988,-0.004826719455265332,-0.02182874056481605,0.02005955444962839,0.9732458507965729
2017-05-01,-1,-0.004408606888158359,-0.0038846161282281846,-0.019938796185461304,0.016124381145100293,0.9749624338831581
2017-05-03,-1,-0.007382345902674016,-0.006488423109212554,-0.0179755517387077,0.02005955444962839,0.9732890661960578
2017-05-05,-1,-0.00724257799804812,-0.0063828900344809645,-0.011881463594799942,0.02005955444962839,0.9747622358253885
2017-05-09,-1,-0.0030347735981579166,-0.0026343327157068775,-0.011881463594799942,0.01578910353272813,0.9790906233427001
2017-05-11,-1,-0.0026797452606754637,-0.0023945453550716185,-0.0179755517387077,0.01725539351256305,0.9776648876589803
2017-05-15,-1,-0.0028506239368505147,-0.0025720959302622535,-0.011980813489473743,0.01725539351256305,0.9777569762983546
2017-05-17,-1,-0.004214663786699477,-0.003767752914371125,-0.011980813489473743,0.01578910353272813,0.981416104334038
2017-05-19,-1,-0.0034907801585880053,-0.003136246407379411,-0.011980813489473743,0.01578910353272813,0.9817701502863836
2017-05-23,-1,-0.001086443889798448,-0.0009773326560209464,-0.011980813489473743,0.006290021653751628,0.9844829621170784
2017-05-25,-1,-0.0016540335896548328,-0.001457398065263364,-0.010062176389712768,0.013095184465596574,0.982609292089872
2017-05-30,-1,-0.0036974284529771063,-0.0031874240427420377,-0.010062176389712768,0.018756222761325308,0.9762616680299175
2017-06-01,-1,-0.0031052489762424607,-0.0025466694568173657,-0.010062176389712768,0.018172089643376552,0.978813816678075
2017-06-05,-1,-0.003822958088285048,-0.0031581794027456585,-0.010803274131907448,0.018172089643376552,0.9784378492497499
2017-06-07,-1,-0.003208677134909215,-0.002586014321762452,-0.011780661108316815,0.013095184465596574,0.9797268244010875
2017-06-09,-1,-0.0023315475948459848,-0.0019016700942096362,-0.010487321943189689,0.013632412050934134,0.979094898109783
2017-06-13,-1,-0.0017505697703810701,-0.0014354032588018916,-0.00968253957903134,0.0110738956265214,0.979579289197416
2017-06-15,-1,-0.002836451344679627,-0.0023811620239353676,-0.008633100746732956,0.0110738956265214,0.9796078899946493
2017-06-19,-1,-0.001292531414479249,-0.001125662775981007,-0.008633100746732956,0.0110738956265214,0.9798328176673826
2017-06-21,-1,-0.0011173560947618387,-0.0010358743715973952,-0.004723887238134452,0.014979426531812874,0.9798362732220651
2017-06-23,1,0.0019300820945404031,0.00227637822591587,-0.004723887238134452,0.009472447003995948,0.9828051555480103
2017-06-27,1,0.0031703372101744677,0.0036730899171093182,-0.005800587416007421,0.008121004486832423,0.9895518976535833
2017-06-29,1,0.003019940054731556,0.0035063782684048345,-0.005800587416007421,0.0071245868788043665,0.9902643755869741
2017-07-03,1,0.002617089457402815,0.003025213262121896,-0.004723887238134452,0.006980961055978965,0.9909640437740913
2017-07-06,1,0.003451588111276524,0.0041325383227329695,-0.0028655239951169966,0.008121004486832423,0.9887369982483517
2017-07-10,1,0.006154468688438469,0.007327630573541076,-0.0056350897707343845,0.008121004486832423,0.9877660744419043
2017-07-12,1,0.006466579902829432,0.007686567635549039,-0.009316824957034096,0.006980961055978965,0.9861450944125151
2017-07-14,1,0.0074525684054663624,0.00885879100329946,-0.01166938385736024,0.0053313850196223065,0.9834477550449151
2017-07-18,1,0.0062435755122439915,0.007362747606500787,-0.015980609484059,0.007956268208142693,0.982851023055332
2017-07-20,1,0.005428481608850777,0.006304994144465283,-0.016989438900405454,0.007363307208472508,0.9818138607797409
2017-07-24,1,0.005684880778200848,0.006509215707633659,-0.016989438900405454,0.0037260602961268685,0.9811261960505916
2017-07-26,1,0.005281120483062506,0.006093527280184342,-0.019118886743698132,0.006088234662170738,0.9772235897493339
2017-07-28,1,0.004426284561695827,0.005098723354675086,-0.017971238021721625,0.01022681713578799,0.9771422000154599
2017-08-01,1,0.004785727896556636,0.005539038261148859,-0.017971238021721625,0.01022681713578799,0.9769673936053436
2017-08-03,1,0.0020519569260751564,0.0023135216132182277,-0.016989438900405454,0.010660696635990057,0.9801950500566047
2017-08-07,1,0.0025316328397218717,0.002872199872785088,-0.017538228021470717,0.004744359772102467,0.9810261685655423
2017-08-09,1,0.002594459797838612,0.003052440380488523,-0.016512062020034877,0.004974874556689143,0.9818408291989541
2017-08-11,1,0.0008112086137817417,0.0009494432375207024,-0.012962155112830897,0.00922482638316103,0.9831297495550295
2017-08-15,1,0.0017677732545485925,0.002092717351547343,-0.011526879505889402,0.00922482638316103,0.9846542195180973
2017-08-17,1,0.00196362394788409,0.0024197927814043865,-0.011448205193172085,0.004838531305703552,0.9858999670091715
2017-08-21,1,0.0010334352282028994,0.001319311452503066,-0.008246112399178902,0.00901637111838106,0.9862650017236975
2017-08-23,0,-7.456578013667392e-05,3.1546658619406706e-05,-0.011831109731358662,0.004814493967772093,0.9892552410681179
2017-08-25,-1,-0.0008122933503370362,-0.0007515637887418801,-0.011831109731358662,0.0037542388446448875,0.9895400689055367
2017-08-29,-1,-0.0011917875103165628,-0.0010512152277275667,-0.011831109731358662,0.00901637111838106,0.9871446683411479
2017-08-31,-1,-0.0011732409884603323,-0.0010141291938380356,-0.011831109731358662,0.00901637111838106,0.9875094248940046
2017-09-05,-1,-0.002662569914334335,-0.002274980469707334,-0.0088296887417056,0.009203149553017782,0.9864458327687488
2017-09-07,-1,-0.0025572822519283134,-0.0022161829677956064,-0.007271863506866986,0.009203149553017782,0.9868635772186527
2017-09-11,-1,-0.003125489150842934,-0.0026626406218833174,-0.007271863506866986,0.009131037539223405,0.9868857329773724
2017-09-13,-1,-0.002169947138102868,-0.0018534145104229884,-0.0088296887417056,0.006854215705807889,0.9870570138363011
2017-09-15,-1,-0.0020785822959985,-0.0018166014565056082,-0.009202402038847944,0.006854215705807889,0.9869441269420041
2017-09-19,-1,-0.0038680955546306745,-0.0032460163713087815,-0.009202402038847944,0.0061810663027900645,0.9872732674795093
2017-09-21,-1,-0.0057884483927214785,-0.004951627927988896,-0.007611683885572399,0.00711158933016993,0.9886853463543746
2017-09-25,-1,-0.008458952147945637,-0.007181313102954452,-0.007001494522864824,0.007911957022960273,0.9883866447912444
2017-09-27,-1,-0.006770497067637587,-0.005671417813889379,-0.007611683885572399,0.0061810663027900645,0.9919859380210189
2017-09-29,-1,-0.004362149953715038,-0.003735868502195259,-0.007611683885572399,0.0061810663027900645,0.9914711160529016
2017-10-03,-1,-0.0038406380403453863,-0.003243613505744956,-0.007204153445943033,0.004988830672003101,0.9931066868845341
2017-10-05,-1,-0.004801665157034752,-0.004058956882468031,-0.008044188249639808,0.004988830672003101,0.9871445743712483
2017-10-09,-1,-0.005355544211277452,-0.004475453397722599,-0.010185993718042909,0.0021758038265975474,0.9874467502162821
2017-10-11,-1,-0.00543618761270322,-0.004592149595064947,-0.010185993718042909,0.005028387293865847,0.980673829660676
2017-10-13,-1,-0.0043823938348374735,-0.0037916662954000603,-0.00798591960957701,0.006566525399308415,0.9800259238968921
