JNU-Tangyin/eata/results/Batch4_SP500/Batch4_SP500-BXP.csv
Date,Action,Predicted_Q25,Predicted_Q75,Actual_Q25,Actual_Q75,RL_Reward
2010-12-14,0,0.0,0.0,-0.004522330117736465,0.010475728658355,0.9905174021916691
2010-12-16,-1,-0.0014800166348228946,-0.0012493980822101609,-0.003301028958827911,0.012884073284199785,0.9885078365682355
2010-12-20,0,0.0,0.0,-0.004522330117736465,0.010359090955778534,0.9889185483935692
2010-12-22,0,-2.272480288469702e-06,2.0755863842972672e-05,-0.004522330117736465,0.009607498714615772,0.9893645893533252
2010-12-27,1,0.0010190928116489252,0.0011587656577906615,-0.004522330117736465,0.008299920372105415,0.98978976528406
2010-12-29,1,0.000630521851545613,0.0007004434276432262,-0.0034500450463281255,0.011895154120872806,0.9888498505010215
2010-12-31,1,0.00038592350758445443,0.00041486038816754224,-0.004829704642129337,0.01306847194432125,0.9876469843785834
2011-01-04,-1,-0.0005514563534812089,-0.0003772007068377375,-0.004468834001408831,0.011895154120872806,0.9902045196832401
2011-01-06,-1,-0.0011250709603817521,-0.0008765190300361565,-0.004468834001408831,0.011895154120872806,0.9904585945751366
2011-01-10,-1,-0.001071615939224072,-0.0008818541601677474,-0.0011368842906806717,0.012920629538362028,0.9901095189364012
2011-01-12,0,0.0,0.0,-0.0019084648467702302,0.011895154120872806,0.9911637980311961
2011-01-14,0,0.0,0.0,-0.004260974039073883,0.009062472174191092,0.9923197240878114
2011-01-19,0,0.0,0.0,-0.00300231976851861,0.006951435940900544,0.9932621127017256
2011-01-21,0,0.0,0.0,-0.004260974039073883,0.006951435940900544,0.9930115493864915
2011-01-25,0,0.0,0.0,-0.006471021425252157,0.00621248631688358,0.9925021065828702
2011-01-27,0,0.0,0.0,-0.006471021425252157,0.005693499353243227,0.9928479844795293
2011-01-31,1,0.0011181975261086205,0.0014304042665784554,-0.006471021425252157,0.005693499353243227,0.9919520832830342
2011-02-02,1,0.0015072618675901193,0.0017658588909181452,-0.006945559733781947,0.00621248631688358,0.9913110171049847
2011-02-04,1,0.0010016033944257275,0.0012539231227244084,-0.008076833777424366,0.005803858783524058,0.9909967952517859
2011-02-08,1,0.0013911908063184812,0.0017023058020323874,-0.008076833777424366,0.005803858783524058,0.9910816275800692
2011-02-10,1,0.0018300798474968813,0.002230663549650859,-0.01029372515149445,0.00695659241375741,0.9894889223060978
2011-02-14,1,0.0015119982602753176,0.0018208222253324586,-0.010476170052095925,0.006597711519199981,0.9892537490593418
2011-02-16,1,0.0012986442907064986,0.0015465700500713901,-0.01116976276539932,0.011822350260021952,0.9880531508080389
2011-02-18,0,0.0,0.0,-0.01116976276539932,0.011822350260021952,0.9883438600733256
2011-02-23,1,0.0007579977782656604,0.0007905873055003969,-0.012826906011743536,0.011822350260021952,0.9885064767727482
2011-02-25,1,0.00085667000832445,0.0009495227249159449,-0.012826906011743536,0.011822350260021952,0.9885491252645617
2011-03-01,0,0.0,0.0,-0.010879232651301512,0.009836269902599068,0.9905673223912212
2011-03-03,0,0.0,0.0,-0.006345415007571231,0.009469393068765517,0.9910788870848669
2011-03-07,-1,-0.00034315629578071086,-0.00014464577595087375,-0.0016327145084935556,0.010053868627158822,0.9910599554595783
2011-03-09,0,0.0,0.0,-0.0033762678928947005,0.009469393068765517,0.9912420173879668
2011-03-11,1,0.00039943056650989074,0.0005476573383280771,-0.008222312870591083,0.0058931735992857875,0.9921889516847242
2011-03-15,1,0.00020062943181715307,0.00035649484653030116,-0.004526450250092491,0.009217436854281608,0.9922684419549685
2011-03-17,1,0.0019657325890625847,0.0022669153111226892,-0.003617482740466017,0.009217436854281608,0.9928265659933151
2011-03-21,1,0.0021140982689948394,0.0024153325100336022,-0.004932737871642712,0.009289969762468191,0.9922392040696059
2011-03-23,1,0.0004252927089896858,0.00045369323644429786,-0.003617482740466017,0.009735393722229528,0.9919503743488215
2011-03-25,0,0.0,0.0,-0.003617482740466017,0.009735393722229528,0.991777671747516
2011-03-29,0,0.0,0.0,-0.003617482740466017,0.009735393722229528,0.9912947135945643
2011-03-31,0,0.0,0.0,-0.003617482740466017,0.010721534229046568,0.990725185366069
2011-04-04,1,0.0010191938805415766,0.0011242536233550616,-0.00404624140921746,0.009453823501476857,0.9914568027240354
2011-04-06,1,0.0005820513572959904,0.0006160545615723705,-0.003617482740466017,0.009453823501476857,0.991327513701481
2011-04-08,-1,-0.000511847910419614,-0.00038966617327045207,-0.00316694210987777,0.009453823501476857,0.9914316060965669
2011-04-12,-1,-0.0006807688707263543,-0.0005173128999501049,-0.003302371317061177,0.010721534229046568,0.9906389654547073
2011-04-14,1,0.0006794471488602349,0.0006809285759660543,-0.004329014018185355,0.009453823501476857,0.9912514006612563
2011-04-18,1,5.898526404099811e-05,0.0001501243297607355,-0.0033248423642623986,0.009453823501476857,0.991467310970211
2011-04-20,1,0.0008681737627006553,0.0008717447633094174,-0.0033248423642623986,0.01009639122017757,0.9916121022245793
2011-04-25,1,0.0013576912627613472,0.0014145002898405391,-0.005794858498910934,0.007790840609254526,0.9912267182386234
2011-04-27,1,0.00231498221422638,0.0025407947569592968,-0.005794858498910934,0.0074294200654208015,0.9913762200421836
2011-04-29,1,0.003124305133990061,0.003456805242810843,-0.005794858498910934,0.007212122666366932,0.9915642148427298
2011-05-03,1,0.002198520898478498,0.0023510703524461402,-0.008558825074138321,0.009140619150369143,0.9896855994894443
2011-05-05,1,0.0018577266386465825,0.0019239214490654648,-0.008558825074138321,0.009140619150369143,0.989707266365552
2011-05-09,1,0.0016250106845794661,0.001630147585065747,-0.009484425126231613,0.012414133088508191,0.9891974435699765
2011-05-11,1,0.0012300653883947335,0.0012940909249905131,-0.009484425126231613,0.009128373385290154,0.9899000805837725
2011-05-13,1,0.0009156097516037418,0.0009637166786110625,-0.010119847326219062,0.009128373385290154,0.9896000845217255
2011-05-17,1,0.001528577721356447,0.0015932281183742973,-0.012085980312158262,0.009128373385290154,0.9886597141633445
2011-05-19,1,0.0021565513676052414,0.002311843768025656,-0.012085980312158262,0.011787466668429048,0.9881286560511378
2011-05-23,1,0.0009366150501114113,0.0009574113994969295,-0.0065159306832203966,0.012990544802663739,0.9883438203197525
2011-05-25,1,0.0010323005142648955,0.001053293748244141,-0.012085980312158262,0.012990544802663739,0.9873630887984536
2011-05-27,1,0.0016828064449584718,0.0017451981624675389,-0.012085980312158262,0.01223700817647177,0.9871648492939954
2011-06-01,1,0.0005713542608473078,0.000665726835103389,-0.010683770942008999,0.01223700817647177,0.9889277510700388
2011-06-03,1,0.00020294667333037135,0.0003704339748821751,-0.010683770942008999,0.012681079901630359,0.988274893460586
2011-06-07,1,0.00048623365979442193,0.0005898061556298105,-0.002986827768061492,0.013828122537267215,0.9882840178406754
2011-06-09,1,0.00039675543701139885,0.0004475583683733912,-0.0014262686776226252,0.013828122537267215,0.9881872839611318
2011-06-13,-1,-0.00036716199552899335,-0.00021539824231632862,-0.0014262686776226252,0.013828122537267215,0.9879205879037993
2011-06-15,-1,-0.0005663421518869993,-0.00040791595580737787,-0.004558382880295316,0.01251620075467293,0.9891534612485494
2011-06-17,1,0.00029376004937596594,0.00032765227125790557,-0.0051472274923706355,0.01251620075467293,0.9894875383758688
2011-06-21,1,0.0015199518538722917,0.0016623957499935474,-0.0051472274923706355,0.01251620075467293,0.989494768982542
2011-06-23,1,0.0008493434451989144,0.0009157245201635686,-0.004558382880295316,0.013589020658229593,0.990084204426195
2011-06-27,1,0.0007248603506415641,0.0007405141350133211,-0.004749776939537696,0.013589020658229593,0.9902239752982748
2011-06-29,1,0.0010732701483683951,0.001137211270293775,-0.005355938034283922,0.009326489213217071,0.9894459927343544
2011-07-01,1,0.0018756162975587364,0.002072557315602636,-0.007917359859964637,0.007789596599740025,0.9895325217318415
2011-07-06,1,0.0027004480010458486,0.0030173271371969597,-0.012124586691575498,0.0024170704189935637,0.9886902402736941
2011-07-08,1,0.0020185251955929253,0.002264221460093098,-0.013515688608885173,0.0015634226933623175,0.9865181447621177
2011-07-12,1,0.0021885365315816294,0.0023864936832184774,-0.013515688608885173,0.0015634226933623175,0.9792882493529815
2011-07-14,1,0.0022642576894312265,0.0024110804057121495,-0.014964732271459684,0.004992236224603779,0.97687056051354
2011-07-18,1,0.0015643686417122966,0.0015799055940154704,-0.014964732271459684,0.005382794578800799,0.9768537067681659
2011-07-20,1,0.0022322851999027147,0.002349621145232075,-0.014964732271459684,0.004138791325316306,0.9774058648705148
2011-07-22,1,0.0023381333835919304,0.002475306750352696,-0.01712595890630034,0.0015634226933623175,0.975436454338098
2011-07-26,1,0.001750653279671561,0.0018098513748635017,-0.01712595890630034,0.004138791325316306,0.9752193273304582
2011-07-28,1,0.00036172533630740876,0.0005101340545750298,-0.015205687110798137,0.008652847169160953,0.9761049886833775
2011-08-01,1,0.00011374205919139995,0.00028459100919026855,-0.015205687110798137,0.013981864082678094,0.9749436911909475
2011-08-03,-1,-0.0009073976740856388,-0.0006218041831641867,-0.014964732271459684,0.013981864082678094,0.9759377193014215
2011-08-05,-1,-0.0034004889462578586,-0.002800703191945435,-0.013204472209584466,0.013981864082678094,0.9774366107459422
2011-08-09,-1,-0.00249602445366855,-0.001987316403328516,-0.011861180504794556,0.013786588770498407,0.9841865968532988
2011-08-11,-1,-0.001085882157523629,-0.0007551189880670617,-0.011861180504794556,0.010477378731508953,0.9856286465373315
2011-08-15,-1,-0.0005843492422197674,-0.0002846011406870901,-0.011861180504794556,0.008652847169160953,0.9866976767181784
2011-08-17,0,-0.00010561531411533345,0.00010857116321102457,-0.011861180504794556,0.00885366065586228,0.985767510766202
2011-08-19,0,0.0,0.0,-0.008902329691287809,0.00885366065586228,0.9866256012811291
2011-08-23,0,0.0,0.0,-0.012643417494224684,0.008111607810612062,0.9858956102706964
2011-08-25,0,0.0,0.0,-0.013147180251541544,0.007999092703155132,0.9857057348598882
2011-08-29,-1,-0.0022735339974239138,-0.0019538453084393145,-0.013147180251541544,0.00542075644506319,0.9875634170194648
2011-08-31,-1,-0.0025087571305322945,-0.002138200591123864,-0.019610607470380417,0.00542075644506319,0.9858724118025802
2011-09-02,0,0.0,0.0,-0.026994759995237018,0.00542075644506319,0.9827169111698447
2011-09-07,-1,-0.002996739830858217,-0.002612430518487482,-0.026994759995237018,0.0029901952281137924,0.9830059124011086
2011-09-09,-1,-0.002636124586959843,-0.002185454340422087,-0.025646146053946463,0.006762131551376171,0.9820914347667409
2011-09-13,-1,-0.002600864703975732,-0.0021957931905006787,-0.025646146053946463,0.011314148660873184,0.9787671960512261
2011-09-15,-1,-0.0011802770447041347,-0.0009781121193748097,-0.025646146053946463,0.007689000710233938,0.9795142417882156
2011-09-19,-1,-0.002165355757623149,-0.0018838443121162135,-0.025275998929295593,0.014094756137446486,0.9786809169975137
2011-09-21,-1,-0.0032297326675738212,-0.002869910396968364,-0.025275998929295593,0.020814989118065258,0.9784290052168354
2011-09-23,-1,-0.004218495357932342,-0.0037358500625865113,-0.020763801344530295,0.021853949762794606,0.9776690274217884
2011-09-27,0,0.0,0.0,-0.022020248102173734,0.021874555710380668,0.9765291375740155
2011-09-29,0,0.0,0.0,-0.019695389658761626,0.023087487425042318,0.975586893038493
2011-10-03,0,0.0,0.0,-0.01397157529642276,0.023087487425042318,0.9790403443124988
2011-10-05,-1,-0.0065360701680018,-0.00580671399246503,-0.018325214136985825,0.023087487425042318,0.9778076517107482
2011-10-07,-1,-0.006084986445646121,-0.005437699890190955,-0.010956367855716747,0.021874555710380668,0.979549290076306
2011-10-11,-1,-0.00424991996991302,-0.0038502073377845816,-0.006580141833451984,0.017131762718090002,0.9824698926527352
2011-10-13,-1,-0.004058219238919543,-0.0036449346132851773,-0.010956367855716747,0.017131762718090002,0.9814464129868793
2011-10-17,0,0.0,0.0,-0.010956367855716747,0.017131762718090002,0.981637078970403
2011-10-19,-1,-0.0032362119047902155,-0.0029724861953359383,-0.009238194227501722,0.012951339197421193,0.9826635333259364
2011-10-21,-1,-0.0023153167391977273,-0.0021442959154523386,-0.012546805133985445,0.012659146639117403,0.9830849817586326
2011-10-25,-1,-0.0022631517258763,-0.0020975764297620192,-0.012546805133985445,0.011886378641431935,0.9838217677511606
2011-10-27,-1,-0.0005439850449457944,-0.0004956575919926975,-0.01653467615359912,0.008918136400678527,0.9850698268879181
2011-10-31,-1,-0.0007441541850164094,-0.0007384111655774666,-0.01653467615359912,0.01111972269962187,0.9850227430423126
2011-11-02,-1,-0.0011979586822953136,-0.0011352944367830728,-0.016707688323326714,0.011358148583227212,0.9827158388466558
2011-11-04,0,0.0,0.0,-0.016707688323326714,0.013216467279020785,0.9825284114574484
2011-11-08,0,0.0,0.0,-0.016707688323326714,0.010782984164738803,0.9826784569967926
2011-11-10,0,0.0,0.0,-0.016707688323326714,0.013216467279020785,0.9831977614341605
2011-11-14,0,0.0,0.0,-0.016707688323326714,0.010782984164738803,0.984291416235045
2011-11-16,0,0.0,0.0,-0.016707688323326714,0.013216467279020785,0.9839446128507034
2011-11-18,0,0.0,0.0,-0.011387556125448887,0.012192972107737496,0.9845218203831947
2011-11-22,0,0.0,0.0,-0.008722207367685223,0.013301195355671674,0.9841429692123687
2011-11-25,0,0.0,0.0,-0.005904368411027552,0.0151327223016559,0.9845348456533163
2011-11-29,0,0.0,0.0,-0.008722207367685223,0.0151327223016559,0.9838517068089433
2011-12-01,-1,-0.00197754341506549,-0.0018990560408719457,-0.005904368411027552,0.012706737624526745,0.9866803082498752
2011-12-05,-1,-0.0015341384845581926,-0.001389103572982526,-0.008722207367685223,0.012706737624526745,0.9860164046478406
2011-12-07,-1,-0.0008944518205460555,-0.0006531154347873167,-0.008722207367685223,0.012706737624526745,0.9865674238123666
2011-12-09,-1,-0.0008013220425930368,-0.0005283600873871543,-0.006553459508695004,0.01034652580309331,0.9877852699954367
2011-12-13,-1,-0.0011890581450419468,-0.0009580213343191762,-0.005196522930945008,0.01034652580309331,0.9881601774000892
2011-12-15,-1,-0.0006392643954434556,-0.00033077603107337973,-0.006217020895695907,0.009716855305350615,0.9887121248894097
2011-12-19,-1,-0.0009444279861123082,-0.0007127577973700279,-0.005196522930945008,0.009716855305350615,0.9889374389694191
2011-12-21,-1,-0.0005942089760680606,-0.0003092337714136993,-0.004685438624792079,0.009569747775437024,0.990448049144945
2011-12-23,0,-0.0002615576646311878,1.540337239499493e-05,-0.004685438624792079,0.009569747775437024,0.9906237400407776
2011-12-28,-1,-0.0015885355474392464,-0.001517877743102567,-0.0031852219350855804,0.009569747775437024,0.9912180776367234
2011-12-30,-1,-0.00045200515512618485,-0.0003828230198250594,-0.0035719470696923736,0.01020022818036779,0.9908133973386488
2012-01-04,0,0.0,0.0,-0.0012095364111419768,0.01020022818036779,0.9916980032292466
2012-01-06,0,0.0,0.0,-0.0012497229587441418,0.012261902947154471,0.991144910045109
2012-01-10,0,0.0,0.0,-0.002860373527138867,0.012261902947154471,0.9913264471707237
2012-01-12,0,0.0,0.0,-0.004063913579582316,0.012261902947154471,0.9912713779984801
2012-01-17,0,0.0,0.0,-0.004445548306143426,0.009512054830967369,0.9912845143944304
2012-01-19,0,0.0,0.0,-0.004759765207282112,0.01236022950384857,0.990678779341799
2012-01-23,0,0.0,0.0,-0.008934721363239775,0.01236022950384857,0.9904298161659199
2012-01-25,0,0.0,0.0,-0.009845861334027256,0.008187734250958706,0.990484531345561
2012-01-27,0,0.0,0.0,-0.009845861334027256,0.008187734250958706,0.9904443960000915
2012-01-31,1,0.003326993172675483,0.003907181243982751,-0.008934721363239775,0.002156803456447226,0.9900924350190518
2012-02-02,1,0.003555794359212655,0.004071045854298189,-0.008934721363239775,0.0019483873616409925,0.9904745890984512
2012-02-06,1,0.00373904709531731,0.004285219047652513,-0.008934721363239775,0.0016525924238578616,0.9906712740355754
2012-02-08,1,0.003860548773259976,0.004470190369422393,-0.0096637805474898,0.005096228512220307,0.9908393918202003
2012-02-10,1,0.003062331950147496,0.0035244571403640302,-0.005197839748604961,0.005761318689467558,0.9919345692808016
2012-02-14,1,0.00019387524317467575,0.0002260645510765147,-0.005197839748604961,0.006364032378750393,0.9920564177891548
2012-02-16,1,0.00025550477214541465,0.00026368031336134476,-0.005197839748604961,0.006364032378750393,0.9924505046887914
2012-02-21,1,8.469754114599759e-05,9.761844502023369e-05,-0.005197839748604961,0.006364032378750393,0.9927837800306297
2012-02-23,-1,-0.0002611265818443656,-0.00019996969107687258,-0.005956824329819276,0.005096228512220307,0.9934978322771882
2012-02-27,-1,-0.0008633595342559578,-0.000537046955695816,-0.005956824329819276,0.005622660175802376,0.9934078194585214
2012-02-29,-1,-0.001007689261497865,-0.0007028308024139802,-0.00491153793589231,0.005622660175802376,0.9934752792013938
2012-03-02,-1,-0.0008759970453390705,-0.0006037140031019749,-0.00491153793589231,0.005622660175802376,0.9932321462296575
2012-03-06,0,0.0,0.0,-0.004868629695548332,0.005253364936338255,0.9933132618492836
2012-03-08,0,0.0,0.0,-0.006206536293358015,0.004912623296924371,0.9931209669880647
2012-03-12,0,0.0,0.0,-0.007502185551088981,0.002701288975957992,0.9922137590319422
2012-03-14,0,0.0,0.0,-0.007502185551088981,0.004912623296924371,0.9919571522780105
2012-03-16,1,0.0002632582185576107,0.0003501327501200856,-0.008476782791508172,0.004912623296924371,0.9910541205241877
2012-03-20,-1,-0.00018378034730865875,-2.8046675481535393e-05,-0.008476782791508172,0.007290553161548821,0.9904567611316167
2012-03-22,0,0.0,0.0,-0.006103428380898932,0.011744770939233155,0.9902423970537557
2012-03-26,0,0.0,0.0,-0.006103428380898932,0.014636844789841416,0.9897036834447485
2012-03-28,1,0.0007112349799996711,0.0007846172812470602,-0.006103428380898932,0.014636844789841416,0.989465272537309
2012-03-30,1,0.0008803630659779583,0.0009784472650711774,-0.006103428380898932,0.014636844789841416,0.9899792813175606
2012-04-03,1,0.0010063648295996772,0.0011464381502931174,-0.006103428380898932,0.014636844789841416,0.9894686768217856
2012-04-05,-1,-0.00023156474643022218,-0.00016194441038806828,-0.005350044847124508,0.014636844789841416,0.9894457106864978
2012-04-10,-1,-0.0012122938226151799,-0.001019887902122185,-0.001397028011578677,0.014636844789841416,0.9906152268028439
2012-04-12,-1,-0.0004944028363295481,-0.00038013449070871966,-0.00352335584143097,0.008240380745076268,0.9919908793278477
2012-04-16,0,0.0,0.0,-0.00352335584143097,0.005972205382457152,0.9932685200089201
2012-04-18,0,0.0,0.0,-0.004932829002261649,0.004794949412387662,0.9931637010669051
2012-04-20,0,0.0,0.0,-0.007535100228441811,0.0042424100113112794,0.9921883005366534
2012-04-24,-1,-0.0002564465677862,-3.329698896031386e-05,-0.007535100228441811,0.0042424100113112794,0.9919794813950322
2012-04-26,1,0.00048418558643501897,0.000576012944951062,-0.007535100228441811,0.0036868674326556335,0.9921389622519375
2012-04-30,1,0.0009742069060068438,0.0010042283078746479,-0.007535100228441811,0.0037291936799965283,0.9915297637365286
2012-05-02,1,0.0012619368167832846,0.001289561544974787,-0.008565698317381076,0.003204869587386293,0.9909139799520099
2012-05-04,1,0.0006997387192334512,0.000756691036919349,-0.00968131490078264,0.003204869587386293,0.9904405725094259
2012-05-08,1,0.0003021687526761701,0.00046564033356636574,-0.00968131490078264,0.0037291936799965283,0.9889900147919858
2012-05-10,1,0.00035913884189220564,0.00045858485019277523,-0.00968131490078264,0.0065076312035282045,0.9885949451140534
2012-05-14,0,0.0,0.0,-0.011478492368589378,0.0065076312035282045,0.9873728344258228
2012-05-16,0,0.0,0.0,-0.008760437000602212,0.013040741367205818,0.9874834852261792
2012-05-18,0,0.0,0.0,-0.003388437307890007,0.013040741367205818,0.9885516070174635
2012-05-22,0,0.0,0.0,-0.003388437307890007,0.009810510004434706,0.9896516766837617
2012-05-24,0,0.0,0.0,-0.006681591232538211,0.009810510004434706,0.9889790470733159
2012-05-29,0,0.0,0.0,-0.006681591232538211,0.008145600763603671,0.9893962458814496
2012-05-31,0,-0.0008569006265210775,0.0,-0.0037598235322910604,0.008992030604130802,0.9905259206438486
2012-06-04,0,0.0,0.0,-0.0024733864784579453,0.011554736102422683,0.98925517254893
2012-06-06,0,0.0,0.0,-0.002812730265352939,0.008992030604130802,0.9904298896599183
2012-06-08,0,0.0,0.0,-0.0036360521754350084,0.008145600763603671,0.9905913094062746
2012-06-12,0,0.0,0.0,-0.0036360521754350084,0.008145600763603671,0.9914633669163067
2012-06-14,0,0.0,0.0,-0.00259718188659163,0.008145600763603671,0.991775890462885
2012-06-18,0,0.0,0.0,-0.00259718188659163,0.008093956847318071,0.9919114786860659
2012-06-20,1,0.0003231666815063227,0.0003858998838645486,-0.005252627511199155,0.008093956847318071,0.9914937227424931
2012-06-22,-1,-0.0004949440853641075,-0.0004575434297362579,-0.005252627511199155,0.008093956847318071,0.9919744623797571
2012-06-26,1,6.083481159406892e-05,0.0001411403711700218,-0.005252627511199155,0.007985919363029803,0.992043761381724
2012-06-28,1,0.0005292726887454018,0.0006914155854828197,-0.005252627511199155,0.008322809452724875,0.9917603194530319
2012-07-02,0,0.0,0.0,-0.005252627511199155,0.0061832542346012456,0.9934921356155373
2012-07-05,0,0.0,0.0,-0.004892404943673297,0.0056581241817333025,0.9937881936173479
2012-07-09,0,0.0,0.0,-0.004069354665918641,0.0056581241817333025,0.9938005588956949
2012-07-11,1,0.0005472827180644107,0.0006583205899550746,-0.005058241054532838,0.0056581241817333025,0.9935746872718652
2012-07-13,1,0.000777870013223024,0.0008921377189107117,-0.005058241054532838,0.00463170607769234,0.9941646819574415
2012-07-17,1,0.0009999698603542194,0.0011354221636679087,-0.005058241054532838,0.0031193083204900233,0.9945347088610166
2012-07-19,0,0.0,0.0,-0.003845537777054398,0.005573709780263832,0.9945358676944017
2012-07-23,0,0.0,0.0,-0.0034442834625137146,0.005573709780263832,0.9948236508901817
2012-07-25,1,0.0002788454595762631,0.0002906626419090972,-0.0026627302875115535,0.005573709780263832,0.9950929681855413
2012-07-27,0,0.0,0.0,-0.0026627302875115535,0.0031193083204900233,0.9958279588864133
2012-07-31,0,0.0,0.0,-0.002744290199978398,0.002974832558033022,0.9958404374367927
2012-08-02,0,0.0,0.0,-0.0036889631999142483,0.002496132519294733,0.9960471253055165
2012-08-06,1,0.001502530504999983,0.0017005156705942421,-0.0036889631999142483,0.002974832558033022,0.9959979013562158
2012-08-08,1,0.0010134369637518844,0.0011646152815597544,-0.0026703193476100406,0.0040948930753935174,0.996763083733964
2012-08-10,1,0.000880121503989419,0.0009989824208498188,-0.0034440034491523414,0.005208686276624915,0.9958206636358107
2012-08-14,1,0.0005019913642822649,0.0005411696149892298,-0.0034440034491523414,0.005208686276624915,0.9958426655551695
2012-08-16,1,0.0010933823584987764,0.0012158487855983688,-0.0034440034491523414,0.005208686276624915,0.9950356489133354
2012-08-20,0,0.0,0.0,-0.0034440034491523414,0.005208686276624915,0.9948169906223359
2012-08-22,0,0.0,0.0,-0.004187802263349848,0.005208686276624915,0.9938993569986256
2012-08-24,0,0.0,0.0,-0.0054961615001616485,0.0058521226404343665,0.9931718301324485
2012-08-28,1,0.00121859520018443,0.0012769644006599573,-0.008090800741029198,0.0058521226404343665,0.9923140030860994
2012-08-30,0,0.0,0.0,-0.008090800741029198,0.007136125253403389,0.9919970850105705
2012-09-04,0,0.0,0.0,-0.008870935071854054,0.006025488079326484,0.9919226498217472
2012-09-06,0,0.0,0.0,-0.008870935071854054,0.007072036472253901,0.9917482217224076
2012-09-10,0,0.0,0.0,-0.008090800741029198,0.003946886747887285,0.9926872840573846
2012-09-12,0,0.0,0.0,-0.008090800741029198,0.003946886747887285,0.9927199147777093
2012-09-14,0,0.0,0.0,-0.008090800741029198,0.00027182959642270264,0.9939239374360775
2012-09-18,0,0.0,0.0,-0.007387623585113311,0.0032629303849236986,0.9938135425808938
2012-09-20,0,0.0,0.0,-0.004600821684440717,0.004415603058745472,0.9941909416679189
2012-09-24,1,0.0008937578871538342,0.0011235555641485265,-0.004600821684440717,0.0032629303849236986,0.9938980354762642
2012-09-26,-1,-0.0001593315379744937,-0.00010172657008478332,-0.004600821684440717,0.0032629303849236986,0.9943657537132073
2012-09-28,1,5.714488313783984e-05,0.00014900322352722433,-0.004600821684440717,0.0026196216605535094,0.9945707735533128
2012-10-02,-1,-0.00013323924610598588,-6.728010741702896e-05,-0.0040729543274565785,0.0027758604308395717,0.9947887853462227
2012-10-04,-1,-0.00023691080542684567,-0.0002119662172907344,-0.0040729543274565785,0.0010342319615882093,0.9949887028343313
2012-10-08,-1,-0.0007288232039334977,-0.0006527344777506969,-0.0051302455491137626,0.0013528273832356472,0.9945548963004083
2012-10-10,-1,-0.0017258964497258538,-0.0014443756259863334,-0.007664199546700722,0.0013528273832356472,0.9936556647324066
2012-10-12,-1,-0.0014911505155167774,-0.0012751416422770384,-0.007928204522142268,0.0013528273832356472,0.9932055423181079
2012-10-16,-1,-0.0009071558141967339,-0.0007778249855910503,-0.008632415287609432,-0.0001784341644074043,0.9929323252721086
2012-10-18,-1,-9.964524193871707e-05,-8.125969828228429e-05,-0.008632415287609432,0.0002792372198374824,0.9923130259316496
2012-10-22,-1,-0.001533297995677442,-0.0013000149415168573,-0.007928204522142268,0.0013278533726120904,0.9931970800517597
2012-10-24,-1,-0.0028843858230779744,-0.0024426434772073144,-0.007664199546700722,0.00427471924500793,0.9933456589700134
2012-10-26,-1,-0.002336042965921247,-0.0020418752518531072,-0.007928204522142268,0.00427471924500793,0.9931761181132169
2012-11-01,-1,-0.001862802180201508,-0.0016336728402847815,-0.007928204522142268,0.00478014689624877,0.992849747403181
2012-11-05,-1,-0.003026741622816005,-0.0025951841262338428,-0.00663252080421945,0.00478014689624877,0.9931458285919145
2012-11-07,-1,-0.0028643277242478256,-0.0024750175956459158,-0.005770939748994126,0.005052812635845407,0.9928041335924345
2012-11-09,-1,-0.0036709203983953612,-0.003218683398978569,-0.004692866639078008,0.007520100430659892,0.9929772877269245
2012-11-13,-1,-0.004130798393268613,-0.0036289872655843915,-0.004009073072798258,0.007520100430659892,0.9929286859557948
2012-11-15,-1,-0.005107983042300628,-0.004454656389413867,-0.004009073072798258,0.007520100430659892,0.9928233816681812
2012-11-19,-1,-0.004278851328417193,-0.003743174682406288,-0.004009073072798258,0.005829713788440238,0.9934961681501142
2012-11-21,-1,-0.004044048309361061,-0.003561696722058277,-0.0023956768984759284,0.00753840436916522,0.9930386160439149
2012-11-26,-1,-0.003429647137171231,-0.003117425461367946,-0.0023956768984759284,0.005829713788440238,0.9935583527610901
2012-11-28,-1,-0.0034062299059597497,-0.0030775807849023917,-0.002295894800143695,0.005829713788440238,0.9937590684161037
2012-11-30,-1,-0.0029801970674381687,-0.0027139049284127486,-0.0035906314675626366,0.006073830179050168,0.9940457356279735
2012-12-04,-1,-0.003403522425459937,-0.0031031579979500243,-0.0035906314675626366,0.008021785257002138,0.9933998543228555
2012-12-06,-1,-0.002023522791038633,-0.0018893546865870522,-0.0035906314675626366,0.007497871748872708,0.9939759459250194
2012-12-10,0,0.0,0.0,-0.0038648922293000538,0.006684154653185906,0.994616396669694
2012-12-12,0,0.0,0.0,-0.003549239262015701,0.006684154653185906,0.9946981157913186
2012-12-14,0,0.0,0.0,-0.002295894800143695,0.007497871748872708,0.9942707737603501
2012-12-18,0,0.0,0.0,-0.0038854007830416183,0.006684154653185906,0.9942229439982961
2012-12-20,0,-1.6165282012098412e-06,5.629905994656496e-05,-0.0038854007830416183,0.006808778219260934,0.9942144949466667
2012-12-24,-1,-0.0010091379821846273,-0.0010074973322474895,-0.003549239262015701,0.006808778219260934,0.9943850431559161
2012-12-27,0,0.0,0.0,-0.0038854007830416183,0.006808778219260934,0.9942864306275838
2012-12-31,0,0.0,0.0,-0.0038854007830416183,0.00650344837444107,0.9939661012031761
2013-01-03,0,0.0,0.0,-0.004715157755596694,0.004780608111616176,0.9937635959828208
2013-01-07,0,-6.341000555769744e-05,5.469668755207085e-05,-0.005720501232337067,0.0024961283856306353,0.9939967934296773
2013-01-09,0,0.0,0.0,-0.004872208739389573,0.0024961283856306353,0.994343898070556
2013-01-11,0,0.0,0.0,-0.004872208739389573,0.003578412535872742,0.9940755537757187
2013-01-15,1,0.00043357157482681305,0.0005995398884346817,-0.004872208739389573,0.0027100492359747558,0.9940252828235878
2013-01-17,1,6.891158283503111e-05,0.0001953415822719775,-0.00243063041151764,0.0027100492359747558,0.9946287562796691
2013-01-22,1,0.0008615632470286761,0.0011118846287847413,-0.004872208739389573,0.0016943015781605108,0.9949810583127378
2013-01-24,1,0.0009004326540289528,0.0011599782453296488,-0.005720501232337067,0.0016943015781605108,0.994291169055301
2013-01-28,0,0.0,0.0,-0.006214559671026766,0.0016462491710274023,0.9935932342103788
2013-01-30,0,0.0,0.0,-0.004872208739389573,0.0016462491710274023,0.9945126803809958
2013-02-01,0,0.0,0.0,-0.0037474907338677964,0.001874749918040443,0.9945431152320199
2013-02-05,0,0.0,0.0,-0.003025661917270448,0.00338074197557821,0.9944860188182182
2013-02-07,0,0.0,0.0,-0.004925795022365748,0.0032365847541788845,0.9936908102353772
2013-02-11,0,0.0,0.0,-0.004925795022365748,0.007201032910341849,0.9933133571454936
2013-02-13,1,0.0013233124899111452,0.0016967833790605508,-0.004925795022365748,0.0071215471878588454,0.9939262673598387
2013-02-15,0,0.0,0.0,-0.005780921482570146,0.0071215471878588454,0.9934726212793363
2013-02-20,0,0.0,0.0,-0.009124363715289978,0.0071215471878588454,0.9925631855393762
2013-02-22,0,0.0,0.0,-0.009124363715289978,0.003788912792869279,0.9927483279140322
2013-02-26,0,-2.67893010866447e-05,6.77429987213209e-05,-0.006111308394222956,0.003788912792869279,0.9937696633599847
2013-02-28,-1,-0.0001816127923063137,-0.00011898284732577552,-0.006111308394222956,0.0071215471878588454,0.9934225850257729
2013-03-04,1,6.334520852169885e-05,0.00016179093918438736,-0.006419249816759221,0.0071215471878588454,0.9929339891231372
2013-03-06,1,0.00017076432489626192,0.00028823826075365203,-0.006419249816759221,0.007180214325209339,0.9918960849272342
2013-03-08,-1,-0.0004870898313688528,-0.00045550505191748977,-0.0042636280808381,0.008222764814020001,0.9917126742952249
2013-03-12,1,0.00019782296456865998,0.00030771049440670996,-0.0042636280808381,0.008222764814020001,0.991750424776146
2013-03-14,0,0.0,0.0,-0.0042636280808381,0.008222764814020001,0.9917332783264841
2013-03-18,0,0.0,0.0,-0.0038440953055634258,0.01146400841137508,0.9905791742712455
2013-03-20,-1,-0.0003765744624915393,-0.0003533202135756965,-0.002213287824965273,0.01146400841137508,0.9917031305136278
2013-03-22,-1,-0.0008896201008338809,-0.0008295047041726028,-0.002213287824965273,0.01146400841137508,0.9916100592910498
2013-03-26,-1,-0.0011991510073550062,-0.0010920153274238886,-0.0024629659836531816,0.01146400841137508,0.9914670586774544
2013-03-28,-1,-0.0008592552605828715,-0.0008042499903127251,-0.002704786284285078,0.01146400841137508,0.9918273383422324
2013-04-02,0,0.0,0.0,-0.002291233792665586,0.01146400841137508,0.9921639681953319
2013-04-04,0,0.0,0.0,-0.002704786284285078,0.006703886566825502,0.9932950825475758
2013-04-08,0,0.0,0.0,-0.003294069366338407,0.0058078761610378905,0.9938251696058515
2013-04-10,0,0.0,0.0,-0.003294069366338407,0.0058078761610378905,0.9940811254053138
2013-04-12,0,0.0,0.0,-0.004131735287326237,0.006001778876003134,0.9935586114518804
2013-04-16,0,0.0,0.0,-0.003783020697738702,0.004918314632220676,0.9948449365027593
2013-04-18,1,0.0007835097034702287,0.0008048256929876898,-0.003783020697738702,0.006001778876003134,0.994257618173649
2013-04-22,1,0.0008468557255377563,0.0008870651875435672,-0.003542146209950805,0.009837603524340462,0.9940532983175789
2013-04-24,0,0.0,0.0,-0.003542146209950805,0.009837603524340462,0.9931744900176005
2013-04-26,1,0.0002419487027846114,0.00027504150853141523,-0.003542146209950805,0.009837603524340462,0.9932546515951234
2013-04-30,1,0.0006819483187048477,0.0006973008288020699,-0.0049457958840464795,0.008318175757137,0.9926478671282258
2013-05-02,0,0.0,0.0,-0.0080797992383446,0.008318175757137,0.9918334546920734
2013-05-06,0,0.0,0.0,-0.0080797992383446,0.009837603524340462,0.9912411275976221
2013-05-08,0,0.0,0.0,-0.010508621112320905,0.010045969538832014,0.9906704152963851
2013-05-10,0,0.0,0.0,-0.010508621112320905,0.008318175757137,0.99122041601376
2013-05-14,0,0.0,0.0,-0.011502031270764929,0.008318175757137,0.9902821183361651
2013-05-16,0,0.0,0.0,-0.011502031270764929,0.008318175757137,0.9887351362083481
2013-05-20,0,0.0,0.0,-0.011502031270764929,0.005206058733838913,0.9892467212112355
2013-05-22,0,0.0,0.0,-0.012223572032585625,0.0026572150657170985,0.985549115971708
2013-05-24,0,0.0,0.0,-0.012223572032585625,0.007665284321041809,0.9848009360019988
2013-05-29,1,0.0008070626875099383,0.0008900362651308744,-0.010537859004238625,0.010810449768360758,0.9854259862857319
2013-05-31,1,6.727319422115646e-05,8.191027862968213e-05,-0.00704277969546184,0.012512481345346108,0.9851295835156884
2013-06-04,1,0.0005636056430021123,0.0006580857554144264,-0.007420164763293659,0.012305993615465813,0.985268940454724
2013-06-06,1,0.0007303090858161475,0.0008151326853662237,-0.007420164763293659,0.010810449768360758,0.985875407321355
2013-06-10,1,0.0009348948975891466,0.001095063314432381,-0.007420164763293659,0.012305993615465813,0.9853268388054855
2013-06-12,1,8.631228427581218e-06,2.6861700440799816e-05,-0.006354378241688969,0.012902117498297162,0.9845333725774997
2013-06-14,1,0.0010258077310215477,0.0012047642275408704,-0.006168286458445645,0.012305993615465813,0.9864501488885743
2013-06-18,1,0.0012173286675283596,0.0014227581136501868,-0.006168286458445645,0.012305993615465813,0.9865625169368054
2013-06-20,-1,-0.0023292446230297114,-0.002094608922023484,-0.004130528343845263,0.012868808625291783,0.9903592766813727
2013-06-24,-1,-0.0020420161268984143,-0.0018050383119789571,-0.004130528343845263,0.012305993615465813,0.9908982657542081
2013-06-26,-1,-0.0017337423143331306,-0.0014863985542808772,-0.004796929387048192,0.01161999219981984,0.9907504811268251
2013-06-28,-1,-0.001073356293474485,-0.00088126863793792,-0.004796929387048192,0.011106450354944881,0.9913873048808399
2013-07-02,-1,-0.0013512757336943293,-0.0011577363541191955,-0.004796929387048192,0.004831586406702498,0.9916027619272381
2013-07-05,-1,-0.0012986630136521825,-0.0011236906561463375,-0.006262108226274731,0.004831586406702498,0.9909704229620989
2013-07-09,-1,-0.00026380677311833357,-0.00025074229823157754,-0.006262108226274731,-0.00045677132257202163,0.9914998560869865
2013-07-11,1,0.0007799547737466851,0.0009026441328580455,-0.007782665831572788,-0.00045677132257202163,0.9921315831698495
2013-07-15,1,0.00028819330483472036,0.00033226995569559346,-0.010354551948148456,0.0009966555457411059,0.991305221946128
2013-07-17,1,0.00016541585816177848,0.00018903566795526984,-0.010354551948148456,0.003034565145082066,0.9911883599307495
2013-07-19,-1,-0.00010708021559778738,-5.665168328437554e-05,-0.01317884056618382,0.0008716340916877272,0.99022585515648
2013-07-23,1,0.0003420220931204547,0.00034561062428886544,-0.01317884056618382,0.0008716340916877272,0.9885097659847641
2013-07-25,-1,-0.0005072792893831366,-0.00041412804984168394,-0.012047480205006456,0.003034565145082066,0.9892479263601875
2013-07-29,-1,-0.0003522344381536129,-0.00027801740257076034,-0.012047480205006456,0.0041445221559083785,0.9888464608161355
2013-07-31,-1,-0.0018569579241141919,-0.0015801102438347309,-0.01197089296887134,0.0041445221559083785,0.9894608948366508
2013-08-02,-1,-0.002464510133141807,-0.0021472296127634993,-0.008530301498897639,0.0041445221559083785,0.9904645394191139
2013-08-06,-1,-0.0023023300358622507,-0.0020221597090012275,-0.008991156153192379,0.006383543418008935,0.9896136632969292
2013-08-08,-1,-0.002776550386445314,-0.0024245205922454756,-0.007539142368380563,0.00806123964279307,0.9891078295225852
2013-08-12,-1,-0.0030897124216835185,-0.0026484914395462525,-0.007047198778149906,0.008221883284714668,0.9896393359644852
2013-08-14,-1,-0.0035043499479418655,-0.0030008346411086553,-0.007539142368380563,0.008221883284714668,0.9889173947861103
2013-08-16,-1,-0.005138761860068784,-0.004438806651956397,-0.005563438434302891,0.009541333870368656,0.989202492886279
2013-08-20,-1,-0.004092317172338006,-0.003523831784193867,-0.004964096754220402,0.009541333870368656,0.9889444714678727
2013-08-22,-1,-0.003557360572991178,-0.0030373095566682343,-0.004964096754220402,0.009541333870368656,0.9889175780011141
2013-08-26,-1,-0.0017320645754193877,-0.0014858284604598176,-0.005563438434302891,0.008221883284714668,0.9896300670406935
2013-08-28,-1,-0.0017078288904842118,-0.0015042610101750242,-0.005641482920222925,0.008221883284714668,0.9894140186814483
2013-08-30,-1,-0.0011004658177719332,-0.0009989129759075616,-0.005641482920222925,0.008221883284714668,0.9894637355886177
2013-09-04,-1,-0.0008914768079059379,-0.0008371223119322012,-0.00254444805703021,0.007848756180672269,0.9900280507189172
2013-09-06,-1,-0.0004434955380711186,-0.0004298132962082023,-0.0035452325573941744,0.004995020597042759,0.9909949994979538
2013-09-10,1,0.00030283052208866063,0.00037546319756780026,-0.008410184299346039,0.0032113908993315083,0.9905200508018541
2013-09-12,-1,-0.00038308029169553,-0.0003633639827955648,-0.00807221576005528,0.0034704305153409154,0.9908439009468352
2013-09-16,-1,-0.0002210988204073055,-0.00021511401874446488,-0.00807221576005528,0.0034704305153409154,0.9905066993296824
2013-09-18,1,0.0015931388336738136,0.0018300748237844691,-0.00807221576005528,0.0034704305153409154,0.9918320155855882
2013-09-20,1,0.0014909069926662619,0.0017324177564753632,-0.004471870392794558,0.004716394180098549,0.9922516480372208
2013-09-24,1,0.0005188736439116716,0.0006312543097672488,-0.004471870392794558,0.007012876929839639,0.9915964093103534
2013-09-26,1,0.0005268600870861679,0.0006334002547415708,-0.008180166710662113,0.007012876929839639,0.9912412230892906
2013-09-30,1,0.0008882992591990121,0.0010706165146848164,-0.008767774814878369,0.00932853895420611,0.9893687941693662
2013-10-02,1,0.0011493134830209409,0.0013837922902981028,-0.009004149198843866,0.00848363921519079,0.9882022059152564
2013-10-04,1,0.00063584386071295,0.0008073251776728809,-0.010769383787153534,0.010101859850719434,0.9877395222135763
2013-10-08,-1,-0.00016476435148309965,-7.508080988296732e-05,-0.010769383787153534,0.010101859850719434,0.9881487964788495
2013-10-10,1,0.0010234685418212433,0.0012928597201867951,-0.010769383787153534,0.007270650562010745,0.9883815488872713
2013-10-14,1,0.0016305896291961852,0.00198452520706367,-0.010769383787153534,0.00639224908932191,0.9884119668404708
2013-10-16,1,0.001972942788849825,0.0023686386804247297,-0.010769383787153534,0.006373616406866816,0.9886304924257321
2013-10-18,1,0.0016639462811514078,0.0019623327361043327,-0.010769383787153534,0.006373616406866816,0.9885418063696721
2013-10-22,1,0.0014104836783623371,0.001588383367454028,-0.009107167193105274,0.006373616406866816,0.9897682048148112
2013-10-24,1,0.001053795581542233,0.001238169219631938,-0.010453642792560006,0.006373616406866816,0.9898956255315849
2013-10-28,1,0.0012939796740420487,0.0015120216408294313,-0.00891958116611246,0.005550628194906616,0.99143136960249
2013-10-30,1,0.0005825493432364756,0.0007050239359879334,-0.00891958116611246,0.006373616406866816,0.9921817550081267
2013-11-01,-1,-0.00016200897368418577,-0.00014112757102150371,-0.00891958116611246,0.005103406435080074,0.9922367550526939
2013-11-05,-1,-0.0006828933892968535,-0.0006634688070641072,-0.007131795712456935,0.005103406435080074,0.992980567362074
2013-11-07,-1,-0.0007237077473700821,-0.0006592445502249753,-0.005567277542618904,0.006373616406866816,0.992909633738134
2013-11-11,-1,-0.0032425921534262737,-0.0028059611274775945,-0.003939495573271808,0.0067168510764451786,0.9923297418923646
2013-11-13,-1,-0.0024250063606889704,-0.0020918946181936755,-0.005624986107497031,0.0052579100734491,0.9917291584164457
2013-11-15,-1,-0.0014210209296733022,-0.0012266812489001282,-0.006598826573821338,0.0048285412568834386,0.9922185642016218
2013-11-19,-1,-0.0008763998221166513,-0.0007744202106964355,-0.006598826573821338,0.005609158995041269,0.9908546429774834
2013-11-21,-1,-0.0011063155194046903,-0.0009903745882234953,-0.006598826573821338,0.00755721058153443,0.9907215336904763
2013-11-25,-1,-0.0015896984002359486,-0.001401509233837658,-0.005678305012792911,0.00755721058153443,0.9907202062793772
2013-11-27,-1,-0.0010349232586441567,-0.0009542570430258767,-0.005678305012792911,0.005930479395343522,0.9897238760146821
2013-12-02,-1,-0.0007794258786559122,-0.0007724750231322924,-0.005678305012792911,0.006940875063837785,0.9902245641665415
2013-12-04,-1,-0.0008965349778933145,-0.0008616545500959425,-0.005678305012792911,0.008292115811999646,0.9898501866657025
2013-12-06,-1,-0.000558748778801294,-0.0005549244279623361,-0.005678305012792911,0.011330730750959648,0.9895362934681333
2013-12-10,1,0.00022589122778741315,0.0003490280173598482,-0.006695462148191773,0.008084575567456379,0.9901860462754353
2013-12-12,-1,-0.000592206084822061,-0.0005553426152767726,-0.006695462148191773,0.011330730750959648,0.9902116277017821
2013-12-16,-1,-0.0010000291408080733,-0.0009436407327076512,-0.003765789513520601,0.011330730750959648,0.989842125782111
2013-12-18,1,0.0005875439284570622,0.0007447991589238503,-0.0039501722484735005,0.0076203780822906905,0.9921173644401882
2013-12-20,1,0.0005269852688793131,0.0006301739281371997,-0.0028577285626719775,0.009491938265300707,0.992011175868013
2013-12-24,-1,-4.953457414525124e-05,-2.3815736141397515e-05,-0.004394840427229586,0.009491938265300707,0.9909738603812888
2013-12-27,-1,-0.001151147061097345,-0.0009948743823114097,-0.004108656634407972,0.009804160848390232,0.9920643852673746
2013-12-31,-1,-0.0013685375623344155,-0.0011711923527937872,-0.0031903340238769056,0.010407211149560556,0.9913669461496709
2014-01-03,-1,-0.0007039383777433943,-0.0006083486357768452,-0.004108656634407972,0.009804160848390232,0.9912104414771596
2014-01-07,-1,-0.0001288842057817122,-9.306194921314502e-05,-0.00581580372255453,0.009804160848390232,0.9909228444117515
2014-01-09,-1,-0.00123461607622887,-0.0009979110393010882,-0.004108656634407972,0.011135104688424838,0.9900441384695344
2014-01-13,-1,-0.0005044288955929844,-0.000390557848516505,-0.0031903340238769056,0.009804160848390232,0.9908631904756577
2014-01-15,0,-8.373489234331564e-06,5.0216209528507725e-05,-0.0031903340238769056,0.009804160848390232,0.9914493169624355
2014-01-17,1,0.00033589724849936826,0.00035816695535900245,-0.002819222602794762,0.009804160848390232,0.9912017158641486
2014-01-22,1,0.0008881902741174973,0.0009585883635791157,-0.003804232603846573,0.007013218728220516,0.9921054199844924
2014-01-24,1,5.723525521054258e-06,5.133743009082362e-05,-0.0025302943950226008,0.007013218728220516,0.9928846542592343
2014-01-28,1,0.00022458423488850302,0.00023869430217354404,-0.0025302943950226008,0.007013218728220516,0.9926961250880573
2014-01-30,1,0.00138246655153209,0.0015538947811842305,-0.002965232407310165,0.007013218728220516,0.9931897028427968
2014-02-03,1,0.0010522507318643935,0.0012152442095104514,-0.0025302943950226008,0.008954489509369931,0.9934431298356226
2014-02-05,1,0.0008989174056088496,0.0010034631283274268,-0.002965232407310165,0.007013218728220516,0.9940454771032634
2014-02-07,1,0.0018542575723873424,0.002105928058743848,-0.004242262017392782,0.005046308918561454,0.9940794935501718
2014-02-11,1,0.0026226141858801903,0.0030699589642882528,-0.004450854601702969,0.0052817491003345285,0.9928167974641463
2014-02-13,1,0.0025913889031737095,0.0030015922204769596,-0.004450854601702969,0.004363198264594713,0.9928762787043028
2014-02-18,1,0.0025648580499047675,0.0029314531100048074,-0.004450854601702969,0.004552788024773533,0.9928187869304292
2014-02-20,1,0.0023162508343724116,0.002636553524513509,-0.004971270702354544,0.007897897798164426,0.9925577111249104
2014-02-24,1,0.0022502873579343286,0.002568551084416715,-0.005522705762861469,0.009278002709789925,0.9920094915614371
2014-02-26,1,0.002541131927237544,0.002907655625422189,-0.005694808031789422,0.007897897798164426,0.9921609808273167
2014-02-28,1,0.002674472668202017,0.0030343313599453204,-0.005694808031789422,0.007504837621401283,0.9926152635205914
2014-03-04,1,0.002459904796287286,0.00273963915334774,-0.005694808031789422,0.007504837621401283,0.9928100308522898
2014-03-06,1,0.002350751331676957,0.002645351280023234,-0.003490922911205274,0.007504837621401283,0.9932286937184338
2014-03-10,1,0.0021412820160807726,0.002439001686042039,-0.00045371853369247073,0.007504837621401283,0.9939932455930307
2014-03-12,1,0.0025837553447129206,0.002959322290518986,-0.00045371853369247073,0.007134716232101731,0.9949497249696557
2014-03-14,1,0.0026696120211135467,0.0030729441776253916,-0.003094357240590517,0.007504837621401283,0.9939688537939072
2014-03-18,1,0.0031868632633171787,0.0036658441954933773,-0.003094357240590517,0.007504837621401283,0.9938454073635856
2014-03-20,1,0.0027134980975554463,0.003088000739308116,-0.00045371853369247073,0.007139586550908148,0.9944524689330585
2014-03-24,1,0.002685415057078471,0.003058661457576816,0.0005852013554989417,0.006426585338693365,0.9951694661840796
2014-03-26,1,0.0020211903231608782,0.002265765449426979,0.0005852013554989417,0.00707023487384293,0.9951673350160288
2014-03-28,1,0.0022828371438891873,0.0025466780864338424,-0.00045371853369247073,0.00707023487384293,0.9949118710300024
2014-04-01,1,0.0022799681727085452,0.0024972628780803594,-0.003844538399700341,0.006192649827825118,0.994711927393379
2014-04-03,1,0.0019194566157063194,0.002064413867788551,-0.003844538399700341,0.00707023487384293,0.9944008065118202
2014-04-07,1,0.0020179862196558884,0.0021694973949444455,-0.005637917979409286,0.006249918826397362,0.9941127691367465
2014-04-09,1,0.001812715382885519,0.0019401869635492666,-0.003844538399700341,0.007397458771931713,0.9942029014619327
2014-04-11,1,0.0017301567050162835,0.0018719559940231336,-0.0032401607404083854,0.005275312321785117,0.9952531107048743
2014-04-15,1,0.0020734007563729786,0.0022619049528487213,-0.003844538399700341,0.003833770234865738,0.995184798401092
2014-04-17,1,0.0019141608147108511,0.002057805957851838,-0.003844538399700341,0.004489346750790587,0.9949978196553669
2014-04-22,1,0.001804334644486862,0.0019131522162399277,-0.003844538399700341,0.004273042419253522,0.9947643192352131
2014-04-24,1,0.0017063315753490275,0.0017951959645778831,-0.005639761607106906,0.0031516189346254683,0.9945787353612523
2014-04-28,1,0.001244877582429907,0.001255505415629663,-0.0038451529422662144,0.00383662613869213,0.9946059356113761
2014-04-30,1,0.000687311552907243,0.0007697395636671836,-0.00376701713116356,0.00383662613869213,0.9947144016938533
2014-05-02,1,0.0009153457271712503,0.0009657806027957042,-0.0026064114551466954,0.00383662613869213,0.9948228477208252
2014-05-06,1,0.000816586574588708,0.0008595727069594978,-0.0026064114551466954,0.00383662613869213,0.9947185622640679
2014-05-08,1,0.0006064187485628539,0.0007365999420119284,-0.0026064114551466954,0.00383662613869213,0.9948132774729951
2014-05-12,1,0.0005523781826358835,0.0006895536126038859,-0.007483906188677744,0.00383662613869213,0.9933774567725041
2014-05-14,1,0.0009119267212544704,0.0009325858173348301,-0.007483906188677744,0.00383662613869213,0.9929902249729445
2014-05-16,1,0.001251952743160373,0.0013098082790811393,-0.007483906188677744,0.003204460633591868,0.9928306057788809
2014-05-20,1,0.0010058454973493219,0.001103551714696629,-0.007658742590587856,0.004986981661627001,0.9918718307664651
2014-05-22,0,-0.0002022922046015953,5.298649690853503e-05,-0.007658742590587856,0.006430965457528829,0.9920790962190723
2014-05-27,1,0.0002701547472389817,0.0004769409098049922,-0.007658742590587856,0.00431210468605027,0.9927004587808725
2014-05-29,1,1.1008756477069856e-06,0.00022319649493899153,-0.007658742590587856,0.00431210468605027,0.9926379842101034
2014-06-02,1,0.0006820130110025058,0.0007975731413985391,-0.007658742590587856,0.00431210468605027,0.992373606683347
2014-06-04,1,0.00013955408154029975,0.0003357797911219015,-0.007214296447073433,0.00431210468605027,0.99263203141901
2014-06-06,1,0.0006727234822694038,0.0008005771017461057,-0.007214296447073433,0.00431210468605027,0.992462266399998
2014-06-10,-1,-0.00035312905028145835,-0.0001269151950264283,-0.005272794136025513,0.00431210468605027,0.994244040860938
2014-06-12,-1,-0.001040804735240072,-0.0007199641816770972,-0.0038398986917710575,0.0058467347573788984,0.9943663739241724
2014-06-16,-1,-0.0005484929269299218,-0.0003206143571961459,-0.0030989007287387516,0.00820021342018117,0.9944708778943858
2014-06-18,-1,-0.0008634845571507722,-0.0005528965313819177,-0.0030989007287387516,0.005096597573651027,0.9954003551903221
2014-06-20,-1,-0.0003566489302187292,-0.00010850813207943398,-0.0036256086244981878,0.005096597573651027,0.9952538954740533
2014-06-24,1,0.0007376901510227664,0.000842569107071777,-0.003869715482621125,0.0062036666371768565,0.994963369296811
2014-06-26,-1,-0.00040222980176317683,-0.00012343682719953694,-0.003869715482621125,0.0062036666371768565,0.9951016867707858
2014-06-30,0,-0.00014527724639527481,9.847338940641192e-05,-0.004105350727433087,0.0062036666371768565,0.9948446633015516
2014-07-02,1,0.00019559065672416354,0.00035826869655512594,-0.004105350727433087,0.0062036666371768565,0.9944294415527146
2014-07-07,1,0.00036199431483132304,0.0005001648148345495,-0.004320552058667078,0.0062036666371768565,0.9944452537063774
2014-07-09,1,0.00034630975697736186,0.0004815090596377766,-0.00562431104071688,0.0062036666371768565,0.9935607425374288
2014-07-11,1,0.0007379182338329811,0.0008120353653544806,-0.00562431104071688,0.0062036666371768565,0.9934008183258678
2014-07-15,1,0.0007053986992277357,0.0007918924303380796,-0.00562431104071688,0.005525499875107184,0.9934656555416997
2014-07-17,1,0.0004693104806953049,0.0005898835621432776,-0.00562431104071688,0.006227161559836004,0.993203301300749
2014-07-21,1,0.0006994478267792497,0.0007826567060832111,-0.004797895989126627,0.006227161559836004,0.9930884378806271
2014-07-23,1,0.0008587808770478706,0.000907504066673145,-0.004797895989126627,0.006132824202085492,0.9932136831927466
2014-07-25,1,0.0007000450419459862,0.0007570526250720027,-0.004797895989126627,0.006132824202085492,0.993104587184777
2014-07-29,1,0.0005055038183209886,0.000607252385215082,-0.004625361689482104,0.005121942045009249,0.993676952971855
2014-07-31,-1,-0.0003136445335633275,-8.237337674996007e-05,-0.0037246745426428012,0.005121942045009249,0.9943220974146681
2014-08-04,0,-5.7477486296515974e-05,0.00014482211159744544,-0.0034167674590371766,0.004435256358676197,0.9947733258767939
2014-08-06,-1,-0.0004504797726311027,-0.00020426899518466326,-0.0034167674590371766,0.004435256358676197,0.994995918842922
2014-08-08,1,7.234754861093658e-05,0.0002385625684985316,-0.0034167674590371766,0.004435256358676197,0.9946811998328399
2014-08-12,1,7.930214337142265e-05,0.00024294027999093986,-0.004625361689482104,0.003929186436355279,0.9935010900164455
2014-08-14,1,0.00037214738249605114,0.0005107255017792682,-0.005742168101526389,0.003123910965090054,0.9923132909385858
2014-08-18,1,0.00035674324556130363,0.00048033078334120186,-0.005742168101526389,0.003123910965090054,0.9924275957979285
2014-08-20,1,0.0009823819469783916,0.0009996450260637614,-0.005742168101526389,0.002889624120944587,0.9916296304502866
2014-08-22,1,0.00082366699394523,0.0008315191302450779,-0.005246192073767282,0.002889624120944587,0.9918754983997643
2014-08-26,1,0.0003579231035020274,0.00042582461376522993,-0.006860301985999575,0.002889624120944587,0.9917917538077263
2014-08-28,1,0.00046238576435865227,0.0004994366949104721,-0.00898868851373854,0.003446709036492672,0.9907566008548886
2014-09-02,1,0.0003598679785032947,0.000420723236393534,-0.00898868851373854,0.005180562266412567,0.990702536681684
2014-09-04,0,-9.611861091605051e-05,3.401956251367652e-05,-0.006860301985999575,0.0027938524114672525,0.9914888294747165
2014-09-08,1,0.000909185758196907,0.0009235849289175324,-0.006860301985999575,0.002418865151023132,0.9918501008677635
2014-09-10,-1,-0.00019263375490770291,-8.69583099227764e-05,-0.005245352942618853,0.004254671594650679,0.9916107976388921
2014-09-12,-1,-0.0010582214343123298,-0.000861779447648876,-0.004091557231058144,0.0048808417777526005,0.9930480353592049
2014-09-16,-1,-0.0006814324515446515,-0.0005325520328170039,-0.003502947296913625,0.0048808417777526005,0.9932472512779378
2014-09-18,-1,-0.00015424172221032816,-6.6183942839046e-05,-0.006847174118500552,0.004088407728573866,0.9932717408417789
2014-09-22,-1,-0.0007798977900861037,-0.0005971033411001973,-0.0044496030157142805,0.006398780870599754,0.9925471422229735
2014-09-24,-1,-0.0011383182340495564,-0.000924223171230436,-0.0014081105716917525,0.009552476934101729,0.9922955766369038
2014-09-26,-1,-0.0012243126549615177,-0.0009840641568757001,-0.0008170594954503094,0.006398780870599754,0.9934252207731502
2014-09-30,-1,-0.0005501545542809839,-0.0004259963975815578,-0.0005008890565624637,0.008826938880712894,0.9934354986404312
2014-10-02,-1,-0.00036606651837667206,-0.0002792730351544741,-0.0005008890565624637,0.009552476934101729,0.9926190646175145
2014-10-06,-1,-0.0004699297607460236,-0.0003516227821983752,-0.0003538897438382468,0.010224690044109318,0.99155863331123
2014-10-08,1,0.0006137912655448428,0.0006491433648434182,-0.0003538897438382468,0.009552476934101729,0.9937774293797266
2014-10-10,1,0.0009434777906810082,0.0010149139774044593,-0.0009350369176756261,0.009552476934101729,0.9936585182745165
2014-10-14,1,0.0010356157003251609,0.0010879153252620686,-0.0017423275517275323,0.009411919428902139,0.993817115045462
2014-10-16,1,0.0006722167516058156,0.0007162603365349573,-0.0009350369176756261,0.009411919428902139,0.9939946757113798
2014-10-20,1,0.0013118015688032504,0.0014189504121808454,-0.0017423275517275323,0.008305674046318693,0.9944140748183977
2014-10-22,1,0.0017965002337790867,0.001993677343149271,-0.0009350369176756261,0.008305674046318693,0.994603952117594
2014-10-24,1,0.0016122516078760285,0.001772036596364122,-0.0023128753892402206,0.008812170905530308,0.9938489672953441
2014-10-28,1,0.0022072457387666087,0.00247660936598677,-0.0023128753892402206,0.008500667562381773,0.9940824910301133
2014-10-30,1,0.0023120820023126583,0.002518827916805067,-0.0023128753892402206,0.006018142936574787,0.99460016279602
2014-11-03,1,0.0022180406866310945,0.002443172308466306,-0.0023128753892402206,0.00408030779937614,0.9951358379462099
2014-11-05,1,0.002117939272355395,0.002320021226400032,-0.003605251313534433,0.00408030779937614,0.9950142997295829
2014-11-07,1,0.0018560112904837884,0.002037989222890604,-0.0015208938275843298,0.00408030779937614,0.9954097779710727
2014-11-11,1,0.0018648823752763209,0.0020763420059519396,-0.0010605214051253604,0.006018142936574787,0.9952914823607111
2014-11-13,1,0.001950777555256024,0.002174218146321864,-0.0017370182941178433,0.003840121482592586,0.9949492000132504
2014-11-17,1,0.001211272330050129,0.0013098782075249959,-0.0017370182941178433,0.003840121482592586,0.9948100810023828
2014-11-19,1,0.0017793824804926343,0.0019615954442839447,-0.0017370182941178433,0.006509020207758227,0.9934480937849811
2014-11-21,1,0.0017919367423455067,0.001967460991150783,-0.0016845525840158734,0.006509020207758227,0.9934203440439245
2014-11-25,1,0.0018532232384263494,0.0020439150191374567,-0.0029607384311888417,0.006509020207758227,0.9929745928146038
2014-11-28,1,0.0020814993051494943,0.0022996799510996875,-0.0043565172004884105,0.005358571229097534,0.9913899090445543
2014-12-02,1,0.0029564958683747063,0.003249735376390819,-0.008178680828941702,0.003456638489705688,0.9906444391570782
2014-12-04,1,0.0030328043446928993,0.0033486910454982787,-0.008178680828941702,0.009340833349452349,0.9898440448454833
2014-12-08,1,0.0030593678313778324,0.003369430431192057,-0.008178680828941702,0.01223922991384666,0.9888676491839872
2014-12-10,1,0.0033927399940178998,0.0037526344834067386,-0.008178680828941702,0.01223922991384666,0.9893257909291076
2014-12-12,1,0.0026582534829861417,0.0029184430943309915,-0.002353512410245522,0.01223922991384666,0.9901029185196213
2014-12-16,1,0.0019308040630214938,0.0020673683010733338,6.81527240052436e-05,0.01265346780132353,0.9903404309325275
2014-12-18,1,0.0035795226133257087,0.003937968297584235,-0.002353512410245522,0.009595368010670801,0.9918715516678962
2014-12-22,1,0.0037204064933417467,0.00407036394450211,-0.0005421480766579347,0.009595368010670801,0.9918455251195261
2014-12-24,1,0.003456247673583577,0.003771010408829634,-0.0005421480766579347,0.010996602076401702,0.9916872596295147
2014-12-29,1,0.0023606596912237173,0.0025039458826923294,-0.0005941197909268124,0.010996602076401702,0.9926680745800711
2014-12-31,1,0.0018061670323916944,0.0018898978557574044,-0.0005941197909268124,0.010996602076401702,0.9917449510488381
2015-01-05,1,0.002892651937324228,0.0031256258580588097,-0.0005941197909268124,0.010996602076401702,0.9924539329147206
2015-01-07,1,0.0040216604465807,0.004401748003760722,-0.002482139746580154,0.010352472449348431,0.9925678790461591
2015-01-09,1,0.004404327427046203,0.00485709621547999,-0.004228712981807298,0.010352472449348431,0.9908674461709235
2015-01-13,1,0.0044250897958591235,0.004891518243808488,-0.004944308683618137,0.011053577345326318,0.9900795542737952
2015-01-15,1,0.0046157747165191535,0.005076649614823987,-0.00619346142062253,0.011053577345326318,0.989358885446039
2015-01-20,1,0.004366758185372269,0.004769007190908495,-0.0065619031429937314,0.011053577345326318,0.9891519159756405
2015-01-22,1,0.004811017072065774,0.0052603110521637015,-0.008733707299634307,0.01091538840211038,0.9885430309684857
2015-01-26,1,0.004830314481010943,0.005276002081629628,-0.009624416013675786,0.010980114038381037,0.9877673335744982
2015-01-28,1,0.004170698790139829,0.004507973586663833,-0.010559801318226484,0.010980114038381037,0.9875575817974996
2015-01-30,1,0.003355115346284844,0.0036129213968035773,-0.009452584305564308,0.010980114038381037,0.9888909719314438
2015-02-03,1,0.0034562748208378,0.0036596368200939975,-0.010403584321536142,0.010095679739607302,0.98870309899004
2015-02-05,1,0.0034071812761745065,0.003539278696777019,-0.010606645452489892,0.010095679739607302,0.9873943353237868
2015-02-09,1,0.0025644178256913623,0.0025831970903431502,-0.010403584321536142,0.010095679739607302,0.9885154122708436
2015-02-11,1,0.0027529500018179634,0.002814589774978451,-0.010403584321536142,0.010095679739607302,0.9886071796104386
2015-02-13,1,0.002250002466707127,0.0022704928185296874,-0.010023819874215998,0.00946086675550617,0.9888417447722528
2015-02-18,1,0.0018146675282205867,0.0019118865315048287,-0.010023819874215998,0.00946086675550617,0.9885437428046775
2015-02-20,1,0.0009013637252227201,0.0011018606930957983,-0.0057302970743667685,0.010166711572663025,0.988822878120618
2015-02-24,1,0.0005038784256518098,0.000750980632574464,-0.004567403366877142,0.00946086675550617,0.9900057701675171
2015-02-26,-1,-0.00035497964200888405,-2.971206144678851e-06,-0.005266426280754873,0.00946086675550617,0.9895684380360893
2015-03-02,1,0.00019050591468534124,0.0004827378931642225,-0.005266426280754873,0.010154758926578354,0.9893630254015973
2015-03-04,0,-8.986935757839074e-05,0.0002068165142186765,-0.005355122107198127,0.010154758926578354,0.989053974296505
2015-03-06,-1,-0.0005416057336145739,-0.00020423822312844815,-0.005266426280754873,0.008933960486695631,0.9906314180817323
2015-03-10,-1,-0.00031598432814445524,-1.554017182624559e-05,-0.005355122107198127,0.008933960486695631,0.9901244816538439
2015-03-12,0,-0.00022799357064813585,0.00010183726862183357,-0.006586456094994879,0.008748888433549238,0.9903066016136106
2015-03-16,0,-1.9801033302154934e-05,0.00025008111724012807,-0.005355122107198127,0.005356555638702996,0.9908449113104927
2015-03-18,1,0.0009547743345397514,0.0011035698580823487,-0.006217618559188185,0.005353110608804957,0.9911347913255929
2015-03-20,1,0.0018359159345154084,0.0018887073358463792,-0.00798990622549403,0.002313721262881413,0.9914523403606968
2015-03-24,1,0.001692451518656366,0.0017518353727160197,-0.00798990622549403,0.0031474519753099833,0.9917202120331334
2015-03-26,1,0.0011329657159901978,0.0012338394464062553,-0.0060718918057896774,0.004705991774113578,0.9928553641326486
2015-03-30,1,0.001945720246948198,0.0019874232336398404,-0.0060718918057896774,0.004051314443016685,0.9935920890967754
2015-04-01,1,0.0011503697752307238,0.001209009943237309,-0.00798990622549403,0.004051314443016685,0.9923908276193033
2015-04-06,1,0.0014507627976807996,0.0014951876040195282,-0.00798990622549403,0.0038547855925433103,0.9928588962368322
2015-04-08,1,0.0005560686974660133,0.00071314767164509,-0.00798990622549403,0.0038547855925433103,0.9923285282207713
2015-04-10,0,-6.744393011363394e-05,0.0001735766744972256,-0.007745850385244482,0.0043827674152502605,0.9916325165095946
2015-04-14,-1,-0.0009822593814420516,-0.0006735429367946214,-0.00798990622549403,0.004247334945063391,0.990914370955839
2015-04-16,-1,-0.0008470082479683217,-0.0005660766976302763,-0.007745850385244482,0.004247334945063391,0.9904666029824011
2015-04-20,-1,-0.0013024093792600754,-0.0009777808427631272,-0.006038803145294997,0.00516034476894429,0.9901549238508643
2015-04-22,-1,-0.0013789391988377308,-0.0010440376782308968,-0.007065627148070361,0.00516034476894429,0.9900694114353854
2015-04-24,-1,-0.0009576377885625979,-0.000683054479730293,-0.007791391829247562,0.004782270108498448,0.9900611482360031
2015-04-28,-1,-0.0006494875291640806,-0.00043266078596253623,-0.009105480788110016,0.004809856780815589,0.989437210902042
2015-04-30,-1,-0.0022076277298261815,-0.0018071077629210426,-0.007791391829247562,0.004809856780815589,0.9910209816752088
2015-05-04,-1,-0.0020139644678192833,-0.001636589156295125,-0.008908402488340815,0.006112567402196506,0.9900372010967182
2015-05-06,-1,-0.0029470963654859277,-0.0024790937218776023,-0.008908402488340815,0.006112567402196506,0.9909324420635003
2015-05-08,-1,-0.001797035734183596,-0.0014231207159901298,-0.010420411097907156,0.004229051511202548,0.9923151606194353
2015-05-12,-1,-0.0026091476077362407,-0.0021176348605150205,-0.009058718950746001,0.004773182232076654,0.9926869033749605
2015-05-14,-1,-0.001175526034380921,-0.0009320142741731445,-0.009058718950746001,0.004459072748386151,0.9930715558185006
2015-05-18,-1,-0.0006406614507401586,-0.0004800615520250012,-0.009058718950746001,0.004459072748386151,0.9927613562540443
2015-05-20,-1,-0.0010461385595589073,-0.0008304463821411915,-0.009058718950746001,0.005366183412843567,0.9923239111968577
2015-05-22,-1,-0.002464539119655813,-0.002088464470290046,-0.010225180951987038,0.005366183412843567,0.9924913169674253
2015-05-27,-1,-0.0030623460449671243,-0.0025877461167499354,-0.009058718950746001,0.00503368281427497,0.9932385875583325
2015-05-29,-1,-0.002947705494424544,-0.0025387043744994975,-0.009058718950746001,0.00503368281427497,0.9929468462982448
2015-06-02,-1,-0.0023938494090429132,-0.002106551713547487,-0.009058718950746001,0.0023928372247970157,0.9931046803294781
2015-06-04,-1,-0.0024465919963720393,-0.0021389341121777687,-0.008634428487587812,0.00503368281427497,0.9931413041570472
2015-06-08,-1,-0.0029429381788197593,-0.002602989967031646,-0.008098233513683549,0.007135345743546304,0.9920007837064388
2015-06-10,-1,-0.002476103583057917,-0.00222166722971538,-0.008098233513683549,0.0059510826087243816,0.9925038051184164
2015-06-12,-1,-0.0022933275742102748,-0.0020693765375509243,-0.008098233513683549,0.007135345743546304,0.9921077856266426
2015-06-16,-1,-0.0017965382201749081,-0.0016663968013175645,-0.0060313333528109175,0.0059510826087243816,0.992706425605718
2015-06-18,-1,-0.0009424551095516629,-0.0009284451487105389,-0.0060313333528109175,0.004898667310412198,0.9927250706645557
2015-06-22,-1,-0.0016776782525181615,-0.0015691022897922624,-0.004141012636656247,0.004898667310412198,0.9933217486277923
2015-06-24,-1,-0.002356312875807742,-0.002123577264462004,-0.004141012636656247,0.004898667310412198,0.9927877734960922
2015-06-26,-1,-0.0022074884749944557,-0.002033366446938796,-0.0034830927192138258,0.005128915301441038,0.9929882587144543
2015-06-30,-1,-0.002429899755112218,-0.0022580069105625146,-0.0032888996367039782,0.006297238569771539,0.9933039598197058
2015-07-02,-1,-0.0025617502347419535,-0.0023362689729553594,-0.0034830927192138258,0.005128915301441038,0.9927373445639257
2015-07-07,-1,-0.0014172523059982622,-0.0013389249192244095,-0.004141012636656247,0.0047480942445920285,0.993037009516565
2015-07-09,-1,-0.0018427527779270728,-0.0017270284893962362,-0.0034830927192138258,0.0047480942445920285,0.99290894817241
2015-07-13,-1,-0.0010819336317977252,-0.0010647666990713732,-0.004560949423996116,0.0024303721917244003,0.9932926288362051
2015-07-15,-1,-0.001458901968107509,-0.0013729506478408354,-0.0042959340187792815,0.0024303721917244003,0.9932823559730586
2015-07-17,-1,-0.001084854765388824,-0.001031943992137558,-0.0042959340187792815,0.00441443467880833,0.9932571899685422
2015-07-21,-1,-0.0013209076142937468,-0.00121663203040628,-0.0042959340187792815,0.0052967776956468655,0.9929744722351014
2015-07-23,-1,-0.0010932004173791934,-0.0010511150983079577,-0.00472377388957784,0.0052967776956468655,0.9930043747302294
2015-07-27,-1,-0.001023851543608777,-0.0009779101785582474,-0.01296655635449876,0.0028782553684468066,0.9899694044543003
2015-07-29,-1,-0.0011497109147872425,-0.001043119118850383,-0.01357981377569806,0.0028782553684468066,0.9868364570270086
2015-07-31,-1,-0.0018027773028950716,-0.0016361093703377517,-0.01296655635449876,0.006883124143764553,0.9866819709987621
2015-08-04,-1,-0.0013872987215966203,-0.0013083392346779693,-0.01515824621064835,0.0028782553684468066,0.9854501099292625
2015-08-06,-1,-0.0018856752923740142,-0.0017497403776513256,-0.014169614803648024,0.006883124143764553,0.9854445429460255
2015-08-10,-1,-0.001415463673522741,-0.0013868187696509267,-0.01829862014351935,0.009088187514184895,0.9840583110546073
2015-08-12,-1,-0.0007242445294515678,-0.0006055394868794124,-0.01829862014351935,0.01034197796547645,0.9832575082131779
2015-08-14,0,-9.884997770979185e-05,0.00010060086396691944,-0.01829862014351935,0.011456429619122055,0.9828684680518462
2015-08-18,0,-0.00012715571169505732,2.2244798766448315e-05,-0.01829862014351935,0.013163502024274333,0.9814223842250204
2015-08-20,-1,-0.0003195558894050148,-0.00016171862567820845,-0.01829862014351935,0.01529551320417893,0.9812014653593326
2015-08-24,-1,-0.0031037134400212015,-0.0028913487315948318,-0.01186639700075573,0.01529551320417893,0.9834057325246681
2015-08-26,-1,-0.0019604933008109506,-0.0019200549801393501,-0.00959955631883455,0.012648806401870301,0.9868149517508429
2015-08-28,-1,-0.0012579000980073186,-0.001239054974369001,-0.01186639700075573,0.011456429619122055,0.9872148930477522
2015-09-01,-1,-0.003243817813512755,-0.0030104693509876643,-0.0074348052384802755,0.012648806401870301,0.9873947285696693
2015-09-03,-1,-0.002564705787177796,-0.00241866851385605,-0.0074348052384802755,0.012648806401870301,0.9876637153505887
2015-09-08,-1,-0.0023771396694156747,-0.002261402204545003,-0.0060395387776537085,0.010863257878133279,0.9888382329664921
2015-09-10,-1,-0.002269215719984938,-0.0021567486141315967,-0.0033135198269722294,0.00984563641710335,0.9890941388931275
2015-09-14,-1,-0.001560923767600855,-0.001539261636619606,-0.00209852192971708,0.008344153146185647,0.9900284588009942
2015-09-16,1,9.835074542462066e-05,0.0003200284699900536,-0.005491129854131848,0.007604346217811393,0.9916186785817852
2015-09-18,1,0.0005841579714788379,0.0008832210493064371,-0.003130716852464942,0.007604346217811393,0.9917518355194823
2015-09-22,-1,-0.0006419266142222267,-0.0005894928622970439,-0.003130716852464942,0.007776272508544766,0.9910730134745489
2015-09-24,-1,-0.0006484818630794476,-0.0005819903618573051,-0.0031257543162061287,0.008344153146185647,0.990887355491108
2015-09-28,-1,-0.001639032924698843,-0.0015282851582678596,-0.0050464548899592215,0.008344153146185647,0.9907197641027868
2015-09-30,1,0.00040482397478748804,0.0006241246486886603,-0.0050464548899592215,0.007740144663940966,0.9923393405881286
2015-10-02,1,0.000504494024804508,0.000710579016580827,-0.0050464548899592215,0.008235769612374245,0.9913316070716595
2015-10-06,1,0.0012357256427459617,0.0015740216508625378,-0.00570377803228677,0.008669283695212216,0.9901731885890424
2015-10-08,1,0.0019401665549977898,0.002390696668348476,-0.007979548629738244,0.008669283695212216,0.9899452534176176
2015-10-12,1,0.002041395199499354,0.002491231580125851,-0.00967771181084952,0.008669283695212216,0.988184363734715
2015-10-14,1,0.0013331547014824444,0.0016861458393511827,-0.009041973353903783,0.010909752263238027,0.9888271018570606
2015-10-16,1,0.0020087601675034357,0.0024380767087267253,-0.00908923994143666,0.008519228950238123,0.9890908016859454
2015-10-20,1,0.001916459866481542,0.0023073963568346107,-0.00908923994143666,0.007559238779630684,0.9896025956730105
2015-10-22,1,0.0021402798299637368,0.0025555796291702954,-0.00908923994143666,0.006533001336069433,0.9902158632212806
2015-10-26,1,0.0011057509899043327,0.0013523298675090147,-0.005532317729082457,0.007559238779630684,0.9902530027736731
2015-10-28,1,0.0012755766340931884,0.0015226105563165043,-0.00908923994143666,0.006533001336069433,0.9900604772220665
2015-10-30,1,0.002318664809617221,0.002707545869059757,-0.00908923994143666,0.006533001336069433,0.9905134105818433
2015-11-03,1,0.0029847757276732175,0.0034592402713627753,-0.009395957444313374,0.006533001336069433,0.9904366949472512
2015-11-05,1,0.0027897218539945376,0.0032361842994456528,-0.008953271500603033,0.007720014550310937,0.9899279655004759
2015-11-09,1,0.0016955901052864673,0.002030696456995363,-0.004909512057325694,0.007720014550310937,0.992170003607412
2015-11-11,1,0.0018023541483979794,0.0021127127772755014,-0.007174648642826185,0.006186226356722715,0.9916319621054064
2015-11-13,1,0.0013125601267321167,0.0015460298389725882,-0.005231914895138275,0.007720014550310937,0.9917084740198412
2015-11-17,1,0.0012826931239295933,0.0014863864292058268,-0.005231914895138275,0.013353124007845461,0.9904727560015713
2015-11-19,1,0.0011762177094866786,0.0013220672651220002,-0.007174648642826185,0.013353124007845461,0.9893980576500926
2015-11-23,1,0.0016372493343498602,0.0018616337440774079,-0.007174648642826185,0.009642583388882305,0.9902962003158963
2015-11-25,1,0.0017560353466544209,0.0020465521551670126,-0.005231914895138275,0.013352645294171961,0.9903070766116226
2015-11-30,1,0.0015354423574133458,0.0017652038139570148,-0.002034239632118705,0.013352645294171961,0.9909065012593234
2015-12-02,1,0.0013506937224952386,0.0015825564306814603,-0.005643393058576778,0.006877191931281817,0.9918231719064763
2015-12-04,1,0.0016365410327976923,0.0018929399872887594,-0.005643393058576778,0.006877191931281817,0.9906765677286142
2015-12-08,1,0.0018438853883833743,0.0021517460205131797,-0.008531398616941174,0.006877191931281817,0.9897457602586427
2015-12-10,1,0.0012930291747655226,0.0015266292647752836,-0.008531398616941174,0.010739559394804867,0.9889271487089933
2015-12-14,1,0.0018414528132998645,0.0021327958025810427,-0.014649893699773237,0.006015776387990899,0.9878202136275427
2015-12-16,1,0.0031602636066100824,0.003636984448344832,-0.014649893699773237,0.002339379639654407,0.9878054126681037
2015-12-18,1,0.0024311375378469743,0.0028294663508230773,-0.014649893699773237,0.005403574543907277,0.9877917915546851
2015-12-22,1,0.0020071755018371373,0.0022979408885899924,-0.014649893699773237,0.007972405281964648,0.9868432774428423
2015-12-24,1,0.002365095290809486,0.0026995790335699625,-0.014649893699773237,0.007972405281964648,0.9857679834738414
2015-12-29,1,0.0021828207041049126,0.002459911512767877,-0.018031602371519663,0.007972405281964648,0.9837288645322532
2015-12-31,1,0.0013560909048307885,0.0015032435479839642,-0.018031602371519663,0.007972405281964648,0.9847188600566815
2016-01-05,1,0.0012772334222571904,0.001416819294290282,-0.014649893699773237,0.0068599109559959485,0.986392272115335
2016-01-07,1,0.0009403206940714528,0.0010664529495550798,-0.01481502839798916,0.007972405281964648,0.9854819677818558
2016-01-11,1,0.0005392895916569904,0.0006332287021171138,-0.018527006466167437,0.0068599109559959485,0.9846891064496462
2016-01-13,-1,-0.0007948774604110379,-0.000700498724369587,-0.018697881343046088,0.007972405281964648,0.984150554142623
2016-01-15,-1,-0.0022653581524112653,-0.0019150491242019368,-0.018697881343046088,0.009439050270330701,0.9842031653708361
2016-01-20,-1,-0.0028207310375963144,-0.002365956741206449,-0.014213482231829673,0.015291476406306785,0.9850910681087396
2016-01-22,-1,-0.001240325856236808,-0.0009962403042592773,-0.014213482231829673,0.015291476406306785,0.98517075059164
2016-01-26,-1,-0.0022895212937607346,-0.001869023702852771,-0.014213482231829673,0.009049130736877579,0.9865439858861591
2016-01-28,-1,-0.003478534621812255,-0.0029354534613958688,-0.0115374159442179,0.013437049809334689,0.9871109323463485
2016-02-01,-1,-0.003516078371841418,-0.002973307268685582,-0.0115374159442179,0.015291476406306785,0.9856964848098477
2016-02-03,-1,-0.00390934952381887,-0.0033254558953452534,-0.006910290219981986,0.015291476406306785,0.9856842272229714
2016-02-05,-1,-0.0035368080604122653,-0.0030172164495228153,-0.004056873191515193,0.013437049809334689,0.9873168726027478
2016-02-09,-1,-0.004543796119737072,-0.00397250593569454,-0.003237544024618665,0.013437049809334689,0.988304877962595
2016-02-11,-1,-0.004461024689980292,-0.0039029419354218793,-0.002187585089585136,0.013437049809334689,0.9879813005530765
2016-02-16,-1,-0.004133066620070857,-0.0035876080973488876,-0.002187585089585136,0.008450623565606618,0.9888810486789564
2016-02-18,-1,-0.003835827176456046,-0.003312577026134314,-0.0006592830381676577,0.012879280308906508,0.9882351142194815
2016-02-22,-1,-0.003178450655185742,-0.0027115061183542394,-0.0029010287015901266,0.007182102572488452,0.9901616570231017
2016-02-24,-1,-0.002767470458444525,-0.0024063778007318974,-0.0032583431963484387,0.007182102572488452,0.9900776837579056
2016-02-26,-1,-0.002480847283929049,-0.0021677572941722688,-0.0027724343879467466,0.0061118015684385385,0.9907728822911521
2016-03-01,-1,-0.0011055559627653607,-0.0009638604755636136,-0.0027724343879467466,0.0061118015684385385,0.9922151508417298
2016-03-03,-1,-0.0007556449012746078,-0.0006771790104659238,-0.0027724343879467466,0.0061118015684385385,0.9921999612354033
2016-03-07,-1,-0.0005523727365799649,-0.0005078204905020881,-0.0032153170174731667,0.0061118015684385385,0.9921335742762224
2016-03-09,-1,-0.0013033424862625414,-0.0011376774051688357,-0.0032153170174731667,0.007275932830753627,0.9918144162278354
2016-03-11,1,0.0005536933990007702,0.0006521979691441098,-0.0032153170174731667,0.006939156745746676,0.9940010386656438
2016-03-15,1,0.0007559064855037307,0.0008857574708024283,-0.004015203870190133,0.007547010366843223,0.9930514640744372
2016-03-17,1,0.0017061383026862038,0.001970890825638058,-0.004015203870190133,0.006939156745746676,0.9938362042563288
2016-03-21,1,0.0010698615299571778,0.001207661459351706,-0.0032153170174731667,0.007547010366843223,0.9939288979611117
2016-03-23,1,0.0008230407852446114,0.0009451785342757802,-0.0032153170174731667,0.007547010366843223,0.9933388565976841
2016-03-28,1,0.0013559496064141515,0.001604991593075708,-0.002219564349827845,0.007580594968659928,0.9933708508785009
2016-03-30,1,0.0017756275698627287,0.002137633525689049,-0.002219564349827845,0.006939156745746676,0.9940250971904026
2016-04-01,1,0.0018794192752313585,0.0022458045960241707,-0.006069428869723897,0.006939156745746676,0.993220618726892
2016-04-05,1,0.0011360783506313237,0.0013346789851114552,-0.006214676685830162,0.007580594968659928,0.9921391058093728
2016-04-07,1,0.0011761544403672266,0.0014015749842308661,-0.006069428869723897,0.007580594968659928,0.992918772195095
2016-04-11,1,0.001167199448551616,0.0013704745413980581,-0.006069428869723897,0.008973547428406527,0.9928453088980411
2016-04-13,1,0.0015513343507626526,0.0018129899878539801,-0.006069428869723897,0.007049311764498838,0.9929875669794206
2016-04-15,1,0.0019242075304783984,0.0022484595915181226,-0.006388510664585302,0.005319473197991165,0.9928790814634212
2016-04-19,1,0.0024147162763195795,0.0028271714137797052,-0.006388510664585302,0.005135651374910475,0.9928212113848648
2016-04-21,1,0.0015098493936901646,0.0018092767373683455,-0.00768660704111302,0.005135651374910475,0.9914788502693505
2016-04-25,1,0.001971549725365866,0.0023332852824428357,-0.00768660704111302,0.00506819120943846,0.9918452813555322
2016-04-27,1,0.0018924479323198535,0.0022190808301919074,-0.00768660704111302,0.005564188887549346,0.9912370780613626
2016-04-29,1,0.0017003672698133892,0.002019310519195113,-0.005806339737340205,0.005564188887549346,0.9916731430366293
2016-05-03,1,0.001928914126577948,0.002279933853772478,-0.003946062963817167,0.005564188887549346,0.9924947682434019
2016-05-05,1,0.0018738971992264943,0.0021894845197259084,-0.003946062963817167,0.005564188887549346,0.9924796990936318
2016-05-09,1,0.0023743059696413465,0.002796556430162015,-0.0049840656847111925,0.005564188887549346,0.992381082757585
2016-05-11,1,0.002467234040618233,0.0029690748811378067,-0.003946062963817167,0.005564188887549346,0.9932740625415224
2016-05-13,1,0.002013421128983078,0.0024121414202371346,-0.0049840656847111925,0.005564188887549346,0.9930091233092976
2016-05-17,1,0.002141126954358928,0.0025584530634548816,-0.005679734468103894,0.0050400511434707616,0.9929013429745736
2016-05-19,1,0.0008611359559304115,0.001135611351097055,-0.003946062963817167,0.0050400511434707616,0.99552634360743
2016-05-23,1,0.0012048932056070512,0.0015386862238184818,-0.003946062963817167,0.005124280221664411,0.9956098526868329
2016-05-25,1,0.0011854580260151977,0.0014892555209203855,-0.0016877124949399762,0.005124280221664411,0.9956018045395829
2016-05-27,1,0.0011085382899716852,0.001424399710133433,-0.005679734468103894,0.0048677802200461405,0.9945653584335167
2016-06-01,1,0.0012797989807385767,0.0015745784701081435,-0.005679734468103894,0.006008324140932787,0.993287320489159
2016-06-03,1,0.0011077873405134363,0.0013298835699828032,-0.005679734468103894,0.006008324140932787,0.9932894732502418
2016-06-07,1,0.000646926532273133,0.0007550376892941416,-0.006131125489495881,0.006151583333566177,0.9924424050315835
2016-06-09,1,0.0008273029539152866,0.00095961499064944,-0.007474018804538033,0.0071018914575749995,0.9910581376557885
2016-06-13,0,-1.6197735756153554e-05,4.050552488638874e-06,-0.0025396080486470842,0.010754620521356121,0.9905629110928628
2016-06-15,1,0.00026686800942431703,0.00032522627087318523,-0.0021421442729935916,0.010754620521356121,0.9907278093268298
2016-06-17,1,0.00041456810950811664,0.0005091401489587262,-0.0006332961477958723,0.010754620521356121,0.9907085499273453
2016-06-21,-1,-0.00018286777076721212,-0.00014367563254019628,-0.0030094958896639797,0.010754620521356121,0.9903087818897565
2016-06-23,1,0.0004627303677725927,0.0005134630649341844,-0.0030094958896639797,0.010090937277937225,0.9908536024839918
2016-06-27,-1,-0.0008032034941692304,-0.0006756518809315033,0.00034373769730920115,0.010090937277937225,0.991519221557896
2016-06-29,1,0.00033973004370415434,0.00034928518877674203,-0.0014758548356996052,0.0073227850584921626,0.9935501666305302
2016-07-01,-1,-0.0009541735009098702,-0.0006695514822104467,-0.0014758548356996052,0.009278532137336334,0.9923436187411881
2016-07-06,-1,-0.0014751592444842028,-0.0011073742796107373,-0.0015952970720141812,0.0073227850584921626,0.9928899535872371
2016-07-08,-1,-0.0008059720628000819,-0.0005439784758844339,-0.0014758548356996052,0.007254444625644606,0.9941431945756488
2016-07-12,0,-0.00010817711277662039,7.184143292767603e-05,-0.0014758548356996052,0.005066023675113399,0.9948974792486203
2016-07-14,1,0.00030228701040421307,0.0004192501930341509,-0.0014758548356996052,0.005066023675113399,0.9951307850901558
2016-07-18,1,8.414004899411813e-05,0.00024649438455492874,-0.0014758548356996052,0.005573008684884704,0.9949008727040801
2016-07-20,1,0.00010258922392672963,0.0002699310142291154,-0.0014758548356996052,0.0050244058711956165,0.9947325100128316
2016-07-22,1,0.0011549473322262503,0.0011663193949607471,-0.0021188873369302396,0.004365065069422899,0.9948166753846044
2016-07-26,1,0.000991581829276877,0.00099939109318704,-0.003593435363165254,0.004365065069422899,0.9945748011708107
2016-07-28,1,0.0010293344336804809,0.0010352981275366443,-0.0045175968542111,0.003842810632612261,0.994527898493094
2016-08-01,1,0.0013493689393499846,0.0013565241476016497,-0.007097066286259046,0.003842810632612261,0.9945439454880268
2016-08-03,1,0.0014636349536705545,0.0015714621961544013,-0.0045175968542111,0.003842810632612261,0.9951798836404738
2016-08-05,1,0.0016872635842263798,0.0018300519614867909,-0.0045175968542111,0.004365065069422899,0.9950082495187004
2016-08-09,1,0.0021530504162185914,0.00241973567800319,-0.0045175968542111,0.0036898523550431025,0.9951660964304306
2016-08-11,1,0.001713755071315974,0.0018981650986079242,-0.007097066286259046,0.0036898523550431025,0.992768239449284
2016-08-15,1,0.0016225737982678017,0.0017679773588701357,-0.007566696336485457,0.0036898523550431025,0.9905926758988871
2016-08-17,1,0.001373592269513075,0.0014924754802049022,-0.007097066286259046,0.003291417083436911,0.9910606470421887
2016-08-19,1,0.0010963898859184913,0.0012012410969410917,-0.0045175968542111,0.003761293236703143,0.9915619888941529
2016-08-23,1,0.001114224304692209,0.0012257917817623128,-0.0034774101113568276,0.00466588965996269,0.9912865366714279
2016-08-25,1,0.0008288062807701344,0.0008970648020438,-0.0010144666494574207,0.00717513766470152,0.9908919019913348
2016-08-29,1,0.0006237672681587311,0.0006479950441898489,-0.002764729441248308,0.00511140133280582,0.9911732581885493
2016-08-31,1,0.0005787145303912028,0.0006048117982016748,-0.004911413516730114,0.00511140133280582,0.9905252773950565
2016-09-02,1,0.0010913196807804458,0.0012091306389923069,-0.007587754537091105,0.0033739767423638448,0.990050614871921
2016-09-07,1,0.0013612273829896712,0.0015288920285590603,-0.014760069534662048,0.002414111943558077,0.9881505475073978
2016-09-09,-1,-0.0005419945415245207,-0.00048373281785757144,-0.00890388445111059,0.0040976618153835895,0.9910678805441194
2016-09-13,-1,-0.0011596799228030465,-0.0009872168253450048,-0.007697227030107464,0.002414111943558077,0.9928985142396293
2016-09-15,-1,-0.0008415882132509902,-0.0007329359883927277,-0.007697227030107464,0.0044040233211638516,0.9923739610176635
2016-09-19,-1,-0.0006747448939171078,-0.000590530099562489,-0.011011738419017437,0.0044040233211638516,0.9918317576761093
2016-09-21,-1,-0.00049873983893097,-0.000412989314614579,-0.011011738419017437,0.0044040233211638516,0.992227809895878
2016-09-23,1,3.640513557587366e-05,4.876730565805221e-05,-0.011011738419017437,0.001285267565254241,0.9925249622374333
2016-09-27,-1,-0.0003008697668388273,-0.00026104893975040596,-0.011011738419017437,0.002007680493109733,0.9926966805355791
2016-09-29,-1,-0.0006457900564428354,-0.0005891806781510805,-0.014507520938267644,0.0014104562047811855,0.9914236714018562
2016-10-03,-1,-0.0016604363339989279,-0.00146338470459683,-0.011011738419017437,0.0028783674640385564,0.9917367187332443
2016-10-05,-1,-0.0032285770108756726,-0.0028382794747217064,-0.011011738419017437,0.0028783674640385564,0.9912888374035135
2016-10-07,-1,-0.003041299905792904,-0.002680807591775673,-0.011011738419017437,0.0029186601641198818,0.9907874240959855
2016-10-11,-1,-0.0047734761012049425,-0.004106152541652515,-0.010564532485874197,0.004717678432730049,0.9898804010217002
2016-10-13,-1,-0.00396024623119314,-0.003382628277052121,-0.010564532485874197,0.0031114371754421034,0.988734533080582
2016-10-17,-1,-0.004252271858002108,-0.003631114619784903,-0.007577345124715484,0.007208935139195087,0.9873592350421599
2016-10-19,-1,-0.004058711172523937,-0.003458785829125926,-0.012754643809460104,0.005024362847940476,0.9871685737432335
2016-10-21,-1,-0.0041881897301738,-0.003599231970418026,-0.012754643809460104,0.005024362847940476,0.9872621868434202
2016-10-25,-1,-0.004214666989769194,-0.003632952751834705,-0.012754643809460104,0.013473290712720073,0.9866768867507422
2016-10-27,-1,-0.005934099207986753,-0.0051560158848233,-0.007499760024373344,0.013473290712720073,0.9874238250959576
2016-10-31,-1,-0.005411844321773201,-0.004713577280718995,-0.005322500807264954,0.012730050048481743,0.9871288088514902
2016-11-02,-1,-0.007648013792904248,-0.006666962700741564,-0.005322500807264954,0.012730050048481743,0.9873777059972285
2016-11-04,-1,-0.0069023516948958155,-0.006006183946224768,-0.005322500807264954,0.011117925413151375,0.9875076950834458
2016-11-08,-1,-0.006189173175414182,-0.005378622298299138,-0.005322500807264954,0.012730050048481743,0.9868042617654667
2016-11-10,-1,-0.00460820681522655,-0.0039977471299474255,-0.006641652810603174,0.011117925413151375,0.9891144255133735
2016-11-14,-1,-0.0030842179024253473,-0.0026811863799396708,-0.006641652810603174,0.008862628276484485,0.9908727076888777
2016-11-16,-1,-0.004997955554544022,-0.004323227957606561,-0.006641652810603174,0.008862628276484485,0.9891671717868147
2016-11-18,-1,-0.004504837730153125,-0.003965111761746692,-0.003422362480688223,0.012606769047008711,0.9876084606226175
2016-11-22,-1,-0.0037499790360260923,-0.0033085304643892567,-0.007155793402313669,0.011117925413151375,0.9874456704962005
2016-11-25,-1,-0.0036569994108442937,-0.003220702708997769,-0.007155793402313669,0.011117925413151375,0.9877690849987751
2016-11-29,-1,-0.0025139635916970465,-0.0022421358794299513,-0.011864453943437266,0.009487223369908978,0.9883524411736434
2016-12-01,-1,-0.003029476840504912,-0.0027378110659869582,-0.004237582142922321,0.01176796985578766,0.9877413936638476
2016-12-05,-1,-0.0021105898757100474,-0.001926694444575612,-0.004237582142922321,0.014764752172844628,0.9868243333794655
2016-12-07,-1,-0.0003940408859649555,-0.0003607559783438354,-0.004237582142922321,0.01019321690484768,0.9887556587286346
2016-12-09,-1,-0.00026892497008763655,-0.00020533865357050894,-0.010251975419374395,0.01019321690484768,0.9883147965496051
2016-12-13,1,0.0001330793657734022,0.00028214248193202053,-0.01182467503208514,0.011987143820788618,0.9872641305916574
2016-12-15,-1,-0.0017195441883867952,-0.0016377967669297436,-0.005454397637676145,0.011987143820788618,0.9889295569768232
2016-12-19,-1,-0.0003542425138661343,-0.00025175065311189944,-0.010251975419374395,0.0092478344478322,0.9896109675889111
2016-12-21,0,-0.0001469386510390561,2.6636647174392222e-05,-0.005454397637676145,0.01002180787013282,0.9903060413671155
2016-12-23,-1,-0.0005010936483015971,-0.0003940034993101041,-0.010251975419374395,0.010616330531934394,0.9890596938001712
2016-12-28,-1,-0.0005869428322422244,-0.0004577922492418998,-0.00591553886696951,0.010616330531934394,0.9891912926274592
2016-12-30,1,0.0007476592982041849,0.0010796592975904368,-0.00591553886696951,0.00900327907402156,0.9903917354035076
2017-01-04,1,0.0023049714111698033,0.0028327405979538915,-0.010251975419374395,0.007694864270550524,0.9914438542116217
2017-01-06,1,0.0026874703792544243,0.0032916807619218463,-0.010251975419374395,0.007694864270550524,0.9916998466494649
2017-01-10,1,0.0019037383308044846,0.002398336087537254,-0.0047205585669441025,0.007694864270550524,0.9922848951721152
2017-01-12,1,0.0018900261852551094,0.0023629994726120955,-0.004106853255935408,0.007694864270550524,0.9930304763610113
2017-01-17,1,0.0021205918816623965,0.002629423231274814,-0.0038953201941890046,0.007863089518796225,0.9932021244180794
2017-01-19,1,0.0018263560604101351,0.002286053161300937,0.00013165421587157488,0.007863089518796225,0.9939278610352232
2017-01-23,1,0.002538230628337548,0.003094794719517078,0.00013165421587157488,0.007863089518796225,0.9942977102726768
2017-01-25,1,0.0024944510456179113,0.003042036383266708,0.0007433015757981052,0.007249947599641118,0.9953884690068668
2017-01-27,1,0.003038397925916728,0.0036968692099881304,0.0007433015757981052,0.007249947599641118,0.9951916546635646
2017-01-31,1,0.003308537533200302,0.00402145739292788,-0.0022129421961247435,0.007249947599641118,0.9945843772506595
2017-02-02,1,0.002109764780578491,0.00253972314224244,-0.0022129421961247435,0.006523063256055481,0.9943337214308109
2017-02-06,1,0.002425688926368629,0.0028960875430651054,-0.0022129421961247435,0.006523063256055481,0.994312409172025
2017-02-08,1,0.0025196391387912577,0.003000824339204929,-0.006443698278287074,0.00583481663960925,0.993305124547497
2017-02-10,1,0.0033267397729223012,0.003927526841108051,-0.007798393967029948,0.004176416498361344,0.9927476106062221
2017-02-14,1,0.004091102134031615,0.004828229939653477,-0.007798393967029948,0.0028378376798847676,0.9911990996074855
2017-02-16,1,0.0048912040589734265,0.005745129976599751,-0.007798393967029948,0.0028378376798847676,0.9904692166058603
2017-02-21,1,0.0052084667474109544,0.006077939169061457,-0.007798393967029948,0.0007121219903151298,0.9898803742621481
2017-02-23,1,0.005079361023703378,0.005902064683839574,-0.007798393967029948,0.0007121219903151298,0.9897358380836433
2017-02-27,1,0.004865136943623549,0.005616741811536025,-0.00912581732522383,-0.0001809678233963532,0.9893805024707046
2017-03-01,1,0.003319933506866317,0.0037619757029344787,-0.00912581732522383,9.584270215001182e-05,0.9911480580235478
2017-03-03,1,0.002678620362486381,0.0030506140295075007,-0.005350409540241068,0.0017313184334335776,0.9924490678039531
2017-03-07,1,0.002405127702344809,0.0027095168375135827,-0.005350409540241068,0.004832946751987019,0.992543944181695
2017-03-09,1,0.0015228724204796196,0.0017328257525205631,-0.0037572185795238426,0.004832946751987019,0.9942550069399051
2017-03-13,1,0.0006679220877953566,0.0007216233114577279,-0.0030692403359769767,0.005693218060203693,0.994584203834665
2017-03-15,1,0.0015005401334098518,0.0016769931579828784,-0.002031843923446283,0.005693218060203693,0.9955250912989342
2017-03-17,1,0.0012527795300856324,0.00136773786363637,-0.002031843923446283,0.006480324244455941,0.995081974940077
2017-03-21,1,0.0009166190153386303,0.0009732410841349759,-0.004101223739215358,0.006480324244455941,0.994468571616124
2017-03-23,1,0.00011181356962816619,0.00025501607778696697,-0.0035676667073855682,0.005015099656381389,0.9950483036089713
2017-03-27,-1,-0.0007273261269239496,-0.0004933586225943821,-0.0018539915795030197,0.006480324244455941,0.9948581946893289
2017-03-29,-1,-0.0022514656636382978,-0.0017217129772487487,-0.00781525683918673,0.006480324244455941,0.9918636396773977
2017-03-31,-1,-0.001633980607730306,-0.001206974257062457,-0.00781525683918673,0.005191163462898706,0.9920570734975567
2017-04-04,-1,-0.0009840401144764353,-0.0006363602825283278,-0.0079391871389061,0.003402374182119137,0.9919926003589171
2017-04-06,1,4.181334960335996e-05,0.0001804993113552963,-0.00886175922507905,0.004432422340396215,0.9913202354994994
2017-04-10,1,0.0010488311608222985,0.0010952979954395473,-0.00886175922507905,0.003265961953561428,0.9909600202723221
2017-04-12,1,0.0006067461955640889,0.0006781640743606367,-0.010854202080873615,0.0005079402948906784,0.9908361285445092
2017-04-17,1,0.00019484429943932073,0.00034597196413685524,-0.010854202080873615,-0.0006834365757263944,0.9916007494984423
2017-04-19,-1,-0.00032992812322859665,-0.00013465966974446147,-0.010854202080873615,0.0005079402948906784,0.9923607716084094
2017-04-21,-1,-0.0005253930430434444,-0.00030662935529038586,-0.010854202080873615,0.002938662765014344,0.9921778467010168
2017-04-25,-1,-0.00026665787542694166,-0.00010708855525896189,-0.00546158412106779,0.002938662765014344,0.9927209202475169
2017-04-27,-1,-0.0036278645608646873,-0.0030198154656835936,-0.003412699433763922,0.002938662765014344,0.9952316752172222
2017-05-01,-1,-0.0028531402771818206,-0.0023722125813775427,-0.0038836557560939147,0.00045137983960954575,0.9959398477294911
2017-05-03,-1,-0.0026219520380557568,-0.002243646445241939,-0.003540872785275386,0.003126197032450927,0.996042686799993
2017-05-05,-1,-0.0029186676890178096,-0.0025063027995133854,-0.003412699433763922,0.003126197032450927,0.9962982123711497
2017-05-09,-1,-0.003100183316634455,-0.002674439681136699,-0.0034731975160486785,0.0036928579662927233,0.9954078032206638
2017-05-11,-1,-0.005040105583067781,-0.004283783730799722,-0.0027033301284298127,0.0052959211303723365,0.9932092492497655
2017-05-15,-1,-0.004536199100002636,-0.003908046934029751,-0.0016290284015321398,0.006268507134589469,0.9926206100282091
2017-05-17,-1,-0.004765141940077223,-0.0040898315486536775,-0.0014529080505067062,0.006268507134589469,0.9922523412350123
2017-05-19,-1,-0.0046770040289261326,-0.004006195620454889,-0.0022859729017753842,0.00556316707329029,0.9926968990616021
2017-05-23,-1,-0.004760539379559751,-0.004053022181361901,-0.0028164339382994123,0.005060807776605943,0.9931021910605525
2017-05-25,-1,-0.003971801047674258,-0.0034360910415583822,-0.0028164339382994123,0.005371189394688804,0.9933129524051997
2017-05-30,-1,-0.003258750796873155,-0.0028698715370335183,-0.0022859729017753842,0.005371189394688804,0.9928854828966024
2017-06-01,-1,-0.0027300718015774894,-0.002414686984592228,-0.002451827416608927,0.005371189394688804,0.9937435709563526
2017-06-05,-1,-0.0030175215236179784,-0.0026251991894079133,-0.002451827416608927,0.006039489520541742,0.9931257029122206
2017-06-07,-1,-0.0030912597793286032,-0.002697505572269845,-0.0038490105598563942,0.005371189394688804,0.9922619154087372
2017-06-09,-1,-0.0016484864286015958,-0.0014311881369437327,-0.007279999498158553,0.0012890725633499652,0.9931304029843671
2017-06-13,-1,-0.0012210012156071081,-0.001037895563365104,-0.007279999498158553,0.0012890725633499652,0.9930933178108295
2017-06-15,-1,-0.0006027877022714013,-0.0005281112921768354,-0.007279999498158553,0.0024621032110905827,0.9921491045672353
2017-06-19,-1,-0.0011750314948302347,-0.0010341523383061337,-0.008923132928256826,0.0024621032110905827,0.9918135754740753
2017-06-21,-1,-0.0012865845612855926,-0.0011426865966804364,-0.013580110285621139,0.006733648025233066,0.9910749452739098
2017-06-23,-1,-0.0010462355186240898,-0.0009341923297798019,-0.013580110285621139,0.0033482393943833916,0.9912380807106808
2017-06-27,-1,-0.0017211546412450002,-0.0015298281737111084,-0.005401336345644499,0.009265131615539704,0.9913755012072762
2017-06-29,-1,-0.0016575435384893688,-0.0014845904188573054,-0.004999517859735184,0.009278152468018809,0.9904879043965836
2017-07-03,-1,-0.0009078596713461241,-0.000829411070045977,-0.01192546239873973,0.009227163579842143,0.9905319853296253
2017-07-06,-1,-0.0020720779274691612,-0.0018978915384457492,-0.0014561080465092786,0.009278152468018809,0.9911036323706639
2017-07-10,-1,-0.0022697380664713114,-0.002101174023423842,-0.0014561080465092786,0.009278152468018809,0.9911638180764087
2017-07-12,-1,-0.001418047377272108,-0.0013730536347871694,-0.003485579626423918,0.009227163579842143,0.9916682417044252
2017-07-14,0,-0.0001320435413145496,2.8517836925254887e-05,-0.010167913811140874,0.007218784849268815,0.9926184496454892
2017-07-18,-1,-0.0007272872754707683,-0.000634811984590186,-0.0049807312366466966,0.008260542409374584,0.9924054665971008
2017-07-20,-1,-0.0005638027887157843,-0.0004295883175894023,-0.004452914093574048,0.007218784849268815,0.9931247558281583
2017-07-24,-1,-0.0006202036257165137,-0.0005233524338170632,-0.008476692259079592,0.007868247691850691,0.9923449276291851
2017-07-26,-1,-0.0003752911888317715,-0.0002819993115106215,-0.00965667247367884,0.007868247691850691,0.9919038610768047
2017-07-28,1,0.0004128725269900149,0.0006175486212413677,-0.009702171193851538,0.007868247691850691,0.991506458242599
2017-08-01,-1,-0.00015215862207730696,-8.455854838809566e-05,-0.009677665268469995,0.0050530221907169525,0.9917374786522389
2017-08-03,1,0.00027410370419850744,0.0003719044087897035,-0.009677665268469995,0.004535441221490832,0.9919791364196038
2017-08-07,1,0.0004558659052023383,0.000624332656392403,-0.009537348308863509,0.005781646706959313,0.9920938296099554
2017-08-09,1,0.00020195948721250215,0.00034885725721225426,-0.008342201854206694,0.005781646706959313,0.9924987753703858
2017-08-11,-1,-0.00031034168846084704,-0.00023740360181904918,-0.0077374266218176715,0.005781646706959313,0.9926687002512675
2017-08-15,1,0.0007349820542130979,0.0009731985144365514,-0.0077374266218176715,0.004932745965751966,0.9933005012254325
2017-08-17,1,1.0905653652316537e-05,0.00011033949639781856,-0.00659449062535999,0.005781646706959313,0.9929524864342594
2017-08-21,1,1.0414103190061136e-05,0.00011017519805251802,-0.00659449062535999,0.004932745965751966,0.9927173582672798
2017-08-23,1,0.00038517128902859025,0.0005605446510837807,-0.00614947654530011,0.005781646706959313,0.9925114021087718
2017-08-25,1,0.0008604014900180727,0.001128109267693959,-0.00614947654530011,0.005781646706959313,0.9927837224859558
2017-08-29,1,0.0004633233039714178,0.000696051492775956,-0.005941847126031819,0.006305096973020138,0.9928423558168642
2017-08-31,1,0.0011358545842198953,0.0014807907874767959,-0.005941847126031819,0.006305096973020138,0.9931128340689708
2017-09-05,1,0.0013472445847823753,0.0017421855710465764,-0.005941847126031819,0.005441060833061291,0.9932002908711244
2017-09-07,1,0.0017556285181193666,0.002213121491247942,-0.005941847126031819,0.009232035731002619,0.9925033001524614
2017-09-11,1,0.0014509411092630126,0.0018361141595380364,-0.004639355560479541,0.009884250850250067,0.9923568909640482
2017-09-13,1,0.0012746111286701999,0.0016342045998063747,-0.0018834221317426624,0.009884250850250067,0.9923071086287842
2017-09-15,1,0.002168304624245704,0.0026431846772029723,-0.003107627555183719,0.00934516830358905,0.9931293929240264
2017-09-19,0,-5.677731215615112e-05,9.235327956765086e-06,-0.0009585103698339903,0.00934516830358905,0.9936002420579895
2017-09-21,1,0.0012426769794217198,0.0015025597548421793,-0.003748281282621011,0.008138800709256955,0.9933238541655827
2017-09-25,1,0.0008787563229001518,0.0010413056432442926,-0.0032850006814226216,0.004928258945257788,0.9937691089594356
2017-09-27,1,0.0007680628165495117,0.0009024508994113884,-0.0032850006814226216,0.002580833442139942,0.993955098988931
2017-09-29,1,0.0006684028859631436,0.0007715697968387763,-0.0032850006814226216,0.002580833442139942,0.9938471116285771
2017-10-03,1,0.00014715142500302687,0.00014832363505648595,-0.002735626967613379,0.0024648502040378146,0.9941051075336859
2017-10-05,1,0.0008878956155667447,0.0009682496602054971,-0.002735626967613379,0.0024648502040378146,0.9944465753182511
2017-10-09,1,0.001514056304567123,0.0016688871702529853,-0.004013910434997148,0.0024648502040378146,0.992988440951633
2017-10-11,1,0.0018677912879797747,0.0020799723564633153,-0.004013910434997148,0.0034041776332579226,0.9930279023809885
2017-10-13,1,0.0019183374272766886,0.0021533159635194164,-0.004013910434997148,0.004860834120328804,0.9926752002300845
2017-10-17,1,0.0018189960866667589,0.0020381019447904556,-0.006529541079070861,0.004860834120328804,0.9923691431770522
2017-10-19,1,0.0001574360139691332,0.00018100614487335213,-0.0038606185602472623,0.0062371191588957335,0.9937895059399611
2017-10-23,1,5.820026544092436e-05,7.788636681153974e-05,-0.0035381042708610084,0.0062371191588957335,0.9938463325499514
2017-10-25,-1,-0.0003206741168107977,-0.0002620166705197394,-0.002162531547355048,0.0062371191588957335,0.9941532876210689
2017-10-27,-1,-0.0005422577596283381,-0.00044872919297694045,-0.0020641989952958177,0.0062371191588957335,0.9940864387867794
2017-10-31,1,0.0001435436228341676,0.0002010011941886117,-0.00213776654496892,0.0062371191588957335,0.9941672085396066
2017-11-02,1,0.0011097084421499907,0.0013155636316370032,-0.00213776654496892,0.005332369916814215,0.9941557858063467
2017-11-06,1,0.001466405183096185,0.001728101074154447,-0.00213776654496892,0.005189238393481592,0.9949357000705364
