JNU-Tangyin/eata/results/Batch4_SP500/Batch4_SP500-PRU.csv
Date,Action,Predicted_Q25,Predicted_Q75,Actual_Q25,Actual_Q75,RL_Reward
2010-12-14,0,0.0,0.0,-0.00451061705321802,0.010071576407363824,0.9904777528438595
2010-12-16,1,0.002990244894086164,0.00342720144303802,-0.005934899016210604,0.009841711241170548,0.9907250586077586
2010-12-20,1,0.003870317396305504,0.0044339129632115955,-0.0076150333894108,0.007584348369120275,0.9899158830727087
2010-12-22,1,0.00583616935398119,0.006765838711403628,-0.0076150333894108,0.008765379627512095,0.9899757556339005
2010-12-27,0,0.0,0.0,-0.005934899016210604,0.008765379627512095,0.990169638932693
2010-12-29,0,0.0,0.0,-0.003200870412063331,0.009865324560537653,0.9894077741638394
2010-12-31,1,0.001028116999830451,0.0010515654891150097,-0.003200870412063331,0.009865324560537653,0.9883322188775421
2011-01-04,1,0.005415600859003937,0.006110131485820594,-0.006506966303340985,0.009865324560537653,0.9884847950306261
2011-01-06,0,0.0,0.0,-0.006506966303340985,0.009865324560537653,0.9875193668457786
2011-01-10,1,0.00394611899517407,0.0044815146006550715,-0.0007272301874788951,0.010968537644782995,0.9892365869359762
2011-01-12,1,0.0041504186227602205,0.004509337669713979,-0.004226078793935244,0.010968537644782995,0.9879964035407927
2011-01-14,1,0.0030857831254914973,0.003220774876250357,-0.005246148608958851,0.009865324560537653,0.987999731373252
2011-01-19,0,0.0,0.0,-0.0007272301874788951,0.01242779584758915,0.9870628992864972
2011-01-21,0,0.0,0.0,-0.0029445242662095423,0.011998617150737498,0.9873191822974192
2011-01-25,0,0.0,0.0,-0.013682368490636336,0.011998617150737498,0.9852160912002347
2011-01-27,0,0.0,0.0,-0.013682368490636336,0.010555831101847822,0.985915905100647
2011-01-31,1,0.001916751885184196,0.002048782334718017,-0.01332764296645079,0.012996214532071783,0.9867744862960356
2011-02-02,1,0.0022428040266214387,0.0023753132316995124,-0.01332764296645079,0.012996214532071783,0.9856041074269062
2011-02-04,1,0.0025667205526948506,0.0027836801886012177,-0.01332764296645079,0.012996214532071783,0.9845342881437715
2011-02-08,1,0.002764402946027287,0.003031402208465946,-0.01332764296645079,0.012996214532071783,0.9846758984347457
2011-02-10,1,0.0030918388709079586,0.003510850224351672,-0.01332764296645079,0.010555831101847822,0.9854533345587049
2011-02-14,0,0.0,0.0,-0.015080369691113663,0.010555831101847822,0.9839228313879029
2011-02-16,0,0.0,0.0,-0.01956160879252789,0.010166818041814078,0.9833352780320881
2011-02-18,0,0.0,0.0,-0.01956160879252789,0.012996214532071783,0.9826823550751856
2011-02-23,0,0.0,0.0,-0.014686648603757749,0.012996214532071783,0.9844802137902632
2011-02-25,1,0.0028800126001965447,0.0029865701811804682,-0.014686648603757749,0.01052388530426608,0.9843885368790093
2011-03-01,1,0.0031669571219632695,0.0033769336453446375,-0.01370882524488684,0.0072242786786746735,0.9851291168536513
2011-03-03,1,0.00314365702407307,0.0033305790980395285,-0.011432677213580378,0.007465940998443602,0.9881492450329956
2011-03-07,1,0.0022403074964477397,0.0023041342965768497,-0.008518303892050832,0.009558115953144798,0.9885791212673029
2011-03-09,1,0.0026920316421840352,0.0028083168990515016,-0.008518303892050832,0.009558115953144798,0.9883729030174747
2011-03-11,1,0.0023990876484383215,0.0024920336460927004,-0.010344383162552996,0.009558115953144798,0.9878454209715987
2011-03-15,1,0.002274441889545599,0.002333795134771757,-0.008518303892050832,0.009558115953144798,0.9891533978171134
2011-03-17,1,0.0005199093361796897,0.0007323215511766923,-0.008518303892050832,0.008685467606636021,0.9905337136256138
2011-03-21,1,0.0014911812173106658,0.0015595067144441586,-0.0102448581747171,0.0077925369368608,0.9905060896500877
2011-03-23,1,0.0007184886819141503,0.0009113721790182335,-0.009988933841061691,0.009242445966376177,0.9896128633005122
2011-03-25,1,0.000557035927004832,0.0007761140643568466,-0.01053783930789528,0.010249419307354636,0.9888173495903589
2011-03-29,1,0.0009223211544644195,0.0010501701435416263,-0.01053783930789528,0.010249419307354636,0.9889155106449685
2011-03-31,1,0.0016562931417622713,0.0016660095465717353,-0.01053783930789528,0.011679774080458356,0.9880664727123069
2011-04-04,1,0.002081888837463722,0.0020826469786177867,-0.01053783930789528,0.008022971388264077,0.9887218854551072
2011-04-06,1,0.0025081965784197616,0.0025607952057773078,-0.012029658391476829,0.007782051159485379,0.9885545937941901
2011-04-08,1,0.0007387044318414261,0.0009116851783719729,-0.009332847568563625,0.009210988634249915,0.990152565117411
2011-04-12,1,0.0002481039703761944,0.0004888105345428567,-0.009228572321887025,0.009768355465060205,0.9904968347452595
2011-04-14,-1,-0.000390726558259841,-5.392933765210298e-05,-0.009228572321887025,0.009768355465060205,0.990605475156989
2011-04-18,-1,-0.0016039896130674253,-0.0010525983199091927,-0.006066993724521531,0.009155857349074644,0.9913177333538126
2011-04-20,-1,-0.0013431605396352622,-0.0008089486375145651,-0.0009049101825487151,0.009746244324905173,0.9918238104561463
2011-04-25,-1,-0.0019720180990373177,-0.0013328087031403307,-0.006145686966789459,0.009155857349074644,0.9911935534816992
2011-04-27,0,-0.00017977983514396963,0.0001385699264717194,-0.010066200323227928,0.009746244324905173,0.9908825678652257
2011-04-29,0,-5.664716806962349e-05,0.00028887187320593085,-0.010066200323227928,0.009746244324905173,0.9910091461892521
2011-05-03,1,0.0004714157916502629,0.0006859961161265632,-0.012147341287576552,0.009746244324905173,0.9885588954722034
2011-05-05,1,0.0011102713032613775,0.0012125761338730523,-0.010342696463965202,0.01006516088063954,0.9883610174212123
2011-05-09,1,0.0007797046220635127,0.0009532926529746829,-0.013138610751793497,0.009746244324905173,0.9874721624906692
2011-05-11,1,0.0009412965235668801,0.0010702258997783945,-0.013138610751793497,0.01006516088063954,0.9876541434245236
2011-05-13,1,0.0008220606948864729,0.0009366665024898538,-0.014125432497886801,0.01030311402836047,0.9869920434154571
2011-05-17,1,0.0010882957232212667,0.0011341999945404086,-0.01625424948589357,0.010848552118729838,0.9842933634668027
2011-05-19,1,0.0015498650938559316,0.0015530154170046722,-0.01625424948589357,0.01106166073175881,0.9840657994914372
2011-05-23,0,0.0,0.0,-0.010079702749559117,0.012126729966141997,0.9844928914062203
2011-05-25,-1,-0.0006574044294197807,-0.000534278288160293,-0.008971800193704381,0.012126729966141997,0.9851404932552446
2011-05-27,-1,-0.0003365839477502673,-0.000254809234084313,-0.00975022803870134,0.012126729966141997,0.985112443427345
2011-06-01,-1,-0.0012818883726986763,-0.001099680474652654,-0.008971800193704381,0.015462457013284928,0.9858395228011642
2011-06-03,-1,-0.0011868949399527814,-0.0009874958005003055,-0.004312858962492918,0.015462457013284928,0.9857188254733067
2011-06-07,-1,-0.0016415445665918914,-0.0014293778440453509,-0.0047524932355336846,0.015462457013284928,0.9864465620384251
2011-06-09,0,0.0,0.0,-0.009210138955931129,0.017386322635633132,0.9858799003341798
2011-06-13,0,0.0,0.0,-0.009210138955931129,0.017386322635633132,0.9851340716126105
2011-06-15,0,0.0,0.0,-0.009210138955931129,0.017386322635633132,0.9872541836608186
2011-06-17,0,0.0,0.0,-0.009306525293117021,0.017386322635633132,0.9875551629047804
2011-06-21,1,0.001923043926916062,0.0021237622018611844,-0.009306525293117021,0.010577704886930925,0.9883103710696058
2011-06-23,1,0.0006156356097386527,0.0006661634020453146,-0.00987605519411453,0.017386322635633132,0.9873794702960474
2011-06-27,0,0.0,0.0,-0.00987605519411453,0.010577704886930925,0.9881986038939553
2011-06-29,0,0.0,0.0,-0.011352445495759868,0.003968251131846936,0.9884845382118933
2011-07-01,0,0.0,0.0,-0.011352445495759868,0.0016501195993686344,0.9891429679862036
2011-07-06,1,0.0013351598290461167,0.001572245125342927,-0.012233793684220784,0.003968251131846936,0.987718887935238
2011-07-08,1,0.0012555993394299824,0.0014560710982475555,-0.014308105447553586,0.0016501195993686344,0.9865904131082766
2011-07-12,1,0.0007557731285940161,0.0009659795002642896,-0.014308105447553586,0.003968251131846936,0.9797364111209406
2011-07-14,1,0.0005011326502320948,0.0006536641019902461,-0.018796638243027793,0.005371463448015898,0.9722267529488261
2011-07-18,-1,-0.0006247194784865974,-0.0005645333661520239,-0.016975718520924464,0.0059658799814860716,0.9711891189468799
2011-07-20,0,-4.36136695654091e-05,4.769949586755698e-06,-0.027587125912499757,0.0059658799814860716,0.9697558675534946
2011-07-22,1,0.00020791348702542755,0.000278334321870584,-0.031033978383816857,0.004181431127811158,0.9671334624960579
2011-07-26,-1,-0.0001557248953135035,-0.00013446675128543783,-0.031033978383816857,0.0059658799814860716,0.9657562748546554
2011-07-28,-1,-0.00157579067603592,-0.0013917178140824512,-0.02867103303573888,0.010783064294950812,0.9653869916603846
2011-08-01,-1,-0.0007468820759635315,-0.0007108588327288765,-0.02867103303573888,0.023273380910096324,0.9628120821729182
2011-08-03,-1,-0.0013375126982924498,-0.0012124496445988296,-0.02732922060481502,0.023273380910096324,0.9628977222296348
2011-08-05,0,0.0,0.0,-0.02858736066365849,0.023273380910096324,0.9618575037531258
2011-08-09,0,0.0,0.0,-0.02688288219099051,0.023273380910096324,0.9660164948768002
2011-08-11,0,0.0,0.0,-0.02688288219099051,0.018601869856918453,0.9715360758779978
2011-08-15,0,0.0,0.0,-0.02688288219099051,0.01567770783709786,0.9721767282789684
2011-08-17,0,0.0,0.0,-0.025429774241523106,0.019591048371231337,0.9708546019734021
2011-08-19,0,0.0,0.0,-0.025429774241523106,0.019591048371231337,0.9725334456807151
2011-08-23,0,0.0,0.0,-0.02688288219099051,0.018168713010152576,0.9709591334335571
2011-08-25,0,0.0,0.0,-0.029117153079713652,0.015854781039695814,0.9712635065854679
2011-08-29,0,0.0,0.0,-0.029117153079713652,0.017987776579208536,0.9710219379338085
2011-08-31,0,0.0,0.0,-0.03473261141515511,0.018615082231633346,0.9678821680863587
2011-09-02,0,0.0,0.0,-0.03473261141515511,0.018615082231633346,0.9671901551781698
2011-09-07,0,0.0,0.0,-0.03473261141515511,0.021997661169222534,0.9689057057804579
2011-09-09,-1,-0.004091816310250698,-0.0037067396018517444,-0.03684469566368317,0.030196461300631118,0.9674975750480639
2011-09-13,-1,-0.004050243711051208,-0.0036371006027222617,-0.03684469566368317,0.031782758574037784,0.9651889980769579
2011-09-15,-1,-0.0017605616515378548,-0.0016206138715244272,-0.03684469566368317,0.030196461300631118,0.9663047336431534
2011-09-19,-1,-0.0022052664317419902,-0.002033128756248367,-0.03730396942220286,0.030196461300631118,0.9658592647301836
2011-09-21,-1,-0.004032457675335632,-0.0036948192623238243,-0.02935572755463675,0.031782758574037784,0.9653228190764818
2011-09-23,-1,-0.00503232872817542,-0.004583273158246434,-0.025413950795681338,0.031898430871058966,0.9636080398573027
2011-09-27,-1,-0.002600664812047897,-0.002446089026137812,-0.02948495873155882,0.030555527535834147,0.9641553626124777
2011-09-29,0,0.0,0.0,-0.025413950795681338,0.03080686270824558,0.9645049009775754
2011-10-03,0,0.0,0.0,-0.025069700605615322,0.03080686270824558,0.9660643257706335
2011-10-05,0,0.0,0.0,-0.02963586967420318,0.03080686270824558,0.9648953745348914
2011-10-07,0,0.0,0.0,-0.025069700605615322,0.03080686270824558,0.9671789441171339
2011-10-11,0,0.0,0.0,-0.025069700605615322,0.029117068686276556,0.9688564773269218
2011-10-13,1,0.003262753197368445,0.00354349385928984,-0.02963586967420318,0.029117068686276556,0.9684824703878471
2011-10-17,0,0.0,0.0,-0.0188456976557633,0.029117068686276556,0.969481689242433
2011-10-19,0,0.0,0.0,-0.01913530204603088,0.025325609989930734,0.971806716766846
2011-10-21,1,0.012714511160456231,0.013914313720971216,-0.030635762254495928,0.021646274290475047,0.9695524444862434
2011-10-25,1,0.0016723293299081054,0.0020525184838204816,-0.02735267179397813,0.021481579775066637,0.9729990202800515
2011-10-27,1,0.004316191068600525,0.004971611849421872,-0.030409038086744562,0.004750841088342207,0.9741750774610228
2011-10-31,1,0.002415732477175603,0.002855482727229443,-0.02735267179397813,0.020402633284748724,0.9756359967044521
2011-11-02,1,0.002249544188150907,0.002652064489764828,-0.02074465616394008,0.020402633284748724,0.9755519134715869
2011-11-04,1,0.0011896973597966306,0.001408321484809135,-0.02074465616394008,0.021481579775066637,0.975980403060531
2011-11-08,1,0.002577190757165616,0.00301420727858914,-0.02074465616394008,0.011617856842984874,0.9771754529528456
2011-11-10,1,0.002325250710891308,0.002777165583268518,-0.02074465616394008,0.011718718627871917,0.9773690803144903
2011-11-14,1,0.0024305087064047234,0.00288803332928544,-0.02735267179397813,0.0065783429808728665,0.9760305985708355
2011-11-16,0,0.0,0.0,-0.02074465616394008,0.0065783429808728665,0.9779671479105957
2011-11-18,0,0.0,0.0,-0.01776278139017125,0.0065783429808728665,0.9798824106109073
2011-11-22,0,0.0,0.0,-0.014441716309264736,0.011718718627871917,0.9790650659363085
2011-11-25,0,0.0,0.0,-0.0055389776724878385,0.021094160209976523,0.9796232750747865
2011-11-29,0,0.0,0.0,-0.014441716309264736,0.011718718627871917,0.9805706013106239
2011-12-01,-1,-0.0013220154346711682,-0.0012715239217642304,-0.010704034414413408,0.010696237025562163,0.9840388236719662
2011-12-05,-1,-0.00025352689533819433,-0.00010760051889518622,-0.010704034414413408,0.01062813815477779,0.9844073033865417
2011-12-07,-1,-0.0003486442933173214,-0.00024023588594768896,-0.010704034414413408,0.017321296213794787,0.9836177860625189
2011-12-09,-1,-0.00045314775789087646,-0.00036846270605810083,-0.008561751617829714,0.017321296213794787,0.9852506047693015
2011-12-13,-1,-0.0006151150167802019,-0.00056087805429606,-0.002671193294840533,0.01810546039101746,0.9861142752875514
2011-12-15,-1,-0.0005460953571862393,-0.0004944512976648554,-0.004943612794978951,0.01810546039101746,0.985837455947211
2011-12-19,-1,-0.0007394294075347828,-0.0007096610261269343,0.0009611136219046111,0.020694821040132327,0.9849065052252407
2011-12-21,1,7.294589227681579e-05,0.00017526295750136582,0.0009611136219046111,0.01810546039101746,0.9866570361795926
2011-12-23,1,0.00058432198960388,0.0007367802385436386,-0.004123810606423863,0.01662505216596343,0.9879886091353954
2011-12-28,0,-1.1636435459015968e-05,6.445007477566027e-05,-0.00313297602493052,0.01810546039101746,0.9858598213080855
2011-12-30,1,0.0010439856003574444,0.0011123335623874316,-0.0025595037540362825,0.01810546039101746,0.986990964873682
2012-01-04,1,0.002531858220089148,0.0028078552964469093,-0.0025595037540362825,0.017817569667528767,0.9878464067459058
2012-01-06,1,0.0018235181444977004,0.001976429606399748,-0.0025595037540362825,0.017817569667528767,0.9873364995933549
2012-01-10,1,0.002099533218250299,0.002174294316446807,-0.0007385721988609842,0.015989325270134983,0.9886075210642128
2012-01-12,1,0.0021727644174293374,0.0022087654250019587,-0.0034801530352535476,0.014837663205837927,0.9884545369482141
2012-01-17,1,0.0018373939393759235,0.0018767758978475795,-0.0034801530352535476,0.01639767859447765,0.9875290493999521
2012-01-19,1,0.003430344776012151,0.003601542886818862,-0.0034801530352535476,0.013852087151789177,0.9883517022537397
2012-01-23,1,0.004535452628167444,0.004929938429736292,-0.0034801530352535476,0.012294427267004315,0.9885955793586952
2012-01-25,1,0.003948884088259386,0.004293515288152921,-0.003989280106671872,0.012294427267004315,0.9887421779408607
2012-01-27,1,0.0034480069763608563,0.0035792909592307492,-0.003760449962675014,0.008776314699269103,0.9911433503397089
2012-01-31,1,0.0038944049672693507,0.004177014718885394,-0.003760449962675014,0.011526839307265177,0.990820071981916
2012-02-02,1,0.003506000167239098,0.0036075501069608926,-0.00792957235147448,0.011526839307265177,0.9905051619129192
2012-02-06,1,0.003837821500256481,0.004091297320762199,-0.00917931660431123,0.008631897918628619,0.9900883748417073
2012-02-08,1,0.004364661783157623,0.004782295471460832,-0.00917931660431123,0.012294427267004315,0.9890444881755805
2012-02-10,1,0.0036824651031273315,0.0039474341007766575,-0.00792957235147448,0.012294427267004315,0.9897726912027204
2012-02-14,1,0.0030126532096311073,0.003023380418606972,-0.00792957235147448,0.012294427267004315,0.9886671477333843
2012-02-16,1,0.0026175764242888644,0.0027027155734311243,-0.00792957235147448,0.012011303799161425,0.9882593254618
2012-02-21,1,0.0032973691921815134,0.003409262723690357,-0.00792957235147448,0.012011303799161425,0.9882582884558632
2012-02-23,1,0.0038978251070912154,0.0041112163101756725,-0.01104241973169383,0.012011303799161425,0.9873240492712255
2012-02-27,1,0.0023449990643128263,0.0024986427522877587,-0.01104241973169383,0.014630483037732019,0.9873776370591327
2012-02-29,1,0.0031705148469892462,0.0032512921457940945,-0.01104241973169383,0.014630483037732019,0.9872873224276658
2012-03-02,1,0.0025249807900381152,0.002539865491979953,-0.010744017189538239,0.011735715979122202,0.9874725243507656
2012-03-06,1,0.0032144005169792936,0.003422710938603312,-0.010744017189538239,0.01693068529887783,0.9876370298388016
2012-03-08,1,0.0034888631709600595,0.0037756970664050227,-0.01184238742723545,0.00882684239861274,0.9878174002729687
2012-03-12,1,0.00296750703952375,0.0031189943060987296,-0.013074636203115634,0.00882684239861274,0.9858676552100871
2012-03-14,1,0.0034841848936685935,0.0037845283293225463,-0.012076752735243865,0.011735715979122202,0.9871209145138545
2012-03-16,1,0.004863095614095923,0.0054186762182835075,-0.013074636203115634,0.00882684239861274,0.986702471194849
2012-03-20,1,0.004770283397270759,0.005307370846233189,-0.013074636203115634,0.011735715979122202,0.9855460907347767
2012-03-22,1,0.0040561068183185296,0.0046193214326058305,-0.011065130043996554,0.011735715979122202,0.986525351989262
2012-03-26,1,0.004220196831272753,0.0046710397922547706,-0.013074636203115634,0.006709437468111815,0.9862445793680861
2012-03-28,1,0.004272596734594807,0.00473523686032917,-0.013074636203115634,0.016035543977361396,0.9859425940285507
2012-03-30,1,0.0035752430134946347,0.0039008559482923573,-0.013232101158288526,0.016035543977361396,0.9860364317500225
2012-04-03,1,0.004609514609002218,0.005106143804275887,-0.013128466444798054,0.008135482862236676,0.9870572889859832
2012-04-05,1,0.0028070366969728316,0.0031450673244915253,-0.01570158735944428,0.008135482862236676,0.9818509042555978
2012-04-10,1,0.0010939645630947165,0.0012415317102956063,-0.013274670957468688,0.008135482862236676,0.9834370031561473
2012-04-12,1,0.0016666821372904295,0.0017853373761508359,-0.013274670957468688,0.005603903918796512,0.9837809573534965
2012-04-16,-1,-0.0003786822681108978,-0.00013413971078383925,-0.013274670957468688,0.005603903918796512,0.9837908866909512
2012-04-18,-1,-0.0004171508612910963,-0.00012081095543671624,-0.015513774340524637,0.002139086550819109,0.9829041052546865
2012-04-20,-1,-0.002083898008925394,-0.001589260038121031,-0.022676680008866718,0.0023773287955433688,0.9824178787076379
2012-04-24,-1,-0.002716614100175841,-0.0022174041379826666,-0.022676680008866718,0.002381402158621415,0.9826206417668802
2012-04-26,-1,-0.0005476139492894096,-0.00033607059664966733,-0.022676680008866718,0.002381402158621415,0.9832668287800429
2012-04-30,-1,-0.0007291779948881389,-0.000545563768064166,-0.022676680008866718,0.005753339338310036,0.9831537980530929
2012-05-02,-1,-0.0004367730929448202,-0.0003010228082866862,-0.02567968999601807,0.002518617488900801,0.9820509122496954
2012-05-04,-1,-0.004452954790186446,-0.0037918394267163072,-0.022482626804732005,0.002518617488900801,0.987479922405534
2012-05-08,-1,-0.005496208035758136,-0.004629736597345277,-0.022482626804732005,0.008623857994631235,0.9843948081350034
2012-05-10,-1,-0.00579650846664185,-0.00488148616398067,-0.022482626804732005,0.00655176281861574,0.9846943872386669
2012-05-14,0,0.0,0.0,-0.022052427532957868,0.008983638559171041,0.985188660440743
2012-05-16,0,0.0,0.0,-0.005420875661779636,0.012830321477226065,0.9864518243222152
2012-05-18,0,0.0,0.0,-0.005420875661779636,0.013243579644327918,0.9859554890832815
2012-05-22,0,0.0,0.0,-0.005420875661779636,0.014777961190896033,0.9855431655306367
2012-05-24,0,0.0,0.0,-0.012557498178531865,0.014777961190896033,0.9843634448051697
2012-05-29,0,0.0,0.0,-0.02404918586355038,0.013826664603963751,0.9835541433443329
2012-05-31,1,8.6234700899825e-05,0.00010774602680590398,-0.012557498178531865,0.016543895397825553,0.9840203894892925
2012-06-04,0,0.0,0.0,-0.004838125823154292,0.01660944079447388,0.9838784582444793
2012-06-06,0,0.0,0.0,-0.010799960164703625,0.015632037713117233,0.9856175344233671
2012-06-08,-1,-0.005189479520204793,-0.00451252204245803,-0.010799960164703625,0.015632037713117233,0.9847118437715449
2012-06-12,-1,-0.004524773522875277,-0.003983919775761222,-0.008215508520529408,0.015379908058062908,0.9855804487438773
2012-06-14,0,0.0,0.0,-0.007965719651558357,0.015770827104640558,0.985009404916946
2012-06-18,0,0.0,0.0,-0.007965719651558357,0.015379908058062908,0.9859391970465882
2012-06-20,0,0.0,0.0,-0.007965719651558357,0.008487026452555134,0.9869051517466381
2012-06-22,0,0.0,0.0,-0.01002921282988375,0.008487026452555134,0.9859840048964765
2012-06-26,0,0.0,0.0,-0.008028422610608038,0.010267629184529023,0.9868113945261681
2012-06-28,0,0.0,0.0,-0.008028422610608038,0.015379908058062908,0.9854981889531264
2012-07-02,0,0.0,0.0,-0.008028422610608038,0.011476888433043602,0.9866086057841289
2012-07-05,-1,-0.004014324246999753,-0.0036893977917899687,-0.008028422610608038,0.011523151563551376,0.9852757077939137
2012-07-09,0,0.0,0.0,-0.008028422610608038,0.01583749900534203,0.9836977129498469
2012-07-11,0,0.0,0.0,-0.006496430557392044,0.018398223935544914,0.9834593211461815
2012-07-13,0,0.0,0.0,-0.006496430557392044,0.011841953119307178,0.9850584996250421
2012-07-17,0,0.0,0.0,-0.005394573900744209,0.011841953119307178,0.985824689409107
2012-07-19,0,0.0,0.0,-0.005394573900744209,0.011841953119307178,0.985208531959457
2012-07-23,0,0.0,0.0,-0.0015265995699095696,0.011841953119307178,0.9875301254665585
2012-07-25,1,0.0004069463826907328,0.0004084915952702133,-0.0015265995699095696,0.011841953119307178,0.9878874504107162
2012-07-27,0,0.0,0.0,-0.0029578173385634106,0.008991593149763229,0.988625916901254
2012-07-31,0,0.0,0.0,-0.005379254421550001,0.007545641805322277,0.9887064460637329
2012-08-02,0,0.0,0.0,-0.005379254421550001,0.007545641805322277,0.9909893462965917
2012-08-06,0,0.0,0.0,-0.005379254421550001,0.007338919960782323,0.9925495357784118
2012-08-08,0,0.0,0.0,-0.005379254421550001,0.007338919960782323,0.992482784424392
2012-08-10,1,0.006783697551606021,0.008224767021920648,-0.005979553292328263,0.007971524354440079,0.9908219239063676
2012-08-14,1,0.006062864363844735,0.007343774998634065,-0.005979553292328263,0.008938427893367457,0.9918269190056196
2012-08-16,1,0.007292220333016871,0.008791811417620489,-0.005979553292328263,0.011735002524876031,0.9909790031571644
2012-08-20,1,0.007460217094977709,0.008963178892823486,-0.007656833015966327,0.011735002524876031,0.9897700417809329
2012-08-22,1,0.007619790605048347,0.009149173484472174,-0.00853809791612838,0.011735002524876031,0.9893038359302501
2012-08-24,0,0.0,0.0,-0.007634579219933686,0.010373914119276973,0.9908204411281045
2012-08-28,0,0.0,0.0,-0.008668606794575774,0.010373914119276973,0.9885810845902698
2012-08-30,1,0.0029561339128082167,0.003488220429194747,-0.008668606794575774,0.010373914119276973,0.9885091017811118
2012-09-04,1,0.0034325646940470645,0.004046557901829902,-0.008668606794575774,0.010373914119276973,0.9883121895919825
2012-09-06,1,0.003458892994492237,0.004062514458055447,-0.008668606794575774,0.010373914119276973,0.9883933260632861
2012-09-10,1,0.0040547845395461826,0.004755419520200115,-0.006370132705736531,0.010373914119276973,0.9890810473575329
2012-09-12,1,0.004153974381835341,0.004853987842765776,-0.008668606794575774,0.005260437113530447,0.9883236419174312
2012-09-14,1,0.004510477554718298,0.005241911174217633,-0.009233032972154966,0.0007901681420736587,0.9875979406066828
2012-09-18,1,0.010070969212496743,0.011875557032880815,-0.006370132705736531,0.012042822478551431,0.9858117304077803
2012-09-20,1,0.009468561694960204,0.011162638627894187,-0.0027283401336884745,0.01571400211802235,0.987099493172878
2012-09-24,1,0.005669462682696986,0.006688833644524056,-0.006757948899207171,0.01571400211802235,0.9860513941644831
2012-09-26,1,0.0025140004446371476,0.002909510640616877,-0.005996488146258609,0.01571400211802235,0.9880649151329225
2012-09-28,1,0.0025502267763649685,0.002911862867111327,-0.0027189686650997747,0.01538114027167083,0.9886547627644474
2012-10-02,1,0.002606790059057423,0.00297569880161987,-0.005027567823015987,0.01538114027167083,0.9881907363210504
2012-10-04,1,0.002842176229726325,0.003165237551963916,-0.007216014236365918,0.0136444364858038,0.9885465169180643
2012-10-08,0,0.0,0.0,-0.008366971697678225,0.0136444364858038,0.9865941163035491
2012-10-10,1,0.0012333184547538634,0.0012630463229631737,-0.009671342400535061,0.0136444364858038,0.9846461406681087
2012-10-12,0,0.0,0.0,-0.012261276846096496,0.011683956344410254,0.9846181928977373
2012-10-16,1,0.003520856646641827,0.003750590017573378,-0.019293860597051068,0.009861572769062544,0.9837271104497904
2012-10-18,1,0.004842089496277473,0.005264313367817957,-0.0206225151630165,0.003127635133529266,0.9816127122218854
2012-10-22,1,0.0025520278193379964,0.0025806213266444844,-0.019293860597051068,0.009861572769062544,0.9833291341221452
2012-10-24,0,-0.00015591868942608817,0.0002318148971488653,-0.012209504141527442,0.011683956344410254,0.9844588747582644
2012-10-26,1,0.0020591644275486745,0.002080207531027447,-0.018570617144588967,0.012200781241481481,0.9829071795259657
2012-11-01,0,0.0,0.0,-0.018570617144588967,0.010844134935920846,0.9835643164462818
2012-11-05,1,0.0007377016303465099,0.0008229923234089352,-0.018570617144588967,0.010844134935920846,0.983954874608004
2012-11-07,-1,-0.00030052430298735996,-9.56117433720434e-05,-0.011985680558896428,0.009698197517080369,0.9865583235204727
2012-11-09,-1,-0.0022429444988721174,-0.0017903892516700573,-0.005926559170824687,0.009698197517080369,0.9884884726921405
2012-11-13,-1,-0.0030626240194883718,-0.002554026421910282,-0.0030475251735224344,0.009698197517080369,0.9892806767109279
2012-11-15,-1,-0.0037642227574427468,-0.003127987750579769,-0.0034557875703448283,0.007810571460825984,0.9890840373452293
2012-11-19,-1,-0.004834921148561941,-0.004028110154439938,-0.0030475251735224344,0.011710655485534955,0.9887652453778293
2012-11-21,-1,-0.0035448760320093056,-0.002929003775141296,-0.0030475251735224344,0.011710655485534955,0.9894798892775918
2012-11-26,-1,-0.0027654225056324335,-0.002277202221305001,-0.0032849667354647293,0.006837548761103042,0.9900108265893821
2012-11-28,-1,-0.0027521663834575677,-0.0022561624644237502,-0.0030475251735224344,0.004975668926881435,0.9915566688071098
2012-11-30,-1,-0.003118402479218404,-0.0025515902943775135,-0.0032849667354647293,0.006218058695411914,0.9909043387875154
2012-12-04,-1,-0.0029100246308774377,-0.0023885753540806116,-0.004598960497981674,0.012021120932066962,0.9883923416771184
2012-12-06,-1,-0.0019882537473921813,-0.0016279870221966237,-0.007686834854650217,0.01582263505091517,0.9878150037361162
2012-12-10,-1,-0.002345848068145744,-0.0019188865458829277,-0.007686834854650217,0.01582263505091517,0.9873103011456684
2012-12-12,-1,-0.0028244912666944653,-0.002318589771453252,-0.007686834854650217,0.017595191519130013,0.9860636867640182
2012-12-14,-1,-0.0052484439340834375,-0.00436315661417901,-0.0055372410120905,0.017595191519130013,0.9865471298928642
2012-12-18,-1,-0.0036005360088493077,-0.0029001858543565187,-0.005982631804251351,0.015817643245767985,0.9883765631972188
2012-12-20,-1,-0.0017632437658772892,-0.0013675059805029143,-0.005982631804251351,0.01521491942693018,0.9889218911708881
2012-12-24,-1,-0.0030994827057310194,-0.00253201929906759,-0.005668828303263992,0.01521491942693018,0.9894688999640674
2012-12-27,-1,-0.0019601861454731943,-0.0016138545712494007,-0.005668828303263992,0.01521491942693018,0.9887933331261912
2012-12-31,-1,-0.0012439679126630661,-0.00101818954960391,-0.005668828303263992,0.014062206983212285,0.9895286667424297
2013-01-03,1,0.0005082924372404837,0.0005436050256330098,-0.005294388049358336,0.014062206983212285,0.9910466283376814
2013-01-07,1,0.0005154570725202389,0.0005503119720866765,-0.005294388049358336,0.013935391017476251,0.9907468741735795
2013-01-09,1,0.0006951037711448254,0.0007366254931522548,-0.005668828303263992,0.013935391017476251,0.9899845543712089
2013-01-11,1,0.0014809041293077439,0.001656441070737092,-0.006024146312064455,0.012657789994507333,0.9904114316081719
2013-01-15,1,0.0012661630415964683,0.00141803798590192,-0.005668828303263992,0.012657789994507333,0.9905552873154173
2013-01-17,0,0.0,0.0,-0.004940526237866465,0.007417687042584074,0.9914619130690259
2013-01-22,1,0.0018959462702811685,0.0021290250607922043,-0.005917720504681664,0.007417687042584074,0.989312145013043
2013-01-24,1,0.0014995859912024989,0.0016511616413001366,-0.00822706049986277,0.012657789994507333,0.9881218288866638
2013-01-28,1,0.0018324848849525614,0.0020321893934780516,-0.013639508972236291,0.007417687042584074,0.9874793806618015
2013-01-30,1,0.0014885570597710906,0.0016576036192865323,-0.009270796221600392,0.012868713273170386,0.9870997968084639
2013-02-01,0,0.0,0.0,-0.012155610775787732,0.009214163998253233,0.9873077292516577
2013-02-05,0,0.0,0.0,-0.007732427767713251,0.009214163998253233,0.9876627188298217
2013-02-07,0,0.0,0.0,-0.005586380707042082,0.015791742637144456,0.9867701989794933
2013-02-11,0,0.0,0.0,-0.0061284081218599025,0.015791742637144456,0.986601944996755
2013-02-13,1,0.0027156140908827274,0.0031669478529346637,-0.0061284081218599025,0.015791742637144456,0.9870319046080411
2013-02-15,1,0.0024701371680100736,0.002866088083703089,-0.009358510012166713,0.015791742637144456,0.9863942302709657
2013-02-20,0,0.0,0.0,-0.0061284081218599025,0.014593266379716892,0.9882694857548548
2013-02-22,0,0.0,0.0,-0.0061284081218599025,0.009554488271557483,0.9885558741613044
2013-02-26,0,0.0,0.0,-0.0035527811079650176,0.014243110282885992,0.988928917462228
2013-02-28,0,0.0,0.0,-0.004268648221119475,0.009554488271557483,0.9897821792724126
2013-03-04,0,0.0,0.0,-0.004268648221119475,0.013178055174528198,0.9894749296905402
2013-03-06,0,0.0,0.0,-0.009713196206432666,0.009416964190870717,0.9890734539874798
2013-03-08,0,0.0,0.0,-0.013206754949634364,0.0059908129090594075,0.9897798969345802
2013-03-12,0,0.0,0.0,-0.013206754949634364,0.007452562015200003,0.9890808749614559
2013-03-14,1,0.00313180754613297,0.003729837918531002,-0.013808466979749055,0.0059908129090594075,0.988418557121815
2013-03-18,1,0.003417580763940249,0.004110854790127754,-0.014026772662275123,0.008312982942540249,0.9872350724503769
2013-03-20,1,0.002944839172795634,0.003512175176579312,-0.017417055662653794,0.008312982942540249,0.9856039815211225
2013-03-22,1,0.0024537705600683165,0.0029122326938022156,-0.015446856793409262,0.011998226972891456,0.9863217656176221
2013-03-26,1,0.0028903757867251743,0.0034244374579081643,-0.015446856793409262,0.011998226972891456,0.9855305366504495
2013-03-28,1,0.002727766865767419,0.0032447957427107466,-0.015446856793409262,0.013695899197914285,0.9854149342494578
2013-04-02,1,0.002746803002181468,0.0032348037457885365,-0.015446856793409262,0.016031727167157856,0.9858702916582807
2013-04-04,1,0.0008316079272832805,0.0009560725271394552,-0.013331100690505896,0.017243863120667675,0.9830786808127394
2013-04-08,-1,-0.0008967497417388783,-0.0007070074242094644,-0.006061294271127778,0.018292309429405365,0.9824177120222441
2013-04-10,-1,-0.0008033120678351736,-0.0005815439490364641,-0.006061294271127778,0.017243863120667675,0.9840145402613424
2013-04-12,-1,-0.0014053835823809166,-0.0010940967258837304,-0.0069850929666368765,0.017243863120667675,0.9840785125493153
2013-04-16,-1,-0.0015768811931840755,-0.0012303643984743237,-0.003111025509475552,0.017243863120667675,0.9848839765904897
2013-04-18,-1,-0.0020681197778608306,-0.0016995568958587505,-0.001593452030534859,0.017243863120667675,0.9848818259100518
2013-04-22,-1,-0.0012835003179847572,-0.0010264630066429553,-0.001593452030534859,0.017554450838044553,0.9853555787504494
2013-04-24,-1,-0.00014159266625767854,-8.382980059164929e-06,-0.005908022972934412,0.017243863120667675,0.9869770353920679
2013-04-26,1,0.00034743032670752,0.0004173318026636797,-0.0069850929666368765,0.0167755600048676,0.9871900813873592
2013-04-30,1,0.0006690687705868698,0.000705425701310788,-0.0069850929666368765,0.018142383046141977,0.9861611761748058
2013-05-02,1,0.00218613353098594,0.0023527033883712833,-0.0069850929666368765,0.016777252774940108,0.9891222344396579
2013-05-06,0,0.0,0.0,-0.007063112374277395,0.01268879810151564,0.9901676637159241
2013-05-08,0,0.0,0.0,-0.007236635619941673,0.016777252774940108,0.9881577026467723
2013-05-10,0,0.0,0.0,-0.007236635619941673,0.018142383046141977,0.9865274600000002
2013-05-14,0,0.0,0.0,-0.007517046186716008,0.016777252774940108,0.9866695653100568
2013-05-16,0,0.0,0.0,-0.008137991869983213,0.012949556892622963,0.9865318269308369
2013-05-20,0,0.0,0.0,-0.008137991869983213,0.013532410790502863,0.9857161337900999
2013-05-22,0,0.0,0.0,-0.008468989086992434,0.013532410790502863,0.98570635938403
2013-05-24,0,0.0,0.0,-0.01131960167409993,0.013532410790502863,0.9853031010578366
2013-05-29,0,0.0,0.0,-0.01131960167409993,0.010956827371476211,0.9866997132005088
2013-05-31,0,0.0,0.0,-0.007925535557091329,0.011056898035352725,0.9866298246179479
2013-06-04,0,0.0,0.0,-0.006289980654719297,0.01113878723488301,0.9866918978718291
2013-06-06,-1,-0.421637996574105,-0.41531923093662604,-0.004574282282333496,0.01113878723488301,0.7026806333429928
2013-06-10,0,0.0,0.0,-0.004574282282333496,0.01276200408724127,0.9883800308822374
2013-06-12,0,0.0,0.0,-0.004574282282333496,0.01276200408724127,0.9886155587520044
2013-06-14,0,0.0,0.0,-0.0044781934074629515,0.01276200408724127,0.989621890963254
2013-06-18,0,0.0,0.0,-0.0044781934074629515,0.01113878723488301,0.9910437849601258
2013-06-20,0,0.0,0.0,-0.0036822699297696954,0.01276200408724127,0.9906227352676595
2013-06-24,0,0.0,0.0,-0.0029575571702672564,0.013110447083010148,0.9910143590098285
2013-06-26,0,0.0,0.0,-0.0034958889385487157,0.013110447083010148,0.9910856531419673
2013-06-28,0,0.0,0.0,-0.0036422351275393066,0.011254934900139303,0.9919802834566503
2013-07-02,0,0.0,0.0,-0.0036422351275393066,0.008687438439503169,0.9924181686810034
2013-07-05,0,0.0,0.0,-0.003629323234988509,0.008687438439503169,0.9913645804812715
2013-07-09,0,0.0,0.0,-0.004082572819089076,0.004522332260937379,0.9919631987396121
2013-07-11,0,0.0,0.0,-0.004082572819089076,0.004522332260937379,0.9912807738242934
2013-07-15,1,0.009315023316254258,0.00957619741679176,-0.004082572819089076,0.004522332260937379,0.9870171419146916
2013-07-17,1,0.004088394795366963,0.004251804705425805,-0.004082572819089076,0.006323100537161618,0.9900614536423521
2013-07-19,1,0.0039216778923766744,0.003999055469684508,-0.004710602287658845,0.006323100537161618,0.9898277049955848
2013-07-23,1,0.004076286201155729,0.004192305579081966,-0.0077352857231971885,0.004522332260937379,0.9891907364087565
2013-07-25,1,0.0036633245932473253,0.0037147769078830486,-0.006540852049348371,0.006323100537161618,0.9884753067552045
2013-07-29,1,0.0036127800864181247,0.003710944852105013,-0.01082946350481354,0.004991190073620925,0.9875773540826264
2013-07-31,1,0.003798855279769699,0.004012197623289698,-0.012407257075001996,0.007255651375272098,0.9854419123795014
2013-08-02,0,0.0,0.0,-0.012407257075001996,0.005073146605530291,0.9882277512212018
2013-08-06,0,0.0,0.0,-0.01082946350481354,0.009442722474059044,0.9870980063715893
2013-08-08,0,0.0,0.0,-0.010339786488696462,0.007255651375272098,0.9881589024790948
2013-08-12,0,0.0,0.0,-0.007818113372417066,0.011759018365832652,0.9868883016675752
2013-08-14,0,0.0,0.0,-0.007818113372417066,0.011759018365832652,0.9871042148861074
2013-08-16,0,0.0,0.0,-0.00656169479859335,0.014188430322185983,0.9875835748634312
2013-08-20,1,0.0004696416667158777,0.0005961532452761452,-0.00656169479859335,0.014188430322185983,0.9874979737123518
2013-08-22,0,0.0,0.0,-0.007818113372417066,0.010146248012094997,0.9876569670964818
2013-08-26,0,0.0,0.0,-0.005890562991654965,0.010146248012094997,0.9884127372134951
2013-08-28,-1,-0.0008945515907973494,-0.0003305846601156866,-0.004872557862047046,0.01320867592568698,0.9905157835434109
2013-08-30,-1,-0.0008581793576030545,-0.0003692532814119631,-0.0050829224871702,0.01320867592568698,0.9905853296925975
2013-09-04,1,0.00010062376249772142,0.0005336301382509291,-0.0050829224871702,0.004145578802570597,0.9922766100701335
2013-09-06,-1,-0.000539506423722027,-8.1577491461897e-06,-0.0050829224871702,0.009919506112349135,0.9914954170374815
2013-09-10,0,-0.00028120764824890606,0.00027095464381169504,-0.00744590645999928,0.0016981975602953503,0.9918190679635661
2013-09-12,0,-0.00049719615575812,6.261997425258104e-05,-0.00744590645999928,0.004145578802570597,0.990303906889518
2013-09-16,1,0.00023567844907992626,0.000657634705024073,-0.00744590645999928,0.005886869421408838,0.9902801738452464
2013-09-18,0,-2.5855995032547218e-05,0.0004142602080725252,-0.005908774701835165,0.006191609203409816,0.9901915848939313
2013-09-20,-1,-0.0006548340446232957,-0.00016170775914499023,-0.0050829224871702,0.009244764479449828,0.9908161860630579
2013-09-24,-1,-0.0008667758475523122,-0.0004401198122443821,-0.005732747641832917,0.009244764479449828,0.990095794868418
2013-09-26,1,2.7073873674386163e-05,0.0003009621074998698,-0.008016128252311983,0.009244764479449828,0.9896367579476474
2013-09-30,-1,-0.0004411491987185816,-0.00011107991968376722,-0.008016128252311983,0.009244764479449828,0.9898249502594582
2013-10-02,-1,-0.0005059474314666336,-0.00011443799148631449,-0.008016128252311983,0.0102273568890034,0.9888340851856402
2013-10-04,-1,-0.00042992289150370734,-0.00010870262820516239,-0.007322743686504229,0.009244764479449828,0.9896146249443719
2013-10-08,-1,-0.00138034115500146,-0.0009571079688246473,-0.004707812825801334,0.009244764479449828,0.9906808020072159
2013-10-10,-1,-0.0005261783449302324,-0.000378727739059956,-0.004707812825801334,0.009244764479449828,0.9913046279363302
2013-10-14,-1,-0.0004465148798009813,-0.00028673821023189426,-0.004929843074806103,0.009354465432630842,0.9900310358708952
2013-10-16,-1,-0.0004058266767053957,-0.00023298647158852888,-0.0044960785531829445,0.009354465432630842,0.9906682958990115
2013-10-18,1,0.00046632055123608986,0.0005819718990983417,-0.004745769390634615,0.011351100726083894,0.9904351841009518
2013-10-22,0,-0.00010256335865895395,9.125934957507072e-05,-0.0044960785531829445,0.011351100726083894,0.9910638259536398
2013-10-24,-1,-0.0003848778312822953,-0.00015533755839964875,-0.002948467262606011,0.013773888702888433,0.9914959459160054
2013-10-28,-1,-0.0006711542909328003,-0.0004112098481132215,-0.0030224773456076007,0.013773888702888433,0.9912273377937669
2013-10-30,1,0.0005120456528034149,0.000566541579116889,-0.0030224773456076007,0.007720384467145493,0.9919260194210773
2013-11-01,-1,-0.0003779235870602397,-0.00018278955445748789,-0.0022604356635420285,0.00934855648414526,0.9918374899623597
2013-11-05,-1,-0.0005597825038863895,-0.0003258758803908726,-0.004745769390634615,0.00934855648414526,0.9911810465997725
2013-11-07,1,0.0008950370250429742,0.0009091900677072919,-0.004745769390634615,0.00934855648414526,0.9917689417127733
2013-11-11,1,0.0014566858745338855,0.0014841478285857284,-0.0022880962519889305,0.006258228742295162,0.9937207040271034
2013-11-13,1,0.001350410088134836,0.001383802885947647,-0.0049030406776088015,0.004220769799847206,0.9936826565794876
2013-11-15,1,0.0016121950486902691,0.0016212194344138104,-0.0024701962063560425,0.004180933898615237,0.9941690478030906
2013-11-19,1,0.001977615224609206,0.002076222212909343,-0.0053005157417390985,0.005595997032932669,0.9923701072803146
2013-11-21,1,0.0024265738768342597,0.0026032685768386417,-0.0053005157417390985,0.005595997032932669,0.9921765285548474
2013-11-25,1,0.002276054031574746,0.002460908130317503,-0.004758667281295418,0.005595997032932669,0.9928630785526474
2013-11-27,1,0.0026724154052909553,0.0029631194133055115,-0.0049332737805252705,0.005581538818385451,0.9927627787499892
2013-12-02,1,0.0026340958826978687,0.0029111493557804923,-0.003854275872351891,0.005581538818385451,0.9928756841395464
2013-12-04,1,0.0018370864938128623,0.001992371475789517,-0.004992182915832083,0.005581538818385451,0.9928417873012909
2013-12-06,1,0.0020021237919862892,0.0021630253102179475,-0.004992182915832083,0.004749726037920053,0.9933896943522135
2013-12-10,1,0.002172710730312508,0.0023774752650774864,-0.004992182915832083,0.004749726037920053,0.9934383541161443
2013-12-12,1,0.001970131565097001,0.002161423050132896,-0.005625482764317311,0.004749726037920053,0.9924494281543408
2013-12-16,1,0.0019176933560783721,0.002093297773604348,-0.005625482764317311,0.006210470358838315,0.9916170496916071
2013-12-18,1,0.0024577126150342847,0.0027033823912030867,-0.005625482764317311,0.0047751037246048025,0.9928477379559173
2013-12-20,1,0.0025863143002621655,0.0028467927673043745,-0.0061678244271291035,0.003937877794036621,0.9930390384796269
2013-12-24,1,0.0031847402477772225,0.003599869021077005,-0.006999221719626544,0.0034136724468180695,0.9898393468120773
2013-12-27,1,0.0027427616081475785,0.0030598965584594795,-0.008394731885666373,0.0034136724468180695,0.9894019193521844
2013-12-31,1,0.0027481307183530026,0.0030530145519133437,-0.008557746977640345,0.0034136724468180695,0.9887752706230981
2014-01-03,1,0.0017943701462377671,0.00195591301973588,-0.010092048838741494,0.0034136724468180695,0.9873284688951034
2014-01-07,1,0.0019943548830389157,0.0021856203496354617,-0.010092048838741494,0.005682273835674238,0.9862482507672486
2014-01-09,1,0.001864316394771869,0.0020236866653600967,-0.010092048838741494,0.012842699409062758,0.9854267075756523
2014-01-13,1,0.0005741096185883797,0.0006178138269472992,-0.008088978312993381,0.013183585097660709,0.9858868908515823
2014-01-15,1,0.0015838601966934843,0.001692790486459573,-0.008088978312993381,0.005697796635088408,0.9866471551957647
2014-01-17,1,0.0008442898642851505,0.0008706031883249166,-0.008088978312993381,0.006914187443269611,0.9869797289432367
2014-01-22,-1,-0.00026823420916581304,-5.3211170866372865e-05,-0.010092048838741494,0.006914187443269611,0.9867834461703452
2014-01-24,-1,-0.0023418408744678284,-0.001876081871240751,-0.007469281660146305,0.012411905503816897,0.9886278457857697
2014-01-28,-1,-0.0015677404994542377,-0.0012568468099976552,-0.007469281660146305,0.00677439888871665,0.9893000894674974
2014-01-30,-1,-0.0015213527405784286,-0.0012008816315138367,-0.00682927946277672,0.0049539877320496,0.9901105876052737
2014-02-03,-1,-0.0025432000835445678,-0.002164069505690943,-0.005918368287710592,0.006810883479262785,0.9901371075721769
2014-02-05,-1,-0.0018537394131813234,-0.0015426070818974074,-0.005918368287710592,0.008127248024476764,0.990878883584632
2014-02-07,-1,-0.0014191079005983398,-0.001175078310639903,-0.0036044142169392706,0.008127248024476764,0.9907852524223807
2014-02-11,-1,-0.0012034461484122236,-0.0009703967894328389,-0.007442721602419535,0.005705816138607267,0.991262024718646
2014-02-13,-1,-0.001703068421179929,-0.00137242877481778,-0.00996191565485051,0.005705816138607267,0.9901259445779002
2014-02-18,-1,-0.0016052748527707345,-0.0012754296641948899,-0.00996191565485051,0.008127248024476764,0.9899197307817718
2014-02-20,-1,-0.0017835272052893925,-0.0014493686308700853,-0.008160961080417216,0.009574950878065834,0.9889006483461964
2014-02-24,-1,-0.001961008895481155,-0.001582134350859751,-0.009741720819176247,0.008688674957215772,0.9893033255764185
2014-02-26,-1,-0.002274913641568637,-0.0018629334224452188,-0.009816673821691426,0.008688674957215772,0.9884723955259478
2014-02-28,-1,-0.0022353345207255255,-0.001823612173887007,-0.010641783280974152,0.008688674957215772,0.9876923344827723
2014-03-04,-1,-0.002629277113250894,-0.002119505137418549,-0.009816673821691426,0.009574950878065834,0.9884692091035876
2014-03-06,-1,-0.0014345190914184028,-0.0011218750853771867,-0.009816673821691426,0.009310176497300138,0.9890209088944886
2014-03-10,-1,-0.00066037617419085,-0.000453973749621439,-0.014493492447396165,0.006519715036442024,0.9872578785807136
2014-03-12,-1,-0.0012643646269258186,-0.0010062949974253533,-0.012758365750957235,0.009310176497300138,0.9874465681005621
2014-03-14,-1,-0.002248739123133893,-0.0018930027105536142,-0.0221934700410204,0.009310176497300138,0.9859646059384817
2014-03-18,-1,-0.001964191462965932,-0.0016244174578015562,-0.0221934700410204,0.00899509070967604,0.9860792045351666
2014-03-20,-1,-0.0009082563207032153,-0.0006826278710205313,-0.0221934700410204,0.01022517540522469,0.9864977859617405
2014-03-24,-1,-0.0014160246440767447,-0.0011211746430527616,-0.0221934700410204,0.010942774762262002,0.9859520394467518
2014-03-26,-1,-0.0019093064760798046,-0.0015800301738655867,-0.00749733724467848,0.010942774762262002,0.9870294347461867
2014-03-28,-1,-0.0028959638883273757,-0.002429102015544301,-0.011655702754169814,0.010942774762262002,0.9869804019363383
2014-04-01,-1,-0.0018998456802073096,-0.001553665493986437,-0.011655702754169814,0.01022517540522469,0.98798510114946
2014-04-03,-1,-0.001057041955028724,-0.0008571270178582131,-0.011655702754169814,0.010482899503862726,0.987623934032837
2014-04-07,-1,-0.0025846947582489023,-0.0022644012000827517,-0.004642809083210832,0.010482899503862726,0.9886174653204675
2014-04-09,-1,-0.00169964710192326,-0.0015110601106896266,-0.004642809083210832,0.010482899503862726,0.9875985809725514
2014-04-11,-1,-0.003467239508715615,-0.003091482956050597,-0.0010130873588554204,0.01098092156023958,0.9881411284911785
2014-04-15,-1,-0.0027788499512690764,-0.002494306485168331,-0.0030406651393680185,0.01098092156023958,0.9883652030275073
2014-04-17,-1,-0.0013563477303601104,-0.0012664760271476404,-0.006197293919358105,0.010106464975186974,0.9887575265115724
2014-04-22,-1,-0.0008620456533010485,-0.0008138543368637006,-0.008747266586409074,0.010106464975186974,0.9884458719375864
2014-04-24,-1,-0.0009158832235882882,-0.0008645202492303617,-0.008747266586409074,0.010106464975186974,0.987795474418733
2014-04-28,-1,-0.0017028737625836956,-0.0015664712011940732,-0.004282952630650054,0.01098092156023958,0.9876257911277752
2014-04-30,-1,-0.001618840650974177,-0.0014618071571494181,-0.005601239536964899,0.010106464975186974,0.9874290487019618
2014-05-02,-1,-0.0006518645832694753,-0.0006331835240005888,-0.005601239536964899,0.010560260721095381,0.9873302096421541
2014-05-06,-1,-0.0014373318153221336,-0.001333898382010184,-0.004282952630650054,0.01705974177231718,0.9861975539222565
2014-05-08,-1,-0.00010506890072553747,-6.012629536038849e-05,-0.004282952630650054,0.01374483853160681,0.9878801935529444
2014-05-12,1,0.0006142680371381316,0.0007637550002505465,-0.004282952630650054,0.013084852899306543,0.9889921213134747
2014-05-14,1,0.00012555471317417743,0.00025615313001298135,-0.004773205510894095,0.013084852899306543,0.9895628095505372
2014-05-16,-1,-0.0007546520922186923,-0.0007195559152591698,-0.0015006108793871645,0.013084852899306543,0.9906478101828154
2014-05-20,-1,-0.00022927529714205584,-0.00010647267134404446,4.7097529493282946e-05,0.013426540588985425,0.9907702878386999
2014-05-22,1,0.0003446948333332046,0.0005461855695513697,-0.0015006108793871645,0.013426540588985425,0.9908966439994437
2014-05-27,1,0.0011887715939302608,0.0015147757123903074,-0.005037820457889087,0.01232758224560587,0.9910368014159475
2014-05-29,1,0.0005071255206408355,0.000702795150710577,-0.0036693493245475873,0.01232758224560587,0.9916250042291999
2014-06-02,1,0.0014707164596246512,0.0018109908773143051,-0.0036693493245475873,0.011859960969946839,0.9923332394533104
2014-06-04,1,0.003162302942463257,0.003736056477165169,-0.0036693493245475873,0.004817271422446182,0.992965248000679
2014-06-06,1,0.0031049133771200053,0.003611190990540261,-0.005037820457889087,0.004201528679583343,0.9921209160613332
2014-06-10,1,0.003689199813590275,0.004329408691669529,-0.005817202719986201,0.004873492022568919,0.9912441691312772
2014-06-12,1,0.0031033914847595646,0.003648030767710287,-0.005817202719986201,0.010883048019929517,0.9915439593204944
2014-06-16,1,0.002834423518347588,0.0033278477811329553,-0.005817202719986201,0.010883048019929517,0.9916928341106513
2014-06-18,1,0.0026671346686678284,0.003019830348371058,-0.007035025581538191,0.004325996719555132,0.9917582238852494
2014-06-20,1,0.0028061976419886748,0.0031765048419335985,-0.007035025581538191,0.004325996719555132,0.9915609508820029
2014-06-24,1,0.002361491225503761,0.002688170878603252,-0.004655845918862774,0.006050180754980218,0.9924376294527402
2014-06-26,1,0.0011553984659088052,0.001204010579195375,-0.006246776579614346,0.006050180754980218,0.9920379774482159
2014-06-30,1,0.0014497683507700824,0.001590677351899583,-0.009285127883755687,0.006050180754980218,0.9914585084312818
2014-07-02,1,0.0019784887049274537,0.002203582508512069,-0.010274309881357885,0.006050180754980218,0.9900919416451014
2014-07-07,1,0.002277324610458962,0.0025658039481972175,-0.010608973065970343,0.0032867432663388867,0.9905798649567734
2014-07-09,1,0.0018902542822456301,0.0021269699308041888,-0.009285127883755687,0.005960914570050733,0.9907245218220658
2014-07-11,1,0.002071176390277191,0.002348468540144578,-0.006491752985826211,0.005960914570050733,0.9909417674043922
2014-07-15,1,0.0021687517435737018,0.002433397768003745,-0.006491752985826211,0.0034265293318837507,0.9910515482862844
2014-07-17,1,0.0016980347667403758,0.0019089482544023565,-0.005130139272230727,0.005392151623764473,0.9916838789904336
2014-07-21,1,0.0018475335795226895,0.002054955456442751,-0.005682416079465475,0.005392151623764473,0.9913922016490978
2014-07-23,1,0.0018520536357575644,0.0020670264053730546,-0.005682416079465475,0.004995172236741457,0.9915397220630988
2014-07-25,1,0.0014683790830942248,0.0016489038674576402,-0.004657662085987935,0.0077896137100063505,0.9912526423205165
2014-07-29,1,0.0011655395726177871,0.001340844569060248,-0.003815203704388926,0.009362350332910987,0.9915034656503309
2014-07-31,1,0.001310096078322917,0.001544467366797254,-0.003815203704388926,0.0077896137100063505,0.9926848543759799
2014-08-04,1,0.0005232477429307604,0.0006051216899200782,-0.0033714434603872813,0.0077896137100063505,0.9929501361252795
2014-08-06,1,6.0997930544529966e-05,0.00010256912917025643,-0.0033714434603872813,0.00721152669765234,0.9931986415867732
2014-08-08,1,0.0007028719171086376,0.0007682903940695789,-0.0033714434603872813,0.005127295465937759,0.9938712010904248
2014-08-12,1,0.0012321342896494964,0.0014358116304339476,-0.0034605011389057584,0.00721152669765234,0.9931125053222226
2014-08-14,1,0.0014273594962087282,0.0016372887489851254,-0.0034605011389057584,0.007713513535961528,0.9927215230370494
2014-08-18,1,0.001427388529388352,0.001595623022831409,-0.0034605011389057584,0.00652761312549751,0.9933622067048872
2014-08-20,1,0.0009379254518344836,0.0010004726980549963,-0.0020340924918877605,0.007713513535961528,0.9924403869591826
2014-08-22,1,0.0011268227750488675,0.0012656020651813345,-0.0020340924918877605,0.00652761312549751,0.9929305538512055
2014-08-26,1,0.0017515300360761675,0.0019872461584801147,-0.004689511376230142,0.005947610632025364,0.9927272540711939
2014-08-28,1,6.379364871112874e-05,0.0001626605192304842,-0.004689511376230142,0.005947610632025364,0.9926348569661474
2014-09-02,1,0.0005045175047674925,0.00053223979992683,-0.01001869113025274,0.004887280967910002,0.9917328833056969
2014-09-04,-1,-0.0009996083063157463,-0.0006997532534329905,-0.010228862586762838,0.00539545120338863,0.9907844818791123
2014-09-08,-1,-0.0009470952699322475,-0.000670030827903953,-0.010228862586762838,0.005947610632025364,0.9901299366969855
2014-09-10,-1,-0.00038021542303089194,-0.00021301347968731218,-0.011167067663847976,0.005947610632025364,0.9894597079775637
2014-09-12,1,0.00047017217675526313,0.0005147866629506157,-0.01399282512471023,0.00539545120338863,0.9880853462610039
2014-09-16,1,0.0002571966581499749,0.000339100300589802,-0.01609219837375145,0.004743281922547506,0.9875840698690539
2014-09-18,1,0.0003784039008482534,0.0005000525278420837,-0.020905963358375967,0.004743281922547506,0.9867259600938935
2014-09-22,1,1.0208398324809437e-05,0.00016377532395460425,-0.020905963358375967,0.00539545120338863,0.9861699129190137
2014-09-24,1,7.68340864838463e-05,0.00019599240910688284,-0.020905963358375967,0.006550620498412612,0.984627424308687
2014-09-26,-1,-0.0011405120330369657,-0.000835650190770349,-0.01694245696132781,0.010900346065559199,0.9847331924501099
2014-09-30,-1,-0.0012785468122023741,-0.0010229544356819957,-0.01694245696132781,0.012021579717485308,0.9843586177556789
2014-10-02,-1,-0.0016679529177010223,-0.0013986593957233053,-0.014771029574735396,0.012021579717485308,0.9852393243699559
2014-10-06,-1,-0.002028848906873231,-0.0016682045714915457,-0.014771029574735396,0.012083507795561405,0.9849090604144963
2014-10-08,-1,-0.0032727339474728926,-0.0027039780865355948,-0.009278646502681417,0.012083507795561405,0.9855039418160095
2014-10-10,-1,-0.004295057289952744,-0.0036355528270687935,-0.002641348457802076,0.012083507795561405,0.984516897978469
2014-10-14,-1,-0.004834288295103966,-0.004133476453021312,-0.0020199746533039746,0.012792415773165665,0.9845220047560439
2014-10-16,-1,-0.004995325698147052,-0.004309321760625812,-0.005590177833001745,0.012546112665219019,0.9860663045179733
2014-10-20,-1,-0.004306590508681894,-0.003681466930936012,-0.006743458553838022,0.01092098875825123,0.9878386574917343
2014-10-22,-1,-0.0032486962918604357,-0.0027844199102340875,-0.005353230935449069,0.010051639584096538,0.989846628588306
2014-10-24,-1,-0.001310124675591691,-0.0011512145320397712,-0.005353230935449069,0.0070072894483607815,0.9913939946932594
2014-10-28,-1,-0.00013365549415196836,-0.00013138900613796997,-0.005353230935449069,0.0070072894483607815,0.9917326730257889
2014-10-30,1,0.00016111964012181272,0.0002074742710299604,-0.006743458553838022,0.004222590758429902,0.9916291500803298
2014-11-03,1,9.573121227575114e-05,0.00011060159057867545,-0.007020404908772208,0.004222590758429902,0.9909130339819694
2014-11-05,1,0.0003684899382191246,0.000411527934772931,-0.007020404908772208,0.004222590758429902,0.9905718979485264
2014-11-07,-1,-0.0003456688724043772,-0.00034495979726057276,-0.005353230935449069,0.00827437431225,0.9920088401661581
2014-11-11,1,5.98331665307669e-05,0.00012585437417334468,-0.007020404908772208,0.004120604212396346,0.9919263039115166
2014-11-13,-1,-0.0007957467428284122,-0.0007278175755763331,-0.005293306244034155,0.008660511450286422,0.989194132294053
2014-11-17,-1,-0.0011089552655657955,-0.001000351635980507,-0.009564104804406285,0.008660511450286422,0.9885226632825854
2014-11-19,-1,-0.0010158328739915852,-0.0009131805708097491,-0.009564104804406285,0.016191248046049513,0.9857891855126454
2014-11-21,-1,-0.00047317642480569654,-0.0004597676488382191,-0.009564104804406285,0.016191248046049513,0.9857839743722788
2014-11-25,0,-8.144620654250726e-06,4.951554891157036e-05,-0.009564104804406285,0.016191248046049513,0.9861465509674443
2014-11-28,-1,-0.00031443655133144385,-0.0003142003576343031,-0.0043737194105878,0.016191248046049513,0.9863841548576269
2014-12-02,-1,-0.00012986895035481443,-0.00010104919462707985,-0.0043737194105878,0.013985213640167173,0.9874076545171221
2014-12-04,1,0.0006528567903033298,0.0008060810177096878,-0.010708755152984594,0.0073318807140201475,0.9864288503660552
2014-12-08,1,0.0009227169758360917,0.0010855434191342503,-0.012058143462098568,0.004953479346040532,0.9861191411118603
2014-12-10,1,0.00047291045786787355,0.0005990529301945205,-0.012058143462098568,0.0073318807140201475,0.9857361645277217
2014-12-12,1,0.0006297360999155902,0.0007768075006274993,-0.012058143462098568,0.004953479346040532,0.9881314893125372
2014-12-16,-1,-0.00028914920643919467,-0.00028693427558910533,-0.014068800799685588,0.004953479346040532,0.9873291976957695
2014-12-18,1,0.0013638931780999197,0.0015507016901056474,-0.014068800799685588,0.001644593762438108,0.9885667171261672
2014-12-22,1,0.0013706912657017465,0.0015454003548269273,-0.014068800799685588,0.0020441004935243105,0.9879663691181592
2014-12-24,1,0.0015547690326739145,0.0017312531676355394,-0.01736665688995651,0.0008371242250748943,0.9874994874923161
2014-12-29,1,0.0016136083205875503,0.0018067173377984453,-0.017949416750432587,0.000624753370624364,0.9853486974685673
2014-12-31,1,0.0013414097653753946,0.0015172556754042671,-0.017949416750432587,0.000624753370624364,0.9854762689880563
2015-01-05,1,0.0001645972798694168,0.00018212968587864316,-0.01736665688995651,0.004661388200271368,0.9852106047833471
2015-01-07,-1,-0.00028259778395911046,-0.0002660244604363212,-0.01736665688995651,0.004661388200271368,0.9834641380120565
2015-01-09,-1,-7.515749562009195e-05,-5.0299576912164824e-05,-0.01619994498712486,0.004661388200271368,0.983111126819045
2015-01-13,-1,-0.0007045589063191611,-0.0006499695548173812,-0.01619994498712486,0.01448516417640654,0.9830519758916642
2015-01-15,-1,-0.0020122484598212205,-0.0017981305701747724,-0.00871398614669849,0.016493874020834298,0.9837568747889586
2015-01-20,-1,-0.0013996736204854722,-0.0012819429525776273,-0.01448781051231951,0.015686969516240577,0.9835912454401892
2015-01-22,-1,-0.0008984204810026515,-0.0008267207521567376,-0.01448781051231951,0.011514180429873655,0.9838835783045402
2015-01-26,-1,-0.0012022274720824104,-0.0011089104758260178,-0.00871398614669849,0.013905957441726149,0.9839011365742986
2015-01-28,-1,-0.0025824778530554654,-0.002323703563618938,-0.006376010731803612,0.013905957441726149,0.9853596741101175
2015-01-30,-1,-0.0029118187826815394,-0.0026162386968292565,-0.005166525762108582,0.014681946252577996,0.985012485192116
2015-02-03,-1,-0.0011464216931457408,-0.0010641881441468728,-0.007183757617246199,0.011410767574379494,0.9872202139515129
2015-02-05,-1,-0.002490756837113875,-0.002279619345829168,-0.006376010731803612,0.013905957441726149,0.9885237100636517
2015-02-09,-1,-0.0015781042303430236,-0.0014771863553481794,-0.0066188828176173935,0.011410767574379494,0.9889235563425601
2015-02-11,-1,-0.0003928199106353606,-0.0003154808866357102,-0.0066188828176173935,0.010426555413829235,0.9888578929312397
2015-02-13,0,-7.32423402433842e-05,3.315635514228928e-05,-0.007958063193322772,0.010426555413829235,0.9883833463155323
2015-02-18,-1,-0.00028167515888600884,-0.00020621644373796687,-0.007958063193322772,0.010426555413829235,0.9888335001984306
2015-02-20,0,-2.0470590154694508e-05,6.9509507618823e-05,-0.008328480909036087,0.014371707686095513,0.9871598979278512
2015-02-24,0,-5.0388295851927815e-05,2.8884908209119797e-06,-0.011015491047017227,0.009560017578727827,0.9868055528805862
2015-02-26,-1,-0.00045119117310751604,-0.0004245379605156038,-0.01189573658359959,0.010255661727012843,0.9862414230040604
2015-03-02,1,4.5777466601624626e-05,9.409432972321379e-05,-0.012046811512635511,0.010121392447800543,0.9858383367744626
2015-03-04,-1,-0.0006138708370703771,-0.0005645897974994366,-0.012046811512635511,0.010121392447800543,0.9862675389938895
2015-03-06,-1,-0.0005986123694708256,-0.0004939413549594929,-0.012046811512635511,0.009634232123570213,0.9866363473855627
2015-03-10,-1,-0.0019087422812032752,-0.0016203961357002588,-0.011065849356695868,0.009634232123570213,0.9879103795238028
2015-03-12,-1,-0.0013087703598494594,-0.0010709452093104373,-0.011065849356695868,0.009040280587369939,0.988413352126272
2015-03-16,-1,-0.0006635226125214489,-0.0005347166358023498,-0.011065849356695868,0.007959921345252382,0.9890722500311532
2015-03-18,-1,-0.0007887131849665019,-0.0006673326132469002,-0.011065849356695868,0.007959921345252382,0.9895492323053525
2015-03-20,-1,-8.05424782964341e-05,-7.525838619778999e-05,-0.011065849356695868,0.007959921345252382,0.9907807407401835
2015-03-24,-1,-0.00031874348056498415,-0.000318421993155686,-0.009980230628427853,0.008763358624676101,0.9910218038874307
2015-03-26,-1,-0.0003178009611648307,-0.0003052164974004047,-0.007230794683661395,0.008408796662473388,0.9917391887955346
2015-03-30,-1,-0.00010615792171720092,-5.6532695400623404e-05,-0.006560258373157881,0.008408796662473388,0.9921587491215575
2015-04-01,-1,-0.00017138255449275958,-0.00010944813948404522,-0.006560258373157881,0.010386906539032955,0.9913358170113663
2015-04-06,-1,-0.00047421917754119833,-0.0004448876670666686,-0.006560258373157881,0.010386906539032955,0.9906117085891738
2015-04-08,-1,-0.00024497049385768235,-0.00023306544771847565,-0.007637380539231909,0.010386906539032955,0.9906299181201553
2015-04-10,-1,-0.0004475250536357972,-0.000411769201517556,-0.006560258373157881,0.010480769069950737,0.990491510889652
2015-04-14,-1,-0.0006959253876715804,-0.0006210444904938932,-0.006266263021845991,0.012171106187892883,0.9904820138404324
2015-04-16,-1,-0.0005194922643292296,-0.00047122309207171245,-0.006266263021845991,0.012171106187892883,0.9905100256032197
2015-04-20,-1,-0.00047740209670828155,-0.00044170989773161597,-0.006266263021845991,0.012171106187892883,0.9906028272610857
2015-04-22,1,8.545745996389007e-05,0.0001367530357843895,-0.006560258373157881,0.011411045946858734,0.9912667578254716
2015-04-24,-1,-5.796978471536127e-05,-3.313319167614166e-05,-0.006431285154937755,0.011411045946858734,0.9913733563740521
2015-04-28,1,0.00012090048796733517,0.00017550744583830514,-0.006521879665072538,0.011989029583966023,0.9909216329459736
2015-04-30,1,0.0005230711351586826,0.0006592271090796646,-0.006022662462291177,0.010305215220614148,0.9919419083019653
2015-05-04,1,0.0014977547023634278,0.0017867393827205058,-0.006022662462291177,0.0064480469686520716,0.9924332016112514
2015-05-06,1,0.00111176771007425,0.0013197198297507375,-0.005544423820641335,0.011989029583966023,0.9920490100052821
2015-05-08,1,0.001618565741141976,0.001897016103081456,-0.006022662462291177,0.011989029583966023,0.9915985460531884
2015-05-12,1,0.0014993198186469328,0.00173094647754219,-0.005544423820641335,0.012070631036704096,0.9911123946448308
2015-05-14,1,0.002092425166441289,0.002476735141387751,-0.006989732652605857,0.012070631036704096,0.9903207640228239
2015-05-18,1,0.002194725719493511,0.0025985516912290854,-0.006984242540224092,0.013294839385029325,0.990331557361782
2015-05-20,1,0.002191951236034233,0.0026138502662988537,-0.006643263008632675,0.013294839385029325,0.9903700988606081
2015-05-22,1,0.002111397646962705,0.002526102465002891,-0.006643263008632675,0.014335606559956943,0.9897301087719481
2015-05-27,1,0.002042480869536653,0.002433752121410643,-0.006643263008632675,0.013294839385029325,0.9904296000707766
2015-05-29,1,0.001465459047343839,0.0017330789670603254,-0.006984242540224092,0.013294839385029325,0.9898620194775652
2015-06-02,1,0.0014257309634005584,0.001662099591285259,-0.007416695849796368,0.011520464194189527,0.9887309526279089
2015-06-04,1,0.0016079914244858957,0.0018649959472665624,-0.007527832579865749,0.011520464194189527,0.9885405675751541
2015-06-08,1,0.0015280636750909264,0.0017463743833913805,-0.0075322861922331626,0.007974805263961464,0.9890000243803029
2015-06-10,1,0.0016087482692376453,0.0017871978602230654,-0.007859022835395194,0.007750123002185511,0.9887584886195663
2015-06-12,1,0.0013555422157748838,0.0015083411094845422,-0.00771864763471454,0.011520464194189527,0.9881564365110787
2015-06-16,1,0.0015800617065776052,0.0017833096041788418,-0.00771864763471454,0.010359028292485927,0.9890514759887018
2015-06-18,1,0.0013255350966247788,0.0014743685479011322,-0.008463688306802178,0.010359028292485927,0.9888068511775674
2015-06-22,1,0.0010010405547991141,0.0010591143071635016,-0.008463688306802178,0.009722342184233495,0.9898139287581015
2015-06-24,1,0.0007485030973292179,0.0007537760986354347,-0.007764228778677388,0.009722342184233495,0.9902293541052333
2015-06-26,1,0.0010758411248499562,0.0011792924663690057,-0.007764228778677388,0.004372386545010303,0.9904101004262198
2015-06-30,-1,-0.00013964640128736065,-9.369486907220175e-06,-0.006284672157434069,0.010387158564479651,0.9912180994838394
2015-07-02,1,0.00030345242258898947,0.00036342294366431397,-0.006284672157434069,0.009722342184233495,0.9916706457717872
2015-07-07,1,0.00024202282862169735,0.000282901344581254,-0.004682343909336703,0.009722342184233495,0.9915460043263935
2015-07-09,1,2.7118070543546313e-05,7.713039523773706e-05,-0.0019998926687761235,0.00907333051162662,0.9927733040925485
2015-07-13,1,0.0006087841579365476,0.000617039177592951,-0.004682343909336703,0.008846325290889773,0.9925223606913891
2015-07-15,1,0.0007072046627697914,0.0007474884364984242,-0.008783846026746863,0.008846325290889773,0.9908488076986864
2015-07-17,1,0.0007473560776003643,0.0008020614602539968,-0.006746820765494655,0.00890920242188378,0.990921576052276
2015-07-21,1,0.00061146476840675,0.0006404610694433542,-0.008909556592093306,0.00890920242188378,0.9904214681448287
2015-07-23,1,0.0006254591762049455,0.0006687455915579607,-0.01157992624758527,0.00890920242188378,0.988260894772888
2015-07-27,1,1.8787525655419374e-05,9.629498529614865e-05,-0.014967817712078958,0.00890920242188378,0.983775426302599
2015-07-29,1,0.0008785293907531322,0.0009570266693623788,-0.017598797844635312,0.008846325290889773,0.981829486963703
2015-07-31,1,0.0001249757394584281,0.00018268211552794388,-0.017598797844635312,0.00890920242188378,0.9804164331430554
2015-08-04,1,0.000800566576584826,0.0008603550267522456,-0.0227783709534322,0.00890920242188378,0.978573825738306
2015-08-06,1,0.0009236841925051339,0.0010126941967702476,-0.0227783709534322,0.009020785718591915,0.9778748459058373
2015-08-10,1,0.0008951507639900665,0.0009632644307763238,-0.024211593466001397,0.009020785718591915,0.9768660445841034
2015-08-12,1,0.0003234044118349504,0.0003246012630804419,-0.02274097835400099,0.009020785718591915,0.9775486691260343
2015-08-14,1,0.0003219308853814164,0.00034730976445022514,-0.02274097835400099,0.0022047432570638428,0.9780839238851479
2015-08-18,0,-5.5053002651925666e-05,2.2539707424687537e-05,-0.02274097835400099,0.010295350827956854,0.9772535301270954
2015-08-20,-1,-0.0011408869254859147,-0.0009322003067052424,-0.02567637432515099,0.010295350827956854,0.9765865649635408
2015-08-24,-1,-0.0035421955817691118,-0.003044901805364729,-0.018708895527962677,0.018955410656454914,0.9799703882762505
2015-08-26,-1,-0.0029256296962878927,-0.0025104925348243892,-0.017116010849257998,0.00874729429190813,0.9827694024045756
2015-08-28,-1,-0.0018711343013880157,-0.0015814609428330849,-0.019186636365485742,0.008407034218635829,0.9828461017686126
2015-09-01,-1,-0.002958382057002422,-0.0025417550967525844,-0.017116010849257998,0.016101948517097765,0.983711527352059
2015-09-03,-1,-0.0024904452036609848,-0.0021236674658365903,-0.017116010849257998,0.008539318019968115,0.9845822504967799
2015-09-08,-1,-0.0021560714135808153,-0.0018328751587175683,-0.013091666618523254,0.008539318019968115,0.9859521044492818
2015-09-10,-1,-0.002424465037017938,-0.0020674235027579443,-0.008480720281860973,0.01447305389283408,0.9858671901255666
2015-09-14,-1,-0.002352310082170797,-0.0020184844927845225,-0.008480720281860973,0.01447305389283408,0.9861505438593519
2015-09-16,-1,-0.0017873501066615768,-0.0015154045758033396,-0.010550900969509452,0.008308449374597371,0.9870955057605075
2015-09-18,-1,-0.003031007163384758,-0.0026185470357820905,-0.007638120781614688,0.01447305389283408,0.9878934445096649
2015-09-22,-1,-0.0029094272066215498,-0.0025179801863277626,-0.0038117173328149723,0.011906573521432403,0.9890160153577345
2015-09-24,-1,-0.0024122256073662836,-0.0021112321422196486,-0.0056987386467987605,0.01447305389283408,0.9880350767499431
2015-09-28,-1,-0.0029019171971016665,-0.002538962390812922,-0.004922190954954126,0.013438035113891656,0.9895139275302661
2015-09-30,-1,-0.002080582786619734,-0.0018379867184657522,-0.0056987386467987605,0.013438035113891656,0.9879685818902006
2015-10-02,-1,-0.0022411993519553756,-0.001990247779760887,-0.0067569561387693065,0.013438035113891656,0.9879337002448614
2015-10-06,-1,-0.0017821325202206405,-0.0015877676360388571,-0.005492466504701817,0.013438035113891656,0.9878680302968652
2015-10-08,-1,-0.001247260999570881,-0.0011187250355240027,-0.006677299335458465,0.011736373921171918,0.9886907249313586
2015-10-12,-1,-0.0013913603409096051,-0.0012380472848000116,-0.007399150371682165,0.015011477147178869,0.9859282909212517
2015-10-14,-1,-0.0018379370204558295,-0.0016280535477861467,-0.005492466504701817,0.015011477147178869,0.9860613019526697
2015-10-16,-1,-0.0009925367170979691,-0.0008838496165307012,-0.006677299335458465,0.010890902913801948,0.9867962413570978
2015-10-20,-1,-0.0009196856132631094,-0.0008132726396986297,-0.006677299335458465,0.01398457160372418,0.9863010207874741
2015-10-22,-1,-0.0002838757733628065,-0.000264049187481166,-0.006677299335458465,0.01398457160372418,0.9865725046225489
2015-10-26,1,5.892974571449264e-05,9.836411379071956e-05,-0.007781425179174448,0.011607639003894957,0.9867526563331135
2015-10-28,1,0.0006957951461409053,0.0008352030971441408,-0.006677299335458465,0.006260748915667415,0.989424967105961
2015-10-30,1,0.0007450656694454998,0.000934971859399318,-0.004561106700164381,0.006896296476900464,0.9900155858183428
2015-11-03,1,0.001234667809113795,0.0014721026435616865,-0.0053066306024586,0.005193317058903501,0.9901133180273669
2015-11-05,1,0.001164897604635018,0.0014015535413295194,-0.006030910429816274,0.007086826913593027,0.9883982875248988
2015-11-09,1,0.0016166608508034217,0.0019146732700963008,-0.007937178428437294,0.005193317058903501,0.9900082485158426
2015-11-11,1,0.0019459878322663053,0.0023047898426257103,-0.0092070468905684,0.003804263062900974,0.989336472865272
2015-11-13,1,0.0013654912230290136,0.0016456355338085545,-0.0092070468905684,0.003804263062900974,0.989127808386529
2015-11-17,1,0.0017226787945222402,0.0020538466135659995,-0.0092070468905684,0.007086826913593027,0.98799355866247
2015-11-19,1,0.0018849119279760683,0.0021943727739274967,-0.014259690537071506,0.003804263062900974,0.9860898601842977
2015-11-23,1,0.0016555388568176036,0.0019450686490575697,-0.014259690537071506,0.007429194609571247,0.9860651980998464
2015-11-25,1,0.001407975909944811,0.0016468486158730555,-0.014259690537071506,0.011546705933080367,0.9853322314423416
2015-11-30,1,0.0014493748997929825,0.001674048557441592,-0.014259690537071506,0.011546705933080367,0.9850953027645405
2015-12-02,1,0.001777546983851071,0.0020920117941293876,-0.013003804016507086,0.010314471051775539,0.9850305903895566
2015-12-04,1,0.0019302491431223909,0.0022662509615636837,-0.013003804016507086,0.007018449649136304,0.9859028976759049
2015-12-08,1,0.001513145448720434,0.0017989734599024223,-0.021412472200448385,0.007018449649136304,0.9835215548519693
2015-12-10,1,0.0012032655373815965,0.0014459046417099296,-0.021412472200448385,0.007018449649136304,0.9836404635401813
2015-12-14,1,0.0003548130822354843,0.00048180720815515707,-0.018155573180461064,0.007018449649136304,0.9847650991515623
2015-12-16,1,0.0012012291651089233,0.0014208796551720424,-0.021054711714444844,0.0032368454757431527,0.9850502537432405
2015-12-18,1,0.0002922369137895204,0.00043231244343127127,-0.018155573180461064,0.0032368454757431527,0.9861375455548015
2015-12-22,1,0.0007280650260893472,0.0009077561948107964,-0.018155573180461064,0.0032368454757431527,0.9853606067191573
2015-12-24,1,0.001247592075009872,0.0015192263948062045,-0.021054711714444844,0.0032368454757431527,0.9840355255227293
2015-12-29,1,0.0015836233494114903,0.0019142387012257768,-0.021054711714444844,0.0032368454757431527,0.9837706637001842
2015-12-31,1,0.001311147757722756,0.0016259183318724363,-0.021054711714444844,0.003814875980850622,0.983854354635255
2016-01-05,1,0.0004313619822218104,0.0005824153658106841,-0.026735947224312967,0.003814875980850622,0.983210528242419
2016-01-07,-1,-0.0009127357922509491,-0.0009100710657095347,-0.019418199441384707,0.003814875980850622,0.9857343859809922
2016-01-11,-1,-0.0013010850028723573,-0.001254697253299437,-0.02484259049721577,0.0042832720297500595,0.9845973619590347
2016-01-13,-1,-0.0022125249500167116,-0.0020006119865898326,-0.026735947224312967,0.005460312313575233,0.9808467683926326
2016-01-15,-1,-0.0046054294103749956,-0.0039793579904595176,-0.02521525849405072,0.013076515842666331,0.9778759331716089
2016-01-20,-1,-0.005382779217162627,-0.004694437827830319,-0.012595265650217855,0.018039713596466275,0.9766431226609723
2016-01-22,-1,-0.003515236214592726,-0.0031119458086405864,-0.014928784311424729,0.012765163839804665,0.9776605186193041
2016-01-26,-1,-0.004799489815139521,-0.004179073892327937,-0.014481987911552358,0.008297276426024337,0.9788318878279134
2016-01-28,-1,-0.004466179357114783,-0.0039221929246691135,-0.014481987911552358,0.014946664315795128,0.9773637227140755
2016-02-01,-1,-0.003824350871107868,-0.0033755606989803915,-0.01571327533396233,0.015697661838844374,0.974895874647767
2016-02-03,-1,-0.005093217373053511,-0.004483594557852823,-0.012203576804771289,0.01701934117966993,0.9747877710652196
2016-02-05,-1,-0.005758353962809421,-0.005067341463547965,-0.008128456904862927,0.01701934117966993,0.975225521753792
2016-02-09,-1,-0.005744349106236373,-0.0051043880297542525,-0.008128456904862927,0.01701934117966993,0.9755974223547281
2016-02-11,-1,-0.009158433325509354,-0.008035880650356826,-0.0059009425162709845,0.02306309181250324,0.9762370109759572
2016-02-16,-1,-0.00633429914062128,-0.0055468909363982615,-0.007594768166807574,0.014365157528039109,0.9824822226143298
2016-02-18,-1,-0.004892565037938683,-0.004280485305543485,-0.007594768166807574,0.011750200002079778,0.9843716458613413
2016-02-22,-1,-0.0051847396199360685,-0.004514137605993437,-0.006043706028717116,0.014365157528039109,0.9841318981092292
2016-02-24,-1,-0.005309269969574006,-0.0046601122862389,-0.006195445469568876,0.014365157528039109,0.9846420070535721
2016-02-26,-1,-0.0043446617285298125,-0.003795801127363949,-0.007594768166807574,0.012190759782354963,0.9846328865671216
2016-03-01,-1,-0.0023621007617277336,-0.002073566579205586,-0.006973001756258956,0.012190759782354963,0.9871347267525508
2016-03-03,-1,-0.0012553660991164713,-0.0011277722987754247,-0.007594768166807574,0.011834540602134283,0.9871634882250442
2016-03-07,-1,-0.0011748594610450343,-0.0010522260210060073,-0.010815681266929625,0.011834540602134283,0.9866169997294623
2016-03-09,-1,-0.002185629102390373,-0.0019194147109831807,-0.010815681266929625,0.011834540602134283,0.9864012825206132
2016-03-11,-1,-0.00011832845909597853,-8.488883219563649e-05,-0.010815681266929625,0.011834540602134283,0.9871982522901364
2016-03-15,-1,-0.0003988353873783466,-0.00038935617336464777,-0.010815681266929625,0.018130023531125097,0.9850530187110006
2016-03-17,1,0.00031125992922135815,0.0004501637324177909,-0.010815681266929625,0.018130023531125097,0.9852751283139831
2016-03-21,1,0.0009408984694758672,0.001180058343671933,-0.010815681266929625,0.015112806891168576,0.9857793904747846
2016-03-23,1,0.0007184315460197616,0.000969661066426642,-0.0076052138794989125,0.01773287933941229,0.985912323880659
2016-03-28,1,0.0002787877752430678,0.0004467632995175928,-0.00739681517850484,0.015180339109852382,0.9869608420253159
2016-03-30,1,0.0011759454794642286,0.0015160037804352684,-0.005145401805184515,0.013013309791060839,0.9879754920452042
2016-04-01,1,0.0012838769957365108,0.0016297189763800795,-0.00518016556801528,0.011466283595778727,0.9878119276549497
2016-04-05,1,0.000946753164398058,0.0012861890056275389,-0.0038143899754353957,0.012764405236400515,0.9878628022011394
2016-04-07,1,0.0007710532988155022,0.0011083019576619971,-0.0043290930189794465,0.012764405236400515,0.988385218255852
2016-04-11,1,0.0010797052313956904,0.001415361361442153,-0.005584296566223834,0.011466283595778727,0.9889484692295026
2016-04-13,1,0.002920139866470862,0.003523670927836909,-0.006619983410155139,0.010952431521430224,0.9899882559411297
2016-04-15,1,0.003402064587898881,0.004108577403964277,-0.009957935177823615,0.010952431521430224,0.9895458527439661
2016-04-19,1,0.003779614604269219,0.00451490631238597,-0.009957935177823615,0.008197474883584499,0.9895838501766118
2016-04-21,1,0.0042109179845096645,0.005002126101425988,-0.012603195053047455,0.008197474883584499,0.9877340382121539
2016-04-25,1,0.0044801733866133425,0.005323565045955448,-0.012603195053047455,0.003999524053839201,0.9878093576006286
2016-04-27,1,0.004748167473252861,0.005623142946940035,-0.012603195053047455,0.008551319083773982,0.987236907599362
2016-04-29,1,0.004190114636073022,0.0050020394170021635,-0.012603195053047455,0.0125582128228593,0.9877401978645054
2016-05-03,1,0.003899399676264597,0.00464061898458804,-0.007616478106229569,0.008551319083773982,0.9883083898489827
2016-05-05,1,0.0032038561256115877,0.0038346818118897646,-0.007616478106229569,0.008551319083773982,0.9879176266257038
2016-05-09,1,0.0026328943810305485,0.0031288891905115936,-0.007616478106229569,0.012650572409273277,0.9875143332974027
2016-05-11,1,0.0034801970684931716,0.0041585127154817915,-0.007907535619770487,0.008551319083773982,0.9874547293056926
2016-05-13,1,0.002436563418629076,0.002887628519792687,-0.008365778340899962,0.008551319083773982,0.9870016925463092
2016-05-17,1,0.00297669399883607,0.0035388202632175925,-0.015341766080662265,0.0029828907649531674,0.985954655512248
2016-05-19,1,0.003860474429846732,0.00456164526658634,-0.008365778340899962,0.0014705271271328502,0.9879652977470447
2016-05-23,1,0.0038178271871873158,0.004528309463624912,-0.00819510640476717,0.008305260476567152,0.9882078607493451
2016-05-25,1,0.004337382172984142,0.00508083502661444,-0.00819510640476717,0.006446109103638445,0.9874226771073656
2016-05-27,1,0.003558732292586279,0.004148951898160651,-0.017049057200185427,0.0047219792036963,0.9821567507536163
2016-06-01,1,0.0022509346867842697,0.002560090847061285,-0.017049057200185427,0.008757051485089958,0.9812305957567862
2016-06-03,1,0.0012778825206211132,0.001439589090072066,-0.00826547195899963,0.01437391134543436,0.9820923117596482
2016-06-07,1,0.0012441811543038848,0.0013798899009677284,-0.017049057200185427,0.008757051485089958,0.981278161053268
2016-06-09,1,0.00045935245757387273,0.00046258308818118243,-0.008181064639205746,0.014874149491714336,0.9809554527114729
2016-06-13,-1,-0.000940547874178329,-0.0007207778022256524,-0.0033796423211041636,0.01807163116643352,0.9804799418694097
2016-06-15,-1,-0.0009113291913876458,-0.0007395742357613584,-0.00227620368581261,0.021569320211110434,0.9797465091412634
2016-06-17,-1,-0.0009634238803221052,-0.00077192775078948,-0.00227620368581261,0.021569320211110434,0.9797767826384339
2016-06-21,-1,-0.0005496754483583819,-0.0003995161286626133,-0.003479296413319486,0.021569320211110434,0.9805916010719585
2016-06-23,1,0.000657926617835713,0.0006598330860025797,-0.003479296413319486,0.01807163116643352,0.9826093166529959
2016-06-27,-1,-0.003502179004222299,-0.0029660086826274316,-0.0018181234394742162,0.01807163116643352,0.987448218094488
2016-06-29,-1,-0.0026053363905480242,-0.002148330456017529,-0.0029405529138716554,0.007252017629191847,0.9899942353051554
2016-07-01,-1,-0.002702260138271206,-0.0022047317463151743,-0.003614540832853992,0.005146422443988647,0.9907158141729437
2016-07-06,-1,-0.005080636569247723,-0.004177582530179573,-0.003614540832853992,0.006579389472224145,0.98969236578517
2016-07-08,-1,-0.002580900319075165,-0.0021129137887498247,-0.005441152726545307,0.006579389472224145,0.9878412203993071
2016-07-12,-1,-0.0013258077300617027,-0.0010462140019313832,-0.005441152726545307,0.004711047324034198,0.9887300821745878
2016-07-14,-1,-0.0009677890477308377,-0.000724712018756441,-0.005931374081454534,0.0046351296376273676,0.9892563405981496
2016-07-18,-1,-0.0012025485511199551,-0.0009120235257652242,-0.0062286190896348025,0.004711047324034198,0.9882094019303647
2016-07-20,-1,-0.0007977405860728779,-0.0005901962251243584,-0.0062286190896348025,0.0046351296376273676,0.9882772043273128
2016-07-22,-1,-0.000173830570505112,-9.132134236457978e-05,-0.0064386276628795105,0.0046351296376273676,0.988019997226686
2016-07-26,1,7.661621030358131e-05,0.00010880643627077482,-0.0064386276628795105,0.004762206269300583,0.9880413141477813
2016-07-28,1,4.386296103751455e-05,7.744452237398706e-05,-0.0064386276628795105,0.005735378573157632,0.9880479337888777
2016-08-01,-1,-0.0005471610147667264,-0.0004188180858687365,-0.005019875296976746,0.009022540061904855,0.9877068188890681
2016-08-03,1,0.0003016117578560878,0.00031661483075149277,-0.0028076442927527684,0.008691960218519562,0.9891947936287717
2016-08-05,1,0.00011183456386991657,0.00013660752845596374,-0.0028076442927527684,0.007731867244041514,0.992694886752253
2016-08-09,1,0.0005637688769973088,0.0006083096718531737,-0.005019875296976746,0.005735378573157632,0.993025134720602
2016-08-11,1,0.00046509713576464023,0.0005138279151867907,-0.0028076442927527684,0.006560446371430523,0.9936965640117901
2016-08-15,1,0.00025067154231173073,0.00025413740041410404,-0.0028076442927527684,0.006438319976051606,0.9941967868397048
2016-08-17,1,0.00016585620076937463,0.00019294844910350994,-0.0028076442927527684,0.007731867244041514,0.993441024264942
2016-08-19,1,4.675026104315718e-05,7.660977968253636e-05,-0.001648579247863172,0.007731867244041514,0.993084204577371
2016-08-23,1,0.00012680103066472494,0.00014362622689631532,-0.0013290124473171485,0.008274666381440594,0.9929060546388176
2016-08-25,0,-3.57220818565656e-05,2.7127107443960927e-05,-0.003397518722423085,0.008274666381440594,0.9929426103043487
2016-08-29,1,4.2158179073704255e-05,0.00011519090644045117,-0.006836862467535167,0.008274666381440594,0.9924592262530362
2016-08-31,1,0.0004133917753648999,0.00042560924910327075,-0.007837986129818942,0.008274666381440594,0.9915856720952313
2016-09-02,1,0.0009117200774767198,0.0010255107449152522,-0.007837986129818942,0.008618942274757662,0.9913186884606514
2016-09-07,1,0.000709965553147112,0.0007993327680925833,-0.0037556445752578715,0.011458317570546665,0.990006546898373
2016-09-09,1,0.0010275734605368092,0.0011786003840763746,-0.0059696382410326775,0.011458317570546665,0.9900808628603106
2016-09-13,1,0.0010724372603286593,0.0012434604376055612,-0.005912479285197784,0.011458317570546665,0.9904028045310913
2016-09-15,1,0.0014376854664986303,0.0016603324847707978,-0.006767774430768731,0.010104076195582807,0.9907904154344945
2016-09-19,1,0.001356210479159973,0.0015773053057024653,-0.005912479285197784,0.010104076195582807,0.9912844288636281
2016-09-21,1,0.0012829012791024785,0.0014674045606291254,-0.005912479285197784,0.009790464951833628,0.9914960823038693
2016-09-23,1,0.001198567465407208,0.0013693179388013551,-0.0067489433548828855,0.009790464951833628,0.9910303238512944
2016-09-27,1,0.0010078152319780921,0.0011301501166547487,-0.0067489433548828855,0.0058784730544398246,0.9917348294880808
2016-09-29,1,0.0008253722831076301,0.0009189468938504052,-0.005912479285197784,0.009314393578984595,0.9923029739625964
2016-10-03,1,0.001175940631278684,0.0013224633727724107,-0.005912479285197784,0.0058784730544398246,0.9932181530028081
2016-10-05,1,0.0017443345221645771,0.0019525174442976518,-0.0067489433548828855,0.003746550441699619,0.9942975595121075
2016-10-07,1,0.0017240405191425066,0.0019335814760943844,-0.0069465081773042395,0.004730331551467844,0.992513661094505
2016-10-11,1,0.001713739568745577,0.001946743952587018,-0.0069465081773042395,0.0057584122241465885,0.9913167662586929
2016-10-13,1,0.0016524135695206634,0.0018674078584739805,-0.005190673375861604,0.010823284104216568,0.9872437922063443
2016-10-17,1,0.0020919142045451858,0.0023985635551006775,-0.005190673375861604,0.010823284104216568,0.9873551622258121
2016-10-19,1,0.0019986576947884694,0.0022889498960481603,-0.0069465081773042395,0.010823284104216568,0.9868492047775094
2016-10-21,1,0.0015884714080823,0.0018131253296083895,-0.003547017735017837,0.013030495408091402,0.9870190897434042
2016-10-25,1,0.0011742588995639137,0.0013047311729535204,-0.0028843511427925745,0.014633145610146473,0.9867006814807204
2016-10-27,1,0.0015980520847342764,0.0017927035615786751,-0.0028843511427925745,0.014633145610146473,0.9876149976840707
2016-10-31,1,0.0012892072555455972,0.0014181856959122794,-0.0032463192876440055,0.014633145610146473,0.9870362155007484
2016-11-02,1,0.000749687123920786,0.0007761464439820748,-0.00027267832965569667,0.016322699893480338,0.9863400758458034
2016-11-04,1,0.0008894053699427392,0.0009117966378600205,-0.00027267832965569667,0.014633145610146473,0.9877262776815209
2016-11-08,1,0.0014001105488172976,0.0014926233047050411,0.000354822243369976,0.014633145610146473,0.988515479569981
2016-11-10,1,0.0031937718895539468,0.0035377502877467553,-0.0007716810732368868,0.00983234849364549,0.9928374848002948
2016-11-14,1,0.004245055090747755,0.004761076554760814,-0.0033783276805348502,0.00983234849364549,0.9921402145321344
2016-11-16,1,0.002610642955286465,0.0027121304217010097,-0.0033783276805348502,0.011402547588755751,0.991005516131621
2016-11-18,1,0.003363043783245626,0.0036132192619219602,-0.005676118032928082,0.00983234849364549,0.9910855402608647
2016-11-22,1,0.003571512700302826,0.0038544149853004485,-0.006217146762046255,0.00983234849364549,0.9910761249312579
2016-11-25,1,0.0030342119354605803,0.00320224070810352,-0.007341627944925071,0.00983234849364549,0.9905081972599395
2016-11-29,1,0.002837534597914958,0.00300915104612586,-0.007341627944925071,0.00983234849364549,0.9904978683806391
2016-12-01,1,0.003671544260421789,0.003990330845733267,-0.007779525563702094,0.009199292353295006,0.9906321742862731
2016-12-05,1,0.0038259770013464945,0.004182042632415697,-0.007779525563702094,0.009398339999592503,0.9908517684331803
2016-12-07,1,0.004238136709472896,0.004647656029127288,-0.008486894666451118,0.0062261250891318416,0.9906395592204869
2016-12-09,1,0.004118168537007095,0.0045050005684568045,-0.008486894666451118,0.0062261250891318416,0.990852432461299
2016-12-13,1,0.0036540497108042444,0.003974156933366734,-0.008486894666451118,0.0077470268746826715,0.9904252244993721
2016-12-15,1,0.003838697647722766,0.004180359857224787,-0.01048988206969674,0.0077470268746826715,0.9911626339730492
2016-12-19,1,0.0033023276402449247,0.003562953055238744,-0.008372540012160812,0.00812194628236708,0.9909375115418044
2016-12-21,1,0.0030323699491953612,0.0032307307946889616,-0.010035818820114895,0.007923212319170612,0.9908752149780841
2016-12-23,1,0.003034986213122857,0.003242130309297291,-0.010035818820114895,0.00895869936603069,0.9904825709777125
2016-12-28,1,0.002559999134301374,0.002690882951909461,-0.008372540012160812,0.00895869936603069,0.9906619268056048
2016-12-30,1,0.0023695585605805597,0.002494123269007792,-0.008287740369883426,0.00895869936603069,0.9903954574411041
2017-01-04,1,0.002402755588762,0.0025084267034773755,-0.009781419893282739,0.00812194628236708,0.990385034183501
2017-01-06,1,0.001948483286273809,0.0019933804754654074,-0.008287740369883426,0.00895869936603069,0.9904238766300009
2017-01-10,1,0.0018537274240835171,0.0018849128542608492,-0.009781419893282739,0.00895869936603069,0.9901545569708883
2017-01-12,1,0.0011793229982398974,0.0012605041137824257,-0.008287740369883426,0.010139393082628132,0.9901962562631663
2017-01-17,1,0.0008914019244165537,0.001009737553766431,-0.007205492475058169,0.010112499510386157,0.9906300581605237
2017-01-19,1,0.001007899356886745,0.001107301172363892,-0.005014753334996679,0.010112499510386157,0.9911718820455958
2017-01-23,1,0.0009231529812412448,0.0010136124630348072,-0.005014753334996679,0.010112499510386157,0.9915641902293223
2017-01-25,1,0.0015082201043734567,0.0015229688720154557,-0.0066020360148775215,0.0048726250970292494,0.9922972817798033
2017-01-27,1,0.0010854487176610273,0.0011531979463411262,-0.006884840337512148,0.0066906625376540125,0.9919449634363352
2017-01-31,1,0.00030721471648456557,0.0004833242773974609,-0.004389908640743739,0.009166241043039496,0.9909468941268565
2017-02-02,1,4.1102209936920496e-05,0.0002460913364031944,-0.004389908640743739,0.009166241043039496,0.9904172782494172
2017-02-06,1,0.00015665310937054428,0.0003601961142232366,-0.0066098718711934705,0.007349166633910479,0.9908475079968712
2017-02-08,1,3.244190506738326e-06,0.00020777902327342838,-0.005174819081915529,0.007349166633910479,0.9915539023571726
2017-02-10,1,0.0004797443574389771,0.0006466718872332334,-0.005174819081915529,0.006139299893821483,0.9929514515867011
2017-02-14,1,0.0007663834957454499,0.0008940903007927956,-0.005247129917895075,0.003681519465491738,0.993243448883232
2017-02-16,1,0.0008148975449787724,0.0009524520804657986,-0.0066098718711934705,0.0029752784599464104,0.9930404894159265
2017-02-21,1,0.00039814087328305606,0.0005822825741347245,-0.007083360203119716,0.0029752784599464104,0.9917285229919454
2017-02-23,0,-5.551697519150809e-05,0.0002206698478119419,-0.007083360203119716,0.0022689014061554836,0.9921006884187351
2017-02-27,0,-1.2129292438785148e-05,0.0002453028475402332,-0.007083360203119716,0.0010853768644719342,0.9924425251359829
2017-03-01,1,0.0010139434810783167,0.0010961306518783953,-0.007083360203119716,0.0010853768644719342,0.9927375869583768
2017-03-03,1,0.0004611427433958712,0.0006211889289155668,-0.006291479376057328,0.0010853768644719342,0.9929261247722901
2017-03-07,0,-0.00010340405186695135,0.00013162472545145834,-0.005845948912220992,0.0010853768644719342,0.9934707648882726
2017-03-09,-1,-0.0005347835934680821,-0.00022455591614311925,-0.006208387511735877,0.0022689014061554836,0.992995772774872
2017-03-13,-1,-0.0004733781720940984,-0.0001753094552374337,-0.006208387511735877,0.0010853768644719342,0.993039462940649
2017-03-15,-1,-0.0007653080584258585,-0.00042654455715534394,-0.006834084610155365,-0.0002368012616201172,0.9927043307853023
2017-03-17,-1,-0.001648668737181251,-0.0011723143882164091,-0.006834084610155365,-0.0002368012616201172,0.9928527868889916
2017-03-21,-1,-0.002900858637814931,-0.0022718769673424257,-0.006208387511735877,0.0020174571599387435,0.9942019629232228
2017-03-23,-1,-0.0027676149483863675,-0.002183119719562342,-0.006208387511735877,0.006264665853197382,0.993461691886135
2017-03-27,-1,-0.0031476149759743087,-0.0025177388126999176,-0.005845948912220992,0.008869423270721813,0.9925270375963751
2017-03-29,-1,-0.0033398450347312076,-0.002668423163918852,-0.005932519410937977,0.006264665853197382,0.993159289555359
2017-03-31,-1,-0.0027635159518143745,-0.0021854858516275407,-0.004633010323412108,0.004461468208956267,0.9940783670105241
2017-04-04,-1,-0.002603656929652583,-0.0020742963284735316,-0.004633010323412108,0.006264665853197382,0.993400165538953
2017-04-06,-1,-0.00102758963778912,-0.0008144465070479544,-0.003760357717512269,0.005842834342925785,0.9937767861858106
2017-04-10,-1,-0.0010852038504580962,-0.0008736764412011233,-0.0038296343441375476,0.005842834342925785,0.9936495898934828
2017-04-12,-1,-0.0017319245474709546,-0.0014297851165640779,-0.0038296343441375476,0.005842834342925785,0.9938031516148874
2017-04-17,-1,-0.001424389798989692,-0.0011757769815867903,-0.0038296343441375476,0.005842834342925785,0.9936358462019753
2017-04-19,-1,-0.0013282238227037934,-0.0011025830723934882,-0.0038296343441375476,0.005530228761031721,0.9921037940464856
2017-04-21,-1,-0.0010842339226102406,-0.000883295732607874,-0.0038296343441375476,0.0052590318030326915,0.9926333582479534
2017-04-25,-1,-0.00076029145539375,-0.0005811914185405361,-0.0038296343441375476,0.0052590318030326915,0.9931803821242406
2017-04-27,-1,-0.0006016620783627429,-0.000472954936820759,-0.00354890939346359,0.005530228761031721,0.992908745407851
2017-05-01,-1,-0.000520067212694047,-0.0004018694424593145,-0.0038296343441375476,0.005530228761031721,0.9926570272734958
2017-05-03,1,0.00012962922828503115,0.0001375715526914342,-0.0038296343441375476,0.005530228761031721,0.9922393161582587
2017-05-05,1,0.0002298974890534701,0.00024135522175868044,-0.004786327795070553,0.0052590318030326915,0.9921709101698452
2017-05-09,-1,-0.00016703866555053078,-0.00011513930073416896,-0.006629833379336768,0.0052590318030326915,0.9913246979034894
2017-05-11,1,0.00011865570817225151,0.00012769614217158769,-0.003964927995339101,0.008854521790442894,0.9899156838560902
2017-05-15,-1,-0.00014649144385514437,-0.00010874336939176948,-0.0026833293611185647,0.006355862670908818,0.9907708321201975
2017-05-17,-1,-0.0011053653943703002,-0.0009625686628896245,-0.002155036280028456,0.006355862670908818,0.9925974070190158
2017-05-19,-1,-0.0009820202754673006,-0.0008506627270095681,-0.0026833293611185647,0.0074715677052390565,0.9923804528938228
2017-05-23,-1,-0.0008410564130755226,-0.0007112864774491008,-0.005944897017258412,0.006033160242857759,0.991471001717482
2017-05-25,-1,-0.0007971233178785357,-0.0006589651981104917,-0.008230540928751112,0.003958963724513455,0.9912963948611088
2017-05-30,-1,-0.0007906224988594087,-0.0006801541277122184,-0.005944897017258412,0.006033160242857759,0.9910856419660048
2017-06-01,-1,-0.0004793021476670757,-0.0003897595203359062,-0.005944897017258412,0.007604342894424585,0.9902351885790671
2017-06-05,-1,-0.0007510047016318881,-0.0006353694174429202,-0.0034616406007177028,0.00933854958622119,0.9896136224960983
2017-06-07,-1,-0.001607567250481834,-0.0013723132693693337,-0.0023760112166372727,0.00933854958622119,0.9902715815454696
2017-06-09,-1,-0.0004042269686542678,-0.00030274692843905573,-0.0023760112166372727,0.006033160242857759,0.9923940844360314
2017-06-13,-1,-0.0001879495517598615,-0.00012360088435232758,-0.0029768401077973593,0.005733880885376651,0.9923210619698055
2017-06-15,-1,-0.00020391797657085247,-0.00013231884442854234,-0.004800329873016401,0.006642903037873186,0.9918959773041972
2017-06-19,1,0.00032982880232889543,0.0003676837717194337,-0.005011976686375496,0.0055652268056050475,0.9922006224125343
2017-06-21,-1,-0.0008879611383572606,-0.0007677297525414344,-0.0021708904085224736,0.006365428789893135,0.9932003108620732
2017-06-23,-1,-0.0016461762925605817,-0.001415435502319809,-0.0014142745812511697,0.006365428789893135,0.9931311232993021
2017-06-27,-1,-0.0014055313803122442,-0.001191327861823735,-0.0021708904085224736,0.006365428789893135,0.9927786775853017
2017-06-29,1,0.00015213251301503085,0.00015956080884120362,-0.0021708904085224736,0.00547736941058722,0.9944268043605714
2017-07-03,1,0.0005238688330998759,0.0005466241503382954,-0.0014142745812511697,0.00547736941058722,0.9950376312746687
2017-07-06,1,0.0011788169773755987,0.0013517982101831684,-0.002778720330262154,0.006174403383645286,0.9929442773098135
2017-07-10,1,0.001332895261112821,0.0015477536836420748,-0.005011976686375496,0.006365428789893135,0.9918991051408093
2017-07-12,1,0.0015262242068801728,0.0017909734765925874,-0.005011976686375496,0.006365428789893135,0.991566226313266
2017-07-14,1,0.0015404928069161447,0.0017970777679616992,-0.00636096157257596,0.006174403383645286,0.9900391541637005
2017-07-18,1,0.001292084428547511,0.0015104055253980348,-0.005220856210689729,0.006560681716416774,0.9898291553089607
2017-07-20,1,0.0014448016623670506,0.001685560889498992,-0.010270169545602973,0.00640592969957174,0.9884369438518519
2017-07-24,1,0.002234858198851139,0.0026306735605123276,-0.010270169545602973,0.00549058277275175,0.9876549657607735
2017-07-26,1,0.002057326929450874,0.0024086497121869367,-0.008847221423247306,0.00549058277275175,0.9880902865789157
2017-07-28,1,0.002125942944801387,0.0024642716535146535,-0.008847221423247306,0.00746954126380306,0.9876773444046613
2017-08-01,1,0.002384660510213002,0.002752090083428992,-0.010652442687491168,0.0061906992624135414,0.9871261438846811
2017-08-03,1,0.0013539358269665572,0.0015934943941390385,-0.008847221423247306,0.006400175887950712,0.9895312858486561
2017-08-07,1,0.0016913567318353072,0.001971333663441631,-0.010652442687491168,0.006400175887950712,0.9890856900487901
2017-08-09,1,0.0010024095325765446,0.001166992071284098,-0.010652442687491168,0.006400175887950712,0.9890793434660331
2017-08-11,-1,-0.0007961899941539058,-0.0006743565030118659,-0.008847221423247306,0.008097971140414571,0.9903949051800289
2017-08-15,-1,-0.0006986830255818491,-0.0005830657395321854,-0.008847221423247306,0.008097971140414571,0.9903387856374322
2017-08-17,-1,-0.001985881685078107,-0.0017048460921692595,-0.00714978999129103,0.008097971140414571,0.9912504809324444
2017-08-21,-1,-0.0023336142702148725,-0.0020226093570309823,-0.0021436747379387283,0.008333272424371374,0.9907432565484642
2017-08-23,-1,-0.002019924781436814,-0.0017690521752397393,-0.002118224741116812,0.008432481176297166,0.9910560750697301
2017-08-25,-1,-0.0015274197456095913,-0.0013279885341303081,-0.002118224741116812,0.008131040724389835,0.9918202913270011
2017-08-29,-1,-0.0019649342398359738,-0.0017167170128632937,-0.0008376057461303117,0.008131040724389835,0.9913712579808661
2017-08-31,-1,-0.0017821870400225588,-0.0015481619683387071,-0.002118224741116812,0.008018781919924752,0.9915086600036295
2017-09-05,-1,-0.0024775558406211927,-0.002136174667478323,0.0009241482159606281,0.008018781919924752,0.9919521513634139
2017-09-07,-1,-0.003061292547511936,-0.0026590287166139,0.0020151367981963786,0.008432481176297166,0.9915554668694564
2017-09-11,-1,-0.0023536162911165313,-0.0020322079240368248,0.0013443875678077898,0.008018781919924752,0.9929259963781928
2017-09-13,-1,-0.0016012450140169732,-0.0013905887842949835,9.22944648477062e-05,0.008018781919924752,0.9935699210429492
2017-09-15,-1,-0.0010217120961309757,-0.0009139567744496709,-0.00048049558533115106,0.00800790160505486,0.994126188553205
2017-09-19,-1,-0.000636329454417378,-0.0005623066260195312,-0.0025731449287889037,0.006110960023362907,0.9947113615952121
2017-09-21,-1,-0.0003956681901641926,-0.00035595711389913476,-0.00048049558533115106,0.005758797919362489,0.9949691221365284
2017-09-25,0,-2.0064975089157275e-05,2.3751954253113807e-06,-0.0004809757541016258,0.006872495361896935,0.9948802729246016
2017-09-27,1,0.00043204343242768764,0.0005190882154802864,-0.0029718549508942005,0.007045032775003712,0.9946375173864799
2017-09-29,1,0.0001905346586823655,0.00023183869098937834,-0.0004809757541016258,0.007045032775003712,0.9947766756526154
2017-10-03,1,0.000596442423387369,0.0006899089477639896,-0.004137764727186996,0.005944685941317528,0.9947770051748579
2017-10-05,1,0.0009244317054518411,0.0010550797554670249,-0.004137764727186996,0.005944685941317528,0.9944200106439949
2017-10-09,1,0.00020816550169222743,0.00023358073970714465,-0.004137764727186996,0.005944685941317528,0.9940140337185811
2017-10-11,1,0.0005024167724132453,0.0005195903974723939,-0.0043286949003638235,0.005126526182529793,0.9940413055824117
2017-10-13,1,0.00039158581304481286,0.0004114939632862657,-0.004594225432969239,0.005126526182529793,0.9936787435043051
2017-10-17,1,0.0004050226782213761,0.00043885036705220977,-0.005260489269799685,0.005126526182529793,0.993507683004644
2017-10-19,1,0.00041989574901375216,0.00043480996242537993,-0.005260489269799685,0.005126526182529793,0.9935005453386667
2017-10-23,1,0.0009681729993036472,0.001083950986086304,-0.005260489269799685,0.004579450629265392,0.9938214417735696
2017-10-25,1,0.0008699549240867154,0.0009522211916724914,-0.004092397985044533,0.0021373658926729334,0.9946014814843323
2017-10-27,1,0.0007107141663400267,0.0007349751805954877,-0.0050460188608804826,0.0021373658926729334,0.9942601081105233
2017-10-31,1,0.0008993166912485807,0.0010177091799434953,-0.004092397985044533,0.005042539356685148,0.9922931151896947
2017-11-02,1,0.0016094499629438891,0.0018256075526203472,-0.004092397985044533,0.004579450629265392,0.9927830859325095
2017-11-06,1,0.0014339281609795924,0.0016291430895589468,-0.004092397985044533,0.00470422291006344,0.9924613588678526
2017-11-08,1,0.0014632029032313806,0.0016642699297418988,-0.003938205536190161,0.005568674635656467,0.9924074595940449
2017-11-10,1,0.00040067000475279375,0.0004023807179979088,-0.0034027860240136423,0.0062803249195354845,0.9927582129616498
2017-11-14,-1,-0.0003146228518823458,-0.00020391978339750816,-0.0034027860240136423,0.0062803249195354845,0.9922868210185805
