JNU-Tangyin/eata/results/Batch4_SP500/Batch4_SP500-AME.csv
Date,Action,Predicted_Q25,Predicted_Q75,Actual_Q25,Actual_Q75,RL_Reward
2010-12-14,0,0.0,0.006429859639606837,-0.003995031755887972,0.0060035478643629524,0.9949649479675049
2010-12-16,1,0.006569374980298497,0.00722818555740295,-0.002845438716287736,0.0060035478643629524,0.9915986394300179
2010-12-20,1,0.004870356520589227,0.005196195885565469,-0.002845438716287736,0.006707486348042933,0.991859084574076
2010-12-22,0,0.0,0.0,-0.002845438716287736,0.006707486348042933,0.9915988969846943
2010-12-27,0,0.0,0.0,-0.002845438716287736,0.006707486348042933,0.9914467180474017
2010-12-29,0,0.0,0.0,-0.003995031755887972,0.006352970929953803,0.9907733646073881
2010-12-31,0,0.0,0.0,-0.007002108482646607,0.0084282744536049,0.9875325344415832
2011-01-04,0,0.0,0.0,-0.005823748646653227,0.009846066910999485,0.9870097946241574
2011-01-06,0,0.0,0.0,-0.008903349967297098,0.01425070554314272,0.9862473411378515
2011-01-10,1,0.0006044200918608974,0.000613619362126312,-0.008903349967297098,0.016544083547968706,0.9850769588137858
2011-01-12,0,0.0,0.0,-0.008903349967297098,0.01846134923422955,0.9841758294154062
2011-01-14,0,0.0,0.0,-0.008903349967297098,0.01846134923422955,0.9841688617890003
2011-01-19,0,0.0,0.0,-0.008903349967297098,0.016595053767820788,0.9855888228439127
2011-01-21,0,0.0,0.0,-0.008618760893281535,0.00916945124296797,0.9873542396605087
2011-01-25,0,0.0,0.0,-0.008903349967297098,0.00916945124296797,0.9857881216214718
2011-01-27,0,0.0,0.0,-0.008618760893281535,0.015987416937626085,0.9855306195526922
2011-01-31,0,0.0,0.0,-0.008618760893281535,0.00916945124296797,0.9881701599559262
2011-02-02,0,0.0,0.0,-0.007546155748747872,0.014448512979550021,0.9879558786470652
2011-02-04,0,0.0,0.0,-0.009036648581127129,0.009989357168178194,0.9877792951695655
2011-02-08,0,0.0,0.0,-0.009036648581127129,0.009042934941777641,0.9884381286931374
2011-02-10,0,0.0,0.0,-0.010710788673497295,0.008406235165767453,0.988427907386596
2011-02-14,0,0.0,0.0,-0.012107491609440687,0.008406235165767453,0.9873079442475207
2011-02-16,0,0.0,0.0,-0.012107491609440687,0.009526630481102328,0.9866974007457209
2011-02-18,0,0.0,0.0,-0.012107491609440687,0.011997964442765366,0.9850725333907917
2011-02-23,1,0.14123419195602036,0.14379101464626295,-0.012107491609440687,0.011997964442765366,0.8757774925959018
2011-02-25,-1,-0.0011571262768819816,-0.0005693741780482418,-0.012107491609440687,0.010567122885019683,0.986884741509949
2011-03-01,-1,-0.0006595968499487027,-0.00018742898975157834,-0.01124587423779688,0.011997964442765366,0.9865307431917768
2011-03-03,0,0.0,0.0,-0.01124587423779688,0.010567122885019683,0.9872656525937495
2011-03-07,0,0.0,0.0,-0.0076627922225413906,0.01186854966436714,0.9876964965159809
2011-03-09,0,0.0,0.0,-0.008555605993557888,0.010998942740253937,0.9878221535132011
2011-03-11,0,0.0,0.0,-0.009272492236491708,0.010998942740253937,0.9882359415367308
2011-03-15,-1,-0.0033211560470408673,-0.0026788362846859393,-0.01127880644832243,0.010998942740253937,0.98834492938439
2011-03-17,0,0.0,0.0,-0.011210253744743397,0.010542823582622131,0.9887330140576472
2011-03-21,0,0.0,0.0,-0.011954129691703414,0.010542823582622131,0.9869730292927739
2011-03-23,0,0.0,0.0,-0.011210253744743397,0.011795651757174482,0.9860662553040007
2011-03-25,0,0.0,0.0,-0.011210253744743397,0.01332771251770667,0.9863006133169838
2011-03-29,0,0.0,0.0,-0.011210253744743397,0.012873074882586802,0.9868155096407688
2011-03-31,0,0.0,0.0,-0.011954129691703414,0.011698673641346781,0.9869277381886388
2011-04-04,1,0.0003437636626196839,0.00045014636383192163,-0.012188700730428572,0.009303353520765598,0.9863513370857846
2011-04-06,1,0.0007763688008536513,0.0007887799033515341,-0.012188700730428572,0.009303353520765598,0.9861782631255586
2011-04-08,1,0.0001491120004457692,0.00023980939786528982,-0.011357968827450653,0.011698673641346781,0.98698414419864
2011-04-12,-1,-0.000598792546836067,-0.0004086388973248451,-0.011027987530530801,0.011698673641346781,0.9870073827418806
2011-04-14,0,0.0,0.0,-0.011330288540160636,0.009662494562569705,0.9873965780945259
2011-04-18,0,0.0,0.0,-0.012804689419729532,0.0056772682359970674,0.9894369120322306
2011-04-20,0,0.0,0.0,-0.012804689419729532,0.003022612570983873,0.990036440996789
2011-04-25,0,0.0,0.0,-0.015048102543085893,0.002248842202844007,0.9894634109141963
2011-04-27,0,0.0,0.0,-0.016016923295745108,0.002248842202844007,0.9873730078416564
2011-04-29,0,0.0,0.0,-0.015048102543085893,0.003022612570983873,0.9879663055273608
2011-05-03,-1,-0.0008238169386819223,-0.0006189516775199974,-0.015048102543085893,0.004935870803040136,0.9869164547483384
2011-05-05,-1,-0.001361326158551973,-0.001109136729434683,-0.015048102543085893,0.007095986384191855,0.9868088817088705
2011-05-09,-1,-0.0007213191497369452,-0.0005425805096600005,-0.015048102543085893,0.007095986384191855,0.9865768483591176
2011-05-11,-1,-0.0012088216947614186,-0.0009861575479453827,-0.014801819735483352,0.0076973732771604434,0.9867652958405109
2011-05-13,-1,-0.0021924802494155756,-0.0018147156633901138,-0.014801819735483352,0.0076973732771604434,0.9866201181199765
2011-05-17,-1,-0.003410666470268342,-0.002883172180999599,-0.01173002968641605,0.011718180845130923,0.9868691344933127
2011-05-19,-1,-0.0026907089455288366,-0.002247509576052905,-0.012286149701421327,0.0076973732771604434,0.9876220593574743
2011-05-23,-1,-0.0035362650998889073,-0.0030001170723172044,-0.010827267194051386,0.011718180845130923,0.9865147411876802
2011-05-25,-1,-0.0032354108052858434,-0.0027264189632650957,-0.009638344592956918,0.009636529864793335,0.9883437595275214
2011-05-27,-1,-0.0031035130861152872,-0.0026025558499312377,-0.010701512996747157,0.009636529864793335,0.988549760323625
2011-06-01,-1,-0.003425501215472527,-0.002900695351736591,-0.009638344592956918,0.011718180845130923,0.9883583664037182
2011-06-03,-1,-0.003327211973491116,-0.002802844607845123,-0.009638344592956918,0.013553763891072618,0.9876486963856531
2011-06-07,-1,-0.0027581887997651924,-0.002339423715558205,-0.008439782271157268,0.010849417717934929,0.9881773451744077
2011-06-09,-1,-0.002915188501413574,-0.0024960495237087883,-0.008439782271157268,0.010849417717934929,0.9884628149246749
2011-06-13,-1,-0.003862338845228723,-0.0033199559242372326,-0.004853268616133771,0.010849417717934929,0.9877882575700772
2011-06-15,-1,-0.0032334182606566994,-0.002788064594342783,-0.005584930148716957,0.009196759560912428,0.9876623136266203
2011-06-17,-1,-0.0037154358483572087,-0.0032203055375867274,-0.005584930148716957,0.009196759560912428,0.98728921420137
2011-06-21,-1,-0.002280853669632687,-0.0019392405987891928,-0.005584930148716957,0.009153456104303244,0.9887581447791134
2011-06-23,-1,-0.001284891356132242,-0.0011003542691175848,-0.005584930148716957,0.011056147478822595,0.9888578820722607
2011-06-27,-1,-0.0014701136513408266,-0.001293758419309639,-0.001629371767745287,0.01222653650573904,0.9886965658923882
2011-06-29,1,0.0003440755022266868,0.00039253349221233104,-0.01255537703307686,0.009153456104303244,0.9889389476682523
2011-07-01,1,0.0018297441701136275,0.00214009789116019,-0.01255537703307686,0.004692127071184753,0.9895010206937784
2011-07-06,0,0.0,0.0,-0.018125559689127428,0.00383868427433769,0.9879567784870046
2011-07-08,0,0.0,0.0,-0.022194426771240332,0.0032818734306166216,0.9840097512715782
2011-07-12,0,0.0,0.0,-0.024178540956965262,0.006100209607812053,0.9763853925551785
2011-07-14,0,0.0,0.0,-0.03173051186732528,0.006490339283450869,0.9726062642003004
2011-07-18,0,0.0,0.0,-0.03173051186732528,0.012195077492307627,0.9723839402738929
2011-07-20,1,0.00010596178917297272,0.00010889534457844258,-0.03173051186732528,0.009126172515443332,0.9720424405708635
2011-07-22,1,0.00016372348600048468,0.0002018621268365887,-0.034481704983331,0.005796306543344477,0.9690601811097899
2011-07-26,1,0.0014999004149103502,0.0017303950411110677,-0.034481704983331,0.008833407258022502,0.9666328404745488
2011-07-28,-1,-0.001315046910900976,-0.0011297531062659295,-0.03343256168280941,0.008833407258022502,0.9686737047431377
2011-08-01,-1,-0.0010398465519846477,-0.0009328200624530115,-0.03343256168280941,0.016623970921906775,0.9661424858429672
2011-08-03,-1,-0.003648486026406144,-0.0031997503307492833,-0.02408779721682341,0.021205402015490978,0.9671215409659721
2011-08-05,-1,-0.009787570337292552,-0.008542284121290518,-0.02019155122928319,0.021205402015490978,0.9684115930336307
2011-08-09,-1,-0.005348961067512476,-0.004592633127383878,-0.0176671123750166,0.021205402015490978,0.9752288118403208
2011-08-11,0,0.0,0.0,-0.0176671123750166,0.016623970921906775,0.979147525117579
2011-08-15,0,0.0,0.0,-0.0176671123750166,0.021205402015490978,0.978127129253611
2011-08-17,0,0.0,0.0,-0.016363189872708354,0.022681054284350258,0.9772431866786528
2011-08-19,0,0.0,0.0,-0.010595063486106629,0.022681054284350258,0.9802792519318698
2011-08-23,0,0.0,0.0,-0.02019155122928319,0.021205402015490978,0.9800363130121557
2011-08-25,0,0.0,0.0,-0.021194327536116237,0.021205402015490978,0.977194467118282
2011-08-29,0,0.0,0.0,-0.021194327536116237,0.01879462493608942,0.9759102695031439
2011-08-31,0,0.0,0.0,-0.027376984196963723,0.008835872066673744,0.9751928819040558
2011-09-02,0,0.0,0.0,-0.03351794876531869,0.008835872066673744,0.9739048283817341
2011-09-07,0,0.0,0.0,-0.03351794876531869,0.0197422423638702,0.9701297840568746
2011-09-09,0,0.0,0.0,-0.027376984196963723,0.027048910515317874,0.9696050832703268
2011-09-13,0,0.0,0.0,-0.027376984196963723,0.027048910515317874,0.9698066463596168
2011-09-15,1,0.0009512765403592922,0.0012736293975792899,-0.027376984196963723,0.02314988279218716,0.9705334041518915
2011-09-19,1,0.0007127743151180727,0.0010348801007065503,-0.03033519744154919,0.02314988279218716,0.9692846677476294
2011-09-21,-1,-0.0024483706497632554,-0.002370048239653159,-0.02397442648028905,0.03343979903380865,0.9693931559299831
2011-09-23,-1,-0.0039885105974896895,-0.0036534410723767655,-0.021058176428561542,0.03343979903380865,0.9716478175029953
2011-09-27,-1,-0.001270677111752843,-0.0012240681715528843,-0.023519299446733997,0.033405852901179554,0.9727705596753615
2011-09-29,-1,-0.0017476696501545891,-0.0016816717119821124,-0.021058176428561542,0.038785590662766156,0.971615190419117
2011-10-03,0,0.0,0.0,-0.008166186881836906,0.038785590662766156,0.9745011384586756
2011-10-05,0,0.0,0.0,-0.021058176428561542,0.031676380235727115,0.9765845005504701
2011-10-07,0,0.0,0.0,-0.013887447665352229,0.03356322653377975,0.9760805123433896
2011-10-11,0,0.0,0.0,-0.013887447665352229,0.023488051650238415,0.9770203744958988
2011-10-13,-1,-0.004106685878655899,-0.0037975538347216555,-0.023519299446733997,0.027155060922993725,0.9742971616208366
2011-10-17,-1,-0.0005745063482009353,-0.0005359114718532159,-0.016619012083605566,0.03277080287446095,0.9745877192317679
2011-10-19,1,0.0004711764618637328,0.0006920264618792602,-0.01718556732184171,0.027155060922993725,0.975381821504932
2011-10-21,1,0.0012359192608030391,0.0015284930523663583,-0.021908528244275517,0.027155060922993725,0.9751467324052632
2011-10-25,1,0.0018898337783724891,0.002286321530808222,-0.01636794539415,0.02438143237489636,0.977014216579201
2011-10-27,1,0.00445980927442661,0.005202935081627999,-0.021908528244275517,0.019093817590041817,0.9766420289803044
2011-10-31,1,0.002616804276741118,0.0030936191696416706,-0.01636794539415,0.02438143237489636,0.9764241266655803
2011-11-02,0,0.0,0.0,-0.012250730083294036,0.02438143237489636,0.9767521304825818
2011-11-04,0,0.0,0.0,-0.012250730083294036,0.019093817590041817,0.9790066280897185
2011-11-08,0,0.0,0.0,-0.012250730083294036,0.013209089036494339,0.9795507579937671
2011-11-10,1,0.0020366342741112648,0.0023675584433271836,-0.012250730083294036,0.013209089036494339,0.9794805297320018
2011-11-14,1,0.0029632638594296753,0.0034374800442267374,-0.019795820464538927,0.00894779239494921,0.9794289254181937
2011-11-16,1,0.0026659035594213316,0.0030693568846039752,-0.019795820464538927,0.006784361988642629,0.9804619730973687
2011-11-18,1,0.002771957535707181,0.0032799851693215837,-0.019515705731212623,0.00894779239494921,0.980316648298117
2011-11-22,1,0.0024767451230659505,0.0029925263143272844,-0.019515705731212623,0.010019700521806636,0.9802035143514568
2011-11-25,1,0.0012438398197137657,0.001615785567836309,-0.013244384782737399,0.01249281341086515,0.9813774895405475
2011-11-29,1,0.002399332364312177,0.0029148932384812287,-0.019515705731212623,0.010019700521806636,0.9828098708500056
2011-12-01,1,0.0029818550251238334,0.0035294169623782583,-0.019515705731212623,0.010019700521806636,0.9855380746127472
2011-12-05,1,0.003284620955142109,0.0038514144763414503,-0.019515705731212623,0.011442481852399874,0.9854700747686594
2011-12-07,1,0.0027492308155329095,0.0032121061072923063,-0.019515705731212623,0.012516208290870861,0.984777757966249
2011-12-09,1,0.003987344420491376,0.0046863282196766744,-0.013798303422110997,0.012516208290870861,0.9871307877442692
2011-12-13,1,0.0020721662487575626,0.0025054890797254416,0.0009722825557668086,0.014374243042779802,0.9874104338315657
2011-12-15,1,0.002528849514978035,0.0030835790257616575,0.0009722825557668086,0.014374243042779802,0.9881647582031488
2011-12-19,1,0.0014560119961348791,0.0017798406197725807,0.0009722825557668086,0.01637955381059848,0.9878735398828232
2011-12-21,1,0.002358537216434915,0.002792236246555867,-0.0012542373863846951,0.014374243042779802,0.9888386735937849
2011-12-23,1,0.0023634232657530163,0.002724832995525715,-0.0012542373863846951,0.012516208290870861,0.9891726649853064
2011-12-28,-1,-0.0010042168590060577,-0.0007811145359593905,-0.0012542373863846951,0.012516208290870861,0.9886590579299086
2011-12-30,0,0.0,0.0,-0.002862020425671161,0.012132277897720794,0.989315613613719
2012-01-04,0,0.0,0.0,-0.006832285538752258,0.012844628742052586,0.9880409499931303
2012-01-06,0,0.0,0.0,-0.002862020425671161,0.013457196142781059,0.98848424427347
2012-01-10,0,0.0,0.0,-0.002862020425671161,0.011157888326957766,0.9895206715059243
2012-01-12,1,0.002326823624272677,0.002418641382263711,-0.006832285538752258,0.00981412533915544,0.9904676740619597
2012-01-17,1,0.0029399555003183095,0.0032175632232257765,-0.002862020425671161,0.011157888326957766,0.9908909071520695
2012-01-19,1,0.0028676282168916393,0.003089174932375441,-0.003980056899978079,0.011157888326957766,0.9902963756571358
2012-01-23,1,0.003597824107356226,0.004011568713565469,-0.003321962960911591,0.011157888326957766,0.9906155937578569
2012-01-25,1,0.004244119181086484,0.004779912972339162,-0.0059468207458358985,0.008036061131747587,0.9902837273002184
2012-01-27,1,0.002851108388890678,0.003104559099092393,-0.0059468207458358985,0.008036061131747587,0.9902387370853574
2012-01-31,1,0.0035298591022984603,0.0039339083460094544,-0.0059468207458358985,0.004811197875219057,0.9902976173125753
2012-02-02,1,0.0028398500700423995,0.0030720682343066,-0.0059468207458358985,0.004811197875219057,0.9914575375289417
2012-02-06,1,0.003510272649041148,0.003863697357813679,-0.00835360216208092,0.0018084940228111203,0.9907219801279185
2012-02-08,1,0.003983466467124049,0.004466790191326319,-0.00835360216208092,0.00779494732121622,0.9903107217845576
2012-02-10,1,0.0033179196171613805,0.003675188596576788,-0.0059468207458358985,0.010760602707681824,0.991028462163627
2012-02-14,1,0.0025750311343817984,0.0027345637640688036,-0.0059468207458358985,0.010760602707681824,0.9907626036244346
2012-02-16,1,0.0008867275219716433,0.001076606058273936,-0.005219951653107116,0.0037499864624255617,0.9930781886946695
2012-02-21,1,0.0018843103167710494,0.00197630130132287,-0.005219951653107116,0.0037499864624255617,0.9925356659935857
2012-02-23,1,0.001138503203695316,0.0011902541342445393,-0.006249658008875768,0.0039056211255582285,0.99258686448655
2012-02-27,-1,-0.0009471715482257282,-0.0005427067141632782,-0.003172449539420341,0.010760602707681824,0.9928272839760068
2012-02-29,1,0.0004432065411851822,0.0005429632270897075,-0.0057360168910897055,0.010760602707681824,0.9924703189357185
2012-03-02,1,0.00028981952942286804,0.00040911760259821587,-0.003172449539420341,0.005296596669556623,0.9933968882229949
2012-03-06,1,0.00021103892830020692,0.00030074889542134155,-0.0010787228147799805,0.010389333913035892,0.9937904549957518
2012-03-08,1,0.0008996203296932023,0.0009049706844282973,-0.0026707353789606875,0.003174701893565147,0.9940655554448757
2012-03-12,1,0.0009312684140452592,0.0009441605988967634,-0.008129922447402068,0.0027875564822838206,0.9932156401638995
2012-03-14,1,0.001200205658868768,0.001236230996558538,-0.008129922447402068,0.003174701893565147,0.9930361656037756
2012-03-16,1,0.0012959384055981874,0.0013670613888324423,-0.010001520522327948,0.003174701893565147,0.99245185762067
2012-03-20,1,0.0011070443105039207,0.0011574827317275159,-0.00846059716896976,0.0050980797536927785,0.9917681213954815
2012-03-22,1,0.0011367192696371327,0.0012244966666845923,-0.005269375386406901,0.0050980797536927785,0.9920166221822373
2012-03-26,1,0.0008049319969400713,0.000815084369960735,-0.008821031023636561,0.003738368143784725,0.9919057151253295
2012-03-28,1,0.00037445104940661425,0.0004274657853760813,-0.006474125080427457,0.009117922223045955,0.990723463548041
2012-03-30,1,0.0008381016408399461,0.000887674802858209,-0.007405526085757043,0.009756667979753542,0.9902826573937404
2012-04-03,1,0.0012516777166862894,0.0013686633179881616,-0.007405526085757043,0.010838914338658048,0.9902252331510668
2012-04-05,1,0.0007216896475915121,0.0007263092287191342,-0.008722369352707208,0.010838914338658048,0.9899784919156837
2012-04-10,1,9.005131554383545e-05,0.00015012624253696796,-0.004797540407113728,0.014652803934152612,0.9904059673801144
2012-04-12,1,0.000595993787449203,0.0005996556560805175,-0.006226268617835391,0.010838914338658048,0.9909665643037622
2012-04-16,-1,-0.00012617977386646058,-1.077145135225594e-05,-0.006226268617835391,0.010838914338658048,0.9909845534909323
2012-04-18,1,8.126184790783493e-05,0.0001972219466505483,-0.006226268617835391,0.005159098488699465,0.9921038407718573
2012-04-20,-1,-0.0006697737808749491,-0.0004039260288122835,-0.008374220481847851,0.004719563622024859,0.9912174859027636
2012-04-24,-1,-0.00019644382481545376,-6.183053505284607e-05,-0.006226268617835391,0.010751310909181223,0.9910280693203439
2012-04-26,1,0.0005742597415838453,0.0006102888415080401,-0.006226268617835391,0.00504376999102723,0.9921888562949279
2012-04-30,1,0.0007879240946786402,0.0007943549813174247,-0.008003762397408758,0.00504376999102723,0.9913612453033802
2012-05-02,1,0.0007628595114435126,0.0007651892910594733,-0.008003762397408758,0.004496380114430998,0.9917884388490019
2012-05-04,1,0.00019253295738056483,0.00025825978450228913,-0.00628461552080163,0.004496380114430998,0.9908324397070255
2012-05-08,-1,-0.00020879977392202712,-3.824932559694802e-05,-0.00628461552080163,0.006897850019237441,0.9894637550355982
2012-05-10,-1,-0.0005676436372509139,-0.0002898534793862943,-0.002265722336269896,0.008713174745560468,0.9892530930011285
2012-05-14,-1,-0.0011879841652698141,-0.0008142666878032871,-0.002265722336269896,0.009308684329021325,0.9881255398024359
2012-05-16,-1,-0.001151054872368921,-0.0008103717352961791,-0.001907215259201569,0.009308684329021325,0.986597458306935
2012-05-18,-1,-0.0014761762781309983,-0.0011272112219922813,0.0006984910833862797,0.010503009380080586,0.9866191919709368
2012-05-22,-1,-0.001396901634022075,-0.0010311993251284764,-0.001907215259201569,0.0103367295148987,0.9866429313556251
2012-05-24,-1,-0.0010695512088475566,-0.0007609672860244125,-0.008884187175749143,0.0103367295148987,0.9858506429768652
2012-05-29,-1,-0.0005305252380361891,-0.00030500025197026663,-0.010379902795268493,0.009308684329021325,0.9858897578257138
2012-05-31,-1,-0.00042014000300427386,-0.00021303394241136732,-0.017200520417460806,0.009308684329021325,0.9849209483986886
2012-06-04,-1,-0.0011012992772430007,-0.000840605311214554,-0.010379902795268493,0.0103367295148987,0.9844768647274602
2012-06-06,1,0.001262008255746939,0.0013299711504052981,-0.010379902795268493,0.0103367295148987,0.9858028205562331
2012-06-08,1,0.0015006686613372785,0.001591393947115465,-0.013916094177450485,0.00945189084204881,0.9853671017880836
2012-06-12,1,0.0016255570363589602,0.0017436806831092949,-0.010770590481769496,0.007923558439715647,0.9859002529236655
2012-06-14,1,0.0009961415241109344,0.0010233212544178028,-0.009923203600995205,0.00945189084204881,0.986377134758012
2012-06-18,1,0.0015390501056833548,0.001656043813643773,-0.009923203600995205,0.007804428309236239,0.9870047127885886
2012-06-20,1,0.0015005443749594152,0.0015955090714641078,-0.009923203600995205,0.007804428309236239,0.986886582060514
2012-06-22,1,0.0008175281834253563,0.0008312615266169209,-0.01099655602059121,0.007804428309236239,0.987193810100932
2012-06-26,1,0.0004524859897307042,0.00047530881263599606,-0.012812461149861712,0.0072395946377021275,0.9855135882089865
2012-06-28,0,0.0,0.0,-0.011618846794900703,0.00968706501422269,0.9849522247779333
2012-07-02,0,0.0,0.0,-0.012812461149861712,0.0046151459462036755,0.9861296720812565
2012-07-05,1,0.0009027783109612757,0.0009716757449384757,-0.01327460222253148,0.00015414854123523111,0.9860113516169356
2012-07-09,1,0.0005385467955136347,0.000588295822021353,-0.012812461149861712,0.004715222338512716,0.9857012188651433
2012-07-11,1,0.0002414767310563237,0.0002715954831304547,-0.012812461149861712,0.009987294191149812,0.9854065089647436
2012-07-13,1,0.00018674816435852243,0.00018958399389653333,-0.012812461149861712,0.008654332675819916,0.9860976432337234
2012-07-17,1,0.00019843159615163413,0.00020046091446345072,-0.012812461149861712,0.008654332675819916,0.9861109066074267
2012-07-19,1,0.0005076453645173138,0.000519623602534323,-0.012812461149861712,0.011050397013540781,0.9859932371610919
2012-07-23,-1,-0.0002907968252169227,-0.00019811070399522668,-0.006741110726221866,0.012260931673516624,0.986609119259577
2012-07-25,-1,-0.002268426940993597,-0.0019428709197809352,-0.0018005957578885073,0.012260931673516624,0.9886248786012464
2012-07-27,-1,-0.0017116883515670175,-0.0014282819715405186,-0.0015852768231691336,0.010959244625413232,0.990521109933542
2012-07-31,-1,-0.0021535697931659914,-0.001849650190199488,-0.0015852768231691336,0.010959244625413232,0.9908796988616458
2012-08-02,-1,-0.0024703876942413125,-0.002145620174786481,0.0003812194087940195,0.010959244625413232,0.9908765907250302
2012-08-06,-1,-0.0014506255077970979,-0.0012565822303769697,0.0003812194087940195,0.009223724045764787,0.9925915842506227
2012-08-08,-1,-0.0006317309055274805,-0.0005301200690102578,-0.0015852768231691336,0.009223724045764787,0.9921457122723014
2012-08-10,-1,-0.0004625378219826328,-0.0003689224586905136,-0.0006550229736960231,0.007517098934703049,0.9923933666459371
2012-08-14,-1,-0.0006717475104803764,-0.0005458939195844956,-0.002835410829503466,0.007517098934703049,0.991936309849236
2012-08-16,1,0.0005154698847988974,0.0005511313906288134,-0.002835410829503466,0.006671831656682661,0.9928038398538385
2012-08-20,1,0.0006579043788923513,0.0007067364860029841,-0.0038400741249046545,0.006010892439623594,0.9930524177859537
2012-08-22,1,0.0006519856473171222,0.0006971303209387827,-0.0031941173207465337,0.0056127114307696,0.9932528662333336
2012-08-24,1,0.0009802395163621934,0.0010911257609643667,-0.0055191514340917035,0.004937899287924695,0.9926703379492353
2012-08-28,1,0.0006055154613192571,0.0006374675425871129,-0.004580830529757623,0.004937899287924695,0.9926560941117487
2012-08-30,0,-5.8680421102587994e-05,2.868438912878994e-05,-0.004580830529757623,0.005785869698242111,0.9919802135858365
2012-09-04,1,0.0007418133357747212,0.000792448787457322,-0.00750211251017069,0.0051860651358577,0.9911681342190857
2012-09-06,1,0.0010194151818688482,0.0010748229615798973,-0.00750211251017069,0.0051860651358577,0.9902553476980669
2012-09-10,1,0.0013913519584104746,0.001541037790404768,-0.008324025039506754,0.004721286959497536,0.9898346990863781
2012-09-12,1,0.001269703327939953,0.0013904729771465991,-0.009545811056454256,0.0033162603990439616,0.989610184089446
2012-09-14,1,0.001665753213753805,0.0018270902267726631,-0.010912206616865048,0.0013401121733682604,0.9893665338983929
2012-09-18,1,0.001959587895619033,0.0022265043173895264,-0.010912206616865048,0.004721286959497536,0.9881325594828765
2012-09-20,1,0.0020848130929773155,0.0023500956478497087,-0.010912206616865048,0.002913292152236105,0.9879321467878699
2012-09-24,1,0.0017061968717171495,0.001952627020423509,-0.010912206616865048,0.002913292152236105,0.9871220556313713
2012-09-26,1,0.0012686680857122504,0.0014221124105153176,-0.010912206616865048,0.015080709114110835,0.9859006772131571
2012-09-28,1,0.0016868679327413834,0.0019294198340463304,-0.010912206616865048,0.011212013978559915,0.9864439790109266
2012-10-02,1,0.000718221265514917,0.000789387075266189,-0.008281856145818861,0.018045490777058616,0.9852454183559923
2012-10-04,1,0.0018693902935996225,0.0020786212418459093,-0.008281856145818861,0.011212013978559915,0.9875401850830661
2012-10-08,1,0.0008974372614529152,0.0009577328022492721,-0.008281856145818861,0.011212013978559915,0.9873897034683893
2012-10-10,-1,-0.00014065813143970227,-3.8453651080514785e-05,-0.005681900195732047,0.011212013978559915,0.9881188776826242
2012-10-12,-1,-0.00034660401177127723,-0.0002482441533735563,-0.003248789488791251,0.011212013978559915,0.9887269612829859
2012-10-16,1,0.0011077160559257089,0.0012059209619903818,-0.008569120094743834,0.0038155581482038625,0.989083299813596
2012-10-18,1,0.0011342170278657916,0.001257312607935512,-0.008569120094743834,0.007179265820080179,0.9878126538948435
2012-10-22,1,0.00010009376904118215,0.00010030726314253356,-0.0037542346648208645,0.009790015828992986,0.9892075301837104
2012-10-24,1,0.0006228304380811772,0.0006261689021032763,-0.0037542346648208645,0.007179265820080179,0.9903872627923412
2012-10-26,1,0.001683968017028943,0.0019110757307483827,-0.008569120094743834,0.007654244076607286,0.9894920835453853
2012-11-01,1,0.003397697523691655,0.003875283521968492,-0.004785653473579333,0.005275838180417731,0.9912957484569084
2012-11-05,1,0.002564743691517447,0.0029318378004079436,-0.0022598904171636817,0.005275838180417731,0.992139627684998
2012-11-07,1,0.001611933208111359,0.00179787539566786,-0.0016632666582612806,0.007654244076607286,0.9925303038816267
2012-11-09,1,0.0018582833648069304,0.0021215297949626092,-0.0011503271626574177,0.00849315902277524,0.9923640487981106
2012-11-13,1,0.001777423938014324,0.002024773897695018,-0.0019306714353257276,0.00849315902277524,0.9916338511348048
2012-11-15,1,0.00035530247583607523,0.00035637211816604665,-0.001804472325518144,0.00849315902277524,0.9921553753706381
2012-11-19,1,0.001425604722910977,0.0015430992537299494,-0.001804472325518144,0.007701099596869477,0.9935920654149801
2012-11-21,1,0.0009446382731524787,0.0009559589270395526,-0.0041294422641212965,0.006519092697465631,0.9937165477556306
2012-11-26,1,0.0022016772549454285,0.002436479410809537,-0.004639965747464987,0.005328436379128202,0.9941405870596299
2012-11-28,1,0.0024481101099432644,0.0027628463539030052,-0.004639965747464987,0.005328436379128202,0.99445761130417
2012-11-30,1,0.00210214106506906,0.002321553354316281,-0.005317946817940692,0.006519092697465631,0.9935675633214497
2012-12-04,1,0.0015641198651861993,0.0016747595508627977,-0.005317946817940692,0.007701099596869477,0.992076710626558
2012-12-06,1,0.0017313481197613581,0.0018723739957225696,-0.006477712534694448,0.007701099596869477,0.9918934998850811
2012-12-10,1,0.002091677361961677,0.0022780118899429357,-0.006477712534694448,0.006533976576184722,0.9920357356875308
2012-12-12,0,0.0,0.0,-0.005317946817940692,0.006023083101797338,0.9928124182135882
2012-12-14,0,0.0,0.0,-0.004751826700485678,0.006023083101797338,0.9930698490695897
2012-12-18,0,0.0,0.0,-0.004751826700485678,0.006385807731744002,0.9927395573640325
2012-12-20,0,0.0,0.0,-0.004452960442863158,0.00982182403129318,0.9922795725349958
2012-12-24,0,0.0,0.0,-0.0035441447770749417,0.011758282084849074,0.9909349979307915
2012-12-27,0,0.0,0.0,-0.002276858696517102,0.011758282084849074,0.9918852588784608
2012-12-31,0,0.0,0.0,-0.002276858696517102,0.008413466225882653,0.9920377402646354
2013-01-03,0,0.0,0.0,-0.001847059139925629,0.008413466225882653,0.9930220021782005
2013-01-07,0,0.0,0.0,-0.001847059139925629,0.005916355129940492,0.9930513367784359
2013-01-09,0,0.0,0.0,-0.002276858696517102,0.008300859749488135,0.9925672944950061
2013-01-11,0,0.0,0.0,-0.002276858696517102,0.008645463217410441,0.9922011171562228
2013-01-15,0,0.0,0.0,-0.001070898196104089,0.008645463217410441,0.9919268264494939
2013-01-17,0,0.0,0.0,-0.0019965993603717623,0.007545662683600884,0.9926908803470442
2013-01-22,0,0.0,0.0,-0.002423120112047497,0.007545662683600884,0.9920848482734795
2013-01-24,0,0.0,0.0,-0.0028661328758746514,0.007545662683600884,0.9928440618383585
2013-01-28,0,0.0,0.0,-0.0051067564747875,0.008574965633681037,0.9910387015430732
2013-01-30,0,0.0,0.0,-0.0041168077455394905,0.01103542820996623,0.9910592482045986
2013-02-01,0,0.0,0.0,-0.0051067564747875,0.008574965633681037,0.9910706085907071
2013-02-05,0,0.0,0.0,-0.0041168077455394905,0.01103542820996623,0.9914083296114051
2013-02-07,0,0.0,0.0,-0.0037955323836946207,0.009340500289101794,0.9916037917521029
2013-02-11,0,0.0,0.0,-0.0037955323836946207,0.009340500289101794,0.9918949751536343
2013-02-13,0,0.0,0.0,-0.0037955323836946207,0.009340500289101794,0.9919525183993081
2013-02-15,0,0.0,0.0,-0.004025776282727174,0.009340500289101794,0.9917936186898361
2013-02-20,1,0.003337359479660909,0.0036652789748209446,-0.0037955323836946207,0.00627487161612715,0.9931295137643779
2013-02-22,1,0.0027789619136556953,0.002995493875697189,-0.0037955323836946207,0.00627487161612715,0.9931069059645741
2013-02-26,1,0.0024693962101575697,0.0026290498882290767,-0.0037955323836946207,0.005844396473338554,0.9942898112707761
2013-02-28,0,0.0,0.0,-0.002891506120584186,0.005844396473338554,0.9941223854028196
2013-03-04,0,0.0,0.0,-0.004010881397633185,0.005844396473338554,0.9934449249307189
2013-03-06,0,0.0,0.0,-0.00560913422060927,0.005235205775191914,0.9930889424441094
2013-03-08,0,0.0,0.0,-0.008430465352749215,0.003932462928873216,0.9930780374097364
2013-03-12,0,0.0,0.0,-0.008430465352749215,0.005235205775191914,0.9918885800993786
2013-03-14,1,0.0023455299899084823,0.0025040703737297908,-0.009058745532460588,0.002812609337281592,0.9909849960572482
2013-03-18,1,0.001993560395924285,0.0020929000405792582,-0.011410706924316474,0.00440946570949184,0.9888863290521793
2013-03-20,1,0.000603091421844741,0.0007758249741754222,-0.011410706924316474,0.0037018284137517797,0.9883538638484516
2013-03-22,1,0.0009310966282027167,0.001008868235695797,-0.010640536201539801,0.00419467375054644,0.9889545455751757
2013-03-26,1,0.0009331561992655427,0.000997469482500347,-0.010640536201539801,0.007660162520921847,0.9888141074115476
2013-03-28,1,0.0022528815792303763,0.00246063486485738,-0.010640536201539801,0.0043050874117343905,0.9881780699159791
2013-04-02,0,0.0,0.0,-0.009969683819084554,0.004839001123826101,0.990027165149085
2013-04-04,0,0.0,0.0,-0.009969683819084554,0.006776771333817138,0.9896123453115374
2013-04-08,0,0.0,0.0,-0.00914893396239783,0.007660162520921847,0.9892506566067442
2013-04-10,0,0.0,0.0,-0.00914893396239783,0.008144022364831163,0.9895217195252338
2013-04-12,0,0.0,0.0,-0.006062962852635453,0.008144022364831163,0.9903355345607354
2013-04-16,0,0.0,0.0,-0.0019928713532457363,0.008144022364831163,0.9918434926431673
2013-04-18,0,0.0,0.0,-0.000606036987781938,0.008144022364831163,0.9922861768443816
2013-04-22,0,0.0,0.0,-0.000606036987781938,0.00927978082660131,0.9919191733505545
2013-04-24,0,-0.00014123665830674385,1.1093762178875782e-06,-0.0019399493110553985,0.006977861303191167,0.9922620499490727
2013-04-26,-1,-0.0008844837685969092,-0.0006590463120662817,-0.001583872018553734,0.006977861303191167,0.9924139836168507
2013-04-30,-1,-0.0008395458725891698,-0.0006201842622252709,-0.003644358295691314,0.00892112715364674,0.9916763136279806
2013-05-02,-1,-0.0008329212436290604,-0.000619978662504387,-0.003644358295691314,0.011296693570655082,0.9920335693659821
2013-05-06,-1,-0.00018753561788072723,-6.17441594063253e-05,-0.004354444967301981,0.00892112715364674,0.9924949638027902
2013-05-08,0,-0.0001423163613925582,9.422742669893064e-06,-0.005414168557760656,0.004707900637669059,0.9931096371352073
2013-05-10,-1,-0.00028042066451469953,-9.180806482809718e-05,-0.005414168557760656,0.006895247813711583,0.9924210366822288
2013-05-14,1,0.000679415753540977,0.0007462994984241253,-0.007653228923816426,0.004707900637669059,0.992476573686898
2013-05-16,0,-2.6228759216538697e-06,0.0001540016869082072,-0.007653228923816426,0.005981183443477197,0.9925449576338198
2013-05-20,1,0.00024822224332614556,0.00039735374780676646,-0.008168737314358286,0.005981183443477197,0.9918486725122212
2013-05-22,-1,-0.00029700846787301754,-7.785970095813366e-05,-0.00867397808508918,0.005981183443477197,0.9907056595908978
2013-05-24,-1,-0.0004362582464464799,-0.00022848348028403436,-0.00867397808508918,0.005981183443477197,0.9907042436208544
2013-05-29,0,-5.1896209896109776e-05,0.00011390956996373505,-0.008168737314358286,0.00623041135615118,0.9908659531247498
2013-05-31,0,-0.00010116477718912832,6.568097577233493e-05,-0.007776024304356465,0.008101753742298023,0.9904434975874367
2013-06-04,-1,-0.00030706790231215485,-0.0001112242900926676,-0.007116845573746446,0.011079017762800718,0.989959708648866
2013-06-06,-1,-0.0006491793516534418,-0.00041212225648325435,-0.007045339761168397,0.011555318464598006,0.9893226115075058
2013-06-10,-1,-0.0006497556440420153,-0.0004017344833233665,-0.007045339761168397,0.011079017762800718,0.9896744882115226
2013-06-12,-1,-0.0009550004424071254,-0.0006936789417837787,0.0005265407141045509,0.011079017762800718,0.9897813136704487
2013-06-14,-1,-0.00021306685969200664,-6.16488913202415e-05,0.0006940727620384499,0.009758685715980995,0.9902306019396985
2013-06-18,-1,-0.00023622345220967265,-0.00017273446154099367,0.0006940727620384499,0.008568357025776312,0.9912329948790863
2013-06-20,-1,-0.0016010776334532233,-0.0013566381816997935,0.0012312584646739589,0.009664820746241254,0.9916191979690094
2013-06-24,-1,-0.0014643188429597498,-0.001233107646998381,0.0016514702205470844,0.009664820746241254,0.9917313739032962
2013-06-26,-1,-0.0008592830856742659,-0.0007190093790995471,0.0006940727620384499,0.008568357025776312,0.9927979737291871
2013-06-28,-1,-0.00024095130062690644,-0.00015091669766379492,-0.00016389193835895818,0.00733341537402917,0.9944654553310872
2013-07-02,1,0.0004352473435868993,0.0004354082438981784,-0.00016389193835895818,0.007000403146626222,0.9952282981268487
2013-07-05,1,0.0010309477746354423,0.001140125305343056,-0.00016389193835895818,0.007000403146626222,0.9949464998450551
2013-07-09,1,0.0013367908341947485,0.001500689837423178,-0.001088856120038977,0.005678634985756297,0.9946080611053563
2013-07-11,1,0.0013135331321930568,0.00144644639432682,-0.002556063596086971,0.005055666942850673,0.9931165959675128
2013-07-15,1,0.0016646689560078144,0.0018337160855338942,-0.0031642681535007373,0.005055666942850673,0.9928260952083281
2013-07-17,1,0.0017853508095088825,0.0020018604406877266,-0.0031642681535007373,0.005055666942850673,0.9922626996401888
2013-07-19,1,0.0015377619750808844,0.0017054239996489788,-0.006382910348466132,0.004377110862693239,0.9908810959595222
2013-07-23,1,0.0016428573483535044,0.0018323419594207047,-0.006382910348466132,0.005495317938760177,0.9906202327678406
2013-07-25,1,0.0014758290500984793,0.0016440148451263219,-0.0072298969621682335,0.007119614176363075,0.9902172087931428
2013-07-29,1,0.0016883374365395322,0.0018971888341554307,-0.0072298969621682335,0.007119614176363075,0.9902760407436807
2013-07-31,1,0.0019407056370210722,0.0021962643345953534,-0.009347942894807873,0.004999893743813049,0.9892356072449758
2013-08-02,1,0.00288651533051046,0.003257164264607286,-0.013059207078887546,0.004162773306786726,0.9895603293414942
2013-08-06,1,0.002436119660294644,0.0027607594718809967,-0.009168252356554881,0.004999893743813049,0.9893845576965642
2013-08-08,1,0.001674112463848209,0.0018841542211544312,-0.007574584674848357,0.007555352858213075,0.990845993305676
2013-08-12,1,0.0017334317455836214,0.001954755463720632,-0.007574584674848357,0.007895553560534778,0.9910085586407803
2013-08-14,1,0.0009894705905183162,0.0011128583612199656,-0.006497806252692841,0.00855176224253456,0.9906889266635861
2013-08-16,1,5.391114745385782e-05,5.7283137010753925e-05,-0.0032281538673020753,0.00855176224253456,0.9914753665698288
2013-08-20,1,0.0007055611328859847,0.0008257884679433334,-0.0032281538673020753,0.007448072070422621,0.9920662378689477
2013-08-22,1,0.000316978781644248,0.00033467087408635393,-0.0007806935872357981,0.005636282599308026,0.992496169296795
2013-08-26,1,1.5456729847543928e-05,7.560528301821029e-05,-0.0007806935872357981,0.005636282599308026,0.9923246597623023
2013-08-28,-1,-0.001127244815772219,-0.0009164755404185178,-0.0005964148923083952,0.005636282599308026,0.9932263685984573
2013-08-30,-1,-0.0011939362147127407,-0.0010061953939902659,-0.0005964148923083952,0.0071947344125151,0.9928228224320962
2013-09-04,-1,-0.0015626997673360043,-0.0012980609044914724,-0.001266127471154065,0.005636282599308026,0.9934446849700239
2013-09-06,-1,-0.0012536317651820705,-0.0010104474146790875,-0.002732136912488304,0.004406472134433506,0.9935716439336802
2013-09-10,-1,-0.0015767203273330992,-0.00126059866456627,-0.005896451492432649,0.004078670369242907,0.993035905867601
2013-09-12,-1,-0.0008839358842040601,-0.0006669528388144922,-0.005896451492432649,0.004022649705916763,0.9928282760282399
2013-09-16,-1,-0.0012061312399369527,-0.0009960574847296655,-0.00536965723484248,0.004406472134433506,0.9927681578789979
2013-09-18,-1,-0.0010481939190292416,-0.0008233912075312425,-0.005896451492432649,0.004264326150833063,0.9924452955389533
2013-09-20,-1,-0.0008737709041587304,-0.0006759295531261439,-0.005896451492432649,0.005390557111628039,0.9916751563060408
2013-09-24,-1,-0.0010218372317930956,-0.0007796745485966767,-0.005896451492432649,0.007736871801879123,0.9910701393701118
2013-09-26,-1,-0.0007458053291396401,-0.0005589983215746711,-0.005896451492432649,0.007736871801879123,0.991027712561145
2013-09-30,-1,-0.0004143688846606942,-0.00029735477130963346,-0.005896451492432649,0.007851158841774706,0.9905635907282262
2013-10-02,-1,-0.0009693273500372361,-0.0008100988689584624,-0.005089910559705162,0.008832253539595806,0.9891003373329711
2013-10-04,-1,-0.0008482231202366765,-0.0007363873952313052,-0.004388773589858706,0.008832253539595806,0.9896478044010795
2013-10-08,-1,-0.0017887167924710173,-0.0015626849761127093,-0.0026738853780478456,0.008832253539595806,0.9900629817717228
2013-10-10,-1,-0.0003712938184553554,-0.00034007274056854433,-0.0026738853780478456,0.008832253539595806,0.9912901638662894
2013-10-14,-1,-0.0001410467668669235,-0.00012557623330587713,-0.0026738853780478456,0.009187078816007948,0.9911650452714527
2013-10-16,-1,-0.0006195869169220476,-0.0005361727665363896,-0.001266742043166447,0.009187078816007948,0.9915909865549276
2013-10-18,-1,-5.7034281473423816e-05,-2.9309834127794573e-05,-0.001266742043166447,0.007738819518961678,0.9925509583892658
2013-10-22,1,0.0005003616917121571,0.0005479211116740551,-0.003445811072523026,0.00545645253628151,0.9928269803870182
2013-10-24,1,0.00021210827126480199,0.00021483464733410056,-0.0033603711817356604,0.007738819518961678,0.9919477496107029
2013-10-28,-1,-0.0002873471009730397,-0.0002149270895291251,-0.0033603711817356604,0.007671531989679632,0.9926115147974315
2013-10-30,1,0.0008787302545285164,0.0009621996873365042,-0.002645405414452057,0.00545645253628151,0.9946754096795888
2013-11-01,1,0.0006909508524668673,0.0007207043744351034,-0.004714186564035772,0.00545645253628151,0.9941544558088875
2013-11-05,1,0.0009651078854946283,0.0010631754712345394,-0.004714186564035772,0.007646877100057624,0.9940139730731979
2013-11-07,1,0.0005946242197830273,0.000596303569398361,-0.004520634381208217,0.007646877100057624,0.9940789870087438
2013-11-11,1,4.1800924534184656e-05,0.0001683071075486798,-0.004520634381208217,0.004138938791740874,0.9944844765987926
2013-11-13,1,0.00015116632132154337,0.0002739090303906086,-0.004875000121683697,0.004194160862000065,0.9939460798328112
2013-11-15,1,0.0003192394371983241,0.00040415530086625575,-0.004875000121683697,0.007812543310835198,0.9932255019431687
2013-11-19,1,0.00033987695683117215,0.00038275888691846074,-0.004511814231742948,0.008440086686407014,0.9925409065558308
2013-11-21,1,0.001140997958347938,0.0012249823965520133,-0.004511814231742948,0.008440086686407014,0.992967371366173
2013-11-25,1,0.0012724439914472809,0.0014111390052761567,-0.0029565528504100287,0.008664617695283122,0.9933025931206045
2013-11-27,1,0.0013158420313299508,0.0014689318578220993,-0.0029565528504100287,0.008664617695283122,0.9932543318384878
2013-12-02,1,0.0009802720058764858,0.0011000778519752157,-0.0020864034353382413,0.008664617695283122,0.9938834316473526
2013-12-04,1,0.0013929102594296943,0.0015867181561498717,-0.0020864034353382413,0.008061729209333315,0.9939141464709045
2013-12-06,1,0.0014442602096848662,0.0016361025582216815,-0.0020864034353382413,0.006496595200134811,0.9942512907631263
2013-12-10,1,0.0013462043761400437,0.0015441061491643258,-0.0002852136318308169,0.006496595200134811,0.9943913823241705
2013-12-12,1,0.0013005221415115548,0.0014962690998215219,-0.0002852136318308169,0.006222365348483065,0.9941696458634097
2013-12-16,1,0.001624983745533196,0.0018586987608736828,-0.0002852136318308169,0.007239039654378079,0.9940472775000474
2013-12-18,1,0.0025045060176669995,0.0028549568143419264,-0.002485581306357037,0.004809044048913425,0.9943479705649472
2013-12-20,1,0.002795696962077465,0.0032002485672258632,-0.002485581306357037,0.004090124619789087,0.9945527055609482
2013-12-24,1,0.003727892346862728,0.004329150824633011,-0.006922002144677124,0.003152007876827134,0.9918369350074928
2013-12-27,1,0.003028510422579586,0.0034544095865095877,-0.006922002144677124,0.004090124619789087,0.9918952184658401
2013-12-31,1,0.0028409577363095705,0.0032221840900920643,-0.006922002144677124,0.004788740682038811,0.9915902032276714
2014-01-03,1,0.0024036016332539684,0.0027466251515974515,-0.011466114450534536,0.004788740682038811,0.9897966188868613
2014-01-07,1,0.0021201155768813987,0.002380808548852957,-0.011466114450534536,0.0064537509749544395,0.9897386750079709
2014-01-09,1,0.0016607941962954208,0.001791395980412453,-0.011466114450534536,0.009255183882015478,0.9885572524927138
2014-01-13,1,0.001479890751513403,0.0016100349697758599,-0.006383508536731176,0.010047000284552058,0.9889127322955632
2014-01-15,1,0.0020688275721479953,0.002276355157756305,-0.006383508536731176,0.009975038019659273,0.9887325234204426
2014-01-17,1,0.0015732021177972027,0.0017092639359164207,-0.004531566713625837,0.009975038019659273,0.9895386499143485
2014-01-22,1,0.001102876895833269,0.0011281629933795841,-0.004531566713625837,0.010677372460603862,0.9889199091352321
2014-01-24,-1,-0.0008481068457773538,-0.0006148526664608053,-0.0031409899003233357,0.010677372460603862,0.9902773638308089
2014-01-28,-1,-0.000497521384929943,-0.0003167879762122006,-0.0031409899003233357,0.010326390181964464,0.9909124020796357
2014-01-30,-1,-0.0005572399652545761,-0.0003865025851873365,-0.00035416048497291714,0.010326390181964464,0.9907904845933702
2014-02-03,-1,-0.0022377499834821176,-0.0018739905786662248,0.0011636723367461233,0.011947175195887685,0.9906151311391913
2014-02-05,-1,-0.0015780742271336277,-0.0012933067701338904,0.0011636723367461233,0.011947175195887685,0.9913310124188768
2014-02-07,-1,-0.0006194475675494599,-0.000434042185557408,-8.618585261870092e-05,0.009771132057566424,0.9927993976090967
2014-02-11,-1,-0.00022009431239557983,-0.00010513862514911781,-8.618585261870092e-05,0.008016956998794636,0.9929086184218835
2014-02-13,1,0.0005851401725017365,0.0005915353634282505,-0.0025099448489754616,0.005152179095496184,0.9937297741209424
2014-02-18,1,0.0003818262056382959,0.00041508833707414944,-0.0025099448489754616,0.006273093887865129,0.9927141010688544
2014-02-20,1,0.0006810942308827681,0.0006844569555262425,-0.005184385574989432,0.005152179095496184,0.9926169085049679
2014-02-24,1,0.0009138545122560543,0.0009374230981637727,-0.008442354632247814,0.004721975819798575,0.9925068059690558
2014-02-26,1,0.00037273995211579275,0.00044509613555509045,-0.009491818200901496,0.004721975819798575,0.9917666538205991
2014-02-28,1,0.00035670285573842964,0.00045737811068801684,-0.009491818200901496,0.0038797411389705277,0.9918289634341746
2014-03-04,1,0.0001589731837925892,0.00033039809039780613,-0.008442354632247814,0.0038797411389705277,0.9924405618568466
2014-03-06,1,0.000761350933866253,0.0008308701454827789,-0.008442354632247814,0.004721975819798575,0.9920523009455767
2014-03-10,1,0.0007066167020834819,0.0007751746057532853,-0.010075474544631102,0.0038797411389705277,0.9907615629381546
2014-03-12,1,0.00014615616690216368,0.00029172822719064845,-0.008442354632247814,0.0032427395343985867,0.9915414105912131
2014-03-14,-1,-0.000214829621257161,-5.100297114799104e-05,-0.010175692272795293,0.0038797411389705277,0.9904615232909486
2014-03-18,1,0.000753857548944422,0.0007671123108505438,-0.010175692272795293,0.0037036920445827964,0.9911217802479058
2014-03-20,-1,-0.00020936966504470506,-7.118663235358859e-05,-0.007975675743723319,0.005148269633442662,0.9907823092270088
2014-03-24,-1,-0.0011858880787148024,-0.0009068866160615316,-0.004110531922404914,0.005148269633442662,0.990942272061392
2014-03-26,-1,-0.0006682229054098389,-0.00048354237653551165,-0.0032344324278233976,0.005148269633442662,0.991760002196598
2014-03-28,-1,-0.0009480574994106593,-0.0007336991526376917,-0.0032344324278233976,0.005795216898334819,0.9914109986142048
2014-04-01,1,5.457606060896037e-05,0.00014751903374685295,-0.0032344324278233976,0.006845603730623936,0.991870372771232
2014-04-03,-1,-0.00017879624575259308,-4.560311427123198e-05,-0.002114370763441828,0.006356268322672335,0.9922006747080144
2014-04-07,-1,-0.0015344335638030214,-0.0012576945123435985,-0.0010472325846818213,0.006356268322672335,0.9930987659509082
2014-04-09,-1,-0.0010992354803700728,-0.000892654404412884,-0.0010472325846818213,0.00859711822500119,0.9929814124693878
2014-04-11,-1,-0.000827109630182258,-0.0006586147916437428,-0.0010472325846818213,0.00859711822500119,0.9939899564434652
2014-04-15,-1,-0.0008583036357213862,-0.000657400759009679,-0.003363950643633421,0.00859711822500119,0.9938334005793429
2014-04-17,1,0.00037147844750340294,0.00039885972638046375,-0.004528495976240306,0.006183175963408786,0.9943372644629296
2014-04-22,1,0.0002064568525898911,0.0002567374842406231,-0.005707887170492773,0.006183175963408786,0.993402993268606
2014-04-24,1,6.742324282481331e-06,8.622057453609502e-05,-0.005707887170492773,0.008077841147210543,0.9930688050961548
2014-04-28,-1,-0.000433969284655615,-0.00027208638949555684,-0.0034710790648489927,0.008077841147210543,0.9933445182228408
2014-04-30,1,0.00045007299179717134,0.0004930607366182226,-0.0034710790648489927,0.0048438179120665345,0.9940598828506932
2014-05-02,1,0.0003181806530772658,0.0003668982289062695,-0.0034710790648489927,0.0048438179120665345,0.9939632574241537
2014-05-06,-1,-0.00016381363597186345,-3.942313221578424e-05,-0.002731060987316013,0.004408594886058317,0.9944370544625054
2014-05-08,1,0.00012609121837108965,0.00022462502813637523,-0.002731060987316013,0.005816926743942501,0.9941769141648049
2014-05-12,1,0.0007827640065536644,0.000790372186306095,-0.0022171852608160103,0.005716572778650741,0.9944498674711678
2014-05-14,1,0.0008681522185595518,0.0009553671415898744,-0.0022171852608160103,0.005716572778650741,0.994479538024153
2014-05-16,1,0.0011002455660592812,0.0012432226686411609,-0.0022171852608160103,0.004408594886058317,0.9950157742300336
2014-05-20,1,0.00043210147798290613,0.0005046126334176355,-0.002041411354699096,0.004680272127666646,0.995785217644272
2014-05-22,1,0.000583686665538354,0.0006679633079099633,-0.002041411354699096,0.004680272127666646,0.9959223080461114
2014-05-27,1,0.0008674412373109426,0.0010010393838611195,-0.0031045367956570548,0.004254094660926342,0.9953890833803933
2014-05-29,1,0.0008524446193871724,0.0009654266855519653,-0.004719399069109325,0.003665706683569506,0.9950963229213534
2014-06-02,1,0.0007505818828851167,0.0008549900141622167,-0.005685292616233437,0.003665706683569506,0.9946256496876982
2014-06-04,1,0.0006542660906501465,0.0007438667721657678,-0.005685292616233437,0.005253072103254815,0.9940909081155269
2014-06-06,1,0.001104120205942559,0.0012322257660077455,-0.006780347414505304,0.003665706683569506,0.9939373662779991
2014-06-10,1,0.0015965955823282261,0.0018462410270228347,-0.006780347414505304,0.0022646496095265973,0.9939234455728382
2014-06-12,1,0.0008443022827707136,0.000962541032389299,-0.006658654714097179,0.0022646496095265973,0.9946021009806226
2014-06-16,1,0.0007027306807001497,0.0008043486652111743,-0.006658654714097179,0.004869121399744605,0.9943933406705555
2014-06-18,1,3.220962642379763e-05,9.350850637519317e-05,-0.00678586417351825,0.002894687513058253,0.9935701028309001
2014-06-20,1,0.0005853379908816007,0.0005972452774724039,-0.00678586417351825,0.002894687513058253,0.9934146269911405
2014-06-24,-1,-0.00025057183308895735,-0.00015555589087573384,-0.00569209894739915,0.004361639563828538,0.9939174195509205
2014-06-26,-1,-0.0020345450687875993,-0.001630033896757591,-0.00467341422691262,0.004361639563828538,0.9943972348099814
2014-06-30,-1,-0.002485450751580109,-0.0020637761452355517,-0.00467341422691262,0.004361639563828538,0.9945027396190317
2014-07-02,-1,-0.0013426930643174535,-0.0011273023791444248,-0.00678586417351825,0.001968658326549181,0.9930749807460804
2014-07-07,-1,-0.001221982808465868,-0.0010225109452146079,-0.00569209894739915,0.001968658326549181,0.9931999165482236
2014-07-09,-1,-0.0008706211792166337,-0.0007796625421280228,-0.00569209894739915,0.004361639563828538,0.9912260655457841
2014-07-11,-1,-0.0010149661822093285,-0.0009099955480074866,-0.005795951882744414,0.005907903206401952,0.9901391250735772
2014-07-15,-1,-0.00019872716303915972,-0.00017201684549895797,-0.005795951882744414,0.000820367833085801,0.9901715852181642
2014-07-17,-1,-0.0008919629855186189,-0.0008530909134132908,-0.005114484282721138,0.004398164274440898,0.991180877182591
2014-07-21,-1,-0.0006649409606231151,-0.0006448100991122931,-0.005114484282721138,0.004398164274440898,0.9906342424780007
2014-07-23,-1,-0.0004695053206478019,-0.00043856630997486944,-0.004588884063765613,0.006716542702195843,0.9902597094536757
2014-07-25,-1,-0.0005376293119402533,-0.0005029198339384095,-0.003657688629153222,0.006716542702195843,0.9904086981429716
2014-07-29,-1,-0.0011364645519757978,-0.0010981158825235711,-0.003622474143723938,0.006716542702195843,0.9907432103079015
2014-07-31,-1,-0.003074425097622123,-0.0028048646931144155,-0.0029576284277838937,0.006716542702195843,0.9920884788560995
2014-08-04,-1,-0.0025080028110678896,-0.002305952734533913,-0.002494938753550887,0.00580601904290782,0.9928618445321229
2014-08-06,-1,-0.002868502019076514,-0.0025973110101896206,-0.0024756937255063912,0.004689351123910851,0.9944532136458221
2014-08-08,-1,-0.0014260629108337067,-0.0013705822103765616,-0.0023580218585005264,0.004439258283498979,0.9960562387414194
2014-08-12,-1,-0.0020576692284507156,-0.0018978367566846706,-0.001858898631393578,0.004975990624700194,0.9952178614562438
2014-08-14,-1,-0.0021066334599380084,-0.0019171511440591524,-0.0023580218585005264,0.004439258283498979,0.9952110732661243
2014-08-18,-1,-0.0017480169756568737,-0.001574571290357659,-0.002634512575337115,0.0030734263103198486,0.9961193110374045
2014-08-20,-1,-0.0015377044462957772,-0.0013700092713458786,-0.002634512575337115,0.002367729883372357,0.9966344413280067
2014-08-22,-1,-0.0010770897200437822,-0.0010108594045879838,-0.0030567199200481343,0.0028082881851478744,0.9958500858604801
2014-08-26,-1,-0.0010514452893020801,-0.0009925513852812352,-0.0034179296856713757,0.0028082881851478744,0.9950828438413923
2014-08-28,-1,-0.0018992973679486623,-0.0016558847367246616,-0.007502927833521479,0.003472952144243039,0.9932171581084159
2014-09-02,-1,-0.0017866942847286683,-0.001566617371499087,-0.011840177055177344,0.003472952144243039,0.9917443742567885
2014-09-04,-1,-0.0016747671615370888,-0.0014578654835373408,-0.013461330897189575,0.003472952144243039,0.9911058038397798
2014-09-08,-1,-0.0014218765411942783,-0.0012478414069352075,-0.013461330897189575,0.003472952144243039,0.9903982531610388
2014-09-10,-1,-0.001094359068210334,-0.0009871090881879532,-0.01386179372763175,0.003472952144243039,0.9886055175270496
2014-09-12,-1,-0.00151020703965436,-0.001354822820738085,-0.015709562285602323,0.003472952144243039,0.9871582198679077
2014-09-16,-1,-0.0017022874596441062,-0.0015271891454344622,-0.018095716346652708,0.003472952144243039,0.9862569763183926
2014-09-18,-1,-0.0015984868885100083,-0.0014271696347583707,-0.018095716346652708,0.01110096287430844,0.9851112211035966
2014-09-22,-1,-0.0015350859780866193,-0.0013854725005511609,-0.018095716346652708,0.012479652181839728,0.983921722249549
2014-09-24,-1,-0.0015003572401204334,-0.0013537071472056236,-0.018095716346652708,0.016354693232427532,0.9831481610829581
2014-09-26,-1,-0.0014873205939725145,-0.0013461782195087976,-0.018095716346652708,0.016354693232427532,0.9834563019248002
2014-09-30,-1,-0.0026381883774852337,-0.0023885243495341663,-0.01656703557301771,0.016354693232427532,0.9843617302907985
2014-10-02,-1,-0.0029247519172007123,-0.0026570728893275755,-0.014385627984031268,0.016354693232427532,0.9840895606043275
2014-10-06,-1,-0.0026286889439397585,-0.0023699696009076756,-0.014385627984031268,0.017035118219692964,0.9842735676217964
2014-10-08,-1,-0.0030526916235598302,-0.002742705499334682,-0.013106618788128783,0.012475467424480483,0.9861553698134834
2014-10-10,-1,-0.005203548751341361,-0.004609549503926249,-0.00327297629831698,0.01556537050623831,0.9860801754765889
2014-10-14,-1,-0.006007749754196844,-0.005357722246026006,-0.001497334950818026,0.01556537050623831,0.9857191805064834
2014-10-16,-1,-0.004484626771420843,-0.004036687393635881,-0.003067187862808635,0.011172039344938288,0.9867443571986483
2014-10-20,-1,-0.001302952505230493,-0.001195689720480768,-0.0053958269540468045,0.011172039344938288,0.9880920242536299
2014-10-22,-1,-0.0009709934258358345,-0.0008993234013921828,-0.004014733740617976,0.007766833615735558,0.9895034110198
2014-10-24,1,0.000752800566281182,0.0008991290936569247,-0.004014733740617976,0.006156938929654828,0.9905205173867718
2014-10-28,1,0.0013116423275753727,0.0015724602746765948,-0.004014733740617976,0.006058327155598758,0.9907061572930796
2014-10-30,1,0.0008612885905032918,0.0010617454563383736,-0.0051791877556328515,0.005202898257124305,0.990682208082362
2014-11-03,1,0.0007192992913560995,0.000868805786862042,-0.006276047386935922,0.005202898257124305,0.9909730251629065
2014-11-05,1,0.0001922325173019153,0.0002692612620969691,-0.004986295081472528,0.006411518600581224,0.9906957831095009
2014-11-07,1,0.0006774038517554076,0.0008356698695938124,-0.006276047386935922,0.005202898257124305,0.990844549450823
2014-11-11,1,0.0009734799870186469,0.001184429342969078,-0.007712854880955084,0.005202898257124305,0.9896240222665278
2014-11-13,1,0.0007598110450020199,0.0009133152500727603,-0.007712854880955084,0.005202898257124305,0.9904113114531117
2014-11-17,1,0.0009709208555201388,0.0011479212089896156,-0.006276047386935922,0.002434403909449848,0.9922887670035525
2014-11-19,1,0.001092983701438731,0.0012676238425745393,-0.004986295081472528,0.005895605562831307,0.9894737369198078
2014-11-21,1,0.001692886948260956,0.0019226688245961051,-0.004986295081472528,0.005895605562831307,0.9894228446686245
2014-11-25,1,0.0020873050069511747,0.0023886245074995574,-0.004986295081472528,0.009425197707361384,0.988942772583136
2014-11-28,1,0.0012471404649322363,0.0014289458218593063,-0.0033751496635048253,0.009425197707361384,0.989988446650748
2014-12-02,1,0.001479456667414216,0.0016786250767811994,-0.005760850448450718,0.005707139425542211,0.9893339555290571
2014-12-04,1,0.001861079816210775,0.0021261112788703166,-0.01068278879299585,0.0020597294671337637,0.9884512530708279
2014-12-08,1,0.0010402673214626444,0.0011728438536361139,-0.011951983219182019,0.003130326252160682,0.9884516426586105
2014-12-10,1,0.0006113863495260539,0.0006993892255274347,-0.00967288223460494,0.005707139425542211,0.9881535881237136
2014-12-12,-1,-5.151691818859766e-05,-4.672651408838903e-05,-0.00967288223460494,0.005707139425542211,0.9879964075894265
2014-12-16,-1,-0.0001434758986158213,-0.00011062420816441538,-0.01226721426286287,0.005707139425542211,0.986788499058256
2014-12-18,1,0.0015847834102631062,0.0017474089078561958,-0.01226721426286287,0.003130326252160682,0.989495439380211
2014-12-22,1,0.0016505146315080198,0.0017530516903820296,-0.01226721426286287,0.003130326252160682,0.9894530201285333
2014-12-24,1,0.002129979186645612,0.0023257465335941984,-0.01226721426286287,0.002885397643580725,0.9886806297108659
2014-12-29,1,0.003140161721941482,0.0034450450076484,-0.01226721426286287,0.002885397643580725,0.9874424989241427
2014-12-31,1,0.0023291671175432534,0.0025500654528453058,-0.013272967785827572,0.003437003693616967,0.9876415033079302
2015-01-05,1,0.0014317822354822254,0.0015007371939568276,-0.011891197943853151,0.009559640086049401,0.9870528701655172
2015-01-07,1,0.0012105878814754518,0.001254552691293703,-0.011891197943853151,0.009559640086049401,0.9870594922767894
2015-01-09,1,0.0017573265443542932,0.0018992321554191969,-0.011891197943853151,0.005628265275809843,0.9883774427527021
2015-01-13,1,0.0015073043158226442,0.0016365488309662468,-0.009923952778761218,0.005628265275809843,0.9894647364521602
2015-01-15,1,0.0004475550543541464,0.0004698783987392784,-0.003224299779184079,0.014230978074697427,0.9894068053771242
2015-01-20,1,0.0006960411061182539,0.0007004052259482336,-0.003224299779184079,0.014230978074697427,0.9895788387174341
2015-01-22,1,0.0013262749767072447,0.001419054414696113,-0.003224299779184079,0.009557100142850624,0.9900002778902077
2015-01-26,1,0.0013861981473080064,0.0014721281823561944,-0.0024012909210153082,0.009557100142850624,0.9904236330581209
2015-01-28,1,0.00042974855015509605,0.00046796670625570973,-0.0017899755956993122,0.009557100142850624,0.9904945927436256
2015-01-30,-1,-0.0003151839976270211,-0.00019273644259676186,-0.0017899755956993122,0.012166452081207323,0.9912032745549593
2015-02-03,1,0.0016249909311545365,0.001735526304864792,-0.0023617988966292713,0.006746285085465361,0.9934079486314522
2015-02-05,1,0.0007891322846566325,0.0008126698320882207,-0.0023617988966292713,0.006746285085465361,0.9933946083952553
2015-02-09,1,0.0007217919672306429,0.000767610052749533,-0.0024799100269784842,0.006746285085465361,0.9928051987448137
2015-02-11,1,0.0006141460049297523,0.0006758740487651181,-0.0023617988966292713,0.008137054876065688,0.9924483809757395
2015-02-13,1,0.0013414994042261845,0.0013441644981380598,-0.002807053429724132,0.006746285085465361,0.9926603010188958
2015-02-18,1,0.0011403420053742444,0.0011606271923050543,-0.003101407402533093,0.008137054876065688,0.9918730704541838
2015-02-20,1,0.0014546602370415116,0.0014853811481989184,-0.0041284559831637055,0.011905014784936462,0.9911232059734509
2015-02-24,1,0.0010175132792832752,0.001103557490733935,-0.0056912458908402516,0.007860307926035759,0.9913257634715341
2015-02-26,1,0.0008148764454798682,0.0009403710117019631,-0.009174955938200217,0.0056090920524004126,0.9905516611314257
2015-03-02,1,0.0014698009263632338,0.0014940268752197713,-0.009174955938200217,0.006034983439559993,0.9898384179721472
2015-03-04,1,0.00062752564063755,0.0007517322199623532,-0.008184893369331446,0.006034983439559993,0.9903268015644597
2015-03-06,-1,-0.0007979962247138879,-0.0004264342327570832,-0.005740940392468389,0.010738372063763076,0.9909740114516202
2015-03-10,-1,-0.001274997144076452,-0.0008184980538095644,-0.004831871388299729,0.010738372063763076,0.9915747072297861
2015-03-12,0,-3.347637003645867e-05,0.00019475131513126348,-0.004831871388299729,0.005300459529857037,0.9918786612665849
2015-03-16,1,0.0010722554556547353,0.0011235741928822848,-0.005740940392468389,0.0032022944380512,0.9923365155372884
2015-03-18,1,0.0016077858524097656,0.0016288500968114198,-0.008184893369331446,0.0032022944380512,0.9925591507682584
2015-03-20,1,0.0019496989040185167,0.0020724346463104996,-0.008184893369331446,0.0032022944380512,0.9924578244685605
2015-03-24,1,0.0015543983972517838,0.0016274627944350977,-0.005740940392468389,0.004163897886577132,0.9928868627769255
2015-03-26,1,0.0010377227238163316,0.001055776902657409,-0.005419577211788285,0.00554273222458969,0.9935144298442903
2015-03-30,1,0.00205599240414754,0.002187661106230271,-0.005419577211788285,0.004163897886577132,0.9946794779326613
2015-04-01,1,0.0013249646673622818,0.0013339850117492348,-0.00023815832630489232,0.004163897886577132,0.9952719346365217
2015-04-06,1,0.0018621771198303384,0.0019588055441691053,-0.00023815832630489232,0.00551146484065944,0.9952078166407399
2015-04-08,1,0.0018702825740748168,0.0019720608585574403,-0.007001132716226162,0.00551146484065944,0.9941475861121819
2015-04-10,1,0.0015268053704350628,0.0016534851160808339,-0.007001132716226162,0.005945067157289778,0.9937576344532173
2015-04-14,1,0.0016315345844353727,0.0018136577847463395,-0.002854684893302125,0.006152839481801287,0.9940151177060438
2015-04-16,1,0.0012650198959689185,0.001372040376649567,-0.000949212228913588,0.007062433657259197,0.9931392586258729
2015-04-20,1,0.0010039927899642106,0.0010943231461652638,-0.00018900451541628685,0.0068570753244844036,0.9943399281075472
2015-04-22,1,0.0012306892949544286,0.00135887948363275,-0.000949212228913588,0.0068570753244844036,0.9941047072578565
2015-04-24,1,0.0008639248794296979,0.0009035230420370376,-0.000949212228913588,0.006421362654531374,0.9944740361429414
2015-04-28,1,0.0008778290499714392,0.0009273719266680873,-0.0014769351120477363,0.008137989274557892,0.9934119276311694
2015-04-30,1,0.0010126268647469884,0.0010991503369876406,-0.004635751138025285,0.008137989274557892,0.9928217038044411
2015-05-04,1,0.0012169915149816534,0.001298167188080356,-0.004635751138025285,0.006734618240117307,0.9930917637084009
2015-05-06,1,4.150809179754417e-06,0.00011639786178957462,-0.003649393016637611,0.006734618240117307,0.9935471788676977
2015-05-08,-1,-0.00025422102225353767,-7.086315685307925e-05,-0.003649393016637611,0.006734618240117307,0.9935333738376672
2015-05-12,-1,-0.0002089962971519744,-2.3417969721322308e-05,-0.003916506703545703,0.006928556216628285,0.9930238473425641
2015-05-14,1,0.0025207430288211007,0.0028005297582297207,-0.003916506703545703,0.0035487620148704512,0.9938230337696429
2015-05-18,1,0.0027163775809705753,0.0030362932170966365,-0.00536505584698887,0.004426637881518338,0.9930848426586202
2015-05-20,1,0.0027292546028530444,0.003078376397893302,-0.003916506703545703,0.005709783840655361,0.9932523069025406
2015-05-22,1,0.0025117570953730453,0.0028275919014010683,-0.00536505584698887,0.005709783840655361,0.993110847178619
2015-05-27,1,0.0018692064543338054,0.0020551664833118547,-0.00536505584698887,0.004426637881518338,0.9935636643440261
2015-05-29,1,0.0009545572893783147,0.0009656556790630672,-0.004721249088437266,0.005709783840655361,0.9927235996127217
2015-06-02,1,0.0006844776027635668,0.0007280092508307993,-0.006149864774205007,0.006847374277590161,0.9914523838436348
2015-06-04,1,0.0006250346787813611,0.0006461342646642763,-0.004721249088437266,0.01133174351856223,0.9916232984701485
2015-06-08,1,0.0005176439383925179,0.0005944439813595708,-0.006149864774205007,0.008127232070522196,0.9909368892586106
2015-06-10,1,0.0002539571383878154,0.0003971191214665256,-0.01004829100533301,0.00742061856037152,0.9904643114682418
2015-06-12,1,0.00030265558864778073,0.0004441731773043469,-0.01004829100533301,0.012796976776362901,0.9893750192568088
2015-06-16,1,0.00022165841615538355,0.0003443311440623155,-0.01004829100533301,0.012796976776362901,0.9893484967193832
2015-06-18,1,0.0006795692336793076,0.0007436528245807657,-0.01004829100533301,0.010677136245910877,0.9894081160030033
2015-06-22,1,1.9920849651307304e-05,0.00018212763071472115,-0.008667036556517231,0.010677136245910877,0.9895126033148729
2015-06-24,-1,-0.0007681962623944003,-0.0004969443172108004,-0.007525055399726224,0.010677136245910877,0.9896369527762111
2015-06-26,1,0.0005061698627281278,0.0005383838131020272,-0.0147373131236417,0.00742061856037152,0.9883065085832601
2015-06-30,1,0.0001643484076502903,0.0002698132524710733,-0.00914947664553633,0.008808722359188798,0.9887088273621552
2015-07-02,1,0.0005260204222291098,0.0005926433051341784,-0.00914947664553633,0.007071854970765686,0.9890695241692182
2015-07-07,1,1.2236123581133441e-05,0.00014086427856033293,-0.007525055399726224,0.008026016551042348,0.989745004726944
2015-07-09,1,0.0004282389793573184,0.000470519492673573,-0.006217469096891262,0.008765377132612055,0.9900270028750607
2015-07-13,1,0.0012318075202903626,0.00128164061573765,-0.006217469096891262,0.008026016551042348,0.9904118991422036
2015-07-15,1,0.0005708608081625868,0.0005872365618157947,-0.006217469096891262,0.008026016551042348,0.9905935698137078
2015-07-17,1,0.0007242803960654084,0.0007668446162610843,-0.0033398677422541477,0.009784190203645604,0.9902712245714983
2015-07-21,1,0.0008224330059679523,0.0008916085290690442,-0.00199183068937533,0.010289685884882046,0.9901587199315831
2015-07-23,1,0.001073099342698777,0.00119217051153862,-0.006363281757309832,0.010289685884882046,0.9883312088253522
2015-07-27,-1,-0.001669696977157281,-0.001483705278449194,-0.006363281757309832,0.010289685884882046,0.9886110037717943
2015-07-29,-1,-0.0004431761190813144,-0.0003397114182092619,-0.010192107372213816,0.010289685884882046,0.9874403665818777
2015-07-31,-1,-0.0009454860908776697,-0.0007728379435534712,-0.010192107372213816,0.0118686823919474,0.9862179744112259
2015-08-04,-1,-0.0003638394141613114,-0.00028753817886562354,-0.018191536314614676,0.0118686823919474,0.9843136600373255
2015-08-06,1,0.0008695829602023612,0.0009413235636550478,-0.018191536314614676,0.0118686823919474,0.9845025126846898
2015-08-10,1,0.0016390523185927154,0.0018285726418699679,-0.018191536314614676,0.0118686823919474,0.9830567968705023
2015-08-12,1,0.0012837857807268937,0.001426734504842697,-0.018191536314614676,0.0118686823919474,0.9830318874121055
2015-08-14,1,0.0013922887441294462,0.0015221796815910083,-0.018191536314614676,0.007815532853944939,0.9831093168016025
2015-08-18,1,0.0011081624187122931,0.0011792029313414134,-0.018191536314614676,0.008707489144851654,0.9830396366613406
2015-08-20,1,0.0006788265932625475,0.0007275937889420023,-0.018191536314614676,0.008707489144851654,0.9837537591014027
2015-08-24,1,0.00024793338022458347,0.00028520091702661355,-0.01322682073331568,0.008707489144851654,0.9854290927261639
2015-08-26,1,0.00040454412760326114,0.0004141361320989342,-0.011878866068821473,0.005888578232726381,0.987970259237869
2015-08-28,1,0.0005684970738636678,0.0006008887925161622,-0.01322682073331568,0.005888578232726381,0.9877461335746286
2015-09-01,-1,-0.0005689460061746766,-0.00046736435611706786,-0.010547257877132399,0.0077643355717353,0.989046955664166
2015-09-03,-1,-0.0005670212403117169,-0.00044900934068812414,-0.010547257877132399,0.0077643355717353,0.9882241292788644
2015-09-08,1,0.00028190421073244026,0.00031696834070645756,-0.009130668215008467,0.0077643355717353,0.9889770633752876
2015-09-10,-1,-0.0005150585299896618,-0.0003686867039253663,-0.0059640547666000325,0.012871816642420465,0.988292536403752
2015-09-14,-1,-0.00042905017554815066,-0.0003090111490889673,-0.004955336997797625,0.012871816642420465,0.9887517663835608
2015-09-16,0,-3.6311370900299486e-05,4.801130328924551e-05,-0.00966091747849001,0.010446200261680794,0.9883403187750104
2015-09-18,-1,-0.0006918251363197784,-0.0005266651889006067,-0.008112187883444665,0.010446200261680794,0.9890263080948656
2015-09-22,-1,-0.0007932690464781069,-0.0006180867802390635,-0.005671381370079169,0.010446200261680794,0.9891085613180667
2015-09-24,-1,-0.00046832750033839093,-0.0003500806403237265,-0.005671381370079169,0.012947562742895422,0.9882400835029247
2015-09-28,-1,-0.00126513986231957,-0.0010216459361612159,-0.004446489954278343,0.012947562742895422,0.9889680974908435
2015-09-30,1,7.528525941939148e-05,0.0001411568424724082,-0.005671381370079169,0.009584924978935944,0.9881754486641289
2015-10-02,1,0.001267809168796145,0.001364668556379872,-0.004446489954278343,0.008502103341549673,0.9898092112222996
2015-10-06,1,0.0013628110207421192,0.0015360516674816525,-0.0007963219663427779,0.008502103341549673,0.9907943115046615
2015-10-08,1,0.002189027313255198,0.002459588154228213,-0.0007963219663427779,0.007971494435499459,0.9917868016204884
2015-10-12,1,0.0015769734529837102,0.0017493060784261336,-0.0037302331648480826,0.007971494435499459,0.9912582881247056
2015-10-14,1,0.0008916364553758762,0.0009631198066092814,-0.001514432836099681,0.007971494435499459,0.9922576097047605
2015-10-16,1,0.0010298474739921318,0.0011210507456223024,-0.003428456918377539,0.007971494435499459,0.9911952705996665
2015-10-20,1,0.0010441717294768296,0.0011179035350187196,-0.003875132662004683,0.008312644486169847,0.989905117882993
2015-10-22,1,0.0014677650866150556,0.0016139476373172783,-0.003875132662004683,0.008312644486169847,0.9892264488877669
2015-10-26,1,0.0013581839074506708,0.0014574906446634447,-0.003875132662004683,0.008312644486169847,0.9893217898745502
2015-10-28,1,0.001228119627567166,0.0013255854336468957,-0.003428456918377539,0.007844496581097054,0.9918105131249363
2015-10-30,1,0.001346384721839718,0.0014772191036069421,-0.003875132662004683,0.007240386586440399,0.9915515039876533
2015-11-03,1,0.001769561930967963,0.001949548816741589,-0.005110590228006922,0.005776145985138903,0.9912317767920872
2015-11-05,1,0.0019511461790011836,0.0021495317803312095,-0.0063344448135687365,0.004560745642927844,0.9901674636962199
2015-11-09,1,0.0018930682203865889,0.0020990778085821556,-0.008281600550700458,0.004560745642927844,0.989272012445457
2015-11-11,1,0.001374377318410593,0.0014938875958553557,-0.008281600550700458,0.004560745642927844,0.9896580327760943
2015-11-13,1,0.00048791277589357743,0.0005024812216503502,-0.008281600550700458,0.007240386586440399,0.9898948789027071
2015-11-17,1,0.0011681863011609073,0.0012601299709786716,-0.0044707095432703564,0.007240386586440399,0.9906136955448621
2015-11-19,1,0.0015037648606760867,0.001639493481421428,-0.012083189493227725,0.004560745642927844,0.9908877938647536
2015-11-23,1,0.0018317956812315135,0.002019969219393499,-0.012083189493227725,0.004390912570695348,0.9909018266835437
2015-11-25,1,0.0015745457573616284,0.0017210079177742265,-0.012083189493227725,0.0065751896314274255,0.9904033433378285
2015-11-30,1,0.0012653436053022783,0.0013485697227985259,-0.012083189493227725,0.007213761905334556,0.9901748585390099
2015-12-02,1,0.0014201662134263643,0.0015729952163682083,-0.010968335807224967,0.007213761905334556,0.9901493854270507
2015-12-04,1,0.0010654738365353813,0.0011304332258892367,-0.010968335807224967,0.0039698812607731745,0.99038232183785
2015-12-08,1,5.903661410237108e-05,0.00011705719392613877,-0.012083189493227725,0.0039698812607731745,0.9895215690004194
2015-12-10,1,0.00018689016891170707,0.00023861759182850398,-0.017587858224696933,0.0034427140157490296,0.9879326567224266
2015-12-14,0,-1.14017089029969e-05,5.55084601513329e-05,-0.017587858224696933,0.003241792165835865,0.9881610832428035
2015-12-16,1,0.00013452151456724447,0.0002703086384833357,-0.017587858224696933,0.003241792165835865,0.9884367012442041
2015-12-18,-1,-0.00023483650272070267,-0.00010688410858341018,-0.017831249302387296,0.003241792165835865,0.988443468580343
2015-12-22,-1,-0.00024194079522402726,-7.959796778265153e-05,-0.017831249302387296,0.003061891592613531,0.9880465973430501
2015-12-24,1,0.0005010397198385888,0.0005358970594123032,-0.01815362560872654,-0.0001624440143561225,0.9866528955330183
2015-12-29,1,0.0010474338150285125,0.0011173709838358035,-0.01815362560872654,-0.00262634781245774,0.98668652809436
2015-12-31,1,0.0007414015986219687,0.0007878530709156523,-0.01815362560872654,-0.0001624440143561225,0.9865019408616262
2016-01-05,1,0.00016230252391678083,0.00021855213690186683,-0.019038098715681937,0.006013631115256711,0.9863473606150148
2016-01-07,-1,-0.00036003015979325985,-0.0003142160450816895,-0.01815362560872654,0.008566848471932419,0.9865675801111857
2016-01-11,-1,-0.0010360060208810759,-0.0008897040394193152,-0.014130258953578051,0.012554369051493354,0.9867459147860016
2016-01-13,-1,-0.0020701354209201896,-0.0017480612378377633,-0.012829555703822939,0.012554369051493354,0.987784885080598
2016-01-15,-1,-0.0018518428737847332,-0.0015313135831231588,-0.012829555703822939,0.0127202575944912,0.9872590343873516
2016-01-20,-1,-0.003437917132992502,-0.002871419800705502,-0.009096738525077763,0.0127202575944912,0.9884751621259924
2016-01-22,-1,-0.0030105716383320505,-0.002519324907015831,-0.009096738525077763,0.009083894388572425,0.9887609754833893
2016-01-26,-1,-0.004008700333278873,-0.003361846312432834,-0.009095450061121647,0.007354727403292826,0.9899685426055733
2016-01-28,-1,-0.0044078525849566876,-0.0037099629963212102,-0.009095450061121647,0.009083894388572425,0.988264502700548
2016-02-01,-1,-0.0037380093835895764,-0.003166516485634583,-0.007375732291347267,0.009083894388572425,0.9879006907855903
2016-02-03,-1,-0.0044943639852727,-0.0037976863633868534,-0.004027792271022941,0.009083894388572425,0.9884976457296949
2016-02-05,-1,-0.004086343201274843,-0.0034310747759162606,-0.0033234312546877535,0.007559053400725895,0.990545581480532
2016-02-09,-1,-0.0032772274481503993,-0.0027476135772301277,-0.0033234312546877535,0.006407305916058727,0.9922956198574422
2016-02-11,-1,-0.004273930726689308,-0.0035985756284060704,-0.0033234312546877535,0.007559053400725895,0.9913608051770137
2016-02-16,-1,-0.004056045443248209,-0.0033998300189837074,-0.0033234312546877535,0.006407305916058727,0.9920697384026894
2016-02-18,-1,-0.0043454565171263965,-0.003638613139562401,-0.0022781842807268323,0.007981804725476665,0.9903810594037844
2016-02-22,-1,-0.004409498908686282,-0.003673966262299636,-0.003930888455272069,0.007981804725476665,0.9905884130187159
2016-02-24,-1,-0.003948280763752405,-0.0033163784688853134,-0.0032497687176342225,0.007981804725476665,0.9909181701256943
2016-02-26,-1,-0.0018905900748516736,-0.0015599704991855266,-0.005199182110914498,0.006210365941775186,0.9927665192632057
2016-03-01,-1,-0.00039795912445184865,-0.00025868197178246887,-0.0032497687176342225,0.007981804725476665,0.9935185365829229
2016-03-03,1,0.00016849374682430425,0.00019417419562813254,-0.005199182110914498,0.006670219021607732,0.9934204297602853
2016-03-07,1,0.00021211745522605103,0.00023672609168883435,-0.005944490686310059,0.006670219021607732,0.9922636369318408
2016-03-09,-1,-0.00039314045043697433,-0.00026539697036603643,-0.005353375737768786,0.006670219021607732,0.9926370918046741
2016-03-11,-1,-0.00019213480873142184,-9.330126054937852e-05,-0.00530596830000879,0.006670219021607732,0.993053470572967
2016-03-15,1,0.0003973055205002014,0.00040796348707793984,-0.00530596830000879,0.009705385837462744,0.9922083137148799
2016-03-17,1,0.001416374050322569,0.0015663149751051534,-0.00530596830000879,0.006142070936530097,0.9932878786407551
2016-03-21,1,0.0015788948078655808,0.00175619554900116,-0.00436655796808,0.009681689635273837,0.9932534788859249
2016-03-23,1,0.0011334013566021426,0.0012736037788331146,-0.0032025412744836556,0.009681689635273837,0.9937544328000525
2016-03-28,1,0.0012726320331920232,0.0014503083911922181,-0.0022064843986161833,0.009681689635273837,0.9939743399039718
2016-03-30,1,0.002183302581835076,0.0025096547660873473,-0.0022064843986161833,0.010126749705661166,0.9937722007370564
2016-04-01,1,0.00147242436825906,0.0017605886241355174,-0.0022064843986161833,0.010126749705661166,0.990139891884534
2016-04-05,1,0.0009006750621186765,0.001105256994427347,-0.0012309687524199263,0.010126749705661166,0.9903938169425825
2016-04-07,1,0.0010539770032279231,0.0012768749419384319,-0.0032025412744836556,0.010126749705661166,0.989236607497808
2016-04-11,1,0.000957281747421889,0.001138737422699644,-0.004651700313148538,0.008296177142411607,0.9892225299729859
2016-04-13,1,0.0017603166739095098,0.00206326526270933,-0.004651700313148538,0.004572612372217753,0.9894193099703702
2016-04-15,1,0.0018322115704440683,0.002185660720085092,-0.007410686523804819,0.004572612372217753,0.9891373800719886
2016-04-19,1,0.0022329287828467045,0.0026525077702120045,-0.007410686523804819,0.004572612372217753,0.988967465328787
2016-04-21,1,0.0022395265866977593,0.0026623494587810033,-0.009425658005352682,0.00805374253542054,0.9883090927835078
2016-04-25,1,0.002362517252658613,0.002807881975592667,-0.009425658005352682,0.009507864325862973,0.9880291570103178
2016-04-27,1,0.002863564657123424,0.003365721836103875,-0.009425658005352682,0.005079384911248117,0.9887267581735916
2016-04-29,1,0.0019898390176044827,0.0023665266096080735,-0.007410686523804819,0.005079384911248117,0.9928211169875945
2016-05-03,1,0.0016742427671295915,0.0019839364739621173,-0.003737809187879065,0.004194660798364144,0.9938400296645703
2016-05-05,1,0.0012646559304853211,0.0015205759861441782,-0.002432659996274864,0.004194660798364144,0.9945463984020155
2016-05-09,1,0.0011761440344293704,0.0014106031128192807,-0.0015243394219662412,0.009507864325862973,0.9939089381023796
2016-05-11,1,0.0016630881086753784,0.0019863782796389674,-0.0016175564305624475,0.009311522420663446,0.9939254083868984
2016-05-13,1,0.00126788567125468,0.0015036100042465114,-0.0039155073531034435,0.009311522420663446,0.9929581463384614
2016-05-17,1,0.0015804967667034542,0.0018600384737618024,-0.007878225219246504,0.0054392424246106005,0.9927406158067017
2016-05-19,1,0.0017731771329831181,0.0021008429003983482,-0.005405428648769324,0.004194660798364144,0.9933709628813682
2016-05-23,1,0.002190307148173351,0.002587906803707636,-0.007878225219246504,0.004194660798364144,0.992955554262081
2016-05-25,1,0.0022050503765833913,0.0025868550142175784,-0.007878225219246504,0.0029203333835654544,0.9920129560109172
2016-05-27,1,0.001267803575897116,0.001505154727599144,-0.009331040445485194,0.0029203333835654544,0.9887729875717942
2016-06-01,1,0.0012589620833215569,0.0014637955465393844,-0.009331040445485194,0.01008002853025376,0.9872313814983936
2016-06-03,1,0.0005175096279308373,0.0005702102967174588,-0.009331040445485194,0.012035291773561949,0.9868679810393371
2016-06-07,1,0.0004068192336098384,0.00041228933216972357,-0.009453525044136723,0.007458334654068212,0.9865174243545003
2016-06-09,1,0.0005012530942840734,0.000523389358603173,-0.009453525044136723,0.00965487920039455,0.986502144431911
2016-06-13,-1,-0.0008236278164151652,-0.0006667091959580717,-0.0061464414509379,0.010106557630888288,0.987058790742589
2016-06-15,-1,-0.001111881800350555,-0.0009192182741897785,-0.005157228650490093,0.011488706055122746,0.9866494726531231
2016-06-17,-1,-0.0012013268981394957,-0.0010020983271309437,-0.005157228650490093,0.01167147423395051,0.9862175453127862
2016-06-21,-1,-0.001350614254509391,-0.0011220678019454975,-0.004554201997518744,0.01167147423395051,0.986268763099268
2016-06-23,-1,-0.0006492515028917439,-0.0005204168748380806,-0.005157228650490093,0.010642923074106338,0.9871774727669842
2016-06-27,-1,-0.0022884186316707755,-0.001960918778677373,-0.004554201997518744,0.011053536631638296,0.9894218340170459
2016-06-29,-1,-0.001411930057452996,-0.0011523239793266638,-0.004554201997518744,0.01022125036493199,0.9911626640320595
2016-07-01,-1,-0.0009271650912010455,-0.0007495141330561964,-0.005157228650490093,0.009986307636588813,0.9918600741851804
2016-07-06,-1,-0.0020434848449360065,-0.001689379219067714,-0.004619565437474878,0.009986307636588813,0.9921329368604359
2016-07-08,1,0.0006796033700204631,0.0007143934166880886,-0.005914127310635104,0.009031546742622708,0.9919938691603635
2016-07-12,1,0.0009450320846467908,0.0009669175730114814,-0.005914127310635104,0.00898377061921927,0.9916549938609114
2016-07-14,1,0.0007200035864130586,0.0007762995158975997,-0.005180373777751486,0.006772589902868388,0.9923441492700323
2016-07-18,1,0.0005363094454402114,0.000609788348356363,-0.005180373777751486,0.006772589902868388,0.9921970802362273
2016-07-20,1,0.0006470646739301076,0.0006699443062705536,-0.005063039637124045,0.006114063497381675,0.9928211555983228
2016-07-22,1,0.0008970868826667191,0.0009483203073979965,-0.0023212269192033905,0.0075176236203113814,0.9925930294567396
2016-07-26,1,0.001257431570511101,0.0013535899431578553,-0.0014875339802238067,0.006408010875611675,0.9936447424541965
2016-07-28,1,0.0009697749337230585,0.0010186895557649954,-0.0003551120969874778,0.00696277658571212,0.9935347683963274
2016-08-01,1,0.0008179252748014027,0.0008350746872276027,-0.0003551120969874778,0.00696277658571212,0.9935942032407754
2016-08-03,1,0.0007455642385403579,0.0007693152281786205,-0.0014875339802238067,0.006344588206497493,0.9935177476752037
2016-08-05,1,0.0007134113788266512,0.0007405426420586031,-0.0003551120969874778,0.00696277658571212,0.9944584685334569
2016-08-09,1,0.0014240658322958464,0.0015970335850344695,-0.0019193399332430672,0.0048967684707037495,0.9952983726632486
2016-08-11,1,0.0011855307820566648,0.0013025863875820412,-0.0038133428902092205,0.004294396932928568,0.9944496732947908
2016-08-15,1,0.001257760816958939,0.0013664410980326876,-0.004331272344617398,0.004294396932928568,0.9938208342192123
2016-08-17,1,0.0011050046259463168,0.0011901274306254398,-0.004894617175699096,0.004294396932928568,0.9933908454818432
2016-08-19,1,0.0016170521488414,0.001792193882038605,-0.006241960190732037,0.0032729489233324542,0.9928949853545318
2016-08-23,1,0.0014250341935518138,0.0015826077220629804,-0.007024630749482834,0.0042800549883750105,0.9921947780071734
2016-08-25,1,0.0015674254618680387,0.0017038586684941918,-0.009303002570458331,0.004126925973335353,0.9909352961842406
2016-08-29,1,0.0015724092645702384,0.00173047505697306,-0.009303002570458331,0.007027772690304893,0.9903532373781389
2016-08-31,1,0.001358743765084479,0.0014957428750903064,-0.009303002570458331,0.007843567832403874,0.9904204258856578
2016-09-02,1,0.0017837772274237724,0.0020244202709910255,-0.009303002570458331,0.009227176261574307,0.9897828966806761
2016-09-07,1,0.00137285975611553,0.0015418119382513014,-0.009303002570458331,0.01120034281892552,0.989058717797875
2016-09-09,1,0.0012629334942143027,0.0014251662243797286,-0.008596258139424755,0.01120034281892552,0.9896383853944509
2016-09-13,1,0.0014269181410744493,0.0016031202754540415,-0.008596258139424755,0.009227176261574307,0.9894419127328943
2016-09-15,1,0.0010811314714035565,0.0011701936930270246,-0.009923035423612099,0.009227176261574307,0.9890937255437756
2016-09-19,1,0.001139769690378382,0.0012556515389503522,-0.008715373513901456,0.009227176261574307,0.989714873439587
2016-09-21,1,0.0006894363848301925,0.0007693750951823972,-0.008715373513901456,0.005455061140215097,0.9904936280076593
2016-09-23,1,0.00022928278400950242,0.00024456255581800196,-0.007620866718583384,0.0033976971318650856,0.991627301227911
2016-09-27,-1,-0.0003419292540363747,-0.00025941763495333347,-0.007620866718583384,0.001856878692541747,0.9921797437883485
2016-09-29,-1,-0.0008006681728974002,-0.0006682632000734898,-0.007620866718583384,0.0008659481481943727,0.9927897279857978
2016-10-03,-1,-0.0011033877836290318,-0.0009477373314546709,-0.007446104004352492,0.0004959571048947052,0.993789263334465
2016-10-05,-1,-0.0005897813701437164,-0.000531630204928113,-0.008715373513901456,0.0004959571048947052,0.9931878760588639
2016-10-07,-1,-0.0008159108750778815,-0.0007378653498797727,-0.007446104004352492,0.0012365789726206887,0.9934090550519525
2016-10-11,-1,-0.0014299532308709754,-0.0012813861324405134,-0.005401834253272601,0.0032046115875751856,0.9935559672180592
2016-10-13,-1,-0.0013716545085211281,-0.001181614917576365,-0.004493977227469581,0.005947342044528171,0.99138142027689
2016-10-17,-1,-0.0014179429046458393,-0.0012179112250499816,-0.004493977227469581,0.010902088679749039,0.9907077232929308
2016-10-19,-1,-0.0013452482057716073,-0.0011515214196968437,-0.005401834253272601,0.010902088679749039,0.9902240338898135
2016-10-21,-1,-0.0013367051956854358,-0.0011569132370714225,-0.008171837082479993,0.011948357846726208,0.9892210825560971
2016-10-25,-1,-0.0014458409266760448,-0.0012406594098081972,-0.0038709816277207607,0.011948357846726208,0.9895112113937744
2016-10-27,-1,-0.001342959895661207,-0.0011856121601541221,-0.001491375950432754,0.011948357846726208,0.9901690273993988
2016-10-31,-1,-0.0012709254142141211,-0.0011315355587937853,-0.006908501050223809,0.011948357846726208,0.9887982768038406
2016-11-02,-1,-0.001173631537032272,-0.0009980789002111017,-0.002771198233214987,0.013093289607329996,0.9869031706956521
2016-11-04,-1,-0.0010675640276338527,-0.0008817224967405973,-0.006908501050223809,0.013093289607329996,0.9854234190303827
2016-11-08,-1,-0.0003122403564914002,-0.00021799391439906925,-0.006908501050223809,0.020495023541827674,0.9843290194490631
2016-11-10,1,0.0008967266872932538,0.0009278984541957924,-0.006908501050223809,0.012802478355304509,0.9865202552670564
2016-11-14,1,0.0011999305581693166,0.0012930458174498073,-0.005833062176541049,0.012802478355304509,0.9870570061372806
2016-11-16,1,0.00030509133489290145,0.00040036636654355786,-0.005833062176541049,0.012802478355304509,0.9875903254497801
2016-11-18,1,0.0009837288480773272,0.0010270146932966052,-0.005833062176541049,0.005918013866648026,0.9879390661880928
2016-11-22,1,0.0011283792324596478,0.0012088574098646897,-0.005833062176541049,0.0080048080636499,0.987605235937775
2016-11-25,1,0.0008278366385089306,0.0008278400825258372,-0.005833062176541049,0.0080048080636499,0.987734164976264
2016-11-29,1,0.0006470894017900809,0.0006527045074693851,-0.005168244199770493,0.0080048080636499,0.9881574962562897
2016-12-01,1,0.0035582355621615698,0.003965155720851186,-0.005168244199770493,0.004264314392275492,0.9906188629814517
2016-12-05,1,0.0027694180591125005,0.003079496083030788,-0.003774800726045667,0.005622237645995299,0.9919566273368553
2016-12-07,1,0.004072819105179384,0.004552685590773148,-0.005168244199770493,0.004264314392275492,0.991886088762067
2016-12-09,1,0.0035757478492073574,0.003984018693411899,-0.007528680120838013,0.004941256788869676,0.9918211306417682
2016-12-13,1,0.003212836896936083,0.0035637918806604814,-0.0047742670599543804,0.005622237645995299,0.9925246570450781
2016-12-15,1,0.003143631175984546,0.0034902481080017946,-0.004452601617087755,0.005622237645995299,0.9926963661911661
2016-12-19,1,0.0028248446402327552,0.003121848541639711,-0.0022437342646040763,0.007174686663505861,0.9933086621441088
2016-12-21,1,0.0027255989676571737,0.002995269884090507,-0.0031067308956645415,0.0060813802485827585,0.993306868928799
2016-12-23,1,0.0019713298831318194,0.0021635445234211956,-0.0031067308956645415,0.00989949741887258,0.991742505174821
2016-12-28,1,0.0003563637557432025,0.000390823007925951,-0.004870985505576466,0.00989949741887258,0.9919478466357541
2016-12-30,1,0.0007035007630646306,0.0007530359109739103,-0.006939044213324054,0.00989949741887258,0.9914657419914182
2017-01-04,1,0.0013737309514266069,0.0015063836202777723,-0.006939044213324054,0.005764834863098168,0.9924546204631283
2017-01-06,1,0.0020556239542273633,0.002308932616584931,-0.005954467497630269,0.005764834863098168,0.9935781861555064
2017-01-10,1,0.0017580739154837487,0.001967369601097063,-0.0045596571200623584,0.008715001663203839,0.9936069594471412
2017-01-12,1,0.0024793476032282918,0.0028179019167948963,-0.0045596571200623584,0.008716189093925833,0.9931297116153242
2017-01-17,1,0.002091280490430763,0.0023654976541564463,-0.002307258839570389,0.008716189093925833,0.9934705254079109
2017-01-19,1,0.0024311003771268842,0.0027659217783001515,-0.002307258839570389,0.010147399915836196,0.9933853158903803
2017-01-23,1,0.002283026001464412,0.0025954189999739564,-0.0011531991986628914,0.01218606532118617,0.9933746537648458
2017-01-25,1,0.0030394156765633775,0.0034067862163087385,-0.002307258839570389,0.007807458714895398,0.9939565366149881
2017-01-27,1,0.0027311515044406705,0.003068797401663549,-0.0011531991986628914,0.007807458714895398,0.9946387441871835
2017-01-31,1,0.002193729133083469,0.002436853389822911,-0.00039140894769139,0.009887968097015278,0.9938925123927295
2017-02-02,1,0.0017868722251606194,0.001932426707094518,-0.00012884488205711385,0.009887968097015278,0.9933560397638397
2017-02-06,1,0.0020239317401660175,0.0022011881323427806,-0.0019683223557394854,0.008487013850012055,0.9933281114938313
2017-02-08,1,0.0021312847161572123,0.002309397191499054,-0.0028786310194314465,0.004011000309042935,0.9930900615729865
2017-02-10,1,0.0022578291356426606,0.0024403631862691027,-0.0034642394029004197,0.002827279784182642,0.9932028262188302
2017-02-14,1,0.002069924824276299,0.0022156748565351297,-0.005712835243939979,0.004979613005051067,0.9921733239264502
2017-02-16,1,0.002290239351569756,0.0024567005856388833,-0.005712835243939979,0.003146320380845768,0.9925308797515769
2017-02-21,1,0.002830558875341925,0.003078608556555825,-0.009827028318358712,0.0027819352886803202,0.9916136367308221
2017-02-23,1,0.002234646409884562,0.002389016239470469,-0.005712835243939979,0.0026124977313253554,0.992644979768212
2017-02-27,1,0.0019727053155738504,0.0021171107833204534,-0.005712835243939979,0.00209107287985808,0.9928183789519202
2017-03-01,1,0.002717101643929371,0.0029904251121419855,-0.0034642394029004197,0.0030270799127669495,0.9937646555196541
2017-03-03,1,0.002258238191909625,0.002438590343632054,-0.0021711116134826747,0.0023759643266376483,0.9942428881434735
2017-03-07,1,0.00139453869364744,0.0014042025502764225,-0.0021711116134826747,0.0023759643266376483,0.9945773971481685
2017-03-09,1,0.0007843129753842018,0.000865485819254595,-0.0014368891802590657,0.004116573987909778,0.9948901560187934
2017-03-13,1,0.0008909936101214524,0.0009707598126939506,-0.0012943286594115384,0.004116573987909778,0.9952621226487461
2017-03-15,1,0.0007939718404646549,0.0008774613227992301,-0.0012943286594115384,0.0023759643266376483,0.9955392519757299
2017-03-17,1,0.0006111530690941288,0.0007336950483780419,-0.0014368891802590657,0.0026107840614417715,0.9947550464945322
2017-03-21,-1,-0.0007263539090173256,-0.0004044346828659612,-0.0012943286594115384,0.0026107840614417715,0.9957081451497068
2017-03-23,-1,-0.0010575134462417143,-0.0006699793886406117,-0.0012943286594115384,0.005277809915063588,0.9949208925586794
2017-03-27,-1,-0.0011213641831120103,-0.0007177466099163624,-0.0012943286594115384,0.007974311876853893,0.9929887969813687
2017-03-29,-1,-0.000688528554290715,-0.00030011915927340236,-0.0012943286594115384,0.0069744266146013695,0.9935289205098423
2017-03-31,-1,-0.0009170522213247398,-0.0005009101116822902,-0.001155590807944066,0.00710194984470431,0.9931317442077816
2017-04-04,-1,-0.0009285231285140539,-0.0005334321348044572,-0.0010625474340336767,0.01088235225038092,0.9915197563808428
2017-04-06,1,0.0004946456508002284,0.0006073526815073846,-0.0010625474340336767,0.00962743095682818,0.9917654785937355
2017-04-10,1,0.0004348368685319952,0.0005562979623163292,-0.0013416134238431944,0.00962743095682818,0.9916242617284167
2017-04-12,-1,-0.0006314909756915864,-0.0003653305606335582,-0.00180682760462749,0.00962743095682818,0.9919525435135099
2017-04-17,-1,-0.0003198217879646643,-9.542978127380006e-05,-0.00180682760462749,0.007967967258054057,0.9925060603187108
2017-04-19,-1,-0.000640163600493853,-0.0003705852312986022,-0.002079025967992763,0.007967967258054057,0.9922038803519526
2017-04-21,0,-0.00019920663777193677,2.8955950657309163e-05,-0.003563771103145453,0.007967967258054057,0.9921784542527784
2017-04-25,1,0.0003481317001258839,0.0005741568622355481,-0.003563771103145453,0.0071166308942166075,0.9937563427601634
2017-04-27,1,0.0019920258751886205,0.0021125183944443173,-0.003563771103145453,0.007328303486202693,0.9935320306144768
2017-05-01,1,0.0017304669712729986,0.0017713535019586017,-0.0037808546894017147,0.007328303486202693,0.9935010928714204
2017-05-03,1,0.0036357470690961172,0.004025886623705105,-0.0037808546894017147,0.006405489040062593,0.9946297277711755
2017-05-05,1,0.0034450498655032805,0.003797409437427713,-0.0037808546894017147,0.005811089703833757,0.9949047931718833
2017-05-09,1,0.0031626876439433335,0.0034484932050151745,-0.0039145371910535255,0.004575392374764195,0.9949120359664735
2017-05-11,1,0.002638075690543359,0.002834106075536659,-0.0017628061040849646,0.00683106570221678,0.9952770187948426
2017-05-15,1,0.002139173390207043,0.0022361907896836924,-0.0017628061040849646,0.00683106570221678,0.9950781122472636
2017-05-17,1,0.0018137849514222445,0.0018749507332399763,-0.0017628061040849646,0.007016449803708507,0.9945377414450857
2017-05-19,1,0.0020387273168476815,0.00212511857935708,-0.0010149624194714145,0.007016449803708507,0.9952700602094054
2017-05-23,1,0.0018482574265165945,0.0018689804052378274,-0.0039145371910535255,0.00683106570221678,0.9936238989177383
2017-05-25,1,0.0017119254262767819,0.001719106123930339,-0.0039145371910535255,0.005962276521851608,0.9936519030205524
2017-05-30,1,0.0018754984175506956,0.0019218911462497207,-0.005006201225311693,0.005962276521851608,0.9936107459250544
2017-06-01,1,0.0022457022186743014,0.00234260137536676,-0.006151089004185561,0.005962276521851608,0.9930475929303622
2017-06-05,1,0.002060715372219453,0.0021148341192231725,-0.006151089004185561,0.0072383520925540365,0.9926348837627527
2017-06-07,1,0.0018601335503742923,0.0019045588899720691,-0.006151089004185561,0.0072383520925540365,0.9928496172456359
2017-06-09,1,0.0021021929571093897,0.0021569494460642134,-0.006151089004185561,0.006778797777664908,0.9930621861154443
2017-06-13,1,0.0018266537693362895,0.001855931739038874,-0.0032225011059223625,0.008116784919899573,0.9932757613030886
2017-06-15,1,0.001666136089350649,0.001673686517755675,-0.0032225011059223625,0.006778797777664908,0.9937477083737665
2017-06-19,1,0.002465674207803259,0.0026276314240394963,-0.005944593129260005,0.00329957727865819,0.993287131940713
2017-06-21,1,0.0006052911883095398,0.0007078621048387523,-0.0032225011059223625,0.0041586494278839994,0.9952182056402127
2017-06-23,1,0.00015061434896075274,0.00033209499137954964,-0.004186821676183305,0.005287897063108235,0.9950497872371704
2017-06-27,0,-0.00021922649886625537,4.2400042792050015e-06,-0.003913976407460171,0.006778797777664908,0.9946698803416348
2017-06-29,0,-0.000160718052245658,4.191869225682126e-05,-0.0019129322165889477,0.005287897063108235,0.9952427234333072
2017-07-03,1,0.000561606764422485,0.0006603462945047797,-0.003912724434367044,0.003579328111304486,0.9959666915162055
2017-07-06,1,0.0007924073035547387,0.0008419615874366143,-0.003912724434367044,0.004275153021491074,0.9938909406433873
2017-07-10,1,0.0009546618615567346,0.0009951711971994048,-0.004366597967068689,0.003579328111304486,0.9938883563504872
2017-07-12,1,0.0014345675438379676,0.0014732150529576183,-0.0045564162936727855,0.0028399381274909403,0.9938026623921341
2017-07-14,1,0.0014270157161018144,0.001492388182097812,-0.0045564162936727855,0.0028399381274909403,0.9933834879474917
2017-07-18,1,0.0006908442126959879,0.000733309380602158,-0.004366597967068689,0.003579328111304486,0.9935491194723095
2017-07-20,1,0.0004189134948441638,0.0004956464710406985,-0.004366597967068689,0.002999642643380195,0.9938308530146281
2017-07-24,1,0.0007165063512306257,0.0007354152362692534,-0.00454539214479364,0.0024533366187495993,0.9936383936003422
2017-07-26,1,0.0007362345927713493,0.0007602101261659289,-0.005081531069009504,0.0024533366187495993,0.9934923516402002
2017-07-28,1,0.0007447308082964635,0.0007831943128723999,-0.005081531069009504,0.001994678366188134,0.9936609844291657
2017-08-01,1,0.00023323507696585783,0.000355135705986248,-0.005081531069009504,0.0024533366187495993,0.9937943536718512
2017-08-03,1,0.002421384970786191,0.0025812163348748352,-0.005081531069009504,0.001994678366188134,0.9947225407343933
2017-08-07,1,0.0020741879521803627,0.0021782358947220566,-0.004088918265763359,0.001915750312812603,0.9948797005586553
2017-08-09,1,0.0016686743619576737,0.0017208783243576507,-0.0027824986264661906,0.002553115699487999,0.9954324404936465
2017-08-11,1,0.0004654572231358344,0.0006128075446822455,-0.0007969779908268432,0.0059843495814169406,0.9959291028043424
2017-08-15,1,0.0005894346216467905,0.0007237602707478548,-0.0007969779908268432,0.0059843495814169406,0.9959026550816378
2017-08-17,1,0.00016078663227195463,0.00036042304109874215,4.095324421675469e-05,0.0059843495814169406,0.9959724011513577
2017-08-21,1,1.0924846588658815e-05,0.00020935675355616143,0.0006403772392338582,0.007092091841070647,0.9956684091185274
2017-08-23,0,-0.00016828707469662718,6.196794671189953e-05,0.00037899692554706535,0.0059843495814169406,0.9961662592939223
2017-08-25,-1,-0.0004441337091752989,-0.0001638396010616882,-0.0007969779908268432,0.0059843495814169406,0.9953457210623643
2017-08-29,-1,-0.0005078855481730538,-0.00022423858268872917,0.00025994158715243244,0.007092091841070647,0.9945854390147104
2017-08-31,0,-0.000198868444334827,4.9157204381263626e-05,-0.0011070046766590881,0.007092091841070647,0.9943854520119862
2017-09-05,-1,-0.0010476366322341299,-0.0006534195694576303,-0.0007528761119095943,0.007225096082361627,0.9932380684054067
2017-09-07,-1,-0.0008802912691231813,-0.0005109461808061625,-0.002100044999267173,0.0075858674738600185,0.9932943672067717
2017-09-11,-1,-0.0006783976957064003,-0.0003193984233877409,-0.002100044999267173,0.0075858674738600185,0.9938097942175418
2017-09-13,0,-5.36969270026682e-05,0.0001967403988183305,-0.003213696729867083,0.006366711286772561,0.994341504022691
2017-09-15,1,0.0009389539954888445,0.0010066533153794076,-0.003213696729867083,0.006366711286772561,0.9944496569549526
2017-09-19,1,0.0014278447661902442,0.0014371531937311128,-0.003213696729867083,0.006366711286772561,0.9947200873447343
2017-09-21,1,0.0012390301762455025,0.0012623917471780138,-0.0017154493868177835,0.007169184774945473,0.9946858125546296
2017-09-25,1,0.0013820136121069138,0.0014749207529387272,-0.0003280984429939176,0.007169184774945473,0.9955054865218924
2017-09-27,1,0.0020213144915983304,0.0022015085833972615,-0.0013203533648028728,0.004394977984580857,0.996033977926503
2017-09-29,1,0.0018284180569906783,0.0019870946044630144,-0.000761446488505794,0.004394977984580857,0.9964050519359967
2017-10-03,1,0.0019147971760833627,0.002069495088159095,-0.0013203533648028728,0.002849747888872176,0.9959703332730656
2017-10-05,1,0.0019333832806354805,0.002080566516213417,-0.0015018149036308632,0.002849747888872176,0.9955145486918252
2017-10-09,1,0.0017428629050201968,0.0018394047671873894,-0.0022598340033017548,0.004394977984580857,0.9943536710376447
2017-10-11,1,0.0017092292564101438,0.0018198567140063854,-0.0023527959200689394,0.004394977984580857,0.9941061087576649
2017-10-13,1,0.001812961701138913,0.0019475256103411906,-0.0023527959200689394,0.004394977984580857,0.9939551690907348
2017-10-17,1,0.0021796251876976423,0.0023752526610217924,-0.0023527959200689394,0.007477769286051459,0.9935677913220626
2017-10-19,1,0.002205637694621304,0.002390196055335107,-0.0032897242990111253,0.008950412571852277,0.992501764895059
2017-10-23,1,0.002294233152692256,0.0025147766776953493,-0.0032897242990111253,0.008950412571852277,0.9925219201950539
2017-10-25,1,0.0022638228883467655,0.0024819055518951003,-0.003763858015612777,0.008950412571852277,0.9923238232518705
2017-10-27,1,0.002375508089124555,0.0025952212282562897,-0.003763858015612777,0.006447249700970371,0.9925960910473484
