JNU-Tangyin/eata/results/Batch4_SP500/Batch4_SP500-GRMN.csv
Date,Action,Predicted_Q25,Predicted_Q75,Actual_Q25,Actual_Q75,RL_Reward
2010-12-14,0,0.0,0.0,-0.0069595243937149295,0.007325562431327525,0.9922510651238916
2010-12-16,0,0.0,0.0,-0.0069595243937149295,0.0049434108077108,0.9917536021456271
2010-12-20,0,0.0,0.0,-0.0069595243937149295,0.0049434108077108,0.9905359025763986
2010-12-22,0,0.0,0.0,-0.007435841544508424,0.0049434108077108,0.9905882251519739
2010-12-27,0,0.0,0.0,-0.007435841544508424,0.007785728506864396,0.9895648909503492
2010-12-29,0,0.0,0.0,-0.006269482989905096,0.007785728506864396,0.9898200632097407
2010-12-31,0,0.0,0.0,-0.00870350106222365,0.006533616476492665,0.9897352796464617
2011-01-04,0,0.0,0.0,-0.00870350106222365,0.004754935596644582,0.9899051148816138
2011-01-06,0,0.0,0.0,-0.0071288520500876595,0.004754935596644582,0.9892203077628644
2011-01-10,-1,-0.0013504721056171746,-0.0009911732301981712,-0.0059610591820065915,0.007220302873665742,0.9891017264487063
2011-01-12,-1,-0.0014049236263264085,-0.0009737915331666813,-0.006964332528514455,0.007630656299107698,0.9890212182575026
2011-01-14,0,0.0,0.0,-0.007560564909063561,0.012210282224797092,0.987645304381348
2011-01-19,-1,-0.0009792172441663504,-0.0006373580279401301,-0.007153428759205815,0.007630656299107698,0.9896112021297098
2011-01-21,-1,-0.0020181465258532023,-0.0015475091928410967,-0.006883460319086274,0.012210282224797092,0.9882441930596835
2011-01-25,-1,-0.0005427216320266323,-0.00028567151525107264,-0.007153428759205815,0.008005618603329018,0.9883420006637594
2011-01-27,-1,-0.0003966165795820253,-0.0001902569438283439,-0.007153428759205815,0.012210282224797092,0.9873396062193912
2011-01-31,0,0.0,0.0,-0.007153428759205815,0.01462135294623514,0.9862181783436329
2011-02-02,0,0.0,0.0,-0.007153428759205815,0.016978390007912705,0.9851555005893959
2011-02-04,1,0.0009691368519664347,0.0010057791301607236,-0.007991671286171592,0.01567679260945278,0.9862945181621215
2011-02-08,1,0.0010351881369309055,0.001060384256469751,-0.009875288958697687,0.01567679260945278,0.9864231279570685
2011-02-10,1,0.0020367685110887768,0.002285087522430514,-0.009875288958697687,0.01567679260945278,0.9869540777102467
2011-02-14,1,0.0007488839047211865,0.0007586771511629881,-0.008376106107388483,0.01479552965232018,0.9873169668454957
2011-02-16,1,0.0016680014065423917,0.0019019652529722426,-0.009875288958697687,0.01479552965232018,0.9865608334893986
2011-02-18,1,0.002208065268240742,0.0024598893274960097,-0.009323281452456238,0.010933176060555357,0.9884088830744677
2011-02-23,1,0.0019320136761215019,0.0021045953010816187,-0.008224350264135462,0.010933176060555357,0.989735842240599
2011-02-25,1,0.0016153609309607912,0.0017164835953754876,-0.008224350264135462,0.007330606014643861,0.9904506716291376
2011-03-01,1,0.0015080090481359126,0.0016099300020739663,-0.007252607736924717,0.0068595281998212,0.9919649668219457
2011-03-03,1,0.0026984049059409175,0.002976037015545061,-0.007252607736924717,0.005819718286866913,0.9924166035350667
2011-03-07,1,0.0029453702814562907,0.0032831044022059138,-0.005495254939066023,0.004286307854840014,0.9932308722890834
2011-03-09,1,0.002558338843547409,0.002863221261147572,-0.004979162322487328,0.004729513203961834,0.9938791708343945
2011-03-11,1,0.0023786929721413192,0.002631612376886178,-0.00505983413190474,0.003997337318121833,0.9939193304985352
2011-03-15,1,0.00299682538463686,0.0033590937939918662,-0.00505983413190474,0.003997337318121833,0.9940482863429679
2011-03-17,1,0.0020222522958879227,0.002286558421150984,-0.003893117276650514,0.004820253097409933,0.9952912034074789
2011-03-21,1,0.0036090704412465886,0.004227724181726201,-0.004784343456451471,0.004220396581495363,0.9949483188272449
2011-03-23,1,0.002515689019103761,0.0028730500721543244,-0.004784343456451471,0.004820253097409933,0.9948076356139774
2011-03-25,1,0.0031788637548828616,0.0036567367509637893,-0.004784343456451471,0.005686013202289127,0.9945248586107172
2011-03-29,1,0.0029651335735306258,0.0033027417872304133,-0.004514294857534912,0.005686013202289127,0.9949657967959358
2011-03-31,1,0.0025218545147327248,0.0027917662480008635,-0.004514294857534912,0.005686013202289127,0.9947907457276863
2011-04-04,1,0.001621952593721601,0.0016860576098352783,-0.0054598066795132055,0.005686013202289127,0.9939292789021252
2011-04-06,0,0.0,0.0,-0.006049847003564373,0.006066036122090758,0.9913470487079701
2011-04-08,0,0.0,0.0,-0.006049847003564373,0.006066036122090758,0.9911733729445658
2011-04-12,1,0.00036871083898798766,0.0005344299494615527,-0.006049847003564373,0.006066036122090758,0.9912012668200159
2011-04-14,-1,-0.00038941334901735584,-8.641750625043478e-05,-0.005146606091012863,0.00579266493647111,0.991450667222147
2011-04-18,-1,-0.0010052954741115643,-0.0005964994774252566,-0.006519607013798549,0.00579266493647111,0.9910141475338178
2011-04-20,0,-0.00027269230051323913,4.962284605658442e-06,-0.006519607013798549,0.00579266493647111,0.9911567752765934
2011-04-25,0,0.0,0.0,-0.007165736292902865,0.005006469826514476,0.9902627919610657
2011-04-27,1,0.001610620945182337,0.001655548462970773,-0.009263782646374948,0.004427031271187868,0.9887923525737732
2011-04-29,1,0.001748301665474996,0.001901908390844456,-0.007165736292902865,0.004427031271187868,0.9895203173881614
2011-05-03,-1,-0.0005401125896355506,-0.0003051591969380888,-0.006801330853289369,0.005006469826514476,0.9898094322218286
2011-05-05,1,0.0013222440152088088,0.0013559487061934122,-0.007339616826956914,0.004427031271187868,0.9915719243799666
2011-05-09,1,0.0019829707472612257,0.0021191076379866716,-0.007339616826956914,0.0042256402567282325,0.9914900345385091
2011-05-11,0,0.0,0.0,-0.007339616826956914,0.004917665838516133,0.9917961851191057
2011-05-13,0,0.0,0.0,-0.009695940113487738,0.004295801529463952,0.9905040042734111
2011-05-17,0,0.0,0.0,-0.007339616826956914,0.004295801529463952,0.9907684285429863
2011-05-19,0,0.0,0.0,-0.007339616826956914,0.006073461876372541,0.9898560235175801
2011-05-23,0,0.0,0.0,-0.005129124236001947,0.008976351932698502,0.9908597042733523
2011-05-25,0,0.0,0.0,-0.004295998225406665,0.008976351932698502,0.9921454527583858
2011-05-27,0,0.0,0.0,-0.006011068544455857,0.008976351932698502,0.9898117686664782
2011-06-01,-1,-0.00015882948969181355,-7.600034682304392e-05,-0.009014301702464573,0.006073461876372541,0.9902062636939492
2011-06-03,-1,-0.0009138668797505692,-0.0007202675504563437,-0.004686475137907555,0.009184671717248473,0.9888306966559001
2011-06-07,-1,-0.002538346844481916,-0.0020500738625632148,-0.006109975353785231,0.009184671717248473,0.9883080109409249
2011-06-09,-1,-0.001899692943953927,-0.0014780706926241353,-0.006109975353785231,0.009184671717248473,0.9884849962449995
2011-06-13,0,0.0,0.0,-0.006122357690324119,0.009184671717248473,0.9893620582724958
2011-06-15,0,0.0,0.0,-0.009440099631343877,0.009184671717248473,0.989145901502567
2011-06-17,0,0.0,0.0,-0.009440099631343877,0.0019012319856484027,0.9900298356943809
2011-06-21,0,0.0,0.0,-0.009440099631343877,0.0019012319856484027,0.9899167458971434
2011-06-23,0,0.0,0.0,-0.009440099631343877,0.004223426266997167,0.9888878268008109
2011-06-27,0,0.0,0.0,-0.00686882245657037,0.005810237993133737,0.9908049550612954
2011-06-29,0,0.0,0.0,-0.00686882245657037,0.005810237993133737,0.99032521662801
2011-07-01,0,0.0,0.0,-0.0078089788332953575,0.0013982713820926214,0.9911710086530126
2011-07-06,-1,-0.0006406104781370244,-0.0005207943515623561,-0.0121207617673282,0.0013982713820926214,0.9899289115435406
2011-07-08,-1,-0.002043335356039514,-0.0018045303001018595,-0.013981760987217588,0.0013982713820926214,0.9873707422846324
2011-07-12,-1,-0.0033118735549422036,-0.002958375602941098,-0.01673073754829299,0.005810237993133737,0.9852316698069656
2011-07-14,-1,-0.0036835923620011837,-0.003313960729158327,-0.020689800450450737,0.010023007598967903,0.9830787857404506
2011-07-18,-1,-0.004886849572177631,-0.0043320653729759856,-0.020689800450450737,0.012736177073513126,0.9817151378292744
2011-07-20,-1,-0.0041851414647701875,-0.003772348247561794,-0.020689800450450737,0.014321922990283922,0.9810942470096257
2011-07-22,-1,-0.0029309123645926095,-0.002647153197128875,-0.02133890126578951,0.012736177073513126,0.9806397289335314
2011-07-26,0,0.0,0.0,-0.02133890126578951,0.015512889095679439,0.97933486499681
2011-07-28,-1,-0.0006391197951961193,-0.0005723804185312791,-0.020689800450450737,0.015512889095679439,0.9795558772078709
2011-08-01,-1,-0.0006413267544051601,-0.0005770636956613284,-0.020689800450450737,0.01743791921721068,0.9783735565569059
2011-08-03,0,0.0,0.0,-0.00962714571524448,0.01743791921721068,0.9802027091612925
2011-08-05,0,0.0,0.0,-0.014214887202748452,0.015645153877544598,0.9819984891679532
2011-08-09,0,0.0,0.0,-0.008975718602988082,0.015645153877544598,0.983531161888765
2011-08-11,0,0.0,0.0,-0.008975718602988082,0.015645153877544598,0.9851915282764194
2011-08-15,0,0.0,0.0,-0.013778360992167471,0.01712454308180986,0.9847959554683987
2011-08-17,0,0.0,0.0,-0.013778360992167471,0.01572965281046378,0.9847942051312963
2011-08-19,-1,-0.0016563051990998424,-0.001509908938595674,-0.009839151106148032,0.01572965281046378,0.9855678016968259
2011-08-23,-1,-0.001008846442008432,-0.0009424506328608261,-0.013778360992167471,0.011918000345088296,0.9864023926283539
2011-08-25,-1,-0.0012533849468937797,-0.001152265126427036,-0.014862826077618393,0.011918000345088296,0.9846079534275373
2011-08-29,-1,-0.0006648192600432428,-0.0006410470598774485,-0.014862826077618393,0.010175220370860348,0.98519885492752
2011-08-31,-1,-0.0007382774028356095,-0.0007254539713650205,-0.016452448914117113,0.011621269475542246,0.9841001929231732
2011-09-02,-1,-0.0009036649731764634,-0.0008292372841297723,-0.016452448914117113,0.011621269475542246,0.9844881114591181
2011-09-07,1,0.0005002870317721757,0.0006030602961729398,-0.016452448914117113,0.012057724194431805,0.9827455833321939
2011-09-09,1,0.0002941914724133852,0.00036864877741893637,-0.016452448914117113,0.012057724194431805,0.9835987198473651
2011-09-13,1,0.0005036241531507395,0.0006233318683750008,-0.010764150083472823,0.012057724194431805,0.983515867905679
2011-09-15,0,0.0,0.0,-0.010764150083472823,0.00900494875123801,0.9840349726917527
2011-09-19,0,0.0,0.0,-0.009474346767930582,0.012393305717449529,0.9837766936165918
2011-09-21,-1,-0.0018713871107269011,-0.001819150846947851,-0.005688323521985679,0.012393305717449529,0.9839495915157542
2011-09-23,-1,-0.0042027440530191355,-0.003872384418327465,-0.0027495584628597497,0.012393305717449529,0.9852171030643654
2011-09-27,-1,-0.0010978075318283894,-0.001067959504483817,-0.004442325003110735,0.012393305717449529,0.9864682626782396
2011-09-29,-1,-0.0013862263624613372,-0.0013737571295301969,-0.0027495584628597497,0.012334192402527111,0.9874387771301257
2011-10-03,0,0.0,0.0,-0.0027495584628597497,0.012334192402527111,0.9883459352570202
2011-10-05,1,0.001377337860219916,0.0016846173936859582,-0.004442325003110735,0.009170563761129326,0.9895781496395942
2011-10-07,1,0.0010272272169112597,0.001265801898164736,-0.00428534735865631,0.009170563761129326,0.989396768704759
2011-10-11,1,0.0023081285896227035,0.002737564240988404,-0.00428534735865631,0.009170563761129326,0.9904456747599376
2011-10-13,0,0.0,0.0,-0.005042777784071246,0.009170563761129326,0.9881618253208836
2011-10-17,0,0.0,0.0,-0.005042777784071246,0.006223428237170437,0.9887214171985687
2011-10-19,0,0.0,0.0,-0.005294605725579223,0.006223428237170437,0.9881548446642854
2011-10-21,0,0.0,0.0,-0.005480448734226673,0.005653810160518628,0.9881783617619794
2011-10-25,1,0.0003763164552514268,0.00043358031431233585,-0.005480448734226673,0.004492299966934903,0.989637199775898
2011-10-27,1,0.0005176952629284341,0.0005796959880858848,-0.005480448734226673,0.004492299966934903,0.9894875020747902
2011-10-31,1,0.0019897864989435595,0.002289287470916008,-0.005182866513414845,0.006699015629777451,0.98922760002185
2011-11-02,1,0.0025517970176145814,0.002862708109651522,-0.005042777784071246,0.006699015629777451,0.9901335633059114
2011-11-04,1,0.002537172176614828,0.002849862922095548,-0.004696110209415841,0.013214941100655056,0.9899673714299104
2011-11-08,1,0.0035655540169813064,0.004063089213543268,-0.005182866513414845,0.005755183461213635,0.9898515315809484
2011-11-10,1,0.0024249206024044272,0.0027865265552077705,-0.004377851850640544,0.013214941100655056,0.9918136957882765
2011-11-14,1,0.002384173207533969,0.00274039913812712,-0.004377851850640544,0.013214941100655056,0.9916386554968134
2011-11-16,1,0.0017462868239402466,0.0019224666265805629,-0.004377851850640544,0.011426793458239107,0.9914418898307487
2011-11-18,1,0.0013778782143031914,0.001492008563743126,-0.003681844632576814,0.013214941100655056,0.9911373007609597
2011-11-22,1,0.0016842764437858854,0.0019173727978051948,-0.000976399754580033,0.01585034082217026,0.9901206768645837
2011-11-25,0,0.0,0.0,0.0001897801815621997,0.01585034082217026,0.9890418479863545
2011-11-29,0,0.0,0.0,-0.001310047531791376,0.014793648315683427,0.9897422813579984
2011-12-01,0,0.0,0.0,-0.0029528189905256674,0.014793648315683427,0.9896024549026363
2011-12-05,1,0.0023230191264375323,0.002566487323953282,-0.005365736699919733,0.013920958066411967,0.9901134353547153
2011-12-07,1,0.002200475880879032,0.002425488450437272,-0.005406899001527457,0.013920958066411967,0.9899616287288951
2011-12-09,1,0.0026434612394400994,0.0029177266430946685,-0.005406899001527457,0.013920958066411967,0.9894261935424775
2011-12-13,1,0.00304962320932749,0.003400012141869235,-0.005866794478079562,0.013920958066411967,0.989235474222182
2011-12-15,1,0.002292548745510866,0.0025495413155222557,-0.005406899001527457,0.013920958066411967,0.9904420181023331
2011-12-19,1,0.0021575309174194355,0.002352491225477294,-0.005406899001527457,0.013920958066411967,0.9897565668927476
2011-12-21,1,0.0030539475668925325,0.0033462056332543583,-0.005866794478079562,0.007987835416639203,0.9907403316795658
2011-12-23,1,0.0023948314581090056,0.002526809723287435,-0.005866794478079562,0.0076901727641615885,0.9908777606110565
2011-12-28,1,0.002856669162420646,0.0031155774309443787,-0.005866794478079562,0.0076901727641615885,0.990856896236002
2011-12-30,1,0.0028568647300618605,0.0031140841731630365,-0.005866794478079562,0.0076901727641615885,0.9907748788390626
2012-01-04,1,0.0018894416892152423,0.001942659227862201,-0.005358674128309962,0.011527316263055969,0.9895782558881587
2012-01-06,1,0.002256302333098137,0.0023989998816952695,-0.005551660224042911,0.014497059838516584,0.9892337013406678
2012-01-10,1,0.003012685997818279,0.0032426121732199546,-0.00665681060380665,0.00923167946661476,0.9898615602986173
2012-01-12,1,0.002372233863646901,0.002475090948256801,-0.005634317923784693,0.00923167946661476,0.9903913749637024
2012-01-17,1,0.0025928269415745136,0.0027691720200324708,-0.005634317923784693,0.009467694441056877,0.9902769530966151
2012-01-19,1,0.0031096764586707286,0.0033090296771367544,-0.005634317923784693,0.008022773947130978,0.9914275642356319
2012-01-23,1,0.0033297011902632366,0.0036541203535933914,-0.003526680601385411,0.009080003404683413,0.9918106528058293
2012-01-25,1,0.0027632761967075793,0.003019636321152227,-0.004661930767528912,0.011931337890387828,0.9872836222763093
2012-01-27,1,0.0014552682354147238,0.001482430828669392,-0.005881685323041473,0.011931337890387828,0.9870280927815647
2012-01-31,1,0.0023426083788868606,0.002532967431020538,-0.005881685323041473,0.009080003404683413,0.9878283065987055
2012-02-02,1,0.002860095428957037,0.0030916745935660717,-0.00900762519285054,0.0057062296839917506,0.9887959638909616
2012-02-06,1,0.002541108205124975,0.002716878861985645,-0.006518386189282335,0.0057062296839917506,0.9891293844125498
2012-02-08,1,0.0024592448691822333,0.0026701402946367856,-0.005051938988518738,0.00640196306396817,0.9895842624032484
2012-02-10,1,0.002622121315933706,0.002834248031496795,-0.005051938988518738,0.006325171636526726,0.9894705729710259
2012-02-14,1,0.002048928889274379,0.0021256117653510355,-0.005051938988518738,0.00588965968719172,0.9898181319985663
2012-02-16,1,0.001199816150474405,0.0012869979547105348,-0.006518386189282335,0.00588965968719172,0.9889948631103621
2012-02-21,1,0.0012078551673661412,0.001258177068974686,-0.008718567769539455,0.00588965968719172,0.9886281575010321
2012-02-23,1,0.002616614405845848,0.0027489883051764084,-0.006031126584716535,0.00588965968719172,0.9931049247961068
2012-02-27,1,0.0013182485638236745,0.0014433436142827706,-0.00482689366491087,0.00588965968719172,0.9941625322902791
2012-02-29,1,0.002111132735325985,0.0022076860452360523,-0.00482689366491087,0.005300171672112052,0.9943935177175863
2012-03-02,1,0.0015375052732561558,0.001539186558495244,-0.00482689366491087,0.005300171672112052,0.9945885695408957
2012-03-06,1,0.0022377373931706168,0.002373306563769687,-0.0019567823261331797,0.005300171672112052,0.9950604287776852
2012-03-08,0,0.0,0.0,-0.005454073690138455,0.0045534573924004024,0.9938027883918739
2012-03-12,0,0.0,0.0,-0.008683939020684414,0.0045534573924004024,0.9920540676687638
2012-03-14,0,0.0,0.0,-0.008683939020684414,0.005312227128982026,0.9915748206243692
2012-03-16,0,0.0,0.0,-0.008325795672387969,0.005312227128982026,0.991821533437211
2012-03-20,0,0.0,0.0,-0.007855746253207733,0.005312227128982026,0.9918597864997138
2012-03-22,0,0.0,0.0,-0.008129680226886775,0.0034718524103974926,0.9917350748522403
2012-03-26,0,0.0,0.0,-0.00864598373146899,0.005032645932239815,0.9911732796449543
2012-03-28,0,0.0,0.0,-0.008129680226886775,0.00811661903145287,0.9886702792135491
2012-03-30,0,0.0,0.0,-0.00864598373146899,0.00811661903145287,0.9882428398353649
2012-04-03,0,0.0,0.0,-0.00864598373146899,0.008986585785925472,0.9865302591027423
2012-04-05,0,0.0,0.0,-0.009052301189971662,0.008986585785925472,0.9853398219683109
2012-04-10,0,0.0,0.0,-0.00864598373146899,0.008986585785925472,0.9858416845637371
2012-04-12,0,0.0,0.0,-0.009052301189971662,0.0077107159657022,0.9861624355792697
2012-04-16,-1,-0.0040641182439869385,-0.0033018371295567466,-0.01039542260425498,0.0077107159657022,0.9864466956971535
2012-04-18,0,0.0,0.0,-0.01039542260425498,0.007036719458561127,0.9862641879209569
2012-04-20,0,0.0,0.0,-0.016610956783521567,0.007036719458561127,0.9850041374447084
2012-04-24,0,0.0,0.0,-0.016610956783521567,0.007036719458561127,0.9848549462807352
2012-04-26,1,0.0005287499754080456,0.0006666422297981534,-0.016610956783521567,0.004604513490585863,0.9876991254951121
2012-04-30,0,-0.0001818049504148803,2.3224193691235326e-05,-0.016610956783521567,0.004604513490585863,0.9872635906637303
2012-05-02,1,0.001319325076443605,0.0013466102823159833,-0.016610956783521567,0.001638435584156873,0.9878350617054903
2012-05-04,0,0.0,0.0,-0.013915329359779665,0.001638435584156873,0.9893234873274462
2012-05-08,0,0.0,0.0,-0.012394964598235143,0.001638435584156873,0.9897969690623492
2012-05-10,0,0.0,0.0,-0.013915329359779665,0.004099858583684177,0.9885800480437743
2012-05-14,0,0.0,0.0,-0.013915329359779665,0.0069663234375384984,0.9838633855399324
2012-05-16,0,0.0,0.0,-0.020834486070098388,0.003931839258211275,0.9817356336354379
2012-05-18,0,0.0,0.0,-0.014861192812622118,0.01178300457938454,0.982687970658964
2012-05-22,0,0.0,0.0,-0.016508489436213702,0.01178300457938454,0.9819761204057749
2012-05-24,0,0.0,0.0,-0.02085108873424253,0.01178300457938454,0.9803762573963481
2012-05-29,-1,-0.0037393927691615862,-0.0032326158264857014,-0.02085108873424253,0.009454194857505524,0.9824817379479387
2012-05-31,-1,-0.0046641863774280114,-0.004050758217998005,-0.02085108873424253,0.011192325365417545,0.9821575584757302
2012-06-04,-1,-0.005060504661696245,-0.004462634268297105,-0.016508489436213702,0.01178300457938454,0.9811595050785554
2012-06-06,-1,-0.004642244937760722,-0.004096428603689577,-0.018927457241926782,0.011192325365417545,0.9807363326013145
2012-06-08,-1,-0.004604890755370002,-0.004067160000778092,-0.016214604452986583,0.009391072687362893,0.9817210462653133
2012-06-12,-1,-0.006204705600917395,-0.005539624262522991,-0.016214604452986583,0.008663339086733108,0.9865589035356667
2012-06-14,-1,-0.008235961106234273,-0.007319523533112072,-0.01453239338415278,0.008663339086733108,0.9871799674743139
2012-06-18,-1,-0.007082992579900344,-0.006316648341511203,-0.01453239338415278,0.006980667318097861,0.9881121424103705
2012-06-20,-1,-0.0070995488996438115,-0.006315479522452805,-0.013425913247174771,0.006980667318097861,0.9880309820291101
2012-06-22,-1,-0.008193800660587057,-0.007302353677246542,-0.013425913247174771,0.006980667318097861,0.9876208676267324
2012-06-26,-1,-0.006787779629522507,-0.006137969641351625,-0.013425913247174771,0.00924271592270378,0.9854659379248687
2012-06-28,-1,-0.00684730188790573,-0.006201359361781473,-0.012009641895379265,0.00963352635934836,0.9844877747649792
2012-07-02,-1,-0.005537491488764619,-0.00503399153643477,-0.012009641895379265,0.0075610905022952405,0.9869930953745812
2012-07-05,-1,-0.005402430387964993,-0.0049340937753409135,-0.0054165327806108615,0.014440327681519795,0.9856564259057968
2012-07-09,-1,-0.005400151163167532,-0.004955154265366801,-0.003966125530074815,0.014440327681519795,0.9862819201217149
2012-07-11,-1,-0.005752041379064471,-0.005287592469317666,-0.0031381621810713254,0.0178455433806983,0.9852689629122371
2012-07-13,-1,-0.005412903903087618,-0.005012381334128884,-0.0024300281508776353,0.0178455433806983,0.9850761663446596
2012-07-17,-1,-0.00464872739074301,-0.004305033127882251,-0.003966125530074815,0.0178455433806983,0.9858276238183785
2012-07-19,-1,-0.00391710223847411,-0.003642144731284387,-0.003966125530074815,0.013827516841579398,0.9871516418963574
2012-07-23,0,0.0,0.0,-0.002342294548766332,0.016328578518646216,0.9889536557567812
2012-07-25,0,0.0,0.0,-0.002874961374737415,0.012425522648762616,0.9909093275317711
2012-07-27,0,0.0,0.0,-0.004577277973290856,0.009321696673652301,0.9914560543064639
2012-07-31,0,0.0,0.0,-0.005410117456939437,0.009321696673652301,0.9910862495689476
2012-08-02,0,0.0,0.0,-0.005440200847457496,0.005630844048321434,0.9922493931403394
2012-08-06,0,0.0,0.0,-0.006186083594622106,0.00677530485134622,0.9915506650268382
2012-08-08,0,0.0,0.0,-0.006186083594622106,0.006268166999109218,0.9916048787389699
2012-08-10,0,0.0,0.0,-0.00854887305723267,0.004660548983986271,0.9902589861965805
2012-08-14,1,0.0006490832509885561,0.0011317479328718152,-0.005410117456939437,0.006473113908512461,0.9904132447114381
2012-08-16,1,0.0011430278775339542,0.0017086918375770691,-0.005410117456939437,0.011874506552228117,0.9891601855693187
2012-08-20,1,0.001752375531262261,0.0023855273523300715,-0.006497263670272641,0.009752865369683866,0.9890906117297243
2012-08-22,1,0.0016560725423337222,0.002270970800705552,-0.006881084106086521,0.009752865369683866,0.9890902495161024
2012-08-24,1,0.0012718118760023894,0.0018682995509425448,-0.005560069051521118,0.009752865369683866,0.9903377198803234
2012-08-28,1,0.0010412619446822917,0.0015618696099636215,-0.006881084106086521,0.009752865369683866,0.9892127503607278
2012-08-30,1,0.0001451611845277892,0.00048488207144337233,-0.005946366686867926,0.012211222282147036,0.9883915358612064
2012-09-04,1,0.0006358483496717356,0.0010863626230294696,-0.00525570233727699,0.012211222282147036,0.9892794149798187
2012-09-06,1,0.001254688351999422,0.0017654002699824605,-0.00525570233727699,0.012211222282147036,0.9892375293033139
2012-09-10,1,0.0013262345813696895,0.0018746872757983936,-0.00525570233727699,0.005666290767121742,0.9910139645960839
2012-09-12,1,0.0016701209315730576,0.0022506501166909033,-0.0063960649549885725,0.003833457672868353,0.989023595093722
2012-09-14,1,0.0029789005252675517,0.0037336233754265177,-0.006938143298242722,0.003622058765371005,0.9894177869720218
2012-09-18,1,0.0033458919427590524,0.004272075146060428,-0.006134491066551429,0.003622058765371005,0.9895742451927884
2012-09-20,1,0.0034227121315688032,0.004357437265353565,-0.006938143298242722,0.003622058765371005,0.989345498612019
2012-09-24,1,0.004673017583746194,0.0058163591030095715,-0.00810640150776679,0.003765863238258025,0.9871644187743953
2012-09-26,1,0.002702541906489039,0.0034610465091395107,-0.006938143298242722,0.003765863238258025,0.9895820898263945
2012-09-28,1,0.003086366301753379,0.0038600286410013754,-0.0070885738811610165,0.0029242432656210187,0.9903067485541677
2012-10-02,1,0.0029901462928518334,0.0037251449531004264,-0.00810640150776679,0.0029242432656210187,0.9894600729926111
2012-10-04,1,0.0034572911756598776,0.0042134911250568735,-0.010879756374664522,0.002188141640067816,0.9888495151111364
2012-10-08,1,0.003550105995855119,0.004342769000583483,-0.015863055868168024,0.002188141640067816,0.9879994257956972
2012-10-10,1,0.0009106066706683262,0.001272031896770182,-0.010879756374664522,0.0029206334610280653,0.9903890154991145
2012-10-12,1,0.00152596714379678,0.0020192863007914906,-0.013866703895984342,0.002188141640067816,0.9900411068503873
2012-10-16,1,0.001505294250588383,0.0019977446490324026,-0.013866703895984342,0.0029206334610280653,0.9887099768833408
2012-10-18,1,0.0015422037516361628,0.0020419272768081023,-0.013866703895984342,0.0046403309336878395,0.9886555278745259
2012-10-22,1,0.0009725473030245842,0.0013638246711629087,-0.009079185933939745,0.0045578006249758565,0.9897671353712005
2012-10-24,1,0.0004200129690093309,0.0006794721967940898,-0.009079185933939745,0.010419116430634884,0.9891802277544256
2012-10-26,0,0.0,0.0,-0.013078070908132514,0.011679408865275806,0.9878005534735934
2012-11-01,0,0.0,0.0,-0.00902534029148465,0.011679408865275806,0.9889803608307106
2012-11-05,0,0.0,0.0,-0.00619662257648484,0.014736354734769476,0.9884813026841455
2012-11-07,-1,-0.0031502933560696544,-0.0026839981539973495,-0.004995983631984354,0.01521439593739939,0.9864010868929535
2012-11-09,0,0.0,0.0,-0.004995983631984354,0.014736354734769476,0.9878336795199464
2012-11-13,0,0.0,0.0,-0.004995983631984354,0.014736354734769476,0.9868442551587956
2012-11-15,-1,-0.0029873197304871816,-0.002534893284123514,-0.004995983631984354,0.011952743024973842,0.9872428953643079
2012-11-19,-1,-0.002617036412946871,-0.002200399305851172,-0.004995983631984354,0.015585811162919551,0.9858287986119478
2012-11-21,0,0.0,0.0,-0.008095269986411687,0.015585811162919551,0.9856328991588521
2012-11-26,-1,-0.0014552950171541985,-0.0012298782219070015,-0.01040266334128686,0.012821040797102664,0.9857012535346492
2012-11-28,-1,-0.0013487082865292778,-0.00111932127113536,-0.009012765727622453,0.0119579771945435,0.9865379120785165
2012-11-30,-1,-0.001503133367541367,-0.0012350419361198237,-0.01040266334128686,0.015601513671628521,0.9844053160308976
2012-12-04,-1,-0.0011498653667230973,-0.000885793647721962,-0.01040266334128686,0.015601513671628521,0.9840615514772695
2012-12-06,0,0.0,0.0,-0.01040266334128686,0.0119579771945435,0.9869344246392723
2012-12-10,0,-3.7928785843046133e-06,0.00010675830997554874,-0.012089846373971038,0.007954092106962986,0.9842576238002395
2012-12-12,0,0.0,0.0,-0.01040266334128686,0.007683071918002367,0.9856108672974895
2012-12-14,0,0.0,0.0,-0.009012765727622453,0.009555850874011425,0.9857456283092236
2012-12-18,0,0.0,0.0,-0.009012765727622453,0.004362729998939238,0.9875291176007882
2012-12-20,0,0.0,0.0,-0.006314971423145331,0.004362729998939238,0.9880123208830303
2012-12-24,0,0.0,0.0,-0.005128008834903499,0.005891415806114847,0.9878136860456663
2012-12-27,0,0.0,0.0,-0.005249861857441003,0.004831141343339968,0.9881135873759316
2012-12-31,0,0.0,0.0,-0.005249861857441003,0.004196017379725881,0.9898842376001636
2013-01-03,0,0.0,0.0,-0.005249861857441003,0.004196017379725881,0.9906558439110742
2013-01-07,0,0.0,0.0,-0.008905828218617753,0.004196017379725881,0.9896440143812605
2013-01-09,-1,-0.0016194275293339674,-0.0014971399744800246,-0.005985696161086248,0.005381852551267805,0.9927496666961105
2013-01-11,-1,-0.0011777625719119563,-0.001114000067304644,-0.005985696161086248,0.004881714693627734,0.9929569654332585
2013-01-15,-1,-0.0003769554665244569,-0.0003081117248714265,-0.005985696161086248,0.004881714693627734,0.9919695261054756
2013-01-17,-1,-0.0007724724474765341,-0.0007646586521312896,-0.005979153602965667,0.005808004351735728,0.9916954845319409
2013-01-22,-1,-0.0019624427583847773,-0.0017818322153424025,-0.005979153602965667,0.005808004351735728,0.987857667503582
2013-01-24,-1,-0.0013053529202510029,-0.0011734925095774633,-0.005979153602965667,0.004881714693627734,0.9882564374744733
2013-01-28,-1,-0.0016153369991329307,-0.001425469893835045,-0.008905828218617753,0.004655105306426929,0.9874932941283151
2013-01-30,-1,-0.0021360583996862265,-0.0018822255338630583,-0.007836004724234095,0.005808004351735728,0.9872455896449042
2013-02-01,-1,-0.0011073747689430268,-0.0010161953802683482,-0.007836004724234095,0.006894365867553261,0.9865546957163717
2013-02-05,-1,-0.00199909453092177,-0.0017889349055944404,-0.005141541332901659,0.006894365867553261,0.9871014634557035
2013-02-07,-1,-0.001108309301512871,-0.001033794382595011,-0.006119080543644741,0.008420867438211396,0.9866861738146472
2013-02-11,-1,-0.0005442055448071103,-0.00048277762593804075,-0.005745840125704622,0.008420867438211396,0.9868711203598596
2013-02-13,0,-8.42558510238698e-05,1.5711609626509334e-05,-0.008255785546271316,0.006678702991690508,0.9866187750832262
2013-02-15,1,0.00044050344414965805,0.0006095325243653765,-0.00935593963670466,0.00399823130769302,0.9865800384435577
2013-02-20,1,0.0007611503384300697,0.0009883521766839735,-0.00935593963670466,0.00399823130769302,0.9899465385371492
2013-02-22,-1,-0.00017124712940308958,-0.00012286293475733998,-0.009310606376811527,0.00399823130769302,0.990173291906704
2013-02-26,-1,-0.00034291485354202546,-0.000269975347050027,-0.008255785546271316,0.005871620584075027,0.9909802833265057
2013-02-28,-1,-0.0002751562406431811,-0.00019765199945732403,-0.00833918050415847,0.0037453388719496266,0.9913673501489362
2013-03-04,1,0.001191484253331378,0.0015101267655075064,-0.009573715141247083,0.0030346680689207323,0.9895079731942843
2013-03-06,1,0.0011059417134539752,0.0014098441677128566,-0.009644896182688404,0.0030346680689207323,0.9885091167710728
2013-03-08,1,0.0005388262058036359,0.0006644902934141402,-0.009644896182688404,0.0035133066796695215,0.9894104763490128
2013-03-12,1,0.0006993781501158048,0.0008530762604666835,-0.009644896182688404,0.004854830615780766,0.9883195590685265
2013-03-14,-1,-4.9370446932113114e-05,-2.6918035591457694e-06,-0.009573715141247083,0.004854830615780766,0.9896727360474656
2013-03-18,-1,-0.000617915669601304,-0.0005850730622732602,-0.009573715141247083,0.004854830615780766,0.9888144389109566
2013-03-20,-1,-0.00162294907928604,-0.0014594676223296326,-0.009573715141247083,0.005224292753262676,0.9886225873103135
2013-03-22,-1,-0.0018007077678436952,-0.0016152352378393238,-0.010427930121638248,0.005224292753262676,0.98832637813164
2013-03-26,-1,-0.0019262026701771426,-0.0017149800328975086,-0.010427930121638248,0.00784845907571289,0.9863299827906155
2013-03-28,-1,-0.0028902734464937713,-0.0025519726046508958,-0.013059634318252439,0.011481208085134427,0.9844880751292864
2013-04-02,-1,-0.002273831063208522,-0.0019807470485245053,-0.009815491872019869,0.010313275795987713,0.9867530246740596
2013-04-04,-1,-0.0033332028698572413,-0.002906241852249485,-0.009815491872019869,0.016144903472362047,0.9846530008265643
2013-04-08,-1,-0.003142490581089609,-0.0027326824479096947,-0.009815491872019869,0.016144903472362047,0.9840816562728328
2013-04-10,-1,-0.0027922498939071273,-0.0023945306138934107,-0.009815491872019869,0.013870586966960887,0.9845434850297242
2013-04-12,-1,-0.0018947900652868175,-0.0016416217739172053,-0.01099165164964553,0.016144903472362047,0.9837589878087653
2013-04-16,-1,-0.002714293491017712,-0.002397749476706808,-0.01099165164964553,0.016144903472362047,0.9842608586170697
2013-04-18,-1,-0.002727220873602826,-0.002428471337021616,-0.009187955739953416,0.016144903472362047,0.9840559016009508
2013-04-22,-1,-0.0032719433040224576,-0.002931591802516957,-0.004896549371777508,0.016144903472362047,0.9837190355882152
2013-04-24,-1,-0.0011297340394857197,-0.001059252999103465,-0.007065023205549927,0.013679844076055422,0.9854044468289039
2013-04-26,-1,-0.000918887530579998,-0.0008855393431081873,-0.006844418874445292,0.01347441109673401,0.9871511574668673
2013-04-30,1,8.065872110616783e-05,0.00023233433776838634,-0.00848499293216414,0.011481378238575797,0.9873042630637262
2013-05-02,1,0.0004566720341774443,0.0007023713305433906,-0.00848499293216414,0.011481378238575797,0.9889036141226657
2013-05-06,1,0.0014631962742869748,0.0018518300531922536,-0.00848499293216414,0.01073321065501551,0.9895201138897982
2013-05-08,1,0.001497841241978261,0.0018385678740886493,-0.010519561213173302,0.010913297722960374,0.9882163079451103
2013-05-10,1,0.0018122344956418223,0.0021767372144444784,-0.008640438627758366,0.010913297722960374,0.9890892118481844
2013-05-14,1,0.002072789198294578,0.002567640543718307,-0.008640438627758366,0.010913297722960374,0.9887525717024842
2013-05-16,1,0.002468269045650348,0.0029583009462594797,-0.012179273493669554,0.010913297722960374,0.9875689626856832
2013-05-20,1,0.00245902514503165,0.0029060879867213443,-0.012179273493669554,0.012026153511258934,0.9858817658909322
2013-05-22,1,0.0018087305545099219,0.0022049968278219194,-0.016662324765116348,0.012026153511258934,0.9853324073823809
2013-05-24,1,0.0011995350900365343,0.0014950039936034907,-0.016662324765116348,0.013488257212269537,0.9854615838419137
2013-05-29,1,0.0018267384747140125,0.002252487430812033,-0.016662324765116348,0.014542352638963174,0.9854298485909442
2013-05-31,1,0.0017286474423305897,0.0021423734476353814,-0.009616669268325315,0.014658110140907898,0.9859994422624128
2013-06-04,1,0.0004899724011424853,0.0006045991186165471,-0.016968272309976728,0.014658110140907898,0.9845128158249108
2013-06-06,1,0.0002962301581062167,0.00040458688007039245,-0.009616669268325315,0.014658110140907898,0.9856392168860272
2013-06-10,1,0.0010698278701618013,0.0013029626487663392,-0.012004388530894835,0.01350488177753854,0.9856607087453603
2013-06-12,1,0.0001513617271174629,0.0002453187526390352,-0.005498728561833232,0.014757608115965683,0.9855367207416871
2013-06-14,-1,-0.0005090445832536134,-0.00048239630842081716,-0.0034936450264093084,0.01500641245469458,0.9861842680715561
2013-06-18,1,0.0013062811803107536,0.0015009648191792561,-0.005498728561833232,0.011749136482828324,0.9887326660564152
2013-06-20,-1,-0.00013182967572724784,-0.00012724385013729718,-0.00249929704118418,0.011749136482828324,0.9900929613250263
2013-06-24,-1,-5.9103755654085976e-05,-4.631070044548749e-05,-0.0017471210847083266,0.012111584668572206,0.9897205291590321
2013-06-26,1,0.001027191753615422,0.0011829421446638913,-0.00249929704118418,0.007901219741589758,0.9901224828581524
2013-06-28,1,0.0012494157350268547,0.0013890467525264948,-0.005109854107632146,0.0075151051587207095,0.9906598534687638
2013-07-02,1,0.0005151980686311413,0.00058445145380005,-0.00249929704118418,0.008808845908589581,0.9879976289791657
2013-07-05,1,0.0005025910950131733,0.0005532205389811306,-0.003126633530642502,0.008808845908589581,0.9881432900930042
2013-07-09,1,0.0006540750430625026,0.0007624148819601545,-0.0034987717945543628,0.008808845908589581,0.9882447187895498
2013-07-11,1,0.001781102439013709,0.002069076007058104,-0.004548188766774779,0.00723163152003031,0.9889100319580341
2013-07-15,1,0.002547947701641128,0.002937079361076262,-0.004548188766774779,0.005728575317938599,0.9887128043518001
2013-07-17,1,0.0016823182587046544,0.0019224467835532635,-0.004985889542170654,0.005728575317938599,0.9888667207326719
2013-07-19,1,0.001572859172627672,0.001752607195968718,-0.010431344963851483,0.0033801867096371688,0.9876250100015762
2013-07-23,1,0.0022684016148827165,0.0025392300566315076,-0.010431344963851483,0.0077889971508866085,0.9879101536537421
2013-07-25,1,0.0025593943174770086,0.0029316140884975686,-0.008287061776932609,0.009198500257303878,0.9865095708255289
2013-07-29,1,0.0021171837013857307,0.0024223975324084964,-0.005236463261016773,0.009198500257303878,0.9868109839745638
2013-07-31,1,0.004413939765935878,0.005040454886621179,-0.00850617178331166,0.003267233097594047,0.9883860512135619
2013-08-02,1,0.004153046678686307,0.004748536850384523,-0.011105731859239304,0.007991395993640637,0.9866206280404489
2013-08-06,1,0.003104323737846037,0.003506788623047324,-0.008523228659562322,0.011472849253197028,0.9865527632099094
2013-08-08,1,0.0024775768777715763,0.0027578070210741543,-0.010255417538618666,0.011472849253197028,0.9863001890605555
2013-08-12,1,0.0022988080331648526,0.0024915877818851148,-0.010255417538618666,0.010511872289769002,0.9864546847337714
2013-08-14,1,0.0014276112424615288,0.0014851203014195945,-0.010255417538618666,0.012476678504620326,0.9858024803308041
2013-08-16,1,0.00023427970562494899,0.00032405454542631885,-0.004709480936543447,0.012476678504620326,0.9864222744297395
2013-08-20,1,0.0006368391987334038,0.0006984896632749079,-0.004709480936543447,0.014430305128820858,0.9855376216550873
2013-08-22,1,0.002917638606094951,0.00321204855937904,-0.006641786703018139,0.012476678504620326,0.9868208382861356
2013-08-26,1,0.0020597059064835985,0.0021787363697984077,-0.006641786703018139,0.012476678504620326,0.9864933756100127
2013-08-28,1,0.0013171559475268664,0.0013530376878992411,-0.0016820188491073035,0.014430305128820858,0.9861399198335596
2013-08-30,1,0.002663512333225743,0.0029131307464866675,-0.0016820188491073035,0.012476678504620326,0.988955919149091
2013-09-04,1,0.004028748344766143,0.004473168128310851,-0.0016820188491073035,0.012476678504620326,0.9891429487123602
2013-09-06,1,0.002774548960600276,0.0029767662344557266,-0.0003439656755976592,0.012476678504620326,0.9891676064468133
2013-09-10,1,0.0031893042085220065,0.0034167998559389004,-0.00333165456752226,0.011838359187046704,0.9885878573091981
2013-09-12,1,0.002281011912924045,0.0023273027383638257,-0.001720461995086944,0.013243179810273523,0.988398746839993
2013-09-16,1,0.003528142453643754,0.0038323932445191045,-0.001720461995086944,0.013243179810273523,0.9888743659431879
2013-09-18,1,0.004849602389811218,0.005346602266864432,-0.00333165456752226,0.013243179810273523,0.9881493502949391
2013-09-20,1,0.003909529293188959,0.004297023986589697,-0.00293819630162029,0.013243179810273523,0.989559251134763
2013-09-24,1,0.0037408805784736867,0.004065269302441568,-0.00293819630162029,0.009748945371535703,0.9900765968574033
2013-09-26,1,0.004907175383985765,0.005424420251946869,-0.003883463852855533,0.006083292549132777,0.9899125613129899
2013-09-30,1,0.004714122583697245,0.00522238268601984,-0.004474083231622932,0.006083292549132777,0.9892027882735637
2013-10-02,1,0.006276200526244281,0.007007788002650339,-0.004474083231622932,0.004532597575999758,0.989720512621609
2013-10-04,1,0.005572137429785241,0.006158084787257754,-0.007877745035037801,0.004532597575999758,0.9886609944748331
2013-10-08,1,0.004877459368628714,0.005415794268937432,-0.003118480909814928,0.005714798555233433,0.989434337143316
2013-10-10,1,0.005910158921744615,0.00659159509386081,-0.004925512101029695,0.004532597575999758,0.9881570495752687
2013-10-14,1,0.0050695752316769795,0.0055700710265548965,-0.007983658842507934,0.004532597575999758,0.9881594483465476
2013-10-16,1,0.005246512450111085,0.005728411552944033,-0.004509387834112977,0.0038031547219604905,0.9894733616972964
2013-10-18,1,0.0050563738391818675,0.005498458375802115,-0.004137863156974342,0.004532597575999758,0.9886452478828014
2013-10-22,1,0.005049606541391923,0.005464591344358317,-0.008501697144550324,0.004532597575999758,0.9877157790874282
2013-10-24,1,0.004271509138301297,0.004558719591729388,-0.004137863156974342,0.0058034755411403485,0.9888742406685311
2013-10-28,1,0.0029262734913803566,0.0030000878115756667,-0.00236675817771024,0.0058034755411403485,0.9901758911726961
2013-10-30,1,0.0032915209683315526,0.003433228605736128,-0.00236675817771024,0.0070982495757639565,0.9897490782981464
2013-11-01,1,0.001488623949029726,0.0016314281550130292,-0.002541366184586606,0.0070982495757639565,0.9914179514758517
2013-11-05,1,0.0020858215049937966,0.002196271730697501,-0.00482643527125971,0.00562278071314831,0.991134520238894
2013-11-07,1,0.0016644444387346876,0.0017229800728244978,-0.0037479874094929373,0.009673563013908738,0.9915327293601065
2013-11-11,0,-0.00013305863257668453,0.000225204933777455,-0.0021690841331516615,0.009673563013908738,0.9919883368721127
2013-11-13,0,-0.0002376250382843813,0.0001279145282820904,-0.0057605978402188165,0.009673563013908738,0.9902327490467462
2013-11-15,1,0.001705447587487282,0.0018012867355145696,-0.011343148788563955,0.00562278071314831,0.9911068987809286
2013-11-19,1,0.0017868038592919445,0.0018484542898958931,-0.011541069872199307,0.004270171433955748,0.9911924191175918
2013-11-21,1,0.001168257873000279,0.001360722991650477,-0.011541069872199307,0.004270171433955748,0.9912965379914367
2013-11-25,1,0.0010521361430510295,0.0012626577911345335,-0.011541069872199307,0.0027650749343461423,0.9916263475254563
2013-11-27,1,0.0008964495332128904,0.0011476722253124182,-0.011541069872199307,0.0027650749343461423,0.9915276295760826
2013-12-02,1,0.0007566362931403027,0.0009856104610416437,-0.011541069872199307,0.0027650749343461423,0.9914144649819763
2013-12-04,1,4.08017278757868e-06,0.00027808850613158143,-0.010419680460325417,0.004723507494936207,0.9897369904662762
2013-12-06,1,0.0006425940085922661,0.0008771822925303581,-0.012425469613975714,0.0015727547086500813,0.9902684007897294
2013-12-10,1,0.0006224541353754372,0.0008514946879468526,-0.012585988329980584,0.00129266101814667,0.9895803285184174
2013-12-12,-1,-0.0005789346236272977,-0.00023993690560934744,-0.010419680460325417,0.002795218338842935,0.9912663814632723
2013-12-16,-1,-0.0015659294656840696,-0.0010907028510276063,-0.007115401262296421,0.007413505943776529,0.9900237855344765
2013-12-18,-1,-0.002596917637517681,-0.0019750283403086938,-0.006141378628579814,0.007413505943776529,0.990643564598673
2013-12-20,-1,-0.001246617433582819,-0.0008956276333042998,-0.006141378628579814,0.005006480613947722,0.9908210249783326
2013-12-24,-1,-0.0014375194879001688,-0.0010468922543847667,-0.009752962154146201,0.005006480613947722,0.9897343102378598
2013-12-27,-1,-0.0015712889267012053,-0.0011332553437231137,-0.009752962154146201,0.005006480613947722,0.9898891462126173
2013-12-31,-1,-0.002310042959950863,-0.0017739577569204925,-0.010153255106030313,0.008091876863781126,0.9884776172679887
2014-01-03,-1,-0.0019051483211908569,-0.0014416063207357067,-0.012687888880681997,0.005006480613947722,0.9893132012734179
2014-01-07,-1,-0.0031345294510104838,-0.0024974974672133405,-0.010153255106030313,0.008091876863781126,0.9894462899063016
2014-01-09,-1,-0.004592318081273836,-0.0037292892957555344,-0.007044181981638645,0.009340510838301218,0.9876560687598526
2014-01-13,-1,-0.004031677787046488,-0.003255043739698997,-0.011328625248447133,0.012182034835920057,0.9868973751361586
2014-01-15,-1,-0.001567141664913081,-0.0011711854763489023,-0.011328625248447133,0.009340510838301218,0.9879248048336466
2014-01-17,-1,-0.002157492906047164,-0.0016792245947797938,-0.011328625248447133,0.01223468216373311,0.9867901323074055
2014-01-22,-1,-0.0030558173864419376,-0.002395589194518445,-0.011328625248447133,0.01666425041723407,0.9821091223260332
2014-01-24,-1,-0.003640647698645127,-0.002970516213168437,-0.004217059562230309,0.01666425041723407,0.9824679826009711
2014-01-28,-1,-0.002562179636317845,-0.0020810764234268117,-0.004217059562230309,0.01666425041723407,0.9828172682405423
2014-01-30,-1,-0.002833648801095937,-0.00229249021711751,-0.002714214271852752,0.01666425041723407,0.9830589222301033
2014-02-03,-1,-0.004247935854877432,-0.003579159124734682,-0.0011787549151023348,0.018507546135512067,0.9826882437461156
2014-02-05,-1,-0.004078656483622024,-0.003416813299627214,-0.002714214271852752,0.018507546135512067,0.9831612213860933
2014-02-07,-1,-0.0025432168481555406,-0.002089756508582924,-0.0053798882424314345,0.01666425041723407,0.9851815413303361
2014-02-11,-1,-0.001957011873816039,-0.0016388313474247186,-0.004217059562230309,0.013465904493715415,0.9860636134681983
2014-02-13,-1,-0.0017187055169235789,-0.0013820566796875727,-0.005769977225589203,0.009053231557985458,0.9858311564269654
2014-02-18,-1,-0.0007860049294725012,-0.0005744962767145593,-0.005769977225589203,0.013811682218339212,0.9851008807401952
2014-02-20,-1,-0.0015806986596618767,-0.0013275044330479553,-0.005769977225589203,0.009053231557985458,0.9893655263484269
2014-02-24,-1,-0.0016293140210999505,-0.0013601836405143844,-0.005769977225589203,0.00940335155344731,0.9894592582476743
2014-02-26,-1,-0.00035032720889963717,-0.00030893141683779456,-0.006632818765677059,0.013399404952728497,0.988831606672713
2014-02-28,1,0.000564564343912254,0.0006351716640153512,-0.008207254019855026,0.012030780235384777,0.9893166338687932
2014-03-04,1,0.0008673906772087059,0.0009321828497024698,-0.008207254019855026,0.009294533748256194,0.9900104194806179
2014-03-06,1,0.0007551323463082414,0.0008639797551780132,-0.005769977225589203,0.012030780235384777,0.989641782007142
2014-03-10,1,0.0003271059788891357,0.0003835410163219607,-0.005612788818932538,0.012030780235384777,0.9888126329093598
2014-03-12,1,0.0013303104111079525,0.0015618551642558826,-0.005612788818932538,0.013072951537155146,0.9887066456885544
2014-03-14,1,0.00024155494741808598,0.00033721402746735734,-0.005858740331906788,0.013072951537155146,0.9881848477789629
2014-03-18,1,0.001824893930890559,0.002150675867119063,-0.005858740331906788,0.008036099362034565,0.9901191937926309
2014-03-20,1,0.0018376136445064253,0.002144233179750519,-0.005858740331906788,0.008036099362034565,0.9897285065811624
2014-03-24,1,0.0016311011596858208,0.0018652442866871472,-0.005858740331906788,0.0072703426983075315,0.9896342704800348
2014-03-26,1,0.0020328167668579897,0.0023403476566009294,-0.005858740331906788,0.007041318651607152,0.990165064267126
2014-03-28,1,0.0015944538096679347,0.0017868911887768662,-0.005858740331906788,0.007041318651607152,0.9895072372228925
2014-04-01,1,0.002224894686235633,0.0025603580688269697,-0.005656395761694086,0.007254057003341074,0.9883717014163673
2014-04-03,1,0.002055837181118832,0.0023419201713742593,-0.005656395761694086,0.006968272573851301,0.9887327764184184
2014-04-07,1,0.0007023302757673503,0.0007878231021394,-0.005004937773333997,0.007443203476936941,0.9892198422173843
2014-04-09,1,0.001596003797378123,0.001797296097109952,-0.007767786880147509,0.006968272573851301,0.9883178211170794
2014-04-11,1,0.0005973961714767583,0.000736186437834511,-0.005004937773333997,0.007443203476936941,0.9897710628558833
2014-04-15,1,0.0009774707625054514,0.0011636602929039662,-0.006376464257230206,0.007443203476936941,0.9896640337522201
2014-04-17,1,0.001682293516978238,0.0019838830724534895,-0.009927992366755869,0.0073755859641699084,0.9892406775629274
2014-04-22,1,0.0017966746894273519,0.002122858238315199,-0.009927992366755869,0.00761391885316922,0.9890845830222847
2014-04-24,1,0.0014859741641947422,0.0017171220618398507,-0.007667990324258654,0.008260553981586937,0.9893895337403941
2014-04-28,1,0.0009756488621336764,0.0011928062740177783,-0.0054354464623434795,0.009824260105161952,0.9891392943840553
2014-04-30,1,1.924027049149647e-05,5.666197950857244e-05,-0.0054354464623434795,0.009824260105161952,0.9902479737826569
2014-05-02,1,0.0010581349208724368,0.0013082958061163888,-0.003921999224880896,0.008512309817418741,0.9912270182633715
2014-05-06,1,0.0016554470598383712,0.0019911846876877167,-0.007667990324258654,0.0074790556310672775,0.991254034511328
2014-05-08,-1,-0.0003928218629456079,-0.0003847538891637362,-0.001392502350174994,0.009620891328557934,0.9914722599247761
2014-05-12,-1,-0.0003693266139941819,-0.00033971465634280185,-0.00010441477595280672,0.009772984442499907,0.9912241107398679
2014-05-14,-1,-0.0010405207099927218,-0.0009023955183483214,-0.0012146206967314703,0.009772984442499907,0.9910140509911762
2014-05-16,-1,-0.0015489674922555755,-0.0013628531455335282,-0.0012146206967314703,0.009772984442499907,0.9905728332102101
2014-05-20,-1,-0.0013946651761665907,-0.0012356314635998717,0.00045262061216006926,0.011388793644697592,0.9900039506685945
2014-05-22,-1,-0.0005467821537757965,-0.0005074136895967478,-0.0021910930064129486,0.011388793644697592,0.9902351119357716
2014-05-27,1,0.00041626554455180813,0.0004752104450343741,-0.0028436268525191596,0.009995432246241116,0.9922029565217638
2014-05-29,1,0.0012805884031623685,0.001463153709501286,-0.005001942912764576,0.008854446371061362,0.9921838983750948
2014-06-02,1,0.0007940444703288022,0.0008677933230002024,-0.004959842904213638,0.010213895228985997,0.9911615153314673
2014-06-04,1,5.7041299819811825e-05,0.00011712089528344641,-0.0021770596702293025,0.010213895228985997,0.9916362482792125
2014-06-06,1,0.0012195301775296786,0.0013259860092652551,-0.0039052987055117165,0.00815604121023396,0.992304231253476
2014-06-10,1,0.002484551716753751,0.002838645943187766,-0.010429471422693827,0.005838909100582923,0.9898978473360968
2014-06-12,1,0.0017361349168674392,0.0019688949973288346,-0.009141420158626888,0.005838909100582923,0.9902628057788037
2014-06-16,1,0.0015432516224497767,0.0017485688532053554,-0.009141420158626888,0.005838909100582923,0.9901984752873061
2014-06-18,1,0.0017712917309558032,0.0019293982872937861,-0.01059433079309713,0.002663393098544939,0.9898846686431995
2014-06-20,1,0.0010790519244164858,0.0011665842167577177,-0.0098070135615189,0.0033715076775099094,0.9904965901446191
2014-06-24,1,0.000974686278100483,0.001048332303725095,-0.0098070135615189,0.005838909100582923,0.9900452211713221
2014-06-26,-1,-0.000987428207786752,-0.0007091549846489491,-0.0098070135615189,0.008097862996499386,0.9893889160073334
2014-06-30,1,0.0004075828983675429,0.0005181914808560221,-0.0098070135615189,0.0075182889159235294,0.990395953036732
2014-07-02,1,0.0017940510344997842,0.001839739048673294,-0.01072717125465534,0.008097862996499386,0.9872429261044807
2014-07-07,1,0.001457245142842819,0.0014744002090870574,-0.01072717125465534,0.008846833148903721,0.9870570287209527
2014-07-09,-1,-0.00034240759366676525,-0.00015697780816237696,-0.00981816926866141,0.009170946364671202,0.9889575008062883
2014-07-11,0,-7.850034329233917e-05,1.818539914665029e-05,-0.00981816926866141,0.01006241017707967,0.9889725485915437
2014-07-15,-1,-0.0009428296544634093,-0.0007187980111049582,-0.009241171882640883,0.009101254717968344,0.9895103026673475
2014-07-17,-1,-0.0019274570028338781,-0.0015913626682581964,-0.005372210328537625,0.009101254717968344,0.9897453366583259
2014-07-21,-1,-0.0015648211117796798,-0.0012888354394301202,-0.0028638864830943947,0.009101254717968344,0.9901122035345491
2014-07-23,-1,-0.0001488947242897627,-9.679976418179001e-05,-0.0028638864830943947,0.009101254717968344,0.9904021921966112
2014-07-25,1,9.480829370122826e-05,0.00010884449777745828,0.0002333585262389473,0.007717688708838077,0.9912296997873162
2014-07-29,-1,-4.9969974626410876e-05,-1.6881230693883812e-06,-0.0019330300859704524,0.006537847768906501,0.9913591971752029
2014-07-31,-1,-0.005153925048084711,-0.004477775064761093,-0.0049176746968532335,0.005782411060340531,0.9901389602766226
2014-08-04,-1,-0.004455176703927594,-0.003905810703950051,-0.004876749323413033,0.005750529789985907,0.9907905964250758
2014-08-06,-1,-0.005421499476071054,-0.004682596099013413,-0.006894009595453941,0.004570836715935835,0.9905436901193123
2014-08-08,-1,-0.003733220500771973,-0.0032811511718186604,-0.006894009595453941,0.00551796259586604,0.9904772147389038
2014-08-12,-1,-0.003686062219785645,-0.0032558769714829267,-0.006894009595453941,0.005750529789985907,0.9873759431320638
2014-08-14,-1,-0.003079911208104448,-0.0027343835180107445,-0.00781232124624843,0.005750529789985907,0.9871155850896751
2014-08-18,-1,-0.0026509798410024868,-0.002367927677123097,-0.00781232124624843,0.005528587545955647,0.9871902094985537
2014-08-20,-1,-0.0016348844209592445,-0.001482564770440816,-0.009574111432315053,0.004496855967925748,0.98779683821867
2014-08-22,-1,-0.0009952223880986644,-0.0009232147979071649,-0.01255870644175653,0.0026485965608514144,0.9870718684630716
2014-08-26,-1,-0.00031664939169546904,-0.00023030645229778516,-0.01340850413926536,0.004271235252908424,0.9860421312409793
2014-08-28,-1,-0.00316280553351684,-0.0028375849765817558,-0.01255870644175653,0.006202414290559641,0.9874587935963359
2014-09-02,-1,-0.0024250820270789323,-0.0022496642597810714,-0.01255870644175653,0.006202414290559641,0.9875880301533846
2014-09-04,-1,-0.004721886728733457,-0.004192747700976304,-0.01340850413926536,0.006202414290559641,0.986916804502759
2014-09-08,-1,-0.003269664868913976,-0.0029387612269595126,-0.01340850413926536,0.00877208508576065,0.9866843870394097
2014-09-10,-1,-0.0023433477620073695,-0.0021568326422303197,-0.01340850413926536,0.00877208508576065,0.9881063937519403
2014-09-12,-1,-0.002374218366767463,-0.0021904455272629244,-0.015875787479055794,0.00414894811920046,0.9876913709127735
2014-09-16,-1,-0.002379928898303937,-0.00217033874807338,-0.015875787479055794,0.010047584613078243,0.98629635616963
2014-09-18,-1,-0.003081382015680864,-0.0027721800238365134,-0.015875787479055794,0.014711716681247393,0.9849223355056903
2014-09-22,-1,-0.004623019682071565,-0.0041087243746498175,-0.01095635302435027,0.014711716681247393,0.9849835895581608
2014-09-24,-1,-0.00452241838950008,-0.00404148865220124,-0.008719862251422242,0.01647066250526724,0.9850150155786033
2014-09-26,-1,-0.0034080015252902695,-0.0030927586923585088,-0.00738436190958567,0.0163439096388934,0.984843950943596
2014-09-30,-1,-0.004273605338670043,-0.0037729960088377142,-0.00738436190958567,0.019119907725146684,0.9831394735745211
2014-10-02,-1,-0.0052782313958551425,-0.004684775298096151,-0.005240110023610562,0.019119907725146684,0.9814185226343177
2014-10-06,-1,-0.004109980032174872,-0.003643021044960254,-0.005240110023610562,0.019942187843914536,0.9817524358969213
2014-10-08,-1,-0.004362877550628037,-0.003838632408458784,-0.00438414965343432,0.019119907725146684,0.9835489329651438
2014-10-10,-1,-0.00542335561892681,-0.004780522752115974,-0.004436903755755986,0.019119907725146684,0.9841045738354027
2014-10-14,-1,-0.0040384633803769625,-0.00359082730658258,-0.0043156090168730565,0.016814116719829034,0.9851179146701301
2014-10-16,-1,-0.0016873990051886538,-0.0015879897514786724,-0.0043156090168730565,0.012837256372437048,0.9873851112098043
2014-10-20,-1,-0.0009819506374333419,-0.0009606022692704755,-0.0029511734749952034,0.012837256372437048,0.9882890332307431
2014-10-22,-1,-0.00038355476037016487,-0.00028214854441224073,-0.002364778037293399,0.01517583080581871,0.9867339486454741
2014-10-24,1,0.0008257176524815556,0.0010806130541006576,-0.0029511734749952034,0.011534604819351934,0.988136993136966
2014-10-28,1,0.0024554717907395475,0.002986192366333614,-0.0043156090168730565,0.006329241089961307,0.9872632463842681
2014-10-30,1,0.0023180945311546256,0.002870501966360342,-0.0029511734749952034,0.006329241089961307,0.9901205300099006
2014-11-03,1,0.0032080710719143936,0.0038529270812367117,-0.0043156090168730565,0.00422349908483023,0.9900573168299382
2014-11-05,1,0.0031259220925496226,0.003754508277394871,-0.005176918388909223,0.005398615868762718,0.9895573697099526
2014-11-07,1,0.003095512564868159,0.0037793793070133286,-0.0049883255117858126,0.005398615868762718,0.989856428209111
2014-11-11,1,0.0035251824899874534,0.004224009117429278,-0.006458288783449062,0.005337668194177797,0.9890043153599751
2014-11-13,1,0.003666016336821671,0.004382999435665287,-0.012796672129239095,0.005000653124475684,0.9865613631432545
2014-11-17,1,0.0034033358343825747,0.004060256224675154,-0.012796672129239095,0.005000653124475684,0.9866549840986991
2014-11-19,1,0.005872888346937779,0.006925463487686386,-0.012796672129239095,0.005000653124475684,0.9864590714448654
2014-11-21,1,0.00589632535989963,0.006964756972824707,-0.01729365825008121,0.005000653124475684,0.9855596617349076
2014-11-25,1,0.004890265111358535,0.005828883596026223,-0.012796672129239095,0.005083078213980286,0.9885528681628603
2014-11-28,1,0.004487944155885933,0.005296906949607235,-0.012796672129239095,0.005083078213980286,0.9883319186689504
2014-12-02,1,0.0038159581740609197,0.004524128095100527,-0.011088932437799529,0.005083078213980286,0.9885621556114066
2014-12-04,1,0.0036993794564297877,0.004388541193709095,-0.012453991501586577,0.0006045679144454663,0.9875616436074125
2014-12-08,1,0.0028710795516893456,0.0034019374521219647,-0.013317467517369772,0.005083078213980286,0.9873262982698533
2014-12-10,1,0.0025325565196940908,0.003029223449316398,-0.011262530900509753,0.0010350076365731988,0.988499020017859
2014-12-12,1,0.0015221316163678174,0.0019248239086318158,-0.005147748384382057,0.002346963194201485,0.9913842134698727
2014-12-16,1,0.0014666032224153799,0.001858664089564207,-0.007539562457800607,0.004366171129135295,0.9905461483030656
2014-12-18,1,0.0031482329594169694,0.00378697493630217,-0.007539562457800607,0.002346963194201485,0.9894211875439635
2014-12-22,1,0.00021020334306866588,0.00023539369700144086,-0.005147748384382057,0.004366171129135295,0.9912392520866558
2014-12-24,1,0.0007267163021520181,0.000768231209815952,-0.005147748384382057,0.002573103777043985,0.9903661220385402
2014-12-29,1,0.0005508396396600411,0.0005624616388541033,-0.011262530900509753,0.002573103777043985,0.9884245246574808
2014-12-31,1,2.408133346157209e-05,5.37924110335938e-05,-0.0065806214243480385,0.00618729081209325,0.9888738101808844
2015-01-05,-1,-0.0013648084110580772,-0.0011625063947851455,-0.002993758514703668,0.009778082811311725,0.9890265749368264
2015-01-07,-1,-0.0008938122773516387,-0.0007628280645394715,-0.002993758514703668,0.00618729081209325,0.9900494035902195
2015-01-09,-1,-0.0007818299810017923,-0.000673369947473918,-0.002993758514703668,0.007879368678841633,0.9897195652877729
2015-01-13,-1,-0.00022365469948991656,-0.00021843952910258983,-0.002993758514703668,0.007879368678841633,0.9894308104979844
2015-01-15,-1,-0.0005744900413550084,-0.0005514793606185461,-0.0025014549195511936,0.009778082811311725,0.9890267251193916
2015-01-20,1,0.0007320765292989787,0.0008741500010254553,-0.0025014549195511936,0.009778082811311725,0.985828030395632
2015-01-22,1,4.9764436540319037e-05,5.097570794837899e-05,-0.003957130011806369,0.007879368678841633,0.9849167634811244
2015-01-26,1,0.0006380431398619427,0.0007065642291527036,-0.003957130011806369,0.006006542360339039,0.9860795780866493
2015-01-28,-1,-0.0014196752381389947,-0.0011918487556893875,-0.0009701336682734448,0.006006542360339039,0.9874737905810922
2015-01-30,-1,-0.0007274903734276273,-0.0006169097132692957,-0.00040450027790144385,0.006006542360339039,0.9872618090813822
2015-02-03,1,0.00020768821333205385,0.00021663073257027638,-0.004179584778264559,0.004430180215932758,0.9876263254527903
2015-02-05,-1,-4.6300758074015115e-05,-1.628718945766157e-05,-0.004179584778264559,0.006006542360339039,0.9857887505399509
2015-02-09,1,0.0002504365893972305,0.0002623286926887663,-0.005537549902526554,0.004430180215932758,0.9858414921902573
2015-02-11,1,0.0002823584054419741,0.00029119810155222545,-0.00945097345347249,0.004046736206815024,0.9854089922586796
2015-02-13,1,0.0006019984277492692,0.0006230855753179116,-0.01404115845543695,0.004046736206815024,0.9853338224443143
2015-02-18,-1,-0.0005530984792440625,-0.0003839015987352455,-0.00917595829271139,0.004046736206815024,0.9907108232722409
2015-02-20,-1,-0.0012453520211437243,-0.0010116688370313226,-0.008710622266468853,0.004274023250341569,0.9899866152631128
2015-02-24,-1,-0.0011113340135019624,-0.0008950027253635125,-0.008710622266468853,0.004272238362730937,0.9899487700005881
2015-02-26,-1,-0.0021254295638110147,-0.0017218270886597662,-0.012370135215948241,0.004272238362730937,0.9888327207279578
2015-03-02,-1,-0.0009170769390978112,-0.0006966012784519386,-0.012370135215948241,0.004239506589356771,0.9888556677048922
2015-03-04,-1,-0.0018174090723512436,-0.0014892857113471387,-0.012097104466111858,0.004239506589356771,0.989092468589063
2015-03-06,-1,-0.0022967764299297727,-0.001860151141676152,-0.012009107253538081,0.004184910286222442,0.9907900165208262
2015-03-10,-1,-0.002088256630501815,-0.0017022172502367992,-0.01241002865760899,0.004786740808686317,0.9897303655698059
2015-03-12,-1,-0.0019634830552588962,-0.001654127564712205,-0.012009107253538081,0.005115866807547918,0.9900167483400343
2015-03-16,-1,-0.0018292093888075353,-0.001542744397141125,-0.011566358561756862,0.004786740808686317,0.9910506102894382
2015-03-18,-1,-0.0015319351577968605,-0.001305535323733717,-0.011566358561756862,0.004952077898144929,0.9905980026590309
2015-03-20,-1,-0.0002931213203287267,-0.00026678931191452635,-0.01167066662558924,0.004952077898144929,0.9906389916557239
2015-03-24,1,7.441804384585794e-05,0.000157861131815804,-0.01241002865760899,0.004952077898144929,0.9904460200656557
2015-03-26,-1,-0.0020824641772535617,-0.001839139168421002,-0.01241002865760899,0.004952077898144929,0.9904057727211427
2015-03-30,-1,-0.0007876903625909606,-0.0007519898062849154,-0.01241002865760899,0.005299944279790279,0.9899643141538758
2015-04-01,-1,-0.0015026441369339386,-0.0013789254591332761,-0.012499874098082928,0.005299944279790279,0.9885069195514985
2015-04-06,-1,-0.0019963537902493605,-0.0017908710736821176,-0.009022551465920292,0.006660961480129132,0.9883508556071581
2015-04-08,-1,-0.001736478215786038,-0.0015985316198730546,-0.008007088482069791,0.005299944279790279,0.9892843618254228
2015-04-10,-1,-0.001320191322369959,-0.0012381424337171408,-0.008007088482069791,0.006814827552472983,0.9890304217564609
2015-04-14,-1,-0.001098914692435385,-0.0010425825999772114,-0.009987013105674568,0.01246014171203151,0.987749873510406
2015-04-16,0,-4.9772513079676195e-05,0.00016601648774914907,-0.009987013105674568,0.006814827552472983,0.9885841965113281
2015-04-20,1,5.0519783181798665e-05,0.00027981919848237913,-0.008007088482069791,0.004334113370027483,0.9903955898034639
2015-04-22,-1,-0.0007881286446798246,-0.0007320167961696344,-0.004538057185106934,0.004334113370027483,0.9907270681076833
2015-04-24,-1,-0.0011320859234272632,-0.0011051742253907065,-0.002663759870853755,0.004237612242518132,0.9917028858202722
2015-04-28,-1,-0.0007117584928472571,-0.0006576276428358789,-0.004538057185106934,0.0028007424073382414,0.9920978150259746
2015-04-30,-1,-0.0021858637695336284,-0.0020623328673972075,-0.002663759870853755,0.004543673385729466,0.9924418481856317
2015-05-04,-1,-0.0017967864376008608,-0.0017041631129127263,-0.001895911307130122,0.0028007424073382414,0.9931930821898802
2015-05-06,-1,-0.0022552388469308233,-0.0020912383060400336,-0.001895911307130122,0.004543673385729466,0.9923901396696658
2015-05-08,-1,-0.0022301506802465646,-0.0020389943093525823,-0.002613536282562676,0.002957544590254134,0.9930418235759235
2015-05-12,-1,-0.0023474291214961905,-0.002142815140985535,-0.001895911307130122,0.00431315327757649,0.9933968136984928
2015-05-14,-1,-0.001089507543684151,-0.001074124696824607,-0.004619774188586737,0.0033525369937217097,0.9925200751924641
2015-05-18,-1,-0.0013942571920797517,-0.0013196324170197996,-0.009393602010740925,0.005728650596132192,0.9908292502068377
2015-05-20,-1,-0.0010357254830995878,-0.00103011130949546,-0.009393602010740925,0.007338189487028595,0.9893750456122311
2015-05-22,-1,-0.0009234223750773912,-0.0009130699072837664,-0.009393602010740925,0.007338189487028595,0.9889549966031267
2015-05-27,-1,-0.0015881844155736834,-0.0014748556031023807,-0.009393602010740925,0.007194376210834333,0.9885068966864184
2015-05-29,-1,-0.0021231122034005546,-0.0018920142173007386,-0.00736550958597874,0.005680712837400772,0.9897146232647829
2015-06-02,-1,-0.001595762745392507,-0.0014208381790425466,-0.009393602010740925,0.005680712837400772,0.9883913816011882
2015-06-04,-1,-0.0016005891110154854,-0.0014265535943758009,-0.00736550958597874,0.0048836971035127906,0.9891285426241824
2015-06-08,-1,-0.0014524920704957454,-0.001290903166252063,-0.009698704171828033,0.005680712837400772,0.988146452758727
2015-06-10,-1,-0.0009583860349453751,-0.0008371675512096652,-0.009698704171828033,0.004281759888440996,0.9887861148684923
2015-06-12,-1,-0.001237062877321788,-0.0011385483008921763,-0.006717726754825537,0.006807597445450531,0.9871539779139801
2015-06-16,-1,-0.0006391697323324731,-0.0006282049010678379,-0.004284257574951859,0.005066279452934347,0.9888999374458319
2015-06-18,1,0.00026250688104624835,0.0003649254686596381,-0.006717726754825537,0.004281759888440996,0.9868517986464882
2015-06-22,-1,-0.00012857037116610626,-0.00010509909057607422,-0.007426696281972097,0.0038602087590841883,0.986676647086827
2015-06-24,-1,-0.0007117699172743807,-0.0006317454926816546,-0.006717726754825537,0.0037532989884566537,0.9878102505935434
2015-06-26,-1,-0.0005560961502421567,-0.0005350092417596592,-0.008747441869684236,0.0037532989884566537,0.9873774144821265
2015-06-30,-1,-0.001739796835213732,-0.0015764967839023464,-0.007157975284062918,0.0038602087590841883,0.9880325995679071
2015-07-02,-1,-0.001338766261945025,-0.0012375233221745894,-0.008747441869684236,0.0038602087590841883,0.9876099843688528
2015-07-07,-1,-0.0013421565004566537,-0.0012597892839276523,-0.00920782419018083,0.0037532989884566537,0.9879644829501126
2015-07-09,-1,-0.0007618418248161057,-0.0007229954380380008,-0.010342513971489806,0.0037532989884566537,0.9870672714188456
2015-07-13,1,0.0007221965160885646,0.0009474814061809553,-0.010342513971489806,0.0025133821970061065,0.989264014322321
2015-07-15,1,0.00041396069398688554,0.0005554855666307143,-0.010705413038358851,0.002801236839840073,0.9882645606377994
2015-07-17,1,0.0021741990065477224,0.002556364453479852,-0.010342513971489806,0.002801236839840073,0.9909657327300855
2015-07-21,1,0.001980620376104637,0.0023317796516847994,-0.010342513971489806,0.002801236839840073,0.990862438830358
2015-07-23,1,0.0025230546517012445,0.0029861470678946306,-0.01074844284243945,-0.00031739614070522585,0.9888332617250428
2015-07-27,1,0.001587844623985925,0.0018930297404233167,-0.013128943994940358,-0.00031739614070522585,0.9877240429139473
2015-07-29,1,0.002563529983805086,0.0030013717399784944,-0.013128943994940358,-0.00031739614070522585,0.9863523873420295
2015-07-31,1,0.00194891413910916,0.002297060543489357,-0.012576594304707422,0.004424151911175465,0.9870238131794077
2015-08-04,1,0.0010162104829333331,0.0012149676936793544,-0.017777655814352793,0.004424151911175465,0.9868804211284695
2015-08-06,1,0.0008559578791769284,0.0010324854067638057,-0.012748073611791541,0.004648356850362277,0.9877870209095018
2015-08-10,1,0.0011580595248544157,0.0013715398675062222,-0.019330092677583725,0.004648356850362277,0.9857896752329381
2015-08-12,1,0.0009077167866131683,0.0011177714573287235,-0.019330092677583725,0.003590528093996251,0.9851918935060853
2015-08-14,1,0.0004862298622319293,0.0006274893345756442,-0.019330092677583725,0.003590528093996251,0.9851374501849682
2015-08-18,1,0.0003523526949215799,0.0004204049500283908,-0.019330092677583725,0.00969600370107174,0.9847882374307106
2015-08-20,-1,-0.0003503421675045446,-0.00034875313798882863,-0.014438344991720047,0.00969600370107174,0.9859007068487415
2015-08-24,-1,-0.0009918432203350719,-0.0008841125894129975,-0.010733576455299609,0.00969600370107174,0.9872781125222212
2015-08-26,-1,-0.00024194858692208447,-0.00021053539901887906,-0.010733576455299609,0.008721174021301663,0.988472147232929
2015-08-28,-1,-0.00019881729718242966,-0.00016022029547048655,-0.010733576455299609,0.0029450805607288836,0.9886931181275946
2015-09-01,-1,-0.0009538988002426423,-0.0008380144754739199,-0.008867379556824385,0.008721174021301663,0.9893673984847722
2015-09-03,-1,-0.0005107129042103138,-0.000454354550509352,-0.010204513313822237,0.008721174021301663,0.9885992433951151
2015-09-08,1,7.408422829379576e-05,0.0001178898251198898,-0.008867379556824385,0.008721174021301663,0.9897379776815847
2015-09-10,-1,-0.0009871450594843285,-0.0009030339995907022,-0.007027488154640988,0.009581958727664174,0.9909312020946428
2015-09-14,-1,-0.0015888496798241209,-0.0014168291380009528,-0.00548148469624346,0.009581958727664174,0.9912939688902322
2015-09-16,-1,-0.0010215579104653244,-0.0008925179653673139,-0.00548148469624346,0.00499081935479089,0.9922893264355984
2015-09-18,0,-2.399743351034872e-05,2.1778576474371488e-06,-0.00548148469624346,0.009087885507910108,0.9851929601970657
2015-09-22,-1,-0.003657616434314375,-0.0032797278919110716,-0.00548148469624346,0.005522221914650689,0.9859594343756466
2015-09-24,-1,-0.003492226236520914,-0.0031587722078997337,-0.003924030846632948,0.011772962829121422,0.984124342398439
2015-09-28,-1,-0.0039578527316948,-0.0035614194132101867,-0.003525738609328684,0.011772962829121422,0.9834493392311948
2015-09-30,-1,-0.00284279330618139,-0.0026088286775150585,-0.0037909904854355842,0.010828868523932875,0.9839233082052455
2015-10-02,-1,-0.002688233354887449,-0.002480439950770609,-0.003525738609328684,0.010000218833819238,0.9845326163883552
2015-10-06,-1,-0.0017577004704396916,-0.00167297054026071,-0.0033073918239857857,0.010000218833819238,0.9851694096831732
2015-10-08,-1,-0.0011230461795631074,-0.0011155863627062533,-0.0033073918239857857,0.01169406582271118,0.9842309807075639
2015-10-12,-1,-0.0010304117625359022,-0.0010240846223057765,-0.003483685933520705,0.01169406582271118,0.9840512545806969
2015-10-14,-1,-0.0009307941145197863,-0.0009083086486486726,-0.003734054119034485,0.013686107310426686,0.9828490089893812
2015-10-16,1,0.0007807717587268254,0.00101532632151682,-0.005667211567662636,0.01169406582271118,0.9879568812434607
2015-10-20,1,0.00048820902346663714,0.0006874409209113171,-0.0051983853618129995,0.013611782772997093,0.9873822432070074
2015-10-22,1,0.00192953469384483,0.0023283183693099583,-0.0051983853618129995,0.013611782772997093,0.9876584095486619
2015-10-26,1,0.002109079823772997,0.0025292225636176146,-0.0044126699747602405,0.013611782772997093,0.9876919740773559
2015-10-28,1,0.0020900031011211826,0.002510097879372209,-0.0044126699747602405,0.015615416556250634,0.9871161924484912
2015-10-30,1,0.0028478923256777537,0.0034140554112142034,-0.007581422195484555,0.015615416556250634,0.986398078592841
2015-11-03,1,0.002681092556884189,0.003154066500943381,-0.009041835846161441,0.015615416556250634,0.9862197067718157
2015-11-05,1,0.004072227992517474,0.0047522988260613516,-0.009041835846161441,0.011471967550044338,0.9864267315442714
2015-11-09,1,0.0046535129854375565,0.005469236341941226,-0.009041835846161441,0.011471967550044338,0.9863375263407765
2015-11-11,1,0.0051237191169148846,0.0060218180483298505,-0.008359083486146432,0.010174196728673836,0.9865824004351011
2015-11-13,1,0.0029070668185482785,0.003469879587621511,-0.008359083486146432,0.010174196728673836,0.9871156202298751
2015-11-17,1,0.002977300503699987,0.003526223034906312,-0.008359083486146432,0.011471967550044338,0.98626195311956
2015-11-19,1,0.003784002913672012,0.004371957616519394,-0.009041835846161441,0.010174196728673836,0.9859509395384212
2015-11-23,1,0.003761103342963919,0.00434477067344495,-0.009041835846161441,0.010565087321634137,0.9856632766615055
2015-11-25,1,0.004529050836965543,0.005198922462501771,-0.008777929337340456,0.010565087321634137,0.9864676523755758
2015-11-30,1,0.004346617901246425,0.0049836459670352246,-0.007557688562799562,0.009329642447066848,0.9871863524722123
2015-12-02,1,0.00497111392418117,0.0058100821061161795,-0.007209894159295695,0.009329642447066848,0.9874271758864365
2015-12-04,1,0.005056283337720123,0.005905114054892203,-0.007209894159295695,0.007939250361496966,0.9875604227983162
2015-12-08,1,0.0042764548663684725,0.00502655506105262,-0.01204960863711725,0.007939250361496966,0.9851152270567589
2015-12-10,1,0.0036301950987491583,0.004282229534274118,-0.02006352804347329,0.007939250361496966,0.9836348066476396
2015-12-14,1,0.0017060765232415503,0.0021193539087187197,-0.013027747219204173,0.007939250361496966,0.986078210514538
2015-12-16,1,0.002924086975770528,0.003455572155339562,-0.01990060251643813,0.004814278319450256,0.9857477900143401
2015-12-18,1,0.0020291978585833845,0.0024710094425120866,-0.012723097282292765,0.004814278319450256,0.9873771064434733
2015-12-22,1,0.002773280912252797,0.0032813028628585882,-0.012723097282292765,0.004814278319450256,0.986287358674738
2015-12-24,1,0.002989863875465938,0.0034798505281544816,-0.019083371716748197,0.004814278319450256,0.9850427132577013
2015-12-29,1,0.0030533464497108295,0.003535906167796371,-0.019083371716748197,0.003816219364416212,0.9850941037690761
2015-12-31,1,0.0031158791313325353,0.0036241132506231394,-0.019083371716748197,0.007708185026448538,0.98355453119283
2016-01-05,1,0.0025010170229127007,0.002890204612958998,-0.01990060251643813,0.007708185026448538,0.9828906478195669
2016-01-07,1,0.0005032245998722175,0.0006058825099794587,-0.014332583692994146,0.019815491983009033,0.9841196702512156
2016-01-11,-1,-0.0009165250373629375,-0.0008612123073874183,-0.011935060146475513,0.019815491983009033,0.9855775542355174
2016-01-13,-1,-0.0022608494295332793,-0.0019978490347325427,-0.011935060146475513,0.019815491983009033,0.9850504529653888
2016-01-15,-1,-0.0030459965445146587,-0.0026387487778396306,-0.010262016775006409,0.019815491983009033,0.9848223098482972
2016-01-20,-1,-0.002970472508054265,-0.0026076311122257157,-0.010262016775006409,0.02210086537565353,0.9800813312534333
2016-01-22,-1,-0.0011187403907534923,-0.00098689063154984,-0.011935060146475513,0.020775044442220617,0.9803148871897808
2016-01-26,-1,-0.0017438723046931648,-0.0014858204061406872,-0.010262016775006409,0.01784206002576427,0.9819237486229834
2016-01-28,-1,-0.001430216550386909,-0.0012301247581575263,-0.010262016775006409,0.01784206002576427,0.9817291502775085
2016-02-01,1,0.00010133949482558785,0.00010639674820061368,-0.010262016775006409,0.017264158533472698,0.9822381373676617
2016-02-03,-1,-0.0016126426103955933,-0.0013460628783614828,-0.010262016775006409,0.017264158533472698,0.9831899092713471
2016-02-05,-1,-0.0015043255326500343,-0.001219948529854002,-0.0078073645531750455,0.015329102374535334,0.9846934268932923
2016-02-09,-1,-0.0017780665178508208,-0.001507261186162945,-0.007082839203449327,0.015329102374535334,0.9843127476328626
2016-02-11,-1,-0.0022020658188357345,-0.0018566438155987507,-0.006736267375598727,0.014536824198481646,0.9851914441649627
2016-02-16,-1,-0.0009900759923123286,-0.000765319167895154,-0.007082839203449327,0.002355198447703583,0.9862968300581586
2016-02-18,1,0.0008006341835283405,0.0008338644405782757,-0.006756249642175532,0.0035668080036036333,0.990275919964915
2016-02-22,1,0.0005861082267943235,0.0006705408585269102,-0.006431488119048041,0.0035668080036036333,0.9922283335550074
2016-02-24,1,0.00048047756529778145,0.0005482253620997786,-0.006756249642175532,0.0035668080036036333,0.9918895264436983
2016-02-26,1,0.00019345712851230964,0.00029600592472521335,-0.007258886433977272,0.0040266599788604295,0.9917572634578402
2016-03-01,1,0.0013416531449127005,0.0014087964735013533,-0.007258886433977272,0.006340695962390118,0.9919260992706913
2016-03-03,1,0.0010592112924233488,0.0011108783172210648,-0.006659745233157906,0.006340695962390118,0.9922206105289106
2016-03-07,1,0.0005563958781226999,0.0005736500101462639,-0.006463829163698486,0.007314611863087701,0.9924419578435293
2016-03-09,-1,-0.0006949773373776136,-0.0005267442033636661,-0.006463829163698486,0.007314611863087701,0.9931589889757036
2016-03-11,-1,-0.00015242577440590407,-3.5434131856303206e-05,-0.006463829163698486,0.007254566398495561,0.9936022562151285
2016-03-15,-1,-0.0011310617756115481,-0.0008776297930270195,0.0005625714388662499,0.008161145257052695,0.9911042653856609
2016-03-17,1,0.00014086187393503062,0.00018171840643258367,-0.001920467861692703,0.007882340449165201,0.9919051656882967
2016-03-21,1,0.00046393432963149776,0.00046799083948590077,-0.001920467861692703,0.007882340449165201,0.9919756933886696
2016-03-23,-1,-0.00010876107254790911,-3.9388747038982956e-05,-0.001920467861692703,0.007882340449165201,0.9915729080298368
2016-03-28,-1,-0.0001579662598351016,-9.711287875215809e-05,-0.001920467861692703,0.008389215926448321,0.9908904703946642
2016-03-30,1,0.0006625242171853872,0.0007245365567398322,-0.001920467861692703,0.007882340449165201,0.990072994063588
2016-04-01,1,0.0010711345761136883,0.0012498253426703359,-0.006887178059981304,0.007882340449165201,0.9892186391983259
2016-04-05,1,0.0013820901814645143,0.001606130564275447,-0.011965674106599215,0.008095182673434221,0.988354154533819
2016-04-07,1,0.0011767095493595975,0.001387269189411545,-0.014237890608089538,0.008095182673434221,0.9874975931138418
2016-04-11,1,0.0005157676638332607,0.0005339238688724243,-0.014237890608089538,0.00808364264124459,0.9868636711904015
2016-04-13,1,0.002210025263005618,0.002463808218014324,-0.014237890608089538,0.007057377172880923,0.9883306232515657
2016-04-15,1,0.0025710266922129126,0.002929675716588708,-0.014237890608089538,0.007057377172880923,0.9881237560560431
2016-04-19,1,0.0028581943258967134,0.003265604816252678,-0.014237890608089538,0.007334111539138625,0.9874555601522413
2016-04-21,1,0.0027704876161678093,0.0031882225620985262,-0.013635297691016637,0.005971315676951225,0.9879574938545584
2016-04-25,1,0.0025888022102139503,0.0029766131358184675,-0.011264315887703982,0.005971315676951225,0.9888006903545511
2016-04-27,1,0.0035111128459747,0.004004064858778668,-0.011264315887703982,0.005206865079389434,0.9896278985098608
2016-04-29,1,0.002716599331012832,0.0031065774272127063,-0.006245132427911096,0.006932894186770527,0.9913323408349823
2016-05-03,1,0.002479105235625669,0.002837425661657752,-0.00533655656593195,0.007266291440919367,0.9914161119828873
2016-05-05,1,0.001482069754362456,0.001684096710747042,-0.00504363359368701,0.010283955090155306,0.9919715740494588
2016-05-09,1,6.083216568014983e-05,0.0001384532965229825,-0.0032491271721482966,0.010283955090155306,0.9917364441837023
2016-05-11,1,0.0006433969654154542,0.0007038764315617758,-0.0029978014292933327,0.010098671542195509,0.9929733824331237
2016-05-13,-1,-0.00011350422848760319,-3.0539295344517614e-05,-0.0029978014292933327,0.010098671542195509,0.992254571895984
2016-05-17,1,0.0003304553541494951,0.00033596428314880747,-0.0029978014292933327,0.009768049096579794,0.9927734184663902
2016-05-19,1,0.0004200899118947482,0.00046697959987885835,-0.0026461053425831664,0.009768049096579794,0.9924983327834414
2016-05-23,1,0.0008933006259367754,0.0010134973588198177,-0.0026461053425831664,0.009768049096579794,0.9927967657690635
2016-05-25,1,0.001338348278385318,0.001511631768138031,-0.004939121233110967,0.009768049096579794,0.9923661180120056
2016-05-27,1,0.001246205866464086,0.001384619338661088,-0.007539177462983241,0.009768049096579794,0.9884293827092769
2016-06-01,1,0.0008160434114192513,0.0008196891477490216,-0.007539177462983241,0.010150873021548875,0.9875993582349484
2016-06-03,0,-1.2920697166910714e-05,0.00014186534210965595,-0.0055272234031890815,0.010150873021548875,0.9875376193305337
2016-06-07,0,-3.734181628659505e-05,0.00015050423970534995,-0.007539177462983241,0.006375755377376115,0.9877399385487279
2016-06-09,0,-9.382479741500854e-05,0.00011135808213342982,-0.007539177462983241,0.014752253620399159,0.9862184537135781
2016-06-13,-1,-0.0008775180591694133,-0.0005686695309661099,-0.0055272234031890815,0.018783612919379432,0.9854078304483248
2016-06-15,-1,-0.0004596299237223741,-0.0002550526627900009,-0.005777485571289681,0.018783612919379432,0.9850680337202317
2016-06-17,-1,-0.0006879386176561328,-0.0004527399317415114,-0.0014114234540237435,0.018783612919379432,0.9848324255978785
2016-06-21,-1,-0.0005493546244037777,-0.000327142592273647,-0.0005779529293417522,0.018783612919379432,0.9850992482264511
2016-06-23,1,0.0003221937962209321,0.00040170086151713075,0.0007117406761026047,0.014752253620399159,0.9864482187460785
2016-06-27,-1,-0.0023514424463065217,-0.0019257224076976874,0.001103086055338923,0.014752253620399159,0.9883656011717061
2016-06-29,-1,-0.000777504481038877,-0.0005705540355725599,0.001103086055338923,0.014752253620399159,0.984918025753822
2016-07-01,-1,-0.0005185491456950196,-0.0003065224223285202,0.002187529954653553,0.015645037359286396,0.9843300683179049
2016-07-06,-1,-0.0009491246318534752,-0.0006714980542002575,0.004016057912469949,0.015645037359286396,0.9835406944056129
2016-07-08,1,0.00039789162185366995,0.00045597056807737907,0.0007117406761026047,0.011891511816973427,0.9846710184629346
2016-07-12,1,0.0020752031856510547,0.002330373176908875,-0.001525100746209253,0.010410639579880749,0.9860747918450181
2016-07-14,1,0.002189734413789139,0.002464389222116306,-0.00010902720356730877,0.011513940679302257,0.986405341057704
2016-07-18,1,0.002378299703843491,0.0026594599235020494,-0.001525100746209253,0.011513940679302257,0.9863830392534741
2016-07-20,1,0.0023528322367743215,0.0026186696825467237,-0.0043765678147241775,0.011513940679302257,0.9856063705142618
2016-07-22,1,0.002819409452432817,0.0031828560587192764,-0.0073458164560025584,0.011513940679302257,0.9854391036607171
2016-07-26,1,0.0026744448606059157,0.0029960846257797956,-0.00785107369043067,0.011513940679302257,0.9844975513528219
2016-07-28,1,0.004694239174010467,0.005258009490633884,-0.008298209219130045,0.008932033169805093,0.9871605405962894
2016-08-01,1,0.0051115841224079,0.005674990449331669,-0.008298209219130045,0.004601292794546179,0.9875959179510475
2016-08-03,1,0.004900763914652944,0.005445840940989627,-0.008298209219130045,0.0019120547833633278,0.987409170235108
2016-08-05,1,0.004183407796062543,0.00459659025203738,-0.00785107369043067,-0.0001286126096952111,0.988189165331887
2016-08-09,1,0.0038801766843540786,0.004267971906818482,-0.0073458164560025584,0.002177114701424309,0.9891307173114299
2016-08-11,1,0.004207404390770184,0.004642343267567224,-0.00785107369043067,-0.0001286126096952111,0.9872838632437748
2016-08-15,1,0.003917955833998883,0.004283000881624168,-0.010255273599004258,-0.0001286126096952111,0.9867211397516003
2016-08-17,1,0.0032413297695199853,0.0034969134545090267,-0.010255273599004258,0.001366886544818843,0.9872359954474432
2016-08-19,1,0.0031039665925877515,0.0033635838958104743,-0.009126231512269805,0.0026085775792812622,0.9871208258178255
2016-08-23,1,0.0025427614301655613,0.002712333590886268,-0.006380802583230729,0.0026085775792812622,0.9879086075042729
2016-08-25,1,0.0010712698292767954,0.0010875642101260637,-0.005233132324043505,0.005808111316636632,0.9910322226267324
2016-08-29,1,0.0004660237797432036,0.0005765499806997257,-0.0045784109103361335,0.007176106969379661,0.9906907603956746
2016-08-31,-1,-0.00020523526566525586,-2.3642304095709702e-05,-0.004368034095793706,0.007176106969379661,0.9910595275867061
2016-09-02,1,0.0004525747577875922,0.00047285536902948487,-0.004277369822118687,0.007176106969379661,0.9910690570275453
2016-09-07,1,0.000527570237062677,0.0005450649350025533,-0.004750315371016332,0.00935115762490419,0.9905320628770824
2016-09-09,-1,-0.0004015733012605856,-0.00028535066888881404,-0.004277369822118687,0.00935115762490419,0.9921858882668718
2016-09-13,-1,-0.0008787999881606219,-0.0006939619083058731,-0.004277369822118687,0.0076739341600346005,0.9928413269632919
2016-09-15,-1,-0.0006451302823162593,-0.0004804051856717053,-0.004646374625175479,0.004619280300045649,0.9933976587491148
2016-09-19,1,9.429810515372183e-05,0.00012078781856120911,-0.004646374625175479,0.004619280300045649,0.9933060825478961
2016-09-21,0,-5.495221552715145e-05,2.8587277714884186e-05,-0.004646374625175479,0.004619280300045649,0.9935707660242429
2016-09-23,-1,-0.00018743875577744508,-7.521449308655259e-05,-0.004646374625175479,0.0034620552124935535,0.9940862625263308
2016-09-27,-1,-0.00047571610794743154,-0.0002881560670684254,-0.002636873504504739,0.004405364786693474,0.9941238024156085
2016-09-29,-1,-0.0016610641771958247,-0.0012853532990007685,-0.002636873504504739,0.005075997322178271,0.992553433266087
2016-10-03,-1,-0.0016741590280786684,-0.0012930989589915057,-0.002636873504504739,0.0061447162959464875,0.9921179541637999
2016-10-05,-1,-0.001802414444873374,-0.0013910801508648346,-0.002636873504504739,0.0061447162959464875,0.991369017363491
2016-10-07,-1,-0.001974477470482374,-0.0015353531250539812,-0.00818469559062378,0.0061447162959464875,0.990585294208656
2016-10-11,-1,-0.0024746138439059634,-0.0019678454264062087,-0.006149213304256943,0.008030088244651007,0.9898157172158336
2016-10-13,-1,-0.002452837239364958,-0.001963750389224011,-0.0025691054374684433,0.011344393059279395,0.9887294895236924
2016-10-17,-1,-0.0022283947822362383,-0.0017952110969040264,-0.000359891903706127,0.012975004164819726,0.9866835109707804
2016-10-19,-1,-0.0017138548651361627,-0.001349030040858732,-0.00048623597226757896,0.011344393059279395,0.9872920498362684
2016-10-21,-1,-0.0015490998255189346,-0.0012225282343935496,-0.00627839527116213,0.011344393059279395,0.9867950210271386
2016-10-25,-1,-0.0009909487353221723,-0.000728380088419478,-0.00627839527116213,0.010384478596566861,0.9869258912983344
2016-10-27,-1,-0.0017167188058508343,-0.0013988101805200337,-0.003719496651503067,0.010384478596566861,0.9884232627773498
2016-10-31,-1,-0.0014109567244103833,-0.001127354632994426,-0.00627839527116213,0.010037780758542107,0.9882887964893956
2016-11-02,-1,-0.0020404717258078993,-0.0016505703651775307,-0.00627839527116213,0.00972058741268613,0.9889532627711921
2016-11-04,-1,-0.002987754467663397,-0.002477536029932799,-0.0017549792772583778,0.010037780758542107,0.9887465936454576
2016-11-08,-1,-0.0023254543883894432,-0.0018840172959720632,-0.003719496651503067,0.00972058741268613,0.9897500800327149
2016-11-10,-1,-0.0013373392603103769,-0.0010236652164720551,-0.007251462001778853,0.009113969189429104,0.9900537431989004
2016-11-14,1,0.0008894281356636418,0.0009266925781458177,-0.00847314654921789,0.0036897665522097178,0.9921875086469379
2016-11-16,-1,-0.0008808009581118281,-0.0004607166217820021,-0.01174776583914594,0.0036897665522097178,0.9916246035926026
2016-11-18,-1,-0.0008232460024034439,-0.0004909541421221539,-0.010652629023623954,0.005753416218566519,0.991486108761276
2016-11-22,1,0.0003830474146541435,0.0005323421313127919,-0.010652629023623954,0.005270284871520159,0.9916730596046813
2016-11-25,0,-2.9148785204395427e-05,0.00019645786507987355,-0.010652629023623954,0.006445894717302345,0.9916999100935489
2016-11-29,0,-9.105978440450782e-05,8.360942923602027e-05,-0.010652629023623954,0.006445894717302345,0.9909950141520167
2016-12-01,1,0.00014892990189825065,0.00023920387863272312,-0.01037975015698067,0.006445894717302345,0.9909663946769303
2016-12-05,1,0.0005460073283347026,0.0005927632048742869,-0.01037975015698067,0.007262924811963925,0.9902719932343585
2016-12-07,1,0.000434850280626464,0.0004665923312898222,-0.009395319936360495,0.007262924811963925,0.9901352647272423
2016-12-09,-1,-0.0008374108206167277,-0.0006669942127446825,-0.009395319936360495,0.007262924811963925,0.9906533914874285
2016-12-13,-1,-0.0009510436108501731,-0.0007819458170589535,-0.009395319936360495,0.007262924811963925,0.9905393875123226
2016-12-15,-1,-0.0009751370089490304,-0.0008149734575002277,-0.009395319936360495,0.006935374734997468,0.9912152574841705
2016-12-19,1,0.0005627717584411766,0.0007673282125554379,-0.00739059154495295,0.006395519236556637,0.9918879844008215
2016-12-21,1,0.0018628536545313669,0.0023290615527019314,-0.00739059154495295,0.0057147269510178286,0.9919493221384584
2016-12-23,1,0.0021839202635025685,0.002686327742442118,-0.00739059154495295,0.006578175553191477,0.9909233147381216
2016-12-28,1,0.001289443316810982,0.0016599598860540428,-0.00739059154495295,0.006578175553191477,0.991546734045802
2016-12-30,1,0.0006658129454392141,0.0009355269203664837,-0.00739059154495295,0.00841645945397089,0.989744837006431
2017-01-04,1,0.002111095697591948,0.002614043818519822,-0.00739059154495295,0.006578175553191477,0.9890981146052875
2017-01-06,1,0.0017631060471470972,0.0022371011883464374,-0.0034339938449853597,0.0072704818226082876,0.9897388795525596
2017-01-10,1,0.0007671184380219097,0.001081328028212203,-0.005804492654062993,0.0072704818226082876,0.9893845722946376
2017-01-12,1,0.0011114152170810317,0.0014617104681093531,-0.005804492654062993,0.009627736821365536,0.9889238382119049
2017-01-17,1,0.0006628597931038682,0.0009370030180597572,-0.0034236590826886115,0.011744683915613252,0.9889815697023754
2017-01-19,-1,-0.0008182954009460491,-0.0007689259475933492,-0.0021692123125707998,0.01181499780731189,0.988211855690005
2017-01-23,-1,-0.00040329575678970677,-0.00038910316040963145,-0.00425629193915614,0.01181499780731189,0.9884926069424488
2017-01-25,1,0.0003326274113487619,0.00036440566789143513,-0.008680748419015658,0.01127296361724104,0.9848899849983034
2017-01-27,-1,-0.0003222579916473838,-0.00026142671208245364,-0.007293926177205232,0.01181499780731189,0.9845568515009968
2017-01-31,-1,-0.000646324436449814,-0.0005604931642116451,-0.007293926177205232,0.01181499780731189,0.9855276825891088
2017-02-02,-1,-0.00024981626381047117,-0.00015283823419749606,-0.008901409263141424,0.01127296361724104,0.9866766456106036
2017-02-06,-1,-0.00019929159698882072,-8.962524258138534e-05,-0.008901409263141424,0.01127296361724104,0.9866840818265796
2017-02-08,-1,-0.0009984499788889946,-0.0008146348367239324,-0.005393796341987106,0.01127296361724104,0.9874292833841349
2017-02-10,-1,-0.00028902511782502826,-0.00019401267184927492,-0.007293926177205232,0.009801364706501201,0.9874104978468919
2017-02-14,1,0.00024375742364477995,0.00025640081656026347,-0.008013298047468167,0.009322721984464964,0.9871445080705287
2017-02-16,1,0.0006870655585133481,0.0007345417749402653,-0.008013298047468167,0.008977046516053099,0.9873383759327113
2017-02-21,1,0.0005061060392611528,0.0005477781441986549,-0.009181270672377815,0.008977046516053099,0.9865687291121675
2017-02-23,1,0.0013502665503049476,0.0014664448434475199,-0.008013298047468167,0.007972814519071903,0.9913028970174345
2017-02-27,1,0.0014689551077409408,0.0016003508812625854,-0.007609436010653951,0.006072953826379872,0.9915447787552213
2017-03-01,1,0.0013117177231531834,0.00142824569360235,-0.006688797306331344,0.005338961696724375,0.9929043558341287
2017-03-03,1,0.0007623445422590463,0.0008048234653433783,-0.00612730226303076,0.005338961696724375,0.9936702584337185
2017-03-07,1,0.0005252656354270096,0.0005337436158115953,-0.006688797306331344,0.005338961696724375,0.9929831378355698
2017-03-09,1,0.0007925003935392027,0.0008111023229954077,-0.006688797306331344,0.005232227101341114,0.9930304018513301
2017-03-13,1,0.0004930611827699469,0.0005189738296842964,-0.00612730226303076,0.005232227101341114,0.993689389682601
2017-03-15,1,0.0007435757092813483,0.0007729274488617033,-0.006688797306331344,0.004850076874429124,0.9932328415902212
2017-03-17,1,0.0009492742061501812,0.00100225471044704,-0.008256759656061124,0.004850076874429124,0.9927449030399016
2017-03-21,1,0.0006656417675683079,0.0007159016495989644,-0.006688797306331344,0.005232227101341114,0.9935980405498055
2017-03-23,0,-7.049533000169818e-05,2.6602023110858036e-05,-0.006688797306331344,0.005343271449602437,0.9937816262977917
2017-03-27,-1,-0.0004095072208882126,-0.00028837860332618566,-0.003794568397832804,0.005832024401612318,0.9936281113440709
2017-03-29,-1,-0.00043264329449717553,-0.00030038855555898565,-0.003794568397832804,0.006091104176155736,0.99312204977504
2017-03-31,-1,-0.0008907023561794515,-0.0006641770980192677,-0.005538368514887895,0.006573863225423369,0.991976998185701
2017-04-04,-1,-0.0012672533514907509,-0.00103097504209538,-0.008139461466519024,0.006573863225423369,0.9918932506511131
2017-04-06,-1,-0.0006638115509978953,-0.0005431277546021567,-0.008139461466519024,0.008287821105280221,0.9905645247197733
2017-04-10,1,0.0006290762467735299,0.0007659232835763561,-0.01029352135459629,0.008287821105280221,0.9906720641111461
2017-04-12,1,4.8862741726727395e-05,0.00012500947326129526,-0.005512074083480939,0.009643218481795487,0.9909917126443526
2017-04-17,-1,-0.0003837757760553946,-0.00037302466138374775,-0.004243272051767632,0.009643218481795487,0.9913352615054664
2017-04-19,1,0.00033454745425010545,0.0004532037196848011,-0.005512074083480939,0.009643218481795487,0.9905063483145816
2017-04-21,1,0.000632617229130481,0.0007964189182672995,-0.005512074083480939,0.009643218481795487,0.9906785136818755
2017-04-25,1,0.0009030107913961677,0.0010766768194262497,-0.006851427025739716,0.011960322582079658,0.9902778825588303
2017-04-27,1,0.0010557293853142552,0.0012340829819483634,-0.006851427025739716,0.011526035136216056,0.9903077887858458
2017-05-01,1,0.0016154143244932837,0.0018890429698419416,-0.005832491132973248,0.00747292493102012,0.9910339225607743
2017-05-03,1,0.0007896446618987198,0.0009372764863790027,-0.004243272051767632,0.011526035136216056,0.9915012367129743
2017-05-05,1,0.0012584387052019409,0.0014097347720880308,-0.004243272051767632,0.00747292493102012,0.9924745687541556
2017-05-09,1,0.0008684765067286074,0.0009550981537929035,-0.005089383545112583,0.00747292493102012,0.9913266027530565
2017-05-11,1,0.0009388288492019381,0.0010251167231938021,-0.004391600355321502,0.0049876479430349206,0.9920490922972305
2017-05-15,1,0.0008571163598913088,0.0009265948492266179,-0.005595580993835969,0.004771408860511096,0.9921188928467021
2017-05-17,1,0.00030490717099487466,0.00032307725538987,-0.004140925109111254,0.004771408860511096,0.9936796493131762
2017-05-19,1,0.0004777684339145871,0.0005326604498081703,-0.005595580993835969,0.0067995679431991,0.993200283481268
2017-05-23,1,0.00031250280306971607,0.0003217899404694949,-0.005595580993835969,0.00452243179972876,0.9936966796097213
2017-05-25,1,0.00021583342898079925,0.0002608075536700466,-0.005595580993835969,0.004061189554871373,0.9941595562953964
2017-05-30,1,0.0006249366086941185,0.0006730654927575206,-0.006075229260846805,0.0025939812707263805,0.9938800301462332
2017-06-01,1,0.0006694403451497528,0.000694280146656102,-0.006075229260846805,0.0025939812707263805,0.9942068537624534
2017-06-05,1,0.0006615721095957405,0.0006766464252768042,-0.006075229260846805,0.0018579360441727455,0.9941400185629137
2017-06-07,-1,-0.00025548600426183267,-0.00014422418423963915,-0.00421937298068962,0.0026733908144227305,0.9946551185864992
2017-06-09,-1,-0.0004928624714860504,-0.0003391063145543765,-0.006075229260846805,0.00387004817754692,0.9936088830230116
2017-06-13,-1,-0.0008729164485182858,-0.0006620066884482579,-0.004515383633515125,0.00387004817754692,0.9937517842596775
2017-06-15,-1,-0.0006816199353420709,-0.0005086510025311441,-0.004515383633515125,0.00387004817754692,0.9938164474524505
2017-06-19,-1,-9.943829352423064e-05,-4.014133442098485e-05,-0.004701442841575298,0.00387004817754692,0.9939535082230028
2017-06-21,-1,-0.0007669448337613628,-0.0006080824655055443,-0.003202350282120076,0.004430661678221222,0.9926731302261458
2017-06-23,-1,-0.0009886203146648321,-0.0007846154611242759,-0.0024915664783754137,0.0048846018907436955,0.9925226038036468
2017-06-27,-1,-0.0008861912894955555,-0.0007368737736067071,-0.002369107638385575,0.005289973232075638,0.9921194295830136
2017-06-29,-1,-0.0005451929116737603,-0.00044764630958506587,-0.006561241799804316,0.0048846018907436955,0.9918052710211067
2017-07-03,-1,-0.0005622653462930624,-0.000424244125495704,-0.007237863965782376,0.004001291669807719,0.9914953702546765
2017-07-06,-1,-0.0007188626390274187,-0.0005882781795178273,-0.007225971818500365,0.004061501405547794,0.9901901394672828
2017-07-10,-1,-0.0009608757509739821,-0.0008136674916503169,-0.006561241799804316,0.004446686554509835,0.9909013651732561
2017-07-12,-1,-0.0007259775732021423,-0.0006237541578468411,-0.006664765938728913,0.005289973232075638,0.9901919751763
2017-07-14,-1,-0.0009188605767176008,-0.0007802499215077283,-0.007225971818500365,0.005289973232075638,0.989406171224294
2017-07-18,-1,-0.0003566504895426055,-0.00034281306270027886,-0.007225971818500365,0.006310517578815816,0.9890210472306404
2017-07-20,1,0.0004693009000826484,0.0005740734166858649,-0.007675438009341608,0.00613355137788388,0.989609552753356
2017-07-24,1,0.0006260546494251775,0.0007439496673939561,-0.007675438009341608,0.0055150068344297955,0.9895841650952005
2017-07-26,1,0.000692902276617974,0.0007885100333945907,-0.007675438009341608,0.007266931935994475,0.9897413804748486
2017-07-28,1,0.00011949079508445537,0.0001387172952883758,-0.006809418486707448,0.007365269182344934,0.9902646004344805
2017-08-01,-1,-0.0005250205423039656,-0.0004877578823975141,-0.007675438009341608,0.007365269182344934,0.9905734418793236
2017-08-03,1,0.0006196089360456503,0.0007194766167174846,-0.006824927033613085,0.006609184257561533,0.9927280365499671
2017-08-07,1,0.0007949169549975792,0.0009194245054505118,-0.007140843273644411,0.006609184257561533,0.9922734118830735
2017-08-09,1,0.0010577773637207239,0.001234294467052509,-0.007140843273644411,0.006609184257561533,0.992323964187208
2017-08-11,1,0.00013978375621973574,0.00016427691372572208,-0.005071399589228554,0.006609184257561533,0.992980616587661
2017-08-15,1,0.00023942008130176936,0.0002752509793678287,-0.003896353325085105,0.006609184257561533,0.9933005555838907
2017-08-17,-1,-0.00017325692084391175,-0.00013246443394545414,-0.0038792169016483523,0.006304291024310966,0.994034693031811
2017-08-21,-1,-0.0002594355339022767,-0.0002146674798078308,-0.004394744688159023,0.006304291024310966,0.9936985187532263
2017-08-23,1,0.00048355664502081085,0.0005359433027046887,-0.004394744688159023,0.0049392075702662346,0.9943182469973949
2017-08-25,1,0.00035368590043995883,0.0003619292173900731,-0.004394744688159023,0.005883639682279763,0.993640656464569
2017-08-29,-1,-0.00038535534519542215,-0.0002918810664176835,-0.00302131742589091,0.006861221184437788,0.9938476653808136
2017-08-31,-1,-0.0002148302271113616,-0.0001562814708735813,-0.0027331077041589475,0.006861221184437788,0.9942372850294604
2017-09-05,-1,-0.0008137176021949125,-0.0006414530920460244,-0.0022497555806276115,0.006861221184437788,0.9943497349463762
2017-09-07,-1,-0.0006710504421469174,-0.0005022530198339001,-0.0014976981052899068,0.006453648663542593,0.9947566552280097
2017-09-11,-1,-0.00035101579826836773,-0.00023824683738156617,-0.00164265461995632,0.006453648663542593,0.9942881265573554
2017-09-13,1,2.2311913128719214e-05,8.034419599719611e-05,-0.00018499135183139975,0.006337106093971494,0.9946188828875921
2017-09-15,1,0.0002677749963522287,0.00027183545323622785,0.0001892225917438077,0.006453648663542593,0.9943778066982882
2017-09-19,1,5.0237846561927954e-05,6.475895698521337e-05,0.0003201593000488434,0.006453648663542593,0.9947359663038057
2017-09-21,1,0.00029460274946062706,0.0003338720723012891,0.0003201593000488434,0.0065694386219190045,0.9948455064662194
2017-09-25,1,0.0006164823727357546,0.0006530064786916286,0.0001388414277684693,0.006341849210312297,0.9957411355848181
2017-09-27,1,0.0016102680624670044,0.001845165218496403,0.0001388414277684693,0.006307222065001785,0.9961890401531566
2017-09-29,1,0.0013796816136258197,0.0015652973790543224,-9.061375625376664e-05,0.006307222065001785,0.9959423254600097
2017-10-03,1,0.001719999158375381,0.0019619620671859767,-9.061375625376664e-05,0.006307222065001785,0.9961618445944698
2017-10-05,1,0.0018565119449548597,0.002115456904737392,-0.0006255018233002399,0.006307222065001785,0.9929207211025413
2017-10-09,1,0.0009352960257043136,0.0010257419961278175,-0.0006255018233002399,0.006413344436046376,0.9928267899829287
2017-10-11,1,0.001175599426324957,0.0012996377971889574,-0.0014404089559684678,0.006895916278600546,0.9927528739750404
2017-10-13,1,0.0016787233730950553,0.0018840519174356113,-0.0014404089559684678,0.006895916278600546,0.9925290573191878
2017-10-17,1,0.0017746929030529497,0.00200429671094607,-0.001681755292934546,0.006895916278600546,0.9923591645948711
2017-10-19,1,0.0018678877964108062,0.002108718859363319,-0.0019351665117492188,0.007480857398000168,0.992064027038371
2017-10-23,1,0.0021937024315015373,0.0024974041643682195,-0.0019351665117492188,0.00845530821997194,0.9919108856342802
