JNU-Tangyin/eata/results/Batch4_SP500/Batch4_SP500-ESS.csv
Date,Action,Predicted_Q25,Predicted_Q75,Actual_Q25,Actual_Q75,RL_Reward
2010-12-14,0,-0.000968628458930428,0.0,-0.0045971598300250695,0.007437711164844303,0.9925410338940358
2010-12-16,-1,-0.0008297480606662056,-0.0008278081478091349,-0.0043647313838281136,0.007437711164844303,0.9923216326301416
2010-12-20,0,0.0,0.0,-0.005590360976079546,0.007437711164844303,0.9915733542336174
2010-12-22,0,0.0,0.0,-0.006347588500232478,0.0037535911959059205,0.9918714703629236
2010-12-27,0,0.0,0.0,-0.006347588500232478,0.006041142734069188,0.9907435791623788
2010-12-29,0,0.0,0.0,-0.006347588500232478,0.007325189315424127,0.9905574665487523
2010-12-31,0,0.0,0.0,-0.008187659338867432,0.00882922114016023,0.9895729974276996
2011-01-04,0,0.0,0.00014170460673903516,-0.005590360976079546,0.007325189315424127,0.9915000015775111
2011-01-06,0,0.0,0.0,-0.0074903740002765645,0.00882922114016023,0.9895786546158875
2011-01-10,0,0.0,0.0,-0.00437854617255576,0.010316708955339243,0.9897343906288615
2011-01-12,0,0.0,0.0,-0.00437854617255576,0.010741719437450906,0.9894297608318328
2011-01-14,0,0.0,0.0,-0.0010776899976105165,0.010741719437450906,0.9894714508237019
2011-01-19,0,0.0,0.0,-0.001373553349856923,0.010741719437450906,0.9908034431178269
2011-01-21,0,0.0,0.0,-0.001373553349856923,0.011764500657151204,0.9908426654345334
2011-01-25,0,0.0,0.0,-0.002002907398769111,0.008970891300864118,0.9924273447154183
2011-01-27,0,0.0,0.0,-0.002002907398769111,0.010741719437450906,0.9913505157507125
2011-01-31,0,0.0,0.0,-0.002002907398769111,0.010819526434278765,0.9902524288764196
2011-02-02,0,0.0,0.0,-0.002002907398769111,0.010819526434278765,0.9893727051517476
2011-02-04,-1,-0.00023712922649895868,-5.857845558883087e-05,-0.0027078832865497534,0.006748179297507637,0.9910593881789643
2011-02-08,1,0.0006792329021509133,0.0007401390797172822,-0.0027078832865497534,0.006748179297507637,0.9908287269895851
2011-02-10,0,0.0,0.0,-0.004499912028136675,0.007209243042656558,0.9900145366590577
2011-02-14,0,0.0,0.0,-0.004499912028136675,0.008808369439087395,0.9898433434392835
2011-02-16,0,0.0,0.0,-0.006170012380781919,0.011506057997271432,0.9891746281827384
2011-02-18,0,0.0,0.0,-0.006170012380781919,0.008553394434703723,0.9895183139121045
2011-02-23,0,0.0,0.0,-0.008053254945921988,0.008553394434703723,0.989125304704996
2011-02-25,0,0.0,0.0,-0.008053254945921988,0.008553394434703723,0.9896714207308785
2011-03-01,0,0.0,0.0,-0.006600553642003216,0.0056498318836680755,0.9915892057413166
2011-03-03,0,0.0,0.0,-0.005986623601861873,0.010575460373615942,0.9913689919535493
2011-03-07,0,0.0,0.0,-0.003601728977371789,0.010575460373615942,0.9918257141409008
2011-03-09,1,0.0018838504354355338,0.0019447893968311564,-0.003601728977371789,0.008333512492187662,0.9927673038672021
2011-03-11,0,0.0,0.0,-0.003601728977371789,0.007655940114389448,0.9936004807541297
2011-03-15,0,0.0,0.0,-0.004344370040644473,0.0062928851417168325,0.9936542068204879
2011-03-17,0,0.0,0.0,-0.0034313758699237398,0.005195480226110536,0.9942149147191561
2011-03-21,0,0.0,0.0,-0.004344370040644473,0.0062928851417168325,0.9931902467161596
2011-03-23,0,0.0,0.0,-0.0029626226687891957,0.009811150991595125,0.992891716721541
2011-03-25,0,0.0,0.0,-0.0029626226687891957,0.009811150991595125,0.9928074068600811
2011-03-29,1,0.002219546978718014,0.002426527778030312,-0.0007991705381943169,0.01058121685627017,0.9928960738415976
2011-03-31,1,0.0036318944768526334,0.004082544371803365,-0.0012458537564799112,0.010042115014006626,0.9924805304715252
2011-04-04,1,0.0019654254139834055,0.0020507166809560816,-0.0032103111240348974,0.010042115014006626,0.9919541898949664
2011-04-06,1,0.0025672780866715494,0.002770746114166691,-0.005697225463256985,0.010042115014006626,0.9917655847034895
2011-04-08,1,0.001964617505016076,0.002058878792751638,-0.006255473839107482,0.010042115014006626,0.9915337363348611
2011-04-12,-1,-0.002328653100415929,-0.002171077831157032,-0.006255473839107482,0.011661674585340813,0.9895276893440217
2011-04-14,-1,-0.002230243567000313,-0.002058426812798097,-0.006255473839107482,0.011661674585340813,0.9896495708692987
2011-04-18,1,0.001973259782172769,0.0020000175351914005,-0.005186782896084305,0.010042115014006626,0.9913930943116113
2011-04-20,1,0.002634577229373024,0.002755219029929633,-0.005186782896084305,0.008221172037667883,0.9921607547531508
2011-04-25,1,0.0033621682278379256,0.003597206250385335,-0.007670962223350367,0.006407404476100432,0.991063324283951
2011-04-27,1,0.0011901659609520393,0.0015172672601204995,-0.007670962223350367,0.0062429250530970405,0.9920365827802822
2011-04-29,1,0.001021329797490297,0.0013197564503093996,-0.006255473839107482,0.0062429250530970405,0.9933083263927951
2011-05-03,0,0.0,0.0,-0.006399840428574647,0.007403102620803168,0.9912546612819657
2011-05-05,0,0.0,0.0,-0.005186782896084305,0.008190204451758774,0.9908704206529743
2011-05-09,0,0.0,0.0,-0.005295702473835973,0.009072851164603256,0.990362723907168
2011-05-11,0,0.0,0.0,-0.00474225122242953,0.007696766182748599,0.991672116312191
2011-05-13,0,0.0,0.0,-0.005066165359547178,0.007696766182748599,0.9910307041801288
2011-05-17,0,0.0,0.0,-0.00748839958072163,0.009072851164603256,0.9896931281387917
2011-05-19,0,0.0,0.0,-0.00748839958072163,0.009587832283932798,0.9890055555048903
2011-05-23,0,0.0,0.0,-0.0036841348507449813,0.011477309763815821,0.989217691568998
2011-05-25,0,0.0,0.0,-0.008168021702141816,0.011477309763815821,0.9883833308676448
2011-05-27,0,0.0,0.0,-0.008168021702141816,0.011477309763815821,0.9884156056634438
2011-06-01,0,0.0,0.0,-0.005318055948198976,0.010593761805724201,0.9902981638150163
2011-06-03,0,0.0,0.0,-0.005318055948198976,0.010593761805724201,0.9899834227616311
2011-06-07,0,0.0,0.0,-0.004749702380550531,0.010593761805724201,0.989765406741265
2011-06-09,0,0.0,0.0008534408865711961,-0.0022053726408835755,0.010593761805724201,0.9902458967332706
2011-06-13,0,0.0,0.0,-0.00025255611996443305,0.010593761805724201,0.9901637133424683
2011-06-15,0,-0.0001973091568949943,0.00020964546084765784,-0.005604337311855855,0.009909054790583046,0.9907886968634558
2011-06-17,1,0.0014851739222605036,0.0016108780186140693,-0.005604337311855855,0.009164332755866138,0.991368339412794
2011-06-21,1,0.002622472688853168,0.0026466965984207353,-0.005604337311855855,0.009031274546054409,0.991550883650632
2011-06-23,1,0.0007516381473775091,0.0009681509689135031,3.3430594592088114e-05,0.009031274546054409,0.9927352050387468
2011-06-27,1,0.0003682497207771593,0.0006498879683529718,-0.0009119487626909588,0.009031274546054409,0.9928908633387858
2011-06-29,0,-3.908184746964139e-05,0.00031955308505246527,-0.004464726225008563,0.009031274546054409,0.9915507013469862
2011-07-01,1,0.0014831843122647672,0.0016498927201542778,-0.004464726225008563,0.009031274546054409,0.9918597492763268
2011-07-06,1,0.0017302696135927645,0.0017712329306028847,-0.007595577250658391,0.007734860803501831,0.9912309864911192
2011-07-08,1,0.0018074234243649595,0.0018702218947704722,-0.016155350579478166,0.005617547159428692,0.9880047995961199
2011-07-12,1,0.0012501900343739733,0.0012695190601089937,-0.016507627288818046,0.007734860803501831,0.9816844957874321
2011-07-14,1,0.0004944116270002232,0.0006041750559069066,-0.016507627288818046,0.008514306271693042,0.9800390347380106
2011-07-18,1,0.0005259356953648211,0.0006378445883975025,-0.016507627288818046,0.010060584664373269,0.9787725754837243
2011-07-20,1,0.0016203276909696634,0.0016933878938416892,-0.016507627288818046,0.005617547159428692,0.9791292915773987
2011-07-22,1,0.0015708767372044647,0.001623528878905442,-0.017727589850420656,0.003662201315936808,0.9765085950825447
2011-07-26,1,0.001030916503938655,0.001074222770565679,-0.017727589850420656,0.00927775495622725,0.9752434528957535
2011-07-28,-1,-0.0006202591160105362,-0.0003450037510624044,-0.017727589850420656,0.01549737901988753,0.9752811478202109
2011-08-01,1,0.0003169601782950143,0.00046417321421862885,-0.017727589850420656,0.021138671944895146,0.9740287470615494
2011-08-03,-1,-0.0009234007772599062,-0.0006398671746790227,-0.01678571634431848,0.021138671944895146,0.9751401647263553
2011-08-05,-1,-0.0035864043467030583,-0.002985108123870689,-0.01251846611189759,0.021138671944895146,0.9772526145326369
2011-08-09,0,0.0,0.0,-0.010303153576186885,0.021138671944895146,0.982011707207681
2011-08-11,0,0.0,0.0,-0.01251846611189759,0.019089121101960028,0.9838180404284439
2011-08-15,-1,-0.0015452444425448483,-0.0013683350157342698,-0.011392208748623699,0.01236251437466096,0.9853878786457219
2011-08-17,0,0.0,0.0,-0.011392208748623699,0.01236251437466096,0.9855907252847534
2011-08-19,0,0.0,0.0,-0.004576902475438904,0.01236251437466096,0.9866585293694569
2011-08-23,-1,-0.0007445473012856974,-0.0005217905752544003,-0.015414002470901765,0.0061298482193371615,0.9846409431214269
2011-08-25,-1,-0.0009143136561040919,-0.0006717064316471741,-0.015414002470901765,0.005164388467312352,0.9847151788608655
2011-08-29,1,0.0006943060906218733,0.0007432885145277081,-0.015414002470901765,0.0033172137808923953,0.9866081188307638
2011-08-31,1,0.0008687648507357296,0.0009112515352322993,-0.01958283696858566,0.0033172137808923953,0.9844157403457121
2011-09-02,-1,-0.000515916899837424,-0.0002919767267032375,-0.026510890116382146,0.0033172137808923953,0.982568578666161
2011-09-07,1,0.0005296297809680298,0.000649239171602975,-0.026510890116382146,0.0033172137808923953,0.9811057850548437
2011-09-09,-1,-0.00030587246473822447,-0.00010656917190995268,-0.026510890116382146,0.004572537644532048,0.9800299612938926
2011-09-13,1,0.0002270548397963158,0.00032527850245433245,-0.02943985571657809,0.005164388467312352,0.9754563216097237
2011-09-15,1,0.0007327994018630398,0.0007356588001709832,-0.02943985571657809,0.011006487393060666,0.97346573758004
2011-09-19,1,0.0001978765217230268,0.0002249876146908027,-0.02709243475872411,0.024692035898404272,0.9738158767145352
2011-09-21,-1,-0.0025379428134939598,-0.002213076188661288,-0.021635638333455103,0.025674531291993135,0.9757036079061876
2011-09-23,-1,-0.003640664622634222,-0.0031763329651755554,-0.01719879764071954,0.025674531291993135,0.9762046614610683
2011-09-27,-1,-0.003660049035134616,-0.0031854087664613603,-0.01719879764071954,0.02893475041182015,0.974724434111615
2011-09-29,-1,-0.003767485713987724,-0.0032865870590640276,-0.010051090477455064,0.031502438227059136,0.9746699959174894
2011-10-03,-1,-0.0061994489170666914,-0.0054489294206075374,-0.006445722293240433,0.031502438227059136,0.9758207975541525
2011-10-05,-1,-0.004326832043599073,-0.0037840612801658714,-0.008486893423665718,0.02893475041182015,0.9772253455567285
2011-10-07,-1,-0.003533771042049585,-0.0030978700217286453,-0.008486893423665718,0.025580776253569592,0.978384644157226
2011-10-11,-1,-0.002614205214189698,-0.0022927238961213963,-0.005441071542702906,0.023138642354061635,0.9827734604257057
2011-10-13,-1,-0.0026569781791727434,-0.0022872897558054795,-0.005441071542702906,0.01562769008377469,0.9825191088297128
2011-10-17,-1,-0.0015952030456513181,-0.001376440737727118,-0.00854276772877793,0.015388472485407928,0.9821551318366194
2011-10-19,1,6.783699757996428e-05,7.37167713210579e-05,-0.015237046255920931,0.013851451666514672,0.9830378233057632
2011-10-21,1,0.0004675554232182582,0.0005019284048335343,-0.016964314667884752,0.011339163054606216,0.9829815167114668
2011-10-25,1,0.0014441834064452639,0.0016270495146109068,-0.020432867544841943,0.01006193980444071,0.9829617312240885
2011-10-27,1,0.0030650363590518405,0.0034804117446157277,-0.02622696205752791,0.00604858269642391,0.9831793371803006
2011-10-31,1,0.002125199300087248,0.0024014077960884447,-0.020917225635001258,0.008827895199248807,0.9839134006270921
2011-11-02,1,0.0008239960247114295,0.0008872381343733066,-0.016964314667884752,0.010713274186534175,0.9832001051816256
2011-11-04,1,0.0005662773318897277,0.0005792162025136506,-0.01580325983462592,0.008827895199248807,0.9841484926061808
2011-11-08,1,0.0009091708839393975,0.0009967810820852535,-0.01580325983462592,0.011271559652162233,0.9830866698761458
2011-11-10,1,0.00035265342046939647,0.0004080199109099072,-0.01580325983462592,0.015526852311999084,0.9836435154859773
2011-11-14,-1,-0.0001874628396531791,-0.00011887010404234994,-0.01583244147867583,0.010246144669661013,0.9846024311841235
2011-11-16,-1,-0.0001923802704523336,-0.00012336182110158963,-0.011713651270068147,0.01024668891826125,0.9845918054019706
2011-11-18,-1,-0.001037837475770999,-0.0008809865558730228,-0.009890598321533817,0.012821176254580346,0.9849973931434927
2011-11-22,-1,-0.0017381547846168632,-0.0015404073225567597,-0.004877050225808818,0.016411878790766124,0.9850992155513746
2011-11-25,0,0.0,0.0,-0.0037181720828746243,0.016411878790766124,0.9861959146183927
2011-11-29,-1,-0.0014363606386075315,-0.0013258711500249772,-0.004877050225808818,0.01495278531926894,0.9859317279082722
2011-12-01,1,0.0006313445076036271,0.000801841994541032,-0.004877050225808818,0.012334811764081284,0.9890898158596462
2011-12-05,1,0.0004927703668255591,0.000597675759370831,-0.007725509360994403,0.012334811764081284,0.9885655920744306
2011-12-07,1,0.0003323849520374716,0.00040922453498371116,-0.006019827100143038,0.012334811764081284,0.9887737863732616
2011-12-09,1,0.001966157041612466,0.0023441406491538637,-0.0038662646655620173,0.009680376134546757,0.9904563925762483
2011-12-13,1,0.001275544019666046,0.0015827698475613051,-0.0055238113936718,0.009680376134546757,0.9903880174795433
2011-12-15,1,0.0025345517538397228,0.0029989713782841996,-0.0055238113936718,0.009680376134546757,0.9902833586647143
2011-12-19,1,0.0018017970064085087,0.0020847405037717212,-0.005821373414206851,0.005356330143057928,0.9903186992136485
2011-12-21,1,0.003521341728366535,0.004088397482185747,-0.0071246807241050324,0.004814740972979639,0.9899610108792746
2011-12-23,1,0.0033811031727926247,0.0038388260504336157,-0.0071246807241050324,0.009859806082363788,0.9894926792910947
2011-12-28,1,0.001290794875594862,0.0012988878376926304,-0.007049672875315459,0.01044071611426892,0.9901725736174438
2011-12-30,1,0.0018122711440239823,0.0019660812794860478,-0.007049672875315459,0.01044071611426892,0.9901430663949856
2012-01-04,1,0.002104800216873223,0.002426313706565247,-0.005170149440405327,0.013043603221771697,0.9901125543306164
2012-01-06,1,0.0030387671179300324,0.003522964953919413,-0.007049672875315459,0.012876162031090339,0.9896813127576591
2012-01-10,1,0.002910599899257729,0.003366639185491643,-0.0073773700658303935,0.012876162031090339,0.9893114624804198
2012-01-12,1,0.0006312680324514123,0.0006374397806378381,-0.007302765691906423,0.012876162031090339,0.9895245310080482
2012-01-17,1,0.002697748658777803,0.003057035186620729,-0.007302765691906423,0.01044071611426892,0.9903816763001733
2012-01-19,1,0.0017666977900237424,0.0019889187401323713,-0.006441004242252654,0.01044071611426892,0.9912424248694299
2012-01-23,1,0.0030848509374200982,0.0035950242237673896,-0.007302765691906423,0.00954090179172201,0.9902968947295259
2012-01-25,1,0.004622179009551661,0.005368754097741903,-0.008979562843246896,0.0063442525371840315,0.989688299158715
2012-01-27,1,0.003941497501077383,0.004522790256698975,-0.007302765691906423,0.0063442525371840315,0.9902183834266782
2012-01-31,1,0.004545884490305404,0.0052893779641217525,-0.00931174482827579,0.009563095486138352,0.9893768759400218
2012-02-02,1,0.004841178400600924,0.005555332828863037,-0.00931174482827579,0.006871535455700014,0.9899616798715803
2012-02-06,1,0.0046940731705826955,0.005398332215863693,-0.008834602415421312,0.006871535455700014,0.9901626122837587
2012-02-08,1,0.004351940359735178,0.005018894583077811,-0.008834602415421312,0.009547717153433683,0.9907494256167776
2012-02-10,1,0.002895236502575872,0.003303285334159781,-0.004247451951926693,0.00975144133920704,0.990927743055047
2012-02-14,1,0.0007343473522340614,0.0008156478532482451,-0.0051718776928773805,0.009837188956576067,0.9896650097175843
2012-02-16,0,0.0,0.0,-0.0051718776928773805,0.009837188956576067,0.9896923491912487
2012-02-21,0,0.0,0.0,-0.0038655498784497654,0.009837188956576067,0.9910961981933615
2012-02-23,0,0.0,0.0,-0.0051249865471585075,0.00975144133920704,0.9913604620956088
2012-02-27,0,0.0,0.0,-0.0051249865471585075,0.00979105395846206,0.9906912845012555
2012-02-29,0,0.0,0.0,-0.004839489458943919,0.008402262146570607,0.9915500532002401
2012-03-02,-1,-0.0023375117805767938,-0.0016519463639960003,-0.004839489458943919,0.009970299548987972,0.9908038504968645
2012-03-06,-1,-0.002079022476917287,-0.0015101899597630268,-0.0029202593857214285,0.009147579898873624,0.9918782453069173
2012-03-08,-1,-0.0014473677337960545,-0.000993641909952809,-0.004567747231577072,0.008206101110694359,0.9923954207286134
2012-03-12,-1,-0.0009007250045358016,-0.0005340917740011949,-0.007047662008014058,0.005604766538872483,0.9926284183209173
2012-03-14,-1,-0.00025912264232903835,-1.450750115886319e-05,-0.006521725628384321,0.008206101110694359,0.9928142683885974
2012-03-16,1,0.0006881295947156681,0.0007920202075621634,-0.006521725628384321,0.009381816441359225,0.9921496504958168
2012-03-20,1,0.0009217137494710826,0.0009347047663354738,-0.006521725628384321,0.009381816441359225,0.9922250729792002
2012-03-22,1,0.0012189392843046023,0.0012639029694523865,-0.0016169631358631165,0.011059254706245563,0.9923837315401783
2012-03-26,1,0.0006955988440308946,0.0008087919833428714,-0.002886656297816931,0.010836039031697496,0.9928547251973161
2012-03-28,1,0.00010797790778777007,0.000333506868100238,-0.0016169631358631165,0.010836039031697496,0.993107863258514
2012-03-30,1,0.0013159963485620634,0.0014531627965710793,-0.002886656297816931,0.005660196303526966,0.9937486732009005
2012-04-03,1,0.0031988372222506558,0.003575022041027091,-0.0040809623307060915,0.006487059827929999,0.9932052714083468
2012-04-05,1,0.002037110547269979,0.002172922042130199,-0.0040809623307060915,0.006487059827929999,0.9932465221946553
2012-04-10,1,0.0009352877840347816,0.0009417062555851062,-0.0013253297108920484,0.011548344272003738,0.9938341550241376
2012-04-12,1,0.0018971966257139198,0.0020133660142089916,-0.0018623845828173433,0.003306154725717922,0.9946132028081043
2012-04-16,1,0.0018859736136604712,0.0019165313031758323,-0.0033762601194746614,0.002596559386456053,0.9948375974268542
2012-04-18,1,0.0005828851996892672,0.0008034830633725869,-0.004850726003622929,0.002596559386456053,0.9944861475525096
2012-04-20,1,0.0004921617553632364,0.0007889661042433591,-0.004855228576882142,0.0015645633246613305,0.9940508311136176
2012-04-24,1,0.0011820500961797675,0.0013534072575181054,-0.004855228576882142,0.0022668924192348547,0.9939964357127774
2012-04-26,1,0.0026771909790458672,0.0028364202141578834,-0.004855228576882142,0.0018583081374556256,0.9932865791471808
2012-04-30,1,0.0021089690805366317,0.002162943630238459,-0.00486749123207686,0.0023644197316693844,0.9933072108460793
2012-05-02,1,0.002203326033584407,0.0022982981989327807,-0.00604950231503575,0.0023644197316693844,0.9921018543467288
2012-05-04,1,0.0014469337629183904,0.001459428348401776,-0.00741622588451854,0.0023644197316693844,0.9918138570367867
2012-05-08,1,0.0011919606694388767,0.0012914470029462047,-0.00741622588451854,0.004693418836226116,0.9905747691186895
2012-05-10,1,0.0016167335325051537,0.0016310426725201586,-0.009996772093699959,0.009304808487411595,0.9895894714880322
2012-05-14,1,0.0009711092199370745,0.0010396156790858065,-0.01053305263106335,0.009304808487411595,0.9889237232180431
2012-05-16,1,0.0009097142996918211,0.0009238644661598832,-0.008357478145418236,0.009498000836578202,0.9888388264413316
2012-05-18,0,-1.8126760576686466e-05,6.981142888932033e-05,-0.00532306575523779,0.009498000836578202,0.9899579469322145
2012-05-22,1,0.0003009516595920339,0.00037135616932168665,-0.00532306575523779,0.009304808487411595,0.9903795602601971
2012-05-24,1,0.0001499012075785136,0.00025170570370112305,-0.008195950848499663,0.009304808487411595,0.9896014306174177
2012-05-29,-1,-0.00028902887256859115,-9.014821758405902e-05,-0.008195950848499663,0.007340886405562937,0.9897219787420214
2012-05-31,-1,-0.0006998033472339815,-0.00048300608355087023,-0.008195950848499663,0.0077093419855158865,0.990129302551305
2012-06-04,-1,-0.0019460421931739643,-0.001580297076079034,-0.004200725688766694,0.010940865969567443,0.9893542138081668
2012-06-06,0,0.0,0.0,-0.004200725688766694,0.007395999424818417,0.9917090996888647
2012-06-08,0,0.0,0.0,-0.0029670640868301344,0.0066156354673303245,0.9923829292926255
2012-06-12,0,0.0,0.0,-0.0032279642578860773,0.0066156354673303245,0.993189604164647
2012-06-14,0,0.0,0.0,-0.0032279642578860773,0.007395999424818417,0.9927651986617095
2012-06-18,0,0.0,0.0,-0.0032279642578860773,0.007395999424818417,0.9927155708987744
2012-06-20,-1,-0.822342856881571,-0.8176033255836164,-0.005635095191032539,0.007395999424818417,0.5489008119943882
2012-06-22,0,0.0,0.0,-0.00316413759962059,0.007395999424818417,0.9926425480766788
2012-06-26,0,0.0,0.0,-0.00316413759962059,0.009223896165028434,0.9927895048884063
2012-06-28,0,0.0,0.0,-0.00316413759962059,0.007224934380733664,0.9932832580508799
2012-07-02,0,0.0,0.0,-0.00316413759962059,0.004598291815877757,0.9945813310083739
2012-07-05,1,8.643870659051197e-05,0.0001399750163688955,-0.004383727143108834,0.004598291815877757,0.994386092695501
2012-07-09,0,0.0,0.0,-0.004383727143108834,0.003115070194977412,0.9946981239375132
2012-07-11,-1,-0.000627072673198658,-0.0005678424697318106,-0.006758539478448349,0.003115070194977412,0.9940079666174658
2012-07-13,1,0.000650045006158927,0.0007574085091325677,-0.006758539478448349,0.0026806012248397145,0.9945499887646105
2012-07-17,1,0.0006330166454796211,0.0007486398512833435,-0.007035116494681116,0.0001888165194913349,0.994332051082595
2012-07-19,-1,-0.0002596521360757046,-4.9715673313369016e-05,-0.004383727143108834,0.0026806012248397145,0.9953525604372857
2012-07-23,-1,-0.000851632407260764,-0.000554306539238861,-0.0061928958856660495,0.0026806012248397145,0.9953547717832649
2012-07-25,-1,-0.0005570173772997795,-0.00029372173658170117,-0.0061928958856660495,0.002811800940924283,0.9951118882896699
2012-07-27,-1,-0.0006292926887501417,-0.0003771453849929547,-0.0038092210931524135,0.002811800940924283,0.9954573826621963
2012-07-31,-1,-0.0004262302219682385,-0.00021978209144453084,-0.0038092210931524135,0.002811800940924283,0.9955108242179953
2012-08-02,-1,-0.00036823372414222056,-0.0002067874154714327,-0.0044667849872674185,0.002811800940924283,0.9953341633740703
2012-08-06,-1,-0.0004100342793728495,-0.0002617179097707891,-0.0044667849872674185,0.0034388516374577456,0.9948865941100483
2012-08-08,-1,-0.001983116202233688,-0.0016505121063197783,-0.0017996833804872377,0.003601038084798844,0.9955306759140349
2012-08-10,-1,-0.0015175899030738626,-0.0012560732386319754,-0.0032644473363494567,0.0037602724593704187,0.9955256591483747
2012-08-14,0,0.0,0.0,-0.0032644473363494567,0.0037602724593704187,0.9958870674146032
2012-08-16,0,0.0,0.0,-0.0005382900304482215,0.00412933673238266,0.9953741874068455
2012-08-20,0,0.0,0.0,-0.002870666650108408,0.00412933673238266,0.9954696479334061
2012-08-22,-1,-0.00028996338408732717,-0.00024572796224770686,-0.004067037799406349,0.0034210292232925484,0.9951608189721571
2012-08-24,0,0.0,0.0,-0.004067037799406349,0.0023404729077652975,0.9953347910714321
2012-08-28,0,0.0,0.0,-0.004953949244297186,0.0023404729077652975,0.9946033108641036
2012-08-30,-1,-0.0020322080094540753,-0.0016847021332824608,-0.004600267641834877,0.002710152285026762,0.9950131324105713
2012-09-04,-1,-0.0007798987881620302,-0.0006355048482485374,-0.004953949244297186,0.0021215346447146016,0.9941610802032304
2012-09-06,0,0.0,0.0,-0.005306261142524397,0.0015752023533979935,0.9938501310079383
2012-09-10,0,0.0,0.0,-0.005306261142524397,0.0013756133415969841,0.9939990184895322
2012-09-12,0,0.0,0.0,-0.005696500701891478,0.001516648619006802,0.9937764287987673
2012-09-14,0,0.0,0.0,-0.005696500701891478,-0.0003225855680521095,0.9942707770333058
2012-09-18,0,0.0,0.0,-0.005696500701891478,0.0011516102100088785,0.9942105502703209
2012-09-20,0,0.0,0.0,-0.005084029097419546,0.001639875078093957,0.9938795115060647
2012-09-24,0,0.0,0.0,-0.005696500701891478,0.001639875078093957,0.9934498105145418
2012-09-26,0,0.0,0.0,-0.005696500701891478,0.001639875078093957,0.9938593525271974
2012-09-28,0,0.0,0.0,-0.005907308931009945,0.0011516102100088785,0.993886572790573
2012-10-02,0,0.0,0.0,-0.005907308931009945,0.0011516102100088785,0.9928560605790043
2012-10-04,0,0.0,0.0,-0.006567655379616356,0.001709005383750457,0.9924771796232795
2012-10-08,-1,-0.002200556249587318,-0.00199082289463312,-0.006567655379616356,0.0014119144102214126,0.992927843843453
2012-10-10,-1,-0.0021800783657928125,-0.0019226733252928323,-0.0076938254756309405,0.0005832791806090881,0.9929027648000914
2012-10-12,-1,-0.0020197175910816527,-0.0017938958373476597,-0.008119505036861971,0.0005832791806090881,0.9926235702300246
2012-10-16,-1,-0.0017635875785908157,-0.001617055330769446,-0.008384146621874937,-0.0002476334761407796,0.9920620133355771
2012-10-18,-1,-0.0006555361300262985,-0.0006135005625781447,-0.008384146621874937,0.00018884485422244134,0.9921842695797926
2012-10-22,-1,-0.0015985884908517158,-0.0014165808446287165,-0.008384146621874937,0.0011276935723830755,0.9925344669543119
2012-10-24,-1,-0.0024805256112397974,-0.0021379414157647065,-0.008384146621874937,0.00287294533870527,0.9926185291562712
2012-10-26,-1,-0.0016990265826487764,-0.0015572248924589304,-0.008384146621874937,0.00287294533870527,0.9925615890381103
2012-11-01,-1,-0.0008835902146332877,-0.000822134506292577,-0.00670899411966501,0.00287294533870527,0.9943637294599891
2012-11-05,-1,-0.0019724392612932074,-0.0017338167731958084,-0.0060346966075686195,0.0036741586854639554,0.9943676628612921
2012-11-07,-1,-0.002064567009555708,-0.0018422070728833476,-0.0060346966075686195,0.0063374834195227235,0.9934882639737732
2012-11-09,-1,-0.0024810314793268853,-0.002242552543338411,-0.00508177060280955,0.0063374834195227235,0.9937711440512886
2012-11-13,-1,-0.002892563990816793,-0.002580051266265591,-0.0024580418996838563,0.0063374834195227235,0.9932565726538503
2012-11-15,-1,-0.004066255444125307,-0.0035838950482923763,-0.0012229264211934847,0.0063374834195227235,0.993377754813498
2012-11-19,-1,-0.0030961008821996823,-0.0027595544030825057,-0.0012229264211934847,0.006018808676640857,0.9940787980948211
2012-11-21,-1,-0.0026563294321304822,-0.00236263098180717,-0.0012229264211934847,0.006375449463602153,0.9936080284210349
2012-11-26,-1,-0.0015789434527524262,-0.0014566135503295398,-0.001995045136489147,0.006375449463602153,0.9940791608057611
2012-11-28,-1,-0.0016430247098694222,-0.0015197602114565677,-0.001995045136489147,0.006839317628681946,0.9937492091857553
2012-11-30,-1,-0.0010551804992564968,-0.0010254673135905628,-0.0029811721954378376,0.006211397442413551,0.9936485321423449
2012-12-04,-1,-0.0006028742356685218,-0.000600499617253192,-0.0029811721954378376,0.006211397442413551,0.9936923574857698
2012-12-06,1,7.506184782899952e-05,0.0002285117262647207,-0.001995045136489147,0.005709133860136276,0.9950004846477359
2012-12-10,1,0.00019693022548772962,0.0003830069667908765,-0.0013607582325365344,0.005709133860136276,0.9948390531202926
2012-12-12,1,0.0004205023178820807,0.0006057293989129626,-0.0014767236130502734,0.006211397442413551,0.9950006823998807
2012-12-14,1,0.0002541163719587428,0.0004133016190972614,0.0005587795379543355,0.0067037152073146835,0.9945214539208208
2012-12-18,1,0.000221727770738251,0.0003939642088198473,-0.0013076403242595683,0.0067037152073146835,0.9947428520897678
2012-12-20,1,0.000700725989200327,0.0009218394232519387,-0.0010054740659447845,0.006675304330111451,0.9957708889352163
2012-12-24,1,0.001264488077394875,0.0015589571435946801,-0.00019936525512339811,0.005341664774789212,0.9963294359289885
2012-12-27,1,0.0011466157140450567,0.0014081101590320737,-0.00019936525512339811,0.004202237931575942,0.996681263163411
2012-12-31,1,0.0010473881050521907,0.0012860063389903572,-0.00019936525512339811,0.004149735346675167,0.9967273557025257
2013-01-03,1,0.0007411149505109312,0.0008675633069816012,-0.00019936525512339811,0.003781201316821144,0.9969813130049783
2013-01-07,1,0.0010436833487409355,0.0012345295308540626,-0.0010387466310079931,0.003781201316821144,0.9964907390278716
2013-01-09,1,0.0010371950785987866,0.0012027191226390707,-0.00268525549616866,0.003498953397856656,0.9959333735314426
2013-01-11,1,0.0013522984958796104,0.0015703504173144103,-0.00268525549616866,0.003498953397856656,0.9958610602042303
2013-01-15,1,0.0016791219949001462,0.0019281833281247296,-0.00268525549616866,0.0032798161105633194,0.9961132863405308
2013-01-17,1,0.0016554332943365287,0.0019299440976952558,-0.004544702220445094,0.0032798161105633194,0.9959071704498769
2013-01-22,1,0.0020530063375858577,0.002393892452387605,-0.004882764647392495,0.0032798161105633194,0.995055833418086
2013-01-24,1,0.001999883285237005,0.0023341708216552508,-0.005611238604002396,0.002670761353450798,0.9947311646808067
2013-01-28,1,0.0019910368412740125,0.0023042698395448866,-0.00691599261853754,0.0028705498901419246,0.9941197846782153
2013-01-30,1,0.0018880880321030284,0.0022083816290651057,-0.005611238604002396,0.0025438119411670883,0.9943469307533037
2013-02-01,1,0.0022281596692048456,0.0026056826780281404,-0.005611238604002396,0.0015103342873013543,0.9938368219358197
2013-02-05,1,0.0017411328029882855,0.0020456127183030295,-0.005068077518249297,0.001944373796134113,0.9941179314191123
2013-02-07,1,0.001329438327031212,0.0015755209839145874,-0.005068077518249297,0.0027762004730232524,0.9946021100849658
2013-02-11,1,0.0020825822578836523,0.0025057178678871772,-0.005068077518249297,0.001944373796134113,0.9944281331541438
2013-02-13,1,0.00206075220699772,0.0024183693563092053,-0.005068077518249297,0.0023899715873745473,0.9943584994197459
2013-02-15,1,0.0012438031967559118,0.0014266442351863378,-0.0050344435129564226,0.0027762004730232524,0.9943961049749743
2013-02-20,1,0.0013680839708425684,0.0015982948655828444,-0.004870509270848522,0.0023899715873745473,0.995193915626149
2013-02-22,1,0.0011395487034306082,0.001311427491639754,-0.004870509270848522,0.0023899715873745473,0.9950035243305408
2013-02-26,1,0.000740292444702025,0.0008586388342335332,-0.003721780943880809,0.002422571582539585,0.9954404069890417
2013-02-28,1,0.0006135987505567095,0.0007217525079065856,-0.00323901470363582,0.0030870540773376472,0.9955405138827523
2013-03-04,1,0.0004014168155582556,0.00046771735323336333,-0.0023970260139099895,0.0054657382788531085,0.9953170847778413
2013-03-06,1,0.0007240686379802279,0.0008174116294631228,-0.0031627216669844124,0.0054657382788531085,0.9946903167849804
2013-03-08,1,0.000495425282264742,0.0005696830437429395,-0.0023843960318371002,0.005738415138976199,0.9947327700296489
2013-03-12,0,0.0,0.0,-0.0031627216669844124,0.005738415138976199,0.9941727794807528
2013-03-14,-1,-2.6171122492619164e-05,-2.481188877124372e-05,-0.0031627216669844124,0.0058838840385062735,0.9938139008111917
2013-03-18,1,0.0014084884291841616,0.0016122891720621395,-0.0031627216669844124,0.0058838840385062735,0.9932202026058742
2013-03-20,1,0.0010043266709789322,0.0011201366024353302,-0.0031627216669844124,0.0058838840385062735,0.9923589048810318
2013-03-22,0,0.0,0.0,-0.0031627216669844124,0.006530218011995138,0.9920424517879769
2013-03-26,0,0.0,0.0,-0.0037923303350563408,0.006530218011995138,0.9921403263461623
2013-03-28,0,0.0,0.0,-0.0037923303350563408,0.006530218011995138,0.9922089678440953
2013-04-02,1,0.00041236164628831126,0.0005014212385563077,-0.0037923303350563408,0.00829528560419367,0.9914629686863471
2013-04-04,0,0.0,0.0,-0.006937413156385947,0.007853870106956137,0.9921047175769797
2013-04-08,0,0.0,0.0,-0.006937413156385947,0.007853870106956137,0.9925772808926017
2013-04-10,1,0.000232031185726402,0.00027447811691950943,-0.005960731755433608,0.00829528560419367,0.9919923721839293
2013-04-12,1,0.0010914381172286557,0.001180672776398108,-0.005960731755433608,0.008908169337838803,0.9918199822904445
2013-04-16,0,0.0,0.0,-0.0035867771881178895,0.008745436434462225,0.9925392740205615
2013-04-18,0,0.0,0.0,-0.00135214586862962,0.008745436434462225,0.9928776341940397
2013-04-22,0,0.0,0.0,-0.0003563898077672866,0.009966068513887757,0.9929678272085641
2013-04-24,0,0.0,0.0,0.0005814691095116366,0.009966068513887757,0.9920622239249254
2013-04-26,0,0.0,0.0,-0.00076916932779178,0.009966068513887757,0.9911426010032404
2013-04-30,0,0.0,0.0,-0.0035429262644368848,0.006893043689120212,0.9916875987918741
2013-05-02,0,0.0,0.0,-0.003750469982364897,0.006893043689120212,0.9911708136396556
2013-05-06,0,0.0,0.0,-0.008818350159451248,0.006893043689120212,0.9903439895487498
2013-05-08,1,0.0012552245820933003,0.0012883024551473643,-0.01034762196519722,0.006893043689120212,0.9906748649841965
2013-05-10,1,0.0016414230798514244,0.001708666464651406,-0.01034762196519722,0.005682219781965326,0.991355972572816
2013-05-14,1,0.0019924779172253923,0.002147252222643589,-0.012604487083005222,0.005208026109618945,0.990744487823182
2013-05-16,1,0.0026503506565033115,0.002913143602274199,-0.012604487083005222,0.004542723050826239,0.9893425379473414
2013-05-20,1,0.0030581807975256932,0.0033868916205766443,-0.012604487083005222,0.0005299653553990574,0.9888704718087794
2013-05-22,1,0.002599969522017833,0.002884051443518501,-0.013228230047049072,-0.0009763880344766899,0.9877863023836643
2013-05-24,1,0.002006104907452305,0.0021389428321776736,-0.012604487083005222,0.002157122877609677,0.9880769588018276
2013-05-29,1,0.0004355145285092482,0.0004707273466403243,-0.01030728048390474,0.005356774374034732,0.988634350067511
2013-05-31,-1,-0.0006193237166759794,-0.0004655903312537272,-0.008913009889815887,0.007256494436135284,0.9885317208902515
2013-06-04,0,0.0,0.0,-0.008205359560447977,0.010182789835763931,0.9887213800736306
2013-06-06,0,0.0,0.0,-0.008205359560447977,0.006938658319690543,0.9890678244459965
2013-06-10,-1,-0.00029465671649086427,-0.0002691131084775486,-0.008205359560447977,0.012252765730461315,0.9878717666293515
2013-06-12,-1,-0.001006446101454858,-0.0008530617692124966,-0.0053739059667350835,0.01943155005941125,0.9873178062963158
2013-06-14,0,0.0,0.0,-0.007538033956190734,0.012252765730461315,0.9884060872004952
2013-06-18,1,0.018442173645090223,0.018891452659623005,-0.0053739059667350835,0.01340693092319398,0.9832549589478214
2013-06-20,-1,-0.002031698508683534,-0.0017859377730092408,6.0910982568323645e-05,0.01340693092319398,0.9893777119904335
2013-06-24,-1,-0.0004141050338915236,-0.0003471838453585414,-0.0019438891366321785,0.010249675450230079,0.9910060156028464
2013-06-26,1,0.0003319453411074456,0.0003650681953857103,-0.0053739059667350835,0.007764635159709663,0.9907513409096262
2013-06-28,1,0.0006423761464481508,0.0006924841816302147,-0.005755672952173783,0.007764635159709663,0.9909993454731693
2013-07-02,1,0.0007161771462635638,0.0007463887039991286,-0.009341897005282174,0.006953377883452612,0.9905097337146076
2013-07-05,1,0.0003978318758109467,0.0003988292753093272,-0.011175526964228175,0.006953377883452612,0.9901092550050672
2013-07-09,1,0.0013846105760939036,0.0015275977175251284,-0.011175526964228175,0.004166913701028534,0.9909861986610065
2013-07-11,1,0.002213490866509138,0.0024462210029803,-0.011175526964228175,0.003826299122208996,0.991412844019715
2013-07-15,1,0.0018677755423535446,0.0020607908965345565,-0.009457706750227867,0.004166913701028534,0.9913855383987195
2013-07-17,1,0.002178131314812884,0.0023947022244898792,-0.013435898093231827,0.0033339553713588846,0.9904762825730011
2013-07-19,1,0.0019154751266457803,0.0020679477569134847,-0.016915282822034295,0.0033339553713588846,0.9879048652847535
2013-07-23,1,0.0013933743804732989,0.001458614988603161,-0.016915282822034295,0.0033339553713588846,0.9879854731543287
2013-07-25,1,0.0005411960755458844,0.0005922036700740383,-0.015990628113983985,0.0033339553713588846,0.9890476400862277
2013-07-29,1,0.0005406135984649995,0.000565955451890332,-0.010216664525655837,0.0015584249018925382,0.9903934821010161
2013-07-31,-1,-0.00023197053656407086,-0.00010412469507072215,-0.00916735734280124,0.00025448573171249484,0.9907835080887669
2013-08-02,-1,-0.0011919786003526402,-0.0009437576174363631,-0.008530696750351187,0.00025448573171249484,0.991688744981601
2013-08-06,-1,-0.0010823361822268427,-0.000863193424759083,-0.00916735734280124,0.00025448573171249484,0.9907033804965919
2013-08-08,-1,-0.0014632786818726752,-0.0012073756931323455,-0.009950500841849674,0.0029024030332272218,0.989978426216659
2013-08-12,-1,-0.0014438869917874036,-0.0011850042278616917,-0.009950500841849674,0.006424690897832385,0.988915952407318
2013-08-14,-1,-0.0026690033782612223,-0.0022458479094448576,-0.00916735734280124,0.007152314617507019,0.9894835387060101
2013-08-16,-1,-0.004790380765266361,-0.004122374826797526,-0.007729247002039122,0.00811106083083751,0.9904442560313623
2013-08-20,-1,-0.004000257198199332,-0.003430996871456882,-0.007729247002039122,0.00811106083083751,0.9896723552020098
2013-08-22,-1,-0.0036793707088601277,-0.003170590638185403,-0.009017022690238963,0.007004073776999872,0.9893670232912655
2013-08-26,-1,-0.003123779495638133,-0.0027226464194325664,-0.009950500841849674,0.007004073776999872,0.9887467218872243
2013-08-28,-1,-0.003540821903583476,-0.0031141045221858956,-0.009499496884162843,0.00881417472598892,0.9886702948641101
2013-08-30,-1,-0.0041584576206865976,-0.003638668670587047,-0.010738018567012005,0.00881417472598892,0.9884115317315378
2013-09-04,-1,-0.003510883848966283,-0.0031032847203830453,-0.009499496884162843,0.009586694762347909,0.9881999319417176
2013-09-06,-1,-0.0033672830824655695,-0.002965004852391211,-0.009723697332716833,0.008220326669116693,0.9882325761803279
2013-09-10,-1,-0.002331148045829048,-0.0020151613050576485,-0.009723697332716833,0.0077749945746252505,0.9897319751369137
2013-09-12,-1,-0.0022200566988199565,-0.001917917293336615,-0.009723697332716833,0.008220326669116693,0.988398035007584
2013-09-16,-1,-0.0017889773729445541,-0.0015257233431093858,-0.009723697332716833,0.00803250125341158,0.9887819204628222
2013-09-18,-1,-0.0004421377150583774,-0.00033252566983934227,-0.009723697332716833,0.00803250125341158,0.9895765555133743
2013-09-20,-1,-0.0010143931777787853,-0.0008911589447292983,-0.004071692926291802,0.009586694762347909,0.9900667479555441
2013-09-24,-1,-0.002379530283249433,-0.002069700387220698,-0.002994280789844125,0.009586694762347909,0.9906821457913089
2013-09-26,-1,-0.002002554417017262,-0.0017389514750153412,-0.003141948355537429,0.00803250125341158,0.9908176628024179
2013-09-30,-1,-0.0019445027525079586,-0.0017377472509152816,-0.00306531394584078,0.01031089437093794,0.9901561857721679
2013-10-02,-1,-0.00034799636859409046,-0.0003230002342034088,-0.0037529169832739547,0.0064661847709972155,0.9913147997825038
2013-10-04,-1,-0.0004842499478061968,-0.0004354799453084384,-0.00306531394584078,0.009350548918873838,0.9915607376801111
2013-10-08,1,2.23153035264921e-05,0.00016725527805020617,-0.0037529169832739547,0.008104347587147507,0.9910805542795988
2013-10-10,1,0.0014696796006501637,0.0018392380595404804,-0.004001146199030141,0.004526672887383958,0.9921425564147873
2013-10-14,1,0.001590061254595101,0.0019620675863407755,-0.005134736524736692,0.006973720307576203,0.9911053631791373
2013-10-16,1,0.0019793752950663995,0.0023550746457939257,-0.005134736524736692,0.006973720307576203,0.9905901249604769
2013-10-18,1,0.002077556754263653,0.0024313026696458576,-0.008539262662870264,0.003482791947126012,0.9906096503688439
2013-10-22,1,0.001640752480118716,0.0018805069996154502,-0.009280315018674998,0.0032870932351367196,0.9892977009137578
2013-10-24,1,0.0013649554585306591,0.0015498282117672416,-0.01045747962034842,0.004092837288923887,0.9890319160085617
2013-10-28,1,0.0019393236654501578,0.002201199820553795,-0.01045747962034842,0.0022208411389892813,0.9892062407113765
2013-10-30,1,0.001422050031926828,0.0016111169179665382,-0.009752523922024945,0.003468251169857792,0.989666596565607
2013-11-01,1,0.0016910230584912334,0.001865525016632329,-0.009752523922024945,0.002403371251946217,0.9898489742020511
2013-11-05,1,0.001329324985917724,0.001512383406154577,-0.009752523922024945,0.004015841508728598,0.9895879495968971
2013-11-07,1,0.00047439479256092894,0.0005276911783558369,-0.009037176823100602,0.0074000021850388256,0.9895430740750817
2013-11-11,-1,-0.0008537693940768705,-0.000651135104510466,-0.009037176823100602,0.004015841508728598,0.9904252304885721
2013-11-13,1,0.001155772399698468,0.0012656206692537447,-0.01089340835071997,0.0021378034051020085,0.9892228482623638
2013-11-15,1,0.0010134486375749506,0.0011456262750471036,-0.01089340835071997,0.0021378034051020085,0.9893784166433528
2013-11-19,1,0.00029299275556678145,0.00036892519160040577,-0.00919328493387035,0.005787931957357995,0.9900820481362188
2013-11-21,1,0.00045987145608727975,0.000585945067945831,-0.00919328493387035,0.003686680139190353,0.9891928335282818
2013-11-25,-1,-0.00029773358750813085,-0.000293548357844371,-0.00910233209377611,0.005787931957357995,0.9891885657977236
2013-11-27,1,0.0004400715301008286,0.0005970255990998888,-0.00910233209377611,0.005652347038947683,0.9892530000495335
2013-12-02,1,0.0009510087833065279,0.0012500475473580753,-0.00910233209377611,0.005652347038947683,0.9892002951497163
2013-12-04,1,0.0004374796874323997,0.0006512757293173564,-0.00831045148646243,0.007904471255670056,0.9893898733022771
2013-12-06,1,0.0017245702377353676,0.0021491974024335937,-0.00831045148646243,0.006890005076710337,0.9899898148454043
2013-12-10,1,0.0015129893258642095,0.0019172137832018242,-0.0069428182462318005,0.006890005076710337,0.9901750384828822
2013-12-12,0,-0.00016243208744166925,7.1110326532546324e-06,-0.0028590507951401153,0.009355702907612664,0.9916256660543864
2013-12-16,-1,-0.0008010696617536962,-0.000752511506465001,-0.0019241907143256658,0.009355702907612664,0.9912916689234357
2013-12-18,1,1.9367172962527065e-05,0.00016925338248281285,-0.002581458199756659,0.008210474684583701,0.9922436018909624
2013-12-20,-1,-0.0016380056472942227,-0.0015481989508227753,0.00020090037658579884,0.008285249574301216,0.9926417178159407
2013-12-24,-1,-0.0013277606454239425,-0.0012371826674775802,-0.002525196886075863,0.008018627499401807,0.9930233585231764
2013-12-27,-1,-0.0010753983905568661,-0.0010149117642215717,-0.0033433675134799685,0.008285249574301216,0.9926095720553458
2013-12-31,-1,-0.0016612936623797022,-0.001512691868754209,-0.0017034021451741268,0.009352220354092774,0.9916135208206027
2014-01-03,-1,-0.00017530065496834907,-0.00013895437471366358,-0.0033433675134799685,0.008285249574301216,0.9926018015133112
2014-01-07,-1,-9.114419611453553e-05,-8.809085984009095e-05,-0.0033433675134799685,0.0108299905803503,0.9918713224569139
2014-01-09,-1,-0.0016158025713279129,-0.001330934825622018,-0.0017034021451741268,0.010966128613882277,0.9904835168764031
2014-01-13,-1,-0.0007632589164442778,-0.000606927633813064,-0.0017034021451741268,0.010966128613882277,0.9908380708394136
2014-01-15,-1,-0.00038313295188239816,-0.0002706415619263073,-0.0033433675134799685,0.010966128613882277,0.9913127425743922
2014-01-17,-1,-0.0003421802472059514,-0.00023457867752379747,-0.002577686857436648,0.010966128613882277,0.9915386813602225
2014-01-22,-1,-0.0003588709837384306,-0.00021011359046514748,-0.0042194309302245585,0.010966128613882277,0.9915525132294959
2014-01-24,-1,-0.0013965053803132504,-0.0011031968119334945,-0.0027270588584946435,0.010966128613882277,0.991457720150404
2014-01-28,-1,-0.0012820091157215063,-0.001004196478240551,-0.0025647422125161393,0.010966128613882277,0.9920642040899331
2014-01-30,-1,-0.000374945409581353,-0.00020884691628284728,-0.0033976442660956416,0.010966128613882277,0.9923828659315311
2014-02-03,1,0.000481574374478145,0.00048538135404794754,-0.0025647422125161393,0.010966128613882277,0.9923534144674281
2014-02-05,1,0.0014958195887717358,0.0016361711405055075,-0.0042194309302245585,0.008616909824744522,0.9931497569658871
2014-02-07,1,0.002617709901563829,0.002931990980660535,-0.007133336468416971,0.004990540438282857,0.993204364835201
2014-02-11,1,0.0035851144056977995,0.004100724472573545,-0.007271945929522178,0.003533228044581515,0.9924438888786415
2014-02-13,1,0.002714336869247546,0.0030452809769630548,-0.007380348478278544,0.004990540438282857,0.9919818183612608
2014-02-18,1,0.002106211223648529,0.0022969238065989133,-0.007380348478278544,0.004990540438282857,0.9921337550063863
2014-02-20,1,0.0016794671034088963,0.0018249111901845983,-0.007380348478278544,0.008142735483317273,0.9916824801668548
2014-02-24,1,0.0017741530308898773,0.0018938838866573925,-0.007380348478278544,0.0070471792508684135,0.991805430290623
2014-02-26,1,0.0021000537278374268,0.002316440063080059,-0.008149669261064398,0.008801188755312918,0.989979674595165
2014-02-28,1,0.0018075113763927227,0.0019494501198701435,-0.007836330074116583,0.008801188755312918,0.9903367832250886
2014-03-04,1,0.002726055183941191,0.002993599886142512,-0.007836330074116583,0.011864797423190241,0.9898054388303478
2014-03-06,1,0.002612023046459331,0.0029234041175831005,-0.009886390672481085,0.011864797423190241,0.989087642092608
2014-03-10,1,0.002006016249543478,0.0022447128224191834,-0.009886390672481085,0.011864797423190241,0.989315498860653
2014-03-12,1,0.002117248202225063,0.0024134406815513637,-0.009320012021548096,0.011864797423190241,0.9895355661927145
2014-03-14,1,0.0021308789118199235,0.002448413233383872,-0.01007872759562505,0.008612611374434535,0.9894260560251497
2014-03-18,1,0.002273087688379384,0.0026110763508967365,-0.01007872759562505,0.008612611374434535,0.9891329076885106
2014-03-20,1,0.0020756685613564064,0.0023815926913966163,-0.009320012021548096,0.007461171198316139,0.9899516941212072
2014-03-24,1,0.002540304390509984,0.002940044373557868,-0.009320012021548096,0.00826193626884033,0.989865798608449
2014-03-26,1,0.0021338792869872274,0.00245368463299138,-0.009225052241972006,0.00826193626884033,0.9909258827357589
2014-03-28,1,0.0029461006048029145,0.003413247653747781,-0.009225052241972006,0.00826193626884033,0.9906711514161907
2014-04-01,1,0.003811270907146681,0.004345777290384005,-0.009225052241972006,0.007361263254064587,0.9919277441632144
2014-04-03,1,0.002329923271978788,0.002625732923235468,-0.0037075215246045535,0.007461171198316139,0.993027602609946
2014-04-07,1,0.002118217974892534,0.0023731910093646507,-0.0037075215246045535,0.00762927196715788,0.9931472511442859
2014-04-09,1,0.0025900598251573865,0.0029675828446768682,-0.003059057083572525,0.008265773860907419,0.9930301696155883
2014-04-11,1,0.0015070361313246718,0.0017146120323476462,0.0007704713847244437,0.008265773860907419,0.9940080370522196
2014-04-15,1,0.0013924006313195776,0.0015276472898006971,-0.0020850359234710365,0.008265773860907419,0.9939865884078621
2014-04-17,1,0.0014114785394692846,0.0015404359421063024,-0.0006443792371331602,0.00849794880435606,0.9940242917764479
2014-04-22,1,0.0015553881277299171,0.0016730517131169644,-0.0025301653849916063,0.008265773860907419,0.993968692778066
2014-04-24,1,0.001557354489097729,0.0016783767503811377,-0.0022407535033539244,0.007043650862707864,0.994669009543609
2014-04-28,1,0.0017605372091692106,0.0018943857868549269,-0.0008536753792432232,0.005858946819718877,0.9954436658346599
2014-04-30,1,0.001520930281598632,0.0015979793138611467,-0.0011856901919864177,0.005858946819718877,0.9953908526050124
2014-05-02,1,0.002133225026808788,0.0023328478627365713,-0.0011856901919864177,0.003914595008589899,0.9955688546656238
2014-05-06,1,0.001956077459217472,0.0021112150255294033,-0.000955287576204655,0.0039100727386927325,0.995838604711332
2014-05-08,1,0.0016996874677965195,0.0017370174312856402,-0.00254559009423822,0.0039100727386927325,0.9955803516328036
2014-05-12,1,0.001412810384217508,0.0014393211977249156,-0.003644774930268317,0.0039100727386927325,0.9941329560836544
2014-05-14,1,0.0013621837604548554,0.0013667535865267166,-0.00331863624414341,0.0039100727386927325,0.9944110648612328
2014-05-16,1,0.0006289524806146951,0.0007787723534143172,-0.003644774930268317,0.002703365555261702,0.9947253287701318
2014-05-20,1,0.0003701074271318011,0.0005366785355369345,-0.00331863624414341,0.0055849105575479785,0.9945246553540453
2014-05-22,1,0.0001145645023372258,0.0003106048822389359,-0.0026274283967981224,0.005771111379081718,0.9940651941846314
2014-05-27,0,-0.00014588912268379234,0.00010986081957421669,-0.0026274283967981224,0.00575754456939022,0.9941083722153712
2014-05-29,1,0.0002561335010914489,0.00040835557816947215,-0.0027080521752433214,0.00575754456939022,0.994133372579046
2014-06-02,1,0.0006541094578474643,0.0007428938441043649,-0.0027080521752433214,0.004742976785472633,0.9943808336283705
2014-06-04,1,0.0004503308407348041,0.000576968015328217,-0.0023088247867332897,0.004320194142069998,0.9944731108785758
2014-06-06,1,0.0009270496578552441,0.0009843256422672627,-0.0022269438143520904,0.004320194142069998,0.9951227157609807
2014-06-10,1,6.036579385621237e-05,0.00020926471945297454,-1.5377191740052016e-05,0.004320194142069998,0.9961704797898487
2014-06-12,0,-9.841035626961966e-05,7.130299410877482e-05,0.0004734630159073453,0.004513550962088518,0.9959527953688528
2014-06-16,-1,-0.00023329697461406374,-6.122709893527324e-05,0.0007988257284728525,0.0048770390178004795,0.9957250903546333
2014-06-18,0,-0.00013003129014231194,6.129626685910466e-05,0.0004014917939102029,0.004320194142069998,0.9965902134732654
2014-06-20,1,0.00018513953327775704,0.0003401596376009358,-0.0002312908577314791,0.004320194142069998,0.99663982855977
2014-06-24,1,0.0005683217913648355,0.0006569187870004406,-0.0002312908577314791,0.004513550962088518,0.9966171717612429
2014-06-26,1,0.0002581983828256901,0.000384950224770014,-0.0002312908577314791,0.004513550962088518,0.99632224727704
2014-06-30,1,0.0008728305883455309,0.0008840908143429016,-0.0016568114404406837,0.0048770390178004795,0.9958664794447775
2014-07-02,1,0.0012440959867010672,0.001322653363446453,-0.002710039094154792,0.005638576493618024,0.9949337562647658
2014-07-07,1,0.0013506449250761166,0.0014616103263669273,-0.000488024155422368,0.0060310110416450175,0.9950740263771451
2014-07-09,1,0.0012965534117282554,0.0013891775194624268,-0.003230732814151849,0.0060310110416450175,0.9943570580317131
2014-07-11,1,0.001344611843305949,0.0014386630284008027,-0.003435493748670797,0.0060310110416450175,0.9941999791570498
2014-07-15,1,0.0013050452735098336,0.0013649410433545148,-0.003435493748670797,0.004435530686642073,0.9942760932978881
2014-07-17,1,0.0013201444658088042,0.0013997232066303767,-0.004687563377816953,0.0060310110416450175,0.9934458406179976
2014-07-21,1,0.0013613266124420107,0.001442099143302402,-0.003435493748670797,0.0060310110416450175,0.9937952099271202
2014-07-23,1,0.0014954304147823405,0.0015992571864598217,-0.003435493748670797,0.005787991480856383,0.9937473268475606
2014-07-25,1,0.0016954709765580308,0.0018665823539067532,-0.003435493748670797,0.005787991480856383,0.9937684257692101
2014-07-29,1,0.0015622940100337886,0.0016871766987510471,-0.002821638537248866,0.004336698564845314,0.9944565255192966
2014-07-31,1,0.000827482574109412,0.0008317333589008884,-0.002821638537248866,0.0042477501248776505,0.9953892837207762
2014-08-04,1,0.000847007709664036,0.000865637819733584,-0.002821638537248866,0.0042477501248776505,0.9953308786926882
2014-08-06,1,0.0001685056264377533,0.00026990913685036414,-0.001885294015232308,0.0049023717929515525,0.995889757199202
2014-08-08,0,-4.273101991718678e-06,0.00011447870817078129,-0.0013086927908172044,0.005403131306940979,0.9956293232474558
2014-08-12,0,-0.00013438234898531493,2.6338131671672146e-08,-0.002367179491092937,0.005403131306940979,0.9945475203958698
2014-08-14,1,0.0001414382010042295,0.0002435372124276936,-0.0032235167822465514,0.0049023717929515525,0.9938477460635881
2014-08-18,1,0.00028297201831007436,0.0004075030527627229,-0.0038011623644365958,0.004728625752055228,0.993867363437333
2014-08-20,1,0.0007622666885184435,0.0008133455105288434,-0.004484266482318167,0.0021572585767493076,0.9935053311913787
2014-08-22,1,0.0011246817260665595,0.0011813948080825697,-0.004484266482318167,0.004728625752055228,0.9931182942056913
2014-08-26,1,0.00040268085718369435,0.0005021110332971155,-0.004484266482318167,0.004728625752055228,0.9930906365138256
2014-08-28,1,0.00026536901204494523,0.0003877178187768957,-0.004484266482318167,0.004140211086193605,0.9932266063287214
2014-09-02,1,0.0003241883174090227,0.0004385833454980904,-0.004867158428473781,0.0015601730451145596,0.9930742522536673
2014-09-04,-1,-0.00028225510040143784,-4.2975889919617816e-05,-0.004867158428473781,0.001272442314941741,0.9932901638388068
2014-09-08,1,0.00011792969337609776,0.00029006478644585476,-0.004867158428473781,0.0020746904047098235,0.9931501479312148
2014-09-10,-1,-0.001045599244102575,-0.0007413317279069328,-0.004845358782077751,0.003084933527375616,0.9925841702719984
2014-09-12,-1,-0.0022841147324201365,-0.001857839530997434,-0.004110218696775871,0.003383073103827011,0.9940067279006723
2014-09-16,-1,-0.0023182539358977275,-0.0018893253260011942,-0.0035911114003684013,0.004808477187916705,0.9929481800209583
2014-09-18,-1,-0.0024986728440492606,-0.002073331260281131,-0.0032344082937945844,0.004808477187916705,0.9931699668627206
2014-09-22,-1,-0.0024633350086123618,-0.0020440690814580737,-0.0032344082937945844,0.004808477187916705,0.992929647943966
2014-09-24,-1,-0.0024418038766304243,-0.002049086623380623,-0.0032344082937945844,0.007765828314362086,0.991869701624045
2014-09-26,-1,-0.0023466180069697347,-0.0019713675140319107,-0.0015595166412830691,0.007765828314362086,0.9917224124055872
2014-09-30,-1,-0.002279289343808842,-0.0019501011199601808,0.001348089500801052,0.007765828314362086,0.9913210091404442
2014-10-02,-1,-0.0022144788770004226,-0.0018997374216567324,0.001348089500801052,0.007765828314362086,0.9912067722674969
2014-10-06,-1,-0.0019582798186468984,-0.0016623981360987315,0.001348089500801052,0.00970513153108693,0.9901599492199483
2014-10-08,-1,-0.0015277070047639276,-0.0012984799179850243,0.001348089500801052,0.008926202623605552,0.9919894874436281
2014-10-10,-1,-0.0016036914649192845,-0.0013451566993373807,-0.00038476368719003306,0.008926202623605552,0.9919921611247723
2014-10-14,-1,-0.0006711174162908019,-0.000513912503254712,-0.001372553645382345,0.007424576579117267,0.9931146281747079
2014-10-16,-1,-0.00048448373807889305,-0.0003576310886338928,-0.003051319007770345,0.007424576579117267,0.992882541921865
2014-10-20,-1,-9.978509570277862e-05,-1.5447617222247843e-05,-0.003051319007770345,0.006990376402486623,0.9932340316102999
2014-10-22,1,0.000726523768032541,0.0007599436449358239,-0.004682431126903071,0.005625542823573143,0.9931267590427794
2014-10-24,1,0.0009276593197011277,0.0009912694933557071,-0.004682431126903071,0.005723368821882957,0.992897466318303
2014-10-28,1,0.0013873436344096727,0.0015405283211607633,-0.004682431126903071,0.005498152465986934,0.9930316013699473
2014-10-30,1,0.0009545396697916039,0.0009905329706362662,-0.004682431126903071,0.007718054574046709,0.9928401161807066
2014-11-03,1,0.001997101369312161,0.0021629243418221215,-0.004888899124752291,0.005431322126928001,0.993560369987598
2014-11-05,1,0.001576347505770068,0.001667516687608692,-0.004429310659805917,0.005269013300661457,0.9938944361135489
2014-11-07,1,0.0013679349661369045,0.0014671772275248616,-0.004429310659805917,0.007584171406687355,0.9939145209868155
2014-11-11,1,0.0017939163233804847,0.0019724885305832966,-0.004429310659805917,0.007340189913763736,0.9942858215073108
2014-11-13,1,0.001488567469536021,0.0016322081823558756,-0.004429310659805917,0.007340189913763736,0.9943277969300415
2014-11-17,1,0.0013352472626267699,0.001444715862861133,-0.004429310659805917,0.005325348817009128,0.994381998636851
2014-11-19,1,0.0009331698325951872,0.000999061091068529,-0.002844141657719377,0.008492240122039476,0.9938476117646737
2014-11-21,1,0.001346873573717749,0.0014697509810248127,-0.002844141657719377,0.008492240122039476,0.9934180722830764
2014-11-25,1,0.0012771303691094574,0.0013905319832020263,-0.004429310659805917,0.008492240122039476,0.992975665683996
2014-11-28,1,0.001660886904171844,0.0018302398291492527,-0.004429310659805917,0.007753177955730367,0.9932361174481226
2014-12-02,1,0.001791789326807625,0.0019869874394003255,-0.00620031032565703,0.005325348817009128,0.9925141756122675
2014-12-04,1,0.0018801184948691648,0.002104950432803486,-0.00620031032565703,0.007760295643268619,0.9920659568362817
2014-12-08,1,0.0018798282791191424,0.002096588723836489,-0.0027950688302192687,0.014565268000977953,0.9915189498656454
2014-12-10,1,0.0022534956139593897,0.002528461972963089,-0.0027950688302192687,0.014565268000977953,0.9913192479090587
2014-12-12,1,0.002003439429718883,0.0022568969601003226,-0.0006529696746025128,0.014565268000977953,0.9917203389908347
2014-12-16,1,0.0015316062824074445,0.0017119280667756574,-0.0002144023845697003,0.014565268000977953,0.9913735404106144
2014-12-18,1,0.0027268516592663192,0.003077275481687805,-0.0006529696746025128,0.009459796120028832,0.9925302362931199
2014-12-22,1,0.00327979565117902,0.0036695401898311697,-0.0012576006527051883,0.009398118428999753,0.9930832085847214
2014-12-24,1,0.002980889757799017,0.0033446724113963267,-0.0004159460439372588,0.010715881239667331,0.9931137481636674
2014-12-29,1,0.0026844318623567833,0.002970633875812783,-0.0037215253588203396,0.010715881239667331,0.9923021075122939
2014-12-31,1,0.0016285445800403799,0.0017603819940598259,-0.0018196336716402276,0.010715881239667331,0.9920736733040589
2015-01-05,1,0.0023591754515141297,0.002586893163404017,-0.0018196336716402276,0.009760447451075162,0.9928518214284493
2015-01-07,1,0.003516489131812916,0.003912986493720105,-0.0018196336716402276,0.009089747618324992,0.9937232389874481
2015-01-09,1,0.004142862903366814,0.0046376813714017785,-0.004901173187563774,0.009089747618324992,0.991842792363718
2015-01-13,1,0.004436205293113152,0.004983347477611864,-0.004901173187563774,0.009734087799458294,0.9914439136987592
2015-01-15,1,0.004912038450876822,0.005496698866510716,-0.006031086477506723,0.009734087799458294,0.9907005889941956
2015-01-20,1,0.0045399895888846055,0.005068936331862412,-0.004572104432043638,0.009734087799458294,0.991042648291356
2015-01-22,1,0.004897725281863799,0.005469196315024214,-0.006031086477506723,0.009734087799458294,0.9900899848727861
2015-01-26,1,0.005013603651120491,0.005601727754454611,-0.0074225531154619,0.009089747618324992,0.989209807269024
2015-01-28,1,0.004419291475452457,0.004931309581318661,-0.007557100819999763,0.009089747618324992,0.9892707675293405
2015-01-30,1,0.00416553812337221,0.0046531932043338805,-0.006031086477506723,0.009556254705595152,0.989901048028444
2015-02-03,1,0.0037620658249569398,0.004126699655107531,-0.007822794684993887,0.009556254705595152,0.9889993123019427
2015-02-05,1,0.003021731485215458,0.003206434821877416,-0.009408101847185952,0.009556254705595152,0.9870522208504141
2015-02-09,1,0.0014070076597969907,0.001433377632000103,-0.007822794684993887,0.010395177787491269,0.9884428167678125
2015-02-11,1,0.0011890232065899925,0.0012694945321926796,-0.007822794684993887,0.012407675923630459,0.9879405160808785
2015-02-13,1,0.0014463425290936582,0.0015016297130554255,-0.007822794684993887,0.012407675923630459,0.9877613378542879
2015-02-18,1,0.001242402275876348,0.001339055175132615,-0.008559120282349597,0.01297361729594927,0.9870028754467723
2015-02-20,1,0.000745802625931672,0.0009065731062179149,-0.008044999303571212,0.013981016599343183,0.987062723235678
2015-02-24,-1,-0.00035167172369900124,-3.142703532070447e-05,-0.008044999303571212,0.013981016599343183,0.9880894314015185
2015-02-26,-1,-0.001159105283586165,-0.0007313600150949554,-0.008044999303571212,0.013981016599343183,0.9876784853717129
2015-03-02,-1,-0.0003521304303389141,-2.8140872145041148e-05,-0.008044999303571212,0.013981016599343183,0.9882194991201051
2015-03-04,-1,-0.0011864885889200576,-0.0007705669206024735,-0.00844419591376546,0.013981016599343183,0.9876563724899411
2015-03-06,-1,-0.0016686440786890058,-0.0011939275398043813,-0.008044999303571212,0.009905996253466973,0.9892602419812146
2015-03-10,-1,-0.0005374574471062782,-0.00023835766336054805,-0.00844419591376546,0.008060374694974299,0.9892647083646023
2015-03-12,1,0.00023263569596212606,0.0004426385561830297,-0.009558422934447608,0.0074934533481367865,0.9889294300111022
2015-03-16,1,0.0012382783628211024,0.0013153976130667832,-0.009558422934447608,0.005771902642074254,0.9897610232278418
2015-03-18,1,0.0017395506344606362,0.0017463259273727103,-0.009558422934447608,0.005771902642074254,0.9901639827193678
2015-03-20,1,0.002198454806156641,0.002270043861477083,-0.009558422934447608,0.004509445420193653,0.9912982217585684
2015-03-24,1,0.0017311170036300766,0.0017511794821572085,-0.007865675383957854,0.007280228341026171,0.9915330243646039
2015-03-26,1,0.0008909752295180116,0.0009682771968559206,-0.004699987634225436,0.007280228341026171,0.9922375984319346
2015-03-30,1,0.0015721312566308865,0.001639373540470137,-0.004468952864651253,0.00664480416576102,0.9924605531604453
2015-04-01,1,0.00019050615248612335,0.0003050738976584416,-0.004468952864651253,0.00664480416576102,0.9920847278032524
2015-04-06,1,0.0004285462560906473,0.0005385644594180727,-0.004468952864651253,0.005718370369050796,0.9920873085261894
2015-04-08,1,8.928703985225373e-06,0.00015575853148335297,-0.004468952864651253,0.005718370369050796,0.9914901128892857
2015-04-10,-1,-0.0013349114851244793,-0.0010125119166682962,-0.0033884823543663444,0.007381616065017131,0.9909414780318817
2015-04-14,-1,-0.001341389987220199,-0.0010125348469549882,-0.004468952864651253,0.007381616065017131,0.9896791482571957
2015-04-16,-1,-0.0017355470799024217,-0.001331450744997133,-0.005992124217627189,0.007692972182784176,0.9885549905833646
2015-04-20,-1,-0.0016405815480233469,-0.001265032949304176,-0.007810391578625137,0.007805455342429189,0.988233020696322
2015-04-22,-1,-0.0011808681232731626,-0.0008523093411171125,-0.007810391578625137,0.006682298552309358,0.9890211536906108
2015-04-24,-1,-0.0010345600352224741,-0.0007396422005815115,-0.009893797869964197,0.006682298552309358,0.9889606636350025
2015-04-28,-1,-0.0006671459305164943,-0.00041853759349979615,-0.011286257681828048,0.008560919980132826,0.9880043805378869
2015-04-30,-1,-0.0021149735212235374,-0.001692278448067336,-0.009378874864512334,0.008560919980132826,0.9887826659017378
2015-05-04,-1,-0.0015089180011898936,-0.0011566437765298267,-0.010583661045172773,0.009166371137086082,0.9880404857991887
2015-05-06,-1,-0.002462330036455268,-0.002012004145215486,-0.010583661045172773,0.009166371137086082,0.988544547617439
2015-05-08,-1,-0.0014237826510439503,-0.0010747575515076546,-0.010583661045172773,0.004547070224076665,0.9898427420669915
2015-05-12,-1,-0.0026908415906382204,-0.0021702219180775163,-0.010583661045172773,0.005128640060336147,0.9908161234004803
2015-05-14,-1,-0.0016106627017534237,-0.0012745709628331193,-0.009378874864512334,0.0039044553332225,0.9919068123963161
2015-05-18,-1,-0.0011433710707236468,-0.000901290520325069,-0.009378874864512334,0.0039044553332225,0.9918016126010906
2015-05-20,-1,-0.0015754409932837406,-0.0012613518692343522,-0.009378874864512334,0.008207450733741437,0.9907754033538135
2015-05-22,-1,-0.0019721505958125675,-0.0016176307199383727,-0.010098227669351126,0.008207450733741437,0.9903895124522609
2015-05-27,-1,-0.002204740753739602,-0.0017763431475626027,-0.010098227669351126,0.005244824829364128,0.9914556985175909
2015-05-29,-1,-0.0020459137761562546,-0.0016734049019108434,-0.009826963490687766,0.005022643651849487,0.991556962202906
2015-06-02,-1,-0.0015336443377185636,-0.001276172991212833,-0.009826963490687766,0.005022643651849487,0.991929890786643
2015-06-04,-1,-0.00221716046328177,-0.0019065256362531947,-0.008548244926624454,0.008207450733741437,0.9915062344024757
2015-06-08,-1,-0.00239399817047646,-0.002079037278908017,-0.008548244926624454,0.009337330211329077,0.9906110422964626
2015-06-10,-1,-0.001880859492624602,-0.0016679153961715303,-0.0043281701992755215,0.008278047623852392,0.9916377631830521
2015-06-12,-1,-0.0017542381105044192,-0.0015486496106016788,-0.005415530288561701,0.008278047623852392,0.9916394956703456
2015-06-16,-1,-0.0010537705537950056,-0.0009534813596063486,-0.005415530288561701,0.007500911345581616,0.9917944918941521
2015-06-18,1,3.0312737946991766e-05,7.335116056874611e-05,-0.005415530288561701,0.0054203196563393135,0.9927464521790468
2015-06-22,-1,-0.0009204810494466255,-0.000826459611191352,-0.0037413272237717147,0.0064836953243631,0.9929120629926798
2015-06-24,-1,-0.0014142998348076002,-0.001254483577608698,-0.0037413272237717147,0.0064836953243631,0.9928145398318602
2015-06-26,-1,-0.0012735703079632804,-0.001150830213386695,-0.003165188732190014,0.006702552659068387,0.9928703196736184
2015-06-30,-1,-0.0012727610169727534,-0.001169200243089912,-0.003165188732190014,0.006256847450229164,0.9936886665322879
2015-07-02,-1,-0.0010127060689405433,-0.0008745055551097829,-0.003165188732190014,0.005256053061458283,0.9946085311598971
2015-07-07,-1,-0.00013735602871450467,-0.00011525260267203623,-0.0037413272237717147,0.00507866673640754,0.995087322502499
2015-07-09,-1,-6.773376669777818e-05,-5.639099233346696e-05,-0.004089622788527918,0.005256053061458283,0.9948253107998424
2015-07-13,1,2.1128842835603615e-05,5.631761245617864e-05,-0.0036018149465048763,0.005256053061458283,0.9950438553672957
2015-07-15,1,0.0001924742132217188,0.00023830083181344244,-0.0036018149465048763,0.005256053061458283,0.9952576987431873
2015-07-17,-1,-1.4736607123612966e-05,-5.0487570406624745e-06,-0.002301445483765967,0.0051689252578558725,0.9953596185437613
2015-07-21,-1,-0.00021945147678012177,-0.00016256480104720217,-4.151298036554076e-05,0.0051689252578558725,0.9952426774164067
2015-07-23,1,3.75428651087375e-05,5.065152846835313e-05,-0.002036750082870823,0.0051689252578558725,0.994992661346529
2015-07-27,0,-2.0381836924427703e-05,6.710277681871104e-06,-0.004330940284086407,0.00466368773986235,0.9919464369254084
2015-07-29,-1,-0.0005287068824593247,-0.0004256396455323947,-0.004330940284086407,0.0051689252578558725,0.9905132775541134
2015-07-31,1,0.00028683747930285583,0.00031810036161197976,-0.004330940284086407,0.00522423240072196,0.9898887348661606
2015-08-04,1,0.0008101044300144467,0.0009621647395070877,-0.01229971940214104,0.004219063723632269,0.9882075148179972
2015-08-06,1,0.0014076284901902067,0.0016932008295879376,-0.01229971940214104,0.004219063723632269,0.9884560164541898
2015-08-10,1,0.0017283329232644575,0.002074130994407293,-0.01695383876781978,0.005352008113886919,0.9867005137782476
2015-08-12,1,0.002255287846504135,0.002707058537480771,-0.01695383876781978,0.005309772742667114,0.985954668638321
2015-08-14,1,0.002160444572955277,0.0025795065027523537,-0.01695383876781978,0.008652439040161016,0.9843360589368184
2015-08-18,1,0.002313848933800871,0.0027124950574284297,-0.01695383876781978,0.011641254897581345,0.983828005760618
2015-08-20,1,0.0017519782963567917,0.002084724719190569,-0.015132232994018634,0.011641254897581345,0.9845837600844537
2015-08-24,-1,-0.0013564734261485639,-0.0012318194527873119,-0.009925139388499506,0.011641254897581345,0.9864530757694483
2015-08-26,-1,-0.00029277714968110543,-0.00025504437197708103,-0.010478222317033182,0.010109763719125671,0.987560207367805
2015-08-28,1,0.00040975341692865887,0.0005160280451232322,-0.013476143775041697,0.008717897893720537,0.9880058075717614
2015-09-01,-1,-0.001943369031966857,-0.0017152268585009737,-0.009442057938227619,0.011641254897581345,0.98774417230327
2015-09-03,-1,-0.0014248836297026158,-0.0012658483981147104,-0.009442057938227619,0.011641254897581345,0.9874472951798787
2015-09-08,-1,-0.0016324158947769586,-0.0014537327022575266,-0.008000742037003362,0.01034941121477847,0.9887586017106025
2015-09-10,-1,-0.0019295247018592035,-0.0017168803661051855,-0.002155531384429432,0.01034941121477847,0.9887361258050352
2015-09-14,-1,-0.0007351841661149407,-0.0006944833414259566,-0.0013731730665629933,0.010103980989778131,0.9904455803852246
2015-09-16,1,0.0002268176765197587,0.0003118870487564789,-0.0067635807376231075,0.008929436293822748,0.9911402936125953
2015-09-18,1,0.0007526064444898054,0.0009327770936401203,-0.0067635807376231075,0.010103980989778131,0.9902744806223531
2015-09-22,1,0.00015043276814937146,0.0001801620282141112,-0.004926788775691859,0.010118724537898941,0.9900033134719152
2015-09-24,1,0.00023792029423660218,0.00031800824202534144,-0.0067635807376231075,0.010118724537898941,0.98994849901744
2015-09-28,-1,-0.0008596945091320656,-0.000751705918882646,-0.00675641612900491,0.010118724537898941,0.9902843868258746
2015-09-30,1,0.0013500918800084213,0.0015963436518811565,-0.008100964361967486,0.009005494764949017,0.9908362393867373
2015-10-02,1,0.001538753926530865,0.0017587901073722063,-0.009931647018562879,0.008792552199477053,0.9896289197864936
2015-10-06,1,0.0015335699579694237,0.0017739723816037143,-0.010665957295356653,0.01010725245562495,0.988319168819993
2015-10-08,1,0.0019853046265950807,0.002287288714852953,-0.010665957295356653,0.008799647692748536,0.9879841234150307
2015-10-12,1,0.0020477954750955825,0.0023506157792523106,-0.011954186677067605,0.008414771505478515,0.986739191683058
2015-10-14,1,0.0011418012287393153,0.00129995676933361,-0.011820723072405625,0.010345429693741158,0.9871972099496326
2015-10-16,1,0.0023698034977609112,0.002709701918819869,-0.011820723072405625,0.008276355308615703,0.9873899163406967
2015-10-20,1,0.0027674377340149996,0.0031441880201867247,-0.011820723072405625,0.008276355308615703,0.9874852476473672
2015-10-22,1,0.001881479965588692,0.00213149274703975,-0.010621469427135991,0.009808387248175558,0.9883720419192814
2015-10-26,1,0.0009656696054939427,0.0010371208050730019,-0.010621469427135991,0.01019460374514188,0.9881885103170606
2015-10-28,-1,-0.00039472453464109653,-0.00027769645515448985,-0.008474830871509124,0.010630720403714947,0.9883748549031376
2015-10-30,-1,-0.0009863264973578477,-0.0007943616518282063,-0.008474830871509124,0.010630720403714947,0.9889086538144772
2015-11-03,-1,-0.00045768618550575297,-0.0003337219372817556,-0.008474830871509124,0.010630720403714947,0.988528721290223
2015-11-05,-1,-0.00020935210748911122,-0.00013040699278279265,-0.008474830871509124,0.011264412362302884,0.9876988271402858
2015-11-09,-1,-0.0009579584269211565,-0.0008384996403564627,-0.005268506127650645,0.011264412362302884,0.9889033810039173
2015-11-11,-1,-0.0006061413233644963,-0.0004904132165860371,-0.006156505816385092,0.01089903079737139,0.9895533928924819
2015-11-13,-1,-0.0014311681892286543,-0.0011964800600195208,-0.004065838863823864,0.01089903079737139,0.9892710005310984
2015-11-17,-1,-0.0007576350537163227,-0.0005923507058267169,-0.004065838863823864,0.01089903079737139,0.9888403493894944
2015-11-19,-1,-0.00035669479504143515,-0.00022058063854787636,-0.0067047033558579085,0.010584707993775488,0.9888129681192525
2015-11-23,1,0.0008568662344222883,0.0009196746506942833,-0.0067047033558579085,0.009909887367521339,0.9892527081446854
2015-11-25,1,0.0012331729651248043,0.0013831690340422272,-0.005905245046234467,0.010394281362500812,0.9895303606332346
2015-11-30,1,0.0011071359962718332,0.001225062126729023,-0.004065838863823864,0.011331825561300288,0.9897720025069433
2015-12-02,1,0.0007480573483226043,0.0008148139922794972,-0.004562118498320335,0.009472581229845244,0.9910231222124017
2015-12-04,1,0.0015400481837664509,0.0017268064233566497,-0.00474485101147794,0.009472581229845244,0.9914628282172585
2015-12-08,1,0.0012983861049975448,0.001454738870045999,-0.007666425374997503,0.009472581229845244,0.9909074825377329
2015-12-10,1,0.0009222288019015596,0.001032815152682537,-0.008370842906534316,0.009472581229845244,0.9907482611733844
2015-12-14,1,0.0012861483867337052,0.0014321541227158062,-0.008370842906534316,0.009472581229845244,0.990788638778847
2015-12-16,1,0.0024667285021692186,0.002784235360766672,-0.008641923254011285,0.0028540165550965855,0.9907236627547643
2015-12-18,1,0.0015582082061684687,0.001736072211615338,-0.008641923254011285,0.008851545676748696,0.9901634839715556
2015-12-22,1,0.0015283559409398633,0.0017220558152485294,-0.009015309277748434,0.009684118361166632,0.9889599663372831
2015-12-24,1,0.0020725110448694753,0.0023394685909426736,-0.009015309277748434,0.009684118361166632,0.9884835037773494
2015-12-29,1,0.0029333718892781656,0.0033178380964069337,-0.01333963524546081,-4.827190322444349e-05,0.9854318301550155
2015-12-31,1,0.0022212656083715632,0.0025181908339125406,-0.010558597965856842,0.008851545676748696,0.9864320548022465
2016-01-05,1,0.002361962999531374,0.0026863416863402417,-0.01333963524546081,0.008851545676748696,0.9855596004365185
2016-01-07,1,0.0016950202748872323,0.0019310975560384571,-0.018122090116760255,0.008851545676748696,0.9847272034743103
2016-01-11,1,0.0019452305912138475,0.0022441981772421196,-0.02420727102186008,0.006309638732385674,0.9831501445816765
2016-01-13,1,0.001235953660856739,0.0014005635732881115,-0.02420727102186008,0.009576243814358353,0.9819019702935828
2016-01-15,-1,-0.0007340743817409732,-0.0005312015517919347,-0.02420727102186008,0.011887529324137835,0.981345357706801
2016-01-20,-1,-0.0013703351720782005,-0.0011153653925192533,-0.023168605329199135,0.014491014288667522,0.9825126326267386
2016-01-22,-1,-0.0008155486314115493,-0.000666436782791249,-0.023168605329199135,0.014491014288667522,0.9822455384883468
2016-01-26,-1,-0.0016318407672425536,-0.001305219866906834,-0.023168605329199135,0.012427188856919744,0.9829196943896744
2016-01-28,-1,-0.003945881892467849,-0.003363849548942811,-0.011620481729423265,0.015051664389352768,0.9845805817705829
2016-02-01,-1,-0.0036216862139981363,-0.0030613457286743106,-0.011620481729423265,0.016115610264485047,0.983921170681511
2016-02-03,-1,-0.004404424160527718,-0.00373902122799042,-0.005717207755706321,0.016115610264485047,0.9841616230274125
2016-02-05,-1,-0.005218935392870837,-0.00449331804052241,-0.00370876313645958,0.016115610264485047,0.9849317470888339
2016-02-09,-1,-0.00620242848515032,-0.005405062684481108,-0.0021220095731762797,0.016115610264485047,0.9855483842044269
2016-02-11,-1,-0.0061195235455117555,-0.005348735955879574,-0.0021220095731762797,0.016111588111965214,0.9863739182416302
2016-02-16,-1,-0.004872966741174408,-0.004251506444904311,-0.00370876313645958,0.0141934801266146,0.9885323303329447
2016-02-18,-1,-0.004358150032910917,-0.00378691845197152,-0.00370876313645958,0.014752877961663653,0.9884814697618088
2016-02-22,-1,-0.003348664083176936,-0.002872347677999502,-0.00370876313645958,0.00838349058740218,0.9907473671680025
2016-02-24,-1,-0.0027923976855472542,-0.0024493984239464337,-0.0018604351692738407,0.010889960952256746,0.990444982387619
2016-02-26,-1,-0.0019013062687994904,-0.0016955640316075494,-0.0018604351692738407,0.009294012164041127,0.9909388149310541
2016-03-01,-1,-0.0008251437825106283,-0.0007408074039350996,-0.002416107837294824,0.009294012164041127,0.9917771853286721
2016-03-03,1,0.00014445722599672095,0.00020234502292980035,-0.004724389046381294,0.00716242349472904,0.992594966035049
2016-03-07,1,0.0005291862178851093,0.000646203927814753,-0.005579484836778082,0.007150737300244077,0.9925095246517402
2016-03-09,1,0.0001070334628205449,0.0001337624730103473,-0.006002835599037418,0.007150737300244077,0.992262002919901
2016-03-11,1,0.0009549934579445974,0.0011535346137714396,-0.006173022307018887,0.004749384389125106,0.992504793105629
2016-03-15,1,0.0008529353166999507,0.0010714736386800195,-0.006173022307018887,0.006536059020456231,0.9917471844610072
2016-03-17,1,0.0012481483185691638,0.001479457803956818,-0.007872721027658198,0.006536059020456231,0.9905022406297314
2016-03-21,1,0.0010820982868676465,0.0012730250276080947,-0.007872721027658198,0.0075130261560223364,0.9898039701947049
2016-03-23,1,0.0009104397421474513,0.0010226350740219618,-0.008707718511934833,0.006731354756823832,0.988634398448241
2016-03-28,1,0.0006589695069213182,0.0007127206418686674,-0.007872721027658198,0.0077217538001208095,0.9884800567155054
2016-03-30,1,0.001422282145844951,0.0016002084748556159,-0.008422607436741723,0.006731354756823832,0.9893045036941688
2016-04-01,1,0.001465732670465511,0.001651257679614126,-0.01101752304840612,0.006731354756823832,0.988774758067929
2016-04-05,1,0.0006807233460690816,0.0006923563716840429,-0.01101752304840612,0.0077217538001208095,0.9887665088219428
2016-04-07,1,0.0008044312847427289,0.0008705948300249532,-0.01101752304840612,0.010831838721776541,0.988205707717151
2016-04-11,0,-6.037405600139536e-05,8.171415228620137e-06,-0.004826213498389144,0.011561722913342978,0.988214006554756
2016-04-13,-1,-0.0003378260994411018,-0.00027268971442237185,-0.004826213498389144,0.011561722913342978,0.9880165202250508
2016-04-15,1,0.0003294896098802046,0.00037791317754390797,-0.004826213498389144,0.011163264209430583,0.9897237813453226
2016-04-19,1,0.0012948803333965439,0.0015073154738316514,-0.009063809379627221,0.010803027703554053,0.9892421370688278
2016-04-21,1,0.00033827652329144494,0.0004304002737314106,-0.009063809379627221,0.010803027703554053,0.9900240589612833
2016-04-25,1,0.0011419296058143842,0.0013425167950861685,-0.009063809379627221,0.008403123293859099,0.9906092014502451
2016-04-27,1,0.0006083643793566268,0.0007235136179429211,-0.0049117263900560395,0.010803027703554053,0.9905178696300455
2016-04-29,1,0.0003550519507620482,0.0004771663463397239,-0.003068585934946651,0.010803027703554053,0.9911813327596983
2016-05-03,1,0.0007393713416872364,0.0009011520329897587,-0.0049117263900560395,0.008403123293859099,0.9900206168490681
2016-05-05,1,0.001345970227333374,0.001566470638194443,-0.009571462623752634,0.00616174071207644,0.9897120714449348
2016-05-09,1,0.002270182979517972,0.0026425747907165625,-0.011180422584940324,0.005069434183922262,0.9891454723766718
2016-05-11,1,0.002417824944882398,0.002873107290522747,-0.009571462623752634,0.0022854872665236657,0.9905296927885991
2016-05-13,1,0.0016933583954988304,0.00201459516050399,-0.005475253237058849,0.005069434183922262,0.9912164073836865
2016-05-17,1,0.0011286609193596245,0.0013666382907380373,-0.0038620293483200524,0.005069434183922262,0.9918638995252451
2016-05-19,1,0.0010462273006446154,0.0013105342462938492,-0.003173821297333965,0.005263420140098172,0.9924023576812199
2016-05-23,1,0.0017005914126515093,0.002105792950996739,-0.0015469149264471735,0.0051959249502409165,0.9926857447549041
2016-05-25,1,0.0019810128214373117,0.0023841787843366913,-0.0038620293483200524,0.004423793088733367,0.9927724506261083
2016-05-27,1,0.00223730365670647,0.002683747575586923,-0.004788491588911308,0.004488455074125337,0.9922894670598196
2016-06-01,1,0.0007743722262352539,0.0009939859236970773,-0.0038620293483200524,0.005698294253817352,0.9929878155630835
2016-06-03,0,-6.126219601237638e-05,5.122658856364484e-05,0.00023899584660563465,0.006235932341141974,0.9931369910472613
2016-06-07,-1,-0.0007721648075777569,-0.0007668655941179792,0.00037037774192823935,0.008117774709096531,0.9927126234070729
2016-06-09,-1,-0.0009988678696775753,-0.0009505731604738379,0.001255288041472167,0.010036098020969324,0.9918646079771597
2016-06-13,-1,-0.0010664006529035545,-0.0009676693717612041,0.0011597109685069927,0.008504477928317138,0.9921925561201306
2016-06-15,-1,-7.975241727811928e-05,-5.543904466927262e-05,-0.001243468191124459,0.008064614091458052,0.9924455034174997
2016-06-17,1,0.0003369648726816738,0.00043195390315420496,-0.005143082858987394,0.008064614091458052,0.9921280243789941
2016-06-21,-1,-0.0008766143054256012,-0.0006865347325903877,-0.005143082858987394,0.008064614091458052,0.9920988003682198
2016-06-23,-1,-0.0008083925750340965,-0.0006552297310146035,-0.004453975234072132,0.008064614091458052,0.9923468453344823
2016-06-27,-1,-0.0012669246097268307,-0.0010243884980215587,-0.004453975234072132,0.006693311754387557,0.9921688575210769
2016-06-29,-1,-0.0011964247438011337,-0.0008817443470327349,-0.005143082858987394,0.005224763065113472,0.9924166073540039
2016-07-01,-1,-0.0017489524839717785,-0.0012719504392110122,-0.005143082858987394,0.005224763065113472,0.9901907847982113
2016-07-06,-1,-0.001997917721321449,-0.0014528143303886385,-0.0074400772771278,0.003462866655824849,0.9902741795486512
2016-07-08,-1,-0.0011376760750051612,-0.0007516865092563256,-0.00670081738685472,0.003462866655824849,0.9906575045194708
2016-07-12,-1,-0.0007485331783438611,-0.0004384449307622432,-0.00670081738685472,0.004389248093696222,0.9901423649419636
2016-07-14,-1,-0.0004261276636088236,-0.00022906216528516764,-0.00670081738685472,0.0034366592836922298,0.9905319774643055
2016-07-18,-1,-0.0016155089325506264,-0.0012527960718768656,-0.004160654228280762,0.004389248093696222,0.9906041401855146
2016-07-20,-1,-0.0012557133023571557,-0.0009583089222679423,-0.007267337316124007,0.0036252018301758194,0.9902465991274122
2016-07-22,-1,-0.00039224472288711153,-0.0002595329840686264,-0.01005346849348174,0.0036252018301758194,0.9896187093901824
2016-07-26,-1,-0.0007555801345919918,-0.0006249808498920143,-0.007267337316124007,0.0036252018301758194,0.9904230569679777
2016-07-28,-1,-0.0009318644519092723,-0.0008018716365726733,-0.005171544051187893,0.0036252018301758194,0.991004454527404
2016-08-01,1,0.0016435753699425358,0.0018239619095463378,-0.007267337316124007,0.0036252018301758194,0.9920194639941197
2016-08-03,1,0.0010713756553804967,0.0011984386779492321,-0.004667164990710031,0.005089658015487014,0.992924300114453
2016-08-05,1,0.0007400944967413749,0.000786256605791796,-0.004879596703282738,0.003922013652279036,0.9930136423296893
2016-08-09,1,0.0017101914823842578,0.0019395082686753011,-0.004879596703282738,0.003922013652279036,0.9924011401348942
2016-08-11,1,0.0008037686175617463,0.0009102349743466127,-0.007267337316124007,0.003922013652279036,0.9915522267556656
2016-08-15,1,0.0014816730430172683,0.0017014171570296677,-0.01005346849348174,0.0026596399842244677,0.9894082615994072
2016-08-17,1,0.000799296203267932,0.000925369544878652,-0.006513205925343854,0.006791011061645338,0.9899523589984429
2016-08-19,1,0.0005893713728240958,0.000731281513803294,-0.0038812302169689205,0.00953903854391383,0.9901360468620071
2016-08-23,1,0.0005754172950764872,0.000722242345847152,-0.0038812302169689205,0.011310055987658456,0.9892612644729507
2016-08-25,1,0.0008019645611459309,0.0009711315728258369,-0.0019124233177568316,0.010364231759491062,0.9897357352610407
2016-08-29,1,0.0007112433562174595,0.0008567944611758075,-0.0019124233177568316,0.006791011061645338,0.9905691259444515
2016-08-31,1,0.0007073616293678652,0.0008163598705377864,-0.005163644327067732,0.005672140498074064,0.9902121854659133
2016-09-02,1,7.139463328481623e-05,8.909921768317296e-05,-0.01185556807081062,0.005672140498074064,0.9888705428793393
2016-09-07,1,0.0009377137599154765,0.001052331541609496,-0.013099282866262222,0.004311831321945511,0.9885128428684109
2016-09-09,-1,-0.00039503734112315066,-0.00038244299303083474,-0.008740148090946727,0.004311831321945511,0.99071472589711
2016-09-13,-1,-0.0013602365204812685,-0.0011699210852516725,-0.008284262979677498,0.004157976406928179,0.9927991394624006
2016-09-15,-1,-0.00013793190184422638,-0.00013608397857690379,-0.010111136529132207,0.0012082464015399845,0.9922722399433572
2016-09-19,1,0.0001456243799429391,0.0001559792193992742,-0.010111136529132207,0.0003564610074815749,0.992479533276289
2016-09-21,1,0.0006026537325288279,0.0006295847976295728,-0.010111136529132207,0.0003564610074815749,0.9930905640659562
2016-09-23,1,0.0009434570767129576,0.0010450721624940562,-0.010111136529132207,-0.00013597389610985413,0.9926042667530542
2016-09-27,1,0.0009483334287794186,0.0011038233239604113,-0.008284262979677498,-0.0006470803852787883,0.9926850908570638
2016-09-29,1,0.0009395173266948003,0.0011401990079634699,-0.008305909650259707,0.0003564610074815749,0.9922863312617812
2016-10-03,-1,-0.0005517037573737898,-0.0005317686421003516,-0.006526989443971232,0.002603110933194221,0.9926053620939244
2016-10-05,-1,-0.0016578903783843507,-0.0014861085329204394,-0.005444394151075064,0.004770440122802289,0.9930289937758338
2016-10-07,-1,-0.0021442931425305137,-0.0018883590949674322,-0.005444394151075064,0.008622354099026912,0.9919534884854581
2016-10-11,-1,-0.002835534060242761,-0.0024741803963769767,-0.004282558383437514,0.010592724135768576,0.9915832486733639
2016-10-13,-1,-0.0029338356843585504,-0.0025711440883296522,-0.005444394151075064,0.010592724135768576,0.990797478726844
2016-10-17,-1,-0.002715974211711091,-0.0024147819801004678,-0.004282558383437514,0.012591867500656119,0.9893613948156879
2016-10-19,-1,-0.002308468058916817,-0.0020663924453604536,-0.005444394151075064,0.012591867500656119,0.9886280648081184
2016-10-21,-1,-0.003481630411340846,-0.0030349255566375806,-0.006754248831981814,0.012591867500656119,0.9881055341073448
2016-10-25,-1,-0.004455092051165161,-0.003844750872643696,-0.008876850269514902,0.013660045087480536,0.9864948939122813
2016-10-27,-1,-0.004561228197468329,-0.003903435908599404,-0.012041827528128615,0.012591867500656119,0.9866542154449399
2016-10-31,-1,-0.0029233464108267705,-0.0024573771757480127,-0.012041827528128615,0.01049681811142611,0.9883256672162768
2016-11-02,-1,-0.002460229956944662,-0.0020667741254027693,-0.012389442840227905,0.009719422551465507,0.9882433940248032
2016-11-04,-1,-0.0010230039952890486,-0.0008432181224973139,-0.012389442840227905,0.009421559396230097,0.9890489173276762
2016-11-08,-1,-0.00038952240402691474,-0.00029772390393990715,-0.012389442840227905,0.009421559396230097,0.9888583050331614
2016-11-10,-1,-0.0019013677415249384,-0.0016492773934807916,-0.004802950230577464,0.009421559396230097,0.9900898729377471
2016-11-14,-1,-0.0007602455649187269,-0.0006296941227773491,-0.004802950230577464,0.006151408081601338,0.991840265884682
2016-11-16,-1,-0.0016400673952634624,-0.0014077214980058816,-0.002214043477984867,0.007320553251418502,0.9922393159659239
2016-11-18,-1,-0.0013704452601873622,-0.0012226091192887249,-0.0003622663618924313,0.009215826961009036,0.9911503471546556
2016-11-22,-1,-0.000606319005364142,-0.0005845795751344941,-0.0003622663618924313,0.008016229117940461,0.9924094650075563
2016-11-25,-1,-0.0006424549645743685,-0.0006316488642700163,0.0002634361539580913,0.008749844816155728,0.9925569604422905
2016-11-29,1,4.073305738994007e-05,0.00013427713650050158,-0.002214043477984867,0.008016229117940461,0.9930391056306408
2016-12-01,-1,-0.0004250171778080608,-0.00038357185248740324,-0.00033046523312933187,0.008749844816155728,0.9925678304045329
2016-12-05,-1,-0.0002520698772086813,-0.00020804041883961866,-0.00033046523312933187,0.008673694415363087,0.9922300289643394
2016-12-07,1,8.182319458853576e-05,0.00013489016187076666,-0.00033046523312933187,0.007999977876748665,0.9926703208658711
2016-12-09,1,0.0003493894861718562,0.00044608051536106005,-0.003543462874850903,0.007999977876748665,0.9924762976156921
2016-12-13,1,0.0004734199530825738,0.0005939218563101854,-0.0063840954998225004,0.007999977876748665,0.9915278848429806
2016-12-15,1,0.0005285643536353144,0.0006159240668538597,-0.0063840954998225004,0.007987693768341759,0.9915917957725165
2016-12-19,1,0.001510393720726933,0.0017055551761648608,-0.007385459037240959,0.007069421079630809,0.9925668362087331
2016-12-21,1,0.0024359951962413633,0.0028877271278077068,-0.006316381567429928,0.00788579727564757,0.9925704890080598
2016-12-23,1,0.0025594485483132617,0.0029891434830785117,-0.007385459037240959,0.007557250897715551,0.9915667132108574
2016-12-28,1,0.002100647507198519,0.0024710911335029152,-0.005877250319038838,0.007557250897715551,0.9921561335392594
2016-12-30,1,0.003078091858193536,0.0036046793517079904,-0.007895032281112354,0.00688958863747057,0.9921528356734174
2017-01-04,1,0.0024618033844814253,0.0028623292673215146,-0.007895032281112354,0.00688958863747057,0.9917025346348228
2017-01-06,1,0.0029666518913982745,0.0034564306445435703,-0.010095785377437067,0.005280224957593562,0.9908642476605255
2017-01-10,1,0.002163354326985234,0.0025149438855120373,-0.007895032281112354,0.00688958863747057,0.9913197499818835
2017-01-12,1,0.0016789568238765975,0.0019363374157101534,-0.006827915548960584,0.007216798198842286,0.9916807964248558
2017-01-17,1,0.0017938106942809646,0.002060539694509587,-0.007313710730762847,0.005580605215715578,0.99138968434287
2017-01-19,1,0.001457854115341709,0.0016928770663050424,-0.006826570757598738,0.008120735564598972,0.9916019176216373
2017-01-23,1,0.002075089630781989,0.002389876622458213,-0.006826570757598738,0.005580605215715578,0.9916719983432819
2017-01-25,1,0.001442711461612033,0.0016892022341725155,-0.006439510884138222,0.008324068465334965,0.9923614007216036
2017-01-27,1,0.0012790857256325034,0.0014929023294552256,-0.006439510884138222,0.008624742227259018,0.9921727528744141
2017-01-31,1,0.001443421356336664,0.0017158140716539666,-0.006439510884138222,0.008624742227259018,0.9923946716133275
2017-02-02,1,0.0009927147393149036,0.0011161873759574625,-0.005442423721648534,0.008177919605641801,0.9933672753993682
2017-02-06,1,0.0004389544427284723,0.00048059207125201347,-0.00412098079183528,0.008624742227259018,0.9934425265570155
2017-02-08,1,0.001422679850128164,0.0016217504120191904,-0.006439510884138222,0.008177919605641801,0.9928052038250501
2017-02-10,1,0.001700743358057507,0.0019647340530061642,-0.006601442611405643,0.004949821099443506,0.9929094739443048
2017-02-14,1,0.0017315844878864049,0.0020466027986129967,-0.005442423721648534,0.008624742227259018,0.9920410665833872
2017-02-16,1,0.0021061276864621785,0.0024785423922355832,-0.005442423721648534,0.00570162261975695,0.9925585149360977
2017-02-21,1,0.002331968576821614,0.0027088225009750926,-0.005442423721648534,0.004024164183507204,0.9929516359970566
2017-02-23,1,0.002205335990571121,0.002541206525691251,-0.00412098079183528,0.005133126724653936,0.9932933781154633
2017-02-27,1,0.0018929862991830687,0.0021136206045757507,-0.005710281506006363,0.004024164183507204,0.992754755523976
2017-03-01,1,0.0011679667070961142,0.0012470080091123294,-0.004502653013326142,0.004024164183507204,0.9928893479501141
2017-03-03,1,0.000689586646102733,0.0006918414063315013,-0.004336836255194862,0.004024164183507204,0.9931069270998567
2017-03-07,1,0.0008758787894326439,0.0008798247461219293,-0.004336836255194862,0.002736593706349283,0.9934811743723566
2017-03-09,-1,-0.0007092252091174859,-0.0005029088684314078,-0.0021904453235149605,0.003610941050091005,0.9949884376155043
2017-03-13,-1,-0.0012982427776534983,-0.0010075687390042718,-0.0008727454968859548,0.004863034501888434,0.9943823484317339
2017-03-15,1,0.0001722180056026468,0.00028344159257839266,-0.0021904453235149605,0.004068804838172082,0.9959073135251321
2017-03-17,0,-2.257017132986232e-05,0.00013386292786735646,-0.003210925132695401,0.005394333118857297,0.9953265260844457
2017-03-21,-1,-0.0003466158816143603,-0.00013053358149724256,-0.004336836255194862,0.005394333118857297,0.994903052173504
2017-03-23,1,0.00016162606967550587,0.00031211619689192315,-0.004336836255194862,0.003629509069324569,0.9954390698879747
2017-03-27,1,0.00038541216679407694,0.00044064329776574175,-0.004336836255194862,0.004068804838172082,0.9949845747838817
2017-03-29,1,0.0001678528527490847,0.00024015130626416285,-0.0032559158943280308,0.005458334523037071,0.9946898526200134
2017-03-31,1,0.0005070518108161316,0.0005149319802440534,-0.0012228269610599096,0.008641492735539697,0.9938057470155185
2017-04-04,1,0.0005939216998883033,0.0006366040638740688,-0.0015260743593602797,0.008641492735539697,0.9937175235246614
2017-04-06,-1,-0.0002483337328792915,-9.983977092324511e-05,-0.0015260743593602797,0.01084973206886373,0.9931318405848545
2017-04-10,1,0.0008928760967330092,0.0009441145611498395,-0.0025436245057502732,0.01084973206886373,0.9937509168446037
2017-04-12,1,0.00019354218638945216,0.0002741543352566333,-0.0010194132149632805,0.01084973206886373,0.9942093157980868
2017-04-17,1,4.576058316520021e-05,0.00016751605565518948,-0.0005293842976374472,0.006756690805908363,0.9944781581981811
2017-04-19,0,-9.296855733610128e-05,4.0032218370060165e-05,-0.0005293842976374472,0.006756690805908363,0.9947748970272293
2017-04-21,-1,-0.00035028151433272846,-0.00016758586549661702,-0.000868567679767445,0.009083345477133884,0.9941547044756477
2017-04-25,1,0.0003958007245866163,0.0004688549352165989,-0.000868567679767445,0.006107172645397839,0.9949387330268115
2017-04-27,1,0.00036696565990715715,0.0004864852696619461,-0.002053340688260989,0.006107172645397839,0.994484183260445
2017-05-01,1,0.00153899530800582,0.001569823969285564,-0.002156806074146883,0.0038522296326971434,0.9953616484770856
2017-05-03,1,0.0016550163968668365,0.001734614784533127,-0.002053340688260989,0.005526406074480895,0.9952056360839916
2017-05-05,1,0.0020209833897934745,0.0021556108442503715,-0.002053340688260989,0.006277897148964393,0.9945637931683107
2017-05-09,1,0.0018706748010679996,0.001983183982669882,-0.002156806074146883,0.006277897148964393,0.993963106916275
2017-05-11,1,0.0020596567899431014,0.002218089736485943,-0.002156806074146883,0.0070762901578156345,0.9938614107319657
2017-05-15,1,0.002959141708029304,0.0033090947649053225,-0.002822556048116692,0.0070762901578156345,0.9931166750704116
2017-05-17,1,0.002667680584884598,0.0029607683421824043,-0.002659555832628438,0.0070762901578156345,0.9932712116978213
2017-05-19,1,0.002915057878905798,0.003266651338946791,-0.0014680214705437762,0.007878105490407645,0.9933929051789029
2017-05-23,1,0.002147731820006763,0.0023627300055240803,-0.00216648172389355,0.007878105490407645,0.9934798882955903
2017-05-25,1,0.003041804291008914,0.003418958571289827,-0.0028515829973566934,0.007247635758597994,0.9938059756740542
2017-05-30,1,0.002651487178724173,0.002958405766067311,-0.002951879786677338,0.007247635758597994,0.9930019051983519
2017-06-01,1,0.0032280925723688694,0.0036325960817548417,-0.002951879786677338,0.007247635758597994,0.9929203723500577
2017-06-05,1,0.003794630876688302,0.004234381800377801,-0.005950583212377684,0.005361649308354851,0.9924870979165876
2017-06-07,1,0.0031338617916966713,0.0034645966829250025,-0.006765360873138345,0.005361649308354851,0.99182610926149
2017-06-09,1,0.0034081800494065806,0.0037797439641542516,-0.009795297072901164,0.005282682156578696,0.9911776002419196
2017-06-13,1,0.002470834070345633,0.00268508901291017,-0.006765360873138345,0.006810482020431027,0.991787120669876
2017-06-15,1,0.0028714305767869527,0.00317479865115537,-0.007539400347307825,0.006810482020431027,0.9913139505417294
2017-06-19,1,0.002900214160464534,0.003150473892661607,-0.007539400347307825,0.005429042773284392,0.9911232417596422
2017-06-21,1,0.002441309417823608,0.0026181490097066003,-0.007539400347307825,0.006810482020431027,0.9910724174062469
2017-06-23,1,0.0020733194264138228,0.002183054013857034,-0.007110622794153131,0.005429042773284392,0.9913815315352271
2017-06-27,1,0.0014091143803319018,0.0014380090236610005,-0.006076375853247978,0.007303039987931363,0.9912103714571779
2017-06-29,1,0.0008400730971763605,0.0009174650527064576,-0.007110622794153131,0.007303039987931363,0.9907003574986121
2017-07-03,1,0.0013227521762258368,0.0013458695854364176,-0.007110622794153131,0.005981693954168793,0.991193576807062
2017-07-06,1,4.856671303824384e-05,0.00017697549790951045,-0.0057427925889080075,0.005981693954168793,0.992416129096514
2017-07-10,-1,-0.0005014500529842304,-0.0002853254458192487,-0.005082542745083023,0.005179102468455698,0.9929145524561721
2017-07-12,-1,-0.0003027050970331995,-0.00012161494673951006,-0.004864309767091378,0.005179102468455698,0.9930079973459682
2017-07-14,-1,-0.00018494150067503343,-4.198745015578575e-05,-0.005711957791321847,0.004817109089507584,0.992572640992911
2017-07-18,1,0.0005591658317758389,0.0006134969601415324,-0.005711957791321847,0.005836045907438503,0.9924966250799466
2017-07-20,1,0.0014464064157413113,0.0015200129190178257,-0.007930453896279778,0.004817109089507584,0.9928114577548225
2017-07-24,1,0.0009757416437061078,0.0009844215447494251,-0.007295450817489715,0.005836045907438503,0.9923962837784354
2017-07-26,1,0.0012723458297619096,0.0012758691174897551,-0.007295450817489715,0.005836045907438503,0.9932295401447381
2017-07-28,1,0.0010528977141938962,0.0010548057591071797,-0.005379071208507459,0.005836045907438503,0.9935555794333754
2017-08-01,0,-0.00014389467760156393,6.515003593527715e-05,-0.004961552059209727,0.004921401347605986,0.9942687221938129
2017-08-03,-1,-0.0005406321657555321,-0.00026197389446364636,-0.004961552059209727,0.006227085905294143,0.994030636954602
2017-08-07,0,-0.0001475114176155718,2.132880081280147e-05,-0.0034832112450839886,0.006227085905294143,0.9941737652370933
2017-08-09,1,0.0002790302678347808,0.0003952802683906433,-0.0057920169747468706,0.006227085905294143,0.993473103213682
2017-08-11,-1,-0.000671864482916699,-0.00044373612648738027,-0.002818675429634424,0.0066653505126543005,0.9939001619054847
2017-08-15,1,0.0004219337619016096,0.0005013471065669711,-0.0057920169747468706,0.004539311565380315,0.9934685743296285
2017-08-17,-1,-0.0004348418777575134,-0.0002235549208032319,-0.0034832112450839886,0.004539311565380315,0.9938259921896365
2017-08-21,-1,-0.0004944580881954383,-0.0002587440379558059,-0.005767558809828772,0.0037888220109835707,0.9940071221774931
2017-08-23,-1,-0.0002678627173078765,-4.8475108056780184e-05,-0.005767558809828772,0.0016838342507698653,0.9941398290105764
2017-08-25,-1,-0.0007461173484563863,-0.00046074810497360617,-0.005767558809828772,0.002052907397524103,0.9943678849607028
2017-08-29,-1,-0.0009524648017414965,-0.0006481994618399839,-0.007862177649797223,0.002052907397524103,0.9940198113536971
2017-08-31,-1,-0.0006105487253387954,-0.00036498272905500194,-0.007862177649797223,0.002614553059117842,0.9937428548778244
2017-09-05,-1,-0.0008085105117899718,-0.0005301149108183226,-0.007862177649797223,0.0037823666596642873,0.9933148573344386
2017-09-07,-1,-0.0008483773878051349,-0.0005679565088230574,-0.006608139317488287,0.0037823666596642873,0.9937032177247174
2017-09-11,-1,-0.0005838363826323107,-0.00032081508069731115,-0.006608139317488287,0.002659773067128816,0.9941627147331281
2017-09-13,-1,-0.002018502151123355,-0.001585700887144667,-0.0037614059325640262,0.0037823666596642873,0.9953547212513634
2017-09-15,-1,-0.0017481581587075064,-0.0013651337978352316,-0.0037614059325640262,0.003991503374659382,0.9948582258332043
2017-09-19,-1,-0.0022814981354942624,-0.0018595744284685594,-0.002700758785835871,0.003991503374659382,0.9951818697485794
2017-09-21,-1,-0.002043774583805614,-0.0017016059470184395,-0.0021015341019063787,0.003991503374659382,0.9952277665563197
2017-09-25,-1,-0.002070858004432132,-0.0017211422242840114,-0.002376805571730352,0.003991503374659382,0.9953100967230492
2017-09-27,-1,-0.002467044268271063,-0.002095049117373995,-0.002032976963969413,0.003991503374659382,0.9952933452561767
2017-09-29,-1,-0.0020297374311441323,-0.0017092545762707957,-0.002032976963969413,0.004558499234416338,0.9950957208654202
2017-10-03,-1,-0.002016169895686726,-0.001703797956825086,-0.002032976963969413,0.004823360025437227,0.9950644969602161
2017-10-05,-1,-0.0012275809210120741,-0.0010270435921315025,-0.002495087372024974,0.003155128329058412,0.9944665534196028
2017-10-09,-1,-0.0012280833918229194,-0.0010229590016936666,-0.002495087372024974,0.003155128329058412,0.9945770686753537
2017-10-11,-1,-0.0010369956372643882,-0.0008608463847935475,-0.002495087372024974,0.005078921914769727,0.9938443426713593
2017-10-13,-1,-0.0007548290274095095,-0.0005888740390956144,-0.003507189774564542,0.002206588188684775,0.9943034940854352
2017-10-17,-1,-0.0004130027990556492,-0.0003224522448740204,-0.005170855998021936,0.005078921914769727,0.9937098946475154
2017-10-19,-1,-0.0007921298641718554,-0.0006473654485660553,-0.006322789571304581,0.0064622600358238275,0.9926839388476388
