JNU-Tangyin/eata/results/Batch4_SP500/Batch4_SP500-LVS.csv
Date,Action,Predicted_Q25,Predicted_Q75,Actual_Q25,Actual_Q75,RL_Reward
2010-12-14,0,0.0,0.0,-0.010526421441177918,0.01951754000224488,0.9791055391349575
2010-12-16,0,0.0,0.0,-0.010526421441177918,0.015227591237320504,0.9815780699661796
2010-12-20,1,0.0026446498600202224,0.003154003869864601,-0.016551088062214683,0.008271827074450684,0.9816850635352125
2010-12-22,1,0.0013425906857725068,0.0019421318655728267,-0.016551088062214683,0.008271827074450684,0.9824213732084082
2010-12-27,1,0.0010744402354470526,0.0016526190398066993,-0.01755689080994506,0.011663276085766292,0.9816847859425294
2010-12-29,0,0.0,0.0,-0.016231833821422764,0.018496170484907613,0.9808719032270319
2010-12-31,0,0.0,0.0,-0.01755689080994506,0.018496170484907613,0.9807643330665466
2011-01-04,0,0.0,0.0,-0.01755689080994506,0.018496170484907613,0.9803760093276893
2011-01-06,-1,-0.003962327439096429,-0.003455569150455781,-0.019270439823089333,0.018496170484907613,0.9762846686480233
2011-01-10,0,0.0,0.0,-0.019270439823089333,0.017451126076049144,0.978791891999181
2011-01-12,0,0.0,0.0,-0.01755689080994506,0.017451126076049144,0.9804981778688432
2011-01-14,-1,-0.004535091522064521,-0.003852192903380013,-0.016231833821422764,0.01773080371983708,0.98012513635813
2011-01-19,-1,-0.0025990113869078565,-0.001904127830055967,-0.0022947000316410316,0.01773080371983708,0.981713387757522
2011-01-21,-1,-0.0021956907229733705,-0.0015726616859930546,-0.00015967018952023045,0.01773080371983708,0.9810340230889292
2011-01-25,0,0.0,0.0,-0.00488302165106818,0.01773080371983708,0.9806061299720378
2011-01-27,0,0.0,0.0,-0.00857539249442084,0.016846603884219994,0.9811102670937877
2011-01-31,0,0.0,0.0,-0.00857539249442084,0.01461730696696601,0.9797021910439822
2011-02-02,0,0.0,0.0,-0.00923755518413865,0.013422312611154811,0.981695621641916
2011-02-04,0,0.0,0.0,-0.00923755518413865,0.012582435124258492,0.9847863936133886
2011-02-08,0,0.0,0.0,-0.00923755518413865,0.012582435124258492,0.9848581290274442
2011-02-10,0,0.0,0.0,-0.013247159596182409,0.012582435124258492,0.9821920105411256
2011-02-14,-1,-0.002801031475564699,-0.001984088739051555,-0.025996440570041277,0.003376435607877398,0.9822872932885195
2011-02-16,-1,-0.003034757561837276,-0.002211286944899514,-0.025996440570041277,0.003376435607877398,0.9818222137545719
2011-02-18,-1,-0.002799204043588742,-0.0020679096930492093,-0.02707677644987369,0.003376435607877398,0.9791847279810015
2011-02-23,-1,-0.0046293858478923845,-0.0036434645744825587,-0.02066893480096186,0.006285577176605437,0.9798501904348501
2011-02-25,-1,-0.003903303627182031,-0.0031338314136661514,-0.02066893480096186,0.012746007657123101,0.9765512192155845
2011-03-01,-1,-0.006427984165171381,-0.005304116749961453,-0.018015823080197856,0.012963522439470885,0.9786236620509172
2011-03-03,-1,-0.005333054025491784,-0.004427560246078295,-0.02066893480096186,0.01527192226528031,0.9771890452469053
2011-03-07,-1,-0.005942808471435016,-0.005037091935091571,-0.018015823080197856,0.018139426981693962,0.9762247278402365
2011-03-09,-1,-0.005784588948141928,-0.004891695210886132,-0.018015823080197856,0.022791982863421892,0.9750967901497941
2011-03-11,-1,-0.007071067607312695,-0.006014754992624198,-0.017442309107552983,0.022791982863421892,0.9768997262717976
2011-03-15,-1,-0.008637273730568199,-0.0074049956956968,-0.015277228251827896,0.022791982863421892,0.9780108709374508
2011-03-17,-1,-0.009926697823665835,-0.008544832667944133,-0.012551755252215878,0.024158448044678267,0.9766785936699651
2011-03-21,-1,-0.006531511756059518,-0.005654212937995756,-0.010838220594378016,0.024158448044678267,0.979375855843136
2011-03-23,0,0.0,0.0,-0.010838220594378016,0.02280983384142295,0.9813404789620328
2011-03-25,0,0.0,0.0,-0.010838220594378016,0.018139426981693962,0.9855130746425833
2011-03-29,-1,-0.0007220791505453571,-0.0006525228727213756,-0.010151640428642932,0.01637097126877701,0.9864073550509983
2011-03-31,-1,-0.0003257317990656821,-0.00015342638413481447,-0.0062162379697709835,0.01483853790823225,0.9880851309406167
2011-04-04,1,0.000504744423130984,0.000801181668088209,-0.010151640428642932,0.011572146472747756,0.9879994058942891
2011-04-06,1,0.001808811931401014,0.002201003274930312,-0.010838220594378016,0.00753024275257686,0.9855360375558019
2011-04-08,1,0.0007438558718366962,0.0008980649590212078,-0.010151640428642932,0.011550132154650235,0.9854957233869338
2011-04-12,-1,-0.0009101106329805394,-0.0007180471397181568,-0.0024495890308674634,0.014314437138853407,0.9853430273965729
2011-04-14,1,0.0016630461887921473,0.001970372971656836,-0.010909004405174888,0.011550132154650235,0.9853376951842777
2011-04-18,1,0.003148855235527782,0.003604651153888942,-0.013041319195276641,0.007590824124571264,0.9855570565677225
2011-04-20,1,0.0029389742071634656,0.0033925337462689118,-0.007735467652677691,0.007216024653606319,0.9864199885443786
2011-04-25,1,0.002999722027797316,0.003465583526383971,-0.016626560150857284,0.007216024653606319,0.9841166718272372
2011-04-27,1,0.004565653899729434,0.005142308925878808,-0.016626560150857284,0.009511636853053517,0.982608921749369
2011-04-29,1,0.0044611748595421025,0.004992734529941525,-0.016626560150857284,0.009511636853053517,0.982066428545729
2011-05-03,1,0.0028021577876619027,0.002998100541382093,-0.010137117238279746,0.009440496932201493,0.9839740518614785
2011-05-05,1,0.0006676026130978069,0.0007754370717129278,-0.007646952313964292,0.009440496932201493,0.9872558004677779
2011-05-09,1,0.00023214788968789262,0.0004509396507300779,-0.010137117238279746,0.007216024653606319,0.9860241806189255
2011-05-11,1,0.0020656450152366666,0.0021867250439320143,-0.011517474162693957,0.006362030197722187,0.9857927021715104
2011-05-13,1,0.001218390254950459,0.0013148187691690667,-0.008609690946033947,0.006362030197722187,0.9865602574906226
2011-05-17,1,0.0003447881478116654,0.000426062036886897,-0.008449235127139194,0.00700230110721627,0.9873453626805168
2011-05-19,1,0.00041398155553830254,0.0004944291539325683,-0.009508680413763898,0.004210393189691135,0.986727411534774
2011-05-23,-1,-0.001510734298850179,-0.0011621654367224609,-0.00949808638152989,0.006519201983683638,0.9874002292457393
2011-05-25,1,5.4516689270574215e-05,0.00015732785638824783,-0.00949808638152989,0.006519201983683638,0.9877269948039281
2011-05-27,1,0.0008262710691112757,0.0008661774910135236,-0.00949808638152989,0.006519201983683638,0.9873755371847136
2011-06-01,1,0.0010666480491713407,0.0011008731490929821,-0.009958265773746132,0.007067520021880767,0.9850228492263625
2011-06-03,1,0.002267902953249706,0.0025854549006946626,-0.009958265773746132,0.01578922817111812,0.982637953894072
2011-06-07,1,0.0001753104335057781,0.0002184137551006784,-0.00949808638152989,0.01578922817111812,0.9846556949105859
2011-06-09,-1,-0.0004068939223425013,-0.0002965186471749818,-0.0091638693717798,0.021851130821183166,0.9831671094761838
2011-06-13,-1,-0.0013922034936264013,-0.0011031165003551912,-0.00949808638152989,0.021851130821183166,0.9814868639072585
2011-06-15,-1,-0.001694404347151611,-0.001334895035452014,-0.009313731158440544,0.022815178522711175,0.9814414060162266
2011-06-17,-1,-0.0024029443209886894,-0.001965733666954954,-0.009313731158440544,0.022815178522711175,0.9810238766223958
2011-06-21,-1,-0.00025518562531354075,-0.0001402157293491032,-0.0070374885740981516,0.02198277035595207,0.9821237081518701
2011-06-23,-1,-0.00024105350753149212,-9.684683763136383e-05,-0.0070374885740981516,0.02198277035595207,0.981481839485302
2011-06-27,0,0.0,0.0,-0.007174498109321082,0.018532217970143323,0.9825641836217859
2011-06-29,0,0.0,0.0,-0.005543825686789233,0.018532217970143323,0.9840197070345529
2011-07-01,0,0.0,0.0,-0.005543825686789233,0.01690948565721651,0.9857843843113212
2011-07-06,1,0.0022577586503294035,0.002768008616935936,-0.006369144907562785,0.018532217970143323,0.9837136934311804
2011-07-08,1,0.004354990848298955,0.005208586844356504,-0.01468167495388565,0.01690948565721651,0.9806316174119923
2011-07-12,0,0.0,0.0,-0.011848963112368457,0.018532217970143323,0.9744687039172341
2011-07-14,0,0.0,0.0,-0.015486155615912543,0.018600321742967642,0.9712903701631512
2011-07-18,1,0.00227694573514589,0.0027016334610990966,-0.010862853272823101,0.02331513771812633,0.9708324249315474
2011-07-20,1,0.0031924051912360545,0.0037538844702741736,-0.013976730452732443,0.02331513771812633,0.9709892775876144
2011-07-22,1,0.00319974795882687,0.0036752585020067116,-0.020099543036885437,0.02331513771812633,0.9684449937460725
2011-07-26,1,0.0029593954480768942,0.003407416304486227,-0.022835540988464395,0.024180726645909215,0.9655884451658029
2011-07-28,1,0.0027543145640751797,0.003104588713966023,-0.03247422039200429,0.023953744049800055,0.9645252511779112
2011-08-01,1,0.0032910886395620107,0.003708600976239435,-0.03247422039200429,0.03309501303134332,0.9615299311533863
2011-08-03,1,0.0021153700294896964,0.002298983739137896,-0.022835540988464395,0.03309501303134332,0.9634069171134372
2011-08-05,-1,-0.002322393976375088,-0.0018824100220922516,-0.017075543650649217,0.03309501303134332,0.9672964613974735
2011-08-09,-1,-0.003545673634225998,-0.0029144964785602903,-0.014915920415639447,0.03309501303134332,0.9721726291385258
2011-08-11,-1,-0.0006549224247689304,-0.0004426120033550298,-0.016550675853182595,0.02711050754609707,0.9754225809928859
2011-08-15,1,0.00033717615569008746,0.00042800391348147063,-0.016550675853182595,0.02129475459916444,0.9765326833223904
2011-08-17,1,0.0008756107871125049,0.0009726401922237821,-0.016550675853182595,0.02129475459916444,0.9767333171071382
2011-08-19,-1,-0.0008543949265693711,-0.0007449024433294974,-0.009619452354382607,0.02870091190638422,0.977866969930164
2011-08-23,1,0.0002396038293672131,0.0002415120470248057,-0.009619452354382607,0.02129475459916444,0.9805649340100351
2011-08-25,0,-1.8988216780542893e-05,2.2332540208471396e-06,-0.010120506898143384,0.02129475459916444,0.9791999476544069
2011-08-29,1,0.0028303415994755934,0.003270253772648591,-0.011372202854374038,0.017405799919556098,0.9810398679166618
2011-08-31,1,0.0029703736306069106,0.0034133659410156914,-0.0160887165350355,0.010310131835482003,0.9786962224914246
2011-09-02,1,0.0018926796678976527,0.002150757562990673,-0.019045961574923415,0.010310131835482003,0.9750568383233312
2011-09-07,1,0.004142244040295736,0.004738953567269685,-0.019045961574923415,0.011086219440738159,0.9730441103605372
2011-09-09,1,0.003685157050720189,0.004279631262518281,-0.01742260769759723,0.02052268044261621,0.9725785135809434
2011-09-13,0,0.0,0.0,-0.01742260769759723,0.023301388193443878,0.9709149296867099
2011-09-15,0,0.0,0.0,-0.01742260769759723,0.023301388193443878,0.9703389445561083
2011-09-19,0,0.0,0.0,-0.01742260769759723,0.023301388193443878,0.9700370342499375
2011-09-21,0,0.0,0.0,-0.02751351399530889,0.023301388193443878,0.9684226424369247
2011-09-23,0,0.0,0.0,-0.026566338759503236,0.023301388193443878,0.9699231684782001
2011-09-27,0,0.0,0.0,-0.038069625085992806,0.02674019501448628,0.965801922017757
2011-09-29,0,0.0,0.0,-0.019888337152852383,0.03642663788526568,0.9657201575774709
2011-10-03,-1,-0.004841771614153305,-0.004231803929245354,-0.01383997224003245,0.04446398217424293,0.9670038721284833
2011-10-05,-1,-0.0017942099792973595,-0.0015147450672164582,-0.01383997224003245,0.03642663788526568,0.9700487734755865
2011-10-07,-1,-0.001438988649479322,-0.001161905260212692,-0.01383997224003245,0.033448035368168885,0.9717761623338999
2011-10-11,1,0.0013735564156959347,0.001446634519377882,-0.015291329544213967,0.025832555002870995,0.9736000790180134
2011-10-13,0,0.0,0.0,-0.027574890934538444,0.025832555002870995,0.9711378675491371
2011-10-17,0,0.0,0.0,-0.027574890934538444,0.03318898843870605,0.9699072430122104
2011-10-19,0,0.0,0.0,-0.020180049337275012,0.03318898843870605,0.9715205284765743
2011-10-21,0,0.0,0.0,-0.019963879781911914,0.03318898843870605,0.9721212576757913
2011-10-25,0,0.0,0.0,-0.019963879781911914,0.025746206026383382,0.975822291141157
2011-10-27,1,0.0005687708272530317,0.0006304967595415261,-0.02386843043611028,0.014668483906703039,0.9774764254085936
2011-10-31,1,0.001047890152459977,0.0010811730751534208,-0.025451152839780635,0.014668483906703039,0.9769473105290924
2011-11-02,0,0.0,0.0,-0.025451152839780635,0.014668483906703039,0.9751120729304855
2011-11-04,0,0.0,0.0,-0.025451152839780635,0.014668483906703039,0.9749308437673646
2011-11-08,0,0.0,0.0,-0.025451152839780635,0.003921265596951206,0.976450110991115
2011-11-10,0,0.0,0.0,-0.01667551202868863,0.014068835071822433,0.9766739820246693
2011-11-14,0,0.0,0.0,-0.026217036138731786,-0.00010175917441933508,0.9776799933641366
2011-11-16,0,0.0,0.0,-0.026217036138731786,-0.00010175917441933508,0.9776178904007429
2011-11-18,0,0.0,0.0,-0.026217036138731786,0.003921265596951206,0.97722378817816
2011-11-22,0,0.0,0.0,-0.0258639194889937,0.012569683140273014,0.9765761725011218
2011-11-25,0,0.0,0.0,-0.020473245750811914,0.017373748141905457,0.977418405033619
2011-11-29,1,0.0005176392418438804,0.0005546778362603556,-0.020473245750811914,0.012569683140273014,0.979588669058479
2011-12-01,0,0.0,0.0,-0.020473245750811914,0.010514918462895609,0.9826250445492217
2011-12-05,0,0.0,0.0,-0.020473245750811914,0.012569683140273014,0.9807401138419221
2011-12-07,0,0.0,0.0,-0.022454155772682824,0.012569683140273014,0.9792836808955035
2011-12-09,0,0.0,0.0,-0.01936979734375264,0.012825649965900531,0.9807796950727716
2011-12-13,-1,-0.002061253795678897,-0.002015300534543384,-0.015585122749755242,0.018226124858987756,0.9814107247613001
2011-12-15,-1,-0.0009692974062938767,-0.000860774017674628,-0.008014735568727307,0.018226124858987756,0.9813196834796519
2011-12-19,-1,-0.000549929587802209,-0.0005112995641383703,-0.00174656834265148,0.01821705349201044,0.982993347055413
2011-12-21,1,0.00035669650332326717,0.0004583280758232072,-0.006268156092310827,0.01821705349201044,0.9844513634626039
2011-12-23,1,0.0006095135139491826,0.0007374751538053888,-0.0024319919600526586,0.01964876098905327,0.9838664539109339
2011-12-28,-1,-0.002313356425914228,-0.001927965309973911,-0.0024319919600526586,0.01964876098905327,0.9837146816916478
2011-12-30,-1,-0.0027478784481714904,-0.0022585337105157336,-0.005564540804841364,0.01964876098905327,0.9840691118803304
2012-01-04,-1,-0.0006957336209754163,-0.0005541787738342489,-0.003900041552510688,0.01904411928936573,0.9852644458697
2012-01-06,-1,-0.0012732660977913131,-0.0011085250382941194,-0.0005998657917095191,0.01904411928936573,0.9855105672502658
2012-01-10,-1,-0.0002671026863614892,-0.00018734513264893334,-0.003900041552510688,0.018542319299858796,0.9864784648499253
2012-01-12,0,0.0,0.0,-0.005523052234408019,0.017834491557750166,0.9867853431352828
2012-01-17,0,0.0,0.0,-0.006691678068938433,0.01677004611079224,0.9872381700072603
2012-01-19,0,0.0,0.0,-0.006691678068938433,0.018247257394790706,0.9863372476144219
2012-01-23,0,0.0,0.0,-0.006691678068938433,0.01677004611079224,0.9873793905363268
2012-01-25,0,0.0,0.0,-0.006691678068938433,0.012535516616607064,0.9888332091411577
2012-01-27,1,0.0016213427190804393,0.0021078489903012068,-0.005908665558407935,0.011133647233191843,0.990125447854328
2012-01-31,1,0.0038433000725459823,0.004433659719106612,-0.005908665558407935,0.01677004611079224,0.9890328953922423
2012-02-02,0,0.0,0.0,-0.006587991921336213,0.013534834354379365,0.9883853684919007
2012-02-06,0,0.0,0.0,-0.007847414219974319,0.010162586812009985,0.9866943425734447
2012-02-08,0,0.0,0.0,-0.006587991921336213,0.013897194219071905,0.9860483773366697
2012-02-10,0,0.0,0.0,-0.007407409938767918,0.013897194219071905,0.9866258477780605
2012-02-14,0,0.0,0.0,-0.007407409938767918,0.01886275625623659,0.985664050628919
2012-02-16,0,0.0,0.0,-0.007887734003527111,0.01886275625623659,0.9849625003204789
2012-02-21,1,0.004058851551127434,0.0043822601557184605,-0.007887734003527111,0.022149099254334628,0.9819617836794141
2012-02-23,1,0.003497539990713837,0.0035176985392285356,-0.007887734003527111,0.022149099254334628,0.9820748636271736
2012-02-27,0,0.0,0.0,-0.007887734003527111,0.0227778240241542,0.981500237088253
2012-02-29,0,0.0,0.0,-0.009303648829459507,0.021968234718134264,0.9831596718266171
2012-03-02,0,0.0,0.0,-0.012379502012766082,0.01907233117950978,0.9837333471996651
2012-03-06,0,0.0,0.0,-0.007551415869922931,0.01907233117950978,0.9856748925477942
2012-03-08,1,0.0043193309114189,0.004824908904786963,-0.009303648829459507,0.014310022752794858,0.9849142683779883
2012-03-12,1,0.003806594705016456,0.0042452462575784805,-0.012379502012766082,0.023872305312977248,0.9827766600957103
2012-03-14,1,0.004052508737986753,0.004467123372438367,-0.012379502012766082,0.023872305312977248,0.982705328014245
2012-03-16,1,0.0037794060691985483,0.004122441511710616,-0.012379502012766082,0.014310022752794858,0.9826616008623112
2012-03-20,1,0.003922302394477696,0.004265939071936779,-0.006626499836156106,0.010638544946746768,0.9859160781704838
2012-03-22,1,0.005713229167900912,0.006438522274157697,-0.012379502012766082,0.010638544946746768,0.9842040050676334
2012-03-26,1,0.0048653217529610595,0.005420536672988167,-0.014010540943883836,0.009527138389536557,0.9836558268647383
2012-03-28,1,0.004965086478813749,0.005576776312940377,-0.01866415213693686,0.010638544946746768,0.9813035103328559
2012-03-30,1,0.004398320159318131,0.004921284886059244,-0.019805838685961273,0.010638544946746768,0.9805002257162695
2012-04-03,1,0.004897051855067072,0.005492829305753663,-0.019805838685961273,0.009527138389536557,0.9806745247105176
2012-04-05,1,0.0036976733247648004,0.003998466152718657,-0.019805838685961273,0.006234007837293695,0.9816251487045404
2012-04-10,0,0.0,0.0,-0.018166761147104728,0.0027855615970403765,0.9843732730127612
2012-04-12,0,0.0,0.0,-0.01870536602392234,0.0018934601184038675,0.9853871277603429
2012-04-16,1,0.0025666506875442916,0.00286374553413838,-0.01870536602392234,0.0018934601184038675,0.9836948525288896
2012-04-18,1,0.0021810213211636577,0.0022992693793264887,-0.01870536602392234,-0.005361608624520626,0.9832797897246611
2012-04-20,1,0.0014202515126740067,0.0014343656417329456,-0.01870536602392234,-0.005361608624520626,0.9830475666695722
2012-04-24,0,0.0,0.0,-0.01870536602392234,-0.0003767421671904377,0.9829619516200947
2012-04-26,1,0.0021095042652214116,0.0022094542610850533,-0.017700128726790693,-0.0003767421671904377,0.9848995365414457
2012-04-30,1,0.0006226450675587986,0.0007471661089317564,-0.016606165781304943,0.0027855615970403765,0.9858639293636847
2012-05-02,0,0.0,0.0,-0.01987217146981973,-0.0008697531601934658,0.983564792585279
2012-05-04,0,0.0,0.0,-0.020686587406989313,-0.0008697531601934658,0.9814241642408363
2012-05-08,0,0.0,0.0,-0.020686587406989313,0.005846712067572756,0.9791786271886878
2012-05-10,0,0.0,0.0,-0.01905648441279509,0.007265423040382286,0.9794479786503618
2012-05-14,0,0.0,0.0,-0.018480545963983512,0.011335575746900153,0.979727745384824
2012-05-16,-1,-0.007269930788933206,-0.006053100051703744,-0.018480545963983512,0.011405743372685125,0.9806324965320334
2012-05-18,-1,-0.008771888545726008,-0.007398419850250162,-0.01050052944898413,0.011405743372685125,0.9812553873044699
2012-05-22,-1,-0.008049513308515622,-0.006704357057243964,-0.01050052944898413,0.011405743372685125,0.9820383526116659
2012-05-24,-1,-0.00799063350794911,-0.006665889323312916,-0.014604002488984783,0.011405743372685125,0.981632255743755
2012-05-29,-1,-0.006932676840473575,-0.0057508382096947384,-0.025490662835732605,0.009653558931319499,0.9814873022693816
2012-05-31,-1,-0.010077719694544397,-0.008459237711379072,-0.011753914784931981,0.009653558931319499,0.9827669034657048
2012-06-04,-1,-0.012189341425808383,-0.010409589891476844,-0.01136080306467394,0.011405743372685125,0.9830549852736927
2012-06-06,-1,-0.008472390837128672,-0.007190397929587697,-0.01136080306467394,0.0091815012118085,0.9871942367151789
2012-06-08,-1,-0.008003936498837214,-0.006815443962585913,-0.015041932245366419,0.005923318093752802,0.9866000023924258
2012-06-12,0,0.0,0.0,-0.012349893456165393,0.002795206462875217,0.9868674987447925
2012-06-14,0,0.0,0.0,-0.015041932245366419,0.002795206462875217,0.9852228755003903
2012-06-18,0,0.0,0.0,-0.015041932245366419,0.005923318093752802,0.9842222018739988
2012-06-20,0,0.0,0.0,-0.015041932245366419,0.005923318093752802,0.9827594971104697
2012-06-22,0,0.0,0.0,-0.021455747940370102,0.005923318093752802,0.9807579716819047
2012-06-26,0,0.0,0.0,-0.020415698420570123,0.005923318093752802,0.9807784374771268
2012-06-28,0,0.0,0.0,-0.023962713810139084,0.009134850364861535,0.979678639446918
2012-07-02,0,0.0,0.0,-0.027643515234518485,0.009134850364861535,0.9791777223835788
2012-07-05,0,0.0,0.0,-0.027643515234518485,0.009554527345683822,0.9782897973925415
2012-07-09,0,0.0,0.0,-0.024523366675118556,0.02118960863854361,0.9770890480080348
2012-07-11,0,0.0,0.0,-0.024523366675118556,0.021771752098539286,0.9761675446746896
2012-07-13,0,0.0,0.0,-0.019349574873998913,0.021771752098539286,0.9784755899029443
2012-07-17,0,0.0,0.0,-0.019349574873998913,0.02113504450690757,0.9787449155667853
2012-07-19,-1,-0.008788286055358176,-0.007880381603071487,-0.019349574873998913,0.02113504450690757,0.9796759119587087
2012-07-23,0,0.0,0.0,-0.013535577111458977,0.021771752098539286,0.9803277826871285
2012-07-25,0,0.0,0.0,-0.011549701216950016,0.02221764731036427,0.9804927224622151
2012-07-27,-1,-0.012236073010359935,-0.010941326509481515,-0.011182483030015703,0.02221764731036427,0.9792348978909746
2012-07-31,0,0.0,0.0,-0.011182483030015703,0.02221764731036427,0.9825446282816419
2012-08-02,0,0.0,0.0,-0.011730805290532453,0.021771752098539286,0.9830680824076052
2012-08-06,0,0.0,0.0,-0.012926354488904047,0.014995920989489405,0.9850030429464943
2012-08-08,0,0.0,0.0,-0.012926354488904047,0.014995920989489405,0.9847007737569542
2012-08-10,0,0.0,0.0,-0.013483325277091292,0.01796982891310212,0.9828659837336043
2012-08-14,0,0.0,0.0,-0.011730805290532453,0.01796982891310212,0.9833192696191548
2012-08-16,0,0.0,0.0,-0.011730805290532453,0.02370244038258064,0.9834504573494586
2012-08-20,0,0.0,0.0,-0.013201641364385331,0.01796982891310212,0.9844596110125821
2012-08-22,1,0.001203037444421523,0.001793138958450572,-0.014704392480146407,0.01677377523899587,0.9848161807577507
2012-08-24,1,0.0011510840550282412,0.001765614963582764,-0.01622276719444677,0.01677377523899587,0.9843905898922376
2012-08-28,1,0.002010297123379809,0.0027352072874253534,-0.01622276719444677,0.018309026846441163,0.9850337834812944
2012-08-30,1,0.00013232324449160638,0.0006053785052849057,-0.010386895643320447,0.018309026846441163,0.9848294264693374
2012-09-04,1,0.0015436177438978914,0.002311430637938593,-0.006364371516607922,0.018309026846441163,0.9862484162654938
2012-09-06,1,0.002420632240244069,0.003268454328883528,-0.010386895643320447,0.012269981058483658,0.986829555194883
2012-09-10,1,0.002375022044647796,0.0032471094073804304,-0.010106249460555541,0.009203716018576256,0.9879435633129848
2012-09-12,0,0.0,0.0,-0.015048073661685488,0.008722586771880501,0.9863505058622053
2012-09-14,0,0.0,0.0,-0.015048073661685488,0.006870017484949399,0.988131695626808
2012-09-18,0,0.0,0.0,-0.014330136637591282,0.010092271358337394,0.9870306427407027
2012-09-20,0,0.0,0.0,-0.009960485846779108,0.008722586771880501,0.9883882632171003
2012-09-24,0,0.0,0.0,-0.009960485846779108,0.007119321334587768,0.988911129532699
2012-09-26,0,0.0,0.0,-0.012084011730592488,0.006335595672518487,0.9890398675494618
2012-09-28,0,0.0,0.0,-0.012084011730592488,0.006335595672518487,0.9874327849803015
2012-10-02,0,0.0,0.0,-0.012084011730592488,0.00746436508175257,0.9874298796983475
2012-10-04,0,0.0,0.0,-0.012084011730592488,0.00746436508175257,0.986556811414442
2012-10-08,0,0.0,0.0,-0.009647562999312766,0.008807390631560967,0.9868133272124107
2012-10-10,0,0.0,0.0,-0.008078657402474175,0.011127402599831802,0.9858323761763832
2012-10-12,0,0.0,0.0,-0.009647562999312766,0.008807390631560967,0.9857023969994843
2012-10-16,0,0.0,0.0,-0.012718159899832854,0.0019591263065180035,0.9855138494284854
2012-10-18,1,0.005493591690334082,0.006511377326433594,-0.012718159899832854,0.008807390631560967,0.9807167487215461
2012-10-22,1,0.002815223679076455,0.0033069184800188257,-0.009647562999312766,0.008807390631560967,0.9827633539162443
2012-10-24,1,0.0009528410336219161,0.0010697601318118918,-0.008010854688923746,0.01029837165791233,0.9834342660562309
2012-10-26,0,0.0,0.0,-0.008010854688923746,0.01112664903232882,0.9826799878476123
2012-11-01,0,0.0,0.0,-0.008010854688923746,0.01112664903232882,0.9828755513272647
2012-11-05,0,0.0,0.0,-0.007561319393699931,0.01112664903232882,0.9836056827789018
2012-11-07,0,0.0,0.0,-0.012062981751638235,0.01112664903232882,0.9826266816453033
2012-11-09,0,0.0,0.0,-0.00667412410090642,0.005566096856473936,0.9850515207982095
2012-11-13,1,0.001062807309760118,0.001263373204733893,-0.004742009395813232,0.01419696022725862,0.9842967451003339
2012-11-15,-1,-0.0007766599753587624,-0.0007197325357385043,-0.0033234743152372277,0.01419696022725862,0.9852098134697629
2012-11-19,1,0.0005626581305793855,0.0006377832104143918,-0.0033234743152372277,0.011089157577836198,0.9883271131400913
2012-11-21,0,0.0,0.0,-0.0036299045386276683,0.011089157577836198,0.987730873561667
2012-11-26,1,0.00029872747603768577,0.0003390652963730828,-0.005607271035442977,0.010873946773915871,0.9872448788445994
2012-11-28,0,0.0,0.0,-0.005607271035442977,0.007764526868732078,0.9899845331530273
2012-11-30,0,0.0,0.0,-0.005736260701110649,0.00990838430103702,0.9878420002540987
2012-12-04,0,0.0,0.0,-0.005302914825154013,0.014084485863780754,0.9855497400899607
2012-12-06,0,0.0,0.0,-0.005302914825154013,0.018650502717953453,0.9855958297076454
2012-12-10,-1,-0.0010998848578948296,-0.0009109908075444905,-0.005302914825154013,0.02116285899034704,0.9842494177210739
2012-12-12,1,0.0009960494698107198,0.0011491676081300303,-0.005302914825154013,0.014773623053749796,0.9866561733114706
2012-12-14,1,7.873832189020876e-05,0.00014643093954840971,-0.0056296500280433835,0.012855377185286131,0.9867362766897648
2012-12-18,-1,-0.000488742831902402,-0.000256820456253145,-0.006162433429663278,0.012855377185286131,0.9865673087908419
2012-12-20,-1,-0.0009246821997185228,-0.0006537989128738459,-0.006162433429663278,0.021582065415262357,0.9856637784228096
2012-12-24,-1,-0.0024279825430126895,-0.0019359955188211048,-0.005574834723292751,0.021582065415262357,0.9859089278916657
2012-12-27,-1,-0.0021092407111966112,-0.0016801114073471174,-0.005574834723292751,0.021582065415262357,0.9859025921497366
2012-12-31,0,-6.62523484040601e-05,2.4270967323966e-05,-0.005574834723292751,0.012227239804784445,0.9868882923469017
2013-01-03,1,0.00038334828599911034,0.00040729870468641995,-0.005574834723292751,0.009853186263972085,0.986693891324176
2013-01-07,1,0.0005948792811549809,0.000608508042109824,-0.005726921902421279,0.008674763474712851,0.9867758683179553
2013-01-09,1,0.000545322177583672,0.0006029507764126826,-0.008520695040748998,0.007352308378490824,0.9870837689967892
2013-01-11,1,0.0018689953884932094,0.002111082327941371,-0.01133742067034562,0.008674763474712851,0.985372391034695
2013-01-15,1,0.0016202619967379903,0.0018172005592634612,-0.01133742067034562,0.007593058879284007,0.9857351883045214
2013-01-17,1,0.0014747815675078904,0.001700829569745572,-0.009650599025380568,0.007593058879284007,0.9858123290192037
2013-01-22,1,0.0022717257402540374,0.002534823904248114,-0.014064520333592161,0.003170847545790675,0.9838820531163525
2013-01-24,1,0.001417571354075644,0.001592920535450488,-0.01502560793332965,0.007593058879284007,0.9828136093849009
2013-01-28,1,0.0011270058637683675,0.0011924278530049352,-0.01502560793332965,0.007593058879284007,0.9824589983958962
2013-01-30,1,0.0006849441986516734,0.0006862415094398725,-0.014064520333592161,0.010456991324707093,0.9836106999591976
2013-02-01,1,0.0030131952491334957,0.0034049178417321826,-0.014064520333592161,0.0016017334863976276,0.986239660108749
2013-02-05,1,0.0016546164937963417,0.0018370910109632688,-0.012371176433420781,0.0024043205392454275,0.9866991484162585
2013-02-07,1,0.0014769354252760305,0.0016632095386722907,-0.009995184279738957,0.009185124277745517,0.9874610606001231
2013-02-11,1,0.0018663812695946165,0.0021831566748568747,-0.007071747878781511,0.009070589570257031,0.9884886090426656
2013-02-13,1,0.001371621128997255,0.001593223967553801,-0.007071747878781511,0.009070589570257031,0.9886447306302225
2013-02-15,1,0.0012403890055039052,0.001440820544714302,-0.004198847342193426,0.009070589570257031,0.9890976121955674
2013-02-20,-1,-0.00018465628537389918,-0.00017275136855136462,-0.002589535153367308,0.009858484268940287,0.9898527180067
2013-02-22,1,0.0008693389719892549,0.0010581505574735527,-0.002589535153367308,0.009070589570257031,0.9918122227506558
2013-02-26,1,0.0004287935668496549,0.0005294679196045523,-0.0021328355289366497,0.010809071416365381,0.9898304173965377
2013-02-28,1,0.00046530357697390943,0.0005688972492650778,-0.002589535153367308,0.009070589570257031,0.9906797233429181
2013-03-04,1,0.0004957106510792245,0.0005820471936824653,-0.004808208564591657,0.009070589570257031,0.9896737565657996
2013-03-06,1,0.0005120284183989256,0.0005891971465391214,-0.0058086482035539545,0.008326387256690302,0.9901117941884376
2013-03-08,-1,-0.0001247326837733411,-6.579474457831354e-05,-0.007224369900727968,0.008550840587088559,0.9882102337763934
2013-03-12,1,0.00047110264914831994,0.0004888909674499309,-0.007224369900727968,0.009077485575765657,0.9880021211687275
2013-03-14,0,0.0,0.0,-0.009428964055492383,0.012045402259931219,0.9871109131924274
2013-03-18,0,0.0,0.0,-0.010574013931395352,0.013627507909649197,0.98452246272709
2013-03-20,0,0.0,0.0,-0.015099423365685113,0.012045402259931219,0.9843850491695154
2013-03-22,0,0.0,0.0,-0.015099423365685113,0.013627507909649197,0.9835224055791171
2013-03-26,1,0.003473561234687364,0.0037358026550353,-0.015099423365685113,0.013042889678336117,0.9845092477433136
2013-03-28,1,0.002988817168442402,0.0031931422969891437,-0.016518422635531313,0.01701549554461241,0.9822107054698063
2013-04-02,1,0.002195479525865533,0.0022041532620534557,-0.014868221921539113,0.01701549554461241,0.9825528599630916
2013-04-04,1,0.0016629077284937832,0.0017617626851626344,-0.010760951207404914,0.01701549554461241,0.9834290487355816
2013-04-08,1,0.0022782244607393266,0.0023286343479158177,-0.009063543758484633,0.01375500881725764,0.9854862806038308
2013-04-10,1,0.001343988149276629,0.0015404503983270192,-0.009063543758484633,0.01375500881725764,0.9858980350367713
2013-04-12,1,0.001084418168329692,0.0013520210204779981,-0.007347074194320244,0.01375500881725764,0.9862468165500133
2013-04-16,1,0.001006837569523541,0.0012354111613818908,-0.0017072289681334181,0.012964585719225197,0.9881992258031396
2013-04-18,0,-0.00016151501358150516,0.0001846636522833462,-0.0017072289681334181,0.012964585719225197,0.9889067723471716
2013-04-22,1,0.00010464311843468466,0.0003882081634984279,-0.0017072289681334181,0.011999181355949743,0.9895151710834618
2013-04-24,1,0.0017579235358741404,0.0017715303978541935,-0.0071326453942528205,0.010746986928045502,0.9897457872184556
2013-04-26,1,0.0015370199265287857,0.0015755016084061375,-0.0071326453942528205,0.009604463322495368,0.9914773001756305
2013-04-30,1,0.0013728394618285331,0.0015000353205942563,-0.004951173647630536,0.009932879204525765,0.9913979018922545
2013-05-02,1,0.0011858507310246024,0.0013993199370954702,-0.0071326453942528205,0.008516709609803328,0.9912992997020086
2013-05-06,1,0.00016534450334358556,0.0005158293219888482,-0.005254903169349684,0.009194987353899103,0.9913353942447861
2013-05-08,1,0.0009363643583873749,0.0011491216595741296,-0.009395347070168895,0.009194987353899103,0.9901970000461559
2013-05-10,1,0.0017623261373434763,0.001832988263047106,-0.009395347070168895,0.008470674033995654,0.9908564965892608
2013-05-14,1,0.0022246044346410547,0.002233341126904432,-0.013728243300454218,0.004392617053549103,0.98963575388117
2013-05-16,1,0.001212498919030903,0.0013387225801282725,-0.0134718035166353,0.005996321998229424,0.9902011427307615
2013-05-20,1,0.0011415615507001189,0.001318630939382548,-0.0134718035166353,0.0054434936468364375,0.9903113969840333
2013-05-22,1,0.0005886272693589403,0.0008261933543388465,-0.013728243300454218,0.0032783577273797562,0.9887320283203876
2013-05-24,-1,-0.000745598535598558,-0.00045987075693792415,-0.015472069595649065,0.0032783577273797562,0.9859105992788815
2013-05-29,1,0.0011786430928962845,0.0011835186055984585,-0.015472069595649065,0.0054434936468364375,0.9846803089530034
2013-05-31,1,0.0007182305805514305,0.0007434741352340747,-0.01490000427190687,0.009829476058696983,0.984139094211242
2013-06-04,1,0.001474400108320191,0.001567151642409217,-0.01980970580209401,0.006124017927441992,0.9832664145738899
2013-06-06,1,0.0008248993648407555,0.0008555256369051545,-0.015722357563993865,0.012040946936493453,0.9840889103564164
2013-06-10,1,0.0008794286605180915,0.0009156156063810051,-0.015722357563993865,0.012141105482294879,0.9838019395823475
2013-06-12,0,0.0,0.0,-0.0043080885196991325,0.012716086658590446,0.9842595491658057
2013-06-14,1,0.0005136405251596138,0.0005342258301198181,-0.008360150716113998,0.012692742946954447,0.984514877262396
2013-06-18,0,0.0,0.0,-0.008360150716113998,0.012692742946954447,0.9848006409519245
2013-06-20,0,0.0,0.0,-0.0020257910012101777,0.013142392366155171,0.9862423144748413
2013-06-24,0,0.0,0.0,-0.00036371080474987026,0.013142392366155171,0.9897666299203275
2013-06-26,-1,-0.0012443486995821842,-0.001111879159716634,-0.004729177340420936,0.012141105482294879,0.9901991909688108
2013-06-28,0,0.0,0.0,-0.004729177340420936,0.0107217027667071,0.9913596893314881
2013-07-02,0,0.0,0.0,-0.004729177340420936,0.012141105482294879,0.9906086001882373
2013-07-05,-1,-0.0014558179088889648,-0.0012525722622271488,-0.004729177340420936,0.012283207384816454,0.9893729808366093
2013-07-09,0,0.0,0.0,-0.007734653845693229,0.011000316523274673,0.9890265921500525
2013-07-11,0,0.0,0.0,-0.008379418610690732,0.0093808078782238,0.9893819871248425
2013-07-15,0,0.0,0.0,-0.010020040002230474,0.006443731550650115,0.9896474429998857
2013-07-17,0,0.0,0.0,-0.010020040002230474,0.006522149391718087,0.9895235024111935
2013-07-19,1,5.929975819293239e-05,0.00016721397765984478,-0.010020040002230474,0.005592319233070733,0.9905552051221543
2013-07-23,1,0.0011764828435313925,0.0012538561648401095,-0.010020040002230474,0.006522149391718087,0.9905293595825845
2013-07-25,1,0.0003199658830616035,0.0005106772519832839,-0.006882903304302449,0.009160329921595768,0.9906784188709653
2013-07-29,-1,-0.000464599296030617,-0.0003349522169300809,-0.010180998524535535,0.006522149391718087,0.9904172969702479
2013-07-31,0,-7.75393493935074e-05,2.760967452522398e-06,-0.010180998524535535,0.006522149391718087,0.9894833990613368
2013-08-02,1,0.0012286935918794208,0.001332401809995492,-0.010180998524535535,0.006522149391718087,0.9900915694814613
2013-08-06,-1,-0.0002959073149417936,-0.0002680319077339277,-0.0075370372282527725,0.009866111495206463,0.989203915928175
2013-08-08,1,0.0017533560845996571,0.0017615369610268267,-0.00604428086860269,0.009866111495206463,0.9899648804391634
2013-08-12,1,0.0016173817900313415,0.0016427291824015798,-0.0023816651558199644,0.013630767234365381,0.9878072128766475
2013-08-14,1,0.0012094004506306736,0.00127294879780412,-0.00604428086860269,0.013630767234365381,0.9872392144367612
2013-08-16,1,0.0018873965108480116,0.002016125744730246,-0.0015426765142929591,0.013630767234365381,0.9874644760771386
2013-08-20,1,0.001922765805417277,0.0020488477392540294,-0.00037620180051550507,0.013630767234365381,0.9873570979968131
2013-08-22,1,0.0011135247908361373,0.001155479840588388,-0.00037620180051550507,0.014460474704149542,0.9870152195463551
2013-08-26,1,1.6686736483910772e-05,0.00022114290999236078,6.952439253560651e-05,0.016232767127904068,0.9861219671733813
2013-08-28,1,0.0005749562064120678,0.0006835987113654777,0.0006176140408489944,0.014855242391868636,0.9882833636746448
2013-08-30,1,0.0010264007903351894,0.0010523260462791367,0.0006176140408489944,0.014855242391868636,0.9882882691831986
2013-09-04,1,0.0026546622966863442,0.0028604593748792545,-0.003271241075408404,0.011946787329744132,0.9902267331501158
2013-09-06,1,0.002291706458578925,0.002369794403962238,-0.005030520091002845,0.011946787329744132,0.9895216891688561
2013-09-10,1,0.0034717031250928827,0.0036046838173171497,-0.008005911846512994,0.008567145216020824,0.9906583535525637
2013-09-12,1,0.003603051089936663,0.0038140863405430265,-0.005937150576424619,0.009814535290214439,0.9904365075960081
2013-09-16,1,0.004217921634480977,0.0045651346861795405,-0.005937150576424619,0.010782763222055477,0.9895339057354383
2013-09-18,1,0.005206053627611633,0.005721376180640152,-0.005937150576424619,0.010474897330661904,0.9899176801003176
2013-09-20,1,0.005185061791923945,0.005714027884647295,-0.005030520091002845,0.016244080927708234,0.9894655791401026
2013-09-24,1,0.005791151367717792,0.0064132195623639015,-0.005235785009095697,0.011059510808121228,0.9900908495028368
2013-09-26,1,0.0057084821260502665,0.0063152773603813725,-0.006321111026136168,0.01252050180006944,0.9885206360530854
2013-09-30,1,0.005477687623343824,0.0060270002200264,-0.00927880275814914,0.01252050180006944,0.9880919755891647
2013-10-02,1,0.005632202333759274,0.006241085450863838,-0.00927880275814914,0.01252050180006944,0.9883093730505448
2013-10-04,1,0.005551134212008297,0.006193266529103733,-0.009734854827018705,0.01252050180006944,0.9875176224550147
2013-10-08,1,0.003728599130219886,0.004048211046809977,-0.004928785487813722,0.01252050180006944,0.9889533295513846
2013-10-10,1,0.004960814486688222,0.005476216037124672,-0.006302355294767689,0.01017482236145819,0.9878896667550687
2013-10-14,1,0.006121504754959235,0.006766198024901933,-0.006302355294767689,0.01017482236145819,0.9881965968905444
2013-10-16,1,0.005826288861110339,0.006402400193532182,-0.006302355294767689,0.012413132534050655,0.9879560777546808
2013-10-18,1,0.007612922718432429,0.008433819169253709,-0.008352081061560167,0.008894598646661011,0.9876722914340418
2013-10-22,1,0.00726229622901022,0.007992352175009158,-0.009734854827018705,0.006836436204171966,0.9864551578304701
2013-10-24,1,0.006817571330148335,0.007504392261118314,-0.008352081061560167,0.006836436204171966,0.9882316383290125
2013-10-28,1,0.005086128184993547,0.005470158955977031,-0.0052111148533443554,0.007400468857587241,0.9899618436858694
2013-10-30,1,0.004868632016776238,0.0052261256916009335,-0.0052111148533443554,0.009167069077962707,0.9900292452195459
2013-11-01,1,0.003004664093333119,0.0030153848211618072,-0.0032443522004185765,0.009167069077962707,0.99111467411795
2013-11-05,1,0.0028932144926214955,0.0029407329439545896,-0.0032443522004185765,0.010992233655363282,0.9896531462027135
2013-11-07,1,0.002158554692730429,0.0022032198848142316,-0.0024260961678033892,0.011347764335162368,0.9910333979589693
2013-11-11,1,0.0021475302227814013,0.002275028293221117,-0.0032430404449162583,0.011347764335162368,0.9913282534462512
2013-11-13,1,0.0025607207733138846,0.002724689233311396,-0.004033538208007401,0.008164100450106938,0.9916510059319009
2013-11-15,1,0.0024877488043073426,0.0026140151652521045,-0.0032430404449162583,0.010653987147066701,0.9918825780789107
2013-11-19,1,0.0015478626809003536,0.0017263939993073408,-0.0007190816178213565,0.010653987147066701,0.9928509537152981
2013-11-21,1,0.0013781851611649617,0.0016594747344090546,-0.001332668231135467,0.009626799810833812,0.9926369567083773
2013-11-25,1,0.0012837573889899517,0.0015440104189905109,-0.0007190816178213565,0.010653987147066701,0.9925491420930646
2013-11-27,1,0.002063970628077171,0.0022244544764201974,-0.001595730233665075,0.010964394263301638,0.992299813924099
2013-12-02,1,0.0022598408899148336,0.0023621180485186273,-0.001595730233665075,0.010964394263301638,0.9922509863998077
2013-12-04,1,0.003756893578877597,0.003845671197029809,-0.004102466211881521,0.009626799810833812,0.9930455747997757
2013-12-06,1,0.0038519487178723553,0.003930320426149034,-0.0047908572118525216,0.009626799810833812,0.9917182015019151
2013-12-10,1,0.0041695450099797976,0.004319381626909181,-0.0063542341175399355,0.009626799810833812,0.9909243312536793
2013-12-12,1,0.0033363507612670347,0.0033707203850705325,-0.006814347019784893,0.009626799810833812,0.9903057115063392
2013-12-16,1,0.0033722395026054746,0.003402666442249041,-0.006814347019784893,0.010012670346539012,0.9899401165250977
2013-12-18,1,0.0034351829277140962,0.00346128178572087,-0.006814347019784893,0.012368360847085003,0.9896925048830499
2013-12-20,1,0.0022289000997037585,0.0023643860993175915,-0.006423261799297802,0.012368360847085003,0.989816242341073
2013-12-24,1,0.0031960348593177835,0.003245383531554714,-0.014202290285237881,0.010028464087363843,0.985910800088735
2013-12-27,1,0.0027116006099363035,0.0027697870575602804,-0.014202290285237881,0.010028464087363843,0.9853737440204838
2013-12-31,1,0.002547759923598854,0.0026173934797939294,-0.015997147489543673,0.013398855643752839,0.9820727833793924
2014-01-03,1,0.0009497655993296915,0.0011889929593331436,-0.017714367477844786,0.013398855643752839,0.9813824733049982
2014-01-07,1,0.0009887258619934135,0.001229242052272068,-0.017714367477844786,0.009908229957561566,0.982095500218176
2014-01-09,1,0.000992577541208335,0.0012504012350055156,-0.017714367477844786,0.010061096603373156,0.9819600407870861
2014-01-13,1,5.939265217242448e-05,0.00042189069427768207,-0.017714367477844786,0.013398855643752839,0.9809569643026065
2014-01-15,1,0.0005612037792684228,0.0008759603265225159,-0.017714367477844786,0.010061096603373156,0.9816982736456031
2014-01-17,1,0.00039481947280466004,0.0007516033448801258,-0.017714367477844786,0.011099510480679236,0.9813190018358682
2014-01-22,1,0.0004461945644281544,0.0009215174255160371,-0.014913779588248532,0.01278553511871611,0.981183594747888
2014-01-24,-1,-0.003494135936500101,-0.0026713808212243018,-0.012313137555205463,0.01928096277565021,0.9821346529973247
2014-01-28,-1,-0.0019352791299384329,-0.0013594059370620544,-0.013070638094332811,0.01278553511871611,0.983427972683385
2014-01-30,0,-0.00017250759223774704,0.00019017644488751855,-0.012313137555205463,0.01278553511871611,0.9859091712722823
2014-02-03,-1,-0.0008797747724260821,-0.000548616687143007,-0.000294972490533728,0.014260594621869413,0.9866069837191505
2014-02-05,1,0.0002159690231005898,0.0004326256799516348,0.0009788243772019295,0.014260594621869413,0.9877120912213903
2014-02-07,1,0.0016813784702774661,0.0018426241484775228,-0.003391284350177726,0.011785372897235045,0.9886584679548992
2014-02-11,1,0.0015454992210954803,0.001569734263428619,-0.003391284350177726,0.009311186993761156,0.9895625515211964
2014-02-13,1,0.0013886392472927226,0.0014423412461372716,-0.009913263664147394,0.009311186993761156,0.9880593567964607
2014-02-18,1,0.0023093363657316762,0.002401984294690003,-0.009913263664147394,0.009311186993761156,0.9879207088102391
2014-02-20,1,0.002126403561291385,0.002198869205224024,-0.009936579906158352,0.00849691005466862,0.9876480853775791
2014-02-24,1,0.003711538777030936,0.003985808877401143,-0.012762308564544706,0.007184786634311457,0.9883383110708743
2014-02-26,1,0.0024974075159406705,0.0025862098578130132,-0.01418973719683602,0.007184786634311457,0.9875793989156517
2014-02-28,1,0.003030665475786426,0.003163297130488283,-0.01418973719683602,0.007184786634311457,0.9878751957689106
2014-03-04,1,0.0031049169348845032,0.003162866954863827,-0.01418973719683602,0.007235934569295326,0.9861232093317711
2014-03-06,1,0.0034681290952130565,0.003635833360975389,-0.016946239436416898,0.003250226651449146,0.9851780069672131
2014-03-10,1,0.003142215507211125,0.003331445176298656,-0.019506876678874595,0.003250226651449146,0.9828452528158209
2014-03-12,1,0.0028958693935135045,0.0030569212477436014,-0.019506876678874595,0.012644551495367046,0.9828024930491346
2014-03-14,1,0.0014213730194580563,0.0015929533400104658,-0.019506876678874595,0.012644551495367046,0.9831185423616587
2014-03-18,1,0.0028689738691752456,0.0031320378596788817,-0.0197897111385016,0.00419282344046157,0.9824654461019321
2014-03-20,1,0.0016515440519619645,0.0017329815733183207,-0.019506876678874595,0.012644551495367046,0.9823629579867239
2014-03-24,1,0.0005739221489174445,0.0006768366858609168,-0.019506876678874595,0.014438210625821455,0.9801403533741321
2014-03-26,-1,-0.0012418046425637511,-0.0009268129959738967,-0.017535749173173267,0.018260682682217907,0.9796912412655072
2014-03-28,-1,-0.0010614041311525263,-0.0007190327345823849,-0.02552721891769025,0.018260682682217907,0.9774093164974287
2014-04-01,1,0.0009274488887716962,0.0010485149414813206,-0.02552721891769025,0.014438210625821455,0.9769291423979508
2014-04-03,-1,-0.0004104962960373394,-8.688725097815396e-05,-0.02552721891769025,0.01626596845368426,0.9770431510961943
2014-04-07,-1,-0.002271508018741334,-0.001786602273178501,-0.015265097549551515,0.01626596845368426,0.9796763599913324
2014-04-09,-1,-0.0016698742848012557,-0.0013766392376193828,-0.021180234673568887,0.008803370026500494,0.9788586704187273
2014-04-11,-1,-0.0033762690558708486,-0.0028914813301317748,-0.0160746480157782,0.015999265632924427,0.9796263244909593
2014-04-15,-1,-0.004591144568757316,-0.0039059613741473523,-0.017707647893707715,0.015999265632924427,0.9792184493243935
2014-04-17,-1,-0.0029305230575810753,-0.0024412595130501595,-0.017707647893707715,0.008803370026500494,0.9815927305238568
2014-04-22,-1,-0.0009318238602690472,-0.0006763514013330559,-0.02496027369103104,0.008760690753392019,0.9825491840427123
2014-04-24,-1,-0.0011820103021991722,-0.0009246231709242997,-0.017242658456654382,0.013032022365722238,0.9832001361780671
2014-04-28,-1,-0.003628685165990842,-0.0030799401757861744,-0.010380058915420008,0.014309463205376727,0.9850840317572408
2014-04-30,-1,-0.00011719608934431165,-5.328110713742845e-05,-0.010380058915420008,0.013738517659677426,0.9877630499552287
2014-05-02,1,0.00055909153871681,0.0006006256121338963,-0.010380058915420008,0.012558859834089539,0.987689662782316
2014-05-06,-1,-0.00026790564857304534,-0.00020710469008346113,-0.00847844001507632,0.012558859834089539,0.987065394482624
2014-05-08,-1,-0.0018682055972062618,-0.0016167201661940185,-0.007100852046443215,0.012558859834089539,0.9884463545063588
2014-05-12,-1,-0.0011642885496762438,-0.001018552569415658,-0.010366221738674124,0.011964757517750328,0.9882118565374185
2014-05-14,-1,-0.002151240696857759,-0.001906655972496006,-0.010366221738674124,0.011964757517750328,0.9883502989767594
2014-05-16,-1,-0.002928827095802009,-0.0025414655404855224,-0.010366221738674124,0.012558859834089539,0.987351347705629
2014-05-20,-1,-0.003134925812511246,-0.002753825980050386,-0.008225338458607966,0.011964757517750328,0.988321238115007
2014-05-22,-1,-0.0018206569424239686,-0.0016073093709388507,-0.008225338458607966,0.010220868805060958,0.9893488529142813
2014-05-27,-1,-0.0010942111689700913,-0.000975322969097497,-0.008225338458607966,0.009885135424205665,0.9901123748660203
2014-05-29,1,7.12689882686114e-05,0.00019009220902911698,-0.008225338458607966,0.009885135424205665,0.9896597242051753
2014-06-02,-1,-0.000612967800198562,-0.000541211057875491,-0.009689662513497406,0.008466692171161371,0.9897372665036258
2014-06-04,-1,-0.000757322183253923,-0.0006976110714711394,-0.008225338458607966,0.008542736399429141,0.990289743712714
2014-06-06,-1,-0.002359575847676611,-0.0020780938580724096,-0.00496078712577521,0.008542736399429141,0.9902534798999387
2014-06-10,-1,-0.0019129046972118408,-0.0017138965078645663,-0.00496078712577521,0.010220868805060958,0.9897725221195175
2014-06-12,-1,-0.0022620684022743916,-0.0020591081945133616,-0.0052686502902812215,0.008542736399429141,0.9903128367759857
2014-06-16,-1,-0.002345562961725262,-0.0020984448571057584,-0.005738043677417486,0.0069933245652692684,0.9907085910875585
2014-06-18,-1,-0.0035444878559208813,-0.003026556805316253,-0.006906511827444659,0.0066103236979287334,0.9914661968104737
2014-06-20,-1,-0.0026447143532181204,-0.00227172653878218,-0.008921734960039323,0.004873259409638415,0.9918039856169728
2014-06-24,-1,-0.0011247107550584568,-0.0009149647676835944,-0.008921734960039323,0.006068330224108788,0.9903521871706849
2014-06-26,-1,-0.0022643953746127516,-0.001927113654716337,-0.008944293667609514,0.004136593324808632,0.9916062399634219
2014-06-30,-1,-0.0016381226041093813,-0.0013638138520960976,-0.008656576201421807,0.006329787248478408,0.9910479379004512
2014-07-02,-1,-0.000588834619099184,-0.0004810024901648796,-0.008944293667609514,0.004873259409638415,0.9912154974878844
2014-07-07,-1,-0.00045603753335787594,-0.0003950235903568154,-0.008944293667609514,0.005785014969161503,0.9907951023195779
2014-07-09,-1,-0.0006532766007045646,-0.000576870260476136,-0.010380921513535714,0.003083564863060369,0.9890094937879906
2014-07-11,-1,-0.0008685240005291445,-0.0008097423948834856,-0.010380921513535714,0.005785014969161503,0.9877488860280281
2014-07-15,-1,-0.000990378258142719,-0.0009170793604863591,-0.009585445237683166,0.007770446882872901,0.9877547788823053
2014-07-17,-1,-0.00018938420057211232,-6.0189009410732924e-05,-0.009585445237683166,0.009227746833294768,0.9875744420903414
2014-07-21,-1,-0.0011326495353924772,-0.001099589958143206,-0.009585445237683166,0.009227746833294768,0.987818108969484
2014-07-23,1,0.00017061803147017194,0.00036235206122865954,-0.009585445237683166,0.007770446882872901,0.988838806412082
2014-07-25,1,0.0004383286683612602,0.0007115614908476092,-0.00875870367137787,0.007770446882872901,0.9892259530073002
2014-07-29,1,0.0012941324969684813,0.0017024494321414934,-0.01235737772090531,0.005131746305961915,0.9889852559051248
2014-07-31,1,0.0007034949673044326,0.0009879515843574768,-0.008811705168526508,0.005131746305961915,0.989476625000985
2014-08-04,1,0.000729677174380989,0.001021341128346777,-0.013600144619112617,0.0023474587513142484,0.9873251449993046
2014-08-06,-1,-0.002217258322339407,-0.0020730128353434645,-0.007323842934191065,0.005121135230800253,0.9905690492583141
2014-08-08,-1,-0.0016174401461309812,-0.0015739366795744607,-0.007228172135669108,0.0023474587513142484,0.992249159097286
2014-08-12,-1,-0.00201290320731697,-0.0018867241378269868,-0.006462250602824762,0.0023474587513142484,0.992483437515264
2014-08-14,-1,-0.001843625621911661,-0.0017228480771493205,-0.007108541463865992,0.0023474587513142484,0.9921697940203947
2014-08-18,-1,-0.0024405235932205187,-0.002184541674911323,-0.008558735282132638,0.0016004061340910332,0.9913402968693164
2014-08-20,-1,-0.0019080330271388829,-0.0017408735074022292,-0.008558735282132638,0.002903381501547555,0.9892130098402538
2014-08-22,-1,-0.0006512209285039026,-0.000563113895504997,-0.01597974503474238,0.002903381501547555,0.9863466738079705
2014-08-26,-1,-0.0014416317309162959,-0.0014091004476842921,-0.01597974503474238,0.007156057633657932,0.9862553495502268
2014-08-28,-1,-0.0027574686801785687,-0.0024452498106444353,-0.01667329179353359,0.008679225538073237,0.9845592549098778
2014-09-02,-1,-0.004024309163965933,-0.0036140673609649735,-0.01597974503474238,0.011855609425691964,0.9846074419145896
2014-09-04,-1,-0.004483453722092688,-0.00396602958934269,-0.01597974503474238,0.011855609425691964,0.9840842556017064
2014-09-08,-1,-0.005164274443682365,-0.004543094573535846,-0.01597974503474238,0.011855609425691964,0.982880246103346
2014-09-10,-1,-0.0037287535688838337,-0.0033454212058943336,-0.01725952396603645,0.012859878044251606,0.9816696308566174
2014-09-12,-1,-0.002630691930326554,-0.002455475644176776,-0.01960729012132074,0.012859878044251606,0.9816195713845625
2014-09-16,-1,-0.0036621022870150623,-0.0033686690460519803,-0.02150949755687331,0.012859878044251606,0.9812353892432812
2014-09-18,-1,-0.003230578038230325,-0.002891788742830015,-0.02150949755687331,0.01208709672273932,0.9799183261040184
2014-09-22,-1,-0.0037950876969423514,-0.0035014674437905562,-0.01649332040418588,0.01208709672273932,0.9818191413296222
2014-09-24,-1,-0.002577047630794624,-0.002457983039976637,-0.01960729012132074,0.012330801122280192,0.9808001731225938
2014-09-26,-1,-0.002450193253598531,-0.0023190828211920294,-0.01690424999609839,0.011246021478894613,0.9826305464122866
2014-09-30,-1,-0.003013681463790774,-0.002749991410584742,-0.01690424999609839,0.010471623893827026,0.9844220301712008
2014-10-02,-1,-0.0027702485757471504,-0.002561148777538301,-0.014858633090223717,0.010271904620781229,0.9847256628797348
2014-10-06,-1,-0.002731164521643162,-0.002481048352973845,-0.014858633090223717,0.011246021478894613,0.984881290906188
2014-10-08,-1,-0.003143246479607224,-0.002845339964686436,-0.02091232277477363,0.008903653330842358,0.9840754827150752
2014-10-10,-1,-0.004112532483610052,-0.003687197901647222,-0.014930876967939079,0.011246021478894613,0.9836555124552396
2014-10-14,-1,-0.003466514889886403,-0.0031776082073726435,-0.012180347881614536,0.01202247738283482,0.9832149318016131
2014-10-16,-1,-0.00026566694166569975,-0.00013006852059141666,-0.012180347881614536,0.009236965054879741,0.986178629688662
2014-10-20,-1,-0.0007723563189687864,-0.0006728541501927319,-0.012861159210949118,0.01120652343457151,0.9856662804209301
2014-10-22,-1,-0.00040047361995345813,-0.00023009992139831235,-0.01246807803120993,0.01120652343457151,0.9865821587224683
2014-10-24,-1,-0.0006410432360792022,-0.0005215499962776498,-0.01246807803120993,0.013187016355937645,0.9859861109811849
2014-10-28,-1,-0.0019591500864770406,-0.001867993798026781,-0.0040011572733026106,0.013187016355937645,0.9862961087495272
2014-10-30,-1,-0.0015966042124709217,-0.0015286521496893834,-0.006194205457056615,0.013187016355937645,0.9866101893539324
2014-11-03,-1,-0.0011898424178066233,-0.0011569288479900217,-0.01040290745573701,0.012035843505416421,0.9858180771633477
2014-11-05,-1,-0.003031162808054902,-0.0028024919238493064,-0.009222482929509283,0.012035843505416421,0.9869745464138352
2014-11-07,-1,-0.0016736629544102874,-0.0016359512764332134,-0.01047446484097725,0.008281436068975703,0.9860426168839026
2014-11-11,0,-5.049667827859662e-06,0.0002118836242202143,-0.014408819599399622,0.00621014214320995,0.9859869276310971
2014-11-13,1,0.00037893945893276637,0.0006344307747273648,-0.014408819599399622,0.00621014214320995,0.9853541985639526
2014-11-17,1,0.0007760002092624609,0.001142834180739944,-0.017596103116528598,0.004119597197037889,0.98429113921723
2014-11-19,1,0.0008639185631663553,0.0012371750667399917,-0.015449140543317927,0.004119597197037889,0.9832315311578852
2014-11-21,1,0.0019143570825693595,0.002470063651181709,-0.015449140543317927,0.004119597197037889,0.9820770343343991
2014-11-25,1,0.001908565375077064,0.0024584876687925444,-0.015449140543317927,0.0045276548298388355,0.9814310357808138
2014-11-28,1,0.0020279283250771414,0.002584483304080138,-0.015449140543317927,0.005809140618465411,0.9815660012906519
2014-12-02,1,0.0005782319717061752,0.0009090874831374268,-0.010199577087848802,0.005809140618465411,0.9830540282393057
2014-12-04,-1,-0.0004895765007243141,-0.00029422051631355407,-0.015203211296580803,0.005809140618465411,0.9821818880821551
2014-12-08,-1,-0.0017354303473909745,-0.0017181983129174812,-0.014756357649923226,0.01309614304265713,0.9817604897139113
2014-12-10,-1,-0.0031922981737188814,-0.0030102648656590053,-0.011765585541081595,0.016349542218664047,0.9822085104962708
2014-12-12,-1,-0.001916948767837033,-0.0019013188609906082,-0.011765585541081595,0.01035327743018863,0.9832685748735432
2014-12-16,-1,-0.0033275292193308717,-0.0031682704960022292,-0.010903730556715539,0.01035327743018863,0.9845332623997897
2014-12-18,-1,-0.0014723081459478405,-0.0013635191968567827,-0.011516194442417594,0.008316145517658084,0.985747092354898
2014-12-22,0,-0.00017155025356653628,0.00010789945234504126,-0.011516194442417594,0.008316145517658084,0.9870524949903253
2014-12-24,1,0.0006680870494152984,0.0010629555561631463,-0.011516194442417594,0.008316145517658084,0.9857058586961658
2014-12-29,1,9.974855693716271e-05,0.0002741897009094523,-0.014198367812280446,0.003716211008503008,0.9854297401564519
2014-12-31,-1,-0.0001565227641402355,-2.6188205556163142e-06,-0.01685766450735208,0.003716211008503008,0.9845624021584956
2015-01-05,-1,-0.0019377958989300335,-0.0018671636325881154,-0.011516194442417594,0.012829464553514566,0.9842054998036823
2015-01-07,-1,-0.0012069178809621945,-0.0011729590414197967,-0.011516194442417594,0.012076001949043806,0.9846207315951747
2015-01-09,-1,-0.0010247845235408298,-0.0009491172280626503,-0.011236552188302221,0.008976743918685474,0.9850690629212956
2015-01-13,-1,-0.0006306944758889474,-0.0004908787932378219,-0.013136722778805152,0.012076001949043806,0.9832183016829761
2015-01-15,-1,-0.0007503029569849815,-0.0006141632010894192,-0.013136722778805152,0.020109079627561206,0.9805900374656407
2015-01-20,-1,-0.0017614238914154506,-0.0017361883545853583,-0.010752301039092374,0.020109079627561206,0.9815573484361999
2015-01-22,-1,-0.001155981668686633,-0.0010990478383418485,-0.010752301039092374,0.020109079627561206,0.9825275588472571
2015-01-26,-1,-0.00029548227975109833,-0.00024552639728315427,-0.015316384841170963,0.013209660256808916,0.9818951663372194
2015-01-28,-1,-0.0009418538304942386,-0.0009092243411625062,-0.013136722778805152,0.013209660256808916,0.9822066847872026
2015-01-30,-1,-0.002073781071633369,-0.0018969651256877573,-0.004609477407092959,0.013209660256808916,0.9828235318435181
2015-02-03,1,0.00046919076077323767,0.0006244020042355325,-0.006265778033759021,0.006517071214914091,0.9861408411750168
2015-02-05,-1,-0.00042290251804500594,-0.00037733222798486577,-0.011542146646068905,0.004225801195331168,0.9868853499564927
2015-02-09,-1,-0.0010680181900835453,-0.0009895405537227132,-0.016953679860152795,0.0033862130718081826,0.9855600818817244
2015-02-11,1,0.00035235597804620083,0.0005347933934473251,-0.021341764080052242,0.0033862130718081826,0.9864871786128592
2015-02-13,1,0.001428296420954209,0.0016392350025437427,-0.021341764080052242,0.0033862130718081826,0.9885647852635344
2015-02-18,1,0.0017273439471665467,0.0020153926665893215,-0.021341764080052242,0.007360370681603824,0.9871280614840606
2015-02-20,1,0.0018107663593172304,0.0021290541007292782,-0.021341764080052242,0.00826205925808881,0.9861556107260514
2015-02-24,-1,-0.00020988963964750366,-0.000128419743676704,-0.006692343348909755,0.00826205925808881,0.988973285543109
2015-02-26,1,6.248434592580419e-05,0.0001619282119168392,-0.010348731140936903,0.00826205925808881,0.988584196951434
2015-03-02,1,0.0005776539342515337,0.0007720824735798455,-0.010348731140936903,0.008931357260391253,0.988377584747269
2015-03-04,1,0.0005306587472866388,0.0007010472977030252,-0.010348731140936903,0.008931357260391253,0.9883584841685293
2015-03-06,-1,-0.0014346036246087553,-0.0013047893784698037,-0.0058806233889843774,0.009975088962764826,0.9884114918066195
2015-03-10,-1,-0.0031592774344324703,-0.002818090011848239,-0.004686319421578574,0.010759976514525049,0.9886198698879064
2015-03-12,-1,-0.0015180644465290936,-0.0015151599865664833,-0.004524522769820703,0.013186002764423298,0.9879739959266428
2015-03-16,-1,-0.0011909673306551702,-0.0011816063932676847,-0.0058806233889843774,0.013186002764423298,0.9863140832887198
2015-03-18,1,0.00029311840870496037,0.00048799200151269126,-0.008407935243257012,0.013186002764423298,0.9866349226353112
2015-03-20,1,0.0007273381831703507,0.0009729565826472836,-0.009780056991873353,0.013186002764423298,0.9859589396060563
2015-03-24,1,7.795201547993038e-05,0.00018047916720507492,-0.011235648442632357,0.016603169720641932,0.9847389672105102
2015-03-26,-1,-0.00020169041375927242,-0.00011093130732307062,-0.015075413489400495,0.016603169720641932,0.9844143136903394
2015-03-30,1,0.0005896104691305739,0.0008116249924041149,-0.015075413489400495,0.016671476249507343,0.9834773777838174
2015-04-01,-1,-0.0006926216533976623,-0.0006311927641220206,-0.016694481999924196,0.016671476249507343,0.9815925715694322
2015-04-06,1,0.000793069834818882,0.000961667263178835,-0.016694481999924196,0.016448443029931155,0.9824904480163076
2015-04-08,1,0.0015551839958827473,0.0019029827445744007,-0.017715301120059798,0.012925993926672838,0.9825368914811514
2015-04-10,1,0.0029377820665491086,0.0034913979240203375,-0.017715301120059798,0.01112668416376286,0.9840416256351654
2015-04-14,1,0.0011131107471684257,0.0014146767820370167,-0.01619967525905601,0.01112668416376286,0.9865787173091641
2015-04-16,1,0.0013955523319734067,0.0017400881083889104,-0.01619967525905601,0.006203048709004625,0.9871828200644979
2015-04-20,1,0.001977209404234224,0.0024399198264792752,-0.014310336280507608,0.0029260748044049835,0.9879384845112751
2015-04-22,1,0.0021180036041796007,0.0025983778588984513,-0.011733430365616103,0.0029260748044049835,0.9880671874769257
2015-04-24,1,0.0015332300170731242,0.0019479937263075587,-0.011101909460113708,0.006203048709004625,0.9882042462744215
2015-04-28,1,0.001201398706224272,0.0015053300948168727,-0.011101909460113708,0.006203048709004625,0.9872817556349428
2015-04-30,-1,-0.0007999067729478641,-0.0007780464471819311,-0.009970836572502646,0.010149869510778575,0.9892872342017199
2015-05-04,-1,-0.0011524310471755037,-0.0010232864516000778,-0.011101909460113708,0.010149869510778575,0.988194937672403
2015-05-06,-1,-0.00272322780010047,-0.002350435401646901,-0.009970836572502646,0.013227585174184438,0.9853925097907462
2015-05-08,-1,-0.0019747274840203966,-0.0017132536156061677,-0.011101909460113708,0.013227585174184438,0.983664321530906
2015-05-12,-1,-0.003082147247083481,-0.002623027242431269,-0.009970836572502646,0.013227585174184438,0.9842760847164651
2015-05-14,-1,-0.002850599179190604,-0.002474387796592131,-0.011101909460113708,0.016748693993783374,0.9826901199979495
2015-05-18,-1,-0.002528468803888426,-0.0022517729310354362,-0.006829586027733953,0.016748693993783374,0.9827995993223948
2015-05-20,-1,-0.001175192545425848,-0.0010905237450450757,-0.006829586027733953,0.017780115784755912,0.9821888371406907
2015-05-22,-1,-0.000789379265614203,-0.0007794358571005764,-0.008350358264164507,0.017780115784755912,0.9822297947990027
2015-05-27,-1,-0.0016508853753238457,-0.0015220117993154693,-0.008330095898365836,0.017780115784755912,0.9838766834830439
2015-05-29,-1,-0.0025602185311853045,-0.002238366247407339,-0.009833308173077088,0.017780115784755912,0.9841616305320898
2015-06-02,-1,-0.0020163960566983437,-0.0017773049870404996,-0.009833308173077088,0.01794553402314144,0.982580267387802
2015-06-04,1,0.00043470474331240973,0.0004827440194898695,-0.009833308173077088,0.008446713928136115,0.9842910378415756
2015-06-08,-1,-0.0013791280628943528,-0.0012168015369485529,-0.006825201383748098,0.01794553402314144,0.9845001273880604
2015-06-10,-1,-0.0014311196924657811,-0.0012480674095467865,-0.009833308173077088,0.01794553402314144,0.9821351974721033
2015-06-12,-1,-0.0019159281761146518,-0.0016356433919699994,-0.006825201383748098,0.01851467255508611,0.9814590620610757
2015-06-16,-1,-0.0016124394160598997,-0.0013876297181643392,-0.017520767656600853,0.01851467255508611,0.9796741666019705
2015-06-18,1,0.0007721548012413599,0.0009355278433389875,-0.017520767656600853,0.011197762669457302,0.9803770541876123
2015-06-22,-1,-0.000499094949534443,-0.00046149648408002394,-0.01318441214248323,0.011197762669457302,0.9813346895078314
2015-06-24,-1,-0.0016217531926517137,-0.0014086200599866883,-0.008484251690696264,0.01283925495835095,0.9811966932277926
2015-06-26,-1,-0.0005629412888937084,-0.000539242947559053,-0.01697818019713955,0.01283925495835095,0.9800767645370969
2015-06-30,-1,-8.400723676080998e-05,-5.68122239849539e-05,-0.013003549655996127,0.011197762669457302,0.9828850857929815
2015-07-02,1,0.0002374287644656502,0.0003019209765217464,-0.013003549655996127,0.011197762669457302,0.9832505113214332
2015-07-07,1,0.002229834187314871,0.002578580715791771,-0.014699850130152094,0.00903956701122839,0.9851432352886512
2015-07-09,1,0.0017907479973121496,0.002193208064100186,-0.012400789151487727,0.00903956701122839,0.9872501501350585
2015-07-13,1,0.0032416056038595672,0.0038321323633572126,-0.012400789151487727,0.00903956701122839,0.9887407572014323
2015-07-15,1,0.001981066069522295,0.0024028546097789294,-0.012400789151487727,0.00903956701122839,0.9884464235353349
2015-07-17,1,0.0007544289225138608,0.0008978836788983374,-0.01354873257323643,0.007540906401857373,0.9882166747705409
2015-07-21,1,0.0012820577623160693,0.0015188650081751952,-0.01354873257323643,0.004366675037978756,0.987899723731542
2015-07-23,1,0.00196986304194135,0.0023102542551630433,-0.016268327864487522,0.0014042698806057269,0.9853048482231189
2015-07-27,1,0.001016642630815294,0.0012472304671948744,-0.01679364576653555,0.0014042698806057269,0.9847685977271892
2015-07-29,1,0.000442777253445815,0.0005091806174742571,-0.019408620727062932,0.0006697385303228802,0.9836547422256668
2015-07-31,1,0.0005714631001519228,0.000596023370904912,-0.019408620727062932,0.001332970111762461,0.9828432001328687
2015-08-04,1,4.315121415354815e-05,9.073380901600649e-05,-0.02231965975021088,0.001332970111762461,0.9818604434685575
2015-08-06,1,0.000993262245254192,0.0011097885180722771,-0.02231965975021088,0.004102096933802725,0.9799504841899431
2015-08-10,1,0.0015279742157481803,0.001770973771971804,-0.02231965975021088,0.004102096933802725,0.9794576258383983
2015-08-12,1,0.0005809660321912288,0.0006809877349154278,-0.02231965975021088,0.004102096933802725,0.9806497963600814
2015-08-14,-1,-0.00036792442801520514,-0.00034078858912220405,-0.02231965975021088,0.007994254898125396,0.9814162923176041
2015-08-18,-1,-0.0008288190698787917,-0.0007257724728186681,-0.02231965975021088,0.013332118126814098,0.9799427656982247
2015-08-20,-1,-0.0017896605070428398,-0.0016120142479691068,-0.02228600156788132,0.013332118126814098,0.9793585166122006
2015-08-24,-1,-0.0015902741144381565,-0.0014237562163581883,-0.02228600156788132,0.013332118126814098,0.9801990699778905
2015-08-26,-1,-0.0035547710813364115,-0.003209392498983692,-0.02228600156788132,0.013332118126814098,0.980232380743595
2015-08-28,-1,-0.0026652782010604583,-0.002430797087504096,-0.02489061153002094,0.008567608862547519,0.9810854059062456
2015-09-01,-1,-0.0031276269298377347,-0.0028872475975263347,-0.027983899571594258,0.008567608862547519,0.9798453053996714
2015-09-03,-1,-0.0020366925239808115,-0.001855322482150386,-0.027983899571594258,0.005000147100934475,0.9762946736380899
2015-09-08,-1,-0.0017933381560977697,-0.0016503807549093183,-0.027983899571594258,0.009545931799128318,0.9724825635823836
2015-09-10,-1,-0.002631555833702738,-0.0024109567673417176,-0.026550691170421605,0.02134764020992298,0.9718064171084617
2015-09-14,-1,-0.0023141831328439503,-0.0021447046165914124,-0.026550691170421605,0.02134764020992298,0.9715322720413626
2015-09-16,-1,-0.0014182356942060788,-0.0013130947610030508,-0.026550691170421605,0.02134764020992298,0.9714346226829204
2015-09-18,-1,-0.0034412807193961916,-0.0031223009677146577,-0.020087894625429283,0.022934367143634157,0.9728002152925878
2015-09-22,-1,-0.005101822288127191,-0.004525734998020472,-0.020087894625429283,0.022934367143634157,0.9722488295607643
2015-09-24,-1,-0.005687423012518686,-0.0050592976997519065,-0.012130962918791162,0.022934367143634157,0.9738221382504738
2015-09-28,-1,-0.006884131081824903,-0.006098715353818524,-0.008024795019630701,0.02498042604414204,0.9718195444640326
2015-09-30,-1,-0.0075701902801017,-0.006729616949858802,-0.008024795019630701,0.02498042604414204,0.9725046084519838
2015-10-02,-1,-0.004129695330702538,-0.0036868833405352746,-0.005672520141751005,0.022934367143634157,0.9780026629678475
2015-10-06,-1,-0.0025384027476779984,-0.0022568805876119146,-0.005672520141751005,0.02126297801994427,0.9816423388520835
2015-10-08,-1,-0.0014908233350508075,-0.0013181675603140149,-0.008024795019630701,0.018064727286281806,0.9831244648533946
2015-10-12,-1,-0.0022213123722055863,-0.002010013830484865,-0.008024795019630701,0.018064727286281806,0.9806303860084787
2015-10-14,-1,-0.0007706130542746029,-0.0007133933273029405,-0.009567650632146065,0.009725743393356807,0.9819898383522286
2015-10-16,1,0.00042289665882285437,0.0005007435729680117,-0.00995692045578824,0.007265123745937593,0.9827143158954877
2015-10-20,-1,-0.0018593080795455677,-0.0016511337484527008,-0.00995692045578824,0.007532989559844648,0.9843312890516396
2015-10-22,-1,-0.0017310822409664305,-0.0015678347964983405,-0.00950539316973385,0.009725743393356807,0.9839505593267466
2015-10-26,1,0.0007096727360265812,0.000975666672795102,-0.01106072984486924,0.007532989559844648,0.9861349096787683
2015-10-28,-1,-0.0001436512897718251,-9.979925877891916e-05,-0.00950539316973385,0.006954761478136364,0.9877496406764219
2015-10-30,1,0.0003735965208446186,0.0004979339871112761,-0.010209930775846723,0.0049632418951467885,0.9879450287121743
2015-11-03,1,0.0012392358563123916,0.0014753373054639642,-0.010209930775846723,0.005197693331055124,0.9879602243553639
2015-11-05,1,0.0003751959379324475,0.0005045160253371306,-0.010209930775846723,0.005197693331055124,0.9874991641650357
2015-11-09,0,-0.00012467678292000253,3.1479173931221965e-05,-0.011628414879127524,0.004300159697950122,0.989617492566834
2015-11-11,-1,-0.0007831958551959508,-0.0007792663912388071,-0.013089572155873221,0.004389448302585807,0.9881515974054131
2015-11-13,-1,-0.0014472345093019183,-0.0013468115643480892,-0.016008874161359106,0.004389448302585807,0.9864155762652905
2015-11-17,-1,-0.0017578114280191312,-0.0016129223157975354,-0.015003864249316346,0.0098897575795549,0.9838705224768323
2015-11-19,-1,-0.0004243235022168444,-0.00034082419977838246,-0.02041777914370118,0.004704333190437754,0.9824557240513181
2015-11-23,-1,-0.0008320289218288315,-0.0007920506955326474,-0.015003864249316346,0.013409055875701952,0.9820232679258944
2015-11-25,1,0.00035263676819057477,0.0006908309994136986,-0.015003864249316346,0.017888997369357423,0.9804276031456285
2015-11-30,-1,-0.0010266734459034052,-0.0009674795873709612,-0.015003864249316346,0.017888997369357423,0.9806132033315225
2015-12-02,1,0.000998401607577544,0.0014323885824488799,-0.015003864249316346,0.014502823088345971,0.9811895727728732
2015-12-04,-1,-0.0003063166521667008,-0.00012056912471637151,-0.013089572155873221,0.016352471649524324,0.9820649054736785
2015-12-08,-1,-0.0008996861768501173,-0.0008006142954473791,-0.02041777914370118,0.016352471649524324,0.9775380836092139
2015-12-10,-1,-0.0007149741488040953,-0.0005659685271407676,-0.01261702510462016,0.012896880635757585,0.9794834856333459
2015-12-14,-1,-0.0015933201510512462,-0.0015082525450216481,-0.00909991244399916,0.012896880635757585,0.9797514150343641
2015-12-16,1,0.0005706547106151952,0.000871715974522755,-0.00909991244399916,0.012456120167652518,0.9807486372527311
2015-12-18,-1,-0.0008463923520039363,-0.0006971011904772181,-0.00909991244399916,0.012456120167652518,0.9811369636311615
2015-12-22,1,0.001072194517363731,0.0015461771002867099,-0.00909991244399916,0.011912903188740855,0.9801942193241627
2015-12-24,1,0.0018151300464564792,0.0023608516379523495,-0.00909991244399916,0.011912903188740855,0.9799460294221997
2015-12-29,1,0.0022183697235539446,0.0028698709289360098,-0.00909991244399916,0.015464112945658682,0.9784776290474039
2015-12-31,1,0.0021539945889480078,0.002813991297324802,-0.010132655959554237,0.02042592512473589,0.9762346741942898
2016-01-05,1,0.0018605798962521786,0.002407713163852988,-0.015479422222289313,0.02042592512473589,0.9743615816768262
2016-01-07,-1,-0.0020619750306380613,-0.0020400284496968997,-0.008222576839418119,0.02042592512473589,0.9782734832851592
2016-01-11,-1,-0.0016473095019955584,-0.0016209382385278354,-0.018160695053859352,0.02042592512473589,0.976199029382512
2016-01-13,-1,-0.004050561646674869,-0.0037080192118568787,-0.011916207252114829,0.02042592512473589,0.9770585595700318
2016-01-15,-1,-0.0027052626294397602,-0.0024870950219401957,-0.011916207252114829,0.030872026825886065,0.9731961759417858
2016-01-20,-1,-0.0047768307809510895,-0.00422646272235307,-0.007462807848858411,0.030872026825886065,0.9733945090734076
2016-01-22,-1,-0.002913138191718844,-0.0026520101345640897,-0.007462807848858411,0.03063458502688511,0.9746269470481563
2016-01-26,-1,-0.0013746680649561135,-0.001225652234867276,-0.0075280476830468885,0.02042592512473589,0.9768996666815756
2016-01-28,1,0.0006119191061303993,0.0008182001069287869,-0.0075280476830468885,0.011785999878182652,0.9783283106458857
2016-02-01,1,0.0022285261963806684,0.002669183016139596,-0.006498414120832017,0.011785999878182652,0.9791635166931894
2016-02-03,1,0.00047883882115586416,0.0006119659646112207,-0.006039269842874694,0.018062969064121137,0.9799314839147608
2016-02-05,-1,-7.304994368232304e-05,-4.511816812448582e-06,-0.006498414120832017,0.018062969064121137,0.979033286821454
2016-02-09,-1,-0.0011066221655868652,-0.00108658460903147,-0.006039269842874694,0.024488079159612985,0.9786499961366846
2016-02-11,-1,-0.0017853954554118531,-0.0015999720949592417,-0.006039269842874694,0.024488079159612985,0.9779293882089876
2016-02-16,1,0.001977546503831297,0.002192045494422553,-0.006498414120832017,0.01589268404851626,0.9842411799062608
2016-02-18,1,0.001100906413451815,0.0011307543140041227,-0.006061016454270853,0.02014141703597698,0.9829276735682249
2016-02-22,1,0.0011485133844566313,0.001187843548560269,-0.006833332387896918,0.01589268404851626,0.9840074837971373
2016-02-24,0,-0.0002612174456836957,3.793312170797766e-05,-0.007904086817664337,0.01589268404851626,0.9836446672887107
2016-02-26,1,0.001725981260432359,0.0018163719268851674,-0.009042197984227486,0.01589268404851626,0.984223077144874
2016-03-01,1,0.005085903183069729,0.005776813996234692,-0.009042197984227486,0.014086612984286102,0.9859675090999601
2016-03-03,1,0.006855258474549714,0.007861670232273367,-0.010208377485035251,0.01198712226143733,0.9858054954349126
2016-03-07,1,0.004731583904419282,0.005386285878831038,-0.010208377485035251,0.01198712226143733,0.9862858519606802
2016-03-09,1,0.005070744646635956,0.005859305078130218,-0.009042197984227486,0.010778683304534187,0.9885116047615141
2016-03-11,1,0.006947830939465192,0.008067860952506466,-0.010208377485035251,0.003498397047756943,0.9870861554225149
2016-03-15,1,0.006039434429120329,0.006914674083165323,-0.010208377485035251,0.005555872793821384,0.9873755411563254
2016-03-17,1,0.007050719361219347,0.008026932787308854,-0.010208377485035251,0.0024040411851646267,0.9872691254462467
2016-03-21,1,0.007386067760656944,0.008497137122982841,-0.010208377485035251,0.004529559099595414,0.9875534216492519
2016-03-23,1,0.006579127739203047,0.007572216359053141,-0.010208377485035251,0.004529559099595414,0.9840746543767206
2016-03-28,1,0.006007690212273865,0.006945523607974819,-0.011001308030049613,0.004529559099595414,0.9831953666485944
2016-03-30,1,0.006611361971073024,0.0076868720390741085,-0.011001308030049613,0.004529559099595414,0.9827577049486756
2016-04-01,1,0.00609209949935436,0.007032216934501455,-0.011998948721071344,0.004529559099595414,0.9830439272739361
2016-04-05,1,0.003467026867392,0.003951150182597963,-0.01191339123532833,0.005077974707458795,0.9837674009403391
2016-04-07,1,0.003511314533759328,0.003990967538498283,-0.014921869070077401,0.004529559099595414,0.9825790472520837
2016-04-11,1,0.0025410574421455834,0.002860934757885529,-0.013046809093181514,0.005077974707458795,0.9821443979949543
2016-04-13,1,0.003618600536398455,0.004061297092826121,-0.014603338856490938,0.005077974707458795,0.9814012315183759
2016-04-15,1,0.0036276926464988055,0.0041003052647470145,-0.01571964939451002,0.004766833393133236,0.9809190254832043
2016-04-19,1,0.004100806526670432,0.004592192090379042,-0.01571964939451002,0.0046479609258349725,0.9808719623504559
2016-04-21,1,0.0009739431448476347,0.0010340285999476256,-0.014603338856490938,0.0046479609258349725,0.9852897648882312
2016-04-25,-1,-0.0008997369098230776,-0.0007007023583065659,-0.01315486920930017,0.008362474857120926,0.9865557133112504
2016-04-27,-1,-0.0004752538771239636,-0.00037434167885270656,-0.01315486920930017,0.015180770349955132,0.9858390075859824
2016-04-29,-1,-0.0014652504469325808,-0.001198965408293231,-0.01315486920930017,0.015644576664177227,0.9851311908550627
2016-05-03,-1,-0.0015027237456837188,-0.0011898526262462917,-0.012368754230096549,0.015180770349955132,0.987587145027011
2016-05-05,-1,-0.00259077745708375,-0.0021474562673233742,-0.011665289190753509,0.015180770349955132,0.9880796049382797
2016-05-09,-1,-0.0033164110639700957,-0.0026962094776442555,-0.00553199349558379,0.015180770349955132,0.9887216462025823
2016-05-11,-1,-0.0014896749417968526,-0.0012168868990933026,-0.00436597672241712,0.012103427837000115,0.990476269396637
2016-05-13,-1,-0.0030644757364923884,-0.0025176992619951933,-0.005625102024851813,0.012103427837000115,0.9901571758744536
2016-05-17,-1,-0.0019507484211484453,-0.0015924457245913165,-0.005625102024851813,0.012103427837000115,0.9899954347478579
2016-05-19,-1,-0.002172824446835554,-0.001835437125427292,-0.003543285883167331,0.012103427837000115,0.9898957489587328
2016-05-23,-1,-0.0018388944928535676,-0.0015318520111293815,-0.005625102024851813,0.012440440213768368,0.9872589753123042
2016-05-25,-1,-0.0010734749699856066,-0.0008342578411250236,-0.006048269152148943,0.011875276890670666,0.987269103724988
2016-05-27,-1,-0.0009730074977417663,-0.0007556831678086304,-0.007754912625735475,0.009214623767747298,0.9844383634230471
2016-06-01,-1,-0.0032563611893752765,-0.002578095373318298,-0.007754912625735475,0.01614583500430182,0.9825746548835073
2016-06-03,-1,-0.003141079606001682,-0.0024838819829872847,-0.007754912625735475,0.01614583500430182,0.9828591732593461
2016-06-07,-1,-0.0038831487713295297,-0.003056768445050225,-0.01287084951874664,0.01668871040799773,0.981950785886005
2016-06-09,-1,-0.003175115847905165,-0.002522737150353521,-0.01287084951874664,0.01668871040799773,0.981585439619635
2016-06-13,-1,-0.0047657223530939985,-0.003873662337484204,-0.006870450119566691,0.018854601294957182,0.9792577661815077
2016-06-15,-1,-0.003784436750385443,-0.003048489560766843,-0.011427089747251172,0.01668871040799773,0.9799713652504293
2016-06-17,-1,-0.0026849531293405707,-0.0021713269032354984,-0.008076084338829146,0.017015871112074313,0.9798647323560581
2016-06-21,-1,-0.0029413191699975676,-0.0024398361046887775,-0.007510647015556443,0.01613014368117299,0.982195635644454
2016-06-23,-1,-0.001784368786928424,-0.0014818363569848252,-0.007188320651400067,0.014039782614226216,0.9831219276375124
2016-06-27,-1,-0.005275035468473306,-0.00451768440528957,-0.001490220351457497,0.01613014368117299,0.9824693625278297
2016-06-29,-1,-0.004056749711315478,-0.0034161627421913747,-0.00373751036958096,0.013307826155384016,0.9846134377237662
2016-07-01,-1,-0.005308239733353589,-0.004440147390630447,-0.006016451063247679,0.013307826155384016,0.9844732787616021
2016-07-06,-1,-0.004661712926746001,-0.003894325802584823,-0.006016451063247679,0.013135040509661503,0.9859494584989609
2016-07-08,-1,-0.0020355650504268403,-0.0017712699865446145,-0.00680551580997791,0.01311548303626838,0.9868815318016795
2016-07-12,-1,-0.0010363199052140744,-0.0008720859279960708,-0.00680551580997791,0.013139323244891197,0.9877347694765202
2016-07-14,-1,-0.0008603455467096991,-0.0007485489789113463,-0.005586701413460924,0.013139323244891197,0.9882113574895687
2016-07-18,-1,-5.7847459772230694e-05,-4.452666101954511e-05,-0.005626236818700866,0.013139323244891197,0.9883201801569035
2016-07-20,-1,-0.00017140210498707843,-0.0001451990548640775,-0.005336858299630828,0.01193192160127322,0.9892878225001855
2016-07-22,1,0.0010049496298439372,0.0012438891748500678,-0.005626236818700866,0.010496800549406616,0.9899924708587524
2016-07-26,1,0.0031901372698679062,0.0037648713286381834,-0.006493504906444439,0.006992130790567407,0.9924873836358724
2016-07-28,1,0.002546832201169133,0.0029658858242229006,-0.006493504906444439,0.006992130790567407,0.9913952450319109
2016-08-01,1,0.002074287216601671,0.002419370776321242,-0.006493504906444439,0.007300804841183744,0.9912045820620753
2016-08-03,1,0.002399956091968869,0.0028263356487127425,-0.006493504906444439,0.007300804841183744,0.9909405383570944
2016-08-05,1,0.002052271869658981,0.002434976437833251,-0.00574397556495415,0.008788386370601323,0.9881004522428711
2016-08-09,1,0.00364514856967703,0.004291297941385871,-0.00574397556495415,0.007300804841183744,0.9888120215110688
2016-08-11,1,0.003327364928026831,0.003915536982755692,-0.00574397556495415,0.008788386370601323,0.9887100531434941
2016-08-15,1,0.003193441872687336,0.0037293587830768793,-0.0063258279116670865,0.008788386370601323,0.988296838219164
2016-08-17,1,0.003188084003335259,0.00371968512687543,-0.0063258279116670865,0.011354975452040256,0.9872790168848902
2016-08-19,1,0.0032222591361605623,0.003761073500784589,-0.0063258279116670865,0.011354975452040256,0.9866196402942474
2016-08-23,1,0.003130540439243028,0.003672457026221943,-0.006731939709177531,0.011354975452040256,0.9860020211433612
2016-08-25,1,0.0020877058650517213,0.002418798180365769,-0.003078340128248505,0.011354975452040256,0.9878187804621555
2016-08-29,1,0.002248461008453877,0.002608371770229217,-0.003078340128248505,0.009257622837273324,0.9876456212569144
2016-08-31,1,0.0014877736088101537,0.0017162502722540148,-0.003078340128248505,0.010639210802869207,0.9873060580316166
2016-09-02,1,0.0035344841824250994,0.00409414269662423,-0.003078340128248505,0.010897233098728601,0.9899068820256212
2016-09-07,1,0.003801232637270291,0.004384501582215503,-0.003078340128248505,0.010456901418906586,0.9901574919142403
2016-09-09,1,0.00428192507622799,0.00496848302911373,-0.0063998541491536685,0.008989306021357571,0.9898818365349114
2016-09-13,1,0.004121107402046302,0.004650174701237748,-0.003325997443580821,0.008989306021357571,0.9905831094977188
2016-09-15,1,0.004189264928394852,0.004661695695851619,-0.007749252667399295,0.007844206822966228,0.9908099103399378
2016-09-19,1,0.0034915199176249224,0.00385911986804313,-0.006433674453800536,0.007844206822966228,0.9914675199102494
2016-09-21,1,0.002992144709255437,0.0032709474664884847,-0.004093430081156314,0.008304736144831522,0.9921500084976783
2016-09-23,1,0.003507983648820955,0.0038677483287906404,-0.006433674453800536,0.008304736144831522,0.9910208824265413
2016-09-27,1,0.0025906170094974136,0.0027771852122152794,-0.004902120814958995,0.010456901418906586,0.9918658218230073
2016-09-29,1,0.0025596873577236,0.002755344989261361,-0.004902120814958995,0.003443875766211406,0.9917765305110845
2016-10-03,1,0.003364063685554694,0.003670358320992732,-0.004902120814958995,0.0013279200241659472,0.9921957486672767
2016-10-05,1,0.0029131885068484934,0.00313225016409948,-0.006433674453800536,0.0046430986589653086,0.9912588476088318
2016-10-07,1,0.0026605155253669865,0.002862010976851316,-0.007498538845957687,0.011953958440005123,0.989323041296935
2016-10-11,1,0.002301749816777482,0.0024147089046252764,-0.007498538845957687,0.010603650333738713,0.9894643955356972
2016-10-13,1,0.002035789902032822,0.0021270303885227567,-0.007843139169067368,0.010603650333738713,0.9893729364584825
2016-10-17,1,0.0021109520671611197,0.00224879340315095,-0.013275383798206072,0.010603650333738713,0.988513471670972
2016-10-19,1,0.0021503231205490256,0.002287048622071925,-0.013867977291053308,0.010625858460611521,0.9869141685770717
2016-10-21,1,0.0015776811357183325,0.0016313039244080288,-0.013867977291053308,0.01302106213662519,0.9861224647926652
2016-10-25,1,0.0019043716422949726,0.0020033423214036636,-0.013867977291053308,0.013797193682709,0.9853107208482459
2016-10-27,1,0.0014773827676809366,0.0015351162171802475,-0.01094518769585269,0.013797193682709,0.9856747933938202
2016-10-31,1,0.001611342948757981,0.0016729139833381182,-0.01094518769585269,0.013797193682709,0.9855644584562334
2016-11-02,1,0.000904020993412439,0.0009739226474356595,-0.008381519488194553,0.013797193682709,0.986273967847842
2016-11-04,1,0.0017983046937462117,0.001858494955702793,-0.008381519488194553,0.010816690645691115,0.987961073138501
2016-11-08,1,0.0018112911061185528,0.0018624533611895228,-0.008381519488194553,0.013797193682709,0.9875395284342219
2016-11-10,1,0.0005358362562786323,0.0007023493913637161,-0.008381519488194553,0.013797193682709,0.9831285989302541
2016-11-14,0,-0.0001012693460163786,0.00011537825435815278,-0.0050598940417246096,0.016288686159987995,0.9822038769575184
2016-11-16,-1,-0.001539689934603357,-0.0010011383922794409,-0.0050598940417246096,0.014595709076878065,0.9830023723051595
2016-11-18,1,0.00016433434720009997,0.0004446987052430391,-0.006750810481075353,0.01435488849302503,0.9825022434142033
2016-11-22,1,0.0008714961267344883,0.0010775300289405437,-0.007875004442193979,0.009338946868772114,0.9834609520877594
2016-11-25,1,0.000541567904471603,0.000796298315961227,-0.007875004442193979,0.009338946868772114,0.9836987672156564
2016-11-29,1,7.151566830969119e-05,0.000370820901618072,-0.007875004442193979,0.009338946868772114,0.9839274757653028
2016-12-01,1,0.0007195302048144115,0.0008768886578608925,-0.00903886648343961,0.006657683976418481,0.983861364717504
2016-12-05,0,-0.0002466555484627644,4.818794699285934e-05,-0.006439837353594903,0.012760391486371946,0.9834156097952996
2016-12-07,1,0.0005748531994879192,0.0007542431079849262,-0.006439837353594903,0.008374295773394295,0.9841459847062672
2016-12-09,-1,-0.002210101411173433,-0.0017012342179007296,-0.005603201136150239,0.008879300281846688,0.9884493039601001
2016-12-13,-1,-0.0009445013639260711,-0.0005872619487938486,-0.006439837353594903,0.004442914084812511,0.9899877574988989
2016-12-15,-1,-0.0008220851467049862,-0.0005705605809630479,-0.005603201136150239,0.005363986908243395,0.9904810963258747
2016-12-19,-1,-0.001715928623028748,-0.0013566144473977548,-0.004473136407977252,0.004442914084812511,0.9929741533619575
2016-12-21,-1,-0.002086250439635024,-0.0016628457787505114,-0.004308479516270511,0.003726947256736356,0.9934218563546143
2016-12-23,-1,-0.002480249216475095,-0.0020006293580746327,-0.0037091690130631916,0.007518840289894985,0.9923996644674091
2016-12-28,-1,-0.0027603371792167073,-0.002248670371701091,-0.0037091690130631916,0.009707743710992837,0.988051600155975
2016-12-30,-1,-0.0023148990145999684,-0.0019122359621295112,-0.004139152351263915,0.009707743710992837,0.9884115870097205
2017-01-04,-1,-0.0014392311358106668,-0.0011379285417746758,-0.004335944763202359,0.007518840289894985,0.989330329630219
2017-01-06,-1,-0.0011960711195185022,-0.0009324981773775748,-0.004335944763202359,0.0054533596018135596,0.9894615757722529
2017-01-10,-1,-0.0007369504902140253,-0.0005223973384082489,-0.004335944763202359,0.0034235412180709866,0.9902293971663192
2017-01-12,-1,-0.0015216051165053328,-0.0012061656927420733,-0.003733869952357165,0.005096349985867043,0.9902966204330482
2017-01-17,-1,-0.0013607909362302905,-0.0010575670739935547,-0.003733869952357165,0.0048788487304739754,0.9906118555375644
2017-01-19,-1,-0.0019956975652705876,-0.0015870338176959906,-0.004335944763202359,0.0048788487304739754,0.9904213214314713
2017-01-23,-1,-0.00224001639049081,-0.0018036170274419586,-0.005410240086760356,0.0048788487304739754,0.9900586433969237
2017-01-25,-1,-0.0020604962141557073,-0.001614888250044122,-0.005410240086760356,0.00256148515970439,0.9912246804155402
2017-01-27,-1,-0.0025102162811943022,-0.002108886296546107,-0.0039279458885095875,0.0034235412180709866,0.9943358869925003
2017-01-31,-1,-0.0026479559503448935,-0.0022561614784486206,-0.0023082188751289527,0.004819568284693099,0.9925489694229439
2017-02-02,-1,-0.00290986169385251,-0.0025040240963933014,-0.0023082188751289527,0.004819568284693099,0.99181951064731
2017-02-06,-1,-0.0024044376988896603,-0.0020828835448818165,-0.0023082188751289527,0.007785718685007415,0.9918699169580707
2017-02-08,-1,-0.0016794535838887885,-0.0014886210940932216,-0.003951498714723803,0.007785718685007415,0.9920989591288812
2017-02-10,-1,-0.0016724347785210634,-0.0014572955027731937,-0.003951498714723803,0.008112200642216748,0.9915851212059197
2017-02-14,-1,-0.0016201599944231273,-0.0013997635644942975,-0.003951498714723803,0.008600989811778205,0.9911062101381953
2017-02-16,-1,-0.0016271124905851719,-0.001426631983987829,-0.001970932101390958,0.008976986316518557,0.9903981137885618
2017-02-21,-1,-0.002088383383209665,-0.0018180222381673583,-0.001970932101390958,0.008976986316518557,0.9892808498836372
2017-02-23,-1,-0.0022242905103040805,-0.0019383720778367623,-0.0018698955379723987,0.008976986316518557,0.9891626500779374
2017-02-27,-1,-0.0008706420378477572,-0.0007907676126144446,-0.0018698955379723987,0.008976986316518557,0.9898325097198017
2017-03-01,1,0.00014840755258714906,0.00019168768692694651,-0.0018698955379723987,0.008600989811778205,0.9915404333402674
2017-03-03,-1,-0.00044034329979804896,-0.0004012301725126678,-0.0017653923327468747,0.008600989811778205,0.9924446176126605
2017-03-07,-1,-7.576191887801766e-05,-5.725597812851629e-05,-0.003947319287376055,0.007754530559496086,0.9924691129190056
2017-03-09,-1,-0.0005198654379613187,-0.0004697788057485071,-0.0017653923327468747,0.008688496419961302,0.9919255685152112
2017-03-13,1,0.0001386434902218735,0.0001572577568788812,-0.005742287246420953,0.007173504835132554,0.9924525460819521
2017-03-15,1,0.0006762731890037005,0.0007802385970182792,-0.005742287246420953,0.006680172244031031,0.9925783589963794
2017-03-17,1,0.0008414832642558672,0.0009337935064977886,-0.008557193301068005,0.005818534652297692,0.9924121201251225
2017-03-21,1,0.00042962179120611304,0.0004921091533467809,-0.005742287246420953,0.006713184531129741,0.993277028594645
2017-03-23,1,2.0097563852758498e-05,3.622919203348652e-05,-0.007180320493786595,0.007983941338936656,0.9922326917393754
2017-03-27,1,0.0008576528121891014,0.0009709990606416632,-0.007180320493786595,0.007983941338936656,0.9924250242662277
2017-03-29,1,0.0008992026963378953,0.0010117569238282766,-0.007180320493786595,0.009224727432629587,0.9921576844853837
2017-03-31,1,0.0011631651455970555,0.0013490048314583692,-0.007180320493786595,0.009224727432629587,0.9919646559880633
2017-04-04,1,0.00108011999334112,0.00126979947623742,-0.004348185879316789,0.009224727432629587,0.9922269337642463
2017-04-06,1,0.0008561692115340745,0.00098576024957874,-0.004348185879316789,0.008129050597171616,0.9921697304201454
2017-04-10,1,8.538764350377044e-06,2.3172554785543678e-05,-0.003412507830823191,0.009899829643462976,0.9909803818982351
2017-04-12,1,0.0006657390959523323,0.0007623577123776844,-0.004348185879316789,0.008129050597171616,0.9909480935469982
2017-04-17,1,0.0012118942079940298,0.0014411624899341691,-0.00415237216565842,0.0090918249103413,0.9907705892125204
2017-04-19,1,0.0018112704995355397,0.002180326378075001,-0.006163457016513583,0.008463366600344135,0.9900108582529833
2017-04-21,1,0.0021092807798803593,0.002514634760030614,-0.00415237216565842,0.0054426201753565865,0.9909717722999039
2017-04-25,1,0.002438326108392293,0.00286679427176122,-0.00415237216565842,0.0054426201753565865,0.9906253156458424
2017-04-27,1,0.003143195541449392,0.003684054668399205,-0.00415237216565842,0.0054426201753565865,0.9908085272891608
2017-05-01,1,0.0025299785976293093,0.0029450442672960867,-0.004064819473528018,0.005572570717996048,0.9909394838062046
2017-05-03,1,0.002915763726977879,0.0034276508612244095,-0.004064819473528018,0.008424066727929967,0.9887874012385065
2017-05-05,1,0.001483221659825919,0.001668222812882242,-0.003067367343252408,0.008973538791490335,0.989150253409161
2017-05-09,1,0.001868561558838277,0.002180897049105697,-0.002415226818889531,0.008973538791490335,0.9902477393659339
2017-05-11,1,0.001036542190720429,0.0011853392571951073,-0.002415226818889531,0.011804469608028056,0.9898252248089202
2017-05-15,1,0.0011107860668055035,0.0012290989939155615,-0.0016149327553597514,0.011804469608028056,0.9903306447806771
2017-05-17,1,0.0004296962196478928,0.00045929406358144573,-0.00035179427662531505,0.011804469608028056,0.9907861484879218
2017-05-19,1,0.00025444730248715895,0.00026277483344282714,0.0009059494465397668,0.0126397475551174,0.9898127433668713
2017-05-23,1,0.00039001234365157304,0.00039469433825184386,-0.00019345036224273964,0.011804469608028056,0.9896362643840994
2017-05-25,1,0.0005424168888395855,0.0005469557179105563,-0.0011399010122120252,0.011804469608028056,0.9893995111653778
2017-05-30,1,0.0012890602106236338,0.0014489852610832035,-0.0040283519193878405,0.010358249249846161,0.9895369368815387
2017-06-01,1,0.0029248599752986835,0.0033021125162508093,-0.005871427942747536,0.010358249249846161,0.9907611936330147
2017-06-05,1,0.0028763239964008196,0.0032738673027577518,-0.007250160319291606,0.010358249249846161,0.9900121159383807
2017-06-07,1,0.003048918622031156,0.003431554650914432,-0.009177134736550078,0.006935446987124672,0.9896781932723496
2017-06-09,1,0.003061614102366552,0.003458743568882911,-0.007250160319291606,0.006106394598362623,0.9908169154098339
2017-06-13,1,0.0031758744590729797,0.0035714200370279272,-0.007250160319291606,0.006062868234971288,0.9908551461406225
2017-06-15,1,0.003015657331498136,0.0033755822741156913,-0.009964406889873656,0.006062868234971288,0.9902177365269531
2017-06-19,1,0.0037484554812377948,0.00423551649118693,-0.009964406889873656,0.006062868234971288,0.9896709833837699
2017-06-21,1,0.0024143834924094452,0.0026285388048400238,-0.00774212625644647,0.006062868234971288,0.9908152406208652
2017-06-23,1,0.002304410556900063,0.0024730625478683343,-0.00774212625644647,0.005705242401176917,0.9912781207788426
2017-06-27,1,0.0014381353120897203,0.0014547918115786814,-0.010475760416803852,0.005705242401176917,0.9910135903977821
2017-06-29,1,0.001133696369324295,0.0011525300644043826,-0.010475760416803852,0.005705242401176917,0.9914488012470224
2017-07-03,1,0.0006161607696174434,0.000695724936621061,-0.006826954057026221,0.005441997520119303,0.9921280191697976
2017-07-06,1,6.565909434655507e-05,0.00020143388289587478,-0.006826954057026221,0.005441997520119303,0.9924223746550977
2017-07-10,1,0.0003910248500370445,0.00048308279796066355,-0.006826954057026221,0.004319501193066049,0.9926901035217243
2017-07-12,1,6.598178466731046e-05,0.00021287394638894777,-0.006826954057026221,0.0038980686013648123,0.992974247913037
2017-07-14,-1,-0.0007231459742332206,-0.000464304904243073,-0.008434446352391198,0.0038980686013648123,0.9930790782880491
2017-07-18,-1,-0.00033755697616372985,-0.00011142955963481692,-0.008434446352391198,0.004319501193066049,0.9923898534556023
2017-07-20,-1,-0.00028280863538153813,-9.412072253653717e-05,-0.00878355431382162,0.004319501193066049,0.9916140807867146
2017-07-24,1,0.0004650401971309175,0.000526581860874269,-0.00878355431382162,0.003973054704364014,0.9915876524637657
2017-07-26,-1,-0.0005898994635153479,-0.0003772982058786124,-0.00878355431382162,0.004327320708140116,0.9918301601101054
2017-07-28,-1,-0.0005599248826868934,-0.0003593410914901061,-0.006703677938481166,0.004327320708140116,0.9927136426318568
2017-08-01,-1,-0.001087602334572098,-0.0008072556721194612,-0.005957517239194934,0.004327320708140116,0.9927974021115002
2017-08-03,-1,-0.0008587589976476673,-0.000642643020303519,-0.003998174601676244,0.005444420114974416,0.9920508803251862
2017-08-07,-1,-0.0005804806412009838,-0.00041839060803327486,-0.003998174601676244,0.006166409967256008,0.9916195054262099
2017-08-09,-1,-0.00040425910073479596,-0.0002882725032856218,-0.003798400078302207,0.007743902690195918,0.991174780073895
2017-08-11,-1,-0.0015180981648878294,-0.001232203736633191,-0.0026880965732142617,0.009833902948068204,0.9908186354540491
2017-08-15,-1,-0.00048176724428540974,-0.0003048673332949661,-0.0026880965732142617,0.006166409967256008,0.9926124809370713
2017-08-17,-1,-0.001015920100732945,-0.0008198347932879112,-0.0026880965732142617,0.006166409967256008,0.9930247813565495
2017-08-21,-1,-0.0009042657091587788,-0.0007222437213886812,-0.0026880965732142617,0.007743902690195918,0.9922397250780257
2017-08-23,-1,-0.0011979826459653786,-0.0009758345195094219,-0.0026880965732142617,0.007743902690195918,0.9923131058903919
2017-08-25,-1,-0.0012634242859651344,-0.0010194706901272168,-0.0035699970586926017,0.007743902690195918,0.9917562375295715
2017-08-29,-1,-0.0009427961852174538,-0.0007394726801296669,-0.0035699970586926017,0.011407394942346426,0.9908587179315061
2017-08-31,-1,-0.000539198607319861,-0.00035370336565997335,-0.004552391515197251,0.009833902948068204,0.9915841792980133
2017-09-05,-1,-0.0002839862670801723,-0.0001507400071394897,-0.004552391515197251,0.01033775919584733,0.9915845286910137
2017-09-07,-1,-0.00018614319225494818,-6.248378111647332e-05,-0.004552391515197251,0.009284434031119353,0.9920258264385136
2017-09-11,1,0.00028718162568077256,0.000355775832758695,-0.00841287907912289,0.006548698737286767,0.9919853465234026
2017-09-13,1,0.00035258082535890694,0.00039967404734749727,-0.00841287907912289,0.006548698737286767,0.9918463740557704
2017-09-15,0,-5.399925148393637e-06,5.907368532208972e-05,-0.00841287907912289,0.006548698737286767,0.9913369261073035
2017-09-19,1,0.0009121751779303055,0.0009804947227582978,-0.00841287907912289,0.006055378992509786,0.9910442512544604
2017-09-21,1,0.000359890604604065,0.00037270411953635696,-0.0078780864574955,0.0074959899784016685,0.9912299421213392
2017-09-25,-1,-0.00039775062008966277,-0.0002929431156533641,-0.00700602054683824,0.0074959899784016685,0.9917374574759106
2017-09-27,1,0.0004252584271265762,0.0004449416051483137,-0.00700602054683824,0.005965436818301468,0.9928911457715853
2017-09-29,1,1.03478478257713e-05,0.00010565543330398136,-0.00700602054683824,0.005416208850348105,0.9928618769573816
2017-10-03,1,1.3880229110604155e-05,0.00013264956338833255,-0.00700602054683824,0.005416208850348105,0.9917834200704438
2017-10-05,1,0.00020293171190205204,0.00028178839754827115,-0.00700602054683824,0.00708177102457805,0.9907273029926683
2017-10-09,-1,-0.0009570646685799888,-0.0007028335578527396,-0.004845781882501144,0.008717746052553212,0.9905425331663815
2017-10-11,-1,-0.0013599153464807887,-0.001051837372971646,-0.004833667680709066,0.010595238988311873,0.989580003420526
2017-10-13,-1,-0.0016749198474265957,-0.0013471482483171072,-0.004833667680709066,0.010595238988311873,0.990699366168534
2017-10-17,-1,-0.0015691795233658892,-0.0012662922205510076,-0.00402446893536318,0.008779587984795497,0.9916002529058161
2017-10-19,-1,-0.0012130319587670226,-0.0009704343779236408,-0.00402446893536318,0.008779587984795497,0.9912924226896453
2017-10-23,1,0.00021952666543896212,0.00024402044619886763,-0.00402446893536318,0.009083897661776964,0.9915658706316228
2017-10-25,0,-1.2536202683996021e-05,1.119386273657558e-06,-0.003198691279673158,0.010273661613536543,0.9911539498016252
2017-10-27,-1,-4.02844657433705e-05,-1.9015374621706926e-05,-0.0015521514309770564,0.010273661613536543,0.9919458715240792
2017-10-31,1,0.0007315379877456624,0.0008556747652875705,-0.0015521514309770564,0.00918359271534163,0.9928695786481617
2017-11-02,1,0.00148959918943214,0.0017379835890146845,-0.0015521514309770564,0.00918359271534163,0.9925367091918713
2017-11-06,1,0.0021569663697099213,0.0024904980766184068,-0.0023440225755380377,0.008417522368953684,0.9930813037219756
2017-11-08,1,0.0031215504863765604,0.00362202991116395,-0.003242699478171048,0.008133648389924433,0.9925083651714972
2017-11-10,1,0.002462701382959877,0.0028313560529129554,-0.0023440225755380377,0.009163806006412955,0.9925250986589895
2017-11-14,1,0.0026159395343465742,0.0030221784667396135,-0.003242699478171048,0.010214301486750513,0.9916896802693306
2017-11-16,1,0.001901725968559947,0.00217839070725577,-0.0030128759716402686,0.010214301486750513,0.9922563841628028
2017-11-20,1,0.001946384735951301,0.0022169265373068363,-0.0019840434292079253,0.01061378582340336,0.9919965304305528
2017-11-22,1,0.0018935148749552651,0.0021302208345202714,-0.005279511622222067,0.010243724383914923,0.991219431913437
2017-11-27,1,0.0015930137382482955,0.001752799514054093,-0.006867109613825126,0.010243724383914923,0.9906691994647232
2017-11-29,1,0.0016637294817936229,0.00185239653176285,-0.006867109613825126,0.010268545629428232,0.9906003861413517
