JNU-Tangyin/eata/results/Batch4_SP500/Batch4_SP500-WBA.csv
Date,Action,Predicted_Q25,Predicted_Q75,Actual_Q25,Actual_Q75,RL_Reward
2010-12-14,0,0.0,0.0,-0.005889706467315009,0.01102772489282802,0.9892524805813239
2010-12-16,0,0.0,0.0,-0.005889706467315009,0.009600091247466686,0.9896378061394274
2010-12-20,0,0.0,0.0,-0.005889706467315009,0.011207093167761107,0.9887798560927338
2010-12-22,0,0.0,0.0,-0.005069527424489216,0.009600091247466686,0.991574155781551
2010-12-27,0,0.0,0.0,-0.005090401273893122,0.009600091247466686,0.9917608874288504
2010-12-29,0,0.0,0.0,-0.005484229058102119,0.009106518829101273,0.9920955745559203
2010-12-31,1,0.0007707388338027673,0.0007937105358431013,-0.004934368288084919,0.009106518829101273,0.9919630133981171
2011-01-04,1,0.0009285379390699901,0.0009488179031111375,-0.005484229058102119,0.009466347786750831,0.9902901423781765
2011-01-06,1,0.0009815711276432507,0.001006341266545246,-0.005484229058102119,0.008341255374903427,0.9906577707587049
2011-01-10,0,0.0,0.0,-0.004934368288084919,0.008341255374903427,0.9912906094762218
2011-01-12,1,0.0005608598766524278,0.0005697620096370516,-0.004934368288084919,0.008020929965232492,0.9916546087374624
2011-01-14,1,0.0006046796992768679,0.0006103638328540271,-0.005502534074504346,0.003485141192192053,0.9918810409091385
2011-01-19,0,0.0,0.0,-0.004929979364023125,0.0024944208041286437,0.993004450575102
2011-01-21,1,0.0005718967632790498,0.0006331748766246475,-0.004929979364023125,0.0032960512988851618,0.9928242488446374
2011-01-25,0,0.0,0.0,-0.005535327283628004,0.0032960512988851618,0.9916312240347288
2011-01-27,0,0.0,0.0,-0.004196269128881952,0.005048768801042264,0.9910723570550097
2011-01-31,1,1.5079292136361227e-05,3.724454651913756e-05,-0.004196269128881952,0.008564524199169444,0.9897263381063477
2011-02-02,1,1.7200043624912417e-05,3.521050028895137e-05,-0.005064343740233625,0.008564524199169444,0.9903774611448977
2011-02-04,1,0.00017025233919249622,0.00017434862879308537,-0.009156030691476162,0.005512265058850246,0.9900161256373231
2011-02-08,1,0.00026033425996706153,0.00026278551844043677,-0.009156030691476162,0.006381202356219972,0.9897506553090338
2011-02-10,1,0.00015141313890658503,0.00015538856581645698,-0.010497392454536056,0.006381202356219972,0.9892093694593365
2011-02-14,1,1.61561070157755e-05,3.92879091382323e-05,-0.012652890300421287,0.006381202356219972,0.9886943525543378
2011-02-16,1,8.799460025480043e-05,0.00010399288123822154,-0.012652890300421287,0.01069207176777327,0.9878335800546602
2011-02-18,1,1.5906327157237278e-05,2.2016536329393966e-05,-0.012652890300421287,0.013124847775765384,0.9868972626229515
2011-02-23,-1,-0.0010344296544279384,-0.0009418590687916776,-0.011526029650309317,0.014274964475805337,0.9847819583483409
2011-02-25,-1,-0.00017215542796779822,-0.00015445026334525656,-0.011526029650309317,0.013124847775765384,0.9850520773765457
2011-03-01,-1,-0.000813232702421637,-0.0007382404568596421,-0.009611405210868555,0.013124847775765384,0.9862299515995638
2011-03-03,-1,-0.0004675086559606304,-0.0004402086068577248,-0.00901921364016329,0.007118261151399851,0.987655333404249
2011-03-07,-1,-0.00046618912114998424,-0.0004441602353290063,-0.008352004986798408,0.013124847775765384,0.9872884448836495
2011-03-09,-1,-0.0008227369080245168,-0.0007165661181063425,-0.008352004986798408,0.008590666009423278,0.9877431184608855
2011-03-11,-1,-6.976441068151965e-05,-5.711418574653438e-05,-0.007846989454472533,0.008590666009423278,0.9879659215440423
2011-03-15,1,8.07520060997648e-05,0.00013655694179975073,-0.006672089333991077,0.009482558781502715,0.9885453300203528
2011-03-17,0,-2.4569856030276762e-05,8.021965405351157e-06,-0.0035938948856536475,0.00715497005554991,0.9895184423081019
2011-03-21,1,6.627874412852932e-05,0.00010918365758604036,-0.003328659706423421,0.00715497005554991,0.9903766092274879
2011-03-23,1,0.00023233017215542443,0.00029480909309423197,-0.0019416460770258748,0.00715497005554991,0.9934032106540817
2011-03-25,-1,-0.000247498666692454,-0.00024190584425957918,-0.0019416460770258748,0.00715497005554991,0.9932812026841381
2011-03-29,1,0.0004830976895620158,0.0005951743638099511,-0.00024833207953273997,0.00715497005554991,0.9944260611975841
2011-03-31,0,0.0,0.0,-0.0019416460770258748,0.00715497005554991,0.9935514474557288
2011-04-04,0,0.0,0.0,-0.002583525144855708,0.00715497005554991,0.993249240212719
2011-04-06,0,0.0,0.0,-0.005852678285308099,0.007083959648251031,0.9930077620309727
2011-04-08,0,0.0,0.0,-0.005346191594884886,0.008508634525885898,0.9924507842833544
2011-04-12,0,0.0,0.0,-0.005346191594884886,0.009953623622094298,0.9918058652253522
2011-04-14,-1,-7.855659552832828e-05,-5.5424606437244866e-05,-0.005346191594884886,0.010990289694450964,0.9910310918195105
2011-04-18,-1,-6.40905998145009e-05,-4.935327074361167e-05,-0.005852678285308099,0.01081126769013471,0.9907296109683883
2011-04-20,-1,-6.642481036634126e-05,-3.928950941303806e-05,-0.005852678285308099,0.009434071048555832,0.9916454960783224
2011-04-25,1,5.809145959158969e-05,8.110017045653514e-05,-0.0044597982669947345,0.009434071048555832,0.9918007106954221
2011-04-27,0,0.0,0.0,-0.005175581960418009,0.007392438489141008,0.991868755956992
2011-04-29,0,0.0,0.0,-0.005175581960418009,0.004821824085989076,0.9922127037744098
2011-05-03,-1,-0.00014219274390834893,-9.267931173932939e-05,-0.005175581960418009,0.0032078205173209882,0.9932143202248177
2011-05-05,-1,-0.00015451401200286243,-0.00010208133613992624,-0.0034812781262670107,0.0032078205173209882,0.993734109639161
2011-05-09,-1,-0.00015956694266193629,-0.00010849499236432228,-0.0037198726907414353,0.0029887634721984754,0.9945674395814561
2011-05-11,0,-3.123070774968645e-05,1.7146143479133795e-06,-0.0037198726907414353,0.0029887634721984754,0.9949071574473668
2011-05-13,0,0.0,0.0,-0.004756013145622519,0.0029887634721984754,0.9945502382319229
2011-05-17,0,0.0,0.0,-0.004756013145622519,0.0029887634721984754,0.994584204483751
2011-05-19,0,0.0,0.0,-0.004756013145622519,0.006001177467599598,0.9937628836179492
2011-05-23,0,0.0,0.0,-0.005407464034632275,0.007332477844541279,0.99142903653378
2011-05-25,0,0.0,0.0,-0.007048376041433402,0.007332477844541279,0.9910430293643052
2011-05-27,0,0.0,0.0,-0.007048376041433402,0.008411409225762171,0.9897702275753264
2011-06-01,0,0.0,0.0,-0.005407464034632275,0.008411409225762171,0.9898550681739318
2011-06-03,0,0.0,0.0,-0.005407464034632275,0.01014928882616629,0.9888005109715956
2011-06-07,0,0.0,0.0,-0.004094383597217369,0.011646369510014517,0.9881923951193139
2011-06-09,0,0.0,0.0,-0.004094383597217369,0.0126189681512152,0.9880188340205033
2011-06-13,0,0.0,0.0,-0.00890265176956561,0.011931179778043076,0.9876284564762063
2011-06-15,1,0.0011757656578585314,0.0012529690335648933,-0.014530831299699048,0.009389888218129642,0.9876790801770453
2011-06-17,1,0.0016385581229294874,0.0017576457604720967,-0.014530831299699048,0.008158275689749955,0.9877857052007853
2011-06-21,1,0.001211889728933852,0.0012674778110030624,-0.009858382772096207,0.008158275689749955,0.9894883524123944
2011-06-23,1,0.0006466021369363037,0.0007313059424415211,-0.009858382772096207,0.00893218743373754,0.9874659796967501
2011-06-27,1,0.0006584020167817888,0.0006973620574039655,-0.006726579169249628,0.00893218743373754,0.9887875261540894
2011-06-29,-1,-0.001656954717291473,-0.001525628524901497,-0.009858382772096207,0.00893218743373754,0.9884056816722518
2011-07-01,-1,-0.0017246095578715031,-0.00158011896076887,-0.009858382772096207,0.0056420591131866,0.9895752759749769
2011-07-06,1,0.00046378517109706277,0.00048609534691970865,-0.014630940546266895,0.0025627326503283765,0.9885040680914384
2011-07-08,1,0.0005163630303356036,0.0005330106668584733,-0.01606277133260879,-2.0661905943018246e-05,0.9879412372407046
2011-07-12,0,0.0,0.0,-0.01606277133260879,0.0025627326503283765,0.9860241715516407
2011-07-14,0,0.0,0.0,-0.02009827744710134,0.0008162431913681267,0.9848956478120221
2011-07-18,0,0.0,0.0,-0.02009827744710134,0.006631712430376114,0.9826911858274997
2011-07-20,0,0.0,0.0,-0.023832690759583344,0.006631712430376114,0.981514968157766
2011-07-22,-1,-0.00040109639257101366,-0.0002991008304776106,-0.023832690759583344,0.002564329183723478,0.9823372222097168
2011-07-26,-1,-0.000674364049123989,-0.0005283118227609843,-0.023832690759583344,0.007500744321484727,0.9817882885921749
2011-07-28,-1,-0.0006496663533980727,-0.0005053683761447102,-0.023832690759583344,0.004418224791836301,0.9822497361791946
2011-08-01,-1,-0.0007352825157746027,-0.0005933450139824834,-0.023832690759583344,0.013251051331770248,0.9805591682973716
2011-08-03,-1,-0.0012884468236088874,-0.0010661525335053498,-0.020193802358705402,0.013251051331770248,0.9812731115373385
2011-08-05,-1,-0.0026309654855386426,-0.0022976044966424615,-0.019220186522413345,0.013251051331770248,0.9808894144965111
2011-08-09,-1,-0.00308696349358223,-0.002703243625843199,-0.011918861520486998,0.013251051331770248,0.9826507920827191
2011-08-11,-1,-0.004015992841547765,-0.0035453702823916083,-0.011401384162670603,0.013251051331770248,0.984087383649101
2011-08-15,-1,-0.0037255769605926727,-0.0032314719187109455,-0.011401384162670603,0.011919154158829751,0.9860431018860353
2011-08-17,-1,-0.00421267305404557,-0.003656553115411543,-0.008649836934350905,0.012637997438127668,0.9860024228483393
2011-08-19,-1,-0.005307078978311394,-0.004634020197013523,-0.006848578253579966,0.012637997438127668,0.9872057848899234
2011-08-23,-1,-0.0049521876933782,-0.004330183974195655,-0.00840560135016076,0.011919154158829751,0.9871899873147569
2011-08-25,-1,-0.005129586058257559,-0.004511618867718487,-0.00924918188296495,0.011919154158829751,0.9859610027110711
2011-08-29,-1,-0.003729076366427197,-0.0032907751262515115,-0.011070365723153053,0.010242292351812112,0.9837515171813853
2011-08-31,-1,-0.004103417653135802,-0.003618221393746737,-0.01634970756045628,0.010242292351812112,0.9827815518770731
2011-09-02,-1,-0.004302814792825588,-0.0038066823631218473,-0.013409550642406847,0.009884844176042844,0.9834319856560828
2011-09-07,-1,-0.0030982790205557444,-0.002752884477233925,-0.013409550642406847,0.009772017101297527,0.9843342828279802
2011-09-09,-1,-0.0035429492182012332,-0.0031566829428684618,-0.01043059850243577,0.010486939772458657,0.9841525505498727
2011-09-13,-1,-0.0024909253622705735,-0.0022615757829930984,-0.01043059850243577,0.010486939772458657,0.9845340388166304
2011-09-15,-1,-0.001334523228751227,-0.0012414056248798962,-0.014312461658512623,0.0060551089405701175,0.985565964294128
2011-09-19,-1,-0.0012300322853846207,-0.0011667988309693044,-0.014312461658512623,0.00840995757808013,0.9846270393174213
2011-09-21,-1,-0.0016588535100664856,-0.0015423297750271673,-0.01043059850243577,0.00840995757808013,0.985564515841332
2011-09-23,-1,-0.0024925195926918304,-0.0022955761983415113,-0.00597809620282671,0.010486939772458657,0.9862666493171847
2011-09-27,-1,-0.0034104718212418037,-0.003091474854574473,-0.00597809620282671,0.00840995757808013,0.9897890572430547
2011-09-29,-1,-0.0039094260265615886,-0.003555419829572913,-0.004988451355215256,0.010486939772458657,0.9889728115750422
2011-10-03,-1,-0.0033069321388441812,-0.0030588423037181548,-0.006642674166946621,0.00840995757808013,0.9892872098067559
2011-10-05,-1,-0.0022360167067979816,-0.002144612747244545,-0.010602329515659937,0.00840995757808013,0.9883872413793503
2011-10-07,-1,-0.001933536941758256,-0.0018666532397040973,-0.010602329515659937,0.009274778836487942,0.9880789885736257
2011-10-11,-1,-0.0014432820693858778,-0.0014399689433288408,-0.010602329515659937,0.007172906401452663,0.9885387868360976
2011-10-13,-1,-0.0017298355663377357,-0.001702657433344322,-0.010602329515659937,0.008876484337110906,0.9870994525687435
2011-10-17,-1,-0.0009482651337138329,-0.0008792128997400061,-0.013159399465732368,0.008876484337110906,0.9865875379511255
2011-10-19,-1,-0.0010008922491716386,-0.0009445301558045538,-0.013159399465732368,0.008876484337110906,0.9860206935822219
2011-10-21,0,0.0,0.0,-0.013159399465732368,0.008148918306127175,0.9863128273699411
2011-10-25,0,0.0,0.0,-0.017034826999353082,0.008148918306127175,0.9844009312793962
2011-10-27,-1,-0.00039896010189133935,-0.0003198917619123325,-0.013983383951133709,0.011092455861819353,0.9838389133463016
2011-10-31,0,0.0,0.0,-0.010799974353581878,0.011092455861819353,0.9842798187095075
2011-11-02,0,0.0,0.0,-0.008672780834763588,0.011092455861819353,0.9844322188600824
2011-11-04,1,0.0004897918585403667,0.0006451845138966685,-0.010799974353581878,0.011092455861819353,0.9827683556965283
2011-11-08,1,0.00017832095216038877,0.0004770565990456837,-0.011052034908382889,0.012556686118314486,0.981693912462014
2011-11-10,-1,-0.0009554871609102138,-0.0008229075239920541,-0.011052034908382889,0.012556686118314486,0.9824994697305399
2011-11-14,-1,-0.0005653849436892019,-0.00040136630879182556,-0.01022220832908868,0.011092455861819353,0.9838706082167433
2011-11-16,-1,-0.0008186024324868647,-0.0007142266180810169,-0.009851219601512874,0.012556686118314486,0.9836480064793367
2011-11-18,-1,-0.0002962253914055051,-0.00011319609699522411,-0.012250085877654117,0.012556686118314486,0.9823945092273892
2011-11-22,0,0.0,0.0,-0.008129090737545978,0.01474530046146562,0.9838411979537863
2011-11-25,0,0.0,0.0,-0.008129090737545978,0.015277855332126966,0.9837160271432903
2011-11-29,0,0.0,0.0,-0.009851219601512874,0.015277855332126966,0.981738853622846
2011-12-01,0,0.0,0.0,-0.010622669420224473,0.01474530046146562,0.9829660110287586
2011-12-05,1,0.0017171879499233884,0.0021090337416747682,-0.009851219601512874,0.0112019572579766,0.9852255924424531
2011-12-07,1,0.0024058994219804952,0.0029923688662196663,-0.007628659369185662,0.010277183293060628,0.9856125999785708
2011-12-09,1,0.002367120300953421,0.002957331650682008,-0.006165359768673813,0.013241459114180655,0.9853514098215769
2011-12-13,1,0.0015584836868057037,0.001987839980723178,-0.00798474299964605,0.013241459114180655,0.9845937176885982
2011-12-15,1,0.0019231544358032668,0.0023955089306191644,-0.011135228759177088,0.013642789872666147,0.9835979524574247
2011-12-19,1,0.0007644176772244886,0.0010656856691033762,-0.00832252331286276,0.016502946130548327,0.9846171264657599
2011-12-21,1,0.0013603435633218683,0.001741405584274205,-0.00832252331286276,0.013642789872666147,0.9853153573967813
2011-12-23,1,0.0026523647695748023,0.0031669035447529983,-0.00832252331286276,0.012145399456132858,0.9869030280845645
2011-12-28,1,0.0007333183915155415,0.0009499151673114767,-0.008222022451866495,0.012145399456132858,0.9891565016772816
2011-12-30,1,0.0003477687329845158,0.0004887401797470904,-0.008687886369733002,0.012145399456132858,0.9886282226895002
2012-01-04,-1,-0.0005057435276241358,-0.000466958440134849,-0.008687886369733002,0.012145399456132858,0.9883865792999526
2012-01-06,0,0.0,0.0,-0.008687886369733002,0.01236578199652183,0.9879313139535804
2012-01-10,0,0.0,0.0,-0.010833726176188288,0.011539738368288746,0.9882134143059939
2012-01-12,0,0.0,0.0,-0.008487035323592244,0.012145399456132858,0.9877668568147479
2012-01-17,0,0.0,0.0,-0.007562695380029577,0.011539738368288746,0.9889815184790319
2012-01-19,0,0.0,0.0,-0.008487035323592244,0.011539738368288746,0.9884030628346089
2012-01-23,0,0.0,0.0,-0.010063314446821476,0.012145399456132858,0.9875709816877303
2012-01-25,0,0.0,0.0,-0.010063314446821476,0.009410329538089342,0.9881474162878399
2012-01-27,0,0.0,0.0,-0.009553618413430387,0.009410329538089342,0.9881766814302568
2012-01-31,0,0.0,0.0,-0.00936178576868895,0.009410329538089342,0.988870390743508
2012-02-02,0,0.0,0.0,-0.009553618413430387,0.007840077573084359,0.988837429276267
2012-02-06,1,0.001940962804047962,0.0021245767815834577,-0.01033713246790382,0.007840077573084359,0.9878747534165678
2012-02-08,1,0.0019259819825632831,0.002196313163299167,-0.00936178576868895,0.007840077573084359,0.9894242049920813
2012-02-10,1,0.0030986831388245826,0.003499439219901035,-0.00936178576868895,0.005169745469867223,0.9899029175534821
2012-02-14,1,0.0018827118746874774,0.002148620110760097,-0.00991286917079888,0.0038268259183292077,0.9900888451342212
2012-02-16,1,0.001751820066054797,0.0018883180962808504,-0.00936178576868895,0.006356964435030546,0.9907970478436757
2012-02-21,1,0.0013843286469821,0.0014076264395255153,-0.007945131629466248,0.0038268259183292077,0.9915348142954612
2012-02-23,1,0.0002870043152545437,0.0004450433171270134,-0.007608546271546359,0.0038268259183292077,0.9918503113292861
2012-02-27,-1,-0.0002547417155776947,-2.0538548811582834e-05,-0.007375688374587127,0.007041059807792329,0.9912411738786551
2012-02-29,-1,-0.0005347819249802996,-0.00030867579162448516,-0.005412811011589183,0.012117875446807003,0.9911175834788695
2012-03-02,-1,-0.00097271486732348,-0.0007030870517317002,-0.007501445028001697,0.012117875446807003,0.9900429013901383
2012-03-06,-1,-0.00034084356091879076,-0.00016138704526567568,-0.007501445028001697,0.012117875446807003,0.9901123171288525
2012-03-08,-1,-0.0009896397305544512,-0.0006947430039451019,-0.00963110287822986,0.012117875446807003,0.9888914627252768
2012-03-12,1,0.0003753383541044704,0.00047839448424556356,-0.010886958301094304,0.007041059807792329,0.9889025957576181
2012-03-14,0,-0.000124110352051702,4.259054611728259e-05,-0.009493600168543066,0.012117875446807003,0.9881683031695139
2012-03-16,1,0.0008135064087378004,0.0008597453541648674,-0.009493600168543066,0.006728463579276918,0.9883251865363972
2012-03-20,1,0.000668316053537743,0.0007929678673058793,-0.009493600168543066,0.012519764171947197,0.9859106076774483
2012-03-22,0,-0.00011168873373545687,2.8553158922728448e-05,-0.009493600168543066,0.012519764171947197,0.9860320080493229
2012-03-26,1,0.00017407149053595325,0.0003362796195334435,-0.011304050305046316,0.009442616909010595,0.9865212638589884
2012-03-28,0,-0.00011725099713721715,5.712923940002861e-05,-0.011304050305046316,0.008006861089191302,0.9870252188051122
2012-03-30,1,0.0005750779225674229,0.0006296103517907662,-0.009493600168543066,0.008038816167204968,0.9875851966841265
2012-04-03,1,0.0007957490792794005,0.0008404639622502666,-0.011515538352802925,0.007879850068238317,0.9876663455183458
2012-04-05,-1,-0.0016727709028668551,-0.0013779335836105978,-0.009232645258606582,0.007879850068238317,0.9885451866044951
2012-04-10,-1,-0.002091380783959184,-0.0017660819623347055,-0.007901731522874662,0.008038816167204968,0.9884395135922238
2012-04-12,-1,-0.0015968034836888394,-0.0013130029299698114,-0.007901731522874662,0.007879850068238317,0.989837801930304
2012-04-16,0,0.0,0.0,-0.010206485791834252,0.004630447546630682,0.9887059913114233
2012-04-18,0,0.0,0.0,-0.010206485791834252,0.0027570364045763403,0.9917331260971273
2012-04-20,0,0.0,0.0,-0.015167413158726925,0.0011106260895767473,0.9900868233276525
2012-04-24,1,0.0004029173569635566,0.00042877729664348005,-0.012903971176148932,0.0013838176063548182,0.9907026151994316
2012-04-26,1,0.0008641675401170406,0.0009946133592660385,-0.012903971176148932,0.0010043848552961272,0.990595803257643
2012-04-30,0,0.0,0.0,-0.010206485791834252,0.0012781896032743986,0.9916074707454802
2012-05-02,0,0.0,0.0,-0.012113644270252147,0.0012781896032743986,0.9911974352891559
2012-05-04,0,0.0,0.0,-0.014334656869165201,0.0017597690994759004,0.9900189927357722
2012-05-08,0,0.0,0.0,-0.014334656869165201,0.0025204869080163936,0.9901732310586517
2012-05-10,0,0.0,0.0,-0.014334656869165201,0.0025204869080163936,0.9902601988933484
2012-05-14,0,0.0,0.0,-0.005706287019775665,0.0025204869080163936,0.9918629051320579
2012-05-16,0,0.0,0.0,-0.01219395356680994,0.0038517938968847445,0.9902193454133611
2012-05-18,-1,-0.0016620856546915727,-0.0015596064806528665,-0.00151654721371406,0.005226133913850201,0.9913391117968599
2012-05-22,-1,-0.002788336190386251,-0.002432197606633427,-0.01219395356680994,0.005226133913850201,0.98714472745701
2012-05-24,-1,-0.0028016576920953332,-0.0024379381396280593,-0.01219395356680994,0.0062709209935305245,0.9865583497310602
2012-05-29,-1,-0.002525771700233038,-0.0021843957098599247,-0.014774697914375058,0.005226133913850201,0.9862990316871031
2012-05-31,-1,-0.003472637464318735,-0.003034782866781072,-0.012109108854901714,0.0071936830045462195,0.986245539421953
2012-06-04,0,0.0,0.0,-0.004500561348143269,0.009935434364186108,0.9876432763527688
2012-06-06,0,0.0,0.0,-0.00923931000145652,0.0089520882665603,0.9875246521007424
2012-06-08,-1,-0.0008482548939240211,-0.0007311450059844181,-0.00923931000145652,0.0089520882665603,0.9872034446085864
2012-06-12,-1,-0.001613175287708116,-0.0014217128984326988,-0.00923931000145652,0.0089520882665603,0.9868454684508717
2012-06-14,0,0.0,0.0,-0.008370302124720265,0.0089520882665603,0.9878333268833378
2012-06-18,0,0.0,0.0,-0.008370302124720265,0.0089520882665603,0.9878315098173895
2012-06-20,-1,-0.003629292607787986,-0.003249119710748009,-0.0021945762489396087,0.009935434364186108,0.9853782082809903
2012-06-22,-1,-0.0026559215860675603,-0.002350150485176998,-0.004054465186942968,0.008962525264282484,0.9858333966241604
2012-06-26,-1,-0.002868666805167839,-0.002547212710802108,-0.00108730710818036,0.009935434364186108,0.9855379397211076
2012-06-28,0,0.0,0.0,0.0003569198739693466,0.011057199189368528,0.9863895397516348
2012-07-02,0,0.0,0.0,0.0003569198739693466,0.010775778643126193,0.9868851236308055
2012-07-05,0,0.0,0.0,-0.001052098413464006,0.010775778643126193,0.9869017319407383
2012-07-09,0,0.0,0.0,-0.0003538905455961845,0.010775778643126193,0.9873593525990879
2012-07-11,0,0.0,0.0,-0.0003538905455961845,0.010775778643126193,0.9871420789381397
2012-07-13,-1,-0.0014274364717287416,-0.0013988287404113524,-0.001052098413464006,0.008904855633261157,0.9872757731050976
2012-07-17,-1,-0.0012298031887260084,-0.0012197752011168998,-0.002891217450042538,0.008904855633261157,0.9873055833709926
2012-07-19,1,0.00015122437598816507,0.00030514041405657,-0.00415444608899607,0.006047848669274131,0.9928481424882255
2012-07-23,0,0.0,0.0,-0.002891217450042538,0.007281542984579186,0.9930601447771831
2012-07-25,0,0.0,0.0,-0.00415444608899607,0.006047848669274131,0.9934587584170071
2012-07-27,0,0.0,0.0,-0.00415444608899607,0.0036460132683729914,0.9948081609133621
2012-07-31,0,0.0,0.0,-0.004532670104714217,0.002436031838132688,0.9953457486966503
2012-08-02,1,0.0006596142514278985,0.0008740032526258283,-0.00415444608899607,0.002436031838132688,0.9957863377979285
2012-08-06,1,0.0021717942312878594,0.0024850051902819414,-0.00415444608899607,0.0036460132683729914,0.9945732315631495
2012-08-08,1,0.0026574920781218033,0.0030658673617662818,-0.004532670104714217,0.002436031838132688,0.9935355541784476
2012-08-10,1,0.0023734854618141427,0.0027261680665034266,-0.005551493159942663,0.0035811943437326996,0.9933841680758233
2012-08-14,1,0.001915571833728376,0.0021896002167676176,-0.0031688024867800608,0.0051068441719518114,0.9939950366850989
2012-08-16,0,0.0,0.0,-0.00281006570087625,0.005407005838199138,0.9938147933426389
2012-08-20,0,0.0,0.0,-0.003523165479724197,0.0035811943437326996,0.9940274779418506
2012-08-22,1,0.0016511547004185263,0.0018846944155675952,-0.003523165479724197,0.004415333706403543,0.993707157413856
2012-08-24,1,0.001810262032932952,0.0020813813105256705,-0.006028569315075059,0.005212549064278262,0.9924418929151927
2012-08-28,1,0.0013280270839298573,0.0014948097853376998,-0.007013375997347844,0.006073209979477037,0.9921461633195878
2012-08-30,1,0.0009258926009985023,0.0010140850280822545,-0.007013375997347844,0.008143845928230026,0.9912692291479233
2012-09-04,1,0.0015767316037551206,0.0017941476680864432,-0.007013375997347844,0.008143845928230026,0.991374175291666
2012-09-06,1,0.001208546224673141,0.001375955691375412,-0.007013375997347844,0.008143845928230026,0.9917180797901425
2012-09-10,1,0.001593366089419315,0.0018693165426687394,-0.0066818319002960175,0.008143845928230026,0.9915426480604065
2012-09-12,1,0.0019092256786424722,0.0022482385235072207,-0.007013375997347844,0.005958314543526178,0.9912488069970775
2012-09-14,1,0.0020408785884560112,0.0023752909921131403,-0.007013375997347844,0.005958314543526178,0.9912471596080432
2012-09-18,1,0.0019385271512186264,0.0022651800753257303,-0.0066818319002960175,0.00760314388986792,0.9916244472156067
2012-09-20,1,0.0016729200285172992,0.0019471418335374802,-0.0066818319002960175,0.008664471623995817,0.9911056507019643
2012-09-24,1,0.0015614508020951887,0.0017955889839110042,-0.0066818319002960175,0.008664471623995817,0.991326609452718
2012-09-26,1,0.001271873687133419,0.0014534668319371568,-0.007164540627763283,0.006753318232599173,0.9908996947366221
2012-09-28,1,0.0017464607331472354,0.00200985330083343,-0.007164540627763283,0.00574698482825038,0.9915437138826594
2012-10-02,1,0.0018954748835671009,0.0021740610068648946,-0.007164540627763283,0.00574698482825038,0.9919092134993517
2012-10-04,1,0.0012565214680273292,0.001408392817651992,-0.008873521380426679,0.00574698482825038,0.9908335820592192
2012-10-08,1,0.0010060632392328965,0.0011157108350524957,-0.010364478541208656,0.00574698482825038,0.9905735979159791
2012-10-10,1,0.0002592040801324009,0.0002994056476919339,-0.014760740894839012,0.00574698482825038,0.9899410012965155
2012-10-12,0,0.0,0.0,-0.014760740894839012,0.003678718404383725,0.99036046124872
2012-10-16,0,0.0,0.0,-0.014760740894839012,0.001276392718019272,0.9904778897689746
2012-10-18,0,0.0,0.0,-0.01032932199467277,0.001276392718019272,0.9907356638887146
2012-10-22,0,0.0,0.0,-0.010136625276905838,0.001276392718019272,0.9916717399935052
2012-10-24,0,0.0,0.0,-0.007187789302006966,0.001388519851880598,0.9923048510246839
2012-10-26,0,0.0,0.0,-0.007187789302006966,0.002373406824044766,0.99217480509002
2012-11-01,0,0.0,0.0,-0.007187789302006966,0.0034815360433067127,0.9917396276002891
2012-11-05,0,0.0,0.0,-0.0035445792263261488,0.005750533441166961,0.9931774917256674
2012-11-07,0,0.0,0.0,-0.002316564031489902,0.009312744872929142,0.9918493128533362
2012-11-09,0,0.0,0.0,-0.0009998256051648806,0.009312744872929142,0.9923165196795777
2012-11-13,0,0.0,0.0,-0.0006857961332287131,0.009312744872929142,0.9923646951408602
2012-11-15,0,0.0,0.0,-0.0003698562596780138,0.009312744872929142,0.9922821819568172
2012-11-19,-1,-0.0037155299231233516,-0.0031807664557274118,0.0003362916480462041,0.010480815572937851,0.9895694487993248
2012-11-21,-1,-0.004004204086046214,-0.00342762168991852,0.0003362916480462041,0.010480815572937851,0.9889108973828238
2012-11-26,-1,-0.0029053726085489645,-0.002502786241948038,0.0003362916480462041,0.00916928200581658,0.9887954023869306
2012-11-28,-1,-0.0026003574651838105,-0.0022329498965442964,0.0003362916480462041,0.008827575514432851,0.9891859426448285
2012-11-30,-1,-0.0024636430123872117,-0.002102708548040254,0.0001324379862852135,0.008827575514432851,0.9894828897612158
2012-12-04,-1,-0.002067734801427367,-0.0017659395643926086,-0.0006811775408217074,0.008827575514432851,0.9886677680715356
2012-12-06,0,0.0,0.0,-0.003750405271500142,0.008827575514432851,0.9898219354174972
2012-12-10,0,0.0,0.0,-0.003750405271500142,0.008827575514432851,0.9899631248458407
2012-12-12,0,0.0,0.0,-0.003750405271500142,0.01051284122666277,0.9895681681171626
2012-12-14,0,0.0,0.0,-0.002037380465846737,0.01051284122666277,0.9897158807866806
2012-12-18,0,0.0,0.0,-0.002037380465846737,0.007582833253859214,0.990614196444409
2012-12-20,1,0.0,0.002103526483251862,-0.002037380465846737,0.007189744377059418,0.9921059791095875
2012-12-24,0,0.0,0.0,-0.0016569328072543795,0.007189744377059418,0.9925941679008137
2012-12-27,1,0.0009092054141538363,0.0010364896164612256,-0.000954803851978606,0.008211612504090273,0.9925611308270632
2012-12-31,1,0.0013237725160604855,0.0015073489452462454,-0.0016569328072543795,0.007189744377059418,0.9928772226973969
2013-01-03,1,0.0019510682747255936,0.0022445687521037583,-0.001131691598910836,0.007189744377059418,0.9944106266853385
2013-01-07,1,0.002031260200034488,0.0023311830387332966,-0.001131691598910836,0.007189744377059418,0.9943595965098538
2013-01-09,1,0.00201596407515539,0.002284243342438933,-0.0016569328072543795,0.006780120130241364,0.9943872233666067
2013-01-11,1,0.0023593969798187528,0.0026705202887370673,-0.0016569328072543795,0.006038671927845591,0.9949245569097855
2013-01-15,1,0.0026217640575509488,0.0029874163443599916,-0.002302503220787291,0.006158999142206304,0.994127772623667
2013-01-17,1,0.0023592179879588443,0.0026633535110917065,-0.003305503176351474,0.007545530389285014,0.9931038784108757
2013-01-22,0,0.0,0.0,-0.0025828521495948773,0.008859379007125221,0.992507754299533
2013-01-24,0,0.0,0.0,-0.0025828521495948773,0.008859379007125221,0.9923963572158377
2013-01-28,0,0.0,0.0,-0.003538486210034831,0.005613582836605809,0.9916459901899121
2013-01-30,0,0.0,0.0,-0.0037493949239675198,0.00883626253819309,0.9912078600610928
2013-02-01,1,0.002696080517053709,0.0030106077637648424,-0.0037493949239675198,0.009191276067018696,0.9913513740223215
2013-02-05,1,0.0031072688815415995,0.00347100053872908,-0.00699089672117923,0.009091717910195845,0.9908396381463471
2013-02-07,1,0.0029989973970269927,0.003352331346686545,-0.00699089672117923,0.009191276067018696,0.9906783044260997
2013-02-11,1,0.0032505087243397002,0.003661938478218184,-0.007161387172796136,0.009684083842512615,0.9897863765088851
2013-02-13,1,0.0030839706534916763,0.003451885996048384,-0.005643411458910869,0.009684083842512615,0.9887052361108968
2013-02-15,1,0.0025866280202867685,0.0028778889963497756,-0.004038757576302173,0.009684083842512615,0.9892930061393842
2013-02-20,1,0.0030328641746128165,0.0033826907118788257,-0.004038757576302173,0.011345134956970863,0.9863513249125987
2013-02-22,1,0.0030739082859648436,0.003426226411697946,-0.004819055405055539,0.013242472618247927,0.9856118904114018
2013-02-26,1,0.0027303108803928304,0.003070209474655969,-0.004819055405055539,0.015069949247131207,0.9853575413021717
2013-02-28,1,0.002805782922931874,0.003168616944568237,-0.004875885555594508,0.015069949247131207,0.9853001073160909
2013-03-04,0,0.0,0.0,-0.005973692946805072,0.015069949247131207,0.9847215769192124
2013-03-06,0,0.0,0.0,-0.004875885555594508,0.015069949247131207,0.9854970966213633
2013-03-08,0,0.0,0.0,-0.004875885555594508,0.015069949247131207,0.985211708750891
2013-03-12,0,0.0,0.0,-0.004245762331388285,0.014081140417789377,0.9853953724638543
2013-03-14,0,0.0,0.0,-0.004245762331388285,0.013685446935923834,0.9868591685797534
2013-03-18,1,0.002535024066714247,0.002801631024820004,-0.004245762331388285,0.013685446935923834,0.9874512248953686
2013-03-20,1,0.0054732972852477866,0.00611901632523672,-0.005035676591871805,0.00989556856597787,0.990845434814403
2013-03-22,1,0.005214220659628215,0.005769559123889224,-0.004718225485976672,0.00989556856597787,0.9912748818262468
2013-03-26,1,0.0055364730347278665,0.00611003393580188,-0.004839234873236539,0.009115895915725446,0.9918696078026064
2013-03-28,0,0.0,0.0,-0.005267938341156425,0.009697353324303696,0.9907694328541875
2013-04-02,0,0.0,0.0,-0.0033417557181833228,0.009697353324303696,0.991627964506943
2013-04-04,0,0.0,0.0,-0.0033417557181833228,0.009697353324303696,0.99236995375646
2013-04-08,1,0.0030633032933077183,0.003201308514903861,-0.005267938341156425,0.007885598261309839,0.9922649684900217
2013-04-10,1,0.0031728005742421026,0.0033115185700722206,-0.00497431272175267,0.007885598261309839,0.9916491884477671
2013-04-12,0,0.0,0.0,-0.00908780746088731,0.007885598261309839,0.9902878834465145
2013-04-16,1,0.0028135420845954474,0.0028218082390759677,-0.00908780746088731,0.008272421111571325,0.9899172099308265
2013-04-18,0,0.0,0.0,-0.009360762508183833,0.009303825555349771,0.9893460575173281
2013-04-22,1,0.002700690105470433,0.002734718943954638,-0.009360762508183833,0.00919985308622656,0.9896493225279532
2013-04-24,1,0.0019336329834543926,0.0020568885555759843,-0.00497431272175267,0.00919985308622656,0.990298079484875
2013-04-26,0,0.0,0.0,-0.0020043965939491974,0.007724118540673855,0.9904569748600033
2013-04-30,0,0.0,0.0,-0.01085537029358085,0.007724118540673855,0.9895010518885701
2013-05-02,0,0.0,0.0,-0.011458054122984904,0.007724118540673855,0.9883536542611562
2013-05-06,0,0.0,0.0,-0.01065178473369861,0.00919985308622656,0.9881660210070446
2013-05-08,0,0.0,0.0,-0.01065178473369861,0.00919985308622656,0.9886119870776575
2013-05-10,0,0.0,0.0,-0.009927115218646006,0.00919985308622656,0.9894232691389487
2013-05-14,0,0.0,0.0,-0.009927115218646006,0.007724118540673855,0.9899878781556207
2013-05-16,0,0.0,0.0,-0.008437482834859497,0.008051242742949608,0.9904913753995594
2013-05-20,0,0.0,0.0,-0.008437482834859497,0.008086327579804509,0.9904274132249908
2013-05-22,1,0.0018298726910142516,0.001997175728647945,-0.01065178473369861,0.008086327579804509,0.9884110676123549
2013-05-24,0,0.0,0.0,-0.01131463411141585,0.008320962175253493,0.9879014577272205
2013-05-29,0,0.0,0.0,-0.01131463411141585,0.008320962175253493,0.9859938510042737
2013-05-31,0,0.0,0.0,-0.010558835966408157,0.008320962175253493,0.9868778441992813
2013-06-04,-1,-0.0004400899425358179,-0.00015884607796129565,-0.00930557198264667,0.005404064392962886,0.9879635858931769
2013-06-06,0,-0.00021987974987855744,1.5481838957897534e-05,-0.009026271122166231,0.00415276371025694,0.9884242692515899
2013-06-10,1,0.0005407012318035752,0.0006881883728417696,-0.009026271122166231,0.004902773763773818,0.9874031825533709
2013-06-12,0,0.0,0.0,-0.009026271122166231,0.011439995932659213,0.9853015653531139
2013-06-14,0,0.0,0.0,-0.009026271122166231,0.010356033059406989,0.985558938736056
2013-06-18,0,0.0,0.0,-0.009026271122166231,0.009770785538457694,0.9857805962260301
2013-06-20,1,1.70145736559e-05,0.00035236325622849444,-0.0029938793997669683,0.011916573517565286,0.9876029742086818
2013-06-24,0,0.0,0.0,-0.0029938793997669683,0.013704445344646824,0.9875621515562313
2013-06-26,0,0.0,0.0,-0.0004948719722396763,0.013704445344646824,0.9905358369028824
2013-06-28,0,0.0,0.0,-0.0004948719722396763,0.013704445344646824,0.9910450190292074
2013-07-02,-1,-0.0014314029568018344,-0.0010303430262122936,-0.001959034285976325,0.013704445344646824,0.9902122774644401
2013-07-05,-1,-0.0016959907424836719,-0.0012670914756693012,-0.0017612830724927165,0.01659410180797103,0.9896174971589535
2013-07-09,1,6.21082520975984e-05,0.00029443600290265633,-0.003131479411123868,0.01105539439190153,0.9918580826899389
2013-07-11,1,0.0011459552212396513,0.0012746205805857858,-0.0037774181679631155,0.0059846141898761565,0.9934103603423184
2013-07-15,1,0.0016051561444686913,0.0016676931622263249,-0.004170879465714243,0.0059846141898761565,0.9928840896899737
2013-07-17,1,0.0018150161587379206,0.001853140260777733,-0.004170879465714243,0.005342692059549602,0.9928726534823549
2013-07-19,1,0.0016594622735644072,0.001772388227352702,-0.006842955866618719,0.00421849611727521,0.9919114016144525
2013-07-23,1,0.0016879878319306482,0.0018006096959256018,-0.007547714005513891,0.00421849611727521,0.9922062777361721
2013-07-25,1,0.0018484580447946698,0.0019151343016458565,-0.007863412792786868,0.00421849611727521,0.9918038252953886
2013-07-29,1,7.129931084479102e-05,0.0004495639561434737,-0.007863412792786868,0.004286835194977449,0.9926407727984049
2013-07-31,0,-0.0001911378421194541,0.0001956011071863222,-0.007863412792786868,0.004047749877049516,0.9917232544724452
2013-08-02,1,0.00029588334895324026,0.0006195712723482951,-0.007863412792786868,0.004323659159928526,0.9916185879328412
2013-08-06,1,0.0003283668546287626,0.0005808195254855912,-0.006657233212147152,0.007804759726100546,0.990944373488547
2013-08-08,-1,-0.00043776512362469935,-6.871445285498647e-05,-0.006657233212147152,0.010432542612841876,0.9902615380268701
2013-08-12,1,0.0012359134833345026,0.0012811557131684136,-0.006657233212147152,0.010432542612841876,0.9899603740063516
2013-08-14,1,0.0015067463243459145,0.0015071928747758005,-0.006657233212147152,0.011610741226258972,0.9880028460875188
2013-08-16,1,0.0004964013661520265,0.0005712304184200415,-0.0004912412665866096,0.013989588676954542,0.9881551329730536
2013-08-20,1,0.00033433365926422614,0.00042826823199111803,0.0013378735351174517,0.013989588676954542,0.9879254409686054
2013-08-22,-1,-0.00019634432238616658,-1.4832999130376303e-05,0.0013378735351174517,0.013989588676954542,0.9874555034702387
2013-08-26,-1,-0.0004905255472428825,-0.00024684068301368827,0.0002317772012228208,0.013989588676954542,0.9862520495527308
2013-08-28,-1,-0.001371483510948793,-0.0010699064453950353,0.0006372184044662728,0.013989588676954542,0.987029287305145
2013-08-30,-1,-0.00032827453257630037,-0.0001633053381016343,-0.005113411101586553,0.013989588676954542,0.9877126965327878
2013-09-04,1,0.0010928892648523418,0.0011283728943787628,-0.005113411101586553,0.013232013611666302,0.98701635233562
2013-09-06,1,0.001030459804869486,0.0010655900581552557,-0.005113411101586553,0.012823112966957368,0.9876554210612825
2013-09-10,1,0.0016564738513315516,0.001753629621045594,-0.008733050467070133,0.008050546411107577,0.9878410653715372
2013-09-12,1,0.0038518394706534547,0.004280930880011498,-0.008733050467070133,0.008050546411107577,0.989150843662663
2013-09-16,1,0.004214554627544616,0.004653798420458862,-0.008733050467070133,0.008050546411107577,0.9894177175400211
2013-09-18,1,0.004706048698719911,0.005210282450615406,-0.008733050467070133,0.008050546411107577,0.9883363414947756
2013-09-20,1,0.004486819454997468,0.004964524039799382,-0.00772829260630852,0.012897066243664128,0.9879846919337896
2013-09-24,1,0.0038949339786548496,0.004255515537726614,-0.006248156352557825,0.007288437187570196,0.9890406749025986
2013-09-26,1,0.0028140257590680666,0.0029731841959198787,-0.004509643752899007,0.009174273547354915,0.9898653779546258
2013-09-30,1,0.0025174329996681157,0.0026894732005306498,-0.0031744420877807067,0.009174273547354915,0.9907786395036967
2013-10-02,1,0.004128258802112077,0.004489230362503009,-0.004182987389207544,0.006374539883027585,0.9918894000686368
2013-10-04,1,0.003768002856430558,0.00411269914879515,-0.0030658735605342885,0.009174273547354915,0.9920694953130684
2013-10-08,1,0.002673332273315587,0.002843178053411847,-0.0014827844282159686,0.009174273547354915,0.9927693584930777
2013-10-10,1,0.003497600619726245,0.003798716263657973,-0.0042165762496152275,0.006374539883027585,0.9922332191216319
2013-10-14,1,0.0039430902776686465,0.004311483564836504,-0.004669119410556534,0.006374539883027585,0.9921876470359913
2013-10-16,1,0.004568044893015901,0.005040924582917794,-0.003735061475660221,0.006374539883027585,0.9926184375685136
2013-10-18,1,0.004383231624302363,0.004767921749383946,-0.004669119410556534,0.005455306432875704,0.9930722450250559
2013-10-22,1,0.0034595631885491474,0.003635035941227292,-0.006492375039335845,0.00426045818545458,0.9920739119880835
2013-10-24,1,0.003599218220642218,0.0037952202546342522,-0.006492375039335845,0.006529915280433099,0.9913069089870439
2013-10-28,1,0.003515877170290627,0.0036961792696032694,-0.0076606506568451796,0.006529915280433099,0.9908648666129988
2013-10-30,1,0.0036121258820278218,0.0038535648538338373,-0.006492375039335845,0.005223519654295471,0.9907370176014009
2013-11-01,1,0.004060644826907683,0.004334010025807544,-0.006492375039335845,0.0030333505142925428,0.9909932451105288
2013-11-05,1,0.003969644892098568,0.004258552858769489,-0.0076606506568451796,0.0030333505142925428,0.9899487862346346
2013-11-07,1,0.0032823314569885255,0.003501860669418577,-0.006888499897670235,0.005223519654295471,0.9897625457424479
2013-11-11,1,0.002447571227768267,0.002469177383905209,-0.006888499897670235,0.0030333505142925428,0.9903060462296892
2013-11-13,1,0.00271674539682237,0.0027613563646339693,-0.006888499897670235,0.0030333505142925428,0.9900404598545098
2013-11-15,1,0.002317193875032309,0.002322593769564292,-0.007295021241883779,0.0009106978645478034,0.9899088552868719
2013-11-19,1,0.0005375332751876266,0.0008004874783160211,-0.007295021241883779,0.005785346631103663,0.9907807172897473
2013-11-21,1,0.0015302099951019937,0.0016791515139032362,-0.007577759998663616,0.0009106978645478034,0.9894295483433417
2013-11-25,1,0.00028045631624639593,0.0006522777146844734,-0.007577759998663616,0.00017748838848094414,0.9894663445427068
2013-11-27,1,0.0006446887749789143,0.0008845399091931636,-0.007577759998663616,0.0010852175202351589,0.9896580608886607
2013-12-02,1,0.0012713752903144686,0.0013454635076208367,-0.007577759998663616,0.002697185566199509,0.9888661515985676
2013-12-04,1,0.0001892632508654269,0.0003730599522356367,-0.007577759998663616,0.0043010966627737065,0.9897115318383745
2013-12-06,-1,-0.0004045511722382002,-0.00016427413248740587,-0.006930731669680354,0.005842687116420914,0.9910006352359512
2013-12-10,-1,-0.0002117060166281279,-2.447470654262402e-05,-0.006930731669680354,0.01012466863564003,0.9879863918516371
2013-12-12,1,0.0005512639237618338,0.0006386994569093749,-0.007577759998663616,0.006641259656182519,0.9882369367748187
2013-12-16,0,-0.00012314105334235777,4.802265873263213e-05,-0.007356962724052277,0.006641259656182519,0.9882722191368398
2013-12-18,0,-0.00012129841879644537,7.044579226169747e-05,-0.007356962724052277,0.006537423973192482,0.9888467246752002
2013-12-20,1,0.0007850635175409469,0.0008900866487295521,-0.007576315347727794,0.005842687116420914,0.9904436689770576
2013-12-24,0,-7.646705864044459e-05,0.00010454571931355799,-0.008751491388633426,0.005842687116420914,0.9903786958721955
2013-12-27,-1,-0.0007644006388890397,-0.0004676930527804359,-0.008751491388633426,0.005842687116420914,0.9902844509244925
2013-12-31,-1,-0.0011440337185235486,-0.0007818767669363254,-0.009216223702189932,0.005842687116420914,0.9899344648275296
2014-01-03,-1,-0.0016244789836123152,-0.0012159776817631397,-0.009216223702189932,0.005842687116420914,0.98926094741331
2014-01-07,-1,-0.001146290288923235,-0.0008007999359291649,-0.009216223702189932,0.006752395679391498,0.9877834589271794
2014-01-09,1,0.0004269872706078675,0.0006699167807396982,-0.009216223702189932,0.006752395679391498,0.9880263823146381
2014-01-13,-1,-0.0005932447350832572,-0.00022077667614415672,-0.008654882796738888,0.008491505422233621,0.98579966344317
2014-01-15,-1,-0.0014774681344532407,-0.000988889952507691,-0.007731226118913296,0.01587125056242915,0.9845416030558066
2014-01-17,-1,-0.0018866514864513038,-0.0013498515331921374,-0.007731226118913296,0.01587125056242915,0.9842174882421628
2014-01-22,-1,-0.0032828388831211423,-0.0025000814686290704,-0.007245074396218042,0.016657373037039788,0.9829315477652311
2014-01-24,-1,-0.004257469671359241,-0.003396398227603499,-0.004049926167209049,0.016657373037039788,0.9833537019126327
2014-01-28,-1,-0.0038771895034435716,-0.0031156346038726072,-0.004049926167209049,0.016657373037039788,0.9833089362678983
2014-01-30,-1,-0.003932707613592473,-0.003154948006876061,-0.003565947128097627,0.02017284742258247,0.9829463273489039
2014-02-03,-1,-0.0047315025607890145,-0.0039068431898787535,-0.003565947128097627,0.02403001471670884,0.9824853281656429
2014-02-05,-1,-0.0018159067105135678,-0.0014338493325161173,-0.005456944277513673,0.02017284742258247,0.9840208804268697
2014-02-07,1,0.0009945057815926705,0.0009986311630677865,-0.006441394446369143,0.01524095643667153,0.9858875473211621
2014-02-11,1,0.0031788001341825655,0.003493694649770003,-0.006441394446369143,0.014877831218941437,0.9886243106385064
2014-02-13,1,0.00421655205673844,0.004656341468720068,-0.006441394446369143,0.006721951717972255,0.9894512357865816
2014-02-18,1,0.0029586052781770578,0.0032183206366036155,-0.004519525506454923,0.006721951717972255,0.9911442715032102
2014-02-20,1,0.003672099460981758,0.003989521608867199,-0.00572887549993542,0.004560099910699535,0.9912597453103891
2014-02-24,1,0.00307800230488527,0.0032660834330339172,-0.006627844762923254,0.004560099910699535,0.9898593540223063
2014-02-26,1,0.003576352959798916,0.003935142167910033,-0.00712008334984532,0.004560099910699535,0.9876417643903803
2014-02-28,1,0.003938881310925042,0.00430716405834267,-0.008277830527335049,0.004560099910699535,0.9876784828296769
2014-03-04,1,0.0038558259255584183,0.00416031492638046,-0.007303793979246964,0.004560099910699535,0.988681071175183
2014-03-06,1,0.002745272505932042,0.0029399200516427868,-0.00572887549993542,0.007596116932086867,0.9904361463951497
2014-03-10,1,0.002849506505569796,0.003080215385939514,-0.00732973460256294,0.006597482126495793,0.9893500686260516
2014-03-12,1,0.003090187042863331,0.003382301244491245,-0.010295321629153802,0.008487034660266879,0.9875287975777352
2014-03-14,1,0.0033888614653563567,0.0037514441502766475,-0.014662700301517163,0.010476403586296774,0.9854845946495306
2014-03-18,1,0.003304631554635739,0.0036519403407640596,-0.014662700301517163,0.011755878041912023,0.9848180611030826
2014-03-20,1,0.0029111693687126792,0.0032253269294468937,-0.014662700301517163,0.011755878041912023,0.9853247213150752
2014-03-24,1,0.0017194153320712969,0.0018787471892235694,-0.010562100942854612,0.014097370868844366,0.9856100091083155
2014-03-26,1,0.0017128049046754004,0.00185445245880257,-0.009021651346704154,0.011755878041912023,0.988145790197404
2014-03-28,1,0.002396637079574087,0.002683462644031611,-0.009821546460071919,0.01136544147276896,0.9883276843010458
2014-04-01,1,0.002467033108943059,0.0027492182612133004,-0.009821546460071919,0.01136544147276896,0.9884589833100335
2014-04-03,1,0.002725813956514743,0.002989520414035238,-0.009821546460071919,0.012393368362815392,0.9875985405546062
2014-04-07,1,0.0014749246004090348,0.0015803756763625749,-0.00847938505584173,0.013767749966401586,0.9877334359213087
2014-04-09,1,0.0022211762182381698,0.0024724303595703217,-0.00847938505584173,0.013767749966401586,0.9885437939248601
2014-04-11,1,0.0012490976328445099,0.0013563199646365617,-0.0034979105185553917,0.0125964402589724,0.9901082604288253
2014-04-15,1,0.0014923112797478903,0.001564953825601814,-0.00847938505584173,0.010537815404100703,0.9904608094910973
2014-04-17,1,0.0024220627581096874,0.0026816957862439888,-0.00847938505584173,0.010537815404100703,0.9899980888296397
2014-04-22,1,0.002551679103841096,0.002808821114748706,-0.0085300256414599,0.010537815404100703,0.9896083174163789
2014-04-24,1,0.0021770647857711485,0.002350688917111273,-0.0085300256414599,0.012560671534625298,0.9891257994590517
2014-04-28,1,0.0020152046318571214,0.0021568879306126396,-0.007518101305789992,0.01109555514505367,0.9899299842635728
2014-04-30,1,0.001568633522613266,0.001583360874542751,-0.007518101305789992,0.014269659481831305,0.989219831012811
2014-05-02,1,0.0015749159190377741,0.0015959361824600775,-0.006413296145661951,0.011996136641957438,0.9902449475264711
2014-05-06,1,0.0012010516379397096,0.0012780928834822372,-0.006153703171635432,0.011996136641957438,0.9893879226319839
2014-05-08,1,0.0013250862867411578,0.0013594529974555727,-0.006153703171635432,0.011924791600055957,0.98991674637378
2014-05-12,1,0.0011804734907169235,0.0012652360835924575,-0.006153703171635432,0.011924791600055957,0.9901467595275826
2014-05-14,1,0.0006536654348171428,0.0007904774917277437,-0.006153703171635432,0.011924791600055957,0.989491728207578
2014-05-16,1,0.0005352825432087328,0.0006256321373088036,-0.0033323932523659132,0.011924791600055957,0.9896605023546586
2014-05-20,1,0.0005806715973562132,0.0006984584431964124,-0.002450043716007452,0.011924791600055957,0.989295262929664
2014-05-22,1,0.0008740972748159646,0.0009690084031507519,-0.006153703171635432,0.008918491534599296,0.9889152506538076
2014-05-27,1,0.0009159055800904031,0.0010126258354369285,-0.007922117117013657,0.008918491534599296,0.9878004045132366
2014-05-29,1,0.0009602762201314638,0.0010800090709195624,-0.007922117117013657,0.008918491534599296,0.9878833208378209
2014-06-02,1,0.0015064049756830283,0.0015462815944663596,-0.007922117117013657,0.004396419924809253,0.9879958941919352
2014-06-04,1,0.0037815735313095514,0.004166161810944369,-0.009309521774680439,0.0011914122840524803,0.9883122533737712
2014-06-06,1,0.0035335350528487514,0.0038417231699957623,-0.009309521774680439,0.0011914122840524803,0.988611808123185
2014-06-10,1,0.002916656678228632,0.0031061409925398514,-0.010238996166323398,0.004396419924809253,0.9872565467168842
2014-06-12,1,0.0017018428494558042,0.001710260243482186,-0.009309521774680439,0.004396419924809253,0.9889654120317454
2014-06-16,1,0.0018496707893528122,0.0018589092386256916,-0.009309521774680439,0.0015034536888249822,0.9890591763740235
2014-06-18,1,0.0021076002647378313,0.0021315935327496185,-0.010238996166323398,0.0007540703404088191,0.9898553994921775
2014-06-20,1,0.0008492098279603365,0.00103497573497663,-0.006885468802433122,0.0015034536888249822,0.9902420212946679
2014-06-24,0,-0.0002877910258941459,3.221679950097189e-05,-0.004892782955820954,0.004280699223156276,0.9911273978779829
2014-06-26,0,-0.0002933886862195043,8.234787138458491e-05,-0.004892782955820954,0.0025702426074217725,0.9920799873269958
2014-06-30,1,0.0002873170516701321,0.0005187803436262872,-0.006885468802433122,0.0025702426074217725,0.9899511055139366
2014-07-02,1,0.0004520274691447303,0.0005715076592335397,-0.00871853490080151,0.004756344867622261,0.9886832666995267
2014-07-07,1,0.0017043433592331364,0.001833791024656874,-0.00871853490080151,0.01072112926548061,0.9872548134500974
2014-07-09,1,0.0009676933171772028,0.0010015656802127198,-0.017535163095768153,0.004756344867622261,0.9824736419280029
2014-07-11,1,7.834478098133477e-06,8.958144518549275e-05,-0.017535163095768153,0.011954524055428371,0.9814228802110709
2014-07-15,1,0.00034163269318713803,0.0003504703923858164,-0.017535163095768153,0.017765953564524584,0.9804462362346843
2014-07-17,-1,-0.00018955882483154054,-0.0001164718365541973,-0.007639956982987808,0.017765953564524584,0.9809853748494387
2014-07-21,1,0.00025245993434544695,0.0002756861397550016,-0.010537718993067517,0.011954524055428371,0.9818341392986519
2014-07-23,1,0.0008027301320147372,0.0008755959589274541,-0.010537718993067517,0.006487817873158804,0.982538225342293
2014-07-25,1,0.0010608180667897365,0.0011865382777932459,-0.015763626299167863,0.006487817873158804,0.9818937880764558
2014-07-29,-1,-0.0003314094787677224,-0.00024145285771348419,-0.005202114742548356,0.006487817873158804,0.9837523849532784
2014-07-31,-1,-0.000803821389901753,-0.0006584834386438933,-0.004835316504873951,0.004794591127219696,0.9853999631968674
2014-08-04,1,0.0002748690377968753,0.0002936833333602473,-0.00693173380103301,0.002412837264078995,0.9871318286815918
2014-08-06,-1,-0.0029654466103939472,-0.002570184096338669,-0.0034666248751674864,0.003790947481247315,0.9918371379515925
2014-08-08,-1,-0.0024773559118568293,-0.0021391333525532866,-0.004835316504873951,0.003790947481247315,0.9915377859348232
2014-08-12,-1,-0.0020494052401792374,-0.0017487118866386063,-0.005810529624764756,0.003790947481247315,0.9921401281826415
2014-08-14,-1,-0.002489979826650005,-0.002099320807831836,-0.00693173380103301,0.0026021165097001413,0.9919603316133344
2014-08-18,-1,-0.0024566601297098135,-0.002080328349379751,-0.005810529624764756,0.0026021165097001413,0.9917333277132679
2014-08-20,-1,-0.0023941852404520832,-0.0020329339555238426,-0.0070304520540989835,0.0026021165097001413,0.9914248607005262
2014-08-22,-1,-0.0026828262167866777,-0.0022959799344351747,-0.0070304520540989835,0.0026021165097001413,0.990200582299255
2014-08-26,-1,-0.002479137304521372,-0.0021382524159591623,-0.0070304520540989835,0.007969146509190509,0.989396767949605
2014-08-28,-1,-0.0030652850767265882,-0.002621375415425155,-0.00847778778765204,0.007969146509190509,0.9888310776609942
2014-09-02,-1,-0.003046277275800593,-0.0026155452257851626,-0.008882055874704099,0.007969146509190509,0.9888151330453149
2014-09-04,-1,-0.0022041818111450525,-0.0018553850714587332,-0.008882055874704099,0.007969146509190509,0.9901751585770213
2014-09-08,-1,-0.0016974174290979378,-0.0014356077427154852,-0.006326832376837055,0.007969146509190509,0.9910826189610905
2014-09-10,-1,-0.0014170285796516824,-0.0012001350308009843,-0.008882055874704099,0.007969146509190509,0.9898556444205864
2014-09-12,-1,-0.0014849194061152822,-0.001270186815127627,-0.00631019635104143,0.011489687105226413,0.9890907485338664
2014-09-16,-1,-0.0012245335228659579,-0.0010390721526142774,-0.008882055874704099,0.007969146509190509,0.9880621505134441
2014-09-18,-1,-0.0013972178074479662,-0.0011920855205365456,-0.009300356933842142,0.007969146509190509,0.987920761430365
2014-09-22,-1,-0.002316678908125135,-0.002012770939890313,-0.006449630037420778,0.007969146509190509,0.9899086168139338
2014-09-24,-1,-0.0016223445375480195,-0.0014171826467870873,-0.006449630037420778,0.006261845854321325,0.9897293090385267
2014-09-26,-1,-0.002088095004458895,-0.001829121849486076,-0.004294624075899784,0.010057008145531014,0.9895157880739974
2014-09-30,-1,-0.0024172388316105044,-0.002120431249293857,-0.0019777472899018276,0.01006033830707461,0.9888619612764621
2014-10-02,-1,-0.0020373727898619315,-0.0017975988322193664,-0.0019777472899018276,0.0093454283059237,0.9890664126640021
2014-10-06,-1,-0.0017909992185224737,-0.0015694154946506223,-0.0013678429070049425,0.009970156992083805,0.988355093813333
2014-10-08,-1,-0.0016020370321824383,-0.0013896059389201204,-0.0008996102529602157,0.0093454283059237,0.9897501641912707
2014-10-10,-1,-0.0007369617179479311,-0.000645498488779277,-0.0008996102529602157,0.0093454283059237,0.9904158376193597
2014-10-14,-1,-0.0013751324588999123,-0.0012262322719592711,-0.0008996102529602157,0.009970156992083805,0.9910830790933896
2014-10-16,-1,-0.0013561992902771747,-0.0012179637000721622,-0.0009569983183134823,0.009970156992083805,0.9914434345938711
2014-10-20,-1,-0.0011909429738402874,-0.0010883705103919027,-0.000831464654554141,0.009970156992083805,0.9913021517252177
2014-10-22,-1,-0.00042756803471951255,-0.00042362334623274856,-0.0016583992106312582,0.009970156992083805,0.9914373661958117
2014-10-24,1,0.00042472680683371025,0.000587131492084522,-0.0040080275527468135,0.009970156992083805,0.9921476877911454
2014-10-28,1,0.0008961546192167327,0.0011296752030085064,-0.0040080275527468135,0.007786981137642787,0.9929449295995111
2014-10-30,1,0.0006884982430366116,0.0008932048003698209,-0.0016583992106312582,0.010258437196252955,0.9931541657688661
2014-11-03,1,0.001043088535312888,0.0012572922731703515,-0.0045176287523887824,0.004647686052440944,0.9932715406375694
2014-11-05,1,0.0014150249366243332,0.0016941035136247059,-0.0045176287523887824,0.00814765574311313,0.9929781451623609
2014-11-07,1,0.002287182222133615,0.002732591231481024,-0.0059177030554709905,0.00814765574311313,0.9925168586709828
2014-11-11,1,0.002338380005597538,0.002769396350350825,-0.006470694160210093,0.00814765574311313,0.9923921653753194
2014-11-13,1,0.0018390822569504283,0.002167210078374897,-0.005861862890065034,0.009877157348258381,0.9887944839860049
2014-11-17,1,0.0020833180161699944,0.0024803265767192367,-0.00803945373322069,0.009877157348258381,0.9877191924245383
2014-11-19,1,0.0025038238822313475,0.002955674431191742,-0.00803945373322069,0.009877157348258381,0.9871150688143079
2014-11-21,1,0.002290582797514023,0.0026954549536649867,-0.012352914434575667,0.010906267632322166,0.9861743007241187
2014-11-25,1,0.002535942045017666,0.0029871341127675,-0.012352914434575667,0.013073462635120211,0.9849210574596649
2014-11-28,1,0.0025527422530170815,0.0029763034060041648,-0.012352914434575667,0.013073462635120211,0.9849376746665779
2014-12-02,1,0.0018701083369222922,0.0021975662534895793,-0.0072203013729976225,0.013073462635120211,0.9858343276469249
2014-12-04,1,0.0022477720055546317,0.00262361047323028,-0.01039801884256008,0.013073462635120211,0.9851327285675601
2014-12-08,1,0.0018904856586979585,0.0021896487309020374,-0.0072203013729976225,0.01575333649084579,0.9851220652285521
2014-12-10,1,0.0023030859806351524,0.002686464916115349,-0.010784521417910909,0.01575333649084579,0.9842734765447728
2014-12-12,1,0.0046045014623470135,0.005315283032314893,-0.010784521417910909,0.006337541854400995,0.9870449861854388
2014-12-16,1,0.003955736203319618,0.00458605418361209,-0.005597321943145354,0.006337541854400995,0.9884299994772983
2014-12-18,1,0.003990486467956194,0.004562471922216374,-0.004143802121046132,0.006337541854400995,0.9894939048478183
2014-12-22,1,0.003545117999461559,0.0040273671941585595,-0.004143802121046132,0.004659151524050038,0.9905483772333034
2014-12-24,1,0.004524995983459415,0.005194773911267362,-0.005695395139324192,0.003559488510174994,0.9908708731000757
2014-12-29,1,0.004218609516792765,0.004602015813798953,-0.006945716058431968,0.0027396052414527367,0.9896161481739021
2014-12-31,1,0.004228253601161041,0.004650472462439747,-0.0072856489799149665,0.0039026338217464907,0.9893764581120856
2015-01-05,1,0.0037950184250580277,0.0041965889175335,-0.0058714469140422115,0.006977580244887669,0.9902686762160513
2015-01-07,1,0.004552807361098266,0.005049329612514011,-0.0058714469140422115,0.0039026338217464907,0.9906291627359329
2015-01-09,1,0.003891220111506829,0.004285255318325844,-0.005695395139324192,0.0039026338217464907,0.9920080341411032
2015-01-13,1,0.003490417991156477,0.0038205324817694062,-0.00410481745480765,0.006977580244887669,0.9912011940622462
2015-01-15,1,0.0027975278638603957,0.0029960651079337266,-0.005754492915326765,0.006977580244887669,0.990871118203657
2015-01-20,1,0.003103800348242922,0.003328828360461726,-0.00685461477066264,0.005477223362011395,0.9907881898188583
2015-01-22,1,0.0027128436605574143,0.0028615731200898383,-0.008970609080886299,0.004198559735165209,0.9906752168145369
2015-01-26,1,0.002253481486474323,0.0023166775348143123,-0.008970609080886299,0.011997823663115487,0.9893454504068165
2015-01-28,1,0.0018379900829011277,0.0019202675248248438,-0.0032009524558924535,0.016139278424381218,0.9896897851031461
2015-01-30,1,0.0017924154916961663,0.0018802981978462948,-0.0018764709513201714,0.017681400591676173,0.9897656936151153
2015-02-03,1,0.002172089840838776,0.002314623844245432,-0.0032009524558924535,0.017681400591676173,0.9900850658562947
2015-02-05,1,0.0018514871460751333,0.001929118310165649,-0.004770985683259273,0.017681400591676173,0.9896295576967513
2015-02-09,1,0.00256197561905568,0.00275306093554664,-0.005894899138748537,0.014852047866506004,0.9893644224721793
2015-02-11,1,0.003555800894452847,0.003855556531923175,-0.005894899138748537,0.014852047866506004,0.989791925621726
2015-02-13,1,0.0021868738249666733,0.002212100693328557,-0.005250079315966274,0.017867603693526947,0.9888776587581364
2015-02-18,1,0.001821741123113491,0.0018293424210653096,-0.005146768738551606,0.017867603693526947,0.9888633969817323
2015-02-20,1,0.0007850147202185871,0.0009442883741409942,-0.004770985683259273,0.017867603693526947,0.9889340787271633
2015-02-24,1,0.001632377486205183,0.001729513508862608,-0.004770985683259273,0.011490257263964365,0.9906575336216704
2015-02-26,1,0.002036705849530294,0.0020872313311845287,-0.00598085496564175,0.01013546908521245,0.9896641492197212
2015-03-02,1,0.002770326592077217,0.002828385583008009,-0.00598085496564175,0.009985692163855541,0.989741217894704
2015-03-04,1,0.002454512731369595,0.0024845378348223404,-0.007053415709931907,0.009985692163855541,0.9891882023864914
2015-03-06,1,0.002304244486191577,0.0023533396884265795,-0.00598085496564175,0.011490257263964365,0.9879377159624301
2015-03-10,1,0.0014005339535269525,0.0015353751932079495,-0.00598085496564175,0.010216077839703235,0.9885170572022752
2015-03-12,1,0.0015694432329408626,0.0016991557169107447,-0.006337627071899724,0.010216077839703235,0.9866032570641396
2015-03-16,1,0.002170067528307982,0.002246632702599817,-0.006027695339655717,0.009985692163855541,0.9883366838731782
2015-03-18,1,0.002402201960390098,0.002429612820777741,-0.006932248627601783,0.008645148317357616,0.9875521745735232
2015-03-20,1,0.002782157004079833,0.002822533622013881,-0.01002948783641729,0.005489040949739079,0.9862906560644589
2015-03-24,1,0.002646598866737868,0.0026885010362718456,-0.01002948783641729,0.005489040949739079,0.9864015087839693
2015-03-26,1,0.0006446885137998903,0.0008694239072621125,-0.006906134113726249,0.005489040949739079,0.9883534302808872
2015-03-30,1,0.001608439724621305,0.0016767743027714267,-0.006906134113726249,0.0021160037568429364,0.9887276018219853
2015-04-01,1,0.0008189285350492807,0.0009720105454721314,-0.008216206386955645,0.0021160037568429364,0.9881723389325631
2015-04-06,1,0.002403974186381545,0.0024651759237020125,-0.008216206386955645,0.0021160037568429364,0.9889827630439552
2015-04-08,1,0.0021639059951920614,0.0022009861590599473,-0.009084438321456563,0.0016812009978395264,0.9889119518470227
2015-04-10,1,0.003294062582201026,0.003451395853142083,-0.009084438321456563,0.0021160037568429364,0.9904917644074033
2015-04-14,1,0.002869203789292166,0.0029455496388812526,-0.009734359479005254,0.0016812009978395264,0.9902747894300898
2015-04-16,1,0.002032027847105004,0.0020402707346518006,-0.008406732258929673,0.002977705743221595,0.9914724369890745
2015-04-20,1,0.0007274882435571501,0.0009027367900673503,-0.004891646856946794,0.006800132000209671,0.9927613845544232
2015-04-22,1,0.0004581602695258785,0.0006679984051543067,-0.008406732258929673,0.006800132000209671,0.9920672023133145
2015-04-24,1,1.984502971007305e-06,0.0002547508545624982,-0.008202903710780217,0.008365582173374037,0.9911315379517808
2015-04-28,-1,-0.0008107864825913839,-0.0004085217809278387,-0.009395133001210474,0.008365582173374037,0.9905744159699867
2015-04-30,-1,-0.0020312482672320163,-0.0015070207594222156,-0.006495596811676886,0.008365582173374037,0.9921378725176605
2015-05-04,-1,-0.001790284258134296,-0.0012865252234811927,-0.006495596811676886,0.007867811890147288,0.9926256194403663
2015-05-06,-1,-0.0023119102544083454,-0.001752390561859038,-0.006176467918760462,0.007867811890147288,0.992658499991217
2015-05-08,1,0.0001970466463686644,0.0003244390988843218,-0.007611931334779007,0.00224094139688367,0.9922247778966347
2015-05-12,-1,-0.0009449904920319985,-0.0006314207064865245,-0.006858804083208733,0.00825545417243605,0.9917601320792835
2015-05-14,0,-3.387945112478933e-05,0.0001333962628701428,-0.007611931334779007,0.004894042706595498,0.9917445680402411
2015-05-18,1,0.00017911978422443365,0.0003271964335309788,-0.007622650375333561,0.004894042706595498,0.9911827058649281
2015-05-20,1,0.00010004890655305305,0.00020563623521033638,-0.007513374634707693,0.00825545417243605,0.9906382691865194
2015-05-22,1,0.0006597668500619839,0.0007025725570711761,-0.007513374634707693,0.007573157214882943,0.9914148107082698
2015-05-27,1,0.00023815948408523554,0.00034930469658100467,-0.007522080359921331,0.005103117736270101,0.9914307513890617
2015-05-29,-1,-0.0005702512478482218,-0.0003147838221137677,-0.007522080359921331,0.005610737335621079,0.9914064118316105
2015-06-02,1,9.66085222061115e-05,0.00022295633037681706,-0.007770367578812924,0.005610737335621079,0.9901016141499497
2015-06-04,-1,-0.0007564395030711995,-0.0005050325026353672,-0.007770367578812924,0.00888267926145986,0.989939577311761
2015-06-08,-1,-0.001858867493084317,-0.0014659773210241394,-0.007522080359921331,0.012117813585916147,0.9895843674938344
2015-06-10,-1,-0.0011113866247147476,-0.0008000897484689228,-0.007770367578812924,0.010087976694788642,0.9882590319402883
2015-06-12,-1,-0.0010290815448842944,-0.0007587286952205629,-0.007522080359921331,0.01613668727838838,0.9860846193474772
2015-06-16,-1,-0.000847574041005632,-0.0005931388447235254,-0.005551237241695231,0.014973046568738893,0.9871191722228889
2015-06-18,-1,-0.0002941528373799936,-9.78571273984333e-05,-0.005551237241695231,0.014973046568738893,0.9872466022103197
2015-06-22,-1,-0.0010275647991948393,-0.0006960953065887363,-0.004244975246435971,0.014973046568738893,0.9880184994735146
2015-06-24,-1,-0.0018286382593198421,-0.001395992424822524,-0.0036608492614392803,0.014973046568738893,0.9875563656444524
2015-06-26,-1,-0.0014605602330627337,-0.001090664500126402,-0.004244975246435971,0.014973046568738893,0.9876946667232321
2015-06-30,-1,-0.0024695385798438616,-0.001978870281365023,-0.0039135049437741785,0.01668699451604433,0.9877231809270256
2015-07-02,-1,-0.0016600127149640034,-0.001293181573660954,-0.0039135049437741785,0.015909281217348917,0.9886493761000549
2015-07-07,-1,-0.0004316403861362819,-0.0002703358879817469,-0.0039135049437741785,0.011361880671426912,0.9895488800210943
2015-07-09,1,0.00014113179504072104,0.0002519282775093346,-0.0039135049437741785,0.01032271496489747,0.990274887114886
2015-07-13,1,0.0014384662917933677,0.0014578205644340523,-0.004221615158378302,0.00460173821587727,0.9918759852737286
2015-07-15,1,0.0009070309453036774,0.0009701975140347999,-0.005463563671823669,0.005103923958723058,0.9917259040230999
2015-07-17,1,0.0019365702675094468,0.002066312534533725,-0.007507116662977982,0.003908827442422686,0.991870538511913
2015-07-21,1,0.0019827395893800425,0.0021393234798388703,-0.007806126607992078,0.004936920269140449,0.9913899251352044
2015-07-23,1,0.0021399270563453323,0.0023527693602848516,-0.007806126607992078,0.003908827442422686,0.9910617347501777
2015-07-27,1,0.0018297934323363214,0.001972513789949726,-0.00924839107897571,0.003908827442422686,0.9875548204310757
2015-07-29,1,0.002017169440172856,0.0021768243928413232,-0.011842203833369144,0.0018019168842377184,0.9850059038798648
2015-07-31,1,0.001927398403721027,0.0020794362827953423,-0.011842203833369144,0.004936920269140449,0.9836032805939842
2015-08-04,1,0.001821553750773913,0.001984230716678908,-0.011842203833369144,0.004936920269140449,0.9833618212267179
2015-08-06,1,0.0016161387413378687,0.0017977921432476463,-0.010124915295625155,0.005300529014578751,0.9843614103501608
2015-08-10,1,0.001646939491482168,0.0018383522467606142,-0.010124915295625155,0.005300529014578751,0.9830084034544587
2015-08-12,1,0.0016700423951926963,0.0018816602647560264,-0.010655161704652773,0.005338983069084799,0.9828797683820828
2015-08-14,1,0.0011982443720067342,0.001340743090528781,-0.010655161704652773,0.007738980423977785,0.9831006426721673
2015-08-18,1,0.00040973082993644197,0.0004405331198245276,-0.010655161704652773,0.009091216111873586,0.9835132277184537
2015-08-20,-1,-8.180287233131424e-05,-1.8694505840111315e-05,-0.01295618442166498,0.009091216111873586,0.982394031515676
2015-08-24,-1,-0.0031564965627852125,-0.002705172723252277,-0.010655161704652773,0.013646297479382419,0.9848547353963222
2015-08-26,-1,-0.0010121799823851383,-0.0008791329572556664,-0.010655161704652773,0.009167179002946885,0.9867792235510245
2015-08-28,-1,-0.0003804841071453017,-0.0003161157594510247,-0.01295618442166498,0.008342943401641875,0.9866276681784161
2015-09-01,0,-8.263888724069026e-06,4.8251539501665885e-05,-0.01295618442166498,0.009167179002946885,0.986395768626313
2015-09-03,1,0.0006748950504458703,0.0008212987889016695,-0.01295618442166498,0.011727414089778518,0.9853006857387385
2015-09-08,1,0.0008880622018478672,0.0010215711479205864,-0.014510034637529715,0.010171319236619921,0.9846040918644908
2015-09-10,1,0.0002766655459938785,0.00028491226294505214,-0.014510034637529715,0.010171319236619921,0.9851772220109991
2015-09-14,1,0.00045954321380646675,0.0004885515945634335,-0.014510034637529715,0.010548025389708265,0.9847874318879462
2015-09-16,1,0.0004596234752128728,0.0004671681517462239,-0.014510034637529715,0.010548025389708265,0.9839069143340986
2015-09-18,-1,-0.0010593030791784489,-0.0008881178034922904,-0.012568001709214325,0.012738530585847542,0.9839680063954233
2015-09-22,-1,-0.0016677372786686423,-0.0013710549432698182,-0.008276550584840666,0.010731995472940634,0.9853296061340393
2015-09-24,-1,-0.0017934941110474161,-0.0015014583044592558,-0.007145707779940369,0.010731995472940634,0.9859415184316788
2015-09-28,-1,-0.003161433681348671,-0.00269092390332611,-0.005726297369588176,0.012738530585847542,0.9861544754542115
2015-09-30,-1,-0.002493145237807793,-0.0021362095470666884,-0.0059737876284013626,0.013451402276195129,0.9793927679634369
2015-10-02,-1,-0.0013221638705021893,-0.0010838041433280992,-0.009019021361280227,0.009900802227959138,0.9810622771990806
2015-10-06,-1,-0.0021827212370138477,-0.0018628230017454382,-0.0059737876284013626,0.013451402276195129,0.9813023233443735
2015-10-08,-1,-0.0019075344765760796,-0.001637202082332714,-0.009478269724379106,0.013451402276195129,0.9805880229544998
2015-10-12,-1,-0.0015288185316813805,-0.0012760866123731644,-0.012706070394854142,0.011315135907969169,0.9806285909153779
2015-10-14,-1,-0.0019761243449817885,-0.0016997047056890458,-0.01296035697057913,0.011315135907969169,0.9806729606574125
2015-10-16,-1,-0.0005283327405247334,-0.00041508566680748004,-0.014993911443744288,0.0074104610208383945,0.9815772612362144
2015-10-20,-1,-0.0004385720260685414,-0.0003272064008425479,-0.014993911443744288,0.014107173732649553,0.9796092431901037
2015-10-22,-1,-0.0004122737180309655,-0.0003113435145663398,-0.015812698586631684,0.016105822809867068,0.978379752400443
2015-10-26,-1,-0.0003990987893106738,-0.0002780935153443096,-0.015812698586631684,0.015206769844214464,0.9787366450104501
2015-10-28,-1,-0.002162850417627072,-0.001795769555327074,-0.014993911443744288,0.012791360181986646,0.9858421937540984
2015-10-30,-1,-0.0017761502106581344,-0.001495159553875863,-0.014993911443744288,0.012791360181986646,0.9863328743929936
2015-11-03,-1,-0.0005527090318267916,-0.0004054058455785433,-0.014993911443744288,0.0065887095907789985,0.987958688706369
2015-11-05,-1,-0.00127759759301422,-0.001059171562632184,-0.014993911443744288,0.01012753999309323,0.9868221725996453
2015-11-09,-1,-0.0018129459814661265,-0.001566732374124722,-0.014517453114259749,0.01012753999309323,0.9872421789587559
2015-11-11,-1,-0.002443770858862462,-0.0021241221218581646,-0.012618962090408805,0.01012753999309323,0.9879618748125231
2015-11-13,-1,-0.0037897839283048034,-0.003286343286356696,-0.009090384369292267,0.010915131312907143,0.9875351317562048
2015-11-17,-1,-0.002083794725290257,-0.001791207644329518,-0.009090384369292267,0.009615033617708806,0.9886104936096729
2015-11-19,-1,-0.0027205641126046716,-0.0023091620118948007,-0.010487580638278789,0.0065887095907789985,0.9894915750928628
2015-11-23,-1,-0.0027634739374867807,-0.0023732684019064573,-0.008561937857862467,0.010915131312907143,0.9878018172601559
2015-11-25,-1,-0.0018240735249435787,-0.001570523927181387,-0.008561937857862467,0.009615033617708806,0.9885295119730488
2015-11-30,-1,-0.0010548843510777084,-0.0009348296701875204,-0.008561937857862467,0.010656125852322305,0.9881661568958425
2015-12-02,-1,-0.00023698511824527996,-0.0001590512408057214,-0.011028778006379568,0.010656125852322305,0.9876776087084804
2015-12-04,1,0.00026687062224369906,0.00040470095280071894,-0.014242554194711142,0.006174125306208346,0.9875834651522432
2015-12-08,1,0.00032299887982861666,0.0005077939439486628,-0.01451161180912679,0.010656125852322305,0.9867487549562763
2015-12-10,1,0.00031665324798984694,0.0005012493861435331,-0.01451161180912679,0.010656125852322305,0.9868495949556131
2015-12-14,1,9.421051526105003e-05,0.0002506837516164749,-0.01451161180912679,0.01025976457547614,0.9867809174358335
2015-12-16,1,0.0007954182575257229,0.001025360178031191,-0.015543203108761117,0.01025976457547614,0.9860962212829898
2015-12-18,1,0.0004690166540289183,0.0006976585457785828,-0.015372355663215086,0.01025976457547614,0.986302702323394
2015-12-22,1,0.0017814055086656242,0.0021863186739917674,-0.015372355663215086,0.009693576220311612,0.9865250891120281
2015-12-24,1,0.0018381739008472722,0.002234914953471585,-0.017391970637196597,0.009693576220311612,0.9849840651589532
2015-12-29,1,0.0017308829621432175,0.002081811539261732,-0.017391970637196597,0.009364292986907524,0.9845810644952171
2015-12-31,1,0.0012431081864829837,0.0015343466672128087,-0.017391970637196597,0.009693576220311612,0.984442890049996
2016-01-05,-1,-0.00024315225897009212,-0.0001572878368868846,-0.015372355663215086,0.009693576220311612,0.9851313434083339
2016-01-07,-1,-0.00023900121046780166,-0.00017214189237225685,-0.017391970637196597,0.009364292986907524,0.9853145165662144
2016-01-11,-1,-0.0002330094819925367,-0.00016390323320064002,-0.023248642629510437,0.009693576220311612,0.9825703365503637
2016-01-13,-1,-0.0009711447741637274,-0.0009120666954074659,-0.017541133962162433,0.010828409645017703,0.9832285798063469
2016-01-15,-1,-0.0025749441321748145,-0.0021957685755032144,-0.015314698104387937,0.010828409645017703,0.984525379539591
2016-01-20,-1,-0.0020285450539951266,-0.0017740293247274874,-0.01659202581589831,0.01594052964139357,0.9836162907509591
2016-01-22,-1,-0.0009313872637067497,-0.0008445027838690538,-0.01659202581589831,0.014774279937660097,0.9833621056117647
2016-01-26,-1,-0.00174557275017516,-0.0015402079532158607,-0.01316083870047564,0.014774279937660097,0.9845994822183339
2016-01-28,-1,-0.0019384393320413663,-0.0017542330725852338,-0.008971078150279397,0.014774279937660097,0.9849992071890974
2016-02-01,-1,-0.00040981821478088725,-0.00037651502096986306,-0.00975225217466556,0.014774279937660097,0.9854795196965167
2016-02-03,-1,-0.0017538685550253469,-0.001616328794584741,-0.00713634835633779,0.014774279937660097,0.9864671579757636
2016-02-05,-1,-0.0021218865804108855,-0.001959256567994981,-0.0064552411624476495,0.014774279937660097,0.9876380045883602
2016-02-09,-1,-0.0018868135755657845,-0.0017705584173027704,-0.005989422853504239,0.015205316247543687,0.9887945456841645
2016-02-11,-1,-0.0024210341620856672,-0.002169580051825923,-0.006129661470980268,0.015205316247543687,0.9887657226581132
2016-02-16,-1,-0.0018734439712218473,-0.0016949279084829542,-0.0047547443627727545,0.013756338048826332,0.9899844372255684
2016-02-18,-1,-0.002026278173736752,-0.0018156450265091335,-0.0039267667854539,0.013647529430233734,0.9906340295631464
2016-02-22,-1,-0.0017001144124688871,-0.0014692799133306283,-0.004446062398719157,0.009371646863260637,0.9917321075030051
2016-02-24,-1,-0.0012932192490222485,-0.0011197404369050563,-0.005636951399528512,0.009371646863260637,0.9916978192077871
2016-02-26,-1,-0.00024777120062032367,-0.0002170260028844012,-0.005636951399528512,0.009371646863260637,0.991850865783073
2016-03-01,-1,-0.0005053320511403699,-0.0004493114228790979,-0.004873535434136566,0.00808687138866139,0.9925623774455209
2016-03-03,-1,-0.0006144216923987003,-0.0005500836389472946,-0.003993468797036644,0.009371646863260637,0.9915209166814372
2016-03-07,-1,-0.00044406082578902296,-0.0004385379787330694,-0.0045352393694053144,0.009371646863260637,0.9901102795225045
2016-03-09,1,0.00011200001564092596,0.00013265753619284083,-0.004873535434136566,0.007431492450250085,0.9901599637285331
2016-03-11,1,0.0008769640140554008,0.001091063691328762,-0.0045352393694053144,0.007307439266280492,0.9911791192557051
2016-03-15,1,0.0010064251898890889,0.0012524087655716343,-0.0045352393694053144,0.007307439266280492,0.9911466916256197
2016-03-17,1,0.0017634183625022373,0.002108414790099115,-0.0045352393694053144,0.004365881230318882,0.9921701601511999
2016-03-21,1,0.002051125899920396,0.0024536447677923814,-0.003246036677719204,0.004365881230318882,0.9922813151670452
2016-03-23,1,0.0011198293505210058,0.00133655103317916,-0.003246036677719204,0.004365881230318882,0.9921807686716014
2016-03-28,1,0.0012472955820705797,0.001475155552622809,-0.004677067983709589,0.00332934440601826,0.9920573798362975
2016-03-30,1,0.002255308048764776,0.002694959695379762,-0.004677067983709589,0.00332934440601826,0.9918302069884232
2016-04-01,1,0.0029567159157567516,0.0034400012892051497,-0.007438181580813472,0.002433688149752712,0.9912987446125575
2016-04-05,1,0.0012578230564615793,0.0014610063550587497,-0.005666551568115172,0.00332934440601826,0.9927985873050523
2016-04-07,1,0.000165358942683287,0.00018651700644716296,-0.003424841646710837,0.003085874699272683,0.9942047174290514
2016-04-11,-1,-0.0005437736808464573,-0.00042744079259593275,-0.005666551568115172,0.004155028967870025,0.9922150479274701
2016-04-13,1,0.0002764983628221609,0.0003371427422656987,-0.0074010372673620674,0.004155028967870025,0.9920761910848314
2016-04-15,1,0.0003979274261112549,0.00047295967265741475,-0.008564020581677993,0.004155028967870025,0.991216293815683
2016-04-19,1,0.00036324029619178835,0.0004143367497753389,-0.009835774071654663,0.0031665292186943044,0.9900403816795355
2016-04-21,1,0.00019900908900561653,0.00025914930413905316,-0.009724341131300447,0.0031665292186943044,0.9906093755541272
2016-04-25,1,0.0002808169581344122,0.000365548342502533,-0.010030839238003544,0.005273574968925228,0.9899427053518498
2016-04-27,1,0.0005712502984617266,0.0006806655183253733,-0.010030839238003544,0.006691551522324554,0.9899125221481933
2016-04-29,1,5.3706032609448443e-05,0.00012089484086487515,-0.008629042303794287,0.006691551522324554,0.9906545112123
2016-05-03,1,0.0006480423161079229,0.0007763975324035919,-0.008629042303794287,0.005451516419110576,0.9913220658821265
2016-05-05,1,0.0006236792675138741,0.0007449456859998557,-0.008629042303794287,0.006691551522324554,0.9904996910390583
2016-05-09,1,0.0003172661467390584,0.0003821026983638872,-0.006114002667378605,0.005941353639352771,0.9922961731442911
2016-05-11,1,0.000480041765013382,0.000608832608815219,-0.005335507077036171,0.005941353639352771,0.9923206094773098
2016-05-13,-1,-0.00044552623504047646,-0.00041618066703155406,-0.0045610491148866976,0.00833704763249803,0.9897886955733599
2016-05-17,-1,-0.00047504606764439927,-0.00043960946862248184,-0.0045610491148866976,0.00833704763249803,0.9907836596843922
2016-05-19,-1,-0.00040979537316779844,-0.0003513634806853388,-0.005335507077036171,0.00833704763249803,0.9907828371829971
2016-05-23,-1,-0.00013564930828595352,-2.961300229712419e-05,-0.0018682062520691417,0.006691551522324554,0.9916192777752796
2016-05-25,1,6.328605199534116e-05,0.0001648666309294633,-0.0018682062520691417,0.007128768903511579,0.991265971039979
2016-05-27,-1,-0.0008808633495512614,-0.000785333539355627,-0.005335507077036171,0.007128768903511579,0.9883830888452271
2016-06-01,-1,-0.0004049743409142675,-0.00037190911847986233,-0.005335507077036171,0.008068821283363914,0.9868708948162218
2016-06-03,-1,-0.0001995954825181521,-0.00018879341085738154,-0.003244652799446227,0.006251625298298745,0.9876206892389229
2016-06-07,-1,-0.00024557731395323014,-0.00021044712336422595,-0.005562977678562784,0.006251625298298745,0.9865081767489373
2016-06-09,-1,-0.00028475022106870464,-0.000245856565120098,-0.007728815100455659,0.008808565129538213,0.9855519011021301
2016-06-13,1,0.0016154597636119862,0.001810386296770744,-0.010443630231329895,0.005696624519558368,0.9882415840436034
2016-06-15,1,0.0014747828560011036,0.0016813376087635341,-0.006918167370638664,0.006560715552535053,0.9877040291628297
2016-06-17,1,0.0009372037509051327,0.0010385195166219188,-0.010443630231329895,0.006560715552535053,0.9871175362454123
2016-06-21,1,0.0006984727851496004,0.0007220689650967395,-0.010443630231329895,0.006560715552535053,0.9867420668807774
2016-06-23,1,0.001884169037809117,0.002121290239468657,-0.010581684232211251,0.005696624519558368,0.9870080304572453
2016-06-27,-1,-0.0012359211761417866,-0.001008653658767965,-0.007572533828111093,0.005696624519558368,0.9900311051229183
2016-06-29,0,-3.441519380856966e-05,8.823394115966665e-05,-0.009679000501806687,0.0033665244570486455,0.9912880102879483
2016-07-01,-1,-0.0002772809594712824,-0.00012266190616655275,-0.009679000501806687,0.0033665244570486455,0.9913555850199889
2016-07-06,-1,-0.0008637172912432519,-0.0006466039679683849,-0.007572533828111093,0.0033665244570486455,0.9922712546195294
2016-07-08,-1,-0.0005361897378954551,-0.00037879694118933045,-0.0062248382913981295,0.0033665244570486455,0.9930226759832566
2016-07-12,-1,-0.0008568968635872072,-0.0006591159383073073,-0.004714096705592795,0.0033665244570486455,0.993349285396115
2016-07-14,1,0.0007475835276562595,0.000788165034735299,-0.004714096705592795,0.0033665244570486455,0.9936881631118308
2016-07-18,1,0.0004491061954156389,0.0004637949142241479,-0.004098611141027691,0.003973189480291301,0.9942139518257654
2016-07-20,1,0.0003371415765555688,0.0003388666348645128,-0.004098611141027691,0.0038466942041653876,0.9940369303674929
2016-07-22,1,6.2737364891152036e-06,2.8303395766286974e-05,-0.0030521039507030185,0.0038466942041653876,0.9946088071326981
2016-07-26,-1,-0.00014695356183613685,-9.714213542939498e-05,-0.003545497953021138,0.0038466942041653876,0.9945693774126063
2016-07-28,-1,-0.0011927723700137758,-0.0010039037323086115,-0.003545497953021138,0.0038466942041653876,0.9942169142363677
2016-08-01,-1,-0.0006189121257036577,-0.0005494057107553904,-0.0041153709529428975,0.004951240199863888,0.9933598961498663
2016-08-03,-1,-0.0005067180877718304,-0.0004470598473989252,-0.003624036455155442,0.0038466942041653876,0.9937122406235361
2016-08-05,-1,-0.0001042519421483686,-9.000040993854065e-05,-0.003624036455155442,0.004951240199863888,0.9934593700130273
2016-08-09,1,0.0004617009227835133,0.0005666367499267302,-0.005026806563201652,0.00581217325470707,0.9927584725161341
2016-08-11,1,0.0012745055869866902,0.0014922843326041321,-0.007712651934215808,0.0057936720956694426,0.9919965490989542
2016-08-15,1,0.0012664465078393958,0.0014552075404283586,-0.009729065962130962,0.007964041803479194,0.9910990302664707
2016-08-17,1,0.000950051569050503,0.001106705869984126,-0.010151212555194265,0.007964041803479194,0.9908115371365281
2016-08-19,1,0.0011360422980827675,0.0013358818100823431,-0.010151212555194265,0.007964041803479194,0.9904914460792148
2016-08-23,1,0.0016442841031569224,0.001977893059735521,-0.010151212555194265,0.007964041803479194,0.9905439517976052
2016-08-25,1,0.000257574358684202,0.0003381646610069901,-0.007376846686331333,0.00882554037735772,0.9905393706075541
2016-08-29,-1,-3.805150830849075e-05,-3.658610948154935e-05,-0.007376846686331333,0.007964041803479194,0.9905471447304528
2016-08-31,1,6.759987659669673e-05,7.665619218477166e-05,-0.010118611758138444,0.007964041803479194,0.9896981485570248
2016-09-02,1,0.0005847809736704666,0.0006602312137135028,-0.010118611758138444,0.005849557081854277,0.989510496664075
2016-09-07,1,0.0008733205719540239,0.0009941343542348808,-0.010118611758138444,0.003992454641595269,0.9903115706148283
2016-09-09,1,0.0009428217238948223,0.0010802604486280017,-0.006008990076746534,0.003422333598030102,0.9918924802237661
2016-09-13,1,0.00043880312153252664,0.0004807306712987007,-0.006008990076746534,0.0016704442268396626,0.9920149286908648
2016-09-15,1,8.200092105788454e-05,9.0563526536972e-05,-0.004311931819414831,0.0015336142015876272,0.9929617983420036
2016-09-19,1,9.745596660119814e-05,0.00011513831685224192,-0.0038745916206136184,0.0017594027368898527,0.9931656005383969
2016-09-21,-1,-0.0005325388272318818,-0.00043042353634138557,-0.004311931819414831,0.0017594027368898527,0.9929183175683133
2016-09-23,1,0.00047268727414466667,0.0005370286068301046,-0.004180767034805157,0.0029544685440004315,0.991174649896862
2016-09-27,1,0.00011193477034020409,0.00012851631207356484,-0.004180767034805157,0.0029544685440004315,0.9909058670485933
2016-09-29,-1,-0.0007134508111188535,-0.0006213709461936373,-0.0031904651340794736,0.0029544685440004315,0.9919968950023189
2016-10-03,-1,-0.0003802445812925798,-0.00031473938991278524,-0.004180767034805157,0.0029544685440004315,0.9913197935233403
2016-10-05,-1,-0.0007152958455433755,-0.0005801697829908351,-0.0055296795432822985,0.0017594027368898527,0.9912482816474742
2016-10-07,-1,-0.0015326876633382125,-0.0012583809316601168,-0.006805839651008273,0.0017594027368898527,0.9909637646722691
2016-10-11,-1,-0.002232445388876822,-0.0018757121511648685,-0.006805839651008273,0.0038103502003002093,0.9904974775280688
2016-10-13,-1,-0.002123167588714522,-0.0017851256030271454,-0.008010195869276775,0.008513885697906247,0.9894766267548045
2016-10-17,-1,-0.0019748195312388503,-0.0016736206300189164,-0.008010195869276775,0.009992531552029282,0.9889963231180209
2016-10-19,-1,-0.0024909491760509565,-0.0021162235117236834,-0.006805839651008273,0.01479373786073583,0.9885072956071522
2016-10-21,-1,-0.0005359959988001454,-0.0004092808170581549,-0.008010195869276775,0.010634885619991298,0.9903551130196486
2016-10-25,-1,-0.00012109466398724979,-5.197328798931577e-05,-0.006874708877734525,0.010634885619991298,0.9905984673042716
2016-10-27,-1,-0.00017987662539228487,-0.0001103456198213895,-0.006874708877734525,0.010634885619991298,0.9904580328119896
2016-10-31,0,-2.2789838277723605e-05,3.1721359892227825e-05,-0.006048911430735761,0.009936508607726283,0.9914321473340153
2016-11-02,1,0.0006736600240264689,0.000810652084359738,-0.006568559284843527,0.009936508607726283,0.9912677000318779
2016-11-04,1,2.695896574732233e-05,5.7941238638331867e-05,-0.005946861566438762,0.01064981006374406,0.9915168772863225
2016-11-08,-1,-0.00012215224526705747,-0.00012035635531670544,-0.004039523418909392,0.009854252293074975,0.9926349716238987
2016-11-10,1,0.00022242538397358497,0.00028037061374469824,-0.004039523418909392,0.009854252293074975,0.9923882087915525
2016-11-14,1,0.0008508971961392855,0.0010295975193676207,-0.004039523418909392,0.01064981006374406,0.9923629374638225
2016-11-16,1,0.00037425391611491023,0.00037761734385863147,-0.005946861566438762,0.009854252293074975,0.9919679601226575
2016-11-18,1,0.001036314592056812,0.0012064184767097404,-0.004039523418909392,0.006032702592127834,0.9928043420116345
2016-11-22,1,0.0012057847754548589,0.001394987895515876,-0.0038047759494448524,0.004280066694315838,0.9934331087770036
2016-11-25,1,0.0011266256498080017,0.0012750639559232285,-0.0052426191580451425,0.0035289671462758894,0.9925632906711832
2016-11-29,1,0.0014918614097559728,0.0016922221205411796,-0.006602836754693846,0.0029967352322756626,0.9923846616917243
2016-12-01,1,0.0009333246784034349,0.0010463513724006646,-0.005826311382766132,0.0029967352322756626,0.9927274072880427
2016-12-05,1,0.0016011769259654716,0.0018540903393171517,-0.005826311382766132,0.0026407410845691237,0.9931290141740137
2016-12-07,1,0.0013700657173534485,0.001571040784254009,-0.005826311382766132,0.0025078552158734517,0.9934062092037613
2016-12-09,1,0.0017386676472690187,0.0019817616369800684,-0.005392452256786211,0.0024353629706233594,0.9945122531024136
2016-12-13,1,0.0019033861708302722,0.002142815835679454,-0.006185018387817055,0.0016943512948187163,0.9936493673278923
2016-12-15,1,0.0012259736263409886,0.00137346822337487,-0.005247966077746186,0.0024353629706233594,0.994934610804439
2016-12-19,1,0.0009404602089734406,0.0010094087242457184,-0.006185018387817055,0.0016943512948187163,0.9946847779820547
2016-12-21,1,0.0007959058571844047,0.0008364752734065038,-0.006836197393662316,0.0009957001409966377,0.9938737715417422
2016-12-23,1,0.00025798773256286225,0.00028037996626410734,-0.006185018387817055,0.0016943512948187163,0.9943001037491545
2016-12-28,1,0.00015901024227102752,0.0001770907173583766,-0.006185018387817055,0.0016943512948187163,0.9943628520874761
2016-12-30,-1,-0.00011010894124472196,-6.617586382145428e-05,-0.004453109902432289,0.002519970594380773,0.9945932825603039
2017-01-04,1,0.0003562615144990655,0.00040982474517031937,-0.006185018387817055,0.0017977324368095007,0.9938355191307954
2017-01-06,1,0.0005128962021306556,0.0006009200062318204,-0.006185018387817055,0.0031478179809311477,0.993556486015856
2017-01-10,1,0.00018135709531933353,0.00020390057358346254,-0.00567478543885129,0.004268734641496793,0.9936059756482148
2017-01-12,1,0.0005881365580993619,0.0006651037161093686,-0.004331194312457043,0.0049904981642770775,0.9938877595047904
2017-01-17,1,0.0006310593951791382,0.0007087488077701873,-0.004331194312457043,0.004647637860437583,0.9939607271116263
2017-01-19,-1,-8.039331192036766e-05,-2.5748634111823324e-05,-0.002541181035302754,0.006183408146383159,0.9932741611950426
2017-01-23,-1,-0.000797779908483497,-0.0006609115614947833,-0.0005562576797248945,0.006753608111964527,0.9936867581042221
2017-01-25,-1,-0.0005407729169298317,-0.000440621315770105,-0.0005312081584956335,0.006753608111964527,0.9940012600694659
2017-01-27,-1,-0.00040778437644904637,-0.00035010875267663707,-0.0005312081584956335,0.0072947146702838335,0.9940654069154341
2017-01-31,-1,-9.338682140591052e-05,-8.417365026978688e-05,-0.0014138094043011354,0.0072947146702838335,0.9937670580309281
2017-02-02,-1,-0.0005713995619779371,-0.0005086598446619459,-0.0006064856414271203,0.0072947146702838335,0.9939056671146912
2017-02-06,-1,-0.0006136012701946848,-0.0005348130591398457,-0.00017377153658319907,0.0072947146702838335,0.9940524217072004
2017-02-08,-1,-0.0005280859555561106,-0.0004437287601211349,-0.0006064856414271203,0.006586181196681964,0.9940414581795252
2017-02-10,1,1.8763369853679079e-07,3.395802027982146e-05,-0.0006064856414271203,0.004758671387107734,0.995100290616391
2017-02-14,1,8.695362840396037e-05,0.0001160022131698957,-0.0016548133504988593,0.004885369969349115,0.9950366593215766
2017-02-16,1,0.0009487900724847666,0.0010594403069310453,-0.0017496497160660288,0.003941998423422033,0.9959508380488667
2017-02-21,1,0.0009453636729190831,0.0010317153562776475,-0.0057463707147346835,0.0030388892461064554,0.9946102358288721
2017-02-23,1,0.0007526001325367567,0.0007738990274451819,-0.0057463707147346835,0.002021366831503439,0.9948794655408519
2017-02-27,1,0.0009772550460587144,0.001049447907364014,-0.0042474463072721185,0.002021366831503439,0.9950445014899103
2017-03-01,1,0.0007908304670316906,0.0008383824353104879,-0.0022356473604061193,0.0018595250459761572,0.9957036762747506
2017-03-03,1,0.0002950216611858316,0.0003249736596906336,-0.0026199323145101325,0.0018595250459761572,0.9959174456167276
2017-03-07,-1,-0.0001686891419085237,-4.9636556848534714e-05,-0.0036968355501004815,0.0018595250459761572,0.9957935254566315
2017-03-09,-1,-0.00048755706393654584,-0.00032833892201730464,-0.0036968355501004815,0.0023159862378360776,0.9953298382025508
2017-03-13,-1,-0.000515378426899224,-0.0003467411455375683,-0.0036968355501004815,0.0023401231418860636,0.9949966262728911
2017-03-15,-1,-0.0007622741481048766,-0.0005425155093687589,-0.0036968355501004815,0.0021621900869921245,0.9952265658642429
2017-03-17,1,0.0003026558587091217,0.0003157149735662099,-0.0036968355501004815,0.0021621900869921245,0.9947554603224236
2017-03-21,-1,-0.0005656543169898101,-0.0004696881336521336,-0.002402605922136438,0.003148940463861041,0.9958438500640161
2017-03-23,-1,-0.000736599552086671,-0.0006148353543004744,-0.0017780304645982133,0.006305325595480251,0.9954880207261296
2017-03-27,-1,-0.000421776345310252,-0.0003453265498105536,-0.0017780304645982133,0.0064135790676248024,0.9947289251513594
2017-03-29,-1,-0.0005716074974156592,-0.00045952373472896586,-0.0017780304645982133,0.0064135790676248024,0.9948758282940893
2017-03-31,-1,-0.0013105094030314807,-0.0010790686185388897,-0.0012299635665629937,0.007549939498419406,0.9946883480253694
2017-04-04,-1,-0.0019812706077288224,-0.001647967307436455,-0.0011442929723884442,0.007549939498419406,0.9941348398392421
2017-04-06,-1,-0.0020634398829641395,-0.0017446994381198333,-0.0011442929723884442,0.007549939498419406,0.994893687911628
2017-04-10,-1,-0.00139325254468572,-0.0011736206882546362,-0.0011442929723884442,0.004159004247381334,0.9957898586187003
2017-04-12,-1,-0.0009428309075847484,-0.0008096755977957423,-0.0013309075560409295,0.004159004247381334,0.9959449391333689
2017-04-17,-1,-0.0006380185761540118,-0.0005425997853553126,-0.002125564080299446,0.0029890162607888056,0.9961740233067663
2017-04-19,-1,-0.0002514822514494874,-0.00021679990059063093,-0.0030434250236692183,0.0019670493368827,0.9948590426236892
2017-04-21,1,0.00011682169637295707,0.00013911776244771132,-0.0036162514449540346,0.0004077557811508441,0.9944767305133928
2017-04-25,1,0.0011160964099951706,0.0012974935864949683,-0.0036162514449540346,-0.0001747754658723063,0.9944763825501448
2017-04-27,1,0.0008063731168232796,0.0009143104014722036,-0.004464413956071413,0.00023298031527853782,0.9942600229057103
2017-05-01,1,0.0011723208046179566,0.001346844961241615,-0.005851917003283793,0.00023298031527853782,0.9935398043942562
2017-05-03,1,0.000887221554990008,0.0010230775458657249,-0.004464413956071413,0.002339931682977543,0.9930215150180502
2017-05-05,1,0.0012579652205587676,0.0014783768668866584,-0.004464413956071413,0.004075052457599085,0.9926030927843839
2017-05-09,1,0.001543272332046312,0.0018319726407234806,-0.0060034377772085175,0.004075052457599085,0.9913766809735269
2017-05-11,1,0.0009214873736314243,0.001080024922881538,-0.006449842352330717,0.004075052457599085,0.9915090846723027
2017-05-15,1,0.0007870528613106217,0.000935892771925697,-0.006449842352330717,0.006907936679123981,0.9914414018356559
2017-05-17,-1,-0.0004992485746106455,-0.0004768016048670007,-0.004368695331809171,0.00932309730570699,0.9924794043210211
2017-05-19,-1,-0.0012749904447198826,-0.0011310020254368162,-0.004368695331809171,0.010275641154962803,0.9896410328585123
2017-05-23,-1,-0.0011381790036101137,-0.000997806735964333,-0.006449842352330717,0.010275641154962803,0.9892545758471925
2017-05-25,-1,-0.0015503202451972677,-0.0013458597532415653,-0.0077726701909125485,0.010275641154962803,0.9886361013589764
2017-05-30,-1,-0.0017305090827169018,-0.001510205773332696,-0.004368695331809171,0.010845070050474925,0.9886364749958558
2017-06-01,-1,-0.0007760180490806905,-0.0006704848845323287,-0.004368695331809171,0.010392256344306789,0.9891327522716427
2017-06-05,-1,-0.0003523573188017182,-0.00028924137929221686,-0.004368695331809171,0.0026232765186155246,0.9897682305126555
2017-06-07,-1,-0.0007863197708426067,-0.0006966906721526637,-0.004368695331809171,0.0074268831678832034,0.9900781503773836
2017-06-09,-1,-0.0008749093801681517,-0.0007813418654558953,-0.0038961295824700105,0.0074268831678832034,0.9901047153768783
2017-06-13,-1,-0.0006976682340782601,-0.0006121290948977953,-0.0038961295824700105,0.0038637150225317475,0.9903333438327746
2017-06-15,-1,-0.000804971660261384,-0.0006725110715100409,-0.0036122390903717645,0.00637266787708728,0.9902637006380638
2017-06-19,-1,-0.0016992419555415818,-0.0014713913400154549,-0.0036122390903717645,0.004146437791726713,0.9931441912245862
2017-06-21,-1,-0.0024684922732301244,-0.0021419191222082673,-0.0032831263081294824,0.00637266787708728,0.9930423381788389
2017-06-23,-1,-0.003031100260685177,-0.002648660208622101,-0.0032831263081294824,0.007113695107206148,0.9929474291862909
2017-06-27,-1,-0.0029698235958859464,-0.0025699881480027095,-0.003412885747817898,0.00637266787708728,0.9927881436426768
2017-06-29,-1,-0.0024721168427546732,-0.0021344351348765046,-0.003412885747817898,0.00637266787708728,0.9930668332571749
2017-07-03,-1,-0.002383927190433275,-0.0020713982797920653,-0.003412885747817898,0.007113695107206148,0.9920042984131491
2017-07-06,-1,-0.0020626938221850076,-0.0018233790308179619,-0.0017285969770864632,0.006958753178084743,0.9928281101851099
2017-07-10,-1,-0.002113380040925799,-0.0018793321652504544,0.00021598438383783794,0.006958753178084743,0.9924532835684586
2017-07-12,-1,-0.0014250177684046001,-0.0013077118510380994,-0.00021565808900437128,0.006958753178084743,0.9928476642421019
2017-07-14,-1,-0.0005903115865186768,-0.0005870887788919546,-0.002243285662057024,0.006552150063704145,0.9926175976511593
2017-07-18,-1,-0.0005000131926066425,-0.00047604178677755583,-0.0021509752528916307,0.00916262761079686,0.9924161774018163
2017-07-20,1,3.5480450574203605e-05,0.0001378983571511336,-0.004641536646544873,0.006552150063704145,0.9930748871865621
2017-07-24,0,-3.849303064749451e-05,4.807648008665639e-05,-0.004641536646544873,0.006114743666641402,0.9931613306529348
2017-07-26,-1,-0.00045126669280781624,-0.0004351156199525724,-0.0020627580360180787,0.0074509261944048655,0.9936218927843186
2017-07-28,0,-2.3787751462177038e-05,5.342580539097514e-05,-0.004641536646544873,0.007298257275833248,0.9935117487465471
2017-08-01,1,0.0004386383852231364,0.0005648650883087985,-0.004641536646544873,0.005944206366498971,0.9943661332043349
2017-08-03,1,0.0005103719713735791,0.0006544431979741212,-0.004641536646544873,0.005944206366498971,0.9940932030834305
2017-08-07,1,0.0007518094650871395,0.0009337216364431748,-0.004641536646544873,0.005096725593213658,0.9940908692495959
2017-08-09,1,0.0007392661509004525,0.0009241047193236072,-0.003715005740517907,0.005096725593213658,0.9941709885145243
2017-08-11,1,9.494894300517433e-05,0.0001398347987861995,-0.0034267458080282655,0.005096725593213658,0.994891114417902
2017-08-15,1,0.0002138588689329771,0.000270197492201478,-0.0026906311907005194,0.0047138079813375654,0.9953785206643323
2017-08-17,1,0.0002499670251206728,0.00032342764095881157,-0.0026906311907005194,0.005686704957834788,0.9949739307077473
2017-08-21,1,0.00021994917387386587,0.00029510061953174125,-0.0026906311907005194,0.0047138079813375654,0.9949548379015141
2017-08-23,1,0.0003929282516358094,0.00047836588958420916,-0.004606100728915464,0.0038675013652782124,0.9935258881453111
2017-08-25,1,0.00022540658526247896,0.0002775751344525013,-0.0034267458080282655,0.0038675013652782124,0.9939695068605002
2017-08-29,1,0.00016692167020802395,0.00019280312396757721,-0.004606100728915464,0.0038675013652782124,0.9934520329473784
2017-08-31,1,0.00036490062995365085,0.0004358910962427288,-0.00807553684688692,0.003136889796946759,0.9932339904728104
2017-09-05,1,0.0003719011944375146,0.00044553795632015975,-0.00807553684688692,0.0029348376169754335,0.9930313977015053
2017-09-07,1,0.0005208193371421005,0.0006265532664439213,-0.00826403058569846,0.0034117947096853583,0.9919902785742469
2017-09-11,1,0.000851320293445419,0.0010086944336185784,-0.011945588720310376,0.0025317142457846904,0.9885761988412186
2017-09-13,1,0.001166753777268244,0.001379780543326177,-0.013583839469395835,0.0017599561497818365,0.9873198383095702
2017-09-15,1,0.0014727227806422714,0.0017688526646199693,-0.015001477122467351,0.0012890249477147484,0.9867770129134276
2017-09-19,1,0.0010384124756582461,0.0012789414358101532,-0.013583839469395835,0.001382814912363957,0.9876468642998999
2017-09-21,1,7.882259934889553e-05,0.00020809913040100136,-0.012704774175986401,0.0017599561497818365,0.9891043184543867
2017-09-25,1,0.00033034729027791367,0.0004818581317486291,-0.012704774175986401,0.001382814912363957,0.9884738638874723
2017-09-27,1,0.00010959014433398418,0.0002359632015220354,-0.012704774175986401,0.0016229794211447541,0.9875181311876797
2017-09-29,-1,-0.00014562266209185664,-4.873181315964069e-05,-0.016011857250316723,0.0016229794211447541,0.9846806927997527
2017-10-03,-1,-0.0003157607554378887,-0.0002448231844110596,-0.016011857250316723,0.002263980986510567,0.983861099784508
2017-10-05,-1,-0.00025572113457364865,-0.00018314799779161524,-0.016011857250316723,0.002263980986510567,0.984463826593131
2017-10-09,-1,-0.003776853208703206,-0.0033699213615903598,-0.013462583569572431,0.002271940230245716,0.9880713173113237
2017-10-11,-1,-0.005005593184459761,-0.004436795679338216,-0.00799901205942601,0.011574300010009196,0.9861623530313827
2017-10-13,-1,-0.00536183270208407,-0.0047708478181400955,-0.004768228460040557,0.013205418910448404,0.9851244476510874
2017-10-17,-1,-0.0054398006438009,-0.0048355998741397635,-0.00799901205942601,0.013205418910448404,0.9849311427773477
2017-10-19,-1,-0.005524318980401738,-0.004903629925854855,-0.006163899623600641,0.014738992954514462,0.9845121099549224
2017-10-23,-1,-0.004595845662241142,-0.004134597454215398,-0.005792767229169142,0.014738992954514462,0.9854999900799479
2017-10-25,-1,-0.0030122233414147095,-0.002768794334957642,-0.005792767229169142,0.011982090209046498,0.9868962913227244
2017-10-27,-1,-0.005986075026561852,-0.005361406254159595,-0.005792767229169142,0.011982090209046498,0.9881330557962738
2017-10-31,-1,-0.00497138122907955,-0.004464112064583234,-0.005792767229169142,0.011982090209046498,0.9880653578493233
2017-11-02,-1,-0.004196742730059743,-0.003805104894157884,-0.0071307702543751995,0.012366972008473693,0.9875970267384433
2017-11-06,-1,-0.004198938555995601,-0.0038312768976639915,-0.0071307702543751995,0.012366972008473693,0.9872974547456282
2017-11-08,-1,-0.0031397527156293453,-0.0028443324048077643,-0.009716072632676487,0.009886536366398059,0.9883333151371747
2017-11-10,-1,-0.002258414759446908,-0.0020292137330961183,-0.009716072632676487,0.006946537861436895,0.9882681075926574
2017-11-14,-1,-0.0028926040252274542,-0.0025498335021659816,-0.00811328695178773,0.006946537861436895,0.9885637684279689
