JNU-Tangyin/eata/results/Batch4_SP500/Batch4_SP500-MDT.csv
Date,Action,Predicted_Q25,Predicted_Q75,Actual_Q25,Actual_Q75,RL_Reward
2010-12-14,0,0.0,0.0,-0.0027990325435393168,0.004977961160226504,0.9935221397036543
2010-12-16,0,0.0,0.0,-0.002701373939561012,0.004977961160226504,0.9929182161365245
2010-12-20,0,0.0,0.0,-0.0027990325435393168,0.004483351969434006,0.9937770329585343
2010-12-22,0,0.0,0.0,-0.0020812251175634433,0.006000964561933887,0.9933741795118182
2010-12-27,0,0.0,0.0,-0.002701373939561012,0.009227357641925275,0.9917179873166392
2010-12-29,0,0.0,0.0,-0.0037584370011250904,0.009227357641925275,0.9917051722503328
2010-12-31,0,0.0,0.0,-0.0037584370011250904,0.009227357641925275,0.9915032214635086
2011-01-04,0,0.0,0.0,-0.0037394372024292504,0.00807857094660931,0.9916826308720935
2011-01-06,1,0.0014739365630229463,0.0018135733841749642,-0.002093366986972881,0.01169725902702888,0.9920301328377181
2011-01-10,1,0.0024103151375900614,0.002833295524492436,-5.85761891466807e-05,0.01169725902702888,0.9920577997880032
2011-01-12,1,0.0017503141733417648,0.0020055427881003687,-0.004699551767632891,0.01169725902702888,0.9911155547510646
2011-01-14,0,0.0,0.0,-0.005464468692699587,0.010971090840143397,0.990534781928526
2011-01-19,0,0.0,0.0,-0.004274059017542546,0.010971090840143397,0.9907437358437117
2011-01-21,1,0.001108984744366889,0.0011622799326104934,-0.004274059017542546,0.00978586316640615,0.991368936050859
2011-01-25,1,0.0013696579079678208,0.0014245119299842138,-0.005464468692699587,0.008083165200750997,0.9908820384299105
2011-01-27,1,0.0012216412058967977,0.00128747912304115,-0.004274059017542546,0.009452775273554162,0.9907211488720564
2011-01-31,1,0.0011488082891822505,0.0011649799516840402,-0.005464468692699587,0.009452775273554162,0.9902956178856286
2011-02-02,1,0.0014915632162086985,0.0016082090949162773,-0.006238268459711883,0.009953368098300962,0.988708502772229
2011-02-04,1,0.0020216656702803757,0.0021860902699849223,-0.00761689414302743,0.008139000178049267,0.9889182797799849
2011-02-08,1,0.0022601988854406476,0.002465542324239076,-0.00761689414302743,0.009953368098300962,0.9886090971572475
2011-02-10,1,0.00154687320442343,0.0016447326632913555,-0.012953192755269193,0.009953368098300962,0.9871624965287381
2011-02-14,1,0.0017199234796040229,0.0018362628306691276,-0.013868691676176926,0.006221878578501776,0.9867824216314677
2011-02-16,1,0.0023021349118072455,0.0025042019934576583,-0.014966630093273247,0.006221878578501776,0.9859846577178872
2011-02-18,1,0.0028816769202516606,0.0031361456710251733,-0.014966630093273247,0.00987408132820629,0.9860675166011538
2011-02-23,1,0.0012304646558560207,0.0012719992608233386,-0.012830216981669964,0.00987408132820629,0.9881775077337568
2011-02-25,1,0.001424382100180185,0.0014562112060658879,-0.012830216981669964,0.011012210740161935,0.9879937590162947
2011-03-01,1,0.0009508000067925894,0.0009649651234503168,-0.01094237556305273,0.01217266022015033,0.9876679378845241
2011-03-03,1,0.0010931982515086157,0.001105545007026986,-0.007659839836075246,0.011012210740161935,0.9898537021773924
2011-03-07,1,0.0002837769060865581,0.00039227223937076403,-0.007425826496857701,0.011012210740161935,0.9902454422960489
2011-03-09,1,0.0005707757891401709,0.0006627368164630225,-0.007425826496857701,0.010187890858743887,0.9907747490595689
2011-03-11,-1,-0.00027890174773013575,-0.00012803948722390753,-0.004677875335108253,0.010638198825418246,0.9920766656021546
2011-03-15,-1,-0.0003296708162695809,-0.00021950881402145749,-0.0008240455359451639,0.011020353126981935,0.9922372881492537
2011-03-17,-1,-0.0004543039278344445,-0.0003528434251507426,-0.0008240455359451639,0.01217266022015033,0.9925571599179898
2011-03-21,1,0.0003812037358837067,0.0003946144811421533,-0.002446567175573604,0.010190604987683887,0.9926480166816907
2011-03-23,1,0.00027252941354414455,0.00027455163676631784,-0.002003296704485579,0.01117817259304923,0.9924384589649713
2011-03-25,1,0.0001184510269977783,0.0001823881899813442,-0.003140024770735247,0.010190604987683887,0.9927972025580748
2011-03-29,1,0.0008947873995494785,0.0009342621487884241,-0.003140024770735247,0.011275879953455324,0.9925014934876264
2011-03-31,1,0.0006853052263419781,0.000685437597636082,-0.003140024770735247,0.011275879953455324,0.9924440569409
2011-04-04,1,0.0006640752198017186,0.0006677859686418108,-0.003140024770735247,0.013465529530304282,0.9918601347136802
2011-04-06,1,0.0006668151457650238,0.000672503343014566,-0.002645054713486833,0.013465529530304282,0.9921972459560743
2011-04-08,1,0.00020240170515536086,0.0002903933545176354,-0.002645054713486833,0.013465529530304282,0.9919255837509035
2011-04-12,0,0.0,0.0,-0.003140024770735247,0.011281126358923463,0.9914304233364275
2011-04-14,0,0.0,0.0,-0.0036141323295455783,0.009943160651760468,0.9917701923197737
2011-04-18,1,1.3539730163098732e-05,0.00014417838969227082,-0.002645054713486833,0.009943160651760468,0.992455724765007
2011-04-20,0,-0.00012369952419583486,5.4456782843725156e-05,-0.003562432743385189,0.009943160651760468,0.9921873639540785
2011-04-25,-1,-0.00041335244302218824,-0.0001850314336685194,-0.007338510467261141,0.009943160651760468,0.9908928633928923
2011-04-27,1,0.0006319058841830895,0.0007434680241548102,-0.009542626534873932,0.007241738452553088,0.991029542986773
2011-04-29,1,0.00014947256075389058,0.00031931412374511004,-0.009542626534873932,0.007241738452553088,0.9909609682626831
2011-05-03,1,0.0008570983591147732,0.0009099942500692659,-0.011422791505302211,0.00723445463616937,0.9903386880680182
2011-05-05,1,0.0012946966363179553,0.001347342814807463,-0.014112459840475492,0.00723445463616937,0.9893786623688602
2011-05-09,1,0.0011246682757932265,0.0011426624582763579,-0.014112459840475492,0.005531023823288757,0.9897202276775734
2011-05-11,1,0.0009264621402004136,0.0009287662651986943,-0.013110697629941158,0.004664306827433967,0.990880763971657
2011-05-13,1,0.0013344514907217627,0.001438605504434012,-0.01465932860956614,0.0034857242141638554,0.9902523511970326
2011-05-17,1,0.0014876495608706739,0.0015697690855321453,-0.01465932860956614,0.002320089259805627,0.9898327985677939
2011-05-19,1,0.001316220415772467,0.0013740344229958932,-0.01465932860956614,0.002320089259805627,0.9899292842127652
2011-05-23,1,0.00032127350424270137,0.00037353650786852864,-0.012558156573858417,0.0034857242141638554,0.99128697528655
2011-05-25,-1,-0.0006442479358993141,-0.0004700338439384379,-0.008196584755659247,0.0034857242141638554,0.9919356381790921
2011-05-27,-1,-0.0006275092851214503,-0.0004547852233618836,-0.008196584755659247,0.003539031012585036,0.9919147796425302
2011-06-01,-1,-0.0013675755232593423,-0.0010806628299304508,-0.008196584755659247,0.003539031012585036,0.991487161515128
2011-06-03,0,0.0,0.0,-0.006332047658423455,0.007899179576011595,0.9913244415145082
2011-06-07,0,0.0,0.0,-0.006332047658423455,0.007899179576011595,0.9903766504786939
2011-06-09,-1,-0.17260374626909164,-0.17260374626909164,-0.006332047658423455,0.007899179576011595,0.8535687385413064
2011-06-13,0,0.0,0.0,-0.006332047658423455,0.011247072937769685,0.9895908753389294
2011-06-15,0,0.0,0.0,-0.00547389202148532,0.011247072937769685,0.9903548104770041
2011-06-17,-1,-0.0018829016235308474,-0.0016076003898148456,-0.008487692560747762,0.006302025779749462,0.9895665741991203
2011-06-21,-1,-0.0016085260645353474,-0.0013491238619818303,-0.00932062749842694,0.006302025779749462,0.9894726202943644
2011-06-23,-1,-0.0013984991718791185,-0.0011801965534485347,-0.009667918670017964,0.011247072937769685,0.9886650516128936
2011-06-27,-1,-0.0015624960014813663,-0.0013216311578165265,-0.01565234056542108,0.011247072937769685,0.9882738649795779
2011-06-29,-1,-0.001482220065230771,-0.001294259391947053,-0.013339817861770839,0.005683402927625926,0.9891892369443338
2011-07-01,-1,-0.00020626203418387044,-0.00017985255535272337,-0.01565234056542108,0.003153747920120577,0.9887562811441211
2011-07-06,-1,-0.001466204515077402,-0.0012649388577115562,-0.01565234056542108,0.003295262516509611,0.988799425150684
2011-07-08,-1,-0.0015561590869194858,-0.0013546802073180304,-0.016651869341893985,0.005297723730290076,0.986429845351668
2011-07-12,-1,-0.001252435963035027,-0.0011231655117326647,-0.016651869341893985,0.005297723730290076,0.9836687576710427
2011-07-14,-1,-0.0006824832986087887,-0.0006730161738919418,-0.01945338361477531,0.011001707063517562,0.980504345569974
2011-07-18,0,0.0,0.0,-0.018863889592870796,0.014063204410369482,0.9806359638383039
2011-07-20,0,0.0,0.0,-0.018863889592870796,0.012237374637123934,0.980777422221485
2011-07-22,-1,-0.0013328829295745346,-0.001181438356666649,-0.027680801678736423,0.010786102645432215,0.9798633229527665
2011-07-26,-1,-0.0028293037910707914,-0.002498848771734727,-0.027680801678736423,0.012237374637123934,0.9773863321525673
2011-07-28,-1,-0.0033875507048911867,-0.002971246930497399,-0.027680801678736423,0.014617828808195059,0.9759786410988349
2011-08-01,0,0.0,0.0,-0.01419552281703049,0.01708501843984737,0.97672061127688
2011-08-03,0,0.0,0.0,-0.007084863696902143,0.01708501843984737,0.977479240363868
2011-08-05,0,0.0,0.0,-0.007476444788844824,0.01708501843984737,0.979035087171914
2011-08-09,-1,-0.007132390119201016,-0.0062166105974077665,-0.006166717859804171,0.01708501843984737,0.9796629564849154
2011-08-11,-1,-0.007155098024369148,-0.00628082089838428,-0.007476444788844824,0.014511423303981247,0.9808004679637237
2011-08-15,-1,-0.006462159673632194,-0.005662948585450421,-0.007476444788844824,0.011442126586538367,0.981647032817961
2011-08-17,-1,-0.0054540223053043315,-0.004804641914269889,-0.007476444788844824,0.012394697198881177,0.981870324988314
2011-08-19,-1,-0.006019424181821097,-0.005348822896584726,-0.007476444788844824,0.014248572644898181,0.9818000283024907
2011-08-23,-1,-0.003382988602310597,-0.003027841512790873,-0.012193835270999822,0.014248572644898181,0.9831134014237
2011-08-25,-1,-0.00300105360660325,-0.002697407972377842,-0.01913794625647173,0.012394697198881177,0.9836824443377334
2011-08-29,-1,-0.001876175878996098,-0.0017099266997349881,-0.01913794625647173,0.014248572644898181,0.9831010465541314
2011-08-31,-1,-0.0013807317819656553,-0.001282962887026728,-0.021459291945688144,0.012473291884741571,0.9827948029987033
2011-09-02,-1,-0.0017747931468401774,-0.0016645540441486669,-0.023509621163331607,0.012473291884741571,0.9807894843896382
2011-09-07,-1,-0.00022596672304937826,-0.00011073159192176018,-0.023509621163331607,0.011208011620175642,0.982080873473857
2011-09-09,-1,-0.0024747285344794458,-0.0022957636258140197,-0.021183700730733696,0.012473291884741571,0.9831806881814513
2011-09-13,-1,-0.00144723442182369,-0.0014121796762039396,-0.021183700730733696,0.014583070548464121,0.982756149262385
2011-09-15,-1,-0.0006778200592546808,-0.0006126412440595576,-0.021183700730733696,0.014583070548464121,0.9831869407404004
2011-09-19,-1,-0.00041915268810447043,-0.0002528684325676647,-0.020022500936544275,0.01382387441087273,0.983678939997847
2011-09-21,-1,-0.000511430146669857,-0.00035995730573461704,-0.01272655225924962,0.013889262567769662,0.9842434464380295
2011-09-23,-1,-0.0007759487213451679,-0.0006239235750327334,-0.010279526881780889,0.01641713221698779,0.9840620492010989
2011-09-27,1,0.0007420675254762258,0.0011018717059493733,-0.01272655225924962,0.013493891237989821,0.984505312371416
2011-09-29,1,0.0004998304537217487,0.0008380785615571549,-0.010279526881780889,0.013889262567769662,0.9840286367854405
2011-10-03,-1,-0.0014567118422427446,-0.0013853582154595492,-0.008577560580510023,0.013889262567769662,0.9848472891278278
2011-10-05,-1,-0.0006907346659730594,-0.0005161229595955156,-0.010279526881780889,0.0168602300888182,0.9825551575738248
2011-10-07,1,0.0002935782741214575,0.0006344786313214241,-0.011330237018831563,0.022813702473244064,0.9816972642678444
2011-10-11,1,0.0009099508375773173,0.0013442795502949677,-0.011186825552387638,0.0203168364718635,0.9824922550985505
2011-10-13,1,2.4672221269852915e-05,0.0002678219708453287,-0.01544844827106987,0.0203168364718635,0.9810540083099502
2011-10-17,-1,-0.00038240310826393934,-0.00023030583738348838,-0.01248735349705641,0.0203168364718635,0.9811044709270944
2011-10-19,1,0.0009285439502751768,0.0012638491848591242,-0.015753289973925996,0.01725253762050324,0.981813180055166
2011-10-21,0,0.0,0.0,-0.015753289973925996,0.013978337841961962,0.9824780279924935
2011-10-25,1,0.0008528727534186804,0.0011495336233427744,-0.015474266214171764,0.01725253762050324,0.9816432176023371
2011-10-27,1,0.0018124214118838996,0.0022153378992077885,-0.020019689524485858,0.013978337841961962,0.9818194509325514
2011-10-31,1,0.0016761365038821172,0.0020653276149022446,-0.015474266214171764,0.01725253762050324,0.9818934884743412
2011-11-02,1,0.0008921148269751906,0.0011476445368005105,-0.01248735349705641,0.01725253762050324,0.9826053018924565
2011-11-04,1,0.0011560759438858188,0.0014332545714729242,-0.013909486680576363,0.01725253762050324,0.979850194171262
2011-11-08,1,0.0017502995199548757,0.00211130569930145,-0.013909486680576363,0.013940344532807248,0.9801427129456335
2011-11-10,0,0.0,0.0,-0.013909486680576363,0.01706005515151894,0.9793739318642002
2011-11-14,0,0.0,0.0,-0.014748587167054414,0.01449302305603702,0.9800176709261301
2011-11-16,0,0.0,0.0,-0.012027657991045167,0.01449302305603702,0.9811931733888649
2011-11-18,0,0.0,0.0,-0.009235804123314355,0.01449302305603702,0.9814738504243806
2011-11-22,0,0.0,0.0,-0.006237529380090393,0.018876837313618354,0.9821673205515629
2011-11-25,1,0.0010073462849477318,0.0012689398647266125,-0.0030334467557979017,0.019396834137375647,0.9828279943294767
2011-11-29,1,0.0018251218032678267,0.002190505128189798,-0.004794811141735131,0.018876837313618354,0.9838951636131826
2011-12-01,1,0.002953799776213576,0.003456576211255457,-0.004794811141735131,0.018876837313618354,0.9848401801794218
2011-12-05,1,0.0025574096824782424,0.003012316848910088,-0.004794811141735131,0.01449302305603702,0.9886846979767937
2011-12-07,1,0.0025123634467867813,0.0029157753899533103,-0.004794811141735131,0.015201679291408155,0.9887503203207231
2011-12-09,1,0.002262984924886375,0.002641799944456533,-0.004650644622013466,0.012134809590152566,0.9906128188283577
2011-12-13,1,0.0020616430932890277,0.0024275347193458505,-0.004650644622013466,0.012134809590152566,0.990855316688641
2011-12-15,1,0.0017377521943676341,0.0020338074935456084,-0.005103790226607451,0.012134809590152566,0.9904471427147005
2011-12-19,1,0.0014289977693376468,0.0016712967720901373,-0.0030560991646683103,0.012134809590152566,0.990849828923552
2011-12-21,1,0.0021513677848552506,0.002447880252537959,-0.005103790226607451,0.010249622475970518,0.9917541163786553
2011-12-23,1,0.0024079300855431173,0.0027191325746247982,-0.005188708626540935,0.010249622475970518,0.9917189550770087
2011-12-28,1,0.0017044585905719935,0.0018855495677848073,-0.005188708626540935,0.010249622475970518,0.9914037382276548
2011-12-30,1,0.0016502461877301868,0.0017849275544070302,-0.007574303744420167,0.00764626379088339,0.9916282478450372
2012-01-04,1,0.0012356616398575733,0.0012771236035558887,-0.005785084601749611,0.00764626379088339,0.9912363768035792
2012-01-06,1,0.0017860607595999612,0.0019224807254612,-0.005785084601749611,0.009174367322890328,0.9912718525984326
2012-01-10,1,0.0017636760416614367,0.0019056597645115217,-0.005785084601749611,0.009174367322890328,0.991562323353819
2012-01-12,1,0.0011074759200940627,0.0011088599575344883,-0.005785084601749611,0.009174367322890328,0.9909944407059219
2012-01-17,1,0.0018983400879297235,0.002100986157032404,-0.007909123444944289,0.009229001617036586,0.9896678822663125
2012-01-19,1,0.001632887744353164,0.001795587872234324,-0.007909123444944289,0.009229001617036586,0.9891048721990079
2012-01-23,1,0.0021063726060933357,0.0023629999872447315,-0.008142145790165449,0.008990284520060083,0.9889776451360031
2012-01-25,1,0.0025184962700222652,0.002833123122031273,-0.01152609946921778,0.007774586806029332,0.9882930771753816
2012-01-27,1,0.0016690449547231395,0.0018399148881334195,-0.009214086904818949,0.007774586806029332,0.989031053477352
2012-01-31,1,0.0016353450045428174,0.0018442239137843892,-0.009586128614921575,0.007774586806029332,0.9891806294420837
2012-02-02,1,0.001460229906337764,0.0015706219814233362,-0.009586128614921575,0.006734437840074274,0.9900970040562426
2012-02-06,1,0.0018939073035895918,0.002078208506066688,-0.009586128614921575,0.006109109921355609,0.9901047239221878
2012-02-08,1,0.0019280446828021224,0.0021377699511018534,-0.009586128614921575,0.006381531781709137,0.9896209852856815
2012-02-10,0,0.0,0.0,-0.009493339992549876,0.006381531781709137,0.9903350682117376
2012-02-14,0,0.0,0.0,-0.007124679976843914,0.006381531781709137,0.9909788481756745
2012-02-16,0,0.0,0.0,-0.007124679976843914,0.006857691523353356,0.9902996584692919
2012-02-21,0,0.0,0.0,-0.005435447078429646,0.006381531781709137,0.9916168852697212
2012-02-23,1,0.00011246358435002733,0.00017830291293097878,-0.0042276703766670675,0.006381531781709137,0.9922223024647653
2012-02-27,-1,-0.0005022401973058171,-0.00030941303103490666,-0.004348090683529233,0.006857691523353356,0.9911325107263109
2012-02-29,-1,-0.0005809021193666073,-0.0003864707897762745,-0.004348090683529233,0.00272840853132989,0.991432779636945
2012-03-02,-1,-0.0005828981294949192,-0.0004031287319666665,-0.005238164226513842,0.00272840853132989,0.9913880652885657
2012-03-06,-1,-0.0007406794852516891,-0.0005506217534321695,-0.005238164226513842,0.008138265238147098,0.9909032949839574
2012-03-08,-1,-0.0007215309906485201,-0.0005125522308352934,-0.007061225606223792,0.00272840853132989,0.9907023073325654
2012-03-12,0,0.0,0.0,-0.01023719200235329,0.00272840853132989,0.9899839701053843
2012-03-14,0,0.0,0.0,-0.01023719200235329,0.008138265238147098,0.9902817331830034
2012-03-16,1,0.0004114502958843171,0.00044948230384536387,-0.010844514012500113,0.0010264975088321116,0.990479382144659
2012-03-20,0,0.0,0.0,-0.010844514012500113,0.003032532170653763,0.9903148044317394
2012-03-22,0,0.0,0.0,-0.01023719200235329,0.003032532170653763,0.9906054415219759
2012-03-26,0,0.0,0.0,-0.010844514012500113,0.0002666016883315921,0.9918171000793239
2012-03-28,0,0.0,0.0,-0.01033169838545887,0.0013386105159424644,0.9922694102195742
2012-03-30,0,0.0,0.0,-0.01033169838545887,0.009039647057023658,0.9911338567730643
2012-04-03,0,0.0,0.0,-0.008647844487681498,0.007838823862520645,0.9916316856303663
2012-04-05,0,0.0,0.0,-0.008647844487681498,0.007838823862520645,0.9920627381591716
2012-04-10,0,0.0,0.0,-0.0026447494811473386,0.007838823862520645,0.9928672293588724
2012-04-12,0,0.0,0.0,-0.0032589958804073605,0.00495907809101101,0.9932580170926455
2012-04-16,0,0.0,0.0,-0.0032589958804073605,0.00495907809101101,0.9936739166469669
2012-04-18,0,0.0,0.0,-0.0032589958804073605,0.0037995492486597423,0.9941237059971988
2012-04-20,0,0.0,0.0,-0.0034683523987519,0.0037995492486597423,0.993025403863507
2012-04-24,0,0.0,0.0,-0.0034683523987519,0.00495907809101101,0.9917153189793586
2012-04-26,0,0.0,0.0,-0.0046924589979509945,0.007400040728678374,0.9913531894935429
2012-04-30,-1,-0.0018875307203671944,-0.0016334507089025238,-0.005009812570945004,0.00495907809101101,0.9921468141152142
2012-05-02,-1,-0.001454484759030655,-0.0012856407091172742,-0.006373886125998975,0.004422659618162389,0.9915048443112762
2012-05-04,-1,-0.0019494938818099335,-0.0016949336394947198,-0.007107133551275336,0.004053375022129207,0.9911559802859569
2012-05-08,-1,-0.0020918980632073903,-0.0017968077674765325,-0.007107133551275336,0.0077281155286937275,0.9900055003412643
2012-05-10,-1,-0.0020758332560779774,-0.0017682421015500285,-0.007107133551275336,0.007570751427257024,0.9898916953938912
2012-05-14,-1,-0.0025116291546060723,-0.00214066711148084,-0.006578524937105024,0.0077281155286937275,0.9892190240941328
2012-05-16,-1,-0.0015705898444727234,-0.001380834829751554,-0.009478384808297852,0.008348225597421098,0.9883995732153558
2012-05-18,-1,-0.0026804495057790147,-0.00240935707936169,-0.006578524937105024,0.008348225597421098,0.9889430354215049
2012-05-22,-1,-0.0028212292941405337,-0.002516080512548674,-0.0053671832310867905,0.008348225597421098,0.990039977638849
2012-05-24,-1,-0.0021699248680864076,-0.001981791126348431,-0.006578524937105024,0.009245023867264526,0.9895255169533278
2012-05-29,-1,-0.0018154658926092609,-0.0016517101635593087,-0.009478384808297852,0.008348225597421098,0.9892282261069418
2012-05-31,-1,-0.0016626932542089113,-0.0015480450741563348,-0.006578524937105024,0.009245023867264526,0.9894462125742145
2012-06-04,-1,-0.0024588425939383145,-0.0022600517195195046,-0.000656846492152467,0.011484151269828746,0.9882864751340349
2012-06-06,-1,-0.001667687052901354,-0.0015589442688937428,-0.004306784744563299,0.009983036140717624,0.9893111170600387
2012-06-08,-1,-0.001188771318150319,-0.0011311188677187729,-0.008956314622238575,0.009983036140717624,0.9892507487689929
2012-06-12,-1,-0.0006158438167646013,-0.0005957119034033272,-0.0080256038009879,0.009245023867264526,0.9902222650496959
2012-06-14,0,0.0,0.0,-0.007463853220234694,0.008308233420993853,0.9908370106941826
2012-06-18,0,0.0,0.0,-0.007463853220234694,0.009983036140717624,0.9897628469528712
2012-06-20,0,0.0,0.0,-0.007463853220234694,0.008308233420993853,0.9901800432647943
2012-06-22,0,0.0,0.0,-0.010030467204033795,0.007766435706875166,0.9898277555556895
2012-06-26,0,0.0,0.0,-0.009488176416623147,0.007766435706875166,0.9903064751387388
2012-06-28,0,0.0,0.0,-0.009488176416623147,0.007766435706875166,0.9892153905768222
2012-07-02,0,0.0,0.0,-0.009488176416623147,0.005343920164044306,0.9898776542334327
2012-07-05,0,0.0,0.0,-0.009433621622813108,0.005343920164044306,0.9901827647808941
2012-07-09,0,0.0,0.0,-0.007452154886745534,0.005343920164044306,0.9899115991317736
2012-07-11,0,0.0,0.0,-0.006582948402778917,0.008936121984001918,0.9894592752334418
2012-07-13,0,0.0,0.0,-0.006582948402778917,0.008936121984001918,0.9892499553935802
2012-07-17,1,0.0008260421229447233,0.0009188232446813124,-0.006582948402778917,0.0050386840996982755,0.9907883681027037
2012-07-19,1,0.001031164901729757,0.0011792231435841353,-0.006582948402778917,0.0050386840996982755,0.9907093180046666
2012-07-23,-1,-7.334961299450537e-05,-6.432394239363275e-05,-0.0026278842869922967,0.01000235632086024,0.9910268087887063
2012-07-25,-1,-0.00031760033211691114,-0.000272547278047567,-0.004262993724476141,0.01000235632086024,0.9907832727393481
2012-07-27,1,0.0010855117575976501,0.0012033233027542462,-0.0060971983861478705,0.007160605548295548,0.9922257536757393
2012-07-31,1,0.0014710792773371256,0.0016672237351489354,-0.004723568670026771,0.0055264554135868935,0.9929927014598546
2012-08-02,1,0.0006895027978474743,0.0007459205691363426,-0.004087622769116449,0.007160605548295548,0.9928783080015968
2012-08-06,1,0.0014870720434404165,0.0016866080680294406,-0.004087622769116449,0.007160605548295548,0.9934621210263119
2012-08-08,1,0.0025433956054403805,0.002940825082783029,-0.00751431392008303,0.007160605548295548,0.9929137804619534
2012-08-10,1,0.002365612166813154,0.0027279302563079973,-0.004573435269986636,0.006187102923552365,0.9933090895674338
2012-08-14,1,0.0019460524924099405,0.002226597612383736,-0.004573435269986636,0.006265398697573181,0.9933327847010692
2012-08-16,1,0.002518170969642199,0.0029206250148240912,-0.004573435269986636,0.010243766215343087,0.9921206654291808
2012-08-20,1,0.0028850196656598406,0.0033057959613478306,-0.005005624679668188,0.006267118003117068,0.9925948905618197
2012-08-22,1,0.00211621219933972,0.0024222900990708337,-0.003170739992315086,0.008241062664489655,0.9933085568060517
2012-08-24,1,0.0021117562368187528,0.002413772041430759,-0.002974393687045239,0.008515740806462991,0.993549179065557
2012-08-28,1,0.0015328143156433278,0.0017105534520230246,-0.003749002422276113,0.008515740806462991,0.9928821525248389
2012-08-30,1,0.0011889775111580327,0.0012863667921250322,-0.003749002422276113,0.008608230373623231,0.9927752673450824
2012-09-04,1,0.002153875754586511,0.0024214177623020873,-0.003749002422276113,0.008608230373623231,0.9931623065274849
2012-09-06,1,0.0021613840857947113,0.0024025806694783092,-0.003676011559379395,0.008608230373623231,0.993725607916553
2012-09-10,1,0.002078002610257086,0.0023253815639534573,-0.003962219243267512,0.009681706743396828,0.992850583949174
2012-09-12,1,0.0016955631848448738,0.0018503817555162165,-0.006226033713994636,0.009681706743396828,0.9909866692467381
2012-09-14,1,0.0025638893218772893,0.0028138501533281745,-0.006226033713994636,0.008029834499854817,0.9921316168037452
2012-09-18,1,0.002274458454363641,0.002480698662032296,-0.006226033713994636,0.008608230373623231,0.9917944337910894
2012-09-20,1,0.0027462475025606813,0.0030588207795797335,-0.00849755515449594,0.008608230373623231,0.9914583987082279
2012-09-24,1,0.003040828169260718,0.003384557581086612,-0.009437808578484926,0.009681706743396828,0.9898560795047071
2012-09-26,1,0.0022410879883854734,0.0024602460245769847,-0.010634238550621723,0.009681706743396828,0.9895793893477383
2012-09-28,1,0.0023835378752629457,0.0026278581437090627,-0.010634238550621723,0.007301284153683264,0.9899134613916192
2012-10-02,1,0.002621461311938589,0.002891656459231601,-0.010634238550621723,0.007515198758053629,0.9895110714973923
2012-10-04,1,0.0026044723552960305,0.0028559970885673313,-0.010634238550621723,0.005614855065756633,0.989711470093457
2012-10-08,1,0.0026252814140271708,0.002872927119040925,-0.012551407840052101,0.005614855065756633,0.9887409125283391
2012-10-10,1,0.0009673437596666071,0.0009685586035022533,-0.007724545019245588,0.005614855065756633,0.9899792485801756
2012-10-12,1,0.0011319638615426542,0.0011477676369530162,-0.007724545019245588,0.0055758265021869455,0.989848799277977
2012-10-16,1,0.0014626417982859996,0.0015434425408669588,-0.011041465511080692,0.004608610637006252,0.989837706149578
2012-10-18,1,0.0010685549298459207,0.0010956274815551437,-0.007724545019245588,0.0062250757965734965,0.9896365287962018
2012-10-22,1,0.00016193074805553165,0.0002863752515535001,-0.006109327480394174,0.0062250757965734965,0.9904335187649342
2012-10-24,-1,-0.0009133128257350587,-0.0006425329718502518,-0.006109327480394174,0.009054091270013862,0.9903942813602784
2012-10-26,-1,-0.000312890945290326,-0.00015197411016818917,-0.006715903681132667,0.009054091270013862,0.9903793557025612
2012-11-01,1,0.00015623378366992418,0.0002494008505281935,-0.00844142560906684,0.0062250757965734965,0.9906726574446036
2012-11-05,1,0.00016410564693808383,0.00024260206238459705,-0.00844142560906684,0.0062250757965734965,0.9908783413310347
2012-11-07,-1,-0.000597099488583825,-0.0004130051134614562,-0.0063290128657763015,0.0062250757965734965,0.9923074837963367
2012-11-09,-1,-0.0007050343160021631,-0.000522205695488821,-0.0048594561883361625,0.0062250757965734965,0.9927583742094133
2012-11-13,-1,-0.0006147308835733076,-0.00045663730480546247,-0.0037331071594125845,0.004590114078301381,0.9932634427109516
2012-11-15,-1,-0.0009936979141285263,-0.0007756876833793984,-0.0062299769360455795,0.004590114078301381,0.9931401459798744
2012-11-19,-1,-0.0007510626481933832,-0.00053186118588278,-0.0062299769360455795,0.005452692921832428,0.993217009927534
2012-11-21,0,-7.082894166299616e-05,5.184084597214839e-05,-0.007920747878033674,0.004596987451301305,0.9936876780591466
2012-11-26,1,0.0003512833512697086,0.0003911124711000921,-0.007920747878033674,0.004106906630149346,0.9936051314519152
2012-11-28,0,-0.00011370658677607812,1.2856142873178891e-05,-0.007920747878033674,0.004322269281483083,0.9934239411931376
2012-11-30,-1,-0.0007183838691976174,-0.0005222444350380072,-0.007969091302166631,0.005243075405302512,0.9929435098805244
2012-12-04,-1,-0.0010534477205890512,-0.0008074290064727367,-0.007969091302166631,0.007238809585248179,0.9913810810877774
2012-12-06,-1,-0.0009132000571735951,-0.0006476195949985239,-0.007969091302166631,0.007238809585248179,0.9913791000965337
2012-12-10,-1,-0.00026810388995224444,-0.0001422858361900075,-0.007969091302166631,0.007238809585248179,0.9911957720135487
2012-12-12,-1,-0.0004417735151366228,-0.00028688014180619823,-0.007969091302166631,0.009517034488938394,0.99050553968487
2012-12-14,-1,-0.0017372921170103728,-0.0013791040759996707,-0.0034303146324608322,0.009517034488938394,0.9907810453605035
2012-12-18,-1,-0.001064260420778719,-0.000775789950199501,-0.005132990737890419,0.007677940047083813,0.9905972017754135
2012-12-20,-1,-0.00036146957176005695,-0.00022701378448673824,-0.002602840250959932,0.011203233070892977,0.9901891314317075
2012-12-24,-1,-0.001184745030478634,-0.0009594427789943412,-0.001377667188213969,0.011633932545880124,0.9901134189474984
2012-12-27,-1,-0.0014981989701182597,-0.0011993244412302297,-0.0007740492951637557,0.011633932545880124,0.9907354936182284
2012-12-31,-1,-0.0016526614336142059,-0.0013691365694701446,0.00016014181696062516,0.011633932545880124,0.9913141431144754
2013-01-03,-1,-0.0002927181528583458,-0.00019449034782801402,-0.0007740492951637557,0.010893142962777092,0.9933743233942085
2013-01-07,1,0.00021682977794086893,0.0002547258518945127,-0.0011903286563017179,0.010893142962777092,0.9930551699757096
2013-01-09,0,-1.3866153492917912e-05,6.193102471995407e-05,-0.001473265953413316,0.010893142962777092,0.9929870588833857
2013-01-11,1,0.0005601917078747245,0.0005615742757309075,-0.001473265953413316,0.008220705156477607,0.9933953149397575
2013-01-15,1,0.0009562928696237665,0.001053499599231126,-0.0023839524864662192,0.008220705156477607,0.9934608221819233
2013-01-17,1,0.0012155942991455976,0.0012870678574828033,-0.0015468291298058746,0.0069680037157983194,0.9948263071790032
2013-01-22,1,0.001761174598470448,0.001921623829754373,-0.0029221329598599884,0.0038350524238610975,0.9931455934822137
2013-01-24,1,0.001580071504475701,0.0016998957073163987,-0.0023839524864662192,0.0033774700883595675,0.993867842043984
2013-01-28,1,0.0014597483561831198,0.0015584319508002657,-0.0029221329598599884,0.0038350524238610975,0.9928089859942328
2013-01-30,1,0.0018145691292027874,0.0019904739292203894,-0.0029221329598599884,0.005818796631143519,0.9921645602048546
2013-02-01,1,0.0019681209766900807,0.002174669138324564,-0.0029221329598599884,0.005603397110253571,0.992302018084578
2013-02-05,1,0.0017505448269957606,0.0019056495084776187,-0.0023839524864662192,0.005603397110253571,0.9929028183225214
2013-02-07,1,0.001716529107408802,0.0018754536070249282,-0.0026211044318529254,0.005603397110253571,0.9926547781189354
2013-02-11,1,0.002454489859100861,0.0027783535265359137,-0.0032682099295901763,0.005603397110253571,0.991997001778783
2013-02-13,1,0.0021185625734001863,0.0023837704521653303,-0.0032682099295901763,0.005603397110253571,0.992226488928099
2013-02-15,1,0.0022851939881685913,0.0025759159734194312,-0.00659438756070122,0.005603397110253571,0.9912948920066251
2013-02-20,1,0.0010491490989494412,0.0011967376811898636,-0.0032682099295901763,0.006831149992208664,0.9937199642927327
2013-02-22,1,0.000635930954405291,0.0006943922643673019,-0.0032682099295901763,0.006938449207367605,0.9934074209844304
2013-02-26,1,0.0004844680857991454,0.0005301990475412906,-0.0032682099295901763,0.009338837312959262,0.9932950021972916
2013-02-28,1,0.0011209664808888775,0.0012731724402094183,-0.0032682099295901763,0.006938449207367605,0.9936474264969847
2013-03-04,1,0.0013825997741292607,0.0015824242636197042,-0.0036914766748624983,0.009345983090008787,0.9932088164687731
2013-03-06,1,0.0016954712312886875,0.0019444778681475764,-0.0048217006679052744,0.006938449207367605,0.9934502992800398
2013-03-08,1,0.0008434532682658774,0.0009096498624609246,-0.0048217006679052744,0.006938449207367605,0.9930233760109698
2013-03-12,1,0.0012158470651704397,0.0013468661134655724,-0.0039687261713064964,0.008471984188560065,0.993156247363271
2013-03-14,1,0.001469338979378081,0.0016625874609750334,-0.005877533314674201,0.009345983090008787,0.9924037395425789
2013-03-18,1,0.0007421809400665905,0.0008140101068764007,-0.0039687261713064964,0.009345983090008787,0.9917844488847214
2013-03-20,1,0.0008684905866751841,0.0009342949149094462,-0.0064606464780162486,0.009178356522250365,0.9910640086804905
2013-03-22,1,0.0007865583030091739,0.0007977569759633996,-0.0064606464780162486,0.009270916951170329,0.9910115277245437
2013-03-26,1,0.0012341560936717834,0.0012938399975128746,-0.0064606464780162486,0.009270916951170329,0.9915265385132089
2013-03-28,1,0.0015638185263617084,0.0016989866657450483,-0.007636566312481946,0.009446567617551565,0.9907896112332208
2013-04-02,1,0.0016625017463614234,0.001802762903299052,-0.007636566312481946,0.009446567617551565,0.9908394813285918
2013-04-04,1,0.0012374779416541156,0.0012915994147860157,-0.0075474270035132025,0.010186966938110754,0.9903582866060354
2013-04-08,1,0.00043489014048117547,0.0005011803368061321,-0.004827320631014014,0.010186966938110754,0.9910168398089408
2013-04-10,1,0.0009787860478125813,0.0009820178030452104,-0.004827320631014014,0.010209088725126745,0.9907724742331072
2013-04-12,1,0.0006189507251877354,0.0006806612006650424,-0.0036351062058043748,0.009494785784218439,0.9915375112914299
2013-04-16,1,0.0005746156390132259,0.0006068327210485968,-0.0013359556731928142,0.010641983295391459,0.9922781341441386
2013-04-18,1,1.206260417818244e-05,8.973621820963421e-05,-0.0004750026410246641,0.010641983295391459,0.9927921740395084
2013-04-22,1,0.0003025679482110417,0.0003494214014041013,-0.0004750026410246641,0.010641983295391459,0.9931252484545691
2013-04-24,1,0.0005288977930627407,0.0005699049396593827,-0.0004750026410246641,0.010652843956071212,0.9907913852788706
2013-04-26,1,0.00012741569848370558,0.00024155184230862915,-0.0008215920482119179,0.008877707894078306,0.9918527244299138
2013-04-30,1,0.00011451248570200514,0.00024253807762137763,-0.0008215920482119179,0.00917680862502215,0.9917132356845684
2013-05-02,1,0.0009143333196048496,0.0009239987553825031,-0.0016503647284248676,0.0067004639865614855,0.9915856962416522
2013-05-06,1,0.0009069039430744559,0.0009172862644879208,-0.002904634933207862,0.00917680862502215,0.9902800978143105
2013-05-08,1,0.0015298723971093916,0.0015956868819758175,-0.0048796231563380974,0.007155062656990836,0.9904557753569911
2013-05-10,1,0.0012928049377078767,0.0012971029842298427,-0.0048796231563380974,0.010540604636310203,0.9900462190203861
2013-05-14,1,0.0019765621298951166,0.002101847165673726,-0.0077574353996936836,0.0058830616247858136,0.990030089537006
2013-05-16,1,0.0015606435104408998,0.0016196594609832703,-0.0052385593698110085,0.010566832153832093,0.9894787114250568
2013-05-20,1,0.0010966471204386097,0.0011460507202507753,-0.00886216251692368,0.011275444511127247,0.9885831064670222
2013-05-22,1,0.0004786049784403009,0.0006181595393859171,-0.009465933373126175,0.01044029491787774,0.9901765910189595
2013-05-24,0,-8.398637557172333e-05,0.0001358087620301476,-0.011342876917343302,0.011275444511127247,0.9883713713537495
2013-05-29,1,0.0003466227653798105,0.00047815442173014663,-0.011342876917343302,0.01044029491787774,0.988784675438585
2013-05-31,1,7.317844711558975e-05,0.0002145954990040303,-0.009465933373126175,0.01044029491787774,0.9893995452497905
2013-06-04,1,0.00030904585192707937,0.00041531457941014027,-0.008880024861902782,0.01044029491787774,0.990214095727507
2013-06-06,1,0.0005489804737810726,0.0006060543306641065,-0.00884019815510545,0.011178845808049244,0.9900253957478198
2013-06-10,1,0.0005923466413558011,0.0006481886406963235,-0.00884019815510545,0.00822513565138595,0.9902646813066185
2013-06-12,1,0.0006529571811737839,0.0006655370491936156,-0.006267824137359051,0.011178845808049244,0.9899859255995399
2013-06-14,1,0.0014950367518240825,0.0016294120359934753,-0.006401383040742127,0.00822513565138595,0.9908109774034396
2013-06-18,1,0.0014795524086874952,0.0016159963634183748,-0.005448931650911576,0.0082550741842623,0.9909365919700031
2013-06-20,1,0.0006252883914437631,0.0006459772824217087,-0.0035274458913406937,0.0082550741842623,0.9919732569715725
2013-06-24,1,0.0008571879155121491,0.0009103861840023761,-0.0018011837772935473,0.0075280536919415395,0.9937561392259865
2013-06-26,1,0.0010449556696276135,0.0011258742272662122,-0.0035274458913406937,0.0075280536919415395,0.9935182030798725
2013-06-28,1,0.0005875503738622851,0.0005996540141591514,-0.0035274458913406937,0.0075280536919415395,0.9935040852411682
2013-07-02,1,0.0007116872586172453,0.0007340196018672084,-0.0035045086999066356,0.006200200587781698,0.9939557120881539
2013-07-05,1,0.0010853821040273208,0.001174026750878879,-0.0035045086999066356,0.0055985402140360414,0.9945053502652312
2013-07-09,1,0.001128269689068553,0.0012118769882797564,-0.0042457522892500816,0.0055985402140360414,0.9942608146063772
2013-07-11,1,0.001579627449586812,0.0017185095152973287,-0.0042457522892500816,0.0055985402140360414,0.9944423955907372
2013-07-15,1,0.0008919543761021656,0.0008932391121907681,-0.0042457522892500816,0.0055985402140360414,0.9941292141772207
2013-07-17,1,0.0010818370531498782,0.00110023012048939,-0.004648358302986329,0.0055985402140360414,0.9944441599340117
2013-07-19,1,0.001099813554766105,0.0011056020845468552,-0.006918575195597918,0.004710311872811215,0.9936204504657596
2013-07-23,1,0.0013804396037312861,0.0014392279385616762,-0.007204804910474362,0.004110806232007012,0.9926670745575068
2013-07-25,1,0.0012555663474835554,0.0013009346084673734,-0.007093830847487028,0.004110806232007012,0.9925161825805753
2013-07-29,1,0.0012456356209660459,0.0013023670473495867,-0.008079613431111554,0.0037747017498303745,0.9919219219581756
2013-07-31,1,0.0009474317978983255,0.0009552321031582183,-0.009322991218958429,0.0037747017498303745,0.9915128393174257
2013-08-02,1,0.0009846846445699152,0.0009953630138108682,-0.008079613431111554,0.003952431849615885,0.9918770277835295
2013-08-06,1,0.0009811679944725068,0.0009855176283032926,-0.008079613431111554,0.0055686103372576965,0.991183300371806
2013-08-08,1,0.0008596587654149569,0.0009127538006010425,-0.008079613431111554,0.0055686103372576965,0.9911987087060551
2013-08-12,1,0.0003936606753394169,0.0004994125719040557,-0.007194342835798505,0.006565934714733622,0.991523562621014
2013-08-14,1,0.00042858993965782393,0.0005159461443284645,-0.008155103608861668,0.0055699825182588284,0.9915931033480272
2013-08-16,0,-3.538779917890768e-05,9.129414982300921e-05,-0.00454928893575633,0.00707867523880573,0.9923305724905029
2013-08-20,0,-0.00010354617762740485,2.0295558337226694e-05,-0.0030612898057174967,0.00707867523880573,0.9934096632339139
2013-08-22,1,0.00033830117257558636,0.0004032920191771209,-0.004137985810480412,0.0055699825182588284,0.9938291042565877
2013-08-26,-1,-0.0006321363035337852,-0.00044065303865506705,-0.0025966512589311987,0.0055699825182588284,0.994356359245868
2013-08-28,-1,-0.0013055449102457564,-0.0010037602532261007,-0.0025966512589311987,0.0055699825182588284,0.9944536817169836
2013-08-30,-1,-0.0008782479215960844,-0.0006553699088480663,-0.0025966512589311987,0.005180248663490858,0.9944553077197622
2013-09-04,-1,-0.0005337041032625154,-0.0003467241881498402,-0.0025966512589311987,0.003125897228376716,0.9956645014292413
2013-09-06,-1,-0.0005096550284170301,-0.00031847326842284645,-0.0030074517636312077,0.003125897228376716,0.9955533705162818
2013-09-10,-1,-0.0007250277030051894,-0.0004808426488433522,-0.005562379531104828,0.0024950861694037936,0.9952857268305407
2013-09-12,-1,-0.0008424318818520048,-0.000597268928624995,-0.005041413175183329,0.00480534363198464,0.9940912908661721
2013-09-16,-1,-0.0005332461319701394,-0.0003300404558566917,-0.005041413175183329,0.00480534363198464,0.9937348405449103
2013-09-18,-1,-0.0006656251142316689,-0.0004423456814084129,-0.005562379531104828,0.005263973203812638,0.992599843507044
2013-09-20,-1,-0.0009185501792231131,-0.0006714924330859825,-0.005233405381707717,0.007242781910155859,0.9917482832436749
2013-09-24,-1,-0.0008402178920288821,-0.0006341601879216282,-0.0025582410500966514,0.007242781910155859,0.9918050296844643
2013-09-26,-1,-0.0011070447659995522,-0.0008677449438836709,-0.0019757858850067336,0.011894752215927458,0.9914873395936126
2013-09-30,-1,-0.0004187523421121597,-0.0002991802597240062,-0.002476562611670557,0.011894752215927458,0.9916414370700465
2013-10-02,-1,-0.00016854666615956422,-8.725714832266522e-05,-0.003184389630114538,0.013636295254306655,0.9907607379507383
2013-10-04,1,4.3095538833112196e-05,7.359258116706063e-05,-0.003184389630114538,0.013636295254306655,0.9909167810380645
2013-10-08,-1,-0.0008525282863662855,-0.0007026617615725863,-0.0024797937289385875,0.013636295254306655,0.991484996151185
2013-10-10,1,0.000155229319963168,0.00017651974957527347,-0.002690975731453417,0.008176686307725297,0.992811577406153
2013-10-14,1,0.0003591411820852778,0.0003700575419531774,-0.002690975731453417,0.008044920446189088,0.992961457643841
2013-10-16,1,0.0004405086982982155,0.00045067892902966514,-0.002690975731453417,0.00550664883656046,0.9938945288514821
2013-10-18,1,0.0008494403073399363,0.0008906773168148641,-0.002960682131395811,0.00550664883656046,0.9940139827947255
2013-10-22,1,0.000684852513255031,0.0006884072080957363,-0.003606965927901728,0.00550664883656046,0.9937260896276178
2013-10-24,1,0.001154065484662245,0.0012378941499984436,-0.00430642703313908,0.005087410199384796,0.9934995757031375
2013-10-28,1,0.0012134818558059092,0.001309908399476799,-0.005085364251057138,0.00550664883656046,0.9931495382585231
2013-10-30,1,0.001230194165088634,0.0013213993424089892,-0.00430642703313908,0.004064045839960927,0.9943254719058683
2013-11-01,1,0.0005804579698241194,0.0006055399297742409,-0.003606965927901728,0.004064045839960927,0.9947314992851739
2013-11-05,1,0.0007252435830750805,0.0007642571518448873,-0.00430642703313908,0.004064045839960927,0.9942466832453408
2013-11-07,1,0.000780570490024813,0.0008264319242084382,-0.00430642703313908,0.004064045839960927,0.9936372592325635
2013-11-11,1,0.000831339070767609,0.0008469819707309116,-0.005085364251057138,0.0036705495912461505,0.9934922689124914
2013-11-13,1,0.001124136309059957,0.001170490275142823,-0.006875886049080147,0.002349949092934418,0.9922924163751031
2013-11-15,1,0.0011974795811478265,0.0012606327257511606,-0.006875886049080147,0.0036705495912461505,0.9925906383693107
2013-11-19,1,0.0006246602188351246,0.0006615224150762353,-0.006283467161504557,0.004343808639083657,0.9920393326300352
2013-11-21,1,0.00020595842318986868,0.000280844353713704,-0.006283467161504557,0.004343808639083657,0.9923257569098347
2013-11-25,1,0.0004248278927101404,0.0004602066495552013,-0.0057900436654059915,0.004343808639083657,0.9925428766019434
2013-11-27,1,0.0005956845643609447,0.0006011274755074071,-0.0057900436654059915,0.004343808639083657,0.9924686068612516
2013-12-02,1,0.0008308941450881002,0.0008758607766885509,-0.0057900436654059915,0.004343808639083657,0.9926623630695358
2013-12-04,1,0.00039703390376757367,0.00041287137976025117,-0.004707391180325812,0.005340894393018568,0.992361827791222
2013-12-06,1,0.0010984743177160795,0.0011917927155778892,-0.004707391180325812,0.008279834223287172,0.9921921263470206
2013-12-10,1,0.0007738312365417507,0.0008542660264893796,-0.0031846550362674493,0.009340884166178006,0.9909256976175062
2013-12-12,1,9.10292844364775e-07,1.501806528412477e-05,-0.0015669300733511407,0.010071871113349748,0.9912879785598203
2013-12-16,1,0.0004515279535288306,0.00048491693751812737,-0.0016633199268109018,0.010071871113349748,0.9917397866600068
2013-12-18,1,0.001000406881037929,0.001111443630113545,-0.0028872654207425163,0.009208368620910965,0.9923958065602331
2013-12-20,1,0.0009808606727217623,0.0010759112749994082,-0.002417815678462142,0.009208368620910965,0.9928363654482414
2013-12-24,1,0.0011986575083331513,0.001318222213187793,-0.0037061721726574454,0.007560093168598939,0.9915019345999879
2013-12-27,1,0.0012205727309788123,0.0013544173033232473,-0.0037061721726574454,0.007560093168598939,0.9913647126352364
2013-12-31,1,0.0014023272461602511,0.0015784288406732528,-0.004640759514218472,0.010071871113349748,0.9903096243247456
2014-01-03,1,0.0015040954145358876,0.0016689812155206854,-0.008839076453045784,0.007560093168598939,0.9892170733053454
2014-01-07,1,0.002272596494799638,0.0025261035296174723,-0.01195401212219079,0.0037170659497300033,0.9880673339143308
2014-01-09,1,0.0025897883567635276,0.0028506513406583384,-0.008839076453045784,0.0037170659497300033,0.9892046199934836
2014-01-13,1,0.0017543473593861485,0.0018767169437646928,-0.007552391846886704,0.004659927627620637,0.9899382792128416
2014-01-15,1,0.001733478338250426,0.0018704480632199501,-0.007552391846886704,0.004659927627620637,0.9899641448489569
2014-01-17,1,0.0013922111641612106,0.0014504644519844484,-0.008952685154759084,0.004204936809615466,0.9896763089811932
2014-01-22,1,0.0009774855576669304,0.000995257323484718,-0.008952685154759084,0.006593522170959128,0.9894466964786577
2014-01-24,1,8.551464544908163e-06,0.00014098573944155453,-0.004597547440179917,0.009185755464101091,0.9907087211593687
2014-01-28,1,8.93088786886047e-05,0.00018789857688015273,-0.003926419935835167,0.009185755464101091,0.990560028241151
2014-01-30,1,0.00015924229630365715,0.00024684177484605833,-0.0011822994317073018,0.009313462449564186,0.9905600346913421
2014-02-03,-1,-0.0013421765353197896,-0.0010870373621580034,-4.358500312905077e-05,0.010705450032736357,0.991184424599352
2014-02-05,-1,-0.0008029496132194727,-0.0006031944497765305,9.158412369116969e-05,0.008940000914326889,0.9933231316114342
2014-02-07,-1,-0.00038955605777917093,-0.0002707048998892786,9.158412369116969e-05,0.008421516379022088,0.9940581665793682
2014-02-11,1,0.0001093154493629142,0.0002022262469332931,-0.0003028495287415744,0.00680058518091897,0.9945711820711118
2014-02-13,1,7.236547959305599e-05,0.00018216164995593626,-0.002673060404680192,0.00680058518091897,0.9939393740940398
2014-02-18,-1,-0.00024121520535267836,-8.573840690500673e-05,-0.0007767920512466405,0.008421516379022088,0.9938621322842329
2014-02-20,1,2.329421760707427e-05,0.00016052564284198782,-0.002673060404680192,0.00680058518091897,0.9944416938177352
2014-02-24,1,0.00024460818478354974,0.0003568962415205348,-0.003912113000128285,0.00615374596256899,0.9937395331413981
2014-02-26,1,0.00034783473884010335,0.000456014394755079,-0.003912113000128285,0.006706164956213898,0.9932503136184858
2014-02-28,1,0.000670050451194432,0.0007040153833716074,-0.003912113000128285,0.0052155068803243975,0.9932694668570792
2014-03-04,1,0.0003381240955215898,0.00045836921726465383,-0.0032877010211365596,0.0052155068803243975,0.9930669352995228
2014-03-06,1,0.0004067814294845869,0.000439413632364968,-0.0032877010211365596,0.006405789454695136,0.9926227472088925
2014-03-10,1,0.000714113286876077,0.000740091737181789,-0.0051673384319522436,0.006405789454695136,0.9922301399064446
2014-03-12,1,0.0005831502775721167,0.0005984323791565917,-0.005898829448544566,0.006736677309490083,0.9919002136117531
2014-03-14,1,0.000356514428333404,0.0003675850799566094,-0.010435921689393826,0.006736677309490083,0.9908977860448475
2014-03-18,1,0.001270962415669418,0.0013407929241392774,-0.011638082533091123,0.005325802831922713,0.9905646603566716
2014-03-20,1,0.0013913825924369663,0.0015004816233077291,-0.011638082533091123,0.006736677309490083,0.9905863649511829
2014-03-24,1,0.0007121926700671973,0.0007327296692021953,-0.010260860864312226,0.006814348153732969,0.9910013867052115
2014-03-26,1,0.001287543462858308,0.0013970609316155116,-0.010260860864312226,0.006583292345002922,0.9917909196102939
2014-03-28,1,0.00137771739055582,0.0014871143871201422,-0.010260860864312226,0.006583292345002922,0.9923459827733795
2014-04-01,1,0.0016819101593515615,0.0018253974412958613,-0.010260860864312226,0.004682687606345046,0.9930301755327838
2014-04-03,1,0.0018320130325739253,0.001986206577379142,-0.010260860864312226,0.0026685336046830916,0.9926436463268694
2014-04-07,1,0.001628347843471645,0.0017781027920264858,-0.008088778348022505,0.005212586568933716,0.9932770543252846
2014-04-09,1,0.0015165185993304309,0.0016506787232056918,-0.0035290398216577855,0.0030962632036125835,0.9940938339757331
2014-04-11,1,0.0004026566098428393,0.000412033077397747,-0.0005587256344419322,0.006638031408564484,0.9946080116286525
2014-04-15,1,0.0015726226045202748,0.001698861663231182,-0.00107097013345472,0.006638031408564484,0.995589706749382
2014-04-17,1,0.0013586218789961922,0.0014178215593637009,-0.0023270958768346643,0.006638031408564484,0.9948782903848192
2014-04-22,1,0.001081870751209787,0.0011084553164275909,-0.0023270958768346643,0.005230832923454237,0.9947790641741489
2014-04-24,1,0.0009963315983018682,0.0010121562835296149,-0.0023270958768346643,0.006076025691576052,0.9945914197468079
2014-04-28,1,0.0011150160945280177,0.0011434087154276304,-0.0012767988438551893,0.006076025691576052,0.9947450922104366
2014-04-30,1,0.0008699959872939758,0.0008967151861626005,-0.002707301525547662,0.006884355960485842,0.9941468910562814
2014-05-02,1,0.0011399030193207664,0.0011855889457468825,-0.0012767988438551893,0.00698414685660973,0.9945643135702915
2014-05-06,1,0.0010939146430629786,0.00110458235679937,-0.0012767988438551893,0.007737698649346165,0.9929897972854355
2014-05-08,1,0.0011737270903510815,0.001188521126454705,-0.002707301525547662,0.007737698649346165,0.9918144352900532
2014-05-12,1,0.001879931642778128,0.002012239198541082,-0.003837115688388195,0.0068053357741009925,0.9922912384554954
2014-05-14,1,0.0012979737594236034,0.001348024404492664,-0.006132099292085029,0.0068053357741009925,0.9917931198981973
2014-05-16,1,0.0010853574247408437,0.0010958712619414616,-0.006132099292085029,0.006109289323617349,0.9920901741478267
2014-05-20,1,0.0007864347649758032,0.0008181862823282697,-0.004753741269358697,0.007109828149405023,0.9901268558530086
2014-05-22,1,0.0009012575774591043,0.0009183289370283666,-0.006132099292085029,0.00777873851922505,0.9890765610226053
2014-05-27,1,0.0010528476746760678,0.0010552389745681966,-0.006132099292085029,0.007109828149405023,0.9892066464075633
2014-05-29,1,0.001130452084661409,0.0011834956139835733,-0.006132099292085029,0.006989566288231736,0.9894604478577924
2014-06-02,1,0.0020853606721824335,0.0022922322633233475,-0.006746960633540723,0.006989566288231736,0.9888552538730965
2014-06-04,1,0.0036059320085269327,0.004026652122841164,-0.006746960633540723,0.005021183368909452,0.9899850138800924
2014-06-06,1,0.0033457614360434765,0.003723537472477032,-0.006746960633540723,0.0050797325902449016,0.9901267965260863
2014-06-10,1,0.002366140719128531,0.0026229333702585214,-0.006746960633540723,0.0050797325902449016,0.9909549605629336
2014-06-12,1,0.0016812589013335774,0.0018507702459875613,-0.002936621924482655,0.005572613815809746,0.991811883744376
2014-06-16,1,0.0014455377902315794,0.0015526067609501594,-0.002936621924482655,0.005572613815809746,0.9920084936249246
2014-06-18,1,0.0024396132871510275,0.00261958957010083,-0.007709328658626688,0.004035475175603744,0.99289776126254
2014-06-20,1,0.0018955154862015013,0.0019961692917697975,-0.0060847332693078,0.004035475175603744,0.9937315991863422
2014-06-24,1,0.0019088764337975212,0.0019943417006350493,-0.0060847332693078,0.00486561909198015,0.9934304055483482
2014-06-26,1,0.0003415720794086352,0.0005234740872254752,-0.006377587244816397,0.004141059580229754,0.9935925824767484
2014-06-30,-1,-0.00035394191381016564,-7.925380432212501e-05,-0.0031706079428761923,0.004141059580229754,0.9942078315564914
2014-07-02,1,9.649402911239579e-05,0.0002780824361308655,-0.006377587244816397,0.004141059580229754,0.9935090479895835
2014-07-07,-1,-0.00047208345863920245,-0.000240621430190495,-0.004659685484641289,0.004141059580229754,0.9938588829805701
2014-07-09,0,-8.529138503843986e-06,0.00016400348469930632,-0.007542401302570558,0.004141059580229754,0.9928272435341704
2014-07-11,-1,-0.0006110545524491214,-0.000372247343791314,-0.007542401302570558,0.004141059580229754,0.9922061675194794
2014-07-15,0,-0.00011286311411113693,5.040349125793193e-05,-0.006424680374773455,0.0028933585447385997,0.9924220870694316
2014-07-17,-1,-0.0015839141517341488,-0.0012669799919368578,-0.00438192001554835,0.006236341050905142,0.9929821485375706
2014-07-21,-1,-0.0007500626595920606,-0.0005295727905666591,-0.0051717171949385455,0.004274025176194324,0.9931341525094378
2014-07-23,1,0.00033099616155564675,0.00038167434335240025,-0.0051717171949385455,0.0036328093727500325,0.9930816745016391
2014-07-25,1,0.0002461501021268775,0.00029428158861771964,-0.0055534056807960116,0.0036328093727500325,0.9930327719775186
2014-07-29,0,-6.817905588364469e-05,1.6627357098298863e-05,-0.0055534056807960116,0.0036328093727500325,0.9931881325026082
2014-07-31,-1,-0.0007605783056552097,-0.0006198361597575723,-0.00438192001554835,0.0036328093727500325,0.9936887531295011
2014-08-04,-1,-8.010027048010066e-05,-3.594188913875882e-06,-0.0040644168632185396,0.0036328093727500325,0.9939735718304393
2014-08-06,-1,-0.0012339998874274648,-0.0009818195661621676,-0.002836143261062571,0.004636989147836096,0.9943076853624079
2014-08-08,-1,-0.00028279701370590446,-0.00017348179739487833,-0.0019262877164608642,0.005079713426632711,0.9949221807883133
2014-08-12,-1,-0.00041577457976858464,-0.00027935614728675877,-0.0019262877164608642,0.006708872413439536,0.9941369840047093
2014-08-14,1,2.6952894552069147e-07,0.00012112760834214462,-0.0035618393469389617,0.006334295085310944,0.9948618045594593
2014-08-18,1,3.467905129415439e-05,0.0001309725363816364,-0.0035352706302162152,0.006708872413439536,0.9942695439639381
2014-08-20,1,0.0003780775990233401,0.00042509552385844133,-0.0035352706302162152,0.006708872413439536,0.9941960220699838
2014-08-22,1,0.00040450329463374287,0.00042003427551504357,-0.0036385953695961,0.006708872413439536,0.9942019801226695
2014-08-26,1,0.0004714214139948804,0.00047303923898366334,-0.004005807799492125,0.006708872413439536,0.9926048803646624
2014-08-28,-1,-0.00018135432006632219,-8.224851755188393e-05,-0.004660844944645,0.007448576938432081,0.991762221437154
2014-09-02,1,0.00015384190277897947,0.00020597304107825853,-0.005719848645691764,0.006708872413439536,0.9912315986312682
2014-09-04,-1,-0.0006710670328241258,-0.00046435273128312684,-0.005719848645691764,0.007448576938432081,0.9912674456100534
2014-09-08,1,0.0004609861711344849,0.0005162728700798592,-0.005719848645691764,0.008350310487754045,0.9897936752771607
2014-09-10,1,0.0011781894366854782,0.0012205072455604127,-0.008633157709416146,0.008350310487754045,0.9883393651500614
2014-09-12,1,0.0005415992827288939,0.0005892793992565148,-0.010233032767382298,0.008350310487754045,0.9872656390614175
2014-09-16,1,0.0008783674532904056,0.0008905098806225339,-0.013170686028117641,0.007504203554866357,0.9871498643876041
2014-09-18,1,0.0012201232240014108,0.0012483703497053592,-0.015092771255172808,0.007158761314304513,0.9862192024106706
2014-09-22,1,0.0008827183527467611,0.0009034689235108864,-0.015092771255172808,0.007518724494566608,0.985300588156576
2014-09-24,1,0.00025678768680519157,0.0003517453257479797,-0.013170686028117641,0.008646003197622733,0.9859525380658063
2014-09-26,1,9.864733187790427e-06,0.00012338864727536893,-0.010233032767382298,0.014532637141904416,0.9857845134399095
2014-09-30,-1,-0.0008345810714593244,-0.0006295596289540835,-0.005460503181375099,0.014532637141904416,0.986349011143635
2014-10-02,1,4.927080229459005e-05,0.0001070864088443586,-0.005460503181375099,0.014532637141904416,0.9864289740319956
2014-10-06,-1,-0.00012832868357777222,-3.8792046154357955e-05,-0.005460503181375099,0.011739432024071668,0.9876905068111681
2014-10-08,1,0.00012528145777454663,0.00019617352027033043,-0.00461150400473022,0.010953355799464833,0.9891076694301522
2014-10-10,-1,-0.0010545540230775625,-0.0008277520450257906,-0.00461150400473022,0.010953355799464833,0.9903045791576104
2014-10-14,-1,-0.0012949797131322502,-0.001052226592608764,-0.003547928972693887,0.010953355799464833,0.9906338916834999
2014-10-16,-1,-0.0010605259621488533,-0.0008676407670543804,-0.0009171064582100443,0.011713030205200547,0.9909324519934046
2014-10-20,0,-8.950855964612152e-06,5.482954649777108e-05,-0.003547928972693887,0.010953355799464833,0.9924888330383441
2014-10-22,1,0.00048562733922227877,0.000489132218107203,-0.003547928972693887,0.010953355799464833,0.9909048802567638
2014-10-24,1,0.00189062338957414,0.0021508531229522507,-0.003547928972693887,0.008215887105407556,0.9922786612506694
2014-10-28,1,0.0016455147860038532,0.0018590993740391852,-0.0022467781978743814,0.008215887105407556,0.9922169096650766
2014-10-30,1,0.0018932438005217428,0.0021155384446268576,-0.0022467781978743814,0.009087907922509778,0.992221613556662
2014-11-03,1,0.0017520194868319774,0.0019143900248784326,-0.0022467781978743814,0.006909713573885124,0.9923917353796462
2014-11-05,1,0.0017306913796597213,0.001881863341727132,-0.0029891694904186357,0.006385662430987953,0.9921680136918328
2014-11-07,1,0.001876005011217251,0.0021053065824256645,-0.002272619566713678,0.007385271299935623,0.9919666163424432
2014-11-11,1,0.0019214914594272393,0.0021345241460515394,-0.0040481063862565165,0.006385662430987953,0.9911943423516567
2014-11-13,1,0.0020191306574945996,0.0022504084639217684,-0.0040481063862565165,0.006385662430987953,0.990999571667133
2014-11-17,1,0.0019158132012630634,0.0021400518692069772,-0.007738497500321425,0.006385662430987953,0.9904607991443846
2014-11-19,1,0.0030976533322439595,0.0034434989460960267,-0.004325745407553471,0.006989398872315922,0.9914119827452241
2014-11-21,1,0.0032664207827432616,0.003639992865570209,-0.004325745407553471,0.007900290639650673,0.9909732852549419
2014-11-25,1,0.003394574395484921,0.0037724246484406197,-0.007738497500321425,0.007900290639650673,0.9899928749627208
2014-11-28,1,0.003709455144959457,0.004120791262051478,-0.007738497500321425,0.006989398872315922,0.9897012890925905
2014-12-02,1,0.003766500560577377,0.004188575878771169,-0.009748397147677603,0.006989398872315922,0.9886049016102991
2014-12-04,1,0.003456017443404293,0.0038169664052715,-0.008567509546257207,0.004995224320775319,0.9888103278760529
2014-12-08,1,0.0031610352352295906,0.003423936934291489,-0.008567509546257207,0.004995224320775319,0.9883251766546668
2014-12-10,1,0.00264095773001409,0.0028589387678191747,-0.00758464959120447,0.008713233739070559,0.9884143556272329
2014-12-12,1,0.002549515258031864,0.00278094669804748,-0.00758464959120447,0.006334523041697546,0.9883086634284535
2014-12-16,1,0.0017888763377232088,0.0019050305505358507,-0.006861796980754918,0.006334523041697546,0.9887807943778703
2014-12-18,1,0.0026980874301187284,0.0029189858955525243,-0.007875871135781972,0.002409137617615552,0.9894345095916561
2014-12-22,1,0.002640719279532138,0.0028172469809669577,-0.007875871135781972,0.006129582140691725,0.9881586159700056
2014-12-24,1,0.00226513417755061,0.002413215988498845,-0.007875871135781972,0.011923791038035104,0.9878530395275402
2014-12-29,1,0.0015826689158563968,0.0015853698267564794,-0.00928685342032674,0.011923791038035104,0.986908032231499
2014-12-31,1,0.0009454153696533136,0.000993010835498067,-0.009275698821811094,0.011923791038035104,0.9867589528432938
2015-01-05,1,0.00037136003385674764,0.0004989478197319068,-0.009275698821811094,0.01915453837634161,0.9851296798858621
2015-01-07,1,0.00160451578159559,0.0016679335931387579,-0.010121811627504997,0.016801592000551598,0.9852787561291566
2015-01-09,1,0.0016467697093015226,0.0017004677079232636,-0.012063721746328249,0.012984027345133087,0.9853960128459089
2015-01-13,1,0.001079662749445657,0.0010801176720221218,-0.011317365137704668,0.016284455487780004,0.985504055438254
2015-01-15,1,0.0002555318115186941,0.0003756715186480114,-0.00943985928353525,0.016284455487780004,0.985872326625247
2015-01-20,1,0.00025845044806499875,0.00038553947082210305,-0.00943985928353525,0.01749621765058144,0.9847808938802791
2015-01-22,1,0.0015945645654070247,0.001604454975584151,-0.00943985928353525,0.016284455487780004,0.9862382081255048
2015-01-26,1,0.0013070013135364456,0.0013131873764087925,-0.007014557408334363,0.010348858299782654,0.9876198459419531
2015-01-28,1,0.00012242177724153063,0.00026848427050717746,-0.005689441382615242,0.010348858299782654,0.9887706990442657
2015-01-30,-1,-0.0007911376959373953,-0.0005570107091614937,-0.005304378196471881,0.015999362745323407,0.9884674922432463
2015-02-03,1,0.0010269678838364087,0.0010373467051674444,-0.007014557408334363,0.007556166053087936,0.99029070694604
2015-02-05,1,0.0008466088149701135,0.0008863314081009354,-0.007345482679969401,0.006193482639312385,0.9900531942078462
2015-02-09,1,0.00010553531949581655,0.00020320569281956672,-0.005304378196471881,0.006193482639312385,0.9902135376665768
2015-02-11,1,0.000530253588519859,0.0005738319633034934,-0.004768921054120195,0.006193482639312385,0.9908909060913426
2015-02-13,1,0.0007545470979869321,0.0007863270305924103,-0.004768921054120195,0.00649059613213795,0.9904917415258724
2015-02-18,1,0.001250879641368267,0.0012798736506038808,-0.006238703679635824,0.00649059613213795,0.9913972793802419
2015-02-20,1,0.0010455961069670533,0.0011184421443721291,-0.006238703679635824,0.005578278878794818,0.9918525551446407
2015-02-24,1,0.00024868278317735637,0.0004674672874941388,-0.006238703679635824,0.006201509973614316,0.9918430202044569
2015-02-26,1,0.0002958324517650194,0.0004858877181037251,-0.012362822951198765,0.006201509973614316,0.9908346719705118
2015-03-02,1,0.0011545806987737256,0.0012130432596483497,-0.010669143274088893,0.008582400475952478,0.9913269420177612
2015-03-04,1,0.0010318989574534454,0.0010783162047189243,-0.012362822951198765,0.008582400475952478,0.990370023485191
2015-03-06,-1,-0.0006828535180421335,-0.0003720112555656303,-0.007170273250022825,0.00939887456474206,0.9908852117472438
2015-03-10,-1,-0.0015351501454033858,-0.0010934429809731571,-0.0066714303751276086,0.00939887456474206,0.9911659261505721
2015-03-12,-1,-0.0016034721251912622,-0.0011139173608076972,-0.0066714303751276086,0.009778043775538155,0.9907709147055541
2015-03-16,-1,-0.0005760547807195465,-0.0002692584304309861,-0.0066714303751276086,0.009612510448037561,0.9916064671753734
2015-03-18,-1,-0.0006170015142454879,-0.0003102679763266193,-0.0066714303751276086,0.008645324271705774,0.9921961441924373
2015-03-20,0,-9.024171155279381e-05,0.00010219424749620886,-0.0077199415337614995,0.008770308769007484,0.9917372500559337
2015-03-24,0,-8.523732850360935e-05,0.00011953770211544192,-0.0077199415337614995,0.009612510448037561,0.9915534523958701
2015-03-26,-1,-0.000871300231999367,-0.0006002965193564543,-0.005832802816917772,0.009612510448037561,0.9919745290031026
2015-03-30,1,0.000148506769970696,0.00029668333525306994,-0.0077199415337614995,0.0069052434980272255,0.992052924979349
2015-04-01,-1,-0.0010399220437066208,-0.0007603940415887075,-0.010388558688415631,0.0069052434980272255,0.9922046715731493
2015-04-06,-1,-0.0006518589349654938,-0.00039473708197347427,-0.010388558688415631,0.00683537958886471,0.9920366228494376
2015-04-08,-1,-0.0011224042063658509,-0.0008315846793018366,-0.010969464557030937,0.00683537958886471,0.9916219163673078
2015-04-10,-1,-0.00022273164623018524,-4.210792653693788e-05,-0.010969464557030937,0.00462106135715912,0.9913259822055944
2015-04-14,-1,-0.0005512171878220904,-0.0003224521921296109,-0.010969464557030937,0.00462106135715912,0.9909543961870598
2015-04-16,-1,-0.0002978289540592217,-0.0001663292405990898,-0.010801664200573683,0.00683537958886471,0.9903182005863512
2015-04-20,1,1.9138613102342907e-05,9.453064088537364e-05,-0.010801664200573683,0.007727261399505277,0.9902446670431081
2015-04-22,1,0.0005597995926816164,0.0005685146259123695,-0.010801664200573683,0.007841161683888254,0.9900625921573396
2015-04-24,1,0.00048277197025172705,0.0004929829223076724,-0.008603785827426883,0.006476740045831842,0.9902665024481171
2015-04-28,1,0.00038272173987709333,0.0003933322741713519,-0.008603785827426883,0.010476467030517732,0.9900828230767278
2015-04-30,-1,-0.001098827943725989,-0.0009254657868638574,-0.007612493159906993,0.010476467030517732,0.990867310262249
2015-05-04,-1,-0.00012206886862029282,-8.274788307229142e-05,-0.007612493159906993,0.00618298947876195,0.9913917879725976
2015-05-06,-1,-0.0013934505489764117,-0.0011647924018718873,-0.005498334290509636,0.00618298947876195,0.9919178064489353
2015-05-08,-1,-0.00045824651345474605,-0.0003313778957678911,-0.007550347620946674,0.004591242108375669,0.9926669766368477
2015-05-12,-1,-0.0015159341662907408,-0.0012330002268276206,-0.005498334290509636,0.00618298947876195,0.9924314460785767
2015-05-14,1,7.530661924307109e-05,9.636497857831144e-05,-0.007550347620946674,0.004591242108375669,0.9928758419006806
2015-05-18,1,0.0008368489956209199,0.0009382279308571932,-0.007550347620946674,0.0029054766086962047,0.9933344922781713
2015-05-20,1,0.0009270316628226332,0.0009923087226586325,-0.007550347620946674,0.0023567670939172265,0.9934040077465845
2015-05-22,1,0.0002166336770662557,0.0002556565763508767,-0.005087387088865267,0.00303472912977503,0.9938577039633162
2015-05-27,-1,-0.0005227292641944582,-0.0003522190963163002,-0.007663439932756404,0.0023567670939172265,0.9940342295511859
2015-05-29,-1,-0.0014502320680193856,-0.0011537705846793274,-0.005087387088865267,0.0024874905817178316,0.994281560900523
2015-06-02,-1,-0.00022881920504202959,-0.00013543167027571821,-0.007663439932756404,0.0024874905817178316,0.9928632399785862
2015-06-04,-1,-0.0007449931534300044,-0.0006020830130721942,-0.005087387088865267,0.0024874905817178316,0.9932441288808828
2015-06-08,-1,-0.001713223963081407,-0.001421636675508643,-0.0039050129797342835,0.0024874905817178316,0.993582009065576
2015-06-10,-1,-0.001257802774413207,-0.0010035726683818036,-0.0051223956764041055,0.0024874905817178316,0.9940236611121139
2015-06-12,-1,-0.001642577326837881,-0.0013502648765062026,-0.0039050129797342835,0.0041003223051083995,0.9929273036062324
2015-06-16,-1,-0.00038328027101267297,-0.00033379183272091203,-0.0039050129797342835,0.00728311773855023,0.9926332987393385
2015-06-18,1,0.00015216754550860214,0.00015381492193558978,-0.0039050129797342835,0.00728311773855023,0.9927477280711223
2015-06-22,-1,-0.00040691362581736745,-0.0002860659167700685,-0.004673150585724975,0.00486538495348189,0.9927769515228392
2015-06-24,-1,-0.002035546882629714,-0.001675420002040875,-0.003681951380078368,0.005138227870627217,0.9933460879468121
2015-06-26,-1,-0.001161565732519212,-0.0009794299683118445,-0.003996289894284122,0.005138227870627217,0.9933026604919627
2015-06-30,-1,-0.0014936005326291275,-0.0012840096299036473,-0.003681951380078368,0.006363816380784322,0.9933947829462286
2015-07-02,-1,-0.002165984287040353,-0.0018361206934018577,-0.0016623680620745694,0.006363816380784322,0.992836767888524
2015-07-07,-1,-0.0020004702003188967,-0.0017097590187844839,-0.0033627300091992173,0.006363816380784322,0.9928394077781568
2015-07-09,-1,-0.001959564830826052,-0.0016986114331881041,-0.0033627300091992173,0.00987297019598685,0.9920492126522591
2015-07-13,-1,-0.00015196663721566035,-0.00014264877054991692,-0.0033627300091992173,0.005175174940259536,0.9938519558885759
2015-07-15,1,0.00026805761203777803,0.00034448176234972447,-0.0033735569967939852,0.0040276831009219815,0.9943267552080786
2015-07-17,1,0.0006788461891106198,0.0008105756978584429,-0.0033735569967939852,0.0022697329520939037,0.9949016892438601
2015-07-21,1,0.00047748515634632834,0.00057880288916256,-0.0033735569967939852,0.0040276831009219815,0.9940702754917344
2015-07-23,1,0.0007164174727309007,0.0008644535239886761,-0.005716211164522156,0.00263921412006983,0.993219940123477
2015-07-27,1,0.00015548060165405575,0.00022894989431544125,-0.008018380102537807,0.00263921412006983,0.9902615535164516
2015-07-29,1,0.0018737736758872893,0.0021283389772037893,-0.009353802389450456,0.0015056423982827618,0.9888410290288427
2015-07-31,1,0.0011952101307512327,0.0013199981166746718,-0.009353802389450456,0.0014197044171021713,0.9885306390016171
2015-08-04,1,0.0011267017813675752,0.0012723266722375363,-0.014898208583238617,0.0014197044171021713,0.9862483433304047
2015-08-06,1,0.0009428769421993896,0.0010821301407782273,-0.015210351515508555,0.0014197044171021713,0.9851715520128387
2015-08-10,1,0.0010225218200926238,0.0011689993663053537,-0.015210351515508555,0.004706040878683241,0.9832244814190512
2015-08-12,1,0.001010598874315542,0.0011643003102534805,-0.017134060372512007,0.00826463911044285,0.9823654290072409
2015-08-14,1,0.001207326863229519,0.0014059446909612605,-0.017134060372512007,0.00826463911044285,0.9813167753194828
2015-08-18,1,0.0009075463202770572,0.0010038528897332259,-0.017134060372512007,0.008891470000038298,0.9816498819319575
2015-08-20,1,0.0006286241378778265,0.000741205481337678,-0.017134060372512007,0.011745044423491066,0.9819959706057985
2015-08-24,1,0.0024831341455841816,0.0027803758805844824,-0.015078701038180493,0.011745044423491066,0.9851710376847377
2015-08-26,1,0.0037407401746985033,0.004237482630831905,-0.01490189001559135,0.0069866250201411255,0.9855828553438641
2015-08-28,1,0.003782749550242854,0.0042520992607977225,-0.017134060372512007,0.0035466365993815693,0.9832067782272399
2015-09-01,1,0.002504416620787577,0.00284807961752033,-0.01490189001559135,0.008901209321904819,0.9852355091198648
2015-09-03,1,0.0026498686868273785,0.00299814010781071,-0.013422394800011048,0.011745044423491066,0.9849570533902807
2015-09-08,1,0.0030609496946386893,0.0034345511906359004,-0.013201168152605657,0.008901209321904819,0.9857086610617798
2015-09-10,1,0.002604713791747598,0.0029210250119453855,-0.012372263923695923,0.014852880060331811,0.9857544970757012
2015-09-14,1,0.0020047463205408603,0.002260455567428362,-0.008113632165701044,0.014852880060331811,0.9864536234112239
2015-09-16,1,0.002528017479701858,0.0028360834007063844,-0.00910882211321266,0.011027190126075927,0.9864523613134644
2015-09-18,1,0.0024054973326769914,0.002679459722705873,-0.00910882211321266,0.014852880060331811,0.9862266469888862
2015-09-22,1,0.0017107589680973724,0.0018201123593567883,-0.00910882211321266,0.014852880060331811,0.9859661892817346
2015-09-24,1,0.0011574949549748065,0.0012269920609437406,-0.005595773636018993,0.014852880060331811,0.9867419104072174
2015-09-28,-1,-0.0012844511908327982,-0.0010353192493011629,-0.003933169678159456,0.014852880060331811,0.9882499973007461
2015-09-30,1,0.0009298696477133075,0.0009803585797349692,-0.003933169678159456,0.01252156524144575,0.9896626566479123
2015-10-02,1,0.003934749905309156,0.004353003393098833,-0.003933169678159456,0.008678920080407052,0.9923933056992343
2015-10-06,1,0.003524400487138916,0.0039145895240305095,-0.002993968164074709,0.009903568155003591,0.9924671255095374
2015-10-08,1,0.004545173336920515,0.0050945013400508325,-0.002993968164074709,0.007846405944971718,0.9929941820683871
2015-10-12,1,0.00479670692868342,0.005399769297025675,-0.002993968164074709,0.007566837768276292,0.9923838813732363
2015-10-14,1,0.004116103044777604,0.004597798824425772,-0.002620350655613931,0.007566837768276292,0.9930544555413335
2015-10-16,1,0.004646908428522225,0.0051875982755124304,-0.0033532209481452503,0.004273017939562699,0.9921660407846825
2015-10-20,1,0.003921515625867728,0.004331404309524909,-0.002620350655613931,0.007054404323355436,0.9922661708862165
2015-10-22,1,0.0036675323420169246,0.0040532316029946395,-0.002000630670365252,0.007566837768276292,0.9913272354237093
2015-10-26,1,0.003142391348155086,0.00342700146491953,-0.0015418231980303663,0.007054404323355436,0.9922244128264993
2015-10-28,1,0.003132357407651682,0.0033842407882142935,-0.0015418231980303663,0.006379088335577581,0.9925220515920432
2015-10-30,1,0.0032992204489957,0.0035991407657444594,-0.002000630670365252,0.006379088335577581,0.9914764020324186
2015-11-03,1,0.004108366427639153,0.004489096315566857,-0.002986048212578239,0.00491052840552549,0.9914705071515596
2015-11-05,1,0.0038939243649774346,0.004235284120248199,-0.002986048212578239,0.007078647610885287,0.9911141111947617
2015-11-09,1,0.0038049358674511185,0.004154459390825049,-0.0029362517112321487,0.007078647610885287,0.9912827641251393
2015-11-11,1,0.003669605031896337,0.004004888246587417,-0.003130696946227184,0.006472118968601989,0.9910658956466989
2015-11-13,1,0.0023424629505803376,0.002444288570001169,-0.003130696946227184,0.006472118968601989,0.9917622294588702
2015-11-17,1,0.003190365721512829,0.003388044740712268,-0.003130696946227184,0.006472118968601989,0.9918022352590377
2015-11-19,1,0.0021379270905950037,0.0021641695476475303,-0.005586043576366432,0.0059473291975337544,0.9920826525458406
2015-11-23,1,0.0021224070184578414,0.0021284322250745683,-0.005586043576366432,0.006242536044652594,0.9919562139890786
2015-11-25,1,0.0017151306927836855,0.0017714359360852057,-0.005586043576366432,0.006242536044652594,0.9920430588861178
2015-11-30,1,0.0006962154034133961,0.0008892734676856048,-0.005370243159902888,0.007604896270123188,0.9923668237055688
2015-12-02,1,0.0014526190744403717,0.001519423268385634,-0.006012489379020148,0.006242536044652594,0.9925870382482791
2015-12-04,1,0.00235047265568805,0.0024011847795475318,-0.006961900494060468,0.004413170661301417,0.9926126027768521
2015-12-08,1,0.0022734141145518104,0.002331900085849702,-0.00803279869320201,0.004413170661301417,0.9916115405521488
2015-12-10,1,0.001549358631679063,0.0015989878509809516,-0.008945917820280857,0.004413170661301417,0.9912180268438591
2015-12-14,1,0.0010808458811770185,0.0011567552588808267,-0.009038541963212497,0.005104210267375923,0.9884750778327597
2015-12-16,1,0.001523972408941792,0.0015833593399948687,-0.010837117710353922,0.003244655279982229,0.988829932711554
2015-12-18,1,0.0008089098017177673,0.000901176264999487,-0.008992990454457398,0.004413170661301417,0.9900410058491428
2015-12-22,1,0.001237635914500356,0.0012772141470260702,-0.008992990454457398,0.003244655279982229,0.9896501556927628
2015-12-24,1,0.0008834813177777509,0.0009882374849883532,-0.008992990454457398,0.00279851717460214,0.9896595950791178
2015-12-29,1,0.0007293810170210893,0.0008642033284084716,-0.010837117710353922,0.002097435190707651,0.989251068586328
2015-12-31,1,2.323760129637018e-05,0.00024015966872025277,-0.010837117710353922,0.004409810343844378,0.9882201083867729
2016-01-05,-1,-0.0005150766188367662,-0.00022153573540062877,-0.008992990454457398,0.004304787457075049,0.9887473228004239
2016-01-07,-1,-0.0015602524209280687,-0.0011349230321499692,-0.008992990454457398,0.0036387131021036693,0.9890451189294724
2016-01-11,-1,-0.0021205382059600077,-0.0016505434563147557,-0.006437108293736788,0.0068790428923441675,0.9882583899224451
2016-01-13,-1,-0.001337680077301279,-0.0009157957030536583,-0.006437108293736788,0.0068790428923441675,0.9900527147773607
2016-01-15,-1,-0.0008028025368240469,-0.0005920813083246306,-0.004494435353834491,0.011118054365501394,0.9891160987860705
2016-01-20,1,0.0005899053610674118,0.0006368088366570992,-0.0056122806412863815,0.011692358637155793,0.988540197653847
2016-01-22,1,0.0008437285609685717,0.0008482534444678364,-0.0056122806412863815,0.011692358637155793,0.9882951473272534
2016-01-26,-1,-0.0004743217522692725,-0.00031311443132540223,-0.009119030161550308,0.011692358637155793,0.9876015545326371
2016-01-28,-1,-0.001180545397006679,-0.0009448119735877813,-0.005656618741015024,0.012881893112050957,0.9875349460854501
2016-02-01,1,0.000694912224740924,0.0006981290358157616,-0.009119030161550308,0.01093226028457033,0.9875295035459242
2016-02-03,1,0.000183209433194108,0.000314001616763727,-0.009119030161550308,0.01093226028457033,0.9875575770417055
2016-02-05,-1,-0.0012996843155225282,-0.0009535942863727267,-0.005656618741015024,0.01093226028457033,0.9875718913075525
2016-02-09,-1,-0.0010038748905916352,-0.0007288551750765826,-0.005448046713751814,0.01093226028457033,0.9887079309016236
2016-02-11,-1,-0.0017495217637908938,-0.0013860210874999835,-0.00022074163883892012,0.01093226028457033,0.9888812403882941
2016-02-16,-1,-0.0009109618717134225,-0.0006398076345677702,-0.005448046713751814,0.009289899292040436,0.9901983216000393
2016-02-18,-1,-0.001585183714614492,-0.0011894025736107598,-0.005448046713751814,0.008535945963920578,0.9902722101525172
2016-02-22,-1,-0.001721493203624704,-0.0012548185613603278,-0.007816957415255345,0.008535945963920578,0.990378898290794
2016-02-24,-1,-0.0012637270612934112,-0.000901503401548749,-0.006278299373911127,0.006447746216812531,0.9910253331767325
2016-02-26,1,0.00014311475981444846,0.00020919317293820045,-0.007210310446347559,0.005349504926951628,0.9916623979845323
2016-03-01,-1,-0.0004942698981589378,-0.0003119294192381213,-0.0061820665020182654,0.006447746216812531,0.9927369001964842
2016-03-03,1,0.0003339617956367062,0.0003736643729526002,-0.0061820665020182654,0.006270208396013766,0.9926546976466448
2016-03-07,1,0.0006487898632110635,0.0006585783683273989,-0.007210310446347559,0.006082534289861538,0.9921289428470528
2016-03-09,1,0.00015489500245062217,0.00022837170506728326,-0.007528258799576762,0.00966408383712523,0.9907629128182366
2016-03-11,1,0.00116410435635995,0.0012568749937827593,-0.008902309853254959,0.0034989390092661577,0.9910094755621283
2016-03-15,1,0.0007601576207706569,0.0007842922554391709,-0.007659766177888766,0.00956426858719347,0.990643380986521
2016-03-17,1,6.896429044863796e-05,0.0001419036224782659,-0.0061820665020182654,0.00956426858719347,0.9914817080652543
2016-03-21,-1,-0.0003027254395416774,-0.00017353408748788899,-0.005644441907476077,0.007504865324900856,0.9920167610138605
2016-03-23,-1,-0.0003728773685649895,-0.0002569301147491163,-0.004009532471356703,0.007822282926806012,0.9919760365385105
2016-03-28,-1,-0.0006322233587189219,-0.0004857290272642634,-0.002397645077770863,0.007822282926806012,0.9916974873033105
2016-03-30,1,0.0005251416942693761,0.0005709182558395019,-0.004009532471356703,0.007791377744189869,0.9921274151094667
2016-04-01,1,0.0005396900070625642,0.0005789996334720971,-0.00459150526327407,0.007791377744189869,0.9920502412841103
2016-04-05,1,0.00044699043236683925,0.00046643929725061987,-0.002397645077770863,0.006979979535084229,0.9930149743852059
2016-04-07,1,0.0006050853624260492,0.0006440853341087797,-0.002397645077770863,0.006979979535084229,0.9941999565035947
2016-04-11,0,-3.3378829292895888e-06,6.184086227337761e-05,-0.00021741468490542575,0.007322822066095853,0.9940917210579676
2016-04-13,1,0.0010743519668813578,0.0011918698603880363,-0.001616390393925369,0.006979979535084229,0.9949471362605582
2016-04-15,1,0.0007527029248221126,0.0008023379613874338,-0.001616390393925369,0.006979979535084229,0.9945145137939599
2016-04-19,1,0.0012055723306431875,0.0013339148630878298,-0.0034615084694376904,0.007322822066095853,0.9938836026662463
2016-04-21,1,0.0012592735455147304,0.0013902589708149017,-0.007519420798799049,0.006339088153721523,0.9937318397570959
2016-04-25,1,0.0012212439661375757,0.001316807596677534,-0.007519420798799049,0.006724742742101372,0.9936730363955654
2016-04-27,1,0.0013828924546037068,0.0015184750070586658,-0.003910158205803781,0.006724742742101372,0.9942322717757368
2016-04-29,1,0.0015839699961626152,0.0017913950362709982,-0.0026320480126526924,0.006724742742101372,0.9946389034509238
2016-05-03,1,0.0016190422675841699,0.0018238178366413761,-0.003910158205803781,0.006724742742101372,0.9938328221419928
2016-05-05,1,0.0014463532225494728,0.0016067614658852687,-0.0026320480126526924,0.006724742742101372,0.9930774046313728
2016-05-09,1,0.0016423343611670512,0.0018184901517773072,-0.0026320480126526924,0.006336760890894826,0.9931356577812712
2016-05-11,1,0.00217653738271473,0.0024635267759296276,-0.0026320480126526924,0.006867494572725173,0.9927841886231904
2016-05-13,1,0.0015125185337405585,0.0016518890337880875,-0.001349149021441696,0.006867494572725173,0.9930126575320282
2016-05-17,1,0.0017531120488896257,0.001950870972919906,-0.0024874676118646203,0.006336760890894826,0.9933678952490543
2016-05-19,1,0.001439249113029457,0.0015927520015270114,-0.0013120792153025937,0.006336760890894826,0.9935660406464024
2016-05-23,1,0.001591481036670823,0.0017795124475582871,-0.0006849802338299066,0.00517118030090782,0.9939163187453709
2016-05-25,1,0.0014786310900273577,0.0016148080797057827,-0.0013120792153025937,0.00517118030090782,0.993137717598255
2016-05-27,1,0.0015052612356136947,0.001626310832149501,-0.00425576195638645,0.0046363906293368975,0.9912598573554247
2016-06-01,1,0.000555304542367043,0.0006040955166931909,-0.0028130738476929394,0.011952083325732984,0.9903394347310264
2016-06-03,1,0.0012108138689210777,0.0012129655075677616,-0.0028130738476929394,0.011952083325732984,0.9911264143701718
2016-06-07,1,0.001911522675252253,0.002047794727414882,-0.0028130738476929394,0.011952083325732984,0.9913437298878068
2016-06-09,1,0.002532285649566092,0.002725177245318403,-0.0028130738476929394,0.005932248834307933,0.9918495301828584
2016-06-13,1,0.0025317740107096243,0.00273282061132124,-0.0028130738476929394,0.005960156315735008,0.992014912357832
2016-06-15,1,0.0019493586501772569,0.0020906448246745344,-0.0003055613947554328,0.005960156315735008,0.9927806091791687
2016-06-17,1,0.001726261590831249,0.0018222174654458235,-0.0019148394177062522,0.005960156315735008,0.9926989570237871
2016-06-21,1,0.0013427123395895377,0.0013441180711785017,-0.0019148394177062522,0.005960156315735008,0.9926011790488208
2016-06-23,1,0.00280516350552363,0.003078880732474949,-0.002765699794686066,0.0046042925278306016,0.9925572495722518
2016-06-27,1,0.001275205664585387,0.001337311215595056,-0.0019148394177062522,0.005960156315735008,0.9938919076050671
2016-06-29,1,0.0014395154627951194,0.0014718528483287784,-0.0019595934802561473,0.00428862155874804,0.9949642808523982
2016-07-01,1,0.0016619641415403915,0.0017197891720619161,-0.0019595934802561473,0.00428862155874804,0.9955053540735909
2016-07-06,1,0.001322051925712449,0.0013612783912695726,-0.004899845753497618,0.002848264086907609,0.994829005570885
2016-07-08,1,0.0018606167272248167,0.0019354345992262767,-0.004899845753497618,0.0027525217039052804,0.9950475548865635
2016-07-12,1,0.0018164489226542592,0.0018733018664607633,-0.004899845753497618,0.0027525217039052804,0.9946822900224126
2016-07-14,1,0.002019188853802728,0.002138981574538118,-0.0051693209425092285,0.0038992715846498764,0.9943587582232243
2016-07-18,1,0.0015820924944898852,0.0016261912514783279,-0.004859279759682146,0.0041965416956401755,0.9945755418439445
2016-07-20,1,0.0016734887568518662,0.0017338740989839819,-0.005666629322605199,0.00390931454663319,0.9941089410743131
2016-07-22,1,0.0010228401638770544,0.0010366900908029223,-0.0034133385647729187,0.00390931454663319,0.9951592381361068
2016-07-26,1,0.0015588117745290481,0.001624846227893708,-0.0034133385647729187,0.00390931454663319,0.9956055922642917
2016-07-28,1,0.001207302571200111,0.0012432051023341009,-0.004859279759682146,0.00390931454663319,0.9947604766752769
2016-08-01,1,0.0012303090093498028,0.001249639717585434,-0.004859279759682146,0.004544268163549332,0.9939191746345738
2016-08-03,1,0.0009543406607351848,0.0009766443149678435,-0.003503163627776788,0.004544268163549332,0.994399153334493
2016-08-05,1,0.0008815467452711219,0.0008883235789013968,-0.003503163627776788,0.004544268163549332,0.9943212697381575
2016-08-09,1,0.0006937869445709246,0.0007544645463320823,-0.005590222216371167,0.003988344393805491,0.9941462626509721
2016-08-11,1,0.0004238260033392652,0.0005311448403489016,-0.007051031125637434,0.0033898988624877172,0.9939011360426796
2016-08-15,1,0.00010444751962462471,0.0002719256626319834,-0.008385498110620736,0.0033898988624877172,0.9927912975740146
2016-08-17,-1,-0.0005372650486605509,-0.0002771004797012318,-0.008156276791918639,0.004305941975764707,0.9926933093342306
2016-08-19,-1,-0.00034820950095941516,-0.00013912966900701883,-0.008156276791918639,0.004438692548960203,0.9924640394264127
2016-08-23,-1,-0.00020818604911388133,-1.3383675523237232e-05,-0.008156276791918639,0.0054851297285749495,0.9922312954376794
2016-08-25,-1,-0.0012863891070457945,-0.0009556775429280997,-0.001759841795107621,0.008110639834555412,0.9929499435716128
2016-08-29,-1,-0.000385622695324915,-0.00017225821555115592,-0.0031580481514301944,0.004140141811003179,0.9936304086423263
2016-08-31,-1,-0.0008717850434232832,-0.000584476498369801,-0.0043397009239454325,0.004140141811003179,0.9932487269442486
2016-09-02,-1,-0.0004628870705764293,-0.00025828072814989536,-0.0043397009239454325,0.005178027992925699,0.9928727529482158
2016-09-07,-1,-0.0011578409565774683,-0.0008621290249665279,-0.0022246675872411295,0.005178027992925699,0.9930758140758282
2016-09-09,-1,-0.0015378323958789653,-0.0012180155204611321,-0.0022246675872411295,0.005178027992925699,0.9936064635605383
2016-09-13,-1,-0.0015223430285880393,-0.0012106274641749829,-0.0022246675872411295,0.004140141811003179,0.9933379217512507
2016-09-15,-1,-0.0009759761309237907,-0.0007438403307941707,-0.003444748949849318,0.004140141811003179,0.993634157149408
2016-09-19,-1,-0.0009917964540080005,-0.0007556631290122703,-0.004147177614807991,0.002907954077952042,0.9935654353897331
2016-09-21,-1,-0.0006359047136851011,-0.0004311518300698364,-0.004147177614807991,0.002265627844633317,0.993584351127637
2016-09-23,-1,-0.00047971974627398356,-0.00029639214852944474,-0.004147177614807991,0.002265627844633317,0.9937636394114023
2016-09-27,-1,-0.0009833598716165917,-0.0007374590571089125,-0.005116728808652805,0.002265627844633317,0.9936946417857243
2016-09-29,-1,-0.0014213399932067935,-0.0011408656612779656,-0.005116728808652805,0.002265627844633317,0.9937009237357997
2016-10-03,-1,-0.0008480756806191537,-0.0006486492028919748,-0.005116728808652805,0.002265627844633317,0.9936901356375704
2016-10-05,-1,-0.0011003804397773137,-0.0008601188288095732,-0.007218924014031252,0.0021863598462996767,0.9932146879684878
2016-10-07,-1,-0.0012744675492981099,-0.0010144942912139246,-0.007218924014031252,0.004579629429323817,0.9926801203328772
2016-10-11,-1,-0.002696870215919784,-0.002252532421590105,-0.005116728808652805,0.005899287197473989,0.992677322776678
2016-10-13,-1,-0.002479724953520136,-0.0020733190031359434,-0.007218924014031252,0.0050565451705764,0.9924597217430561
2016-10-17,-1,-0.0026255105308264333,-0.002217922840934413,-0.00838439079220618,0.0050565451705764,0.9905520921975587
2016-10-19,-1,-0.002086355695599917,-0.0017456326698883006,-0.00838439079220618,0.006371415703625707,0.9899967193826293
2016-10-21,-1,-0.0022866340116362927,-0.0018983182009096593,-0.01013193790836582,0.006894235369257164,0.989251168372522
2016-10-25,-1,-0.002317472953994136,-0.0019710079538084423,-0.011329633757974182,0.006894235369257164,0.9856268263822712
2016-10-27,-1,-0.00275616212477174,-0.002375420737553446,-0.008552321489924334,0.008258163531834657,0.9847582502967049
2016-10-31,-1,-0.0016002491954829785,-0.0014088310656430124,-0.011329633757974182,0.006894235369257164,0.98432381537189
2016-11-02,-1,-0.002201674205481688,-0.0019321608065366838,-0.01184614707568209,0.006894235369257164,0.9843125897875887
2016-11-04,-1,-0.002030063065113057,-0.0017493892299303782,-0.01184614707568209,0.005415203037112829,0.9847889949661791
2016-11-08,-1,-0.0009363301889761539,-0.0007832220759392402,-0.01184614707568209,0.0028912992679992508,0.9853647823688293
2016-11-10,-1,-0.001566890423612185,-0.0013507659725474504,-0.008552321489924334,0.006535454236534775,0.9854033348891873
2016-11-14,-1,-0.0025217789245807988,-0.002223009343931107,-0.0061141266289435545,0.006535454236534775,0.9872551525236397
2016-11-16,-1,-0.002414917861998108,-0.002049576666955981,-0.0061141266289435545,0.0026594589703464464,0.9885614967000372
2016-11-18,-1,-0.0017802050547377735,-0.0015600954806436907,-0.005071539809681641,0.0018339660448462361,0.9892630302514027
2016-11-22,-1,-0.0023799462363703694,-0.0021265675653298253,-0.0061141266289435545,0.0018339660448462361,0.9927609448944343
2016-11-25,-1,-0.0014976776143945983,-0.0013669671449837747,-0.0061141266289435545,0.0019912644406417847,0.9938681351963692
2016-11-29,-1,-0.002023116121347292,-0.0018533704349385084,-0.004766374692129861,0.0019912644406417847,0.9949272034511611
2016-12-01,-1,-0.0024508438761606834,-0.0022424782681375382,-0.004403059886092575,0.0019912644406417847,0.995518963625275
2016-12-05,-1,-0.002543998369108621,-0.0023252564366786728,-0.004403059886092575,0.0024082104661242547,0.9949361640936222
2016-12-07,-1,-0.0020918673188041826,-0.0019149617477036776,-0.004684624880678513,0.0024082104661242547,0.9938448097167073
2016-12-09,-1,-0.0013884406611775174,-0.0013226769610197838,-0.004684624880678513,0.0034224143991011826,0.9932664600501869
2016-12-13,-1,-0.0017908074526556093,-0.0016438114564323906,-0.005210853340850814,0.0044455465414240235,0.9929953044008162
2016-12-15,-1,-0.0011848769276515854,-0.00114463429260748,-0.005210853340850814,0.009087149765768705,0.9925760760114645
2016-12-19,-1,-0.0016729307263131869,-0.0015535547673549215,-0.005202568441844785,0.009087149765768705,0.9926485763871594
2016-12-21,-1,-0.0019597688168788946,-0.0018233447803594133,-0.0041710024413094526,0.009087149765768705,0.9933402500286986
2016-12-23,-1,-0.0021615578238470094,-0.0019745902137414534,-0.004472301479806165,0.009087149765768705,0.9927554680389866
2016-12-28,-1,-0.0018298766674179649,-0.001690119554232858,-0.005177450657628656,0.0094407244069919,0.991956770130865
2016-12-30,-1,-0.00185980916510987,-0.001737707815809584,-0.005177450657628656,0.010363934375526643,0.9911007895016596
2017-01-04,-1,-0.0015931411173429485,-0.0015074845699725263,-0.004310097957646489,0.010363934375526643,0.9918810260500389
2017-01-06,-1,-0.00041213486255639207,-0.0003459093002850048,-0.004266614358309182,0.00918081246748019,0.9931383278910982
2017-01-10,1,0.00041127752578921863,0.0005693998804890941,-0.004759137230805352,0.006383936718941026,0.9939186229535464
2017-01-12,1,0.0006238912421138559,0.0008101342147240664,-0.004266614358309182,0.0056020068400247335,0.9943295842700383
2017-01-17,1,0.0011633325403009884,0.0014403117126891617,-0.004266614358309182,0.0056020068400247335,0.9943026492826501
2017-01-19,1,0.00039964071873567573,0.0005205385871950743,-0.003831089460997845,0.006467761754360382,0.9941344587235138
2017-01-23,1,0.0007057673914527609,0.0009271032113159597,-0.0017234436907793047,0.009232445539907397,0.9931066738373422
2017-01-25,1,0.0005236936524946597,0.0007094380703813038,-0.0017234436907793047,0.010436611119412614,0.9928225178302371
2017-01-27,1,0.0006043589517064089,0.0008190612745404769,-0.001653365576842262,0.00885489506689993,0.9934208316478932
2017-01-31,1,0.0010456506492560942,0.001294857037073023,-0.000460447303395194,0.00885489506689993,0.993950857216184
2017-02-02,1,0.0007808454136574196,0.0009446277990847274,-0.0011274813967408449,0.00885489506689993,0.9937305912806361
2017-02-06,1,0.0010718356960693586,0.0012669013093559796,-0.0016183796257046245,0.00885489506689993,0.9939852528379459
2017-02-08,1,0.000949881616249639,0.0011691536836459298,-0.0011274813967408449,0.010083173980162924,0.9936493388240214
2017-02-10,1,0.0013052477053579954,0.001573839786606451,-0.0016183796257046245,0.010083173980162924,0.9938091048771377
2017-02-14,1,0.002064401437380247,0.002467845120546797,-0.0017393001083808222,0.00960767556832227,0.9937782414609492
2017-02-16,1,0.00262776786662121,0.0031296694589157325,-0.0022186563756243713,0.00960767556832227,0.9930962648487175
2017-02-21,1,0.003508005216910512,0.004087005877986655,-0.003740684020045128,0.0053993050131738805,0.9931877068041463
2017-02-23,1,0.003225232296293652,0.0037330541931214207,-0.0035127570288215663,0.003915890968080978,0.9940271430083246
2017-02-27,1,0.0034129308448173626,0.003973230229264103,-0.0022759181123935012,0.0034868165899743075,0.9940390183186961
2017-03-01,1,0.004024303716140766,0.004659405113538104,-0.0036053351145411998,0.0034868165899743075,0.9939365158688701
2017-03-03,1,0.003755040121990871,0.004344941113090019,-0.003740684020045128,0.0034868165899743075,0.9938359638166278
2017-03-07,1,0.002971732018043122,0.0034059169765210872,-0.00387935175506908,0.004904699247010265,0.9942758560333814
2017-03-09,1,0.0035754269992260826,0.0040863168354112,-0.0045262179791715545,0.002053457100310267,0.9938403968682069
2017-03-13,1,0.0032301360199648915,0.0036932359570060478,-0.0045262179791715545,0.0017660042374995622,0.9940327367738812
2017-03-15,1,0.0035599696718868557,0.004065424011087718,-0.003941789431351183,0.0007106114805105373,0.9939922443938719
2017-03-17,1,0.0032693363375357323,0.003771711497922435,-0.0036053351145411998,0.0007106114805105373,0.9950362538526096
2017-03-21,1,0.0023072807769860446,0.002613534810625802,-0.0018535100841688852,0.0007106114805105373,0.9963660445361997
2017-03-23,1,0.001886857673344803,0.0021257902099549152,-0.0022957436473559556,0.0017660042374995622,0.9962748713781752
2017-03-27,1,0.0020943599272674816,0.0023583223052132973,-0.0022957436473559556,0.0026778359043309213,0.9957061656914924
2017-03-29,1,0.0018282648647547914,0.0020265435897535333,-0.0018535100841688852,0.004442754453115486,0.9956131092786645
2017-03-31,1,0.0016928226171373127,0.0019006086935536258,-0.000934113398498303,0.004944330897929738,0.9957792310119059
2017-04-04,1,0.002266603953083529,0.002597147874595372,-0.000934113398498303,0.005441502199487486,0.99523478706749
2017-04-06,1,0.0017515232334125706,0.0019638126569535095,-0.000934113398498303,0.005441502199487486,0.9955225960876718
2017-04-10,1,0.0010617487934159978,0.0011154580292579504,-0.0013096658433310701,0.005441502199487486,0.9951571099543819
2017-04-12,1,0.0012174647616190627,0.001328915241021641,-0.0013777815246592648,0.005441502199487486,0.9950616176256372
2017-04-17,1,0.0012531148123245649,0.00136110246013323,-0.0008960079891692687,0.008024905696726847,0.9947869022751527
2017-04-19,1,0.0003110317473156323,0.0003994188302007375,-0.003132598771148341,0.008024905696726847,0.9938449015317511
2017-04-21,1,0.0010671977088776994,0.0011573163984372687,-0.0025690760219956236,0.008024905696726847,0.9940376245478575
2017-04-25,1,0.0011794276753256967,0.001226787728760465,-0.0025690760219956236,0.008024905696726847,0.993983887727198
2017-04-27,1,0.0013032085481408458,0.0013164476990955745,-0.0025690760219956236,0.008024905696726847,0.9942010024844695
2017-05-01,1,0.0013671765933045037,0.001374628982762252,-0.0037089634061999114,0.007694157684067335,0.9940502277814376
2017-05-03,1,0.0015196352460818373,0.0015584748486647253,-0.0037089634061999114,0.007694157684067335,0.9936106070342258
2017-05-05,1,0.0016162082437668568,0.0017018497327205284,-0.0037089634061999114,0.007694157684067335,0.9935755953817055
2017-05-09,1,0.0011570486817580555,0.0011774260574100414,-0.0030517133011677706,0.007694157684067335,0.9940343150463896
2017-05-11,1,0.0008533178287644155,0.000875194353696375,-0.0027823453897990683,0.007694157684067335,0.9940330591478617
2017-05-15,1,0.0011794541854884967,0.0011818277534938627,-0.0030517133011677706,0.007819212162626462,0.9936831570152983
2017-05-17,-1,-0.0002472550992411156,-3.9364722579644405e-05,-0.0027823453897990683,0.007819212162626462,0.9944384286719941
2017-05-19,0,-1.2463961631873732e-05,0.0001625314401726719,-0.0010246688847551939,0.007819212162626462,0.9943738826845904
2017-05-23,1,0.0003821893879443964,0.0005209102276653157,-0.0021084724138642603,0.005528584998072828,0.9950579475931911
2017-05-25,1,0.0004378890177796836,0.0005919128945579529,-0.0021084724138642603,0.0048835641256726224,0.995404666640341
2017-05-30,0,-0.00010043744625888498,0.00012800635001054318,-0.0008979417309605852,0.0048835641256726224,0.9956221370377808
2017-06-01,1,0.0008792859781343254,0.0009478649971105587,-0.0008979417309605852,0.0048835641256726224,0.9963022319079071
2017-06-05,1,0.0012450912443073181,0.0012664115744184606,-0.0004890480298320776,0.0048835641256726224,0.9963972252837542
2017-06-07,1,0.0011090445163724795,0.0011296829438490166,-0.0008979417309605852,0.0048835641256726224,0.9955445613613406
2017-06-09,1,0.0013443679931807325,0.0013991290252199308,-0.002442266041433965,0.0048835641256726224,0.9950229103726451
2017-06-13,1,0.0014303580234858143,0.0014727416652132706,-0.0008979417309605852,0.0048835641256726224,0.9955995265497692
2017-06-15,1,0.001279576806112288,0.0012844304672138696,-0.0008979417309605852,0.005029391861344517,0.9954533033127112
2017-06-19,1,0.0015756526317050059,0.00159364447353746,-0.0028396467819310238,0.0017707118533876604,0.9942796686449566
2017-06-21,1,0.0014680377132036463,0.001473227319869277,-0.0028396467819310238,0.0017707118533876604,0.9943385430165381
2017-06-23,1,0.0018864477068244038,0.0019786837305778735,-0.0044876957864425455,0.0007694607082485113,0.9937192195162063
2017-06-27,1,0.0014554928329247115,0.0014861217105009864,-0.0032891978214319812,0.002196061588029136,0.9937497679364506
2017-06-29,1,0.0013143516773978126,0.0013157555543786103,-0.004913262252006284,0.0007694607082485113,0.9934574183561494
2017-07-03,1,0.001023942763700738,0.001072789175008991,-0.0054784206586661055,0.0007694607082485113,0.9931238101031884
2017-07-06,1,0.00023699850550056755,0.000370888838148785,-0.004793952836579846,0.0007865443085489533,0.9942172567857468
2017-07-10,1,0.00032812862782783157,0.00043400225810684363,-0.00402495226870152,0.0019819407411273944,0.9944006302116866
2017-07-12,1,0.0007145942127650034,0.0007556105275758362,-0.004793952836579846,0.0011691864120154463,0.9941492024715259
2017-07-14,1,0.0012672248061630983,0.0013463329060300585,-0.0054784206586661055,0.0011691864120154463,0.9934077854676173
2017-07-18,1,4.6557543539959076e-05,0.0001213108615207279,-0.004793952836579846,0.002244164499295769,0.99492510968003
2017-07-20,-1,-0.0001219469979570551,-2.5453344254760862e-05,-0.0054784206586661055,0.002244164499295769,0.9945290077274918
2017-07-24,-1,-7.086303377717434e-05,-1.0026129774331664e-05,-0.004793952836579846,0.002244164499295769,0.9946198641572955
2017-07-26,1,1.088181767181534e-05,5.8560358815752266e-05,-0.007510227124283515,0.0014232762028994418,0.9929514564370221
2017-07-28,-1,-0.0006746984615170651,-0.000525965015207936,-0.0063963558156344014,0.0014232762028994418,0.9934755254018351
2017-08-01,-1,-0.0006673796658174817,-0.0005533983954924245,-0.0063963558156344014,0.0023956812100890033,0.9933785500337615
2017-08-03,-1,-0.000758351923080319,-0.0006350926482434935,-0.0063963558156344014,0.005187759128961384,0.9929904953995691
2017-08-07,-1,-0.0001351733993465223,-9.340190213271694e-05,-0.006567842913038751,0.0016641090458593276,0.9932353736570058
2017-08-09,-1,-0.0006083455327044629,-0.00048454255046137074,-0.006563808803958825,0.0016641090458593276,0.9935295100727322
2017-08-11,-1,-0.001107114070328927,-0.0008998890892609656,-0.005895972341396766,0.0016641090458593276,0.9928940972519513
2017-08-15,-1,-0.0008611008760532517,-0.0006751311837398492,-0.005895972341396766,0.0016641090458593276,0.992831781710059
2017-08-17,-1,-0.001290997817115442,-0.0010574526680806788,-0.004804241875231045,0.002295098263133748,0.9931331709948082
2017-08-21,-1,-0.0013259266655612015,-0.001084753281798457,-0.005895972341396766,0.003535216223764749,0.9924635360180424
2017-08-23,-1,-0.0033888350323072053,-0.002891804460442237,-0.005895972341396766,0.003535216223764749,0.993545969807547
2017-08-25,-1,-0.003605187662153655,-0.003079786931604229,-0.006064770032747833,0.003535216223764749,0.9927126576572878
2017-08-29,-1,-0.003406596434086348,-0.0028954176278839184,-0.006839705536332976,0.0024555587336106007,0.9931011034864801
2017-08-31,-1,-0.002909898728192916,-0.0024553040081891106,-0.006839705536332976,0.0014926638580010877,0.9937541785163382
2017-09-05,-1,-0.003472561934096615,-0.0029467734691376,-0.0059879379188548165,0.0024555587336106007,0.993358361329084
2017-09-07,-1,-0.00335388670529751,-0.0028449947463218706,-0.0059879379188548165,0.00367832608868743,0.9925833014237639
2017-09-11,-1,-0.0025271494435770356,-0.0021246427030208585,-0.007036990564680301,0.0036435951043695294,0.9923621387467613
2017-09-13,-1,-0.0017156159225352264,-0.0013950392369172409,-0.007036990564680301,0.003807783610442555,0.9922188609391113
2017-09-15,-1,-0.00122531373634523,-0.0009959670910688562,-0.007036990564680301,0.0036435951043695294,0.9922411712940631
2017-09-19,-1,-0.0013881729312287534,-0.001169961311901202,-0.004956982662190667,0.0036435951043695294,0.99270803038603
