JNU-Tangyin/eata/results/Batch4_SP500/Batch4_SP500-PPG.csv
Date,Action,Predicted_Q25,Predicted_Q75,Actual_Q25,Actual_Q75,RL_Reward
2010-12-14,0,0.0,0.0,-0.003750549739649621,0.0059130642319076025,0.9938694651468629
2010-12-16,0,0.0,0.0,-0.003750549739649621,0.0059130642319076025,0.9939533404269345
2010-12-20,0,0.0,0.0,-0.004408347616466651,0.004628411243901336,0.9942305284099409
2010-12-22,0,0.0,0.0,-0.005021712068659409,0.006042405904334539,0.9930661772365288
2010-12-27,0,0.0,0.0,-0.005021712068659409,0.007295598034104331,0.9924369817156778
2010-12-29,0,0.0,0.0,-0.00591154852058448,0.007295598034104331,0.9919227787979304
2010-12-31,0,0.0,0.0,-0.007050697482774208,0.007958615141749401,0.9912375227279628
2011-01-04,0,0.0,0.0,-0.007050697482774208,0.010269179216272753,0.9908312544906525
2011-01-06,1,0.0015930436311230975,0.0016068093778341625,-0.007050697482774208,0.010269179216272753,0.9911037668193463
2011-01-10,1,0.00044680036683886784,0.0005623978762597649,-0.00591154852058448,0.010269179216272753,0.9914884045555784
2011-01-12,1,0.00017379157952149315,0.0003569142547890778,-0.005021712068659409,0.01025967610795178,0.9916428818046354
2011-01-14,-1,-0.0003159864257982622,-4.320807347489152e-05,-0.0032775259621546636,0.010346968916972529,0.9916177635556435
2011-01-19,-1,-0.0003016503989134589,-4.022883702613125e-05,-0.0018783875617029485,0.010346968916972529,0.9916096499325562
2011-01-21,1,0.0007123056211290947,0.000845385816320945,0.0005379511158957631,0.010346968916972529,0.9925302903440496
2011-01-25,1,0.001401573243559043,0.0014123050022894963,-0.0035399453590934716,0.00879818431062368,0.9913849746213953
2011-01-27,1,0.002110732610108457,0.002203311236207977,-0.0035399453590934716,0.00879818431062368,0.9916019060767497
2011-01-31,1,0.0012725599965113003,0.0012763023176138606,-0.0035399453590934716,0.00879818431062368,0.9915184485474176
2011-02-02,1,0.0004686808619728183,0.0005300533623507044,-0.0018783875617029485,0.00879818431062368,0.9917497474540887
2011-02-04,1,0.0016105944398986678,0.0016382251860388585,-0.0061265943320958265,0.00879818431062368,0.991002849910511
2011-02-08,1,0.0017666303520734016,0.0018158503632481823,-0.00700972213143776,0.010086199717185506,0.9901914364619451
2011-02-10,1,0.0018577940388705726,0.0019298964753067358,-0.00762628883886606,0.010086199717185506,0.9894370265993914
2011-02-14,1,0.002074856905326918,0.0021512392350886466,-0.009545510681758879,0.00905805126572172,0.9890896795010929
2011-02-16,1,0.0020344150086883997,0.0021330454351695997,-0.011843490570423842,0.011185796616222998,0.9877148476437542
2011-02-18,1,0.002179688659280303,0.002273573519671921,-0.011843490570423842,0.012253628744000648,0.987719739959908
2011-02-23,1,0.001538989491884457,0.0015435910029543524,-0.009545510681758879,0.012253628744000648,0.9894155524793782
2011-02-25,1,0.0014672871792728109,0.0014990704886395576,-0.009545510681758879,0.011185796616222998,0.9901098150526493
2011-03-01,1,0.0018615968622884102,0.001920887686945283,-0.009545510681758879,0.012253628744000648,0.990394624401302
2011-03-03,1,0.0013365728555941737,0.0014025935688627797,-0.009545510681758879,0.012253628744000648,0.988023869997299
2011-03-07,1,0.0007937937898698918,0.0007968534558097663,-0.005856734111585909,0.01281729420705631,0.9884587697943507
2011-03-09,1,0.0009423575271671291,0.0009669983919715053,-0.0024149785316088255,0.012253628744000648,0.9895285589516606
2011-03-11,1,0.0008434885057585625,0.0008605375766282037,-0.0039717721888282,0.009571913122141052,0.990371622652025
2011-03-15,1,0.0007220044622409759,0.0007293900814165985,-0.004473372793361791,0.009571913122141052,0.9902513406864938
2011-03-17,1,0.00045529632724267545,0.0005029431006695565,-0.004473372793361791,0.0055408321881787416,0.9910500875634536
2011-03-21,1,0.0009379361432165447,0.0009593766089169775,-0.005856734111585909,0.002921003920020134,0.9909447876430539
2011-03-23,1,0.0006594687454491847,0.0006962012951254419,-0.005022956570032963,0.009812046505554067,0.9897623987043729
2011-03-25,1,0.0008803124257715357,0.0008921952125080154,-0.0075287793233472745,0.005172663770643306,0.989605983497089
2011-03-29,1,0.0013073429094429267,0.0013689591279287703,-0.0075287793233472745,0.003233174661046289,0.9897329746303221
2011-03-31,1,0.0023111780288218855,0.0025364945009593185,-0.0050462504517808145,0.005664735135112191,0.992351525238428
2011-04-04,1,0.0022771286357711916,0.0024642864717991497,-0.008806222066320346,0.0031957151726438073,0.991548142858955
2011-04-06,1,0.0016771390019326786,0.0017946965712862138,-0.012517999529659598,0.0031957151726438073,0.9908218619527513
2011-04-08,1,0.0009425678763921859,0.0009560905333682333,-0.012517999529659598,0.005664735135112191,0.991167142244199
2011-04-12,1,0.0006717944463354716,0.0007552413078706162,-0.01298885930525686,0.005664735135112191,0.9908625813143216
2011-04-14,-1,-0.0003038990381964528,-0.0001377148920416891,-0.01298885930525686,0.005664735135112191,0.990901607172297
2011-04-18,0,0.0,0.0,-0.012974214690897424,0.005664735135112191,0.9908202999777436
2011-04-20,0,0.0,0.0,-0.012974214690897424,0.00551571343364401,0.9914837580629061
2011-04-25,0,0.0,0.0,-0.013611332652723528,0.00551571343364401,0.9909021961676892
2011-04-27,0,0.0,0.0,-0.013611332652723528,0.00551571343364401,0.9901663807166952
2011-04-29,0,0.0,0.0,-0.013611332652723528,0.0026410432295795585,0.9902021001210973
2011-05-03,0,0.0,0.0,-0.013611332652723528,0.006117436461550124,0.9899642890114336
2011-05-05,-1,-0.0006915708441651366,-0.0004195259935042328,-0.013611332652723528,0.006117436461550124,0.9901606762286257
2011-05-09,0,-0.0001628685615179873,4.0606420170783255e-05,-0.013611332652723528,0.006117436461550124,0.9891955674309648
2011-05-11,-1,-0.000980845262875466,-0.000680389650770816,-0.013611332652723528,0.008425478063787694,0.9895175716783843
2011-05-13,-1,-0.001637469061641126,-0.0012816873967822,-0.013501381741611166,0.008425478063787694,0.9897398464788766
2011-05-17,-1,-0.002234802372779338,-0.0018137443983677144,-0.013705073937218433,0.009756276919206755,0.9888148296522753
2011-05-19,-1,-0.0012440665460756936,-0.0010733658929043773,-0.013705073937218433,0.008425478063787694,0.9889143970703688
2011-05-23,-1,-0.0015876393421183385,-0.0013923883361344782,-0.01070162452815946,0.009756276919206755,0.9882513525118513
2011-05-25,-1,-0.0015154564869136501,-0.0013299832940006778,-0.01070162452815946,0.008425478063787694,0.989042051651839
2011-05-27,-1,-0.0011911811609307743,-0.001027717955086228,-0.01070162452815946,0.008415585821811209,0.9893561644318404
2011-06-01,0,0.0,0.0,-0.008683184873847175,0.008415585821811209,0.9896236934882134
2011-06-03,-1,-0.002316486421238273,-0.0019941906708756734,-0.004487596601034775,0.013068778272958556,0.9887020138460391
2011-06-07,0,0.0,0.0,-0.003387459748624186,0.011280421696568139,0.9898439389325602
2011-06-09,0,0.0,0.0,-0.003387459748624186,0.011280421696568139,0.9899058372522536
2011-06-13,0,0.0,0.0,-0.004102752534784242,0.011280421696568139,0.9895122179683424
2011-06-15,0,0.0,0.0,-0.004102752534784242,0.00975942560336424,0.9905093299608251
2011-06-17,0,0.0,0.0,-0.005569513317249889,0.011280421696568139,0.9897631363983767
2011-06-21,0,0.0,0.0,-0.005569513317249889,0.00975942560336424,0.9911237091611617
2011-06-23,0,0.0,0.0,-0.0061659942527998255,0.00975942560336424,0.9906241927377192
2011-06-27,0,0.0,0.0,-0.010918967233984889,0.00975942560336424,0.989521379536626
2011-06-29,0,0.0,0.0,-0.012015499662270428,0.007612308246758562,0.9895840476151089
2011-07-01,-1,-0.001839692332955798,-0.0016318537608206022,-0.012015499662270428,0.0024181059895700316,0.9912952752594436
2011-07-06,0,0.0,0.0,-0.01415501845073087,0.0024181059895700316,0.9895992250133891
2011-07-08,0,0.0,0.0,-0.01693355034436347,0.0015681349813353805,0.987648866172026
2011-07-12,1,0.00019774176361059742,0.00021228553013935612,-0.01693355034436347,0.003424597005356945,0.9828435242486196
2011-07-14,-1,-0.00033155368137461423,-0.000318842560040646,-0.019305382594419808,0.006243627048487025,0.9799135176347706
2011-07-18,-1,-0.0008931332210361332,-0.0007901487280728734,-0.019305382594419808,0.006243627048487025,0.9800595190081589
2011-07-20,-1,-0.0005814874698250616,-0.0005288682563377941,-0.019433436935820315,0.003693714023783071,0.9794518955473203
2011-07-22,-1,-0.0005907302930126099,-0.0005763742749360799,-0.023096675965068984,0.0021453974799741015,0.9762403394007516
2011-07-26,0,0.0,0.0,-0.02279329751273904,0.0047454523514966415,0.9757686997916349
2011-07-28,-1,-0.0013980566625183101,-0.0012069379029656852,-0.02279329751273904,0.01072142697547128,0.975952420247768
2011-08-01,0,0.0,0.0,-0.02279329751273904,0.018490681479824342,0.9733126256270157
2011-08-03,-1,-0.0026211887634369725,-0.0022801495892732456,-0.019332310785043667,0.018490681479824342,0.9738458633145121
2011-08-05,-1,-0.004170548989074459,-0.003642047198868568,-0.019686194265599456,0.018490681479824342,0.9749814252010278
2011-08-09,0,0.0,0.0,-0.01876453914053129,0.018490681479824342,0.9799303704131557
2011-08-11,0,0.0,0.0,-0.01876453914053129,0.014267401588513449,0.982567572494165
2011-08-15,-1,-0.003700534493916498,-0.003255195834690289,-0.01876453914053129,0.014267401588513449,0.9823823515712494
2011-08-17,0,0.0,0.0,-0.013315102757625402,0.017965867314385812,0.9818286124041007
2011-08-19,-1,-0.004425421147200135,-0.003928958774800468,-0.006588740900199586,0.017965867314385812,0.9835048670093912
2011-08-23,-1,-0.0033851076855708506,-0.0030832358210671398,-0.011375099396508291,0.017585953358427026,0.983337029286307
2011-08-25,-1,-0.003029983108583152,-0.0027908350261783535,-0.018559426870717967,0.017585953358427026,0.9816025445951654
2011-08-29,-1,-0.0017689872489438693,-0.0016975005791308349,-0.018559426870717967,0.017825393064795404,0.9806521711721176
2011-08-31,-1,-0.0008245198371334275,-0.0008133544923192383,-0.019686194265599456,0.017825393064795404,0.9788830064980066
2011-09-02,0,0.0,0.0,-0.023276829279555194,0.017825393064795404,0.9782458582187173
2011-09-07,0,0.0,0.0,-0.023276829279555194,0.019381026982704542,0.9768701035422483
2011-09-09,-1,-0.002593949797025927,-0.002374312230533423,-0.019534359539407027,0.019381026982704542,0.9771879684300583
2011-09-13,0,0.0,0.0,-0.019534359539407027,0.021191474072630764,0.9762879783343136
2011-09-15,-1,-0.000470005577187212,-0.0003743169222238021,-0.019534359539407027,0.02243226815098654,0.9770782342229454
2011-09-19,0,-3.6932196222383765e-05,0.00014265223611370384,-0.023383970772275872,0.02687706892904941,0.9760128389459806
2011-09-21,-1,-0.0012339622738907338,-0.0011830522221693562,-0.023371815729116577,0.02877873401411265,0.975633786465255
2011-09-23,0,0.0,0.0,-0.008179859372639263,0.029124727214459745,0.9758282940870273
2011-09-27,0,0.0,0.0,-0.022456973160256577,0.026942465953111873,0.9782412113574693
2011-09-29,0,0.0,0.0,-0.00787931645852015,0.029124727214459745,0.9771047392589591
2011-10-03,0,0.0,0.0,-0.003036774396727629,0.029124727214459745,0.977740609087628
2011-10-05,0,0.0,0.0,-0.00757688610818571,0.026756779833353776,0.9783518444143952
2011-10-07,0,0.0,0.0,-0.00749338197559896,0.026756779833353776,0.9779633015828546
2011-10-11,-1,-0.0009188473921419415,-0.0008870418183607549,-0.006505582464553296,0.02518325297892966,0.979322021928826
2011-10-13,-1,-0.0008190866961547487,-0.0008188281455984342,-0.021249139195134145,0.02518325297892966,0.9777912008217363
2011-10-17,1,0.0011443948752742324,0.001493558949847883,-0.012216586039459666,0.02370951309032047,0.979451257035191
2011-10-19,1,0.0011881826623823504,0.0014767395242645254,-0.012216586039459666,0.022789690552485267,0.9809168493024094
2011-10-21,1,0.0026508174607614873,0.003115219854186168,-0.021249139195134145,0.013550526062269174,0.9821684613815896
2011-10-25,1,0.00198520872123102,0.0023271840093207954,-0.02100308389248923,0.013550526062269174,0.9819629877326804
2011-10-27,1,0.004095411688170809,0.0047300313438069005,-0.02100308389248923,0.00639083872521769,0.9838267018360284
2011-10-31,1,0.0032216031174999655,0.0037305931274258268,-0.020925095617089176,0.0097142633758302,0.9839157484373647
2011-11-02,1,0.0029717861392976647,0.003418159867147127,-0.015485856974973233,0.0097142633758302,0.9827822257086564
2011-11-04,0,0.0,0.0,-0.019787533858625812,0.007701735199781651,0.9828651383195679
2011-11-08,0,0.0,0.0,-0.019787533858625812,0.007701735199781651,0.9827503469921478
2011-11-10,1,0.003173914133668471,0.003697456736203957,-0.019787533858625812,0.008050474472280085,0.9830233383002299
2011-11-14,1,0.0032215461412400527,0.0037431528320225095,-0.019787533858625812,0.004437857653730184,0.982656454451317
2011-11-16,1,0.0025490902275611066,0.0029750960990508986,-0.017540372482064706,0.004437857653730184,0.9834569222646623
2011-11-18,1,0.002705974539267968,0.003195193489731246,-0.017540372482064706,0.004437857653730184,0.9837228352943446
2011-11-22,1,0.002446052224923033,0.002953346093565074,-0.014922477505122472,0.010984186040048955,0.9838672818623956
2011-11-25,1,0.002031241513160676,0.002494492903299496,-0.014107279401757364,0.014435797835277799,0.9846178007183306
2011-11-29,1,0.0030231532651083704,0.003606216694082924,-0.014107279401757364,0.010511495506331403,0.9856528562490483
2011-12-01,1,0.003509597054382317,0.004125643581327546,-0.014107279401757364,0.010511495506331403,0.9878976743013851
2011-12-05,1,0.002900903391034222,0.003415235917700009,-0.013965676876173396,0.014095947262533593,0.9882900184122403
2011-12-07,1,0.0027808985431145602,0.003283958392057252,-0.013965676876173396,0.014095947262533593,0.9882862712802181
2011-12-09,1,0.002912996534051592,0.003446115197533334,-0.010166112712506468,0.014095947262533593,0.9889277137808127
2011-12-13,1,0.001868449983223699,0.0022703842207919952,-0.005293135839081115,0.014912425274063442,0.9898460406593187
2011-12-15,1,0.0012563070208792292,0.0015232499732778897,-0.005168509288224866,0.014912425274063442,0.9898985077363499
2011-12-19,1,0.0008104150224774826,0.0009795088699263912,-0.005168509288224866,0.016395599044456595,0.9889744604362937
2011-12-21,1,0.0016522309917710047,0.0019282337426956473,-0.005579210152374361,0.014095947262533593,0.9900913413271778
2011-12-23,1,0.0019276561251887641,0.002233314779353731,-0.005579210152374361,0.013536982822813936,0.9903831568455579
2011-12-28,1,0.0012932374174500318,0.0014457218851352705,-0.005579210152374361,0.013536982822813936,0.9906065574837539
2011-12-30,1,0.0015563276910739486,0.001713614564600004,-0.005168509288224866,0.011101049997562428,0.9915255293650348
2012-01-04,1,0.0012184347932755503,0.0012906845812939256,-0.0057404466196467165,0.011101049997562428,0.9910398456365433
2012-01-06,1,0.0012074628660363384,0.0013019998635221612,-0.005168509288224866,0.013485588499983504,0.9906568432754469
2012-01-10,1,0.001267110329177096,0.0013092737546250574,-0.004159118078097531,0.011101049997562428,0.9916725829118129
2012-01-12,1,9.361209839913007e-05,0.00033294237583720806,-0.0057404466196467165,0.0070550259821152,0.9915183500288752
2012-01-17,1,0.0003797197346089193,0.0005548576026668716,-0.006260882244677811,0.006051624316000358,0.9916857236354275
2012-01-19,0,-9.450170460997636e-05,0.00017517538444049665,-0.006213213315037436,0.006051624316000358,0.992701401507424
2012-01-23,1,0.0016601009510285613,0.0017570187875282713,-0.004332596619774562,0.0054221281646957475,0.993578960024323
2012-01-25,1,0.001965963255742103,0.002095991353182381,-0.004332596619774562,0.004589394045024421,0.9937625025712857
2012-01-27,1,0.0010545730821754165,0.0010961360800547056,-0.004232562190840193,0.0054221281646957475,0.9930929045278127
2012-01-31,1,0.0012866679570928121,0.0012978621862102663,-0.005848394481423129,0.0054078429670881,0.9922574699400633
2012-02-02,1,0.0007836940480333146,0.0008538210640852469,-0.004232562190840193,0.0054078429670881,0.992720270016123
2012-02-06,1,0.0013650911008287107,0.0013843668567616752,-0.006213213315037436,0.004414081960370048,0.9924017243933267
2012-02-08,1,0.0017141309195870629,0.0018189220518483207,-0.006213213315037436,0.0054078429670881,0.991403699995253
2012-02-10,1,0.0012099885304929525,0.0012153622534896687,-0.005848394481423129,0.005237292614969609,0.9920373782605668
2012-02-14,1,0.00011098669795056945,0.00026627297435761625,-0.005913110028234328,0.009184508788930255,0.9916795542328474
2012-02-16,-1,-0.0005088003667048405,-0.00021090223941286552,-0.0028233966893939683,0.005237292614969609,0.9928846235806558
2012-02-21,1,0.000416104310257501,0.0005148460124641651,-0.005645210787262629,0.005591897545632394,0.992376970978912
2012-02-23,1,6.666994642435013e-05,0.00023904150284448508,-0.005981287189527592,0.004911014514981855,0.992053562867349
2012-02-27,-1,-0.0006487050404884937,-0.00032486658896121773,-0.005878137924301462,0.007890903914582463,0.9918429252495236
2012-02-29,0,-5.832577432774328e-05,7.737853140885639e-05,-0.005878137924301462,0.007890903914582463,0.99197406818023
2012-03-02,1,0.0003382478075635302,0.000427784224751213,-0.005878137924301462,0.007890903914582463,0.9923037596603919
2012-03-06,-1,-0.00023526635430982858,-9.808996156318356e-05,-0.0027746064879318856,0.00937222610154196,0.9914007262536672
2012-03-08,1,0.0008961531838782736,0.0009199185531250852,-0.005878137924301462,0.00937222610154196,0.9906964091085676
2012-03-12,1,0.00021834022556105201,0.0003249607485953486,-0.010653992251679383,0.00937222610154196,0.9887487386475851
2012-03-14,1,0.00038363184525520583,0.00045697012476409837,-0.010653992251679383,0.011899265861538784,0.987257241078294
2012-03-16,1,0.001447349404313809,0.0016319389983447633,-0.011731178242425004,0.013944069474255368,0.9864229951813241
2012-03-20,1,0.0011785236524330537,0.0012883543779278386,-0.011731178242425004,0.015843821033071383,0.9864115534116349
2012-03-22,1,0.001386399277113386,0.0015882886219271129,-0.010386209541232675,0.019001098538094906,0.985963964826198
2012-03-26,1,0.0014506861571417394,0.0016149718621750533,-0.010386209541232675,0.01605151746167336,0.9864716182583354
2012-03-28,1,0.0013273506684771022,0.0014925942463259393,-0.004939094835946917,0.020036763831026885,0.9857259733430608
2012-03-30,1,0.0018094720638782737,0.002065618751976612,-0.005847150585029686,0.020036763831026885,0.9858874770127439
2012-04-03,1,0.001910114205442902,0.0021922876003142647,-0.003067013186964048,0.01814646709291493,0.9871095174448402
2012-04-05,1,0.0018063324704172866,0.0020407097343680676,-0.003067013186964048,0.015421418548969374,0.9883135249630217
2012-04-10,1,0.0005211908940810823,0.0005848227571761522,-0.0006211512076012148,0.015421418548969374,0.9893923646865822
2012-04-12,1,0.0017048994462993338,0.0018873203138206952,-0.002985311865210597,0.011811938810047386,0.9916427388113913
2012-04-16,1,0.001660952139542129,0.0018406121956424698,-0.003729964970786463,0.010469791024050185,0.9914193439235499
2012-04-18,1,0.001552774050280213,0.0016763958245711408,-0.004433036531783915,0.009870668064630564,0.9912539946300951
2012-04-20,1,0.0016421512356763165,0.0017338134744481835,-0.006292609632640784,0.005586550354235653,0.9902492796854423
2012-04-24,1,0.0019776826536110344,0.0021592968077714437,-0.006292609632640784,0.005656229973837398,0.9896225113398894
2012-04-26,1,0.002823990907487808,0.003124344912638176,-0.006292609632640784,0.006046314074451784,0.9884444695095874
2012-04-30,0,0.0,0.0,-0.009283921595142762,0.012608737114569404,0.9883422889827966
2012-05-02,0,0.0,0.0,-0.010604148058553635,0.011564423215533737,0.9873637074697059
2012-05-04,0,0.0,0.0,-0.01228133539327442,0.011564423215533737,0.9853707003383662
2012-05-08,0,0.0,0.0,-0.01228133539327442,0.013237413292992876,0.9841256805716652
2012-05-10,0,0.0,0.0,-0.01228133539327442,0.013237413292992876,0.9835955837956221
2012-05-14,0,0.0,0.0,-0.01228133539327442,0.016288173763691374,0.9829534875823019
2012-05-16,0,0.0,0.0,-0.013934943476263867,0.016288173763691374,0.9824872555844782
2012-05-18,0,0.0,0.0,-0.010347898077724085,0.01902998917693564,0.9830676078763921
2012-05-22,0,0.0,0.0,-0.010347898077724085,0.016288173763691374,0.9834750419377641
2012-05-24,0,0.0,0.0,-0.013166193533775218,0.014341463143677782,0.98336986795797
2012-05-29,-1,-0.0014961037020570188,-0.0013048767912751556,-0.01781899351442362,0.013746445287254981,0.9826457642322575
2012-05-31,1,0.0004506924001214343,0.0005525704350334975,-0.013166193533775218,0.013746445287254981,0.9843689097332925
2012-06-04,-1,-0.0009299569096174916,-0.0006827217971107761,-0.004449209488751275,0.015496769356965735,0.9849370063593167
2012-06-06,1,0.00040053735246479245,0.0004688949238055382,-0.004449209488751275,0.013746445287254981,0.9868185407308698
2012-06-08,1,0.0007672421758757985,0.0007974005785369093,-0.014183228712950897,0.013746445287254981,0.9866283654569447
2012-06-12,0,0.0,0.0,-0.01259730586998528,0.008007831733397072,0.987193904121912
2012-06-14,0,0.0,0.0,-0.012008284400435177,0.013746445287254981,0.9869101168532333
2012-06-18,0,0.0,0.0,-0.012008284400435177,0.013746445287254981,0.9868245155855985
2012-06-20,0,0.0,0.0,-0.012008284400435177,0.015496769356965735,0.9838888413279184
2012-06-22,0,0.0,0.0,-0.012008284400435177,0.015396569531765446,0.9842427905475222
2012-06-26,0,0.0,0.0,-0.012008284400435177,0.008887751835715569,0.984859340743809
2012-06-28,-1,-0.0003978488243169526,-0.00034655211664313935,-0.012008284400435177,0.017556488990459244,0.9838461912399222
2012-07-02,-1,-0.0005206401269688329,-0.000443598821863891,-0.012008284400435177,0.009383565338892116,0.9848052293815683
2012-07-05,-1,-6.307722888440282e-05,-3.672539837610115e-05,-0.01244954137624079,0.009383565338892116,0.9843881025286751
2012-07-09,-1,-0.0006782056791227197,-0.0005622702627443015,-0.012008284400435177,0.015089804174469984,0.984462748628289
2012-07-11,-1,-0.0009095394338421881,-0.000790089622994942,-0.010319451945469522,0.015275727435214607,0.9846635424773329
2012-07-13,1,6.400243036739701e-05,7.025424923727159e-05,-0.010319451945469522,0.014554705444397194,0.9857399931933232
2012-07-17,0,-1.1037416634247945e-05,6.795179374061169e-08,-0.010589742141079139,0.008786492188571117,0.9862261483463697
2012-07-19,1,6.010786018548366e-05,6.967746596574638e-05,-0.010589742141079139,0.007352645989605123,0.9891920505780071
2012-07-23,1,0.0005382096175344131,0.0005638465751980045,-0.009863870580015812,0.006528827026042048,0.9907838879925126
2012-07-25,1,0.00014547500418719868,0.00014807163868489178,-0.007073706493078917,0.007352645989605123,0.989846698581422
2012-07-27,1,0.0005881213878592862,0.0006502717292888281,-0.010612459659844507,0.0057833336192263055,0.9902110401479024
2012-07-31,1,0.0003361245509727368,0.0003792808575664557,-0.007073706493078917,0.0057833336192263055,0.9908075666714002
2012-08-02,-1,-3.629244732278423e-05,-3.3480807927923746e-05,-0.007073706493078917,0.00669035704244011,0.9906864037876778
2012-08-06,1,0.00042224024343571684,0.0004713408476605028,-0.010195000391568353,0.0060633921525142945,0.9902225167822986
2012-08-08,1,4.894544895865481e-05,5.218542204469646e-05,-0.010195000391568353,0.0060633921525142945,0.988929837375084
2012-08-10,1,0.0003310683215861495,0.00034316591012705953,-0.010195000391568353,0.00783723603879931,0.9881457818751702
2012-08-14,0,0.0,0.0,-0.0058314788683156244,0.00783723603879931,0.9890343053788029
2012-08-16,0,0.0,0.0,-0.0058314788683156244,0.009173567306927227,0.9884412339482173
2012-08-20,0,0.0,0.0,-0.0055750281553457025,0.009173567306927227,0.9884448114337064
2012-08-22,0,0.0,0.0,-0.0032656630767511517,0.00805749710924922,0.9902736170505669
2012-08-24,0,0.0,0.0,-0.0050072222098293245,0.00805749710924922,0.9906069286751396
2012-08-28,0,0.0,0.0,-0.006600472832593289,0.00805749710924922,0.989999402480853
2012-08-30,0,0.0,0.0,-0.004451008833602038,0.0065697054504684224,0.9904783510417334
2012-09-04,0,0.0,0.0,-0.004451008833602038,0.005705751188735418,0.9913018020989214
2012-09-06,0,0.0,0.0,-0.004451008833602038,0.005668712025479941,0.9924650504867372
2012-09-10,0,0.0,0.0,-0.004451008833602038,0.005668712025479941,0.9932010824676843
2012-09-12,0,0.0,0.0,-0.006600472832593289,0.005668712025479941,0.9922872293856801
2012-09-14,1,0.0020352159777742803,0.002255391842964273,-0.0069653980059704145,0.004011325801636857,0.9923592654064698
2012-09-18,1,0.0019044264243067745,0.002142148249426561,-0.006600472832593289,0.006602418528256413,0.9918700986306555
2012-09-20,1,0.002143708364337479,0.002401669018495831,-0.006600472832593289,0.006602418528256413,0.9919626461855179
2012-09-24,1,0.002254031888389404,0.002559087191972286,-0.004794111271464549,0.006602418528256413,0.9920358819960529
2012-09-26,1,0.0011045363380628556,0.0012276682532240035,-0.004528939873071144,0.008336631497177662,0.9916429617799205
2012-09-28,1,0.0012550987334604975,0.0014080920513749912,-0.008425181458750243,0.008336631497177662,0.9915052067960946
2012-10-02,1,0.0009334870982568974,0.0010269764228661893,-0.0047222957149980795,0.01084740972762623,0.9899499620445633
2012-10-04,1,0.0011628956482131428,0.0012566960188812562,-0.010024359913234793,0.01084740972762623,0.9893126496688335
2012-10-08,1,0.0010735709381006968,0.0011381765645196375,-0.010844721299759885,0.012210625658235266,0.9882162071047005
2012-10-10,0,-1.7233906480203524e-05,0.00011425415675337373,-0.010844721299759885,0.012210625658235266,0.9878643071434953
2012-10-12,1,0.00019315946218833625,0.0002898295429804728,-0.010216078118484215,0.012210625658235266,0.9883820806481008
2012-10-16,1,0.0014503759010533763,0.001570407824908698,-0.010216078118484215,0.008640642404332835,0.9886326526523853
2012-10-18,1,0.0018691082548061891,0.002063576268842547,-0.010216078118484215,0.009095047714535847,0.9870865386711257
2012-10-22,1,0.0010295257604166642,0.00108500364857442,-0.009733392824757582,0.011807412923683296,0.9873756823115143
2012-10-24,1,0.0005849223594955134,0.0006807578344333425,-0.009261729501628424,0.011807412923683296,0.9881942423591589
2012-10-26,1,0.0004362210808501225,0.00046727923112872415,-0.006058585900981154,0.011807412923683296,0.9881793742553148
2012-11-01,1,0.0015288982490148878,0.0016466745263498369,-0.006058585900981154,0.011807412923683296,0.9895717982556187
2012-11-05,1,0.0014902433899871422,0.0016031634128891134,-0.006185314930398367,0.007447470537510227,0.9893682700760293
2012-11-07,1,0.00046818792888546806,0.0005289173031538196,-0.005673193516067982,0.007676597402374135,0.9892199794406881
2012-11-09,1,0.000531001242214659,0.000544826414170312,-0.005673193516067982,0.012693822759242177,0.9888432168643052
2012-11-13,1,0.0006418571417626322,0.0006477495957617489,-0.005673193516067982,0.012693822759242177,0.9882200049189362
2012-11-15,-1,-0.0004213134256029572,-0.0002664606448357501,-0.004262748940832469,0.01329467720777207,0.9870471309245671
2012-11-19,1,0.0007161631108332271,0.0007382199542598979,-0.004262748940832469,0.01329467720777207,0.9882642732246637
2012-11-21,1,0.0008855215511152837,0.0009086464864045465,-0.005082505881237882,0.01433817029975946,0.9872542729519159
2012-11-26,1,0.0009629602222450947,0.0009648717132351337,-0.005673193516067982,0.015502378548676166,0.9869069238229201
2012-11-28,1,0.0008337440882182691,0.0008476306825534479,-0.007400902021449977,0.015502378548676166,0.9865759681631596
2012-11-30,1,0.0007953029315701998,0.0008528331052728689,-0.007400902021449977,0.0180685433516532,0.9863334721901139
2012-12-04,-1,-0.0007151833978548454,-0.0004531366448772364,-0.00609685033995121,0.02006517959565401,0.9865059935589364
2012-12-06,1,0.0007842662277387084,0.0008119023920853453,-0.006432683029094544,0.0180685433516532,0.9873639219211676
2012-12-10,1,0.0010424745006370768,0.0010432575675137726,-0.004382574335115979,0.015502378548676166,0.9880950447633526
2012-12-12,1,0.001511329737412142,0.0016636763086344797,-0.0042163758260736085,0.015502378548676166,0.9888507739271056
2012-12-14,1,0.002533506629303114,0.002790866335869831,-0.0066155222530658855,0.01440095877353214,0.9900337790081046
2012-12-18,1,0.0024512702806720626,0.002632877984463706,-0.007287769535615059,0.01440095877353214,0.9894111859277694
2012-12-20,1,0.0032519415578031656,0.0035941242531854307,-0.006534792186801228,0.012926929605216828,0.9907313823717038
2012-12-24,1,0.0034327265930019393,0.00375482827810532,-0.005908260446695759,0.009379166547192449,0.991773543900996
2012-12-27,1,0.0017208500161991032,0.001807537852168824,-0.005908260446695759,0.009379166547192449,0.9911099500196474
2012-12-31,1,0.001988151135229015,0.0021125511827068235,-0.005990702989693631,0.007764414094799886,0.9916325545920682
2013-01-03,1,0.0024131720230398737,0.0026383905094975388,-0.006534792186801228,0.007764414094799886,0.9913722818489878
2013-01-07,1,0.0025014710621631487,0.002716203584869157,-0.006534792186801228,0.005854678511663089,0.9913787535793971
2013-01-09,1,0.0026858583280758384,0.0028733449712143744,-0.006534792186801228,0.004101604613271385,0.9917418869067545
2013-01-11,1,0.0028303803799793717,0.003069559935611096,-0.006534792186801228,0.004682656120260005,0.9915585743814129
2013-01-15,1,0.0016225717762729762,0.0017068008394248817,-0.006214785417210022,0.005610741532725435,0.9905992547813198
2013-01-17,1,0.0028700985275896943,0.0031378266700767586,-0.004547915711471427,0.004682656120260005,0.9917215296363564
2013-01-22,1,0.0018745242881197197,0.0019793256596705635,-0.01285134436004094,0.004101604613271385,0.9890097144723529
2013-01-24,1,0.0020621870386052015,0.0021712520406739527,-0.01285134436004094,0.004187084749642348,0.9878059415697339
2013-01-28,1,0.0012583428487363889,0.001277993228645075,-0.012460482845527846,0.006839600195999539,0.9878472197808789
2013-01-30,1,0.0008384631033906693,0.0009304050982854302,-0.012460482845527846,0.008677549145591403,0.9878861427686756
2013-02-01,1,0.001859555476046897,0.001977765020318113,-0.011036555115022632,0.005988349785920968,0.9892443958900469
2013-02-05,1,0.0015990021543838288,0.0016909517205771333,-0.006957899700373202,0.005988349785920968,0.9897083322845263
2013-02-07,1,0.0013552438462629364,0.0013996053771450057,-0.006957899700373202,0.008397686920320606,0.9893183492106425
2013-02-11,1,0.0014665751976976316,0.0015788200431920997,-0.006957899700373202,0.010854049297048588,0.989201886233377
2013-02-13,1,0.0015328097713374952,0.0016115240189703904,-0.002006222161710579,0.010854049297048588,0.9902287539208047
2013-02-15,1,0.001176124276163879,0.0012616803299597564,-0.005874152459571026,0.010854049297048588,0.9898650243311309
2013-02-20,-1,-0.0008434324717045971,-0.0006568877633187789,-0.001469086754471132,0.010854049297048588,0.9921705213862729
2013-02-22,-1,-0.00041770774740683316,-0.0002511987128563964,-0.0026357585698425713,0.006807137244830295,0.9919755598042499
2013-02-26,-1,-0.0004785555277521191,-0.0002796825550195689,-0.0026357585698425713,0.0052091516458970194,0.9928203548151316
2013-02-28,-1,-0.0005852728414603664,-0.0003695479533650716,-0.004882249568720542,0.0047390219167823084,0.993167454343268
2013-03-04,1,2.790218666621e-05,0.0001435712211820216,-0.004882249568720542,0.004084723164145633,0.9933085521173988
2013-03-06,-1,-0.0002593953780159443,-0.00010576290530528893,-0.0051037499539946405,0.004177348592779021,0.9930132132961227
2013-03-08,0,-3.1514683021105396e-05,0.00012141712263130216,-0.0067178902844548145,0.003377184057825549,0.9928105046969974
2013-03-12,0,-0.00011707483635828026,6.60951407221329e-05,-0.0067178902844548145,0.004177348592779021,0.9922809340142937
2013-03-14,1,0.0008521666259641506,0.000884716057867782,-0.007845356948973873,0.00220627637190611,0.9915541932611515
2013-03-18,1,0.0007646033770309693,0.0007938961991151651,-0.009681721960807063,0.005145834758142479,0.9891454650214503
2013-03-20,1,0.00024108792348063085,0.0003426690946627814,-0.011236631666000373,0.008950362988918985,0.9855415435548451
2013-03-22,-1,-0.0008383684991904361,-0.0006172186623143365,-0.007912451988803327,0.010307400843237679,0.9863115945387618
2013-03-26,-1,-0.0013318818284470625,-0.0010409583803376171,-0.0052829866230561335,0.010307400843237679,0.986497053065307
2013-03-28,-1,-0.0004336041297116347,-0.0003230909070540855,-0.007912451988803327,0.013444885404417847,0.9856774536434431
2013-04-02,-1,-0.001028643556707066,-0.0008120858029236185,-0.007912451988803327,0.01398733386028026,0.9850394372279664
2013-04-04,-1,-0.0009379816276249099,-0.0007341581635358273,-0.010708439980354735,0.014603809615182546,0.984106694500583
2013-04-08,-1,-0.0021506275671703662,-0.0017508672661686725,-0.005031844543071211,0.016841299224734534,0.9831544973362201
2013-04-10,-1,-0.0014588966501531582,-0.00113973078919244,-0.005031844543071211,0.016292377154203286,0.9834749795733717
2013-04-12,-1,-0.001675124333552448,-0.0013169436064800336,-0.004527060971886828,0.01398733386028026,0.984507749435653
2013-04-16,-1,-0.0012993352185380821,-0.0010217951310619068,-0.004053336560384505,0.01398733386028026,0.9860351598526683
2013-04-18,1,9.626604042827847e-05,0.0002022141402220874,-0.004031020174045371,0.013444885404417847,0.98988980701904
2013-04-22,1,0.00044561302971167277,0.0005016445776094106,-0.0059020259905312004,0.013589385981548472,0.9893374412171763
2013-04-24,1,0.00024376026131190404,0.0003138833868029493,-0.006442699561050926,0.013589385981548472,0.988753599359207
2013-04-26,1,0.00034122822005034443,0.0004037582326124312,-0.0059020259905312004,0.013003450741257814,0.9898100304989197
2013-04-30,1,3.4275274180991936e-05,0.00014207294588228404,-0.0059020259905312004,0.012110231580279575,0.9903430810033012
2013-05-02,1,0.0008416989623701736,0.0008819483383479431,-0.0059020259905312004,0.010207868218125861,0.990808416300014
2013-05-06,1,0.0010475443583270604,0.0010671332473547008,-0.006442699561050926,0.009705443716071446,0.9911949647485846
2013-05-08,1,0.0014605675711896458,0.0015177197966577268,-0.008084263235615948,0.004524597571509842,0.9904940664540082
2013-05-10,1,0.0017730994803401908,0.0019377319216088208,-0.0066630900011089775,0.00889049062111879,0.9895152866813169
2013-05-14,1,0.001721631345192921,0.0019206061795135699,-0.009105166282432896,0.004524597571509842,0.9897403018699177
2013-05-16,1,0.0013754650807376158,0.0015408167241520825,-0.009501727651202472,0.00889049062111879,0.9885564001630709
2013-05-20,1,0.0021673482404331724,0.0024278290129879105,-0.008877621678713294,0.00889049062111879,0.98929944564418
2013-05-22,1,0.0016669276637640935,0.0018043973618501916,-0.011470437289213545,0.004524597571509842,0.9881419355940245
2013-05-24,1,0.0019447875170164382,0.002173658018679055,-0.015014174142589693,0.004524597571509842,0.9872021972336764
2013-05-29,1,0.0018975312612206096,0.002108091336568607,-0.015014174142589693,0.008069336374808287,0.9868697285195108
2013-05-31,1,0.0012216668712285664,0.001341031136243983,-0.015014174142589693,0.008069336374808287,0.9872052261991657
2013-06-04,1,0.0007551330547053852,0.0008536370584228724,-0.015014174142589693,0.008069336374808287,0.9874637953115301
2013-06-06,1,0.0013693122359018516,0.0015451785653759725,-0.010682973268994521,0.009402154037431595,0.9880431515013958
2013-06-10,1,0.0009156211067427552,0.001017034243589055,-0.010682973268994521,0.009402154037431595,0.988170683824232
2013-06-12,1,0.0005156542616676221,0.0005928135279822384,-0.008215440352290479,0.013031173094443836,0.9884510329630936
2013-06-14,1,0.0012438493231476094,0.0014077231374632253,-0.005484256337180034,0.009124156915733159,0.990049393032625
2013-06-18,1,0.0018454214613951086,0.0020986171064229517,-0.009320694004464398,0.009124156915733159,0.989526889667037
2013-06-20,1,0.00047926848110526026,0.0005270246757985368,-0.004831119084994215,0.012826320109622195,0.9902828286485844
2013-06-24,1,0.00020964442625480702,0.00021305187735697856,-0.0032868894949771724,0.012826320109622195,0.9910095501294027
2013-06-26,1,0.0006820700571230132,0.0007411370986765156,-0.00399008613946985,0.012826320109622195,0.9906917922053788
2013-06-28,-1,-0.00014394767146004927,-7.094413102506743e-05,-0.00399008613946985,0.013250605505074224,0.989691724900438
2013-07-02,1,0.00042179018765090925,0.0004357079257757488,-0.00401361041593111,0.012826320109622195,0.9903524917066584
2013-07-05,1,0.0009650793348933366,0.0010469032238848866,-0.00401361041593111,0.012826320109622195,0.9905543706534397
2013-07-09,1,0.0014554590671072884,0.0016088740201633434,-0.00401361041593111,0.011066416019784319,0.9912656777424114
2013-07-11,1,0.0012228346158358115,0.0013316297095806772,-0.00401361041593111,0.006071345365396269,0.9917743245321478
2013-07-15,1,0.0002250579397141006,0.00033515820079683354,-0.0037641230305401696,0.006071345365396269,0.9922444879154879
2013-07-17,1,0.000543091614019246,0.000590399021046664,-0.0031164804751179216,0.005645624203277143,0.99289581028188
2013-07-19,1,0.0007397946373104312,0.0007677296847436446,-0.0031164804751179216,0.0038343738212006434,0.9928527680372327
2013-07-23,1,0.0004308038328525173,0.0004744025894328354,-0.0031243219006050083,0.005645624203277143,0.9921084270143551
2013-07-25,1,0.00069611902204636,0.0006984172767462944,-0.0028969102451294588,0.005079383758029288,0.9928493288513939
2013-07-29,1,0.0009369783702297338,0.0009455443126353419,-0.0028969102451294588,0.005079383758029288,0.9933090713709669
2013-07-31,1,0.0007178557988371812,0.0007202039288027034,-0.004983385892632689,0.005079383758029288,0.9922049852552097
2013-08-02,1,0.0010814400147660997,0.0011455932536293717,-0.004983385892632689,0.0032189662416488287,0.9927958843075291
2013-08-06,1,0.0010040341413386552,0.0010785617140500088,-0.004603097667562834,0.006435307976463394,0.9924668295763783
2013-08-08,1,0.001211179657857725,0.0012852700803987435,-0.008971545028506412,0.007102556717910552,0.9918432179397799
2013-08-12,1,0.0008359559307780655,0.0008610175739853383,-0.008971545028506412,0.010442694998397197,0.9908435851849634
2013-08-14,1,0.00028639489804193133,0.0003880590717303798,-0.009876297566524694,0.010442694998397197,0.9907066087504312
2013-08-16,-1,-0.00045635657107952784,-0.0002619846493504541,-0.008522343125643926,0.011454841400396914,0.9907748836554866
2013-08-20,-1,-0.00033831107149245084,-0.00016110066096744908,-0.00403526290231729,0.011454841400396914,0.9912205639197786
2013-08-22,-1,-0.000582788725234996,-0.00036004986324741526,-0.008522343125643926,0.011454841400396914,0.9910192326889143
2013-08-26,-1,-0.0008341730192957944,-0.0005888036938160307,-0.008522343125643926,0.010442694998397197,0.9913367221527
2013-08-28,-1,-0.0018747400404783238,-0.0014723130477571332,-0.0005639669962301226,0.01130537641304712,0.9912057032718504
2013-08-30,-1,-0.0014085749977536637,-0.0010956816664769967,-0.00403526290231729,0.01130537641304712,0.990718879457272
2013-09-04,-1,-0.0008844852311857502,-0.0006344593400271426,-0.00403526290231729,0.011175146032860885,0.9917815114682272
2013-09-06,-1,-0.0013975231931087047,-0.0010788620950391956,-0.0017823756560298998,0.01235788647840523,0.9912088756684742
2013-09-10,1,0.0002480023955124818,0.00031995878120208735,-0.008567348508918356,0.008075629202453045,0.9904211493339985
2013-09-12,0,-5.5506910590726554e-05,8.674273162022155e-07,-0.004050264696742099,0.011175146032860885,0.9903095898067722
2013-09-16,1,0.00041511270077014464,0.00045026346063200884,-0.0048587752664769465,0.011175146032860885,0.9904650474046877
2013-09-18,1,0.0007566531740890513,0.0007682560754954142,-0.005004681702110986,0.008075629202453045,0.9907087271881923
2013-09-20,1,0.00018587072094908543,0.0002165334844976832,-0.003766747125846029,0.011175146032860885,0.988593749043455
2013-09-24,1,0.0004154609448393334,0.0004227119565676673,-0.0024497132628627776,0.012221945215681335,0.9882734703813019
2013-09-26,1,0.0009920496576250445,0.001069333042231203,-0.003766747125846029,0.011188669757486783,0.9884851617586159
2013-09-30,1,0.0014876935119254846,0.0016710605033334173,-0.003766747125846029,0.012623822769498718,0.9885271101719864
2013-10-02,1,0.001064403636951108,0.00117226757291295,-0.004349945851716887,0.01374277107250475,0.9864623494897126
2013-10-04,1,0.0019110794701770071,0.0021717122296440014,-0.004349945851716887,0.012623822769498718,0.9877628172617601
2013-10-08,-1,-0.00021059115515988458,-0.00016326192278865814,-0.0024497132628627776,0.012623822769498718,0.9894189465097288
2013-10-10,1,0.0005633932400260256,0.0006171087467716976,-0.003766747125846029,0.008653995475544301,0.9893858354089318
2013-10-14,1,0.0009864036851719737,0.0010964087261711212,-0.003105608234161375,0.008274304839977884,0.989690512868525
2013-10-16,1,0.0008850666849774803,0.0009861587592434556,-0.0012814776086037239,0.010948068897412061,0.9895015819080109
2013-10-18,1,0.0022811662331933343,0.0025648249601693167,-0.003043502511456081,0.006930866100787986,0.9921201869357033
2013-10-22,1,0.0025022066774339205,0.0027645362924544905,-0.003043502511456081,0.005314905759640775,0.9927880847005243
2013-10-24,1,0.0019162613590359332,0.0021072484913442716,-0.003043502511456081,0.005436716919964172,0.9925628365597323
2013-10-28,1,0.0018783334920448647,0.002057358169034471,-0.0017232099696864,0.005098273515350873,0.9934772899442563
2013-10-30,1,0.0017372689213573367,0.0018979073142288572,-0.0017232099696864,0.005074156638060011,0.9953355988104257
2013-11-01,1,0.002055163278953688,0.0022084292328758913,-0.0026599275635417197,0.004189703992328097,0.9950991852154575
2013-11-05,1,0.0024013685272431863,0.0026292141857415905,-0.002924197910714703,0.005127555874775273,0.9944013169968281
2013-11-07,1,0.0018549784980403496,0.002037185706955701,-0.0027475323492012795,0.005436716919964172,0.9936966764201807
2013-11-11,1,0.00159146990146287,0.001658351945178793,-0.00330631686843476,0.005127555874775273,0.9936716490610672
2013-11-13,1,0.0016463754433770556,0.0016695918601851844,-0.004252098745718866,0.005127555874775273,0.9924097245784822
2013-11-15,1,0.0016313289077419663,0.0016776351329341466,-0.005622541921869901,0.0038466889763868,0.9922870425504662
2013-11-19,1,0.00116666689553982,0.0012183041174777258,-0.005622541921869901,0.006268813360007091,0.991893004346921
2013-11-21,1,0.0010971184584045797,0.0011206953143499114,-0.0037631312604851047,0.006750641951043145,0.9925310480151641
2013-11-25,1,0.0014009151700503488,0.0014498537306375653,-0.005618984771058721,0.007106740802692865,0.9917896507364441
2013-11-27,1,0.0016235586919120318,0.0017352668538695257,-0.005618984771058721,0.007106740802692865,0.9919950742065371
2013-12-02,1,0.0014154883276428201,0.0014914788581289666,-0.005618984771058721,0.007106740802692865,0.992028496117816
2013-12-04,1,0.0012141401755287888,0.00125213350594298,-0.004220077085026395,0.006756241830430459,0.9925636700241627
2013-12-06,1,0.0019554389849153254,0.002091499166658325,-0.004220077085026395,0.006393963596118375,0.9939598404428343
2013-12-10,1,0.0017483089071924517,0.0018703993175292692,-0.003040300732347151,0.006398742429371034,0.9940905648113437
2013-12-12,1,0.001210358062934693,0.0012535112791641242,-0.003040300732347151,0.006315608085812383,0.9948335996186218
2013-12-16,1,0.0007851095821351352,0.0007890141740940859,-0.001145283351263834,0.006398742429371034,0.9943395011457329
2013-12-18,1,0.00146815956861061,0.001576521685686071,-0.0021453799465548287,0.006315608085812383,0.9939613665175464
2013-12-20,1,0.0013836582049285456,0.0014464731108473749,-0.0043475736172248446,0.004618157513698377,0.9933770607113604
2013-12-24,1,0.0015348692542563919,0.001647557625715099,-0.00534179263038309,0.0037691122241735892,0.9926635331645216
2013-12-27,1,0.001368066427503715,0.0014276545897227164,-0.005606151099924972,0.004618157513698377,0.9921915783149106
2013-12-31,1,0.0014805215379678337,0.0015682914531529035,-0.005606151099924972,0.004745712185181286,0.9921074386873954
2014-01-03,1,0.0011838626725202098,0.0012311682992581698,-0.01308083327763106,0.004745712185181286,0.9901527937013702
2014-01-07,1,0.0009140045837718108,0.0009421727236399448,-0.01308083327763106,0.004745712185181286,0.9907229768556984
2014-01-09,1,0.0008884634989220413,0.0009222489912137303,-0.01308083327763106,0.00820688973507027,0.9897442715892784
2014-01-13,1,0.00023708114965281682,0.000311169205886228,-0.006238760090805478,0.00820688973507027,0.9899317178422111
2014-01-15,1,0.0006286715059093994,0.0006583491452569886,-0.006238760090805478,0.007941088689472449,0.9903270648648872
2014-01-17,1,0.0004293531169271828,0.0005338880776748692,-0.0061687334700142584,0.007941088689472449,0.9905474934853542
2014-01-22,-1,-0.0007281876699348176,-0.0004652829364976915,-0.002119166889019725,0.00820688973507027,0.990593215009148
2014-01-24,-1,-0.0016880401757640492,-0.0013121492916956504,-0.0011218369169298094,0.00820688973507027,0.9909426749479203
2014-01-28,-1,-0.0011826557007286896,-0.0008891185215565576,0.0015407766254149282,0.008948262775338346,0.9904606898506682
2014-01-30,-1,-0.0009854826760129927,-0.0007027968679050404,0.0015407766254149282,0.009174055529062596,0.9899826949243414
2014-02-03,-1,-0.0021007062610367538,-0.001729033977182539,0.002412171371842032,0.010178202847423701,0.9902915631251342
2014-02-05,-1,-0.0019055069748586198,-0.0015444386965002552,0.0028044160125056273,0.010178202847423701,0.9904029262575855
2014-02-07,-1,-0.0006036385636397505,-0.00043465262400136387,0.0007747533010967676,0.008948262775338346,0.9924770091434781
2014-02-11,0,-1.848582521920823e-05,5.1423555966202884e-05,-0.0019508767853157899,0.008948262775338346,0.9926747653609681
2014-02-13,-1,-0.000203527255502342,-5.6476641378382173e-05,-0.0033957022620760085,0.008948262775338346,0.992591110367896
2014-02-18,-1,-0.0009040625205206437,-0.00065458520910955,-0.0020815641413683013,0.009327451700952958,0.9926399112121354
2014-02-20,0,-6.305725770892532e-05,5.383450468735842e-05,-0.0033957022620760085,0.007870708750123629,0.9925450478926947
2014-02-24,-1,-0.0002670051463414336,-0.00013566713183224614,-0.0033957022620760085,0.007870708750123629,0.9926167637807153
2014-02-26,1,0.00037838776060825595,0.00043397914843564434,-0.005328641432949748,0.0029264280916123714,0.9929787948088948
2014-02-28,1,0.0014024016485418625,0.0015003465018836504,-0.0059134208471239205,0.0022151864280052754,0.9932482617151139
2014-03-04,1,0.00026809032521753917,0.000430231443994845,-0.0059134208471239205,0.003943595410204172,0.9931539275189575
2014-03-06,1,0.00044005035910724594,0.0005196379578659707,-0.0059134208471239205,0.004053094268023706,0.9932610168941483
2014-03-10,1,0.00044719370981028165,0.0005193661546368735,-0.010257268941680919,0.004053094268023706,0.9920649443487713
2014-03-12,-1,-0.0001993430816574506,-1.635518240508194e-05,-0.0059134208471239205,0.0068382122925446775,0.9919697257794307
2014-03-14,1,0.0003604306839338205,0.00040951347507212717,-0.010157973018386507,0.0068382122925446775,0.9905645821306516
2014-03-18,1,0.001305103380613359,0.0014208229255807908,-0.010157973018386507,0.003349681392061809,0.9910316438769068
2014-03-20,1,0.0006509778350482723,0.0006618496232057026,-0.0059134208471239205,0.008537208679473595,0.9892370967980214
2014-03-24,1,5.881510787238001e-05,0.00010437839292601022,-0.006282605165647982,0.008537208679473595,0.9890137616829026
2014-03-26,-1,-0.0005181067160435074,-0.00040356890040151873,-0.005745908487611339,0.008537208679473595,0.9892512119350101
2014-03-28,1,0.00013086018413766795,0.00015156223085229512,-0.008179119892720119,0.0064269700515879056,0.9890249381733779
2014-04-01,1,0.0007831555573346425,0.0008556633077480589,-0.008179119892720119,0.00339428003768582,0.9898942928910661
2014-04-03,1,0.00028864397125803927,0.0003245208312726167,-0.008179119892720119,0.004952618145700419,0.9892103036410158
2014-04-07,-1,-0.00023287051664876604,-0.000159538908346897,-0.007834940921011037,0.004952618145700419,0.9903000446698478
2014-04-09,1,0.0008270188675851784,0.0009230069917489466,-0.008179119892720119,0.004952618145700419,0.9896342077178941
2014-04-11,-1,-0.0006957323496356695,-0.0005765522885079642,-0.005752233178061701,0.009289396434007764,0.9909455441692728
2014-04-15,-1,-0.00039456791067646975,-0.0003170964301529158,-0.007834940921011037,0.009289396434007764,0.9905330155417625
2014-04-17,1,0.0007699553491653447,0.0008328714085738771,-0.008005658315466568,0.0036659478522252944,0.992486271145049
2014-04-22,1,0.0004921598977859448,0.0005221423228636505,-0.007834940921011037,0.0036659478522252944,0.9930854020582395
2014-04-24,1,6.144093959541405e-05,8.693607083935872e-05,-0.006394017160399732,0.004703753402339376,0.99301995813279
2014-04-28,-1,-0.0006344607873588612,-0.0005216827279718626,-0.004384465282003107,0.007669920638812111,0.9929675393277361
2014-04-30,1,5.049573657658377e-05,7.613376090656792e-05,-0.004384465282003107,0.008359991474127092,0.9928236799045415
2014-05-02,1,0.0006314222110343662,0.0007138165654717215,-0.003830630758301318,0.004703753402339376,0.9935521438875653
2014-05-06,1,0.0003544145796136432,0.0003824272205588743,-0.003830630758301318,0.008324410639111468,0.993078134246939
2014-05-08,1,0.0002085161770188798,0.00022075137077747853,-0.003542421047148767,0.00786271844994518,0.9938720491102317
2014-05-12,1,0.0006190565587548256,0.0006426323086261184,-0.003542421047148767,0.004703753402339376,0.9945372239427777
2014-05-14,1,0.0002980096009048992,0.0003118692782756499,-0.003131863563165163,0.004703753402339376,0.994643243211275
2014-05-16,1,0.0003365872604694466,0.0003547608998948758,-0.003131863563165163,0.0046997288492240585,0.9948543767024955
2014-05-20,1,0.00042325116980455543,0.0004637066592514729,-0.003131863563165163,0.005890549453914819,0.9947572539445634
2014-05-22,1,0.0002989411782130609,0.00031069486390140303,-0.0026378067881045776,0.005660578603316946,0.9948768373457004
2014-05-27,1,0.0005790081691992922,0.0006469601563838226,-0.0026378067881045776,0.004142258553623512,0.9953504804560452
2014-05-29,1,0.0010712933239129664,0.0011898904139003418,-0.003131863563165163,0.004011712892066301,0.9951998061725207
2014-06-02,-1,-0.0018419488294437831,-0.0015751831590613851,-0.003131863563165163,0.006755447695449584,0.99364154781695
2014-06-04,-1,-0.000512676468005241,-0.00041456526668257857,-0.004141949346215973,0.005660578603316946,0.9939892561162461
2014-06-06,-1,-0.0011215308432044975,-0.0009231577399732572,-0.006124123970180663,0.005660578603316946,0.9938344584257889
2014-06-10,-1,-0.0009656603219768845,-0.0008269972216723993,-0.006243009955104377,0.005660578603316946,0.9934786530459759
2014-06-12,-1,-0.0004408814572139573,-0.00042917676335872673,-0.006124123970180663,0.005660578603316946,0.9935599445715543
2014-06-16,-1,-0.0006906967887158324,-0.0006141574298015712,-0.006243009955104377,0.005660578603316946,0.9935169107384251
2014-06-18,-1,-0.0011514238018602008,-0.0009623625872657575,-0.006243009955104377,0.006755447695449584,0.9933764890661401
2014-06-20,-1,-0.0008863119467792752,-0.0007386197287855931,-0.006243009955104377,0.0071335195992367605,0.9931534435920455
2014-06-24,-1,-0.000919927937816004,-0.0007893524509584612,-0.004397899522154765,0.0071335195992367605,0.9929766159736609
2014-06-26,-1,-0.0020622019298159244,-0.001718550082531258,-0.004232217450896374,0.006700329361909236,0.9934821694060296
2014-06-30,-1,-0.001489669164351071,-0.0012280895844565595,-0.00564139453616016,0.003547558346807989,0.994695573105839
2014-07-02,-1,-0.0007189783530770222,-0.0006080583368630148,-0.0060023618921445825,0.003547558346807989,0.9934189853246664
2014-07-07,-1,-0.0005005028985246852,-0.0004371117149420897,-0.004232217450896374,0.003547558346807989,0.9936234792423327
2014-07-09,-1,-0.00039123635641995236,-0.00035517217620150115,-0.004232217450896374,0.003172144699837776,0.9934647294671719
2014-07-11,-1,-0.00046013067334712486,-0.00040077397682507834,-0.006080227043441855,0.004201744050940619,0.9926171315469188
2014-07-15,-1,-0.0005553943992642378,-0.0005217477043647326,-0.00526467481453658,0.004201744050940619,0.9928274785309709
2014-07-17,1,5.931368861787097e-05,9.45678487294242e-05,-0.00526467481453658,0.004201744050940619,0.9926132466127536
2014-07-21,1,0.0006355139793603962,0.0008005109981356222,-0.00526467481453658,0.004233286045480646,0.9927220657882176
2014-07-23,1,0.0013108538349419475,0.001603251390181562,-0.00526467481453658,0.003659654680985347,0.9925940527548146
2014-07-25,1,0.0014474159595536241,0.0017988958370551607,-0.003347509506208288,0.004390345433391467,0.9927251143463232
2014-07-29,1,0.0009392861907471461,0.0012301808913211748,-0.0026988203503716304,0.005528986909552157,0.9934178628648039
2014-07-31,-1,-0.00027907121032055783,-0.00014772289523435988,-0.0026102117089473503,0.005528986909552157,0.9944064657959321
2014-08-04,0,-6.98668346327399e-05,4.435178624310771e-05,-0.002829502135256512,0.004390345433391467,0.9947634711363591
2014-08-06,-1,-0.0005564786128726414,-0.0005347044808585578,-0.002829502135256512,0.004390345433391467,0.9949537790902314
2014-08-08,1,0.0001057061093909683,0.00025190747191591937,-0.0026102117089473503,0.003659654680985347,0.9961867644562296
2014-08-12,-1,-0.00011957548121038642,-3.127055712000401e-05,-0.0026102117089473503,0.004390345433391467,0.9956076612495824
2014-08-14,-1,-0.00016444223863666012,-0.00011833538720205903,-0.0037251874241432353,0.003659654680985347,0.9956294061298986
2014-08-18,1,0.00022114619586981172,0.0003105942644974141,-0.0037251874241432353,0.0025472548562646157,0.9960125262984111
2014-08-20,1,0.00040184204059677444,0.0005291434287086298,-0.0037251874241432353,0.004266911288874065,0.9957679657184492
2014-08-22,1,0.0008345046052308584,0.0010555666409035108,-0.005329929553595609,0.0025472548562646157,0.9952422752952557
2014-08-26,1,0.001275896936023052,0.0015613603662062339,-0.006184652406181255,0.0025472548562646157,0.9945834382918223
2014-08-28,1,0.00034893632688166745,0.0004235542501638583,-0.007280910884479096,0.004282842588183879,0.9940375422444043
2014-09-02,1,0.0006630915320987489,0.000821995952049554,-0.008227233671243759,0.004995196383302885,0.9933506647198416
2014-09-04,-1,-0.0002128792350151858,-0.00017014217771227778,-0.009494897754397397,0.004995196383302885,0.9924067554304148
2014-09-08,-1,-0.00022387510306481594,-0.00017217150915081755,-0.009494897754397397,0.004995196383302885,0.9921793066517757
2014-09-10,-1,-0.00018199831844724538,-0.00016393553080398926,-0.009888225887743447,0.005134166701024288,0.9909323138036454
2014-09-12,-1,-0.000916468116003762,-0.0008003226691285564,-0.014085915881762476,0.005134166701024288,0.9900988568132163
2014-09-16,-1,-0.000923373322200738,-0.0007845754666978128,-0.015476843120969407,0.005352701462594424,0.9882697199150836
2014-09-18,-1,-0.0009218493386625055,-0.0007257064411360617,-0.015476843120969407,0.005352701462594424,0.9877742171679987
2014-09-22,-1,-0.0014139270571599818,-0.0011901060502845732,-0.014129570695985754,0.008375822238703376,0.9859431519190478
2014-09-24,-1,-0.0008778189198363057,-0.000726853707775165,-0.014129570695985754,0.00963714406846955,0.98503717548356
2014-09-26,-1,-0.0012880856908313659,-0.0010840241537165317,-0.01340757646595763,0.00963714406846955,0.9853869871135594
2014-09-30,-1,-0.001918922200517859,-0.0016774107593648753,-0.01414695316762226,0.014975280163405342,0.9846872099003008
2014-10-02,-1,-0.002157619925824003,-0.0018857891229804391,-0.01414695316762226,0.014975280163405342,0.9851270094180421
2014-10-06,-1,-0.0025031078981927143,-0.0021657585542979147,-0.01637306852807279,0.01650315271183418,0.9817775418049091
2014-10-08,-1,-0.0023973225768035233,-0.002083351913827771,-0.01407319871694882,0.0175794482282025,0.981706990370318
2014-10-10,-1,-0.0035229959451369185,-0.0030840475618277,-0.010083135776861304,0.0175794482282025,0.9820452225649783
2014-10-14,-1,-0.004571077539317426,-0.004016283083844196,-0.00604301340175335,0.0175794482282025,0.9837250365595235
2014-10-16,-1,-0.0035393001913839473,-0.003109761031851832,-0.007339916389155205,0.01611144570866628,0.984900975293871
2014-10-20,-1,-0.0012707183597848032,-0.001129205286380613,-0.007339916389155205,0.006645431081383209,0.9871429473348523
2014-10-22,-1,-0.0007268709628024511,-0.0006633803115720966,-0.006516843846650075,0.007849893130435846,0.9876447692659971
2014-10-24,0,-9.091138838908847e-06,1.5865625065140026e-05,-0.006516843846650075,0.010932124999111097,0.9872196044319016
2014-10-28,1,0.00012207580382650368,0.00018863896642512998,-0.005292542368827687,0.009710410820945042,0.9886982575359418
2014-10-30,-1,-0.00015184520581099567,-0.00013717156299848987,-0.003507809925168412,0.009710410820945042,0.9887383412194467
2014-11-03,1,5.166370096583157e-05,8.972432105891108e-05,-0.0031250695935696,0.008838151936727729,0.9921032059837344
2014-11-05,1,0.0011328605552114479,0.001316271731491599,-0.0013527267064845129,0.008838151936727729,0.9937368069056555
2014-11-07,1,0.0013760966845970655,0.001600825370501355,-0.0031250695935696,0.008838151936727729,0.9937540012063854
2014-11-11,1,0.0010332224927380666,0.0012216168093348411,-0.0014328971091018303,0.009710410820945042,0.9925113101496952
2014-11-13,1,0.0009495657749530083,0.0010989365035618797,-0.0014328971091018303,0.009710410820945042,0.992110325459522
2014-11-17,1,0.0009193723756649585,0.0010529830570472577,-0.003485251919672512,0.009710410820945042,0.9919521397531929
2014-11-19,1,0.0024582561097016625,0.0028655848106224303,-0.003485251919672512,0.010282806025766707,0.9911482631494256
2014-11-21,1,0.0029684991604534477,0.0034318854987475706,-0.003485251919672512,0.008097833919797043,0.9917062402108323
2014-11-25,1,0.003467161552044586,0.004002645069186583,-0.003485251919672512,0.008097833919797043,0.9917924653822742
2014-11-28,1,0.00396092838070295,0.0045537434658841575,-0.003485251919672512,0.007575581851878166,0.9920560508724012
2014-12-02,1,0.003957313181332898,0.004548997975322124,-0.003542165309784292,0.007575581851878166,0.9917465532481102
2014-12-04,1,0.004429707568849405,0.0050536702994594535,-0.006878716133732513,0.0066666995745568915,0.9903170008283512
2014-12-08,1,0.004303342203755363,0.004929094373071335,-0.006878716133732513,0.0066666995745568915,0.990654906506832
2014-12-10,1,0.004001086700906979,0.004594789932648678,-0.006878716133732513,0.0066666995745568915,0.9905186184407215
2014-12-12,1,0.003919009375310093,0.004515864837907656,-0.004243100898684012,0.004931271538236598,0.9911166216068441
2014-12-16,1,0.003196966398030309,0.003680842316668777,-0.0032273074842622098,0.004931271538236598,0.9918689904879787
2014-12-18,1,0.004502046391826705,0.005113764289784702,-0.0034047695609506165,0.004050617321196779,0.9918016562754872
2014-12-22,1,0.004093704887250386,0.004573837285258831,-0.0034047695609506165,0.003927732977906511,0.9914679481779192
2014-12-24,1,0.004397842428092332,0.004936280261623246,-0.004473809402392254,0.0033922278209939745,0.9903510797086266
2014-12-29,1,0.004251569875104895,0.004744567572123104,-0.00853232157428619,0.000850639950702798,0.9888572054747093
2014-12-31,1,0.003946274421492547,0.004407544059229185,-0.010361748803626517,0.0035632770485920923,0.9882958472765899
2015-01-05,1,0.00252803047859891,0.002788068813283686,-0.00853232157428619,0.0068728745811212945,0.9902032869339683
2015-01-07,1,0.002664574139351164,0.002960355776784473,-0.00853232157428619,0.01317069795498587,0.9900185706601011
2015-01-09,1,0.0032178413348610676,0.003605196008907072,-0.00853232157428619,0.0060697473132720545,0.990746270133052
2015-01-13,1,0.0030921799062156668,0.0034617881922742893,-0.00853232157428619,0.007904841560433917,0.9908100303146006
2015-01-15,1,0.0028870183912259473,0.0032297775840209146,-0.00853232157428619,0.014266522252830849,0.9898259479451254
2015-01-20,1,0.003215359168845498,0.0036168535086467096,-0.004955300370211356,0.01317069795498587,0.9907488138339084
2015-01-22,1,0.00347828535699711,0.0038991200472706738,-0.004955300370211356,0.007904841560433917,0.991056202545354
2015-01-26,1,0.002800839943222049,0.00312471907105491,-0.003320728075080841,0.007904841560433917,0.9919277628740214
2015-01-28,1,0.001609240661103181,0.0017549422989110738,-0.0012584940615819641,0.007904841560433917,0.9931062038488152
2015-01-30,1,0.0017116798783413376,0.001869615561028523,-0.0009629960105982532,0.0071594390620626554,0.9940323782888963
2015-02-03,1,0.0020848264439775758,0.002272064204696679,-0.0022459367476462856,0.005195686950380806,0.9938865262526992
2015-02-05,1,0.0022195775847181297,0.002389339314820431,-0.003320728075080841,0.00376839929474072,0.9934341306952832
2015-02-09,1,0.0015898260137429561,0.0016801013946807456,-0.003320728075080841,0.00376839929474072,0.9935089635402131
2015-02-11,1,0.001892145752671869,0.0020451297955345915,-0.0040756858350919955,0.00376839929474072,0.9921892151231935
2015-02-13,1,0.0026616794237469443,0.002875402017907315,-0.0054325994228543945,0.002092929352838363,0.9925934844185117
2015-02-18,1,0.002479963794814974,0.0026711585436264285,-0.00857878467916904,0.00376839929474072,0.9919331706035928
2015-02-20,1,0.0021503197941297996,0.002269562609633896,-0.011266839442443739,0.004938532380203803,0.9910667566349753
2015-02-24,1,0.0018117583326332349,0.0018619654448517589,-0.011675456499838623,0.004938532380203803,0.9903890521045017
2015-02-26,1,0.0008187441929084408,0.0009491683726573623,-0.012515999532753638,0.004938532380203803,0.9900316709255647
2015-03-02,1,0.0008625022084723508,0.0009937106476499992,-0.012515999532753638,0.007021945350593307,0.9899881208180589
2015-03-04,1,1.542778271213462e-05,0.0002667940461431467,-0.011675456499838623,0.007021945350593307,0.9905288474647188
2015-03-06,-1,-0.0014914873776820366,-0.0010021516399928404,-0.011073112231193545,0.007021945350593307,0.9912023872523222
2015-03-10,-1,-0.0031743210630767573,-0.002424706915813294,-0.00857878467916904,0.007021945350593307,0.9918445682225616
2015-03-12,-1,-0.00260151443442543,-0.0019522089725884629,-0.005859013670145268,0.007021945350593307,0.9923602525142646
2015-03-16,-1,-0.0016847946371057103,-0.0012238986180049328,-0.005685719473920181,0.005817412720275414,0.9928284370325684
2015-03-18,-1,-0.0016219230615994056,-0.00119125003211903,-0.004894945359933577,0.005177406417380874,0.9938177627517635
2015-03-20,-1,-0.0016847003773340218,-0.001256572164553178,-0.004310614717980936,0.0048113401791221805,0.9948445793849335
2015-03-24,-1,-0.0025860423459364546,-0.0020342820655832212,-0.0032502785759897304,0.0048113401791221805,0.9953096699913098
2015-03-26,-1,-0.003791776122149004,-0.003068145106145702,-0.0029038487342300575,0.0048113401791221805,0.9950252196215467
2015-03-30,-1,-0.0024054241145208643,-0.0019192045709648267,-0.0032502785759897304,0.0034438307641357522,0.9959509868151073
2015-04-01,-1,-0.0020502139880606077,-0.0016416738087371506,-0.0029038487342300575,0.003454960680760789,0.9959269479201494
2015-04-06,-1,-0.0020234762693907343,-0.0016288821365209056,-0.002790958441980497,0.0048113401791221805,0.9952979799605091
2015-04-08,-1,-0.0020098957397665686,-0.0015975292399145597,-0.0029038487342300575,0.0027836255335945657,0.9950469419381442
2015-04-10,-1,-0.0016216010460512983,-0.0012458574438627664,-0.0029038487342300575,0.0027836255335945657,0.9942149689743194
2015-04-14,-1,-0.001982675104749858,-0.0015648146378763458,-0.004147463746840062,0.0027836255335945657,0.9937919102810621
2015-04-16,-1,-0.0017082373467339497,-0.0013668949480493543,-0.004024455045185303,0.005138061083609915,0.9927440116417943
2015-04-20,-1,-0.0011227612869699124,-0.0008888430163850726,-0.0043697816623826016,0.00795898211951635,0.9922557449899031
2015-04-22,-1,-0.001400872934949421,-0.001132735061828138,-0.005334034414214614,0.00795898211951635,0.9921233700013692
2015-04-24,-1,-0.0016239474008244762,-0.0013564241192316217,-0.004205069549121514,0.00795898211951635,0.9924413387810284
2015-04-28,-1,-0.0020158749671533123,-0.001705707215606235,-0.004205069549121514,0.011174162783417025,0.9918559376710505
2015-04-30,-1,-0.0014089897839825371,-0.0012071999736910743,-0.004205069549121514,0.011174162783417025,0.9920150379747537
2015-05-04,-1,-0.0009231785312906318,-0.0007708936864674098,-0.004205069549121514,0.0057086734247529785,0.9927389565051606
2015-05-06,-1,-0.0015462978050582439,-0.0013080873524236262,-0.004205069549121514,0.008385920898508164,0.992948904420689
2015-05-08,-1,-0.0005539331829786612,-0.00042218885674830115,-0.004205069549121514,0.0032391347445697824,0.9944833480038608
2015-05-12,-1,-0.0016307624423194092,-0.0013473197330993623,-0.003565916450260472,0.0056870271850827355,0.9944473140667419
2015-05-14,1,3.559566053165956e-05,4.3463029689567455e-05,-0.003565916450260472,0.0056870271850827355,0.9948627269262428
2015-05-18,1,0.0004933896155369753,0.0005653656496215887,-0.004052620242369849,0.00496394665703799,0.9948875650627004
2015-05-20,1,0.0003393200708141889,0.00040319038945012123,-0.0032233293032682166,0.006237695767952817,0.9946327168867399
2015-05-22,1,0.0004670621789196795,0.0005583618642130482,-0.003565916450260472,0.00746843953674178,0.9941535302407362
2015-05-27,1,0.0003842811331499249,0.00045475528773945113,-0.0032233293032682166,0.0061860942069410915,0.9950105131461242
2015-05-29,-1,-0.0002623418172142054,-0.00019441316610629427,-0.0028195479740665357,0.0061860942069410915,0.9950822527235895
2015-06-02,-1,-0.0003387781154813184,-0.00026530710434477793,-0.0028195479740665357,0.0061860942069410915,0.9939252022921632
2015-06-04,0,-1.1777000821365009e-07,1.1990624930635857e-05,-0.0028195479740665357,0.0061860942069410915,0.9935154736599836
2015-06-08,-1,-0.00010960324848500434,-8.432768473562423e-05,-0.0034541532340959732,0.0061860942069410915,0.9933049243491161
2015-06-10,1,0.0003169389467980485,0.0003387784811605888,-0.004512804905546263,0.005147502851328017,0.9930117408020562
2015-06-12,1,0.0005818211136091344,0.0006531904474138543,-0.004512804905546263,0.0061860942069410915,0.9919583240033476
2015-06-16,1,0.0006197723941894972,0.0007188438462748016,-0.004512804905546263,0.007879632348544694,0.991994977192974
2015-06-18,1,0.0008402322573102072,0.0009418543918660537,-0.005137425679844819,0.0035741280264606845,0.9903833274764198
2015-06-22,1,0.0004739415560762565,0.00047907242523819176,-0.007365508104568875,0.0013349382442869374,0.9894053288436337
2015-06-24,1,0.00048311938070754834,0.0004939717858369803,-0.010631663775543825,0.0004391845325375962,0.9883697271141922
2015-06-26,1,0.0007734155400992239,0.0008523534141288136,-0.018408800385591954,-0.0003053561032896058,0.9868558959218603
2015-06-30,1,0.00013617772347111369,0.0001598548621111733,-0.010631663775543825,0.010497567805140301,0.9857134123857504
2015-07-02,1,0.00019743712608242612,0.0001978743161934645,-0.010631663775543825,0.0021828822217753586,0.9865804515371001
2015-07-07,1,4.242164474309892e-05,4.976166952709089e-05,-0.013505900309357891,0.0021828822217753586,0.9861849765172964
2015-07-09,1,3.285510240544397e-05,9.955259490571381e-05,-0.0124839495945327,0.002668952115763886,0.9865813965687636
2015-07-13,1,0.0011514239502800252,0.0013621027393522778,-0.0124839495945327,-1.6805561966216616e-05,0.9857703060251606
2015-07-15,1,0.0012775318209463872,0.0015067186836546786,-0.01486906867308439,-0.0003901275790301422,0.9850785059981101
2015-07-17,-1,-9.721964797540703e-05,-4.7024209594076445e-05,-0.0124839495945327,-0.00022810428103396658,0.9873362156045546
2015-07-21,-1,-0.0012298924547351371,-0.0011371349959913726,-0.012278318714931164,0.0010952763524170184,0.988939028158955
2015-07-23,-1,-0.001830719371570809,-0.001684848368529317,-0.0124839495945327,0.0010952763524170184,0.9880405703729925
2015-07-27,-1,-0.003375884093900031,-0.0030431980794903054,-0.014658922528889376,0.0010952763524170184,0.9861406076314037
2015-07-29,-1,-0.000928367451794388,-0.000849299421291233,-0.014785161818388246,-0.00022810428103396658,0.986776730626415
2015-07-31,-1,-0.0012729931519823467,-0.0011271088222023,-0.014785161818388246,0.004646199630479967,0.9852941991544952
2015-08-04,-1,-0.0016089553458361442,-0.0014393271201898522,-0.02000549567910254,0.004646199630479967,0.9838076142074004
2015-08-06,-1,-0.001790263608113412,-0.0016028248029338983,-0.02000549567910254,0.010098337671233144,0.9829687463284522
2015-08-10,-1,-0.0012983995253263428,-0.0011674820529863827,-0.02000549567910254,0.010098337671233144,0.982750245901605
2015-08-12,-1,-0.002027239771324963,-0.0018105979274258806,-0.014785161818388246,0.010098337671233144,0.9834937487421516
2015-08-14,-1,-0.002025682746939741,-0.0017891110437630738,-0.021261139598541506,0.006630582573932824,0.9829712177750537
2015-08-18,-1,-0.0023396301789723227,-0.002041391484553309,-0.021261139598541506,0.008700694470862386,0.9826998442527806
2015-08-20,-1,-0.003407333107114291,-0.003007302568655345,-0.013197526677344803,0.008700694470862386,0.9839777522423114
2015-08-24,-1,-0.005506648803670325,-0.00486565560013603,-0.009677690296025497,0.008700694470862386,0.9860716716428063
2015-08-26,-1,-0.0051358699375782055,-0.0045420808254904455,-0.014667759355240862,0.006309193637181472,0.9864473207859276
2015-08-28,-1,-0.003801623315089011,-0.0033800123573346393,-0.018648108661190457,0.0032952898061847603,0.9861592014297359
2015-09-01,-1,-0.00500655321507805,-0.00447194715469103,-0.014667759355240862,0.006309193637181472,0.9858968378650017
2015-09-03,-1,-0.004144655865250959,-0.003707544144327864,-0.014667759355240862,0.010544314600860631,0.9846856272966693
2015-09-08,-1,-0.0034107690817272353,-0.003058711704696318,-0.014667759355240862,0.010544314600860631,0.9851095920362042
2015-09-10,-1,-0.0031249647924341253,-0.0028180656516630853,-0.014667759355240862,0.015870474212876948,0.9840374431585475
2015-09-14,-1,-0.003934492165873311,-0.003529402297230694,-0.012796619766336257,0.015870474212876948,0.9840958248505955
2015-09-16,-1,-0.00367070926253793,-0.003279587831457634,-0.012796619766336257,0.015870474212876948,0.9846415423349788
2015-09-18,-1,-0.004427776461953881,-0.0039352912833241615,-0.0043779009276908734,0.017763072029751404,0.9829088498057799
2015-09-22,-1,-0.0047119124232641125,-0.004197052561389502,0.0006695439341073291,0.017763072029751404,0.9831006712368685
2015-09-24,-1,-0.005439137109358984,-0.004870261241917787,0.0018426386379659394,0.020011795218680767,0.9822628226858654
2015-09-28,-1,-0.006838384896819538,-0.006093140634141691,0.0018426386379659394,0.020011795218680767,0.9828157675090543
2015-09-30,-1,-0.004690781819517195,-0.004252744851941629,0.0009362257459460897,0.016594204441518927,0.9854518488790938
2015-10-02,-1,-0.003013259191103174,-0.002746284719689936,-0.0005036971082084355,0.014434005758538225,0.9892507011576013
2015-10-06,-1,-0.0021972080657746626,-0.0020609106265922633,-0.0005036971082084355,0.01376992946257823,0.9911576345414059
2015-10-08,-1,-0.0010181470120847263,-0.0009938283963140707,-0.0018562082592381052,0.006676150505058461,0.992818348410762
2015-10-12,-1,-0.0005351420173440016,-0.0004564304838904607,-0.0026621665250177776,0.003769944892302881,0.9932377650508879
2015-10-14,-1,-0.0003905205917037941,-0.00028522011207044964,-0.00387454862614263,0.004487204273788822,0.9928710877290384
2015-10-16,1,0.000725457379746061,0.0009820099055627913,-0.006061812682300991,0.003769944892302881,0.9925055642882425
2015-10-20,1,0.0009957957133261619,0.00129086886382206,-0.006061812682300991,0.0038894456646356226,0.9919971074829137
2015-10-22,1,0.0017073982005486826,0.0020966887963492793,-0.006061812682300991,0.0038894456646356226,0.9919870513266491
2015-10-26,1,0.0019191985540612248,0.002344736340278028,-0.006061812682300991,0.008870409218453794,0.9913473047580224
2015-10-28,1,0.002059580773771538,0.0025008715076391195,-0.00387454862614263,0.00839226910515816,0.9920100898006841
2015-10-30,1,0.00236330060031599,0.002876447075680688,-0.004817972780305789,0.00839226910515816,0.9916435529373125
2015-11-03,1,0.002515102040097055,0.003061547158039397,-0.006061812682300991,0.009307982814469649,0.9908031069468507
2015-11-05,1,0.002244064431044397,0.002748695944105585,-0.006559950065960163,0.010011696285471335,0.9902896929307508
2015-11-09,1,0.0021751262292247836,0.0027028968927893483,-0.008476844115501545,0.010011696285471335,0.9895170771122979
2015-11-11,1,0.0023170111188345137,0.0028745713097656773,-0.009333989481435243,0.010011696285471335,0.9888905578549239
2015-11-13,1,0.0022310863282164507,0.0027817876052688073,-0.009936705427650423,0.009307982814469649,0.9890613847236309
2015-11-17,1,0.002606475126927475,0.0032112904729365674,-0.009936705427650423,0.009307982814469649,0.9886881034899047
2015-11-19,1,0.0027898498062927366,0.0033760707043547318,-0.012084330759921578,0.008591644117230568,0.9880073889263641
2015-11-23,1,0.0036245900000305246,0.004342191500308373,-0.012084330759921578,0.009307982814469649,0.9875475854278957
2015-11-25,1,0.0038630466442340296,0.004602026245687748,-0.012084330759921578,0.009675307643175188,0.9872661182142647
2015-11-30,1,0.0034081708500039417,0.004052541227756079,-0.012084330759921578,0.009675307643175188,0.9875094830622708
2015-12-02,1,0.003909332064035433,0.004685402774785114,-0.010516175581197468,0.008733395588230056,0.9872867874378187
2015-12-04,1,0.004237908540032308,0.005067785317788032,-0.010516175581197468,0.007202722346014207,0.9877316541427092
2015-12-08,1,0.002605571413737568,0.0031364228344882075,-0.01192070957933835,0.007202722346014207,0.9882062862775273
2015-12-10,1,0.001584826256824622,0.0019223235863840365,-0.010758082744553317,0.007202722346014207,0.9889258760768765
2015-12-14,1,0.0003648121026398324,0.0005005749687017648,-0.01030301034482822,0.0074179365205358245,0.9892893475597455
2015-12-16,1,0.0006453823315064498,0.0007653163151513692,-0.013946718606083392,0.005892970247140812,0.9892766921304926
2015-12-18,1,0.0004623125477780189,0.0006580146726139032,-0.008907491000380949,0.0068785478158255205,0.9901538316706772
2015-12-22,1,0.0012210977504590512,0.0015184666281801687,-0.01030301034482822,0.005892970247140812,0.9897376369108825
2015-12-24,1,0.0014745148779430014,0.0017787746114944565,-0.013761979342349535,0.005892970247140812,0.9884644223803312
2015-12-29,1,0.0013793138414574767,0.0016513805116013767,-0.013761979342349535,0.004076742781330496,0.9885631102101504
2015-12-31,1,0.001131229424223453,0.0013948016517884658,-0.013761979342349535,0.005964708305314685,0.9879008823212478
2016-01-05,1,0.0006684869739409522,0.0008309383882103244,-0.017293363424914297,0.008692834324203647,0.9861144013471829
2016-01-07,0,-3.6236940946986435e-05,4.546881673188531e-05,-0.017293363424914297,0.008692834324203647,0.985932322183549
2016-01-11,-1,-0.00022072462841729972,-0.00015800223019706187,-0.018826181168219106,0.013854282261991162,0.9839047970517836
2016-01-13,-1,-0.001404531587124779,-0.001253975716599753,-0.018886981991875496,0.013854282261991162,0.9839523384411578
2016-01-15,-1,-0.0035329022834067695,-0.003007265849715792,-0.018332764200673923,0.0171127633489642,0.9824203828219977
2016-01-20,-1,-0.0026947255025888016,-0.0022836493294183646,-0.018332764200673923,0.015243820400929968,0.9828295561256934
2016-01-22,-1,-0.002205592202726373,-0.0019035350692938597,-0.011239496703590115,0.015243820400929968,0.9831021362709792
2016-01-26,-1,-0.003612510529930048,-0.0030563428740103408,-0.010520041118973797,0.014792051497838129,0.9833281893881177
2016-01-28,-1,-0.0032581432051540316,-0.002791920652907489,-0.007229189641965148,0.014792051497838129,0.9823345032175564
2016-02-01,-1,-0.0012629461795686783,-0.0010759938646522052,-0.017236033817307123,0.014792051497838129,0.9825513611202513
2016-02-03,-1,-0.0013436565108980408,-0.0011526632372981646,-0.006598746920837825,0.014110493150612002,0.9843026101436555
2016-02-05,-1,-0.00276980105836564,-0.0023670043066848956,-0.0026986912288093695,0.014792051497838129,0.9839893158656793
2016-02-09,-1,-0.0032223701200363277,-0.0027856183917136026,-0.0026986912288093695,0.014110493150612002,0.9849561864779817
2016-02-11,-1,-0.004346485011706933,-0.003743902756430327,0.003992071289949272,0.01606730378530271,0.9839707233333989
2016-02-16,-1,-0.002919614794360599,-0.002454103375376416,-0.002525714262556818,0.012365977788618102,0.9872887801220315
2016-02-18,-1,-0.003440323491908155,-0.002841937591268051,-0.00048439370124529106,0.014840239839819323,0.9854653358472543
2016-02-22,-1,-0.0037034171679311704,-0.0029951624414300613,-0.002525714262556818,0.014840239839819323,0.986543999147499
2016-02-24,-1,-0.003580315536012107,-0.00293883079998413,-0.002525714262556818,0.014840239839819323,0.9871865250328122
2016-02-26,-1,-0.001206171179100183,-0.0009579146152565966,-0.002525714262556818,0.011738929625507608,0.9891589864650071
2016-03-01,-1,-0.0005668286577225782,-0.0004050937475106633,-0.0019333152962761296,0.01102816004467453,0.9904882798975427
2016-03-03,1,0.00014007547005626277,0.00017870730538980959,-0.0019484853189950665,0.012654065849258142,0.9903745779361286
2016-03-07,1,0.001355900514512526,0.0015001892409992,-0.0038906097457618986,0.01102816004467453,0.9911641569903341
2016-03-09,1,0.0009616591850033832,0.0010512895045019497,-0.0038906097457618986,0.01102816004467453,0.9914616590203028
2016-03-11,1,0.002327790096596805,0.0026630454711736667,-0.0038906097457618986,0.010778449881521563,0.9920397069125629
2016-03-15,1,0.002314830205846286,0.0026587757754122222,-0.0038906097457618986,0.011317191000374366,0.991534655129855
2016-03-17,1,0.003952110414310787,0.004551780530627394,-0.0038906097457618986,0.010778449881521563,0.9933268783081421
2016-03-21,1,0.0038082785189830952,0.004392534882796128,-0.0022216838308621034,0.010778449881521563,0.9937958701316085
2016-03-23,1,0.003944326428005559,0.004552933042870675,-0.0037776219869077184,0.010778449881521563,0.9914675319224822
2016-03-28,1,0.0035718309725676313,0.004119654976043285,-0.004391951994210502,0.011092879854584802,0.9901788132726722
2016-03-30,1,0.004133147431361171,0.004751269342345065,-0.005001972648185257,0.009085178059933642,0.990234947136571
2016-04-01,1,0.004220214433550591,0.004830440930349039,-0.00560294245199414,0.007610925246418768,0.9895319230564416
2016-04-05,1,0.0034990379483000565,0.0039856822226469885,-0.005001972648185257,0.007884215709217898,0.98958517050233
2016-04-07,1,0.0031956684054394464,0.003636626679937938,-0.005001972648185257,0.007884215709217898,0.9897688743983003
2016-04-11,1,0.0032513420605315892,0.0036828442574889527,-0.005917495754883272,0.0074266685807805564,0.9894942255645915
2016-04-13,1,0.003922129892451504,0.004453420067430965,-0.008101974736839285,0.007017498026945452,0.9888344619797822
2016-04-15,1,0.004286991624075778,0.0048906778535050925,-0.008101974736839285,0.004328658551991235,0.9881440635384002
2016-04-19,1,0.004770247687452492,0.005468330400028967,-0.008891004344599026,0.0024137234418951155,0.9869040314202826
2016-04-21,1,0.0033349322348124057,0.0038566085812157644,-0.008101974736839285,0.0024137234418951155,0.9895982599490388
2016-04-25,1,0.003756399286359354,0.004319523936336268,-0.008101974736839285,0.0029024548155906988,0.9907928398329675
2016-04-27,1,0.0037802770326417602,0.004338445330040566,-0.008101974736839285,0.005246453191019883,0.9909926482657794
2016-04-29,1,0.003155808868396155,0.003639265829199485,-0.007520260763483274,0.005971750207582829,0.9920129298652398
2016-05-03,1,0.0024173354884200375,0.0027482525900606506,-0.007520260763483274,0.005246453191019883,0.9927767570572408
2016-05-05,1,0.0018243395069118104,0.00204261137295467,-0.007124533465625836,0.005246453191019883,0.9931740526805535
2016-05-09,1,0.0009575492407236004,0.0010044110314294341,-0.006107791137453923,0.005246453191019883,0.9934299928440321
2016-05-11,1,0.001247619541800961,0.0013726582329286145,-0.005741324218814684,0.005246453191019883,0.9929704966621237
2016-05-13,1,0.0003193317894308069,0.0003786106973489773,-0.006107791137453923,0.005246453191019883,0.9920366911071175
2016-05-17,1,0.0007432876298076748,0.0007716972852774794,-0.005741324218814684,0.004433787497436689,0.9926527752907414
2016-05-19,1,0.0005774843523315243,0.0006087551680171311,-0.005089847111140817,0.005246453191019883,0.9927010329959625
2016-05-23,1,0.0007678146256153747,0.0008244172865012823,-0.005089847111140817,0.004433787497436689,0.9927508912672017
2016-05-25,1,0.0009127359480731577,0.0009563108093787362,-0.005089847111140817,0.003436515473041137,0.9918518533292228
2016-05-27,1,0.0008239861326044355,0.0008429588704562114,-0.00636616900996541,0.0028867609449521074,0.9867961687397259
2016-06-01,0,-4.4898289985043874e-05,8.984562183022519e-05,-0.005089847111140817,0.005986145977783696,0.9857076379548734
2016-06-03,-1,-0.00043133785175146597,-0.00023508607096478745,-0.004931177453393765,0.012603793029728883,0.9851198189425637
2016-06-07,-1,-0.0008062194294322226,-0.0005421126726658209,-0.0069423293025761,0.012603793029728883,0.984495349255243
2016-06-09,-1,-0.0004509301185334515,-0.0001992570618775184,-0.0069423293025761,0.012603793029728883,0.9845375788649602
2016-06-13,-1,-0.0010801859231178456,-0.000778866108143773,-0.0035642809401541095,0.01688459657952197,0.9844391977473849
2016-06-15,-1,-0.001640341047902592,-0.0012607081999952017,-0.002565253747728694,0.01688459657952197,0.9839377645978471
2016-06-17,-1,-0.0014502638748620283,-0.0010789830975734117,-0.002565253747728694,0.01688459657952197,0.9844144237619777
2016-06-21,-1,-0.0017462839159894112,-0.0013282503964160734,-0.0036534900085787264,0.01688459657952197,0.9834525769446127
2016-06-23,-1,-0.0002594382897799876,-6.677294779947485e-05,-0.008477031523148146,0.015467353726948968,0.9845015504704537
2016-06-27,-1,-0.0042251490282587765,-0.0035563759753563314,-0.007859341781876163,0.015467353726948968,0.9883030163411729
2016-06-29,-1,-0.0034474744267937968,-0.0028345626101623556,-0.007859341781876163,0.006189603812570695,0.9905034965446581
2016-07-01,-1,-0.0031726224740257205,-0.002569302250431619,-0.007859341781876163,0.0038109278833490167,0.9914731320756306
2016-07-06,-1,-0.004246733377625812,-0.0034769226500855933,-0.007859341781876163,0.00596172431319422,0.991730109248535
2016-07-08,-1,-0.002394454807003959,-0.0019149002667946818,-0.007859341781876163,0.003850423098635959,0.9933008227567657
2016-07-12,-1,-0.0016326501850910686,-0.0012550997650010336,-0.007859341781876163,0.0019887247023764147,0.994379017451331
2016-07-14,-1,-0.0013997528904486365,-0.0010769367791034694,-0.007579315058229114,0.0019627161222496615,0.9947809615517514
2016-07-18,-1,-0.0014893584369711792,-0.0011426794844772432,-0.007579315058229114,0.0019627161222496615,0.9946448005326807
2016-07-20,-1,-0.0009604999612003473,-0.0007083932054473193,-0.007413537005469984,0.0007578518273485926,0.99538771174613
2016-07-22,-1,-0.0014646392454511765,-0.001170133774179724,-0.006497006740351966,0.002069719885018386,0.9956984675198968
2016-07-26,-1,-0.0016586750632243148,-0.0013495435007479964,-0.005881280036600805,0.00350745413670468,0.9952722227275249
2016-07-28,-1,-0.001528737496117969,-0.001276457833085414,-0.0013407730179475256,0.0036677561162944176,0.9954278047656923
2016-08-01,-1,-0.0020077347771684695,-0.0016822298326084754,-0.0013407730179475256,0.004535551147179992,0.9942505746775121
2016-08-03,-1,-0.001673206046073981,-0.0014236611130757305,-0.0023969252854549906,0.0036677561162944176,0.9945081587929446
2016-08-05,-1,-0.0016946631245832921,-0.0014388857800090654,-0.0015331228898409189,0.004535551147179992,0.9940613477733877
2016-08-09,-1,-0.0008726498584288229,-0.000777023616059021,-0.004020628243105213,0.004792017824412585,0.9937468616972698
2016-08-11,-1,-0.0008306293268161409,-0.0007342196525328331,-0.007883063836661142,0.004792017824412585,0.9913616704330442
2016-08-15,-1,-0.0008667783734296326,-0.0007707754307874791,-0.00854429470290842,0.006376737559628367,0.9902387454008624
2016-08-17,-1,-0.0010430431285322669,-0.0009311765718855744,-0.00854429470290842,0.006484438116180789,0.9900600706852146
2016-08-19,-1,-0.00024761092680270175,-0.00023018563796608403,-0.009569219245986933,0.006342063640328781,0.9897756515435285
2016-08-23,1,0.00038105530436039197,0.0004995647807477864,-0.009569219245986933,0.006342063640328781,0.989957250905219
2016-08-25,1,0.00028125844145220703,0.0003639001137968433,-0.009569219245986933,0.007148003437385402,0.9897718337798078
2016-08-29,1,0.00042561722090687763,0.0005170658926488735,-0.010365915399172698,0.005830799528064378,0.9904224473436513
2016-08-31,1,0.00016291872654786748,0.00023641988543261883,-0.010365915399172698,0.007148003437385402,0.9899399627029013
2016-09-02,1,0.000818025818779993,0.0010165348705252842,-0.010365915399172698,0.007148003437385402,0.9900058498015801
2016-09-07,1,0.0009329670632800352,0.00116500724465153,-0.011556197400831515,0.007148003437385402,0.9897209323349702
2016-09-09,-1,-0.00031936180932666145,-0.00023521811543399286,-0.010365915399172698,0.007148003437385402,0.9878887594177911
2016-09-13,-1,-0.0009551873444492953,-0.0008804509717524893,-0.010365915399172698,0.00616302859498263,0.9885701892529992
2016-09-15,-1,-0.0004960994122493398,-0.00048339592996697324,-0.010365915399172698,0.00616302859498263,0.988840695562604
2016-09-19,-1,-0.0004009372683499244,-0.00036713153133211864,-0.006189739024620535,0.005409192510764674,0.9894692036446137
2016-09-21,-1,-0.0002952627315237213,-0.00028113629402679334,-0.006189739024620535,0.0035789066206903166,0.9899731481079208
2016-09-23,-1,-0.00015560175897491783,-0.00013355165563428935,-0.006189739024620535,0.002227107885453275,0.9902057432849195
2016-09-27,-1,-0.0004475988500890297,-0.00042252746816006195,-0.006813631858119537,0.0027709884590885977,0.9893462826592986
2016-09-29,-1,-0.000681745634646474,-0.000616205163769608,-0.004076647963462841,0.005409192510764674,0.9893934983959324
2016-10-03,-1,-0.0002740510590348902,-0.00025701225356679347,-0.004739671304875524,0.003402301932605166,0.989743593364845
2016-10-05,-1,-0.0008511412471719264,-0.0007588960600989289,-0.003972170680656864,0.003402301932605166,0.9902178733689826
2016-10-07,-1,-0.0028767519389179567,-0.00255388063740043,-0.003972170680656864,0.003402301932605166,0.9936052379613303
2016-10-11,-1,-0.0034078970407004317,-0.0030090750353385202,-0.003886452987506939,0.006150674607823667,0.9930413510187152
2016-10-13,-1,-0.00325599380326542,-0.002888325490712808,-0.003236858583461064,0.009055635356677753,0.991947668635844
2016-10-17,-1,-0.0026319036349162096,-0.0023637858268412,-0.003958292157343701,0.009055635356677753,0.9919813808346325
2016-10-19,-1,-0.002490745920072761,-0.0022461527442801223,-0.003958292157343701,0.009055635356677753,0.9918092910487817
2016-10-21,-1,-0.002508246678386393,-0.0022577407476255507,-0.004426239456457593,0.009055635356677753,0.9911594515597749
2016-10-25,-1,-0.002774997776418195,-0.002493384114684142,-0.003958292157343701,0.009354616282298951,0.9916171233258747
2016-10-27,-1,-0.002004277360350838,-0.0018177159453000638,-0.003958292157343701,0.006863861469033842,0.9922367329901864
2016-10-31,-1,-0.0015198374619843965,-0.0014260630813474708,-0.003958292157343701,0.007517531673651415,0.9920398556029759
2016-11-02,-1,-0.002032301238121907,-0.0018503819849419166,-0.006912913838687704,0.007517531673651415,0.990898901754315
2016-11-04,-1,-0.001940935997583737,-0.0017600667922265264,-0.006995557461078612,0.007517531673651415,0.9907640283892934
2016-11-08,-1,-0.0010123330112961604,-0.0009611724698751453,-0.006995557461078612,0.007517531673651415,0.9909468182292283
2016-11-10,-1,-0.0003605766092544704,-0.00032947716419988985,-0.006995557461078612,0.007517531673651415,0.9916553874517778
2016-11-14,0,-0.00010724417821537442,1.3521873387205773e-05,-0.006995557461078612,0.007517531673651415,0.9913761683171929
2016-11-16,-1,-0.0017375161639046448,-0.0014947823068489534,-0.007381734438153689,0.007517531673651415,0.9909858300654488
2016-11-18,-1,-0.0014058326395480296,-0.0012533034206661615,-0.006995557461078612,0.007517531673651415,0.9916013102659155
2016-11-22,-1,-0.0006074249781426922,-0.0005757164385077522,-0.006995557461078612,0.00581926122696654,0.9920028720765734
2016-11-25,-1,-0.00037405530115384555,-0.0003512738556276535,-0.007381734438153689,0.0025855745346849233,0.9922054009479008
2016-11-29,1,7.500429466887206e-05,0.0001571109224025857,-0.007661462855315235,0.0025855745346849233,0.9916032776767748
2016-12-01,-1,-0.00024351417143544422,-0.00016745223578553875,-0.006641831908435635,0.0040358084165484365,0.9924537895369798
2016-12-05,1,3.411233902646276e-05,0.0001490508607646112,-0.006157362820587963,0.00556828141860689,0.9922018799263416
2016-12-07,1,0.0007295856250052372,0.0009475198618916156,-0.007176262185608193,0.003638462547996495,0.9922772415592689
2016-12-09,1,0.0011705034784415987,0.0014616776685595669,-0.007176262185608193,0.003638462547996495,0.9924710234290571
2016-12-13,1,0.0004096203909381601,0.0005707781151675798,-0.005834914410140329,0.003638462547996495,0.9936345658228815
2016-12-15,1,0.0001397710724808873,0.0002568660103676001,-0.005700956626365012,0.003638462547996495,0.9936438063969472
2016-12-19,1,8.18745760702559e-05,0.00017646140080431876,-0.005700956626365012,0.00694582854491101,0.9931076076477569
2016-12-21,0,-4.504380942864779e-05,2.3262243895992048e-05,-0.004144714760164244,0.008057299521717519,0.9921186603051696
2016-12-23,-1,-0.0003314007165476875,-0.0003015108410430805,-0.004144714760164244,0.009345561940422482,0.9914997312548367
2016-12-28,-1,-0.00025839004717815575,-0.00021493676489274597,-0.0011437829563600258,0.008057299521717519,0.9922575316537632
2016-12-30,-1,-0.00017663986015314465,-0.00012057836914263577,-0.0011437829563600258,0.008057299521717519,0.9919352237499441
2017-01-04,1,0.0005952769243342218,0.0007628110780128107,-0.0011437829563600258,0.007700932663022505,0.993211124322747
2017-01-06,1,0.0001803851975285967,0.0002909620559629893,-0.0008348955710182756,0.007700932663022505,0.993315873948106
2017-01-10,1,0.0003283627760484021,0.00044732587678457777,-0.0008348955710182756,0.007531191625942285,0.9936892995018188
2017-01-12,1,0.000646041915326928,0.0008253271945772056,-0.0008348955710182756,0.007531191625942285,0.9938110853710818
2017-01-17,1,0.0006927898922092085,0.000905420447207727,0.00027449826422045744,0.007558640797854543,0.9939397698901759
2017-01-19,1,0.0011867974185197894,0.001471128326228865,0.00017370678109810734,0.006009292124986944,0.9946060547499164
2017-01-23,1,0.0020166070984843684,0.002423634775955752,0.00017370678109810734,0.005598479928142094,0.995490320396732
2017-01-25,1,0.0020333485987910384,0.0024190324415994417,-9.876351438155866e-05,0.004445886245837269,0.9961860170092544
2017-01-27,1,0.0024399228569681377,0.002897310774772164,-0.0009780536293613538,0.004445886245837269,0.9956998787634452
2017-01-31,1,0.001960332788797014,0.0023518162785184657,-0.0003186825321361336,0.005598479928142094,0.9965020405917839
2017-02-02,1,0.0012721296956030286,0.0014859259505368458,-0.0018941614236377912,0.0045449620082430725,0.9959419832112172
2017-02-06,1,0.0011715125686534065,0.0013767570146159187,-0.0023133473957885724,0.0045449620082430725,0.9958733128909377
2017-02-08,1,0.0013846078307715964,0.0016259866707505673,-0.0033817505954201786,0.005960310343421454,0.9911447433020023
2017-02-10,1,0.001497048874928485,0.0017517508812424187,-0.0051528658847347876,0.005960310343421454,0.9906418044354722
2017-02-14,1,0.0019117913690051406,0.0022413021502672445,-0.008201810035464732,0.005960310343421454,0.989361956470258
2017-02-16,1,0.0020974516125764273,0.002464949111854198,-0.008201810035464732,0.0063456070837948015,0.9888963269483054
2017-02-21,1,0.002279676018294244,0.002658189179929055,-0.008349955353955149,0.00728904778291805,0.9881933303742345
2017-02-23,1,0.002128535945905943,0.002481285215451092,-0.008349955353955149,0.00728904778291805,0.988372531002219
2017-02-27,1,0.0022950783320750756,0.0026916615805451793,-0.008227298922718045,0.006433436033617865,0.9884748075977374
2017-03-01,1,0.00223518991721907,0.002594647998850211,-0.008227298922718045,0.007814889858568368,0.9882319265135915
2017-03-03,1,0.0010406438163962886,0.0011080308418439436,-0.007990349252276015,0.007814889858568368,0.9886137224987935
2017-03-07,1,0.0002452146805503604,0.00030778498887485133,-0.005812388280035932,0.007814889858568368,0.9892378551547069
2017-03-09,1,0.0008835557681069924,0.0008892317386145232,-0.00430400695988207,0.006239735468545189,0.9936877224159332
2017-03-13,1,0.0008053719500275793,0.0008075008200425082,-0.0032218597256955988,0.007462479975726582,0.9938952145246163
2017-03-15,1,0.0011087649709668158,0.0011445707723042344,-0.0032218597256955988,0.004514285137229909,0.9948686251717666
2017-03-17,1,0.001098051467420886,0.001123619610468772,-0.0034889754394279763,0.004514285137229909,0.9947190306754818
2017-03-21,1,0.0007577248443958847,0.0008090551969574132,-0.0034889754394279763,0.002815844204867725,0.9953593412677341
2017-03-23,1,0.0011266610234628377,0.0011612666202489583,-0.004308210486862093,0.003780942324524056,0.9947536257074625
2017-03-27,1,0.000662242900462081,0.0006911167271128263,-0.003223260901355607,0.008038241063874688,0.9930580125951524
2017-03-29,1,0.0010352958131647438,0.0010409930871830946,-0.0033116279045424897,0.007351110935658051,0.9933886922799425
2017-03-31,1,0.000721405314693824,0.0007584611744455353,-0.003605288495258445,0.007351110935658051,0.9929138780197853
2017-04-04,1,0.0009346954908700852,0.0009541009669042572,-0.003605288495258445,0.007351110935658051,0.9929330684052812
2017-04-06,1,0.0013824853103167366,0.0015027953898881054,-0.003605288495258445,0.007351110935658051,0.9926084716710933
2017-04-10,1,0.0012961036716773397,0.0013836386075019031,-0.005534755360794681,0.006571933243219645,0.991732978125867
2017-04-12,1,0.001023630094003508,0.0010776308089100808,-0.004369144463257594,0.006571933243219645,0.9920515191945253
2017-04-17,1,0.0008249355631710471,0.0008260070113200962,-0.0037227199202030693,0.006571933243219645,0.9922756952486674
2017-04-19,1,0.000874471679243885,0.0009064529008606325,-0.004351560045273988,0.006571933243219645,0.9914717861586875
2017-04-21,1,0.001366322444618576,0.0014912874067967144,-0.004031784016687334,0.006571933243219645,0.9915299239358359
2017-04-25,1,0.002772541575821244,0.003075877341792283,-0.004031784016687334,0.0034975520850294263,0.9928003005885547
2017-04-27,1,0.002226309236346035,0.0023946481746327966,-0.004031784016687334,0.002344779720309414,0.993400820119908
2017-05-01,1,0.0016837669967928763,0.0017891113434842882,-0.004031784016687334,0.002744968244194251,0.9941011177967883
2017-05-03,1,0.0018628993999488864,0.0020341287909302974,-0.004031784016687334,0.00383923794575031,0.9930284673321526
2017-05-05,1,0.0023821910732906037,0.0026405334269841143,-0.0052963367527103875,0.002744968244194251,0.9917957670592252
2017-05-09,1,0.0010475691410665696,0.001077595791869949,-0.003934643434223965,0.002744968244194251,0.9931321116567893
2017-05-11,1,0.00057461274251779,0.0006254498222077159,-0.0035954979533908476,0.004322086798582101,0.992627363970527
2017-05-15,1,0.0006492574966482953,0.000694080574494566,-0.003400977967613472,0.005200650308819975,0.9924988316754526
2017-05-17,-1,-0.00047162491130537277,-0.0002847016471588014,-0.0012488365983234198,0.005200650308819975,0.9935417137595279
2017-05-19,-1,-0.00043116997123659865,-0.00022253159401421758,-0.0014815348122167258,0.002744968244194251,0.994175120140251
2017-05-23,-1,-0.000579812678877183,-0.0003515651857733796,-0.0014815348122167258,0.0024586750072163755,0.9942981523697415
2017-05-25,-1,-0.0006329213008234419,-0.00039558404640931697,-0.0014815348122167258,0.0022043871950840517,0.9943491288058085
2017-05-30,-1,-0.00034145486888621654,-0.000179582312465305,-0.0014815348122167258,0.001426251299570371,0.9945835508767711
2017-06-01,1,9.807689446545944e-05,0.0002458009934446344,-0.001953275925500175,0.001426251299570371,0.9949984361647292
2017-06-05,0,-0.00015478792338117413,1.1148557230891091e-05,-0.0014815348122167258,0.002139512438303179,0.9960902824159145
2017-06-07,-1,-0.00037036805338310386,-0.00018412202980604207,-0.0014815348122167258,0.002139512438303179,0.996038869568516
2017-06-09,1,1.0128968879519727e-05,0.00017268252040630107,-0.0014815348122167258,0.002139512438303179,0.9965357640457989
2017-06-13,1,0.0007682347335618648,0.0008173962794563129,-0.0014815348122167258,0.0016554655127331923,0.9966565523606699
2017-06-15,1,0.0011081444783705276,0.0011506683941375619,-0.0011047118166362736,0.003920849198093003,0.9964511550822528
2017-06-19,1,0.0010898813499938373,0.0011437010925915195,-0.0009254726076110607,0.003920849198093003,0.9965899505418113
2017-06-21,1,0.001014638295762112,0.0010750214453080983,-0.0003835778715834951,0.0050677398469392565,0.9936124913328485
2017-06-23,1,0.000490204148555854,0.0005274059969007344,-0.003053262743709804,0.0050677398469392565,0.9929716874774955
2017-06-27,1,0.0004263095399028802,0.00046337487808398867,-0.003299955993391546,0.005375713481138444,0.9922047829896119
2017-06-29,0,-5.9252662562712195e-05,4.889971738209495e-05,-0.003299955993391546,0.005194092822434244,0.9927537062274472
2017-07-03,1,0.0001617863796452256,0.0002448108613019652,-0.003925925947809415,0.003920849198093003,0.9927014346597146
2017-07-06,0,-3.180038851584467e-05,7.061245167403867e-05,-0.003925925947809415,0.005194092822434244,0.9918296587979547
2017-07-10,1,0.00035595806635248917,0.0004005175441212844,-0.003925925947809415,0.003920849198093003,0.9919810215067687
2017-07-12,1,0.0005561781319250959,0.0005773191977230757,-0.006054545237886866,0.0033259397123961585,0.9914562883230309
2017-07-14,1,0.0009374484844115653,0.0009826521562808837,-0.007820586682188787,0.001283064492898653,0.9903606070948489
2017-07-18,1,0.0008154352289803269,0.0008344478793836244,-0.007820586682188787,0.0033625555911765436,0.9894858866998909
2017-07-20,-1,-0.0011360763595488345,-0.0009203444565833088,-0.007820586682188787,0.0033625555911765436,0.9924303753407498
2017-07-24,-1,-0.0014488294058170245,-0.0012078870103132552,-0.006280023466833489,0.0033625555911765436,0.9925335646577542
2017-07-26,-1,-0.001293806691034004,-0.0010504309576872609,-0.007693507087657243,0.0033625555911765436,0.9920425150062507
2017-07-28,-1,-0.001824618581451854,-0.001497802250117485,-0.007693507087657243,0.0033625555911765436,0.9920611083410861
2017-08-01,-1,-0.0015645843242107723,-0.0013100811985610964,-0.006617133418992742,0.003815341924012048,0.9920247326658831
2017-08-03,-1,-0.0017509118324611612,-0.001470853071943804,-0.005862844623641054,0.003815341924012048,0.9928485424252271
2017-08-07,-1,-0.001397688389852987,-0.001177789951694565,-0.006617133418992742,0.003815341924012048,0.9926000324411772
2017-08-09,-1,-0.001856906841447458,-0.001589602766078696,-0.005862844623641054,0.004337545537919941,0.9928871021857444
2017-08-11,-1,-0.0025999244882138946,-0.00224744919474229,-0.003097872927506234,0.005521431938168302,0.992437978688453
2017-08-15,-1,-0.0018804547293332697,-0.0016144118247060424,-0.0044894422162518235,0.005521431938168302,0.992805471346168
2017-08-17,-1,-0.0020784682622355067,-0.0017784917720188322,-0.003097872927506234,0.005521431938168302,0.9928713297103351
2017-08-21,-1,-0.0018030172372503997,-0.0015632770119214127,-0.002063638643762546,0.007375369960966566,0.9922575809520187
2017-08-23,-1,-0.0015474307008810037,-0.0013278827072763454,-0.001723687528920908,0.005521431938168302,0.9933474700534901
2017-08-25,-1,-0.0015713495948499027,-0.0013447488089238676,-0.0018950866255621921,0.005521431938168302,0.9932518960101931
2017-08-29,-1,-0.0014469140090891514,-0.0012417904904615498,-0.0025922168729051727,0.005521431938168302,0.9932250897403583
2017-08-31,-1,-0.0012074178768682955,-0.0010379397883592992,-0.0025922168729051727,0.007375369960966566,0.9931041393315841
2017-09-05,-1,-0.0016451469533919358,-0.0014132042226832021,-0.0018950866255621921,0.008202504532465156,0.9921107831076365
2017-09-07,-1,-0.0014116152675647422,-0.0012117184996093561,-0.0018366668387826493,0.008202504532465156,0.9919984994890785
2017-09-11,-1,-0.0008879486787351184,-0.0007433677552103404,-0.0018366668387826493,0.007585833791169526,0.9930290098729931
2017-09-13,-1,-0.000983010653431978,-0.0008409983173735243,-0.0018366668387826493,0.007135211869488152,0.9939943538272237
2017-09-15,1,0.00022654056565723742,0.000307631002834408,-0.0018366668387826493,0.007135211869488152,0.9946114197464988
2017-09-19,1,0.0008830085119416553,0.0010596030930852401,-0.0021597490446125865,0.004968416267118472,0.9953867474119588
2017-09-21,1,0.0008022899085201604,0.0009386337267188593,-0.0021597490446125865,0.007135211869488152,0.9949128075296102
2017-09-25,1,0.0008508680497219332,0.0009906355468021202,-0.002458069490345266,0.008174536200483895,0.993339578787383
2017-09-27,1,0.0007280942436521389,0.0008751156143554392,-0.0017730071382367782,0.008174536200483895,0.9936836083846806
