JNU-Tangyin/eata/results/Batch4_SP500/Batch4_SP500-HSY.csv
Date,Action,Predicted_Q25,Predicted_Q75,Actual_Q25,Actual_Q75,RL_Reward
2010-12-14,0,-1.230928114506157e-05,0.0,-0.003206836643192823,0.005093139155245623,0.9939048549760959
2010-12-16,1,0.00027696054957219714,0.0002782733074392147,-0.005213662363140283,0.005093139155245623,0.9929916873006749
2010-12-20,0,0.0,0.0,-0.005213662363140283,0.0046338820450004346,0.9933540900619124
2010-12-22,0,0.0,0.0,-0.005213662363140283,0.004144754601571878,0.9935894953003996
2010-12-27,-1,-0.0005439677181898957,-0.0004231450938018501,-0.005696133147926722,0.0046338820450004346,0.9924343989287084
2010-12-29,-1,-0.0008417482505781306,-0.0006847193736275037,-0.007758211925786488,0.0046338820450004346,0.9910551100911303
2010-12-31,-1,-0.0009897991873268315,-0.0008196998018965415,-0.009564905103523568,0.0046338820450004346,0.9901109497602864
2011-01-04,-1,-0.0017776948685530062,-0.001503065205929609,-0.008095484031537828,0.00907825282697685,0.9885749335452914
2011-01-06,-1,-0.00040541299168767925,-0.00030295002462544607,-0.008095484031537828,0.00907825282697685,0.9886181214255537
2011-01-10,1,0.0004017451366182583,0.0004462654550743165,-0.010582315862685317,0.009186633714565743,0.9879547470382619
2011-01-12,1,0.0007245205190800976,0.0008146173730022936,-0.01252766314358615,0.009186633714565743,0.9874964118021724
2011-01-14,1,0.0008452568295389261,0.0009104345467948273,-0.01252766314358615,0.006785280844837116,0.988219311023273
2011-01-19,1,0.00043318730686701414,0.0004375309487293306,-0.01252766314358615,0.006785280844837116,0.988710482518594
2011-01-21,1,0.0001842990100107322,0.0002460396443215431,-0.01252766314358615,0.008754512697432519,0.9883453633710009
2011-01-25,1,0.0008401973945379004,0.0009145529559778159,-0.013804818137372834,0.008754512697432519,0.9877410359839697
2011-01-27,-1,-0.00044224280060660735,-0.00035571781694284207,-0.00659422677714009,0.009186633714565743,0.9875024965975596
2011-01-31,-1,-0.001666422701894757,-0.0014098829588646607,-0.002919917594227753,0.009186633714565743,0.9879525464395953
2011-02-02,-1,-0.00043934249469552414,-0.00030605056195044894,-0.002919917594227753,0.008698533405419066,0.9894213079621449
2011-02-04,1,0.0006550635483436032,0.0006810133066957674,-0.002919917594227753,0.008540310206481596,0.9909031240358223
2011-02-08,1,0.0010973359199571327,0.001200255586344727,-0.0018462559987053326,0.007466710069662295,0.9917391392981028
2011-02-10,1,0.001000044354805848,0.0011237072281318698,-0.0018462559987053326,0.007466710069662295,0.9922832019458948
2011-02-14,1,0.0008903293043838051,0.0009846815199136916,-0.0018462559987053326,0.00819735788888315,0.9918110398716683
2011-02-16,1,0.0008887182948332298,0.000993701954124915,-0.003018622924782131,0.00819735788888315,0.991326311456989
2011-02-18,1,0.001097036190157916,0.0012080557742998486,-0.003018622924782131,0.0085782133609297,0.9906456582886705
2011-02-23,1,0.0011177928026904027,0.0012267133590499707,-0.0035116580385300905,0.00819735788888315,0.9920493543373454
2011-02-25,1,0.002001353841924753,0.002224874319938168,-0.0024579026178988585,0.007365761524294964,0.994066821983564
2011-03-01,1,0.002268317551561443,0.0025458365580775287,-0.002807291885929035,0.00819735788888315,0.9939116898684035
2011-03-03,1,0.0029067909058245757,0.0032889165278763674,-0.0035116580385300905,0.006238364002250673,0.9937312003868841
2011-03-07,1,0.003414520301126783,0.003906981848182704,-0.0035116580385300905,0.006055889343623597,0.9937694321576888
2011-03-09,1,0.004008874736234524,0.0046149394930230375,-0.0035116580385300905,0.007548985367634589,0.9933054217917447
2011-03-11,1,0.004029961237355108,0.004655588967018905,-0.002807291885929035,0.007548985367634589,0.993508862810032
2011-03-15,1,0.003816995444988409,0.004404220133202329,-0.0020587467234432304,0.0070920234238539895,0.9943357546862213
2011-03-17,1,0.0032883739970269174,0.0037603565620243575,-0.0011462599720326178,0.0070920234238539895,0.9951795255060112
2011-03-21,1,0.003986552649264318,0.0045251729243878476,-0.0020587467234432304,0.0064952305604890175,0.9950124920449214
2011-03-23,1,0.003521653730841309,0.003992363439017302,-0.0007688381436665604,0.0064952305604890175,0.9955921953634985
2011-03-25,1,0.0035196507438765515,0.003975874075285588,-0.0011462599720326178,0.0064952305604890175,0.995526153514955
2011-03-29,1,0.003791643679127772,0.004281514714402748,-0.0007688381436665604,0.006726573312572481,0.9956416111372062
2011-03-31,1,0.003074778911472658,0.00343397591210564,-0.0005775997066334273,0.006726573312572481,0.9961033900358166
2011-04-04,1,0.0030406167000146494,0.003375169268394125,-0.001015869959145921,0.006403912443967795,0.9957339751177321
2011-04-06,1,0.0034374561003706738,0.003809918663123079,-0.002088137546043711,0.00394808150488565,0.9950341269654438
2011-04-08,1,0.0028747028254908283,0.0031220301424589314,-0.0037355020895344744,0.00394808150488565,0.9947741634569578
2011-04-12,1,0.0027440521668829947,0.0029300903228809136,-0.00454594774102424,0.00394808150488565,0.9939543135654912
2011-04-14,1,0.002881784443349322,0.003092745368585851,-0.004732765510033211,0.0039122359019263045,0.9926386486706101
2011-04-18,1,0.0026073907296223628,0.0027815753690021688,-0.004217129274087953,0.002966966642582827,0.9933631969975449
2011-04-20,1,0.0025844625447934704,0.002774308754731918,-0.006966644887390112,0.002966966642582827,0.9916143051441055
2011-04-25,1,0.00220620623233922,0.002322455591508976,-0.0070818364311840834,0.0038746397406244784,0.9901864728816191
2011-04-27,1,0.002771354009967332,0.002978001128629012,-0.007368710614849219,-0.0013434282760182265,0.9893381574168673
2011-04-29,1,0.002283587303190334,0.002376425861214479,-0.007368710614849219,0.0023889691034640545,0.9892599744463711
2011-05-03,1,0.0014898980036344243,0.0015295019430662839,-0.007917328436795655,0.008532238537917274,0.989179116618917
2011-05-05,1,0.0013773654214375894,0.001378326640771523,-0.00713758696683582,0.008532238537917274,0.9893467709517383
2011-05-09,1,0.0009913250725165526,0.00103263540376466,-0.00713758696683582,0.008532238537917274,0.9895591529803062
2011-05-11,1,0.0012320858590002593,0.0012350522614741608,-0.007048132770469164,0.00835762868691401,0.9899975009211524
2011-05-13,1,0.0015271454241615285,0.0015343762416059987,-0.007481149273862264,0.00835762868691401,0.9900160171993558
2011-05-17,1,0.0013491959739480208,0.001355033711255109,-0.007595876293538581,0.00835762868691401,0.9897084951231958
2011-05-19,-1,-0.0002966893065324375,-8.140120978963503e-05,-0.007142125646013006,0.008532238537917274,0.9907337972233901
2011-05-23,-1,-0.0006130740363467091,-0.0003408868559471623,-0.006527081334961362,0.008532238537917274,0.9920756813774949
2011-05-25,-1,-0.0016473168448641361,-0.0012394082481934105,-0.006124127643133578,0.008532238537917274,0.99263964214292
2011-05-27,-1,-0.00155092698948558,-0.0011196930854835085,-0.006124127643133578,0.007835840800478963,0.9930630703979777
2011-06-01,-1,-0.000839414913915197,-0.0005468738908526148,-0.005248119674889422,0.007835840800478963,0.9932915555743318
2011-06-03,-1,-0.0013450910236472364,-0.0010020462626583507,-0.003980473479977707,0.008354686980252189,0.9931961859057887
2011-06-07,-1,-0.0014869710630528703,-0.0011439126425094228,-0.002957961698841085,0.008354686980252189,0.9930264865971264
2011-06-09,-1,-0.0010469474119734349,-0.0007765683949274026,-0.003980473479977707,0.007881798751793475,0.9930415941231369
2011-06-13,-1,-0.0011776829444140751,-0.0008756830894718021,-0.003980473479977707,0.006595645485296693,0.993508529328067
2011-06-15,-1,-0.0012162512926737427,-0.000912395059976488,-0.003980473479977707,0.005738471836941608,0.9936323586743903
2011-06-17,-1,-0.000610867924823147,-0.0003808364226089378,-0.004327985395103422,0.005529551172197951,0.9944981670265729
2011-06-21,-1,-0.0012083831701536582,-0.0008386559883526632,-0.005111580001157259,0.005529551172197951,0.9942468665182467
2011-06-23,-1,-0.0023042191249555864,-0.00175728330375537,-0.004270672573954709,0.006799232846097443,0.9922524855252519
2011-06-27,-1,-0.0011733874796259133,-0.000840910693604799,-0.005710864003159005,0.006799232846097443,0.9923403766130718
2011-06-29,0,-1.2828057645755838e-05,0.00013296234245017876,-0.007117237670362416,0.005738471836941608,0.9917492774855519
2011-07-01,0,-4.983386506610696e-06,0.00015353329204826905,-0.0073015761108271805,0.005332323783353989,0.9919802423346821
2011-07-06,0,-0.00019477805050184419,8.817591236310067e-06,-0.007846720917609162,0.005497763232172792,0.9909196890055036
2011-07-08,-1,-0.0003185863516164531,-0.00010089978136577807,-0.009074597392424482,0.0065557064693966705,0.9887653685208484
2011-07-12,-1,-0.0009007299237189418,-0.000618261704024261,-0.009074597392424482,0.011825194213805162,0.9867663175957706
2011-07-14,-1,-0.0008105504465594592,-0.000561101848079014,-0.010291511613187577,0.016721208381775307,0.9851076651903161
2011-07-18,-1,-0.0012760320884282399,-0.0009706304123406215,-0.010291511613187577,0.016721208381775307,0.9846983880848239
2011-07-20,-1,-0.0006238157107842564,-0.0004428673438630663,-0.010291511613187577,0.016721208381775307,0.9852844800847409
2011-07-22,1,0.0007102114364833909,0.0007297017795133541,-0.012251415459239776,0.006125367051771035,0.98572769764885
2011-07-26,1,0.0006318775106063986,0.000635852462446167,-0.012191652557025957,0.019208459056958043,0.984310331599887
2011-07-28,-1,-0.0002231593126948932,-0.00012507685809353428,-0.010306501971853406,0.019208459056958043,0.9847201106530546
2011-08-01,-1,-0.00031642600646222406,-0.0002188374895686965,-0.010306501971853406,0.019208459056958043,0.9837539335942111
2011-08-03,-1,-8.249817391914197e-05,-5.390587102431857e-06,-0.008800740275522622,0.01703597289811932,0.9845053490432968
2011-08-05,-1,-0.0007142025534361796,-0.0005566409045502487,-0.010705184612720029,0.01589757598629669,0.9860182869161025
2011-08-09,-1,-0.0008838523597159947,-0.0006885527192401631,-0.007302732158596409,0.01488704357086823,0.9878389774075047
2011-08-11,-1,-0.00059384494152223,-0.0004780779723825658,-0.007302732158596409,0.011896781910850359,0.988787675068549
2011-08-15,-1,-0.0002584091027425759,-0.0001651081676491699,-0.007302732158596409,0.011110919412093993,0.9889066366048871
2011-08-17,-1,-0.00016684148846762953,-9.11030869926469e-05,-0.007302732158596409,0.012239633879882467,0.987746020394044
2011-08-19,-1,-0.0010345909722029333,-0.0008700017692152066,-0.005947131602518207,0.012239633879882467,0.9883564191946889
2011-08-23,1,0.00023682666898923606,0.000266518747486096,-0.0068901328722716475,0.009412899813475943,0.9896913044813898
2011-08-25,-1,-0.0003953544362558019,-0.0002991615812739117,-0.006778676875597119,0.011110919412093993,0.9889871409386775
2011-08-29,1,0.0007900956820674111,0.0008681381635939744,-0.006778676875597119,0.009527183803153313,0.9897953451437455
2011-08-31,1,0.0011321152866730951,0.0012549297681766303,-0.00887280850577023,0.009527183803153313,0.9892101272890605
2011-09-02,1,0.0005090707465974557,0.0005678481241486594,-0.006778676875597119,0.009527183803153313,0.989372906677891
2011-09-07,1,0.0008867299119455401,0.001009698291595747,-0.006608023480351068,0.009378794769041177,0.9897071506679103
2011-09-09,1,0.0002135210521621095,0.00024016650324381467,-0.0054592049802590584,0.009378794769041177,0.9905265016357424
2011-09-13,1,0.0006649502482474849,0.0007520746679808161,-0.006337227523183351,0.009378794769041177,0.990214458115469
2011-09-15,1,0.001506385035599363,0.0017051377136384665,-0.006337227523183351,0.005531292825779496,0.9912725062692712
2011-09-19,1,0.0017591219814857592,0.002022784918337412,-0.00590618536600622,0.005598123957213092,0.991328663361255
2011-09-21,1,0.0013144414886981596,0.0015202406648292116,-0.00590618536600622,0.00799854078492495,0.9910044341344093
2011-09-23,1,0.0016150393089306928,0.0018431818024428768,-0.005201316548693427,0.00799854078492495,0.9919540427693953
2011-09-27,1,0.0017429134518658165,0.0019557599077472112,-0.00590618536600622,0.005598123957213092,0.9920773888110208
2011-09-29,1,0.0010492269992185865,0.0011544761495381661,-0.00590618536600622,0.005598123957213092,0.9910690717672185
2011-10-03,1,0.0008228223260107614,0.0009080176191316896,-0.005201316548693427,0.005598123957213092,0.9918039328275177
2011-10-05,1,0.0013168308187349073,0.001504340362922938,-0.004162890388913938,0.005451847956245273,0.9922685974384694
2011-10-07,1,0.001380738902966484,0.0015664098770319206,-0.005791977653499631,0.006605821295437289,0.9910929625752275
2011-10-11,1,0.0009783095605728452,0.0010399605599282265,-0.004162890388913938,0.005153799096328203,0.991969604694383
2011-10-13,0,0.0,0.0,-0.006227806123162922,0.006605821295437289,0.9914075939344172
2011-10-17,1,0.0005942229775668718,0.0006153302357102821,-0.01061675375649909,0.004601963387404412,0.9910804216549594
2011-10-19,1,0.0006550857964175816,0.0006937869568481025,-0.009533078321471593,0.004601963387404412,0.9913686510513411
2011-10-21,0,0.0,0.0,-0.009533078321471593,0.0028626827369329284,0.9919998500308491
2011-10-25,1,0.0003273618231595522,0.00033554131955359015,-0.005339044963279227,0.0018219056364522511,0.9924564736153575
2011-10-27,0,0.0,0.0,-0.005339044963279227,0.0018219056364522511,0.993643487577003
2011-10-31,-1,-0.0016352089684428237,-0.0013107959652028777,-0.0050720474621586496,0.005137262389369076,0.9928815578724552
2011-11-02,-1,-0.0012664667288207268,-0.0009910050551737992,-0.0050720474621586496,0.005334930676466064,0.9919664965001039
2011-11-04,-1,-0.0013779805372444594,-0.0010875082660238402,-0.0023316532976508718,0.005334930676466064,0.99259743963956
2011-11-08,-1,-0.0011435302589639998,-0.0009186378004535561,-0.0029577356372386234,0.005334930676466064,0.9924403853031183
2011-11-10,-1,-0.001235196614379389,-0.001022461044611512,-0.0008939582978128586,0.008912806403155423,0.9924184099375597
2011-11-14,-1,-0.0022869611863409306,-0.0019292283242467799,-0.002517255858384955,0.008912806403155423,0.9925558727883628
2011-11-16,-1,-0.00195932652871166,-0.00165948748949927,-0.0008939582978128586,0.00809563990647693,0.9931078738532194
2011-11-18,-1,-0.0013954524730956756,-0.0011939374160000855,-0.0008939582978128586,0.00809563990647693,0.9932523611340695
2011-11-22,-1,-0.0011985195190879338,-0.0010370049748482104,-0.0005128994213377646,0.008912806403155423,0.9925355832055162
2011-11-25,-1,-0.0018620657502647234,-0.0016376725180084737,0.0005230574732547668,0.008912806403155423,0.9925072629580651
2011-11-29,-1,-0.001020069159580763,-0.000897034045954586,0.0005230574732547668,0.00848653152283176,0.9932991112223803
2011-12-01,0,-2.2272671766337008e-05,1.1444103416708364e-05,-0.000623167050728185,0.00809563990647693,0.9946824186117729
2011-12-05,1,0.0004574300188076127,0.0004769387540981047,-0.0016240985675946525,0.007440724277265503,0.9945094195614219
2011-12-07,0,0.0,0.0,-0.001683352598861294,0.007440724277265503,0.9945294947269187
2011-12-09,0,0.0,0.0,-0.001683352598861294,0.004837522565382885,0.9952078679077999
2011-12-13,0,0.0,0.0,-0.000623167050728185,0.006317256937658291,0.9951406578486622
2011-12-15,0,0.0,0.0,-0.001106318689151111,0.004837522565382885,0.9954344540644212
2011-12-19,0,0.0,0.0,-0.001683352598861294,0.006317256937658291,0.9950333250621974
2011-12-21,0,0.0,0.0,-0.001913594050503265,0.004837522565382885,0.9956578688775889
2011-12-23,0,0.0,0.0,-0.002334637515276485,0.003915260803619664,0.9955918714295046
2011-12-28,0,0.0,0.0,-0.0027125299368413033,0.003499903032397492,0.99581317230033
2011-12-30,0,0.0,0.0,-0.002995904133498154,0.003499903032397492,0.9954162733142843
2012-01-04,0,0.0,0.0,-0.002334637515276485,0.0038226251722041672,0.9959358972960329
2012-01-06,0,0.0,0.0,-0.0030099321502323204,0.0038226251722041672,0.9956874875491848
2012-01-10,0,0.0,0.0,-0.004689702937464185,0.0036356930806910434,0.9953627121758304
2012-01-12,0,0.0,0.0,-0.0050727934992444,0.003466001035707479,0.9952558757321559
2012-01-17,1,0.0009310280847844335,0.0011596405267752577,-0.0050727934992444,0.0038226251722041672,0.9944378726366877
2012-01-19,1,0.0005496586771370742,0.0006534892809172015,-0.0050727934992444,0.0036356930806910434,0.9949291166443853
2012-01-23,1,0.0010897299061317358,0.001325898468304883,-0.0050727934992444,0.0037209191821341277,0.9946278472792385
2012-01-25,1,0.0011570865333273774,0.0014257742644404633,-0.005118901300953703,0.004234221300017457,0.994339216284685
2012-01-27,1,0.00040390847591256616,0.0005095666598595401,-0.006565009308888507,0.005097252700667168,0.9939145246699415
2012-01-31,1,0.0005736517224819354,0.0007122451915779058,-0.006565009308888507,0.005097252700667168,0.9932033213453909
2012-02-02,1,0.0006865790284716347,0.0007950672727523433,-0.006565009308888507,0.006318043548484363,0.9930370933136251
2012-02-06,1,0.0005609331330519008,0.0006915963735157783,-0.007552769121974984,0.006318043548484363,0.9922686714795319
2012-02-08,1,0.0006800820336254091,0.0008760699276059501,-0.00670437143896407,0.006318043548484363,0.9926476307264023
2012-02-10,1,0.0002916576177405147,0.00042049747922840293,-0.0038487390258712287,0.006546997257854343,0.9924049274345667
2012-02-14,1,0.000587671375962397,0.000689527664677796,-0.00670437143896407,0.006318043548484363,0.9925319861521458
2012-02-16,1,0.00066353088244356,0.0008355047744193983,-0.00670437143896407,0.006318043548484363,0.9925117929406315
2012-02-21,1,0.0007769329747503688,0.000979056980263133,-0.00670437143896407,0.005073348886621361,0.9926704245817852
2012-02-23,1,0.0006903685059319357,0.0008644113902067668,-0.0037442336036670656,0.0045235823615429474,0.9931887719853207
2012-02-27,1,0.00011379728123114637,0.00018660307011717728,-0.0026946158900246113,0.0045235823615429474,0.9935235296741702
2012-02-29,1,0.0007396028712682334,0.0009180036390185887,-0.0026946158900246113,0.00369950317945636,0.9946591113973733
2012-03-02,1,0.0006494162159457917,0.0008211625804019922,-0.0026946158900246113,0.003352960346749476,0.9948366444662066
2012-03-06,0,-4.002073894257248e-05,3.427175103873207e-05,-0.0025445915139498303,0.004447152543118699,0.9953286321737114
2012-03-08,1,6.789905930976994e-05,0.00017274448565207396,-0.0030084543855073012,0.004447152543118699,0.994889315336829
2012-03-12,1,0.0005139288069534817,0.0006710034534191967,-0.004340682211802196,0.0038668977027182423,0.9949893202712561
2012-03-14,1,0.00037545641884948133,0.0005137392049015593,-0.0030084543855073012,0.004447152543118699,0.9943482297251303
2012-03-16,1,0.0005619228951684468,0.0007411435860758639,-0.0030084543855073012,0.004447152543118699,0.9945669425320303
2012-03-20,1,0.0005440971178242637,0.0007097416971551981,-0.0020957385928767206,0.0056096754547015305,0.9941543671477163
2012-03-22,-1,-0.0003675003132776655,-0.0003177773353450704,-0.0020957385928767206,0.008857881473916326,0.9934405054207279
2012-03-26,1,8.016414655257796e-05,0.00012918556677136801,-0.004340682211802196,0.008857881473916326,0.9906808918054631
2012-03-28,0,-2.6558609622548662e-05,2.228000738395888e-05,-0.0020957385928767206,0.008998620978940657,0.9905983321321664
2012-03-30,1,9.484068315696541e-05,0.00013615903953609137,-0.0020957385928767206,0.008998620978940657,0.9906331709858817
2012-04-03,1,3.2280721633883816e-05,8.195146106952731e-05,-0.0020957385928767206,0.008888636471446682,0.9908845067999656
2012-04-05,-1,-0.00020871686015041496,-0.0001276093332668867,-0.0007381535128387112,0.008888636471446682,0.9909037858259285
2012-04-10,-1,-0.0012743738362343605,-0.001097491851769112,-0.00011260803297364823,0.009428534924213848,0.9905845888639196
2012-04-12,-1,-0.0007178627735857088,-0.0005882545560218389,-0.00011260803297364823,0.008888636471446682,0.9915267918367273
2012-04-16,-1,-0.0007296489170438429,-0.0006054141011184335,-0.0007381535128387112,0.008888636471446682,0.9910832024224179
2012-04-18,-1,-0.0002244326766731383,-0.00015792784394100148,-0.0013120013500817836,0.008121178379673917,0.9915857915422494
2012-04-20,-1,-0.0003671466156603081,-0.00023854908562798523,-0.003599337566670801,0.005797298920856237,0.9915281119056288
2012-04-24,1,0.0008790604104812389,0.0009233073997548969,-0.0018601962960224047,0.0049691640560436965,0.9949434325794092
2012-04-26,1,0.0015221588886630678,0.0016424894813948788,-0.003599337566670801,0.0049691640560436965,0.9945187594039996
2012-04-30,1,0.0018433491001729955,0.0020106702662279164,-0.004393991353549166,0.0049691640560436965,0.994384667175274
2012-05-02,1,0.0016878818179495007,0.0018230008645259968,-0.0047219750958904716,0.004002968678637647,0.9940462518834517
2012-05-04,1,0.0016681119732816318,0.0018545443740621964,-0.00489981603337879,0.0035940759109009605,0.9938344773242418
2012-05-08,1,0.0019121376800687122,0.0020913084544945735,-0.00489981603337879,0.0035940759109009605,0.9934959802794696
2012-05-10,1,0.0023140287937188386,0.0025373041908888718,-0.00489981603337879,0.0035940759109009605,0.993057667928873
2012-05-14,1,0.0024343718153051466,0.0026787185161726026,-0.004919468783645987,0.0035940759109009605,0.9931454589796673
2012-05-16,1,0.0023278972440576723,0.0025661056033555517,-0.004124180024062718,0.003811887456681164,0.9929453390860193
2012-05-18,1,0.0019941965640477037,0.0021959754491128465,-0.002689695660274519,0.005188420255349761,0.9936333133721735
2012-05-22,1,0.0023438106701231445,0.0026084404160048157,-0.002689695660274519,0.007768977278597614,0.9933439993141433
2012-05-24,1,0.0025246421575153906,0.002821272997735311,-0.002689695660274519,0.0059573647471746925,0.9933492655291655
2012-05-29,1,0.002233046397540746,0.00247395517137129,-0.002696246577030251,0.007768977278597614,0.9918762334884621
2012-05-31,1,0.0016003584120885424,0.0017458726876103223,-0.002495593787219016,0.007768977278597614,0.9920016405934223
2012-06-04,1,0.0009661968629970505,0.001058270898840059,-0.0013955191616606627,0.009501804555733769,0.9911438656583207
2012-06-06,1,0.0021019698695796856,0.002313963728092791,-0.002495593787219016,0.007768977278597614,0.9914616452244578
2012-06-08,1,0.0024277870922598224,0.0026695516556669804,-0.0016828554121657367,0.006998306399961439,0.9921407182038893
2012-06-12,1,0.0024181508149807686,0.002667866435962189,-0.0029704860396140478,0.006998306399961439,0.9919909585756602
2012-06-14,1,0.0021244040253964843,0.0023642969505196505,-0.0029704860396140478,0.006998306399961439,0.9924578734767031
2012-06-18,1,0.0030142172277351762,0.0033292127295609635,-0.003904839583070487,0.005915189879529209,0.991748785159414
2012-06-20,1,0.0031404023922618606,0.003448425942601531,-0.003904839583070487,0.003481761525385913,0.9916759045523907
2012-06-22,1,0.002349048184351568,0.0025343488743655336,-0.004766975215214459,0.003481761525385913,0.9922742218175615
2012-06-26,1,0.0031720906863777817,0.0034755408029066817,-0.004766975215214459,0.0025776312794688204,0.9931414513103728
2012-06-28,1,0.0026391595097309596,0.0028398439071428616,-0.0038864166742295027,0.003775743490710075,0.993166550313796
2012-07-02,1,0.0029810205857412177,0.003211969268201815,-0.004766975215214459,0.0025776312794688204,0.9939468793443849
2012-07-05,1,0.0022777100793426644,0.0024074224492107938,-0.004885631070919283,0.0025776312794688204,0.9944402117383535
2012-07-09,1,0.001795871142245437,0.001966136223893308,-0.005462190207792949,0.002831374400291392,0.9940417115052202
2012-07-11,1,0.0013166532118770156,0.0014033983933260203,-0.005462190207792949,0.002831374400291392,0.9945389998117107
2012-07-13,1,0.0013809734376951624,0.001483031556010161,-0.005462190207792949,0.002831374400291392,0.9945787889025612
2012-07-17,1,0.0010531388123082633,0.0011221614703416818,-0.004885631070919283,0.004357637766954231,0.9951294864328725
2012-07-19,1,0.0005832998408901831,0.0006438870220796317,-0.005145506423086824,0.004357637766954231,0.9949775513156072
2012-07-23,1,0.00040512133825288635,0.0004133509423697938,-0.004699387737802834,0.005899796392812109,0.9950580073565318
2012-07-25,1,0.0002859981975802128,0.00028852934594646737,-0.003098970216527568,0.005899796392812109,0.9953369426614073
2012-07-27,1,0.00015305664057711017,0.00027093430448624705,-0.003098970216527568,0.0025166226092883425,0.996603531405071
2012-07-31,-1,-0.0003911638597041512,-0.0001954728353632545,-0.0030900321731661155,0.0031150095386133976,0.9965090693261389
2012-08-02,-1,-0.0003351220629565717,-0.00015998471943265668,-0.003409125525640961,0.0022937640513584234,0.9963475815594729
2012-08-06,1,0.00037741486343744927,0.00047823340874411153,-0.0027158249422749125,0.0030774494048143807,0.9964438985563194
2012-08-08,-1,-0.001294422050522059,-0.0009626697081923822,-0.0033448510657378013,0.0041849576862920635,0.9954727195732758
2012-08-10,-1,-0.0011064738176419723,-0.000796676581844741,-0.004540685261676023,0.0030774494048143807,0.9951707387120408
2012-08-14,-1,-0.0007714926046874848,-0.0005124745560168783,-0.004699387737802834,0.002070890482872821,0.9950366349628036
2012-08-16,-1,-0.0012038959673213597,-0.0009096231263062292,-0.004912074720086517,0.0030774494048143807,0.9932762633330021
2012-08-20,-1,-0.0011399903045432105,-0.0008258836935536374,-0.00488526059000216,0.0034765217774915774,0.9930485135927916
2012-08-22,0,-0.00014645775994394947,4.507272100636817e-05,-0.00488526059000216,0.005130782144497614,0.9925701004342212
2012-08-24,-1,-0.0008302424767909561,-0.0005451490923843339,-0.00488526059000216,0.005130782144497614,0.992425331165175
2012-08-28,-1,-0.0008291068440989372,-0.0005330927979178222,-0.006915415000405302,0.005130782144497614,0.9920917432771189
2012-08-30,-1,-0.0018214900044874593,-0.001378631119499117,-0.0046924372102926815,0.005130782144497614,0.9924223510790395
2012-09-04,1,0.00047520245763461367,0.0005640566018994952,-0.0046924372102926815,0.00457937656648156,0.9927173270804884
2012-09-06,-1,-0.000968190251622232,-0.0006553152396090043,-0.004732804296272279,0.0035186371895167164,0.9932320985018014
2012-09-10,-1,-0.0017274605864431515,-0.0013563339268492845,-0.003662137679845167,0.0035186371895167164,0.9934744559712232
2012-09-12,-1,-0.0019090443893115708,-0.0015312461884978356,-0.003936688062225557,0.0035186371895167164,0.9934154994547678
2012-09-14,-1,-0.0016885415967915884,-0.0014239729066356818,-0.004377734755586086,0.0033778344499416023,0.9948410480722663
2012-09-18,-1,-0.0012049584514875755,-0.0010087119520233176,-0.004377734755586086,0.003472224161871911,0.9947422842904696
2012-09-20,-1,-0.0006925872401907698,-0.0005614039925936473,-0.004377734755586086,0.0034061648491083315,0.9950038615863991
2012-09-24,-1,-0.0008458607686521126,-0.0006942796081371347,-0.004545096948766182,0.0034061648491083315,0.9944126663022766
2012-09-26,-1,-0.0009954120290356925,-0.0007871401802185934,-0.004545096948766182,0.0034061648491083315,0.9948661754051487
2012-09-28,-1,-0.001125475290589535,-0.0009637826332276347,-0.004799445091970312,0.0034061648491083315,0.9946071578113358
2012-10-02,-1,-8.352784006733862e-05,-2.3367597794902252e-05,-0.005770604401701903,0.0034061648491083315,0.9939678017312473
2012-10-04,-1,-9.874683444252767e-05,-4.7357935680884214e-05,-0.0058321445274066895,0.0032304879778127867,0.9939184640498019
2012-10-08,-1,-0.00016074174680015302,-8.120456461645212e-05,-0.0058321445274066895,0.003933224533083069,0.9938552118165255
2012-10-10,-1,-0.0015920190728370355,-0.0013575223562547756,-0.005406833238803409,0.005179697936210854,0.9939694442347072
2012-10-12,-1,-0.0017370303714874286,-0.0014486261341470686,-0.00423453199689192,0.005950353433473634,0.9934661916993931
2012-10-16,-1,-0.0015438004811601088,-0.0013395617382690828,-0.00423453199689192,0.00546563836984432,0.9942538525990398
2012-10-18,-1,-0.0012739951539763499,-0.0010905690781152092,-0.00423453199689192,0.005950353433473634,0.9940176449344096
2012-10-22,-1,-0.0014423121906539836,-0.0011680741071031719,-0.00423453199689192,0.005950353433473634,0.9945488000749442
2012-10-24,-1,-0.0019145256521601569,-0.001567846336136687,-0.00357370772162674,0.006405084455323376,0.9941028796584703
2012-10-26,-1,-0.002141702612493793,-0.0017870875109866817,-0.0033496691747968927,0.006405084455323376,0.9939813505489409
2012-11-01,-1,-0.0015477709927158004,-0.0012817616726378757,-0.0033006574545297353,0.006405084455323376,0.9944086103778579
2012-11-05,-1,-0.002069151351832497,-0.0017367876200808396,-0.0033496691747968927,0.006405084455323376,0.9940894637538605
2012-11-07,-1,-0.0014064745948829112,-0.0011847195722152807,-0.003578973182895658,0.006405084455323376,0.9946237626476757
2012-11-09,-1,-0.0008587170388979595,-0.0007196430849150152,-0.003578973182895658,0.00662907811786043,0.9947253824989519
2012-11-13,1,0.00016997985344883426,0.00017298286822821092,-0.003578973182895658,0.004291943353472757,0.9954452456248247
2012-11-15,-1,-0.00041200252231581865,-0.00031659980856745516,-0.0034472329648568083,0.005583558419606113,0.9951185980841032
2012-11-19,1,0.00035719654565128853,0.0003693866617583872,-0.003901137690453871,0.005583558419606113,0.9952047843759839
2012-11-21,-1,-0.0005844830184713436,-0.000503515055872621,-0.003901137690453871,0.005583558419606113,0.9949522357300618
2012-11-26,1,0.0002542949253361324,0.0003627956833429856,-0.005021874603001553,0.00448470499689523,0.9950118113871228
2012-11-28,1,0.00024358339236156047,0.00035534942844530465,-0.0051644472531580075,0.00448470499689523,0.9947756834823689
2012-11-30,1,0.0007545342774698644,0.0009458625703544524,-0.006262073630541331,0.00448470499689523,0.994277814524333
2012-12-04,1,6.31841885289461e-05,0.00014364732555580587,-0.006262073630541331,0.005736361993643125,0.9929061040126725
2012-12-06,1,5.963803791460173e-05,0.0001608556108325003,-0.006262073630541331,0.0070874888399714685,0.9924291763943249
2012-12-10,1,0.0002806348535336325,0.00038271487073775136,-0.007453898197351198,0.0073481020795713526,0.9918740408832188
2012-12-12,1,0.0005823253347060725,0.0007369933475933345,-0.007453898197351198,0.008997276209875255,0.9912124836022685
2012-12-14,1,0.0009026790945605334,0.0010000345201406668,-0.007453898197351198,0.008997276209875255,0.9909945236972157
2012-12-18,1,0.0007722593567262307,0.0008342053071065415,-0.006481232814721602,0.010875045423184262,0.9906617688827891
2012-12-20,1,0.0007995621136690057,0.0009172685393474809,-0.005707828231548143,0.010875045423184262,0.9907888842199474
2012-12-24,1,0.0002494537475674491,0.0003371737367216818,-0.005678080728497645,0.010875045423184262,0.9909210354824607
2012-12-27,1,0.0001824903416093229,0.00020545475530517088,-0.0055823448111150704,0.010875045423184262,0.9909632054953375
2012-12-31,1,8.075076649160902e-05,0.0001363454001650293,-0.0034807163476142577,0.008349165261107344,0.9912585733743761
2013-01-03,1,0.000686145870738727,0.0008175977073818117,-0.0015732927755040544,0.009228715991951178,0.992313899621709
2013-01-07,1,0.0009757824388177888,0.001155051372315064,-0.0034807163476142577,0.007805187694706429,0.9926915798919311
2013-01-09,1,0.0011730794310709372,0.0013993230974090206,-0.0009549893453537594,0.006764327142592471,0.9936289454623567
2013-01-11,1,0.001543189573188889,0.0017962065762340178,-0.0018887414720684572,0.006353012335981922,0.994517440190752
2013-01-15,1,0.0015591102010804278,0.0018206320737677083,-0.0005601199490561199,0.006681552853156921,0.9946028868252431
2013-01-17,1,0.0024168736333841914,0.0027887808881969377,-0.0018887414720684572,0.006353012335981922,0.995309665285
2013-01-22,1,0.0026019759411057258,0.0029958524527487805,-0.003708796097946494,0.006519463704935043,0.9945072607471892
2013-01-24,1,0.0020735293907451872,0.0023432156223568866,-0.003708796097946494,0.007263681249451834,0.9942517116010291
2013-01-28,1,0.0021095475667670524,0.0023558418633267755,-0.0025241879090535753,0.007805187694706429,0.9940207117739782
2013-01-30,1,0.002259896012593924,0.002559025989423677,-0.0025241879090535753,0.009190389943659453,0.9937120089700465
2013-02-01,1,0.0037275103602269774,0.0042328957238923735,-0.0025241879090535753,0.009190389943659453,0.994146363594097
2013-02-05,1,0.0025870432620447668,0.0028973159448494176,-0.0025340460147286726,0.009190389943659453,0.9937473080211411
2013-02-07,1,0.002655636089384044,0.0029496530992903945,-0.00318834282324833,0.009190389943659453,0.9935830415724592
2013-02-11,1,0.002094626048341031,0.0022899538696934236,-0.00318834282324833,0.009190389943659453,0.9935441439277486
2013-02-13,1,0.0025558015739621577,0.0028389208678193,-0.00318834282324833,0.009190389943659453,0.9937119714505296
2013-02-15,1,0.0026315812252803864,0.002944507589079222,-0.003475367014832383,0.009190389943659453,0.9936985239416037
2013-02-20,1,0.0029458310085262347,0.003204295819935017,-0.0014810220768220487,0.009614502175682388,0.9939494358568306
2013-02-22,1,0.002359370830817407,0.0025706739258068707,-0.0014810220768220487,0.008223513986790401,0.9941027754258347
2013-02-26,1,0.0024991176895817115,0.0027456835033135944,-0.0014810220768220487,0.008223513986790401,0.9940219875395966
2013-02-28,1,0.002923138122068381,0.0032304224389351254,-0.0014810220768220487,0.007269830497752885,0.9943545498193506
2013-03-04,1,0.0033625656235371504,0.0037145445159290427,-0.005094760150404541,0.005937650432948492,0.9939076867832963
2013-03-06,1,0.0032724006223679445,0.0036161164212150983,-0.005094760150404541,0.00423562225439005,0.99398670791059
2013-03-08,1,0.0028113792696201497,0.003053213572480886,-0.005094760150404541,0.00423562225439005,0.9939323859547513
2013-03-12,1,0.0023454099904799,0.002496979267197933,-0.005094760150404541,0.005937650432948492,0.9937344039135582
2013-03-14,0,0.0,0.0,-0.005094760150404541,0.005937650432948492,0.9938830514831579
2013-03-18,1,0.0025543089064121857,0.002755493200739487,-0.00419491504734759,0.007431864090570037,0.9923543265577768
2013-03-20,1,0.0028028061877750695,0.0030091603855919736,-0.00419491504734759,0.006196941985521508,0.9925910758876471
2013-03-22,1,0.0024999965712286147,0.002643125733091396,-0.0029252147370988557,0.006196941985521508,0.9929259938673097
2013-03-26,1,0.0024536277747497044,0.002560060772079315,-0.0029252147370988557,0.006196941985521508,0.9924767319844717
2013-03-28,1,0.0025581031336139775,0.0026795527465846387,-0.005205759512583087,0.005420424713433833,0.991589434000491
2013-04-02,1,0.0016919295883729448,0.001710029794916011,-0.0029252147370988557,0.007228818024935574,0.9919720363370607
2013-04-04,1,0.0012905139907983779,0.0013509988944744949,-0.0029252147370988557,0.010097564353335552,0.991213947592715
2013-04-08,1,0.0010566361841175668,0.0011336719724425969,-0.0031935443220259827,0.010097564353335552,0.9910088551477954
2013-04-10,1,0.0019161535441797532,0.0019795542761738916,-0.004116081928760292,0.007593831045271121,0.9911516815075806
2013-04-12,1,0.0015557347280223178,0.001555975830996347,-0.00628994299199123,0.007593831045271121,0.9907109484601082
2013-04-16,1,0.0027092025315322947,0.002882524323746441,-0.00628994299199123,0.008576287132046114,0.9915323127425087
2013-04-18,1,0.0024292953713122966,0.002536394434932681,-0.00628994299199123,0.008576287132046114,0.9914372566222039
2013-04-22,1,0.002716463496627443,0.002873490602682616,-0.010789385666440627,0.007094893994540117,0.991087606878181
2013-04-24,1,0.002067117411307361,0.0021231191198477326,-0.00628994299199123,0.007094893994540117,0.9920349067148903
2013-04-26,1,0.001308802896055539,0.001335085558513543,-0.004007940696806505,0.007094893994540117,0.9930363614795519
2013-04-30,1,0.001482602147377162,0.0015163994237093483,-0.00465342965927062,0.007094893994540117,0.9930255562462035
2013-05-02,1,0.0011600817306849421,0.0012474949846424793,-0.00465342965927062,0.007094893994540117,0.9932027638111547
2013-05-06,1,0.0008601074147181111,0.0009695521793101937,-0.00465342965927062,0.007094893994540117,0.9932482842171256
2013-05-08,1,0.0009144965311042039,0.001009155805812119,-0.00634566976852412,0.006110380494126228,0.9930448329193596
2013-05-10,1,0.0004331660795288447,0.000572843588637319,-0.00634566976852412,0.0080930641312098,0.9920882668355175
2013-05-14,1,0.0010857357208012858,0.0011554831638806184,-0.00634566976852412,0.005179435031653565,0.9926469133650337
2013-05-16,1,0.0008469157257954239,0.0009559860345500652,-0.00634566976852412,0.005850805610611216,0.9924680229975935
2013-05-20,0,-0.00019798060642731434,6.605985274001015e-05,-0.004454137686658233,0.006830337759804377,0.9930631405015639
2013-05-22,-1,-0.0006005147247996963,-0.000254267397444215,-0.00839523881561531,0.00541418277024805,0.9913355185831483
2013-05-24,-1,-0.0007565810531175797,-0.00039992712204897673,-0.00839523881561531,0.007223269833821897,0.9904695444721464
2013-05-29,-1,-0.0004560186217820826,-0.0001578776930300209,-0.00839523881561531,0.007223269833821897,0.9902028526828082
2013-05-31,-1,-0.0005982858845066029,-0.000299123960086272,-0.004707658945324039,0.007154050028211368,0.9906498950782814
2013-06-04,-1,-0.0009030208928085207,-0.0005634944317793625,-0.002999596958124309,0.008407161272665421,0.9907845357034971
2013-06-06,-1,-0.001069971039704343,-0.0007462537396018176,-0.002999596958124309,0.009459375769494956,0.9904870600474326
2013-06-10,-1,-0.0011116671933088945,-0.0007781806483868845,-0.002265885481269156,0.008407161272665421,0.9916962671730715
2013-06-12,-1,-0.0009014182318571949,-0.0006317717022669069,-0.0014473170677230145,0.009459375769494956,0.9911145253614975
2013-06-14,-1,-0.0001863753068334172,-1.5119696603020617e-05,-0.0022360183769953254,0.008407161272665421,0.9917479983294137
2013-06-18,-1,-0.00035086513831151015,-0.00013909765107146077,-0.002909995645302817,0.008407161272665421,0.9917889935012892
2013-06-20,-1,-0.002605306471357746,-0.0021048143462496192,-0.0021261363848376793,0.008837013265445705,0.9927568679594327
2013-06-24,-1,-0.001962855453418991,-0.0015579716395701523,-0.0013536722106803744,0.008462606863077272,0.9933567265281024
2013-06-26,-1,-0.0008368565738554542,-0.0006010979953559529,-0.0021261363848376793,0.008462606863077272,0.9938675415669715
2013-06-28,-1,-0.0004418978967945672,-0.00024284817048515056,-0.0021261363848376793,0.008149460896525691,0.9941335956177109
2013-07-02,-1,-0.0002639584964900267,-8.89491231000582e-05,-0.002281012817966697,0.006766736720139648,0.994225763184465
2013-07-05,-1,-0.00029685390559904435,-0.00011503565060580522,-0.0013686703576708315,0.006766736720139648,0.9937904309409743
2013-07-09,1,0.0001748817485997209,0.0002831839559877236,-0.0013686703576708315,0.00657388734023647,0.9941295111806827
2013-07-11,1,0.00038522096300858046,0.00048274194274212765,-0.002281012817966697,0.005540291344245498,0.994361916432355
2013-07-15,1,0.0002850481000861134,0.00039843119171940845,-0.0028794335567912254,0.005540291344245498,0.9942725337177336
2013-07-17,0,-4.482264878563006e-05,0.00010317083043314367,-0.0001305178827385959,0.005540291344245498,0.9936506270036528
2013-07-19,1,0.00041263644206176737,0.0005050895130462672,-0.005533393980771276,0.004911250301856373,0.9939359035819846
2013-07-23,1,0.0010960262745629591,0.0011206507178155116,-0.0063922424563276035,0.004911250301856373,0.9938210758843276
2013-07-25,1,0.0013385745903634044,0.00142336980248189,-0.0063922424563276035,0.004357613979693373,0.9938815271482284
2013-07-29,1,0.0015924069506508837,0.0017033369590298305,-0.006997246086489883,0.004073050457508752,0.9924434847490579
2013-07-31,1,0.0014368747217178286,0.0015156564618519185,-0.00827705257614678,0.0032229340705129963,0.9915128629151545
2013-08-02,1,0.0021504640716697144,0.0023161153733268483,-0.00827705257614678,0.003938888506696542,0.9922206187959169
2013-08-06,1,0.002242952890490258,0.0024175771239600807,-0.010325354991738603,0.003938888506696542,0.9914884986061063
2013-08-08,1,0.0019062329300908612,0.0020233213723946054,-0.010325354991738603,0.0040692247140440155,0.9913972963201523
2013-08-12,1,0.001946745844394857,0.0021065756534160507,-0.010325354991738603,0.004828821743295818,0.9916657328403126
2013-08-14,1,0.001531994473477374,0.0016308656439753466,-0.009068253686660968,0.00414942385560404,0.9922313089187287
2013-08-16,1,0.0013095527992769275,0.001399931566248814,-0.009068253686660968,0.0052239079758145,0.9921984568984119
2013-08-20,1,0.0013584945235975577,0.0014668577047054266,-0.009068253686660968,0.005790077333135429,0.9922060643196842
2013-08-22,1,0.0005172863110455713,0.0005470404417934152,-0.005620873761574201,0.005790077333135429,0.9925653990090649
2013-08-26,0,-1.962195209976984e-05,9.11204029298854e-05,-0.004598042383771963,0.0052239079758145,0.9940422378319682
2013-08-28,-1,-0.0012533204117301053,-0.000983547099587728,-0.004497231485755013,0.005790077333135429,0.9943222620075354
2013-08-30,-1,-0.0005398862668685872,-0.00038501703959259486,-0.004598042383771963,0.005326610909619605,0.9946268829334776
2013-09-04,-1,-0.0010892619348606084,-0.0008631239727125193,-0.004598042383771963,0.005326610909619605,0.9947937888462832
2013-09-06,-1,-0.0005392301827370277,-0.0004332186773006883,-0.004598042383771963,0.005511829756206743,0.9945443498959774
2013-09-10,-1,-0.00016207657441524937,-0.00010534979909870127,-0.004598042383771963,0.005395445322415726,0.9945887808161682
2013-09-12,-1,-7.810461694529228e-05,-4.927520600133236e-05,-0.004598042383771963,0.0071338977449088535,0.9935226728372283
2013-09-16,1,0.0002966284796412399,0.00030266285934091395,-0.004607879341105304,0.005395445322415726,0.9939288670253207
2013-09-18,1,0.0003988121994318114,0.0004323062755681504,-0.004607879341105304,0.0027483563305826233,0.9937100567249922
2013-09-20,1,0.00046787930977567065,0.00047507749841742053,-0.004607879341105304,0.005690281546425282,0.9934454681678152
2013-09-24,1,0.00011735572297051771,0.00015054740567787975,-0.0047767655250450574,0.008113971236526529,0.992865277754565
2013-09-26,1,2.8565436570041872e-05,8.667893498209706e-05,-0.0045515173035330396,0.005690281546425282,0.9934046325830214
2013-09-30,-1,-0.0002162328975101636,-0.00013353399512004184,-0.00415137268591614,0.008113971236526529,0.9918339330667428
2013-10-02,-1,-0.0007628219682935623,-0.0005912042290878966,-0.00415137268591614,0.008113971236526529,0.9913291591740125
2013-10-04,-1,-0.0003983208276903456,-0.00030939100548066806,-0.00415137268591614,0.007792213614226836,0.991906894619406
2013-10-08,-1,-0.0002889797079401402,-0.00021420673056398928,-0.00415137268591614,0.007792213614226836,0.9917471166456187
2013-10-10,1,0.00013052605572321888,0.00018151259829848364,-0.0045515173035330396,0.007342818322255666,0.9916593367301682
2013-10-14,1,5.262053658887367e-05,0.00010786781855896485,-0.004761025702062679,0.007792213614226836,0.9911886749687138
2013-10-16,1,0.0005480964656961345,0.0005503378706882345,-0.004761025702062679,0.007792213614226836,0.9916212233673629
2013-10-18,1,0.0010482255129111821,0.0011204657961895875,-0.004761025702062679,0.00781329497624505,0.991703454880761
2013-10-22,1,0.0012659487554819047,0.001351302253879665,-0.007149663486307431,0.007342818322255666,0.9915101787099636
2013-10-24,1,0.0008895251994181263,0.0009149233515989912,-0.008068022473475288,0.007771653659217363,0.990847930183209
2013-10-28,1,0.0019720293316423964,0.00210531504409229,-0.008068022473475288,0.006904964179533129,0.9919393488054007
2013-10-30,1,0.0018210991665154098,0.0019360550182616165,-0.007149663486307431,0.008270302921082304,0.9921245433813668
2013-11-01,1,0.0013088667579871246,0.0013400375075600338,-0.007812850605207514,0.008270302921082304,0.9919303905759768
2013-11-05,1,0.0016066571598505777,0.0017119240295055316,-0.007812850605207514,0.008270302921082304,0.9919656583164594
2013-11-07,1,0.0004998440187981612,0.0005290602635331082,-0.007812850605207514,0.00836006719228334,0.9923876308975137
2013-11-11,-1,-0.0008057323042654159,-0.0005222360326651102,-0.008825281759865387,0.008270302921082304,0.9925774753089327
2013-11-13,-1,-0.00022817058043931996,-2.9597019843630016e-05,-0.008825281759865387,0.00641638857756904,0.9924794756828494
2013-11-15,1,0.00039120306000433176,0.00048264471149494836,-0.008825281759865387,0.005601933884179576,0.9926543229702199
2013-11-19,-1,-0.00028843168071339534,-0.00014288258726460066,-0.007651801120980271,0.00641638857756904,0.9926773504493278
2013-11-21,-1,-0.0005227031859184022,-0.00035823855835615936,-0.0049420954555601,0.005601933884179576,0.9935784419535401
2013-11-25,-1,-0.00046526950713231507,-0.0003082221003513894,-0.0074584607302319115,0.005052186358554274,0.9934208422779023
2013-11-27,1,0.0004350383224318289,0.00047194439677410155,-0.0074584607302319115,0.004261314540998646,0.9937633772288254
2013-12-02,1,0.00011307679733862458,0.0001657587073834689,-0.004382644714670468,0.004930068027893203,0.9936523652315384
2013-12-04,1,0.00020290466826726055,0.0002434100172746967,-0.0074584607302319115,0.004261314540998646,0.9933376617736623
2013-12-06,1,0.00014035692704048649,0.00020538289884315794,-0.004382644714670468,0.004261314540998646,0.9936570471822387
2013-12-10,-1,-0.00031759666553407594,-0.00022437062506208293,-0.002959150478613076,0.004930068027893203,0.9941209293992085
2013-12-12,-1,-0.00037942388419455063,-0.00029865151565289016,-0.0021040568583107475,0.004930068027893203,0.9945058696394852
2013-12-16,-1,-0.0003932237960546583,-0.00031688407013428247,-0.002959150478613076,0.005893679090593056,0.9938992474759943
2013-12-18,1,0.00033180847120997,0.00036823996468121606,-0.002959150478613076,0.005893679090593056,0.9940449744388976
2013-12-20,1,0.0004893206520212574,0.0005431766912810233,-0.002959150478613076,0.007816675654084558,0.9936863862015123
2013-12-24,1,0.00087580597276795,0.001040567419858281,-0.003727697119656514,0.007816675654084558,0.9933808346392371
2013-12-27,1,0.0011146786001246488,0.001322428601178155,-0.004824652382741655,0.009019309911154759,0.9927318469091339
2013-12-31,1,0.001378939876607881,0.001612252021208409,-0.005438009420450628,0.009019309911154759,0.9912251610679987
2014-01-03,1,0.0006970041601103209,0.0008263830489438419,-0.005438009420450628,0.009019309911154759,0.9912469798472408
2014-01-07,1,0.0009623486299863405,0.001108760368682613,-0.005438009420450628,0.009019309911154759,0.9908691051030619
2014-01-09,1,0.0009950584031200695,0.0011243340874169385,-0.005438009420450628,0.009019309911154759,0.991023114603403
2014-01-13,1,0.0010558890679388615,0.0011936056972223679,-0.005438009420450628,0.013314744284211814,0.9896198427823646
2014-01-15,1,0.0008877949416960815,0.00097110934237183,-0.0070207737792768315,0.013314744284211814,0.9893158399956419
2014-01-17,1,0.0008450985607309301,0.0009089549462729767,-0.005438009420450628,0.012543752660270361,0.9895724111655129
2014-01-22,1,0.000741500086570292,0.0007466199957443988,-0.005438009420450628,0.012976981407271168,0.9893309461923808
2014-01-24,1,0.00017432452217688816,0.00022993746399972036,-0.001365911071624387,0.012976981407271168,0.9899371446707949
2014-01-28,1,0.00010513536135314637,0.00019006698562673926,-0.00361607105036739,0.012354741444484443,0.9898078503987412
2014-01-30,1,0.0001491713192626521,0.00023804577506825997,-0.001365911071624387,0.010922022107570782,0.9920601151993177
2014-02-03,-1,-0.0002787699643686128,-0.00015276093987846395,-0.001365911071624387,0.012354741444484443,0.9918936314809856
2014-02-05,1,0.0006268410235859802,0.0006557374774911887,-0.002844345410236757,0.010922022107570782,0.992844850955512
2014-02-07,1,0.0007495960110318915,0.0007626583569511299,-0.003902007770689791,0.010922022107570782,0.9927050148253752
2014-02-11,1,0.0020969092057941275,0.002318476933580236,-0.003902007770689791,0.005099845566421887,0.9939312294595992
2014-02-13,1,0.0019640562813626186,0.0021495993500669115,-0.0034681663263006926,0.004953172670307843,0.9943940378813835
2014-02-18,1,0.0023444533052048877,0.002556590745788625,-0.003902007770689791,0.003922172415446776,0.9941772328234046
2014-02-20,1,0.002848016140027355,0.003126065085422893,-0.004883435038411524,0.002297976629983665,0.9934237098267389
2014-02-24,1,0.0026736752203694275,0.002907987390464535,-0.006431632193784008,0.0024206122266696656,0.99285820700056
2014-02-26,1,0.0016073366452199044,0.0016840023627207438,-0.0044850802754589116,0.0024206122266696656,0.994105882970741
2014-02-28,1,0.0014590134539577374,0.0015037013485319653,-0.0044850802754589116,0.004087860433338087,0.9939899465198733
2014-03-04,1,0.0017675695810711665,0.0018540955312336335,-0.0044850802754589116,0.004087860433338087,0.9940617617351207
2014-03-06,1,0.0016242276444650553,0.0017241742173271881,-0.0038725560693387024,0.004087860433338087,0.994027146144668
2014-03-10,1,0.0012346459839519914,0.001272069795664165,-0.0036625238278903995,0.004087860433338087,0.9944837029663863
2014-03-12,1,0.001584459600621097,0.0016883189635437247,-0.008375849378357789,0.0024206122266696656,0.9924657677907179
2014-03-14,1,0.001742566332448316,0.0018950089854186825,-0.008375849378357789,0.001281766501569685,0.9923911532400738
2014-03-18,1,0.0018330043383684728,0.002015367726341617,-0.005502900761583147,0.0023974528836241244,0.9927697085697611
2014-03-20,1,0.0010390770749666145,0.0010994785648073342,-0.0036572542796506277,0.0038565588521878263,0.9936401486487115
2014-03-24,1,0.0013481350960938502,0.0015286169605139642,-0.0036572542796506277,0.0020034333943612296,0.9938334263836861
2014-03-26,1,0.0010294484074844367,0.0011625122718898432,-0.004087332469203477,0.0038149567901733603,0.9922008613465285
2014-03-28,1,0.0010391287998309617,0.001156054260260539,-0.004087332469203477,0.003607930114949638,0.9922483846433924
2014-04-01,1,0.0013312633902641787,0.0014910880494084853,-0.004087332469203477,0.0019303261206268948,0.9926508981283609
2014-04-03,1,0.00028971475007433137,0.00032434374692606445,-0.002963938379772742,0.003607930114949638,0.992934807292541
2014-04-07,1,0.00029199214020850304,0.0003260729872593021,-0.003818803657695374,0.0038149567901733603,0.9917504985007299
2014-04-09,-1,-0.0010546758841587943,-0.0008822113044904629,-0.002963938379772742,0.004808437892423263,0.992957643717697
2014-04-11,-1,-0.0011149671939086549,-0.000949072910253091,-0.002210784533198225,0.004808437892423263,0.992927903960251
2014-04-15,-1,-0.0011573999196050166,-0.000947343396250036,-0.0032563235904709996,0.004545098029645232,0.9928826005762563
2014-04-17,-1,-0.00093962915129542,-0.0007426153478039641,-0.0032563235904709996,0.004001969358774418,0.993143652385078
2014-04-22,-1,-0.0012431473795770829,-0.0010136988459326897,-0.0023074618094388686,0.0051245784544173304,0.9927699355280013
2014-04-24,-1,-0.00224823167310429,-0.0019319845461786985,-0.0023074618094388686,0.0051245784544173304,0.994479946308181
2014-04-28,-1,-0.0023796317610607536,-0.002026450127900914,-0.0026326588910873475,0.0051245784544173304,0.9946490835243316
2014-04-30,-1,-0.002379738019133302,-0.002030741232737703,-0.00346865032961132,0.0051245784544173304,0.9945403905461525
2014-05-02,-1,-0.0020487529120644726,-0.0017447106674142823,-0.00346865032961132,0.004317724187019456,0.9948228508715686
2014-05-06,-1,-0.0027821110609319525,-0.0023624397017095143,-0.00346865032961132,0.004317724187019456,0.9949544428026009
2014-05-08,-1,-0.002889886956276828,-0.0024451789489667356,-0.00346865032961132,0.004317724187019456,0.9949592644126517
2014-05-12,-1,-0.002948235114556303,-0.0024930165642496186,-0.0037552087607332805,0.004317724187019456,0.9949283683277238
2014-05-14,-1,-0.002784335094760103,-0.002367524924122342,-0.00346865032961132,0.0033753924068164196,0.9954866641769209
2014-05-16,-1,-0.0024500616689443057,-0.0020813962899518335,-0.00346865032961132,0.0042068061105998466,0.9952731604280927
2014-05-20,-1,-0.00221226047121498,-0.0018649607595630476,-0.00346865032961132,0.0042068061105998466,0.9951350396426437
2014-05-22,-1,-0.0022035317047434705,-0.0018620846082015412,-0.0030046653910281193,0.004406613287151761,0.9948311899022245
2014-05-27,-1,-0.002092648450480727,-0.0017815662876545428,-0.0038575157373736896,0.004406613287151761,0.9941658857842389
2014-05-29,-1,-0.002483815905749148,-0.0021011118382069753,-0.00680140006108294,0.004406613287151761,0.9939353792584186
2014-06-02,-1,-0.0021496174719082602,-0.001828425859442294,-0.00680140006108294,0.004716540439991286,0.993669772083734
2014-06-04,-1,-0.0018643737235116396,-0.001587388060491395,-0.005163728245862681,0.004310115161546355,0.9945403193813951
2014-06-06,-1,-0.0015738852823157117,-0.0013345448399727775,-0.005163728245862681,0.003982404363414686,0.9951581830323571
2014-06-10,-1,-0.0018896841509959048,-0.0016203948787781423,-0.00342495396301782,0.003982404363414686,0.995240995236563
2014-06-12,-1,-0.0018120175320494843,-0.0015595210175577776,-0.0039749384713941285,0.003982404363414686,0.9951194217036501
2014-06-16,-1,-0.001132878744836992,-0.0009817348622720508,-0.005163728245862681,0.0031502691372023725,0.9950407761264596
2014-06-18,-1,-0.0010397749956581066,-0.0008693046140138521,-0.00680140006108294,0.0017899430074594445,0.9945228183904932
2014-06-20,-1,-0.0005821216534523763,-0.00047673726822044225,-0.00680140006108294,0.0013710934357822036,0.9936508995782375
2014-06-24,-1,-0.0014053619657171384,-0.0012101180798112364,-0.005061558240309164,0.0020135167356764875,0.994452101705937
2014-06-26,-1,-0.002267786443220952,-0.001947411971392924,-0.0039749384713941285,0.00215966244289499,0.994036524489
2014-06-30,-1,-0.0012498544294812616,-0.0011028312876033423,-0.005928710419130375,0.0017899430074594445,0.9939930607625058
2014-07-02,-1,-0.0015412641972171656,-0.0013551353711402602,-0.008220640449269762,0.0017899430074594445,0.992687114144734
2014-07-07,-1,-0.0006526806298884035,-0.0006358496351224474,-0.008220640449269762,0.00215966244289499,0.9917624630397889
2014-07-09,-1,-0.000574114861352758,-0.0005728238165106109,-0.010095489385439322,0.0027471647506276233,0.9907660103840364
2014-07-11,-1,-0.00020416314347359871,-0.00011282841767359421,-0.010095489385439322,0.004003614748432045,0.990396127263989
2014-07-15,-1,-0.0004314293126457267,-0.00032934560163893007,-0.008190030780988252,0.004003614748432045,0.9912262841274538
2014-07-17,-1,-0.0011367247999753954,-0.0011145609060568427,-0.006446409101893785,0.00635940472452929,0.9912790655310314
2014-07-21,-1,-0.0009988648154534401,-0.000996914831312666,-0.008110990035120497,0.005121740411259342,0.991939672423224
2014-07-23,-1,-0.0005649300274992227,-0.0005009720766580475,-0.008110990035120497,0.004301665705444467,0.9922209401222173
2014-07-25,-1,-0.0007448010399675228,-0.0006704907831249767,-0.006301601097031913,0.004301665705444467,0.9930753288268395
2014-07-29,-1,-0.001275644773586136,-0.0012652094518499917,-0.0015372531061696732,0.004301665705444467,0.9933385047088148
2014-07-31,-1,-0.0026144061143004017,-0.002442295614646987,-0.0007882054940443557,0.005316275170184932,0.9936519414102826
2014-08-04,-1,-0.0016956038016870156,-0.0016467789070065757,-0.0015372531061696732,0.004301665705444467,0.9945691448588891
2014-08-06,-1,-0.0012768204513641398,-0.0012638337608943436,-0.0033092028199426305,0.003389500327756121,0.995007950166142
2014-08-08,-1,-0.0008368326019719696,-0.000760137215494809,-0.002284029996303242,0.004301665705444467,0.9945114242502084
2014-08-12,-1,-0.0009473051251263233,-0.0009165811637016031,-0.005576127327493575,0.005316275170184932,0.9933810014605327
2014-08-14,-1,-0.00027572911262316026,-0.00016841346184594654,-0.005576127327493575,0.004535639763976814,0.9941045655524942
2014-08-18,-1,-0.0005777732913900126,-0.000520984483545749,-0.002284029996303242,0.006065934708343655,0.9938067114185581
2014-08-20,-1,-0.0002162532078059141,-9.841511006710698e-05,-0.003222650949719892,0.006065934708343655,0.9938187314286631
2014-08-22,1,8.32282989702449e-05,0.0002670567800995558,-0.005542542138935669,0.006065934708343655,0.993513698474755
2014-08-26,0,-5.8529864575806545e-05,8.560579418265236e-05,-0.005576127327493575,0.00696884291332981,0.9921652299534152
2014-08-28,1,0.00010650164858750326,0.0002795472189987047,-0.006449972101021093,0.00696884291332981,0.9919325931343033
2014-09-02,-1,-0.0006672193626620537,-0.0006587422471938359,-0.006363199238162711,0.010273525193499743,0.9910399048417582
2014-09-04,-1,-0.0015825940617130272,-0.0014579446681342945,-0.00472437891166909,0.010273525193499743,0.9911994848279791
2014-09-08,-1,-0.00025116839306252856,-0.00018621229876756944,-0.00472437891166909,0.007117178364682324,0.9924167124199769
2014-09-10,1,1.2491414802232872e-05,0.00014072796455507155,-0.00472437891166909,0.007117178364682324,0.9923662254586056
2014-09-12,1,0.00027849923445651896,0.0004264060766008495,-0.0059351751845476836,0.00573993662869015,0.9922780015891165
2014-09-16,1,0.00012988624877988134,0.00017735972958941878,-0.0076970164924975975,0.004264276686371584,0.9923184268634603
2014-09-18,1,0.00028450313366714904,0.00036063626239567,-0.009450579226141127,0.003316779077621601,0.991764540021377
2014-09-22,0,-2.0246696519927044e-05,1.25581331193463e-05,-0.009450579226141127,0.009905946117416017,0.9911666605170587
2014-09-24,1,0.0004713248075546709,0.0005866739767354959,-0.007719726767022525,0.009905946117416017,0.9919118239115656
2014-09-26,0,-1.7206165569930376e-05,1.614935819235224e-05,-0.005119342407750327,0.009905946117416017,0.9924678343812325
2014-09-30,1,0.0008470407025628866,0.0009993485597795046,-0.005119342407750327,0.007342265558304129,0.9927816519125464
2014-10-02,1,0.00029940223270758843,0.0003779803420286619,-0.0044873417059585,0.007677055852431735,0.9925257793097215
2014-10-06,1,0.0001504477766390568,0.00020684217547628245,-0.0044873417059585,0.008584970231802444,0.9919990055736793
2014-10-08,1,0.0004984445308907642,0.0006136941580546375,-0.0044873417059585,0.007677055852431735,0.9926097726004425
2014-10-10,1,0.00037159329502649486,0.00048805880207260086,-0.003714347057223861,0.008584970231802444,0.9922468940334856
2014-10-14,1,0.0001988407659706072,0.00029251258159924157,-0.0017566606091341998,0.008584970231802444,0.9927926100283546
2014-10-16,-1,-0.0003372693406203292,-0.00031761632082629923,-0.0008417072574463272,0.008584970231802444,0.9933102884214231
2014-10-20,1,0.00042746641837495495,0.000545988185580105,-0.0017566606091341998,0.007342265558304129,0.9941499134955226
2014-10-22,1,0.0008152103807338926,0.0009887949639289903,-0.003714347057223861,0.0068157316240580555,0.994423392228222
2014-10-24,1,0.0008900754924575756,0.0010827313007985438,-0.004238558859057313,0.007342265558304129,0.9938628788838318
2014-10-28,1,0.0015089350085711304,0.00179772726769611,-0.004238558859057313,0.004949938719052793,0.9943426745155138
2014-10-30,1,0.0011275690335292034,0.0013463442256973586,-0.0024806113610436405,0.007620442442568694,0.993890538950884
2014-11-03,1,0.0016382589967386975,0.0019229117890061371,-0.0024806113610436405,0.004929520278335303,0.9944061974760475
2014-11-05,1,0.0015948726594807064,0.0018975243297958085,-0.0030342265300708953,0.004929520278335303,0.9945428173515766
2014-11-07,1,0.002116336109326762,0.0025122826522416715,-0.0021493245117829916,0.0031089555161602604,0.9950774881324627
2014-11-11,1,0.0023053559877540195,0.0027446013701424308,-0.004399297860859551,0.0031089555161602604,0.9944707817792775
2014-11-13,1,0.001973532475391089,0.0023249691070452343,-0.0050957020713513785,0.004929520278335303,0.993691446103432
2014-11-17,1,0.0017404640324924212,0.002032875244959338,-0.0050957020713513785,0.0031089555161602604,0.9938546111843445
2014-11-19,1,0.0016860797878731665,0.00198851516676663,-0.004625025729540202,0.010231604071737963,0.991688359460977
2014-11-21,1,0.0017324150498506078,0.0020315319723919227,-0.003087806197338308,0.011197352407930995,0.9917548709925897
2014-11-25,1,0.0019362991808671043,0.00226231894318019,-0.0035924887145720825,0.014648531579593272,0.990933408738058
2014-11-28,1,0.0030013103322914726,0.0034634472229102147,-0.0035924887145720825,0.004557001439109141,0.9917422887150666
2014-12-02,1,0.002982621716500812,0.003436556971530504,-0.00582666097275167,0.0038911631427725243,0.9905479440431725
2014-12-04,1,0.002289646122230574,0.0026123184104648567,-0.0060469094612456056,0.0038911631427725243,0.9908360042414234
2014-12-08,1,0.0017934850229336424,0.0019949915068058865,-0.0060469094612456056,0.011197352407930995,0.9904241909883542
2014-12-10,1,0.0016234339516224797,0.001824152289402354,-0.006066418499247091,0.014648531579593272,0.989867103346406
2014-12-12,1,0.0016775930195201921,0.0018987153013336222,-0.006066418499247091,0.014648531579593272,0.9898556647682373
2014-12-16,1,0.0011313473564792704,0.0012462854771242734,-0.0041073156329685355,0.014648531579593272,0.9896204155794606
2014-12-18,1,0.002752162624815758,0.0030498642157544675,-0.0041073156329685355,0.01368090756010815,0.9911970411973612
2014-12-22,1,0.002355032601683772,0.002524455731285512,-0.0041073156329685355,0.012184866494913744,0.9916648641058086
2014-12-24,1,0.002712883606256921,0.0029560735755458215,-0.006485989370615275,0.00784274012107024,0.9913130699129401
2014-12-29,1,0.002546841085859089,0.0027716754826318363,-0.007051984334524689,0.00784274012107024,0.9905604482256128
2014-12-31,1,0.0016913859795422502,0.0018175357725441648,-0.007621037250562875,0.00784274012107024,0.9891954150072723
2015-01-05,1,0.0013439090904215478,0.0014198307552084593,-0.007621037250562875,0.012184866494913744,0.988738399132769
2015-01-07,1,0.00214299909203575,0.002355488190436747,-0.007621037250562875,0.010103658478793971,0.9892806867698415
2015-01-09,1,0.0022221897222236375,0.0024251438935962233,-0.006424486656777132,0.0072901802969815195,0.9899411306713618
2015-01-13,1,0.002216507154298492,0.0024221045254400365,-0.003358702151978735,0.007117747063077705,0.9906308933766648
2015-01-15,1,0.002558067508596882,0.002803919312454109,-0.00562217381894643,0.006246854349078378,0.9906876538690648
2015-01-20,1,0.002886214764909278,0.003167365013893764,-0.00562217381894643,0.006246854349078378,0.9912262336360556
2015-01-22,1,0.002836137988385494,0.0031045339415288215,-0.006837871442459871,0.007117747063077705,0.9905126997943372
2015-01-26,1,0.0022266251653411256,0.0024056765622291476,-0.006837871442459871,0.006828060567749141,0.9909179465205202
2015-01-28,1,0.0013039446939942239,0.001318353389604929,-0.0073696834448002905,0.006828060567749141,0.9907914403335396
2015-01-30,0,-1.1875361415720977e-06,0.0001055367839468086,-0.006177711292504925,0.006828060567749141,0.9929127671224294
2015-02-03,1,0.0006094740454644133,0.0006513400188097307,-0.0073696834448002905,0.0032080417364515968,0.993406461988361
2015-02-05,1,0.0009579916765168289,0.0009697249477292688,-0.00949922516894349,0.0032080417364515968,0.9920544915665872
2015-02-09,1,0.0008396852745997379,0.0008546179862976189,-0.010157810044954913,0.003863310625600395,0.9916641336538687
2015-02-11,1,0.0010824301249121155,0.0011288331641183258,-0.010157810044954913,0.0049840176822429074,0.9911659425738775
2015-02-13,1,0.0007863846522578237,0.000796971613897748,-0.010157810044954913,0.006586754032625993,0.9908978534178603
2015-02-18,1,0.0010590450687220161,0.0010952251587843394,-0.010157810044954913,0.006586754032625993,0.9904929195908563
2015-02-20,1,0.0008450485681151551,0.0008572228370620364,-0.010157810044954913,0.006586754032625993,0.9905583099698335
2015-02-24,1,0.0007072398498486971,0.0007121215653711172,-0.010157810044954913,0.006586754032625993,0.9905570399438102
2015-02-26,-1,-0.00029423051655417653,-0.00015549394927454318,-0.008361088496804506,0.008510272779340786,0.9909156742982684
2015-03-02,-1,-0.0007656275885901584,-0.0005616818456539285,-0.007325964505597134,0.008986938004538014,0.9908410030934801
2015-03-04,-1,-0.0011002939205945951,-0.0008622264168605396,-0.007325964505597134,0.008986938004538014,0.9905832770013111
2015-03-06,-1,-0.001932607308098302,-0.0015808045078727975,-0.006804512007969806,0.008986938004538014,0.9917823380906509
2015-03-10,-1,-0.002498470294721231,-0.002067867320304345,-0.006804512007969806,0.008986938004538014,0.9919416606685248
2015-03-12,-1,-0.002287968682827093,-0.0018498391790455488,-0.006804512007969806,0.007761121885011528,0.9928274426775767
2015-03-16,-1,-0.0018478203945738977,-0.0014944671159377808,-0.006510949634607088,0.007761121885011528,0.9925861517308147
2015-03-18,-1,-0.0016608837490931826,-0.0013417036277543204,-0.006333798067918539,0.007495686489748469,0.9929357049136073
2015-03-20,-1,-0.001414924769125389,-0.001122801986131006,-0.007849994944525384,0.0058359238115704495,0.9925145869406082
2015-03-24,-1,-0.0017183739520927786,-0.001408811278584117,-0.006510949634607088,0.0058359238115704495,0.9928459731444563
2015-03-26,-1,-0.0017001854656747474,-0.0013860097491519537,-0.007673951867458885,0.0036969652248963246,0.9920034911557871
2015-03-30,-1,-0.0010443226235974249,-0.0008277982329664546,-0.010126292699006407,0.0019336121521784555,0.992109924640121
2015-04-01,-1,-0.0017686123565329949,-0.001451009685679703,-0.010126292699006407,0.0025640514572397234,0.9917183318707616
2015-04-06,-1,-0.0014781561736704597,-0.0012052875489855005,-0.010126292699006407,0.003876862419552635,0.9907072263661001
2015-04-08,-1,-0.001825822627541115,-0.001511452734322748,-0.0072697155527674286,0.003981140306873373,0.991133092843016
2015-04-10,-1,-0.0019879225818745794,-0.0016561210208983909,-0.007151245011767713,0.003981140306873373,0.9912778222694427
2015-04-14,-1,-0.0017212980926015098,-0.001420294934578287,-0.006480721553561152,0.0036473739141242006,0.9918121648089764
2015-04-16,-1,-0.0017717510000493303,-0.0014525316613996097,-0.006480721553561152,0.0036473739141242006,0.9913028285230073
2015-04-20,-1,-0.0027925804007809816,-0.002357496975662674,-0.004151252144227997,0.0036473739141242006,0.9921043376273107
2015-04-22,-1,-0.0026494513418536154,-0.0022406191971424735,-0.004151252144227997,0.0036473739141242006,0.9922703386740027
2015-04-24,-1,-0.0031261095541633074,-0.002716231086609326,-0.005458879563195396,0.0036473739141242006,0.9932303266924498
2015-04-28,-1,-0.0034631928349601548,-0.003018579381346306,-0.005458879563195396,0.004776718175344098,0.9929883431472125
2015-04-30,-1,-0.004010006299380669,-0.0034913067729109718,-0.005458879563195396,0.0036473739141242006,0.9939610672279889
2015-05-04,-1,-0.0031589302245821566,-0.0027413069680201933,-0.005458879563195396,0.0010075015543535046,0.9955919869053996
2015-05-06,-1,-0.003347037029343568,-0.002892549788271479,-0.005642670829632622,0.0006535852053306224,0.9955508628180194
2015-05-08,-1,-0.0032396839212363196,-0.002798103184459557,-0.005642670829632622,7.729986813971741e-05,0.9953978119389072
2015-05-12,-1,-0.0033396891876176166,-0.0028785168213415493,-0.005642670829632622,3.1059448784157055e-05,0.9956063657020444
2015-05-14,-1,-0.0014772235462119515,-0.001323223835234729,-0.005642670829632622,3.1059448784157055e-05,0.9962132474605621
2015-05-18,-1,-0.0014528351797476462,-0.001320801708637269,-0.005503899814020991,3.1059448784157055e-05,0.9959292038900621
2015-05-20,-1,-0.0012189663657585952,-0.0011352529429361597,-0.005503899814020991,0.0011006859666820995,0.9956153868850124
2015-05-22,-1,-0.0015253229880659793,-0.001407012787230937,-0.004881981460180356,0.002455871889562368,0.9945418116536369
2015-05-27,-1,-0.0018088129704843178,-0.001629328026261939,-0.004881981460180356,0.0008909612714793264,0.9947067221042099
2015-05-29,-1,-0.0020695029919440893,-0.0018498708049948008,-0.004459202623777212,0.002455871889562368,0.994388173344699
2015-06-02,-1,-0.0016573712221438321,-0.0015155098419485668,-0.004881981460180356,0.003318135058772425,0.9934747219212553
2015-06-04,-1,-0.0017062060329120343,-0.0015784005637290064,-0.00432543806644518,0.005945499503583706,0.9931529609982146
2015-06-08,-1,-0.0014639666962649863,-0.001372636829847288,-0.004594880378778893,0.005983037570217211,0.9918261951575384
2015-06-10,-1,-0.0011775440195317495,-0.0011452389382497613,-0.005036691453964699,0.005983037570217211,0.9913585885505339
2015-06-12,-1,-0.0007661151210012212,-0.000720892313944354,-0.005036691453964699,0.007944547186126433,0.9909198650511034
2015-06-16,-1,-0.00031256903604249235,-0.00019434281551207287,-0.007449223082312167,0.005983037570217211,0.9912142748359877
2015-06-18,-1,-0.0003254085012047527,-0.00021924204474644957,-0.008279137380325288,0.00719895480232,0.9907414429056836
2015-06-22,-1,-0.0010923547768717833,-0.0010693200603091564,-0.007449223082312167,0.00719895480232,0.9921265145202363
2015-06-24,-1,-0.0023702268952882563,-0.0021485949776683063,-0.006816198798729668,0.00719895480232,0.9920873301012827
2015-06-26,-1,-0.001652028968060837,-0.0015507039652393603,-0.006816198798729668,0.005764878879568979,0.9922203259699743
2015-06-30,-1,-0.001222582989063683,-0.0011910673316022343,-0.005392919283664548,0.005764878879568979,0.9919853483348666
2015-07-02,-1,-0.0008382348633132953,-0.0008297934560225214,-0.005392919283664548,0.005212066045364596,0.9925081753023759
2015-07-07,-1,-0.00018560467654553029,-6.710608935018588e-05,-0.004863797635273854,0.004954275324126961,0.9942857279353999
2015-07-09,-1,-0.00021610129560505704,-9.969526951465865e-05,-0.004863797635273854,0.004361486206814069,0.9947149047834446
2015-07-13,1,0.00038174112020241454,0.0005913841584636012,-0.004964263223703835,0.004361486206814069,0.9930106739965816
2015-07-15,1,0.00040951800775334017,0.0006331687628807282,-0.004863797635273854,0.005212066045364596,0.9929342263749891
2015-07-17,1,0.00028609476867326477,0.000478434676598783,-0.004863797635273854,0.005212066045364596,0.9922838404044774
2015-07-21,0,-0.00011128003323967762,1.565175388162194e-06,-0.004230089448136035,0.009129551675368093,0.9915425069530932
2015-07-23,-1,-0.00016141104005415485,-6.622009546332764e-05,-0.004964263223703835,0.009129551675368093,0.9909959716946444
2015-07-27,-1,-0.00023672196557745218,-0.0001541930665003185,-0.007629839531285987,0.009129551675368093,0.9887231773995713
2015-07-29,1,0.00012137824683582969,0.00021037336405880396,-0.014790287934437082,0.009129551675368093,0.9871805596507154
2015-07-31,1,0.00013088650478387814,0.00020853527852874606,-0.014790287934437082,0.009838753057748454,0.986208775775477
2015-08-04,1,0.00044808199916529013,0.0006030726027476865,-0.016445884256013146,0.009838753057748454,0.9847733448232681
2015-08-06,1,0.0003649189784035983,0.0005119615805949569,-0.016445884256013146,0.01360228478956176,0.9834577675715742
2015-08-10,1,0.00037141974440330544,0.00052298149931259,-0.014790287934437082,0.01360228478956176,0.9843095771625235
2015-08-12,1,0.0007308392276247027,0.0009550653833927759,-0.01631804417504268,0.01360228478956176,0.9838510414834686
2015-08-14,1,0.000363653214858093,0.0005199266777266294,-0.014790287934437082,0.01360228478956176,0.9844630139067861
2015-08-18,1,0.0010857886190069892,0.001347834261180703,-0.014790287934437082,0.017833733760253257,0.9836631562149826
2015-08-20,1,0.0008408977226310688,0.001096336260933568,-0.012014724709915395,0.017833733760253257,0.983982895786019
2015-08-24,-1,-0.0007288442348992747,-0.000704867637924336,-0.009465955672617647,0.017833733760253257,0.9859550258968154
2015-08-26,0,-1.1756553321280586e-05,0.00011960013864118103,-0.007904919139706857,0.008827110890023799,0.9883461865479599
2015-08-28,1,0.0005205136521068731,0.0007108747086460595,-0.009465955672617647,0.005602682448935482,0.9886634814373274
2015-09-01,-1,-0.0003269459554414789,-0.00024971094993545223,-0.006572595128252234,0.007445984608592595,0.989325013584289
2015-09-03,1,0.0007855240438702299,0.0010250130526379124,-0.006572595128252234,0.005602682448935482,0.9901075191487103
2015-09-08,1,0.0015449109406418776,0.0019047750719246549,-0.009465955672617647,0.005602682448935482,0.9906115189461514
2015-09-10,1,0.000752098316375622,0.0009575025674661035,-0.006390890231996306,0.012248277433239672,0.9900939518538638
2015-09-14,1,0.0006924668874488112,0.0008955895262105403,-0.004900359350826171,0.012248277433239672,0.9903960609358592
2015-09-16,1,0.0012820253860752065,0.001504346446331871,-0.009635606936781933,0.007001382417264063,0.9908118026456972
2015-09-18,1,0.000687192050977771,0.0008074914757977492,-0.007023239507370089,0.007394542879386144,0.9910015242469348
2015-09-22,1,0.0002158504248176083,0.00024714582512238594,-0.006869737012254094,0.007394542879386144,0.9909703913185032
2015-09-24,1,0.0007005129923491956,0.000837967988972231,-0.006869737012254094,0.012248277433239672,0.9901942452819279
2015-09-28,1,0.000473233386349866,0.0005809243841323492,-0.005995409510753029,0.012248277433239672,0.9905357475441495
2015-09-30,1,0.0007252768443905765,0.0008723183374760163,-0.008295662277936105,0.007482427836773586,0.9878588716468668
2015-10-02,1,0.001388643842687072,0.001619727232089607,-0.008295662277936105,0.006394339474084312,0.9884247674248774
2015-10-06,1,0.0016209160312738655,0.0019131374432353352,-0.007623739657245917,0.0054127658851087015,0.9891639130343345
2015-10-08,1,0.002287605240554852,0.00265302315968478,-0.007623739657245917,0.0019926268617031467,0.9897435307889624
2015-10-12,1,0.002267426422227131,0.002626459518869936,-0.011206627712071971,0.00028421576614916715,0.9885180675719787
2015-10-14,1,0.0012428828927606517,0.0014389505154203462,-0.007623739657245917,0.004871420276574631,0.989961344526518
2015-10-16,1,0.0015089254020769368,0.001738624306904292,-0.011206627712071971,0.00028421576614916715,0.9884530387393223
2015-10-20,1,0.0010933636825159712,0.0012565221056736894,-0.012533348478358132,0.0028498285814423686,0.9881392063413744
2015-10-22,1,0.0015326860535462652,0.0017470433579238765,-0.012533348478358132,0.0028498285814423686,0.9878428782135613
2015-10-26,1,0.0010076302859225738,0.0011277840794024347,-0.012533348478358132,0.008031438562645826,0.9877892967094399
2015-10-28,-1,-0.0010776742931188665,-0.0009445828231072623,-0.009190859850001403,0.00842152929842574,0.9908815612575004
2015-10-30,-1,-0.0009947474537984919,-0.0008642471949931508,-0.009190859850001403,0.008293389006426666,0.9909896135760902
2015-11-03,-1,-0.0012141315028377994,-0.0010574813462807982,-0.00901342820179137,0.008293389006426666,0.9909461681766856
2015-11-05,-1,-0.0010913911628397653,-0.0009675283314988542,-0.00901342820179137,0.009444925728275676,0.9896149104428406
2015-11-09,-1,-0.0019453165557358912,-0.001726183658493054,-0.007703938616474474,0.009444925728275676,0.9900726380357376
2015-11-11,-1,-0.00203343090423793,-0.0017545558567491136,-0.007946891600857528,0.008736325295077925,0.9903395834273198
2015-11-13,-1,-0.0032851227462836,-0.002843411734214453,-0.006314156216191761,0.010421804879124552,0.9895839482721829
2015-11-17,-1,-0.003353740854321565,-0.0029093206870075463,-0.005964225586413313,0.010750944245441884,0.9893569426850575
2015-11-19,-1,-0.002706451841080938,-0.0023426832234469067,-0.007703938616474474,0.008736325295077925,0.9894593778739207
2015-11-23,-1,-0.0021470465918069985,-0.0018722997951969998,-0.007703938616474474,0.007770413547473614,0.9896309349987256
2015-11-25,-1,-0.001330979240210244,-0.00117557107674463,-0.007703938616474474,0.00745071716738824,0.9901163608778576
2015-11-30,-1,-0.0016435837343338074,-0.0014442414976923701,-0.006578438750997481,0.00745071716738824,0.9900062288078051
2015-12-02,-1,-0.0017384547554923323,-0.001553888676529188,-0.006578438750997481,0.00745071716738824,0.989671692322222
2015-12-04,-1,-0.0012326546733950785,-0.0011013272993677567,-0.007649227225317654,0.006948279580859451,0.9905227566855926
2015-12-08,-1,-0.0006860253777847525,-0.0006170507177379325,-0.012490333279480393,0.006257330876230491,0.9902576416307314
2015-12-10,-1,-0.0012510411563520943,-0.0011029225196906686,-0.009803973384162345,0.006257330876230491,0.9903177893567741
2015-12-14,1,1.2606823872994286e-05,1.3740661421700766e-05,-0.012518166014474566,0.005090714412874944,0.9907260265019809
2015-12-16,1,0.0005214260913698069,0.0005876153202243378,-0.01442386587312686,0.005090714412874944,0.9907998582842902
2015-12-18,0,-2.7084743109643454e-05,3.263702435379813e-06,-0.010410754861023396,0.006257330876230491,0.9913498394123335
2015-12-22,1,0.0003854578682896233,0.0004789006371750281,-0.010410754861023396,0.006595009442035558,0.991341848644699
2015-12-24,1,0.0005755284548762448,0.0006927277065108539,-0.01442386587312686,0.006637738268759195,0.9900592534842114
2015-12-29,1,0.0006923062451200564,0.000813488193250587,-0.01442386587312686,0.007481956059694356,0.9884583211327586
2015-12-31,1,8.415439333268772e-05,0.00011875118492255645,-0.010410754861023396,0.011891821146462575,0.9881781418926373
2016-01-05,-1,-0.00035267679067819805,-0.0003408444057865051,-0.008308905532348077,0.011891821146462575,0.9885410187641598
2016-01-07,-1,-0.0012526083145954915,-0.0011214603160245057,-0.008308905532348077,0.011891821146462575,0.9892056169843587
2016-01-11,-1,-0.0013020189206206505,-0.0012038167389904592,-0.007741091191197259,0.013115673739229453,0.988505366364528
2016-01-13,-1,-0.0018531641961942596,-0.001661265602128063,-0.007741091191197259,0.013115673739229453,0.9890868188054257
2016-01-15,-1,-0.003114963515479203,-0.002685464184770888,-0.004822027744446323,0.013802091538281817,0.9888386296676914
2016-01-20,-1,-0.0019743973529667246,-0.0017123039637720401,-0.007741091191197259,0.013541274251126282,0.9890688648832126
2016-01-22,-1,-0.0013781758283746696,-0.0012239654380053837,-0.007741091191197259,0.013541274251126282,0.9889705639859173
2016-01-26,-1,-0.0021537395300608064,-0.0018523429902539482,-0.007512522732185469,0.012943241242829858,0.9898936703435405
2016-01-28,-1,-0.0005867336748444574,-0.000529741943589197,-0.007613727793976793,0.012943241242829858,0.9904117688272979
2016-02-01,1,0.0006993794039748444,0.0008462547556396965,-0.007613727793976793,0.009007690594149062,0.9911106681213949
2016-02-03,1,0.00023586735892745965,0.0002916425781948521,-0.005519936707806006,0.010957491120997658,0.9907619570964769
2016-02-05,-1,-0.0002283298361876438,-0.0002150382741609663,-0.005519936707806006,0.010957491120997658,0.9908060541211525
2016-02-09,1,0.001197653916063792,0.001445361137523249,-0.005519936707806006,0.009007690594149062,0.9919803016130799
2016-02-11,1,0.0005431611832721436,0.0006800550654688665,-0.005326835619983653,0.009007690594149062,0.9918992208090314
2016-02-16,1,0.0011082210928527107,0.0013055768882864185,-0.005326835619983653,0.008393831308237629,0.9926529287046791
2016-02-18,1,0.0012180845543933695,0.0014379383859952149,-0.004462833842095096,0.006569181137975139,0.9937321546530896
2016-02-22,1,0.001040776694329545,0.0012210659489083307,-0.004462833842095096,0.006412305233517029,0.993306241647776
2016-02-24,1,0.0012648753021094286,0.0014875330931313178,-0.004919776607152513,0.005913615336004592,0.9928404587425887
2016-02-26,1,0.0016311181688894066,0.00194873343640708,-0.004317347062267871,0.004787041042149942,0.9942350657977814
2016-03-01,1,0.002078374132236206,0.002455121394823859,-0.004317347062267871,0.004787041042149942,0.993866569713873
2016-03-03,1,0.003082552785180077,0.003648407541062822,-0.004317347062267871,0.003521302381283085,0.9932958730745914
2016-03-07,1,0.0028609750708577103,0.0034023132734024176,-0.004919776607152513,0.003521302381283085,0.9926333783045651
2016-03-09,1,0.002469476830603977,0.0029063602118829714,-0.007254903960141801,0.003504979757323404,0.9925879781228938
2016-03-11,1,0.002711072610583001,0.0032002738584228983,-0.005467216209921566,0.003504979757323404,0.9926895761356476
2016-03-15,1,0.0024900397226901376,0.0029297380940977525,-0.003947147991346115,0.005743598233893918,0.9928623070984194
2016-03-17,1,0.002832119257971372,0.003351950641934628,-0.003947147991346115,0.006016255829824592,0.9923594469555257
2016-03-21,1,0.0021046368081138675,0.0025103957436242623,-0.0008974296014207621,0.006016255829824592,0.9933185501441749
2016-03-23,1,0.0006430580660039453,0.0007207899384823906,-0.003947147991346115,0.005743598233893918,0.991419032931847
2016-03-28,1,0.0008556117217222082,0.0009707659359617777,-0.003947147991346115,0.008487479856904567,0.9908352655037188
2016-03-30,1,0.0011390637170115847,0.0012769084271770847,-0.009830113104052664,0.008487479856904567,0.9900800829283651
2016-04-01,1,0.0016310679205746776,0.0018244380337779525,-0.009830113104052664,0.008605863095872465,0.989948234648028
2016-04-05,1,0.0002812333623244818,0.00031877905422522364,-0.003947147991346115,0.008605863095872465,0.9901668051246391
2016-04-07,1,0.00043341761475869167,0.0004400460862926865,-0.0038919367407259306,0.008605863095872465,0.9903587900628146
2016-04-11,0,-8.205183685560644e-05,2.5736969715865765e-05,-0.004305115539332251,0.008784252744177008,0.9902295635226765
2016-04-13,0,-5.3281621462119254e-05,5.8356564664110305e-05,-0.00810928454013586,0.008784252744177008,0.9896980729343845
2016-04-15,1,0.0007056955247681915,0.0007100336120693981,-0.00810928454013586,0.008784252744177008,0.9895959924693375
2016-04-19,1,0.0010400698070215158,0.0010967091822070099,-0.009351093322568364,0.008784252744177008,0.9889187165857416
2016-04-21,-1,-0.00038321675883767865,-0.00028773770876451234,-0.008075413198308474,0.008784252744177008,0.9905547050670654
2016-04-25,1,1.7145536766344195e-05,7.874886859171088e-05,-0.008075413198308474,0.008515244101510853,0.9912847676904688
2016-04-27,-1,-0.0004735180933284245,-0.00033234948333174806,-0.007734893944218001,0.00807283192881853,0.992534230804142
2016-04-29,1,0.000558192989511285,0.0005598403618603594,-0.007734893944218001,0.007582728120201219,0.9930651378779985
2016-05-03,1,0.0006617636643692187,0.0007024432810364717,-0.004298873295414501,0.007582728120201219,0.9937156107670143
2016-05-05,1,4.253641963664965e-05,0.00010094219930552783,-0.0027243701000823697,0.007953284570361228,0.9936447108115168
2016-05-09,1,0.0007762539042603365,0.0008707313815578107,-0.002329640182574922,0.007582728120201219,0.9942137067223861
2016-05-11,1,0.0009276613656718754,0.0010701600236350996,-0.001800840769242721,0.007953284570361228,0.9935153959691589
2016-05-13,1,0.0005188375951853036,0.0005553195063285293,-0.001800840769242721,0.006089952924084019,0.993788219645182
2016-05-17,1,0.0001204465951544876,0.0001217668960888657,-0.001800840769242721,0.007953284570361228,0.9941516718310255
2016-05-19,1,0.00019840487710223002,0.00022126900391991215,-0.0010562857622305082,0.007686421372429475,0.9945207958902503
2016-05-23,1,0.0002973155288184897,0.00034575836658473766,-0.0012046653435084471,0.007953284570361228,0.9940510779004006
2016-05-25,1,0.00022289864700470168,0.0002284535969602379,-0.0022751259577248064,0.007694510958389361,0.9941977644311991
2016-05-27,1,0.00027973623326066056,0.0002983709017167962,-0.002417079516519729,0.007694510958389361,0.9940350857924577
2016-06-01,0,-8.406128488652054e-05,1.479091020540848e-05,-0.0031454378557139815,0.008104439054549637,0.993328148515449
2016-06-03,-1,-0.0004074289822207718,-0.00021654152652836713,-0.005001830103502286,0.008551833012428983,0.9883366450688548
2016-06-07,-1,-0.0008369484866720265,-0.0005783888081758554,-0.007815022880399848,0.008551833012428983,0.9873565484751732
2016-06-09,1,0.0002980569806072255,0.00043908892912474044,-0.007815022880399848,0.007821396684698114,0.9882843559429528
2016-06-13,1,0.000268398466764925,0.00038014895215013995,-0.008338429741027624,0.007821396684698114,0.9878064230818292
2016-06-15,1,0.00035610051132799203,0.000457673698743727,-0.008338429741027624,0.007046897818328139,0.9882124467642213
2016-06-17,1,0.0005836175377505149,0.0006680035077468252,-0.010410311796384632,0.007268131001254066,0.9869070758849692
2016-06-21,1,0.0011132956450901706,0.0011301289222313952,-0.010410311796384632,0.00621395613488566,0.987158442199017
2016-06-23,1,0.0014077234176307469,0.001519217538133732,-0.010410311796384632,0.00621395613488566,0.9871582857492391
2016-06-27,1,0.0012073074198567873,0.0012734545039498938,-0.011462516667005129,0.00621395613488566,0.9868952639078359
2016-06-29,1,0.000811728662714381,0.0008266502542086244,-0.011824065250662898,0.00621395613488566,0.9858820560855394
2016-07-01,1,0.004271400299140786,0.004759324285422893,-0.011462516667005129,0.004729790151708421,0.9901015042924761
2016-07-06,1,0.002962276691929517,0.0032355640868194386,-0.006888265543437043,0.00621395613488566,0.9907772513942932
2016-07-08,1,0.0036861764477984556,0.004096365529475127,-0.006888265543437043,0.005330236718150316,0.9905482765575873
2016-07-12,1,0.002910835448003952,0.003214894837810121,-0.006123503866858353,0.005330236718150316,0.9910806467960804
2016-07-14,1,0.0024952278380917505,0.0027358820548380345,-0.006123503866858353,0.00864166511445955,0.9911991793545434
2016-07-18,1,0.0028433117373030435,0.00313164937243197,-0.005140243291117773,0.005330236718150316,0.992487931900659
2016-07-20,1,0.0025885467575642003,0.0028372605936463893,-0.005140243291117773,0.00864166511445955,0.9919128812592534
2016-07-22,1,0.002995913320381652,0.0033226509282369933,-0.005140243291117773,0.00864166511445955,0.991560862215893
2016-07-26,1,0.0030429450895319106,0.003406742107786068,-0.005140243291117773,0.005748095078541543,0.9920859548325855
2016-07-28,1,0.0033392003846167634,0.00371508053277558,-0.005140243291117773,0.003570950999102101,0.9927561209139214
2016-08-01,1,0.0030721842032514508,0.003409841911701012,-0.004117691251017348,0.005429409808681941,0.9930163973128191
2016-08-03,1,0.0017867770224827403,0.0019780666585697475,-0.004117691251017348,0.003570950999102101,0.9895168115635791
2016-08-05,1,0.0019119822877139716,0.0021133886927465605,-0.004117691251017348,0.002663979391190655,0.9893517519666224
2016-08-09,1,0.0015436156315436643,0.0016943216813018096,-0.0038997457380539943,0.003570950999102101,0.9896059343963636
2016-08-11,1,0.0015612689180547856,0.0016836072896705052,-0.006782381827213505,0.0025912671554725038,0.9885864953480925
2016-08-15,1,0.0012661284718196411,0.001330183273675682,-0.008088633323704401,0.0030223736198273566,0.9876598221590659
2016-08-17,1,0.0015348731572964163,0.001635986913346967,-0.008088633323704401,0.002384336450183398,0.9884191877349338
2016-08-19,1,0.0016477461852026994,0.00178401966428214,-0.008088633323704401,0.0013380628010606832,0.98831710077746
2016-08-23,1,0.001653106494580905,0.001814607761291586,-0.007583265256258475,0.00134608666068208,0.9883963642900915
2016-08-25,1,0.0008377239522445322,0.0008533830784166875,-0.005793665553133507,0.0011521258186468408,0.9894052713867452
2016-08-29,1,0.0008375050109003144,0.0008445695404134769,-0.006609986780394268,0.00041775556183228443,0.9891341452947663
2016-08-31,-1,-0.0015900246064992276,-0.001318667131953412,-0.005792352545021086,0.00041775556183228443,0.9945685886145472
2016-09-02,-1,-0.0016877116679055544,-0.0014107620295947727,-0.005792352545021086,0.0016851883283668376,0.9941339844865968
2016-09-07,-1,-0.001524308112483079,-0.0012842888654040355,-0.005448892754988855,0.00041775556183228443,0.9944432364927012
2016-09-09,-1,-0.0021289091917578804,-0.0018313846222614413,-0.00427485251359936,0.0018444073288494183,0.9954212816793538
2016-09-13,-1,-0.002926628486076415,-0.0024744832274207103,-0.00427485251359936,0.0017863357235077262,0.99608262612689
2016-09-15,-1,-0.002734613281871406,-0.0023237778727241832,-0.00427485251359936,0.00404922019343091,0.9955627049960739
2016-09-19,-1,-0.0031045616387517733,-0.002639554137038207,-0.0035212313939070707,0.004302740774073884,0.9949200470413602
2016-09-21,-1,-0.0024479139995801013,-0.00209126561702757,-0.004621386314901322,0.00404922019343091,0.995414110105826
2016-09-23,-1,-0.002617625476336546,-0.002238200375401108,-0.005196367225474064,0.00404922019343091,0.9950779758353004
2016-09-27,-1,-0.0030953447184830793,-0.002647164747867796,-0.004098373317481364,0.004302740774073884,0.9948442605735618
2016-09-29,-1,-0.0030085022940225846,-0.0025785059423152033,-0.004098373317481364,0.00404922019343091,0.99483331515366
2016-10-03,-1,-0.0029142408257417287,-0.002489762832677103,-0.004098373317481364,0.00404922019343091,0.9916727819407671
2016-10-05,-1,-0.0030666319462310477,-0.0026276780480651513,-0.004480472318647364,0.00404922019343091,0.9915490735165253
2016-10-07,-1,-0.0031852854863035646,-0.002709267453795429,-0.005663812843374338,0.003659335857613873,0.9915022535063232
2016-10-11,-1,-0.0033569028143074667,-0.002860167613276342,-0.00477362523671219,0.00402579637055168,0.9911859497055003
2016-10-13,-1,-0.003080519419208053,-0.0026154471111074166,-0.006680713677574015,0.0032982392989417625,0.9904053110635671
2016-10-17,-1,-0.002711723808800765,-0.002297851384259997,-0.006680713677574015,0.002779512514860414,0.9901044553935483
2016-10-19,-1,-0.0028304584651967037,-0.0024198700779720695,-0.005663812843374338,0.002779512514860414,0.9899554438436906
2016-10-21,-1,-0.0028278279856253264,-0.0024235453550083756,-0.006202231155584045,0.0024793717052880603,0.9901097838421989
2016-10-25,-1,-0.002593063616271687,-0.002223761985550102,-0.006680713677574015,0.001816963357144197,0.9902605469757422
2016-10-27,-1,-0.0027158579387645365,-0.0023285256564380685,-0.0062266850360516955,0.001816963357144197,0.990190344234476
2016-10-31,-1,-0.00017860191358434966,-0.00013210655305862182,-0.0062266850360516955,0.001816963357144197,0.993309076705646
2016-11-02,-1,-0.0004936771381236248,-0.00039923631888574146,-0.00686910263836017,0.001816963357144197,0.9927628970028182
2016-11-04,-1,-0.000918231348432936,-0.0007798982116285875,-0.005810697546652496,0.003689676375220382,0.9927592808361859
2016-11-08,-1,-0.00042958864170567905,-0.0003621642755233068,-0.005810697546652496,0.005932284631487501,0.9930471059019201
2016-11-10,-1,-0.0014203502039467249,-0.001242171143346397,-0.004226537419251542,0.00629767999385406,0.9934443019510959
2016-11-14,-1,-0.0009977357777887037,-0.0008650494220730671,-0.004226537419251542,0.00629767999385406,0.9939780016940507
2016-11-16,-1,-0.0008592581582062444,-0.0007445467980090451,-0.005810697546652496,0.006902268189793145,0.9934690951606396
2016-11-18,-1,-0.0010683326027307231,-0.0009286265224048138,-0.004226537419251542,0.006902268189793145,0.9932610155019833
2016-11-22,1,3.848707143027513e-05,0.00012060015462100269,-0.0024891497087914305,0.007394555801203386,0.9930795018269069
2016-11-25,-1,-0.00011862905285619679,-7.8000989663733e-05,-0.0024891497087914305,0.008059301993102463,0.9925692217138412
2016-11-29,1,0.00011561017370294863,0.00020266355460541293,-0.004359393152945078,0.008059301993102463,0.9924857984774281
2016-12-01,-1,-0.0003050033680869297,-0.00029023459508879345,-0.0029041341880476856,0.008184866125095669,0.9925518721515332
2016-12-05,0,-3.543430447936082e-05,1.0649292369666914e-05,-0.0029041341880476856,0.007394555801203386,0.993170413036183
2016-12-07,1,0.00031824978705161626,0.00042239481582508103,-0.005604346590713843,0.008017880613180815,0.9931290755686151
2016-12-09,1,0.0005199760328407359,0.0006498143064697899,-0.005521950568174259,0.008017880613180815,0.9937562088121857
2016-12-13,1,0.0007054823842841088,0.0008681040379009566,-0.005521950568174259,0.007436410511867788,0.994144532442704
2016-12-15,1,0.0006776966223524736,0.0008339925267786584,-0.0032757437548268475,0.006129011624331341,0.994767350470534
2016-12-19,1,0.000953870232311332,0.001163086244853606,-0.004398811522228068,0.006129011624331341,0.9947537914285338
2016-12-21,1,0.0011909341233402183,0.001427542958128125,-0.004398811522228068,0.004607424119383517,0.9952451790203417
2016-12-23,1,0.0012293830974967048,0.0014672264000179563,-0.002946977655839526,0.004607424119383517,0.9955722077164304
2016-12-28,1,0.0012628596817736946,0.0015153011460166239,-0.002946977655839526,0.004607424119383517,0.9954751073407716
2016-12-30,1,0.001215120434757969,0.0014501108549408901,-0.002946977655839526,0.003996268057712597,0.9957411358776428
2017-01-04,1,0.0014336594201825588,0.001711086794604701,-0.003506359867734568,0.00397300516125278,0.9955500784789725
2017-01-06,1,0.0015545162833630033,0.001850461639091585,-0.0027590824706707996,0.004132339106630791,0.99568283443739
2017-01-10,1,0.0017073103258201884,0.0020356067663969517,-0.0025612901580298955,0.0038601116676596527,0.9960361783344331
2017-01-12,1,0.0017380781769276042,0.0020737542037486,-0.0027477508953282427,0.004132339106630791,0.9955496698174051
2017-01-17,1,0.0018015788745057136,0.002142609910565311,-0.0027477508953282427,0.00449428248386999,0.995404520239114
2017-01-19,1,0.0016447994956931826,0.0019473688360014466,-0.0027477508953282427,0.004302220902595969,0.9950959477756043
2017-01-23,1,0.0019278434463390762,0.0022849255138786646,-0.003417788410226999,0.004723819240904333,0.9946330896352491
2017-01-25,1,0.0023955809443430764,0.002720239756042458,-0.0038293806666111554,0.004723819240904333,0.9946845331113772
2017-01-27,1,0.0019868576516948295,0.0022431685583172555,-0.0038293806666111554,0.004723819240904333,0.9946582831237909
2017-01-31,1,0.0018801988736993755,0.0021166582658115477,-0.003417788410226999,0.005732795187459535,0.9945073025148289
2017-02-02,1,0.001322986156207527,0.001423167870917969,-0.0038635025574052656,0.005732795187459535,0.9942901674675187
2017-02-06,1,0.0017713243969632877,0.0019225654018276703,-0.004184396637116525,0.005197053206143776,0.9945657602209852
2017-02-08,1,0.0015280137839042806,0.0016422128229616982,-0.004184396637116525,0.005732795187459535,0.9945612602290594
2017-02-10,1,0.001509810907100844,0.0016039983292226684,-0.003984882527548507,0.005197053206143776,0.9948441033965669
2017-02-14,1,0.0017648241301724777,0.0019072767029899372,-0.003984882527548507,0.005447630192216498,0.9946201870629772
2017-02-16,1,0.0013343361145530253,0.001404158847988041,-0.003984882527548507,0.005447630192216498,0.9950726617496517
2017-02-21,1,0.001253877443855312,0.0012829640045384045,-0.004158227795225623,0.004188108172040507,0.995278130682339
2017-02-23,1,0.0011521198387710735,0.001161501495474203,-0.003984882527548507,0.002696594320217853,0.9957024213289113
2017-02-27,1,0.0008945879471806842,0.0009073775595704027,-0.0028340273941594753,0.002915665594343474,0.9961863030333772
2017-03-01,1,0.001127052827796093,0.0011312816713176588,-0.0028340273941594753,0.002915665594343474,0.9962537044406587
2017-03-03,1,0.000813991811505673,0.0008499505668599778,-0.0025666015429485468,0.0033813273170126674,0.9962670070068808
2017-03-07,1,0.0003383894049675797,0.00044484162349241955,-0.0032484514397619424,0.0033813273170126674,0.9961888310024145
2017-03-09,1,0.0008222112252694827,0.0008568860323290449,-0.0032484514397619424,0.002748281979966297,0.9961794193066982
2017-03-13,1,0.0006947046404313144,0.0007285980870168746,-0.0033159728150321858,0.0034640516341503,0.9957403015176436
2017-03-15,1,0.0004955026042493411,0.0005780673117715361,-0.0033159728150321858,0.0034640516341503,0.9959364697769895
2017-03-17,1,0.00016902925409502883,0.0002992085832070201,-0.003481945179402496,0.00431604962628628,0.995635747418332
2017-03-21,-1,-0.00019477138067577947,-2.5394963338624347e-05,-0.003481945179402496,0.004935310514848903,0.9953227761362113
2017-03-23,-1,-0.00041797564514256514,-0.00021090349086723924,-0.005268834851762647,0.004935310514848903,0.9947587216930909
2017-03-27,1,0.0011660097349853835,0.0012821200100828118,-0.005268834851762647,0.005884396203281066,0.9945390450571602
2017-03-29,1,0.0014220152590391885,0.0015553826757380073,-0.006776469919395476,0.004935310514848903,0.994372830363972
2017-03-31,1,0.0008635266571141952,0.0008777008372315021,-0.007703689834079235,0.005884396203281066,0.9940117843794528
2017-04-04,1,0.0007157970037753104,0.0007347358483074037,-0.007703689834079235,0.005884396203281066,0.9942793823655348
2017-04-06,0,-0.00014840337468698085,1.5456800718362013e-05,-0.007703689834079235,0.00526377930118989,0.994404327057593
2017-04-10,0,-9.005586197733154e-05,3.5512185504036416e-05,-0.006053831178599569,0.00473056181450793,0.9947045819420776
2017-04-12,1,0.00015387818845519528,0.00024716525332822405,-0.006053831178599569,0.003042881837855358,0.9948707820309922
2017-04-17,-1,-0.00026985476312801194,-0.0001100997413111127,-0.005213942672712811,0.004924987318252407,0.9949123141732583
2017-04-19,-1,-0.0006503651891769898,-0.0004219767903144003,-0.005213942672712811,0.004924987318252407,0.9946300369989372
2017-04-21,-1,-0.0012987658424577346,-0.0009849863151590505,-0.0035202137059420617,0.0073728139708969884,0.9937003360950717
2017-04-25,-1,-0.0009166395076414432,-0.0006512265438672878,-0.0035202137059420617,0.007112313886403998,0.9937743371341186
2017-04-27,-1,-0.002001418772792543,-0.0015626888512889159,-0.0013098964969482899,0.007804089952635235,0.9927227638766287
2017-05-01,-1,-0.0018535531452371604,-0.0014619567717350985,-0.0013098964969482899,0.007540475204978255,0.9932011727252207
2017-05-03,-1,-0.0017645792365351162,-0.0014067079688804519,-0.0011036845284392964,0.007540475204978255,0.9930335856738907
2017-05-05,-1,-0.0012290050908767376,-0.000956406015330423,-0.002571703852529131,0.007540475204978255,0.9935206878242738
2017-05-09,-1,-0.0016110939053919394,-0.0013040589322766893,-0.00018755088558719833,0.007540475204978255,0.9935751554850412
2017-05-11,-1,-0.0016756004602283597,-0.0013554711127892933,-0.0005410318716777014,0.007540475204978255,0.992973582828154
2017-05-15,-1,-0.0010641995258076015,-0.0008267791897214848,-0.002543982699120851,0.007367846703037591,0.9934804157578959
2017-05-17,-1,-0.0003279359681644544,-0.00021116989905572666,-0.0005410318716777014,0.00599143671185982,0.9943851528195935
2017-05-19,1,0.0009123284083145959,0.0009488059220788714,-0.002543982699120851,0.004921005596732046,0.9946064721700943
2017-05-23,1,0.0011096331817421496,0.001157901950862642,-0.003711269489759268,0.004405537647510952,0.99459798503444
2017-05-25,1,0.0018002374303443557,0.001940009084766207,-0.004493078617407503,0.0024345840895499456,0.994314358514357
2017-05-30,1,0.0018714521482815375,0.002031476752370159,-0.006347849977162343,0.0024345840895499456,0.993595891565964
2017-06-01,1,0.0019806717915605994,0.002156506498182247,-0.007170916249029177,0.0016433282502786005,0.9929586464324682
2017-06-05,1,0.0018043120693730231,0.001958328877570136,-0.007452002887014687,0.0024345840895499456,0.9927404612485357
2017-06-07,1,0.001664605342855853,0.0017921923715343486,-0.007452002887014687,0.0024345840895499456,0.9926817739495046
2017-06-09,1,0.0011556061918559252,0.0012230496325072752,-0.007318083796504477,0.002232739780497575,0.9928381836436505
2017-06-13,1,0.0011393892612794154,0.0012018367728248696,-0.008720754523733087,0.002232739780497575,0.9924977325049462
2017-06-15,1,0.0012838704522459912,0.001363315786576137,-0.008720754523733087,0.0018973048205870168,0.9922704517000512
2017-06-19,1,0.0005181724797501863,0.0005192245375022705,-0.0072665076239847625,0.0019166330053587452,0.9935237083499474
2017-06-21,0,-5.260852025806601e-05,3.397168793008038e-05,-0.0072665076239847625,0.00248657560717239,0.9939124974553702
2017-06-23,-1,-0.0008585830971587922,-0.0006742492163799136,-0.0072665076239847625,0.00248657560717239,0.9942166312148937
2017-06-27,-1,-0.001563583635850228,-0.0012975182277739506,-0.0072665076239847625,0.0030148207805815227,0.9937452155957598
2017-06-29,-1,-0.001669832089447851,-0.0014311219415938598,-0.005364094356182103,0.004782218699757591,0.9939050903158222
2017-07-03,-1,-0.0017600712624194648,-0.0015026543895496174,-0.00545563163365622,0.0034827643346472432,0.9940766472306657
2017-07-06,-1,-0.0016638932422478282,-0.0014307774622800643,-0.00545563163365622,0.0034827643346472432,0.9941760350798228
2017-07-10,-1,-0.0020616551505466293,-0.0017963725548782814,-0.004433241978969594,0.004782218699757591,0.9939085045993679
2017-07-12,-1,-0.0021381990236373975,-0.0018539754746960836,-0.004123951889525858,0.0034827643346472432,0.9943638504406708
2017-07-14,-1,-0.0017097965215910256,-0.0014911628144455694,-0.004123951889525858,0.0022236930115063576,0.9947756883336921
2017-07-18,-1,-0.0014817142081832132,-0.0012935943407555077,-0.00397876832913362,0.0022236930115063576,0.9949217750455375
2017-07-20,-1,-0.00150950038412749,-0.0013030152740089445,-0.00397876832913362,0.0034827643346472432,0.9941948631588904
2017-07-24,-1,-0.001477537264922047,-0.0013055222632287514,-0.003859496483272042,0.0034827643346472432,0.994385127177792
2017-07-26,-1,-0.0013189910678963008,-0.001152911890242856,-0.0031196006634467174,0.002693708962851166,0.9958980366620431
2017-07-28,-1,-0.0013419820917989276,-0.0011652591456948226,-0.0037409092913666033,0.0016992729396947243,0.9953589359599103
2017-08-01,-1,-0.0011978054378316315,-0.00106032037647233,-0.0037409092913666033,0.0016992729396947243,0.9953443141227676
2017-08-03,-1,-0.0013404077047811653,-0.001175858796564589,-0.004833058946114586,0.0030112864131109926,0.9948947163453042
2017-08-07,-1,-0.0011287878358037782,-0.0010004467379091395,-0.004833058946114586,0.0030112864131109926,0.9948359891808892
2017-08-09,-1,-0.0012902908686422375,-0.0011395709314363815,-0.0037409092913666033,0.005240474321868173,0.9935456341707835
